assets/lut/abigailgonzalez cinematic for flog.cube
# Created by: G'MIC (https://gmic.eu)
TITLE "cinematic_for_flog"
# LUT size
LUT_3D_SIZE 5
# Data domain
DOMAIN_MIN 0.0 0.0 0.0
DOMAIN_MAX 1.0 1.0 1.0
# LUT data points
0.0051976819522678852 0.0037640142254531384 0.027001893147826195
0.22796379029750824 0.013539677485823631 0.013726522214710712
0.52032911777496338 0.071621820330619812 0.013310735113918781
0.73214441537857056 0.11446382105350494 0.014393765479326248
0.8662300705909729 0.14228880405426025 0.010812317952513695
0.0028580161742866039 0.10414977371692657 0.054616563022136688
0.15509364008903503 0.11202117055654526 0.033866941928863525
0.5275917649269104 0.16166684031486511 0.009843459352850914
0.76089894771575928 0.20603689551353455 0.013025261461734772
0.88283604383468628 0.23201118409633636 0.0097756478935480118
0.015438484027981758 0.33994659781455994 0.12830321490764618
0.10966240614652634 0.3546757698059082 0.13370351493358612
0.52820718288421631 0.39077872037887573 0.065041050314903259
0.79512554407119751 0.43433579802513123 0.03811289370059967
0.9062424898147583 0.45322775840759277 0.04680035263299942
0.059497639536857605 0.596718430519104 0.20375914871692657
0.15115118026733398 0.6094365119934082 0.21020743250846863
0.56161952018737793 0.70518118143081665 0.2043963223695755
0.8268018364906311 0.66023552417755127 0.12569771707057953
0.93238735198974609 0.67299586534500122 0.11681823432445526
0.081062391400337219 0.74679434299468994 0.23878218233585358
0.17313727736473083 0.75013858079910278 0.23340420424938202
0.5164828896522522 0.82379394769668579 0.23495055735111237
0.82057672739028931 0.8347504734992981 0.19254106283187866
0.93673586845397949 0.79845279455184937 0.1609511524438858
0.0048094354569911957 0.017535429447889328 0.16081386804580688
0.23348638415336609 0.017264677211642265 0.13564057648181915
0.53040939569473267 0.054399691522121429 0.10302961617708206
0.71412104368209839 0.081067673861980438 0.094887450337409973
0.85222321748733521 0.1388489156961441 0.10231149941682816
0.0049902074970304966 0.137720987200737 0.18909952044487
0.13266077637672424 0.13373598456382751 0.16120272874832153
0.54303216934204102 0.17960499227046967 0.098271973431110382
0.76539868116378784 0.20702758431434631 0.073563084006309509
0.88297289609909058 0.25942879915237427 0.086639717221260071
0.024473406374454498 0.37812045216560364 0.24827249348163605
0.085274487733840942 0.38172948360443115 0.23254473507404327
0.54676777124404907 0.41524609923362732 0.13760294020175934
0.82189667224884033 0.42894876003265381 0.094785921275615692
0.9102824330329895 0.4267372190952301 0.10014285147190094
0.067965775728225708 0.6197846531867981 0.30182358622550964
0.13280230760574341 0.63734418153762817 0.28622269630432129
0.52293753623962402 0.72586703300476074 0.28312599658966064
0.85793799161911011 0.69796848297119141 0.19386272132396698
0.9416663646697998 0.69131654500961304 0.19201050698757172
0.083579227328300476 0.75404554605484009 0.31995633244514465
0.17359942197799683 0.76160776615142822 0.31409603357315063
0.48845154047012329 0.81740438938140869 0.312063068151474
0.81703877449035645 0.85140728950500488 0.2663479745388031
0.94530516862869263 0.8075106143951416 0.22444741427898407
0.0095159793272614479 0.12276093661785126 0.38206326961517334
0.14243105053901672 0.027377154678106308 0.31494331359863281
0.52126610279083252 0.070520155131816864 0.29877597093582153
0.73015111684799194 0.080666728317737579 0.27721378207206726
0.84094119071960449 0.11729621142148972 0.27404168248176575
0.015276710502803326 0.25188028812408447 0.4127897322177887
0.082228899002075195 0.21082225441932678 0.39894777536392212
0.50924050807952881 0.1674959659576416 0.30988419055938721
0.75159013271331787 0.17018607258796692 0.26511642336845398
0.85136669874191284 0.21703004837036133 0.24644516408443451
0.034401688724756241 0.41736277937889099 0.4513506293296814
0.10317743569612503 0.43736380338668823 0.4653359055519104
0.4132036566734314 0.43633487820625305 0.40733164548873901
0.79046320915222168 0.45160362124443054 0.30579930543899536
0.90305233001708984 0.46948531270027161 0.28920859098434448
0.080270804464817047 0.65364271402359009 0.50244605541229248
0.13067956268787384 0.67722690105438232 0.49563854932785034
0.36296781897544861 0.69998323917388916 0.48124176263809204
0.84991759061813354 0.73363697528839111 0.37609702348709106
0.94728845357894897 0.72536516189575195 0.36890813708305359
0.094139784574508667 0.78094792366027832 0.51214444637298584
0.15263326466083527 0.78714096546173096 0.50033706426620483
0.39314928650856018 0.81366389989852905 0.50770938396453857
0.78918707370758057 0.87354230880737305 0.45226976275444031
0.94759076833724976 0.84196072816848755 0.38128164410591125
0.026693530380725861 0.19017826020717621 0.56016647815704346
0.15052087604999542 0.068609051406383514 0.48226851224899292
0.42416974902153015 0.071072220802307129 0.45301136374473572
0.72256892919540405 0.12036126852035522 0.45180878043174744
0.85569459199905396 0.15466775000095367 0.45082852244377136
0.030551446601748466 0.33558207750320435 0.5962335467338562
0.089755967259407043 0.27035605907440186 0.58471846580505371
0.38585746288299561 0.14332294464111328 0.47783616185188293
0.76277792453765869 0.21010059118270874 0.47414109110832214
0.87185490131378174 0.25105035305023193 0.45300394296646118
0.047977492213249207 0.47365489602088928 0.62543261051177979
0.10719640552997589 0.49392655491828918 0.65220195055007935
0.27678689360618591 0.46082666516304016 0.62821698188781738
0.77302151918411255 0.41989144682884216 0.49097388982772827
0.88656735420227051 0.4440995454788208 0.47145980596542358
0.089521758258342743 0.66889303922653198 0.68302911520004272
0.16061852872371674 0.69789832830429077 0.70709329843521118
0.28579485416412354 0.71575284004211426 0.71675652265548706
0.76087963581085205 0.77999186515808105 0.67868715524673462
0.93887907266616821 0.77148294448852539 0.62721496820449829
0.10253366082906723 0.80978816747665405 0.70858669281005859
0.15961213409900665 0.82472902536392212 0.71482890844345093
0.28196880221366882 0.8223685622215271 0.70094972848892212
0.70484769344329834 0.88646763563156128 0.67548054456710815
0.94913244247436523 0.90254276990890503 0.6378214955329895
0.03143475204706192 0.24799366295337677 0.6787116527557373
0.1537717878818512 0.10070168226957321 0.5932997465133667
0.41028106212615967 0.080677136778831482 0.5518304705619812
0.70206975936889648 0.13074792921543121 0.55606424808502197
0.85882401466369629 0.16607826948165894 0.55946409702301025
0.038671664893627167 0.37663927674293518 0.70789402723312378
0.10236626118421555 0.33258688449859619 0.69723695516586304
0.35118761658668518 0.19234463572502136 0.59105056524276733
0.6985095739364624 0.21974265575408936 0.56230431795120239
0.87513798475265503 0.26296010613441467 0.5608479380607605
0.057461980730295181 0.51774120330810547 0.73614037036895752
0.1243879571557045 0.52052712440490723 0.74071741104125977
0.27773061394691467 0.4761522114276886 0.71602934598922729
0.69517678022384644 0.41134703159332275 0.59612047672271729
0.89392036199569702 0.45727720856666565 0.58547878265380859
0.078121960163116455 0.66477733850479126 0.77866894006729126
0.16227304935455322 0.6732218861579895 0.78130000829696655
0.26618149876594543 0.70046013593673706 0.80552148818969727
0.68158066272735596 0.75178933143615723 0.78584140539169312
0.93410718441009521 0.7644469141960144 0.73473471403121948
0.085557036101818085 0.81077718734741211 0.8158150315284729
0.17123496532440186 0.81455624103546143 0.81649357080459595
0.27682170271873474 0.82956898212432861 0.82903546094894409
0.50925052165985107 0.86727213859558105 0.84861236810684204
0.93024206161499023 0.94511032104492188 0.81670010089874268
