assets/lut/abigailgonzalez cinema noir.cube
# Created by: G'MIC (https://gmic.eu)
TITLE "cinema_noir"
# LUT size
LUT_3D_SIZE 7
# Data domain
DOMAIN_MIN 0.0 0.0 0.0
DOMAIN_MAX 1.0 1.0 1.0
# LUT data points
0.049899470061063766 0.049899470061063766 0.049899470061063766
0.15537327527999878 0.15537327527999878 0.15537327527999878
0.32650050520896912 0.32650050520896912 0.32650050520896912
0.49336391687393188 0.49460932612419128 0.49334874749183655
0.64161652326583862 0.64218837022781372 0.64001351594924927
0.72330594062805176 0.72330594062805176 0.72307854890823364
0.78227698802947998 0.78227698802947998 0.78227698802947998
0.073628462851047516 0.073628462851047516 0.073628462851047516
0.15398064255714417 0.15398064255714417 0.15398064255714417
0.2992306649684906 0.29924622178077698 0.2992306649684906
0.45770761370658875 0.45892393589019775 0.45767471194267273
0.61280012130737305 0.61489051580429077 0.61280012130737305
0.71923238039016724 0.71926271915435791 0.71919441223144531
0.77497446537017822 0.77497446537017822 0.77497446537017822
0.11029845476150513 0.11044275760650635 0.11029845476150513
0.17452016472816467 0.17455615103244781 0.17452016472816467
0.28703805804252625 0.28710123896598816 0.28703805804252625
0.43876534700393677 0.43914538621902466 0.43876534700393677
0.60022497177124023 0.6002616286277771 0.60022497177124023
0.71336281299591064 0.71339315176010132 0.71336281299591064
0.78751951456069946 0.78751951456069946 0.78751951456069946
0.1365533173084259 0.13804522156715393 0.1365533173084259
0.19016289710998535 0.19032217562198639 0.19016289710998535
0.27383929491043091 0.27386263012886047 0.27383929491043091
0.41706985235214233 0.4171237051486969 0.41706985235214233
0.57921439409255981 0.57921439409255981 0.57921439409255981
0.71329164505004883 0.71333193778991699 0.71329164505004883
0.79644793272018433 0.79783397912979126 0.79644793272018433
0.17257125675678253 0.17348392307758331 0.17257125675678253
0.21445955336093903 0.21520479023456573 0.21445955336093903
0.28366029262542725 0.28366029262542725 0.28366029262542725
0.40576475858688354 0.40576475858688354 0.40576475858688354
0.56831562519073486 0.56831562519073486 0.56831562519073486
0.71597975492477417 0.71748131513595581 0.71597975492477417
0.80052131414413452 0.80090343952178955 0.80052131414413452
0.20896041393280029 0.20898701250553131 0.20896041393280029
0.23467470705509186 0.23477077484130859 0.23467470705509186
0.30189439654350281 0.30203187465667725 0.30189439654350281
0.42736327648162842 0.42830368876457214 0.42736327648162842
0.5818251371383667 0.5818781852722168 0.5818251371383667
0.71472907066345215 0.71490782499313354 0.71472907066345215
0.8115430474281311 0.8115430474281311 0.8115430474281311
0.25021865963935852 0.25034508109092712 0.25021865963935852
0.2593778669834137 0.25947374105453491 0.2593778669834137
0.30146574974060059 0.30152520537376404 0.30146574974060059
0.41408944129943848 0.41419589519500732 0.41408944129943848
0.53732097148895264 0.53735381364822388 0.53732097148895264
0.68094050884246826 0.68094050884246826 0.68094050884246826
0.81815910339355469 0.81815910339355469 0.81815910339355469
0.076660901308059692 0.076660901308059692 0.076660901308059692
0.18320171535015106 0.18320171535015106 0.18320171535015106
0.33295133709907532 0.33295133709907532 0.33295133709907532
0.48534497618675232 0.48566505312919617 0.48531463742256165
0.62125217914581299 0.62134182453155518 0.6209176778793335
0.72634172439575195 0.72634172439575195 0.72624927759170532
0.78920567035675049 0.78920567035675049 0.78920567035675049
0.10806415230035782 0.10806415230035782 0.10806415230035782
0.17121976613998413 0.17121976613998413 0.17121976613998413
0.30477991700172424 0.30477991700172424 0.30477991700172424
0.45451155304908752 0.45467293262481689 0.45451155304908752
0.60554307699203491 0.60586428642272949 0.60554307699203491
0.71508091688156128 0.71508479118347168 0.71508091688156128
0.76986849308013916 0.76986849308013916 0.76986849308013916
0.11933103203773499 0.11933103203773499 0.11933103203773499
0.18264733254909515 0.18264733254909515 0.18264733254909515
0.2815156877040863 0.2815156877040863 0.2815156877040863
0.4265882670879364 0.42660459876060486 0.4265882670879364
0.59130120277404785 0.59131735563278198 0.59130120277404785
0.71162813901901245 0.71165341138839722 0.71162813901901245
0.77023345232009888 0.77030092477798462 0.77023345232009888
0.14268501102924347 0.14268501102924347 0.14268501102924347
0.19756379723548889 0.19756379723548889 0.19756379723548889
0.28102147579193115 0.28102147579193115 0.28102147579193115
0.42047858238220215 0.42047858238220215 0.42047858238220215
0.58076661825180054 0.58076661825180054 0.58076661825180054
0.71226388216018677 0.71226894855499268 0.71226388216018677
0.78303450345993042 0.78304970264434814 0.78303450345993042
0.17380630970001221 0.17391657829284668 0.17380630970001221
0.21441835165023804 0.21445180475711823 0.21441835165023804
0.29222452640533447 0.29222452640533447 0.29222452640533447
0.41929465532302856 0.41930398344993591 0.41929465532302856
0.575633704662323 0.575633704662323 0.575633704662323
0.7144966721534729 0.71455115079879761 0.71449357271194458
0.78880804777145386 0.78891515731811523 0.78880304098129272
0.2111574113368988 0.21189621090888977 0.2111574113368988
0.23426759243011475 0.23429852724075317 0.23426759243011475
0.30167469382286072 0.30177697539329529 0.30167469382286072
0.42228323221206665 0.42340555787086487 0.42228323221206665
0.58213704824447632 0.5822027325630188 0.58213704824447632
0.7100258469581604 0.71018654108047485 0.7100258469581604
0.80899369716644287 0.80938589572906494 0.80899369716644287
0.24832251667976379 0.25039499998092651 0.24832251667976379
0.26068639755249023 0.26080796122550964 0.26068639755249023
0.30674946308135986 0.30691379308700562 0.30674946308135986
0.38247686624526978 0.38257971405982971 0.38247686624526978
0.54171836376190186 0.54175180196762085 0.54171836376190186
0.69159930944442749 0.69163721799850464 0.69159930944442749
0.82734435796737671 0.82902026176452637 0.82734435796737671
0.12240235507488251 0.12240235507488251 0.12240235507488251
0.19780062139034271 0.19780062139034271 0.19780062139034271
0.34070572257041931 0.34070572257041931 0.34070572257041931
0.4798676073551178 0.4798676073551178 0.4798676073551178
0.62155193090438843 0.62164795398712158 0.62155193090438843
0.71988898515701294 0.71988898515701294 0.71988898515701294
0.78440397977828979 0.78440397977828979 0.78440397977828979
0.13392153382301331 0.13392153382301331 0.13392153382301331
0.1896287202835083 0.1896287202835083 0.1896287202835083
0.31149554252624512 0.31151577830314636 0.31149554252624512
0.45568352937698364 0.45573875308036804 0.45568352937698364
0.602303147315979 0.602303147315979 0.602303147315979
0.71114623546600342 0.71115565299987793 0.71114623546600342
0.7833746075630188 0.7833746075630188 0.7833746075630188
0.14445038139820099 0.14445038139820099 0.14445038139820099
0.19906812906265259 0.19906812906265259 0.19906812906265259
0.30410203337669373 0.30411216616630554 0.30410203337669373
0.43647468090057373 0.43647468090057373 0.43647468090057373
0.58978408575057983 0.58978408575057983 0.58978408575057983
0.71099406480789185 0.71099406480789185 0.71099406480789185
0.78426092863082886 0.78471052646636963 0.78426092863082886
0.16135008633136749 0.16135008633136749 0.16135008633136749
0.21031500399112701 0.21031500399112701 0.21031500399112701
0.30446937680244446 0.30447950959205627 0.30447950959205627
0.42310905456542969 0.42310905456542969 0.42310905456542969
0.58138775825500488 0.58138775825500488 0.58133971691131592
0.70562911033630371 0.70569527149200439 0.70535707473754883
0.78645557165145874 0.78829658031463623 0.78644049167633057
0.18632221221923828 0.18632221221923828 0.18632221221923828
0.2239149808883667 0.2239149808883667 0.2239149808883667
0.30559596419334412 0.30561619997024536 0.30561619997024536
0.42260769009590149 0.42260769009590149 0.42260769009590149
0.58099693059921265 0.58101719617843628 0.58078867197036743
0.71128690242767334 0.71136993169784546 0.71121823787689209
0.7936132550239563 0.79392051696777344 0.79360002279281616
0.21935251355171204 0.21945469081401825 0.21935251355171204
0.23464633524417877 0.23464633524417877 0.23464633524417877
0.30747836828231812 0.30751121044158936 0.30747836828231812
0.42688634991645813 0.42693734169006348 0.42688634991645813
0.57802337408065796 0.57829385995864868 0.57799053192138672
0.71211177110671997 0.71229082345962524 0.71211177110671997
0.80217856168746948 0.80455595254898071 0.80217856168746948
0.25305259227752686 0.25457638502120972 0.25305259227752686
0.26131525635719299 0.26145103573799133 0.26131525635719299
0.30258077383041382 0.30262377858161926 0.30258077383041382
0.37228679656982422 0.37232902646064758 0.37228679656982422
0.52795112133026123 0.52813899517059326 0.52795112133026123
0.69288182258605957 0.69334453344345093 0.69288182258605957
0.81841200590133667 0.82017076015472412 0.81841200590133667
0.15178628265857697 0.15178628265857697 0.15178628265857697
0.22833415865898132 0.22833415865898132 0.22833415865898132
0.3325304388999939 0.33256331086158752 0.3325304388999939
0.47218194603919983 0.47216424345970154 0.47218194603919983
0.61277925968170166 0.61426591873168945 0.61277925968170166
0.71701622009277344 0.71783971786499023 0.71701622009277344
0.78699541091918945 0.78699541091918945 0.78699541091918945
0.16153661906719208 0.16153661906719208 0.16153661906719208
0.21240654587745667 0.21240654587745667 0.21240654587745667
0.3139776885509491 0.31401053071022034 0.3139776885509491
0.449870765209198 0.44987583160400391 0.449870765209198
0.59707379341125488 0.59714740514755249 0.59707379341125488
0.71152019500732422 0.71167892217636108 0.71152019500732422
0.78424572944641113 0.78426909446716309 0.78424572944641113
0.16824603080749512 0.16824603080749512 0.16824603080749512
0.22350269556045532 0.22350269556045532 0.22350269556045532
0.31730285286903381 0.31730285286903381 0.31730285286903381
0.44397175312042236 0.44397175312042236 0.44397175312042236
0.59087938070297241 0.59089457988739014 0.59087938070297241
0.70965790748596191 0.70967036485671997 0.70965790748596191
0.78685683012008667 0.78723704814910889 0.78685683012008667
0.18835663795471191 0.18835663795471191 0.18835663795471191
0.23385767638683319 0.23385767638683319 0.23385767638683319
0.31304609775543213 0.31305307149887085 0.31304609775543213
0.42585647106170654 0.42585647106170654 0.42587417364120483
0.58178162574768066 0.58180612325668335 0.58123302459716797
0.7074209451675415 0.70771676301956177 0.70683163404464722
0.78885751962661743 0.79047590494155884 0.78882724046707153
0.21200335025787354 0.21200335025787354 0.21200335025787354
0.23590479791164398 0.23590479791164398 0.23590479791164398
0.31991755962371826 0.31991755962371826 0.31991755962371826
0.42538544535636902 0.4254334568977356 0.42538544535636902
0.57703185081481934 0.57704198360443115 0.57632613182067871
0.71397334337234497 0.71407163143157959 0.71341061592102051
0.79973548650741577 0.80002403259277344 0.79973548650741577
0.24200505018234253 0.24200505018234253 0.24200505018234253
0.24998272955417633 0.24998272955417633 0.24998272955417633
0.32694554328918457 0.32699862122535706 0.32694554328918457
0.43346801400184631 0.43358570337295532 0.43346801400184631
0.57857716083526611 0.58098900318145752 0.57857716083526611
0.71393293142318726 0.71433359384536743 0.71393293142318726
0.80660092830657959 0.80769878625869751 0.80660092830657959
0.26907676458358765 0.26907676458358765 0.26907676458358765
0.27648621797561646 0.27648621797561646 0.27648621797561646
0.31896421313285828 0.31916144490242004 0.31896421313285828
0.40805953741073608 0.40939059853553772 0.40805953741073608
0.52397245168685913 0.52463102340698242 0.52397245168685913
0.69055449962615967 0.69158506393432617 0.69055449962615967
0.8395230770111084 0.84277784824371338 0.8395230770111084
0.19573608040809631 0.19573608040809631 0.19573608040809631
0.25402605533599854 0.25402605533599854 0.25402605533599854
0.35133057832717896 0.35133057832717896 0.35133057832717896
0.4772334098815918 0.47734272480010986 0.4772334098815918
0.61106318235397339 0.61277371644973755 0.61106318235397339
0.70905417203903198 0.70980346202850342 0.70905417203903198
0.77564465999603271 0.77584725618362427 0.77564465999603271
0.19666838645935059 0.19666838645935059 0.19666838645935059
0.2476448118686676 0.2476448118686676 0.2476448118686676
0.33436158299446106 0.33436158299446106 0.33436158299446106
0.46398478746414185 0.46403786540031433 0.46398478746414185
0.5964818000793457 0.59660732746124268 0.5964818000793457
0.7087894082069397 0.70900839567184448 0.7087894082069397
0.77526485919952393 0.77617752552032471 0.77526485919952393
0.21038983762264252 0.21038983762264252 0.21038983762264252
0.25595679879188538 0.25595679879188538 0.25595679879188538
0.33837571740150452 0.33837571740150452 0.33837571740150452
0.45376455783843994 0.45376455783843994 0.45376455783843994
0.5935370922088623 0.59358549118041992 0.5935370922088623
0.70473635196685791 0.70483487844467163 0.70470339059829712
0.7856440544128418 0.78588414192199707 0.7856440544128418
0.22175674140453339 0.22175674140453339 0.22175674140453339
0.26224765181541443 0.26224765181541443 0.26224765181541443
0.33496978878974915 0.33496978878974915 0.33496978878974915
0.44173547625541687 0.44173547625541687 0.44173547625541687
0.58626711368560791 0.58628231287002563 0.58624261617660522
0.70848238468170166 0.70856231451034546 0.70848238468170166
0.79414355754852295 0.7944875955581665 0.79414355754852295
0.23837651312351227 0.23837651312351227 0.23837651312351227
0.26405167579650879 0.26405167579650879 0.26405167579650879
0.33453327417373657 0.33453327417373657 0.33453327417373657
0.43762153387069702 0.43765437602996826 0.43762153387069702
0.58279669284820557 0.58288270235061646 0.58279049396514893
0.71163761615753174 0.7116735577583313 0.71163761615753174
0.80567538738250732 0.80587506294250488 0.80567538738250732
0.26192489266395569 0.26192489266395569 0.26192489266395569
0.27588933706283569 0.27588933706283569 0.27588933706283569
0.33564046025276184 0.33566069602966309 0.33564046025276184
0.43842563033103943 0.43847113847732544 0.43842563033103943
0.57765120267868042 0.57783806324005127 0.57765120267868042
0.7179943323135376 0.71806764602661133 0.7179943323135376
0.82096266746520996 0.8225778341293335 0.82096266746520996
0.28086346387863159 0.28086346387863159 0.28086346387863159
0.28818514943122864 0.28818514943122864 0.28818514943122864
0.33424526453018188 0.33427813649177551 0.33424526453018188
0.43477368354797363 0.43540123105049133 0.43477368354797363
0.54727077484130859 0.54999256134033203 0.54727077484130859
0.69160526990890503 0.69315642118453979 0.69160526990890503
0.85518169403076172 0.85549294948577881 0.85518169403076172
0.23210784792900085 0.23210784792900085 0.23210784792900085
0.28539305925369263 0.28539305925369263 0.28539305925369263
0.36492770910263062 0.36492770910263062 0.36492770910263062
0.47922009229660034 0.47939604520797729 0.47922009229660034
0.61775338649749756 0.61800014972686768 0.61775338649749756
0.70083850622177124 0.70123839378356934 0.70083850622177124
0.77478843927383423 0.77692669630050659 0.77478843927383423
0.23712597787380219 0.23712597787380219 0.23712597787380219
0.28601837158203125 0.28601837158203125 0.28601837158203125
0.36603385210037231 0.36603385210037231 0.36603385210037231
0.48979273438453674 0.48998603224754333 0.48979273438453674
0.61044621467590332 0.61052650213241577 0.61044621467590332
0.70532304048538208 0.70585834980010986 0.70532304048538208
0.77658313512802124 0.77940255403518677 0.77658313512802124
0.24321950972080231 0.24321950972080231 0.24321950972080231
0.28453630208969116 0.28453630208969116 0.28453630208969116
0.36481523513793945 0.36481523513793945 0.36481523513793945
0.48632988333702087 0.48652800917625427 0.48632988333702087
0.60699242353439331 0.60715818405151367 0.60699242353439331
0.70551848411560059 0.70557588338851929 0.70551848411560059
0.77857226133346558 0.77927124500274658 0.77857226133346558
0.25413998961448669 0.25413998961448669 0.25413998961448669
0.2893088161945343 0.2893088161945343 0.2893088161945343
0.36155158281326294 0.36155158281326294 0.36155158281326294
0.46636256575584412 0.46636256575584412 0.46636256575584412
0.59870177507400513 0.59870684146881104 0.59870177507400513
0.70922988653182983 0.70927196741104126 0.70922988653182983
0.79012900590896606 0.79265493154525757 0.79012900590896606
0.2694506049156189 0.2694506049156189 0.2694506049156189
0.28873711824417114 0.28873711824417114 0.28873711824417114
0.3572353720664978 0.35726821422576904 0.3572353720664978
0.45565700531005859 0.4556826651096344 0.45565700531005859
0.59002983570098877 0.59004420042037964 0.59002983570098877
0.71373122930526733 0.71382433176040649 0.71373122930526733
0.81151050329208374 0.8118169903755188 0.81151050329208374
0.28468033671379089 0.28468033671379089 0.28468033671379089
0.29756498336791992 0.29756498336791992 0.29756498336791992
0.34966748952865601 0.34989771246910095 0.34966748952865601
0.44300797581672668 0.44379174709320068 0.44300797581672668
0.57863318920135498 0.57893639802932739 0.57863318920135498
0.71479648351669312 0.7149537205696106 0.71479648351669312
0.83161616325378418 0.83213812112808228 0.83161616325378418
0.30548650026321411 0.30548650026321411 0.30548650026321411
0.31221878528594971 0.31221878528594971 0.31221878528594971
0.33490434288978577 0.33503150939941406 0.33490434288978577
0.42049023509025574 0.42280781269073486 0.42049023509025574
0.54266715049743652 0.54347211122512817 0.54266715049743652
0.69147610664367676 0.69227004051208496 0.69147610664367676
0.88881421089172363 0.8888932466506958 0.88881421089172363
0.25882354378700256 0.25882354378700256 0.25882354378700256
0.29182189702987671 0.29182189702987671 0.29182189702987671
0.37026479840278625 0.37026479840278625 0.37026479840278625
0.48539742827415466 0.4871324896812439 0.48539742827415466
0.60135966539382935 0.60326308012008667 0.60135966539382935
0.69342339038848877 0.69379621744155884 0.69342339038848877
0.77997899055480957 0.78289014101028442 0.77997899055480957
0.2521725594997406 0.2521725594997406 0.2521725594997406
0.30041787028312683 0.30041787028312683 0.30041787028312683
0.39977625012397766 0.39977625012397766 0.39977625012397766
0.52813196182250977 0.52834242582321167 0.52813196182250977
0.61704868078231812 0.61738711595535278 0.61704868078231812
0.70298224687576294 0.70322084426879883 0.70298224687576294
0.78469336032867432 0.78542107343673706 0.78469336032867432
0.26039716601371765 0.26039716601371765 0.26039716601371765
0.30019176006317139 0.30019176006317139 0.30019176006317139
0.3933844268321991 0.39343753457069397 0.3933844268321991
0.51287341117858887 0.51328575611114502 0.51287341117858887
0.61632829904556274 0.61648523807525635 0.61632829904556274
0.70814770460128784 0.70836293697357178 0.70814770460128784
0.79204845428466797 0.79230141639709473 0.79204845428466797
0.27451243996620178 0.27451243996620178 0.27451243996620178
0.31261798739433289 0.31261798739433289 0.31261798739433289
0.38083478808403015 0.38083478808403015 0.38083478808403015
0.47562539577484131 0.47562539577484131 0.47562539577484131
0.59656530618667603 0.59660768508911133 0.59656530618667603
0.70568841695785522 0.70575416088104248 0.70568841695785522
0.80215728282928467 0.80229884386062622 0.80215728282928467
0.2896607518196106 0.2896607518196106 0.2896607518196106
0.31296020746231079 0.31296020746231079 0.31296020746231079
0.376424640417099 0.37644484639167786 0.376424640417099
0.46919873356819153 0.46926695108413696 0.46919873356819153
0.58963853120803833 0.58963853120803833 0.58963853120803833
0.70466458797454834 0.70468324422836304 0.70466458797454834
0.80977290868759155 0.80981439352035522 0.80977290868759155
0.30339804291725159 0.30339804291725159 0.30339804291725159
0.3191860020160675 0.3191860020160675 0.3191860020160675
0.35837960243225098 0.35861468315124512 0.35837960243225098
0.44594237208366394 0.44650518894195557 0.44594237208366394
0.56959187984466553 0.56984913349151611 0.56959187984466553
0.71724116802215576 0.71774196624755859 0.71724116802215576
0.85020440816879272 0.85023480653762817 0.85020440816879272
0.3109709620475769 0.3109709620475769 0.3109709620475769
0.33544096350669861 0.33546429872512817 0.33544096350669861
0.34191447496414185 0.34192383289337158 0.34191447496414185
0.4020635187625885 0.40212675929069519 0.4020635187625885
0.5375370979309082 0.53960627317428589 0.5375370979309082
0.70265346765518188 0.70379608869552612 0.70265346765518188
0.91272574663162231 0.91476708650588989 0.91272574663162231
