assets/lut/abigailgonzalez science fiction.cube
# Created by: G'MIC (https://gmic.eu)
TITLE "science_fiction"
# LUT size
LUT_3D_SIZE 13
# Data domain
DOMAIN_MIN 0.0 0.0 0.0
DOMAIN_MAX 1.0 1.0 1.0
# LUT data points
0.020390350371599197 0.02211393415927887 0.039695501327514648
0.07371724396944046 0.031794048845767975 0.045938916504383087
0.13680762052536011 0.041742540895938873 0.041930194944143295
0.20724205672740936 0.052197832614183426 0.034230548888444901
0.28228676319122314 0.064317561686038971 0.040200222283601761
0.37075525522232056 0.074737235903739929 0.066365182399749756
0.45483925938606262 0.086039520800113678 0.091200478374958038
0.54068809747695923 0.097417928278446198 0.10568580031394958
0.63152575492858887 0.10882933437824249 0.11891321092844009
0.72161775827407837 0.12423873692750931 0.13690970838069916
0.80837935209274292 0.14568470418453217 0.16103188693523407
0.88788217306137085 0.1685178279876709 0.18052324652671814
0.95476871728897095 0.19012570381164551 0.1937021017074585
0.01124649029225111 0.062023162841796875 0.043850813060998917
0.055455435067415237 0.070806555449962616 0.046972133219242096
0.1257498562335968 0.081242986023426056 0.042987629771232605
0.20944510400295258 0.092435874044895172 0.035956840962171555
0.3018341064453125 0.10373816639184952 0.036099676042795181
0.39926782250404358 0.1153486967086792 0.050434038043022156
0.48559224605560303 0.13154546916484833 0.076303832232952118
0.57957714796066284 0.14712956547737122 0.095934323966503143
0.67635965347290039 0.15910942852497101 0.10706305503845215
0.76567590236663818 0.17462334036827087 0.12210980802774429
0.84586918354034424 0.19956649839878082 0.14973810315132141
0.91413545608520508 0.22706189751625061 0.17434428632259369
0.9688868522644043 0.25276282429695129 0.19083206355571747
0.0067947385832667351 0.10231176763772964 0.050088021904230118
0.042064234614372253 0.10896799713373184 0.052113283425569534
0.10776800662279129 0.12037860602140427 0.051532506942749023
0.19456714391708374 0.13427296280860901 0.047154594212770462
0.29941052198410034 0.14704762399196625 0.040304042398929596
0.40621662139892578 0.16050942242145538 0.038393985480070114
0.50402843952178955 0.17794905602931976 0.053582418709993362
0.60968387126922607 0.19319730997085571 0.070249699056148529
0.71574884653091431 0.20561982691287994 0.078244045376777649
0.8065447211265564 0.22193662822246552 0.092179559171199799
0.88001543283462524 0.24932047724723816 0.12300020456314087
0.93625813722610474 0.28087890148162842 0.15273445844650269
0.97849804162979126 0.31128802895545959 0.17544831335544586
0.0036295573227107525 0.15020981431007385 0.057432692497968674
0.028454320505261421 0.1554035097360611 0.055497396737337112
0.083352424204349518 0.16655783355236053 0.056417606770992279
0.17232726514339447 0.18230542540550232 0.057656709104776382
0.28091853857040405 0.19836732745170593 0.054534327238798141
0.39295601844787598 0.21366269886493683 0.047644149512052536
0.50476193428039551 0.22911493480205536 0.047790959477424622
0.61905127763748169 0.24280743300914764 0.051738336682319641
0.7378125786781311 0.25864279270172119 0.051858115941286087
0.83399474620819092 0.27772590517997742 0.065001621842384338
0.90309435129165649 0.30271714925765991 0.092776566743850708
0.9506223201751709 0.3340507447719574 0.1212923526763916
0.98384207487106323 0.36748436093330383 0.14831651747226715
0.00077329151099547744 0.20398256182670593 0.068344101309776306
0.013326442800462246 0.20939008891582489 0.062671497464179993
0.055050898343324661 0.21975372731685638 0.062718331813812256
0.14263170957565308 0.23721851408481598 0.067577004432678223
0.25776940584182739 0.25601890683174133 0.071258589625358582
0.37649363279342651 0.2732207179069519 0.068073421716690063
0.49217939376831055 0.28813034296035767 0.060791149735450745
0.61092275381088257 0.30308076739311218 0.051338780671358109
0.73940229415893555 0.32351204752922058 0.040123328566551208
0.84400111436843872 0.34319630265235901 0.045231658965349197
0.91539591550827026 0.36505359411239624 0.065256811678409576
0.95959693193435669 0.39452850818634033 0.089710861444473267
0.98789101839065552 0.42739522457122803 0.119070865213871
0.00019194658671040088 0.26467165350914001 0.083231158554553986
0.0024440241977572441 0.27107179164886475 0.075006254017353058
0.029765618965029716 0.28128781914710999 0.071599029004573822
0.10838434845209122 0.29814994335174561 0.074795275926589966
0.23068021237850189 0.32047778367996216 0.081420913338661194
0.36412540078163147 0.34219264984130859 0.083023637533187866
0.48271214962005615 0.35714742541313171 0.075413830578327179
0.59960567951202393 0.37073966860771179 0.060730490833520889
0.72829890251159668 0.38991376757621765 0.043086573481559753
0.84071004390716553 0.41130685806274414 0.037007007747888565
0.91889625787734985 0.43659698963165283 0.04715811088681221
0.96551501750946045 0.46603924036026001 0.069214269518852234
0.99270439147949219 0.49583390355110168 0.10197524726390839
0.0006691876333206892 0.33519604802131653 0.097004622220993042
6.6315893491264433e-05 0.34237018227577209 0.087661921977996826
0.015254241414368153 0.352215975522995 0.080812655389308929
0.07924778014421463 0.36769828200340271 0.079087004065513611
0.19764891266822815 0.39101687073707581 0.082939267158508301
0.34673503041267395 0.41674578189849854 0.087908379733562469
0.47502058744430542 0.43466991186141968 0.086806982755661011
0.58957642316818237 0.44633916020393372 0.076447956264019012
0.71617496013641357 0.45966514945030212 0.056563209742307663
0.83316588401794434 0.47915464639663696 0.043479472398757935
0.91783690452575684 0.50744473934173584 0.046820711344480515
0.96863853931427002 0.53866112232208252 0.065761148929595947
0.99578249454498291 0.56714189052581787 0.097656726837158203
0.0010930229909718037 0.41370025277137756 0.10790037363767624
8.9757583054961287e-07 0.42129886150360107 0.098512791097164154
0.0062504187226295471 0.4308655858039856 0.089941836893558502
0.05385914072394371 0.44496253132820129 0.083957299590110779
0.15977591276168823 0.46715429425239563 0.08362802118062973
0.31456264853477478 0.49448531866073608 0.089269228279590607
0.46056836843490601 0.51650840044021606 0.094173446297645569
0.58419901132583618 0.53081178665161133 0.092214711010456085
0.71138268709182739 0.54018652439117432 0.07635759562253952
0.82827937602996826 0.55369454622268677 0.063379503786563873
0.9160647988319397 0.57689988613128662 0.064107872545719147
0.96946954727172852 0.60747265815734863 0.078371874988079071
0.99705666303634644 0.6359487771987915 0.10555116087198257
0.0028533786535263062 0.49429985880851746 0.11828445643186569
0.00018917905981652439 0.50268864631652832 0.10982742160558701
0.0013744877651333809 0.51239192485809326 0.10067529231309891
0.032882016152143478 0.52623254060745239 0.093149073421955109
0.12278749048709869 0.54714936017990112 0.090153604745864868
0.27129530906677246 0.57296407222747803 0.091740086674690247
0.43933501839637756 0.59740298986434937 0.095493674278259277
0.58580219745635986 0.61553388833999634 0.10003753006458282
0.71325939893722534 0.62802058458328247 0.097696997225284576
0.82526212930679321 0.6375536322593689 0.092011436820030212
0.91303741931915283 0.65104150772094727 0.09218037873506546
0.96840536594390869 0.6747773289680481 0.10195424407720566
0.99731200933456421 0.70031481981277466 0.1223871260881424
0.0051639033481478691 0.57131856679916382 0.12927797436714172
0.00094513240037485957 0.58034992218017578 0.12150928378105164
0 0.58983397483825684 0.11245317757129669
0.014221356250345707 0.60299313068389893 0.10429873317480087
0.086183585226535797 0.62265634536743164 0.09939633309841156
0.22981007397174835 0.64688599109649658 0.097689203917980194
0.41900539398193359 0.67173308134078979 0.10064293444156647
0.58757442235946655 0.69356614351272583 0.11106739193201065
0.71937692165374756 0.70989978313446045 0.11985882371664047
0.82664310932159424 0.71841508150100708 0.12182041257619858
0.91082173585891724 0.7254025936126709 0.12244731187820435
0.96685904264450073 0.7403101921081543 0.12798002362251282
0.99736958742141724 0.75941658020019531 0.14192232489585876
0.0058969832025468349 0.6395915150642395 0.14295461773872375
0.00069532205816358328 0.64858847856521606 0.13468728959560394
0 0.6574522852897644 0.12458121776580811
0.0052603329531848431 0.66965538263320923 0.11495140194892883
0.067925050854682922 0.68716096878051758 0.10876859724521637
0.21106399595737457 0.70947355031967163 0.10690564662218094
0.41005158424377441 0.73412472009658813 0.11173029989004135
0.58964526653289795 0.7570643424987793 0.12814171612262726
0.7270391583442688 0.77409523725509644 0.14443382620811462
0.83252471685409546 0.78240793943405151 0.15009814500808716
0.91236835718154907 0.78750216960906982 0.15004247426986694
0.96730154752731323 0.79712623357772827 0.15180177986621857
0.99808835983276367 0.81059789657592773 0.16016985476016998
0.0062548466958105564 0.69695061445236206 0.16001808643341064
0.00017760033369995654 0.70585149526596069 0.1486094743013382
0 0.71426934003829956 0.13577269017696381
0.0039426018483936787 0.72462195158004761 0.12453505396842957
0.064179390668869019 0.73921281099319458 0.11763911694288254
0.20298294723033905 0.75887030363082886 0.11640813201665878
0.39718225598335266 0.78178662061691284 0.12432681769132614
0.57998549938201904 0.80407094955444336 0.14438661932945251
0.72364401817321777 0.82045763731002808 0.16404615342617035
0.83241176605224609 0.82892346382141113 0.17102904617786407
0.9128798246383667 0.83454674482345581 0.17170554399490356
0.96798515319824219 0.84244734048843384 0.17177851498126984
0.99852943420410156 0.85334289073944092 0.17630510032176971
0.0064608254469931126 0.7468104362487793 0.17456547915935516
2.8991698854952119e-05 0.75478500127792358 0.16035591065883636
0 0.7623404860496521 0.14564378559589386
0.0080040879547595978 0.77102154493331909 0.13332195580005646
0.067703157663345337 0.78278732299804688 0.12621791660785675
0.19443187117576599 0.7987028956413269 0.12610653042793274
0.37364569306373596 0.81877404451370239 0.13534703850746155
0.55272746086120605 0.8380398154258728 0.15294133126735687
0.70203781127929688 0.853515625 0.17041836678981781
0.8184128999710083 0.86349976062774658 0.1805158257484436
0.90484833717346191 0.87073731422424316 0.18444223701953888
0.9635084867477417 0.87940752506256104 0.18554875254631042
0.99778324365615845 0.89046335220336914 0.18956349790096283
0.020103977993130684 0.027491131797432899 0.12314282357692719
0.070749394595623016 0.033440116792917252 0.13045598566532135
0.14254811406135559 0.037218458950519562 0.1266743540763855
0.22664488852024078 0.042019981890916824 0.11160740256309509
0.30527529120445251 0.051295965909957886 0.10692518949508667
0.38744720816612244 0.06003836914896965 0.1133197546005249
0.46181249618530273 0.072907134890556335 0.12649926543235779
0.54551011323928833 0.087204590439796448 0.14274072647094727
0.63469958305358887 0.099063485860824585 0.15743272006511688
0.72259336709976196 0.11299876868724823 0.17307151854038239
0.80859470367431641 0.13341596722602844 0.19463853538036346
0.88517838716506958 0.15699547529220581 0.21485696732997894
0.94790267944335938 0.1800391674041748 0.23071524500846863
0.0072761238552629948 0.07310359925031662 0.124709352850914
0.044797185808420181 0.07824668288230896 0.12621833384037018
0.12029199302196503 0.082706868648529053 0.11914544552564621
0.21747764945030212 0.090282455086708069 0.10762517899274826
0.31463336944580078 0.10138166695833206 0.10569803416728973
0.41446992754936218 0.11086690425872803 0.11012327671051025
0.49857598543167114 0.12856367230415344 0.13057060539722443
0.59427762031555176 0.14796096086502075 0.15084473788738251
0.68973737955093384 0.16108202934265137 0.16245150566101074
0.77485013008117676 0.17527955770492554 0.17522718012332916
0.85178506374359131 0.1984216570854187 0.19914087653160095
0.9159858226776123 0.22583435475826263 0.22366316616535187
0.96511566638946533 0.25260266661643982 0.24237470328807831
0.0030180090107023716 0.11964386701583862 0.1279042661190033
0.029471093788743019 0.12153104692697525 0.12775762379169464
0.094128116965293884 0.12820731103420258 0.12364088743925095
0.19407661259174347 0.13985246419906616 0.11597485840320587
0.31077861785888672 0.15243497490882874 0.1097126379609108
0.42512840032577515 0.16618497669696808 0.1080319732427597
0.52596712112426758 0.18523579835891724 0.11927115917205811
0.63537222146987915 0.20200586318969727 0.1328461766242981
0.74116784334182739 0.21639817953109741 0.14375048875808716
0.82423847913742065 0.23455646634101868 0.16314384341239929
0.89227151870727539 0.26014143228530884 0.1920398622751236
0.94309806823730469 0.29101234674453735 0.22099411487579346
0.97790980339050293 0.32254385948181152 0.24521312117576599
0.002148542320355773 0.17133688926696777 0.13163986802101135
0.019653605297207832 0.17236499488353729 0.12708345055580139
0.069785580039024353 0.17897170782089233 0.1258772611618042
0.16296227276325226 0.19141295552253723 0.12535658478736877
0.28319531679153442 0.20704801380634308 0.12239141762256622
0.40976837277412415 0.22374020516872406 0.11663203686475754
0.53353595733642578 0.24094639718532562 0.11315244436264038
0.65799194574356079 0.25519272685050964 0.11200130730867386
0.77844947576522827 0.27162882685661316 0.11581806838512421
0.86095923185348511 0.29383504390716553 0.13939060270786285
0.92081248760223389 0.31801792979240417 0.16797217726707458
0.96083420515060425 0.34993758797645569 0.19929981231689453
0.98618912696838379 0.38625445961952209 0.23210328817367554
0.0018059973372146487 0.22712428867816925 0.13998295366764069
0.009746805764734745 0.22909307479858398 0.13218601047992706
0.04615040123462677 0.23533236980438232 0.13170239329338074
0.12781582772731781 0.2477109432220459 0.13575591146945953
0.24440906941890717 0.26507925987243652 0.13879701495170593
0.37456157803535461 0.2831825315952301 0.13568320870399475
0.50740653276443481 0.29938367009162903 0.12649926543235779
0.64592403173446655 0.31545266509056091 0.11306299269199371
0.77988195419311523 0.33676242828369141 0.10486111789941788
0.87638646364212036 0.35877510905265808 0.11565185338258743
0.93813836574554443 0.38120594620704651 0.13693355023860931
0.97326701879501343 0.41196763515472412 0.16766335070133209
0.99310404062271118 0.44805058836936951 0.20716556906700134
0.0025193905457854271 0.28909385204315186 0.15308062732219696
0.0020683587063103914 0.29249244928359985 0.14475177228450775
0.024903256446123123 0.29776492714881897 0.14136064052581787
0.093205742537975311 0.30848324298858643 0.14384528994560242
0.20755232870578766 0.32665890455245972 0.14881885051727295
0.34366965293884277 0.34766063094139099 0.15029416978359222
0.47762995958328247 0.36428940296173096 0.14394307136535645
0.61305081844329834 0.37973591685295105 0.1284145712852478
0.75517177581787109 0.40197974443435669 0.11088946461677551
0.86985164880752563 0.42651897668838501 0.10507236421108246
0.94239932298660278 0.454519122838974 0.11456555873155594
0.9800218939781189 0.48505732417106628 0.1423109769821167
0.99715340137481689 0.51446771621704102 0.18492308259010315
0.0046508340165019035 0.3591691255569458 0.16600583493709564
0.00011493458441691473 0.36334788799285889 0.15687727928161621
0.010513979010283947 0.36796373128890991 0.15033251047134399
0.063643284142017365 0.37677362561225891 0.14870062470436096
0.17238682508468628 0.39495515823364258 0.15188124775886536
0.31838008761405945 0.41960629820823669 0.15625540912151337
0.45561045408248901 0.43858152627944946 0.1567627489566803
0.58458584547042847 0.45247691869735718 0.14756762981414795
0.72656279802322388 0.47000733017921448 0.12725022435188293
0.85183423757553101 0.49380338191986084 0.11105195432901382
0.93618017435073853 0.52539891004562378 0.11168191581964493
0.98023706674575806 0.55754286050796509 0.13392075896263123
0.99838066101074219 0.5836789608001709 0.17340947687625885
0.0084942691028118134 0.43549349904060364 0.17613793909549713
0.0010859470348805189 0.44090086221694946 0.16685621440410614
0.0033338807988911867 0.44594204425811768 0.15838274359703064
0.040901049971580505 0.4543614387512207 0.15320339798927307
0.13717934489250183 0.47177585959434509 0.15328910946846008
0.28265076875686646 0.49666357040405273 0.15808607637882233
0.43355110287666321 0.51912015676498413 0.16370607912540436
0.57244735956192017 0.53590542078018188 0.16263420879840851
0.71116530895233154 0.54950970411300659 0.14832432568073273
0.83641111850738525 0.56648427248001099 0.13241121172904968
0.92734867334365845 0.59191441535949707 0.12908399105072021
0.97792011499404907 0.62370479106903076 0.1437133401632309
0.99912172555923462 0.65091878175735474 0.17582793533802032
0.015224486589431763 0.51383978128433228 0.18499855697154999
0.0060875089839100838 0.52095544338226318 0.17655138671398163
0.00083206774434074759 0.52718013525009155 0.16734024882316589
0.023068476468324661 0.53647053241729736 0.15958030521869659
0.10267073661088943 0.55338317155838013 0.15702907741069794
0.24323205649852753 0.57703489065170288 0.15896505117416382
0.41371661424636841 0.601390540599823 0.16416837275028229
0.57205355167388916 0.62213230133056641 0.16982568800449371
0.70978152751922607 0.63736402988433838 0.168613001704216
0.8290717601776123 0.64845138788223267 0.16139622032642365
0.92115134000778198 0.66112303733825684 0.15748286247253418
0.97638994455337524 0.6847800612449646 0.16551302373409271
0.99921351671218872 0.71172249317169189 0.18875542283058167
0.02106870710849762 0.58855843544006348 0.19332054257392883
0.012769571505486965 0.59714424610137939 0.18554636836051941
0.001205878215841949 0.60405397415161133 0.17589320242404938
0.0087920697405934334 0.61373633146286011 0.16705793142318726
0.07195919007062912 0.63004857301712036 0.16260311007499695
0.20826724171638489 0.65266776084899902 0.1625368744134903
0.39605686068534851 0.67784649133682251 0.16711495816707611
0.57475781440734863 0.70125162601470947 0.17860731482505798
0.71625214815139771 0.71944707632064819 0.18776729702949524
0.82955020666122437 0.72806745767593384 0.18902455270290375
0.91706717014312744 0.73336505889892578 0.1866188645362854
0.97284579277038574 0.74791181087493896 0.19044016301631927
0.9988132119178772 0.76858854293823242 0.20571166276931763
0.020808156579732895 0.65379196405410767 0.20219559967517853
0.009841499850153923 0.66267246007919312 0.19335010647773743
0.00027727612177841365 0.66992735862731934 0.18301211297512054
0.0028932460118085146 0.67945033311843872 0.17338418960571289
0.057812634855508804 0.6946108341217041 0.16806027293205261
0.19406850636005402 0.71592903137207031 0.16791346669197083
0.39145532250404358 0.74045693874359131 0.1744312047958374
0.58052366971969604 0.76408129930496216 0.1902058869600296
0.72582173347473145 0.78223580121994019 0.20590117573738098
0.8353925347328186 0.79111385345458984 0.21214480698108673
0.9167487621307373 0.79588764905929565 0.21138499677181244
0.96924644708633423 0.80536931753158569 0.21204228699207306
0.99814403057098389 0.8193899393081665 0.22173832356929779
0.016028804704546928 0.70860475301742554 0.21224208176136017
0.0032767052762210369 0.71669471263885498 0.20102794468402863
0 0.72397434711456299 0.18900465965270996
0.0032215341925621033 0.73296582698822021 0.17853987216949463
0.060031622648239136 0.74633914232254028 0.1724386066198349
0.19608177244663239 0.76477265357971191 0.17277185618877411
0.38997676968574524 0.78662395477294922 0.18114128708839417
0.57778894901275635 0.80794388055801392 0.19888630509376526
0.72547644376754761 0.8249620795249939 0.21736417710781097
0.83553206920623779 0.83517307043075562 0.22647395730018616
0.91477793455123901 0.84136956930160522 0.22851099073886871
0.96796387434005737 0.8494030237197876 0.22894920408725739
0.99784433841705322 0.86034119129180908 0.23555253446102142
0.011236901395022869 0.75583338737487793 0.22127501666545868
0.00098992139101028442 0.76312899589538574 0.20814302563667297
0 0.76979845762252808 0.19456060230731964
0.0091367084532976151 0.7776828408241272 0.1833035945892334
0.071821354329586029 0.78845012187957764 0.17711742222309113
0.19999809563159943 0.80355870723724365 0.17774458229541779
0.37747281789779663 0.8215135931968689 0.18673695623874664
0.55834048986434937 0.83958703279495239 0.20232972502708435
0.70820963382720947 0.85526746511459351 0.21996915340423584
0.82281339168548584 0.8672865629196167 0.23221564292907715
0.90590590238571167 0.87586516141891479 0.23777182400226593
0.96273994445800781 0.88423854112625122 0.24067862331867218
0.99681127071380615 0.89498406648635864 0.24696865677833557
0.012744514271616936 0.032448023557662964 0.2047404944896698
0.055525477975606918 0.035414408892393112 0.21354620158672333
0.12834310531616211 0.034408107399940491 0.21904599666595459
0.22459903359413147 0.033420577645301819 0.21808072924613953
0.32093176245689392 0.035773962736129761 0.20564165711402893
0.40506014227867126 0.042361930012702942 0.18555766344070435
0.47552770376205444 0.055066172033548355 0.17928028106689453
0.55459535121917725 0.068144656717777252 0.18511153757572174
0.63699221611022949 0.079015679657459259 0.19412259757518768
0.72125875949859619 0.093253538012504578 0.20564290881156921
0.80602365732192993 0.11378547549247742 0.22377344965934753
0.8789680004119873 0.13713589310646057 0.24176284670829773
0.93779391050338745 0.16185536980628967 0.25897300243377686
0.0042357947677373886 0.083495058119297028 0.20689091086387634
0.035079866647720337 0.085351772606372833 0.20874164998531342
0.10308598726987839 0.08517870306968689 0.20692417025566101
0.20526634156703949 0.086527973413467407 0.20139291882514954
0.3145563006401062 0.092081867158412933 0.19362510740756989
0.41299358010292053 0.10076217353343964 0.18466195464134216
0.49743595719337463 0.11663670092821121 0.18720296025276184
0.59409898519515991 0.13313984870910645 0.19344843924045563
0.68787389993667603 0.14803220331668854 0.20393607020378113
0.77148020267486572 0.16449253261089325 0.21771153807640076
0.84745126962661743 0.18769165873527527 0.23780986666679382
0.90858465433120728 0.21524466574192047 0.26068168878555298
0.95465970039367676 0.24402596056461334 0.28289547562599182
0.0021050996147096157 0.13657884299755096 0.2104334682226181
0.02063203789293766 0.13640154898166656 0.20957125723361969
0.072955846786499023 0.13785316050052643 0.20583359897136688
0.17394733428955078 0.14312744140625 0.19880591332912445
0.30003580451011658 0.15243391692638397 0.19304998219013214
0.40868985652923584 0.16612935066223145 0.19202281534671783
0.50627332925796509 0.18396961688995361 0.19376437366008759
0.62209820747375488 0.1998153030872345 0.19419582188129425
0.73003602027893066 0.21735155582427979 0.20638512074947357
0.81493449211120605 0.23804992437362671 0.22818581759929657
0.88486987352371216 0.26137807965278625 0.24951943755149841
0.93462717533111572 0.29248723387718201 0.27674052119255066
0.96784335374832153 0.32739585638046265 0.30675899982452393
0.0038524551782757044 0.19231830537319183 0.2147059291601181
0.013050094246864319 0.19227297604084015 0.21128475666046143
0.048828858882188797 0.1939166933298111 0.20882062613964081
0.13674084842205048 0.20069324970245361 0.20607638359069824
0.27036780118942261 0.21284326910972595 0.20165209472179413
0.39798539876937866 0.23025994002819061 0.19941411912441254
0.51545125246047974 0.24890458583831787 0.19648820161819458
0.64150124788284302 0.26557537913322449 0.19254547357559204
0.76336359977722168 0.28475600481033325 0.20055501163005829
0.85101449489593506 0.30739337205886841 0.22484117746353149
0.91517394781112671 0.32784759998321533 0.24334290623664856
0.95534849166870117 0.3603508472442627 0.27410030364990234
0.97882604598999023 0.40202388167381287 0.31451842188835144
0.0056074252352118492 0.2525932788848877 0.22184717655181885
0.0081361355260014534 0.2535281777381897 0.21575187146663666
0.032110549509525299 0.25510114431381226 0.21375755965709686
0.10381584614515305 0.26090407371520996 0.21442307531833649
0.22510610520839691 0.27409470081329346 0.21436446905136108
0.36272943019866943 0.29281949996948242 0.21297083795070648
