assets/lut/abigailgonzalez blue house.cube
# Created by: G'MIC (https://gmic.eu)
TITLE "blue_house"
# LUT size
LUT_3D_SIZE 13
# Data domain
DOMAIN_MIN 0.0 0.0 0.0
DOMAIN_MAX 1.0 1.0 1.0
# LUT data points
0.014077533967792988 0.023157695308327675 0.02442525140941143
0.06150422990322113 0.026777004823088646 0.027182934805750847
0.12291668355464935 0.030621413141489029 0.026698138564825058
0.19178676605224609 0.034608025103807449 0.024123458191752434
0.26546767354011536 0.039834745228290558 0.023168586194515228
0.34537747502326965 0.048448793590068817 0.024607116356492043
0.43030509352684021 0.062272060662508011 0.028261087834835052
0.515339195728302 0.078932471573352814 0.033219281584024429
0.5963255763053894 0.095642894506454468 0.03818594291806221
0.66917687654495239 0.10917623341083527 0.041621115058660507
0.73398894071578979 0.11935164779424667 0.043725691735744476
0.79334694147109985 0.12832927703857422 0.046285726130008698
0.84957069158554077 0.13686801493167877 0.049515921622514725
0.014402666129171848 0.074765793979167938 0.031908221542835236
0.061227716505527496 0.077946819365024567 0.0313149094581604
0.12750202417373657 0.078888550400733948 0.028221234679222107
0.19706661999225616 0.082612179219722748 0.025136761367321014
0.27123674750328064 0.088773541152477264 0.024283705279231071
0.35144683718681335 0.097240954637527466 0.026765411719679832
0.43460249900817871 0.11038395017385483 0.031706955283880234
0.5178101658821106 0.12652847170829773 0.038038529455661774
0.59776002168655396 0.14332872629165649 0.044381804764270782
0.67093855142593384 0.15821005403995514 0.049573518335819244
0.73690450191497803 0.17097814381122589 0.05345604196190834
0.79691189527511597 0.18254281580448151 0.057982709258794785
0.85322099924087524 0.1933959424495697 0.063336573541164398
0.018511110916733742 0.13022589683532715 0.037840601056814194
0.063326708972454071 0.13314688205718994 0.036994472146034241
0.13028621673583984 0.131926029920578 0.031996306031942368
0.2063240259885788 0.13242021203041077 0.026558609679341316
0.28222170472145081 0.13903103768825531 0.025147156789898872
0.36144834756851196 0.14818871021270752 0.02766825444996357
0.44215571880340576 0.16080328822135925 0.033676806837320328
0.5238150954246521 0.17589984834194183 0.041321113705635071
0.6027408242225647 0.19231319427490234 0.049370575696229935
0.67568987607955933 0.20848983526229858 0.056438595056533813
0.74219816923141479 0.22355800867080688 0.062467716634273529
0.80255037546157837 0.23779074847698212 0.069220282137393951
0.85885083675384521 0.25101000070571899 0.076605446636676788
0.024998504668474197 0.18523570895195007 0.044175751507282257
0.069750256836414337 0.18775931000709534 0.043487340211868286
0.13357114791870117 0.18757963180541992 0.038797788321971893
0.21165288984775543 0.18801683187484741 0.031936496496200562
0.29373127222061157 0.19300414621829987 0.027942357584834099
0.37522384524345398 0.20160488784313202 0.029075188562273979
0.45588874816894531 0.21341176331043243 0.0346209816634655
0.53765952587127686 0.2270766943693161 0.042841564863920212
0.61642664670944214 0.24269525706768036 0.052005976438522339
0.6885954737663269 0.25953617691993713 0.060875419527292252
0.75370931625366211 0.27686870098114014 0.06909942626953125
0.81247848272323608 0.29350960254669189 0.07838420569896698
0.86760008335113525 0.30832883715629578 0.087967634201049805
0.033327605575323105 0.23953697085380554 0.051032092422246933
0.078029140830039978 0.2432553768157959 0.050184018909931183
0.13849863409996033 0.24563424289226532 0.046031277626752853
0.21645559370517731 0.24813021719455719 0.039401303976774216
0.30531293153762817 0.25190123915672302 0.034107882529497147
0.39429226517677307 0.25814265012741089 0.033666364848613739
0.47839343547821045 0.26819649338722229 0.038033414632081985
0.56109225749969482 0.28038591146469116 0.044901948422193527
0.63904702663421631 0.29490447044372559 0.052626859396696091
0.7090911865234375 0.31177985668182373 0.061757314950227737
0.76966255903244019 0.33079469203948975 0.071962393820285797
0.82621318101882935 0.34892460703849792 0.08380812406539917
0.87954539060592651 0.36416685581207275 0.095554888248443604
0.043424583971500397 0.2947496771812439 0.058752682060003281
0.086116865277290344 0.30032217502593994 0.058173175901174545
0.14348693192005157 0.30596968531608582 0.055129840970039368
0.22119155526161194 0.31152758002281189 0.049889761954545975
0.31739377975463867 0.31589999794960022 0.04538104310631752
0.41766980290412903 0.32004967331886292 0.044917162507772446
0.50825560092926025 0.32725301384925842 0.0475018210709095
0.58919888734817505 0.33822429180145264 0.050944726914167404
0.66332316398620605 0.35181206464767456 0.055228602141141891
0.72911876440048218 0.36829450726509094 0.062114939093589783
0.78728091716766357 0.38704386353492737 0.073006406426429749
0.84095680713653564 0.40416103601455688 0.086620762944221497
0.89286881685256958 0.41819247603416443 0.099824167788028717
0.054129745811223984 0.35138282179832458 0.068673059344291687
0.093799561262130737 0.35903596878051758 0.0688963383436203
0.14727336168289185 0.36792618036270142 0.067415736615657806
0.22474199533462524 0.3774016797542572 0.064351849257946014
0.32783785462379456 0.38497278094291687 0.060999404639005661
0.43856039643287659 0.38986596465110779 0.060889855027198792
0.53317928314208984 0.39525958895683289 0.061929948627948761
0.61251389980316162 0.40298408269882202 0.061732467263936996
0.68346703052520752 0.41393536329269409 0.061431884765625
0.74598318338394165 0.42855513095855713 0.065366916358470917
0.80133938789367676 0.44464972615242004 0.075071819126605988
0.85415923595428467 0.45848372578620911 0.088405370712280273
0.90503436326980591 0.47032696008682251 0.10185669362545013
0.063647955656051636 0.4110921323299408 0.08234696090221405
0.10113169252872467 0.41966822743415833 0.082764104008674622
0.15083344280719757 0.4309849739074707 0.083093039691448212
0.22694438695907593 0.44380494952201843 0.082011640071868896
0.33621537685394287 0.45496407151222229 0.080158129334449768
0.45315125584602356 0.46311768889427185 0.07920488715171814
0.54913771152496338 0.46921014785766602 0.077303946018218994
0.62739753723144531 0.47390371561050415 0.073877863585948944
0.69769185781478882 0.47934600710868835 0.070547871291637421
0.75927984714508057 0.489227294921875 0.072525709867477417
0.8132559061050415 0.50129079818725586 0.080779150128364563
0.86443513631820679 0.51200151443481445 0.092195041477680206
0.91407710313796997 0.52143073081970215 0.10384846478700638
0.072597682476043701 0.47337278723716736 0.099937468767166138
0.11065570265054703 0.48246890306472778 0.099985308945178986
0.15971846878528595 0.49466505646705627 0.10005804151296616
0.23517121374607086 0.50897002220153809 0.09985390305519104
0.34853273630142212 0.52214276790618896 0.098244652152061462
0.46769094467163086 0.53382021188735962 0.094863772392272949
0.56021559238433838 0.54369330406188965 0.090984910726547241
0.63514482975006104 0.54799580574035645 0.086505219340324402
0.70573514699935913 0.54811549186706543 0.082681246101856232
0.76716446876525879 0.55216139554977417 0.084444619715213776
0.82072889804840088 0.55939304828643799 0.091588743031024933
0.87081730365753174 0.56673890352249146 0.1008305549621582
0.91941982507705688 0.57427340745925903 0.11020305752754211
0.084525167942047119 0.53647196292877197 0.11864839494228363
0.12552860379219055 0.54607886075973511 0.1179385632276535
0.17809313535690308 0.55888926982879639 0.1172756552696228
0.25632652640342712 0.57416868209838867 0.11484469473361969
0.36771696805953979 0.58844906091690063 0.11143843829631805
0.48413217067718506 0.60132378339767456 0.10752047598361969
0.57233649492263794 0.61425590515136719 0.10333474725484848
0.64193028211593628 0.62088018655776978 0.10069549828767776
0.70763826370239258 0.62087929248809814 0.099121078848838806
0.76791369915008545 0.62002450227737427 0.10097698122262955
0.82214963436126709 0.62102437019348145 0.10644090175628662
0.87222927808761597 0.62420415878295898 0.11309814453125
0.92106443643569946 0.62932687997817993 0.11968835443258286
0.10038702189922333 0.59839010238647461 0.13690300285816193
0.14497204124927521 0.60878902673721313 0.13688920438289642
0.20142552256584167 0.62243574857711792 0.13569089770317078
0.27929747104644775 0.63909095525741577 0.13052164018154144
0.3828682005405426 0.6552160382270813 0.12383194267749786
0.49291428923606873 0.66778212785720825 0.11981315165758133
0.58247131109237671 0.67962074279785156 0.11676573008298874
0.65056478977203369 0.68746989965438843 0.11574195325374603
0.70947521924972534 0.68956124782562256 0.11687710136175156
0.76568877696990967 0.68660718202590942 0.11819398403167725
0.81925338506698608 0.68354398012161255 0.12149377167224884
0.86992394924163818 0.68301296234130859 0.12561121582984924
0.91875946521759033 0.68598222732543945 0.12948182225227356
0.11838414520025253 0.65820032358169556 0.15548162162303925
0.16686345636844635 0.66876953840255737 0.15653391182422638
0.22514995932579041 0.68255788087844849 0.15717343986034393
0.3006795346736908 0.69896644353866577 0.15399233996868134
0.39594092965126038 0.71506637334823608 0.14669352769851685
0.49805781245231628 0.72844547033309937 0.14006629586219788
0.58727103471755981 0.73956352472305298 0.1351696103811264
0.65583103895187378 0.74701452255249023 0.1330733597278595
0.7114558219909668 0.74925065040588379 0.13195765018463135
0.76326209306716919 0.74711674451828003 0.13227635622024536
0.81493741273880005 0.74382060766220093 0.13383860886096954
0.86560720205307007 0.74212121963500977 0.13586851954460144
0.91554504632949829 0.7431604266166687 0.13824008405208588
0.13699036836624146 0.71602678298950195 0.17261411249637604
0.18866872787475586 0.72637355327606201 0.17598007619380951
0.24827837944030762 0.73928302526473999 0.1791892945766449
0.32093068957328796 0.75414508581161499 0.17969460785388947
0.40911957621574402 0.76950395107269287 0.17315492033958435
0.50338649749755859 0.78346353769302368 0.16403993964195251
0.58900761604309082 0.79455047845840454 0.1561933308839798
0.65775144100189209 0.80177146196365356 0.15049406886100769
0.71181875467300415 0.80423551797866821 0.14667588472366333
0.76186782121658325 0.80319267511367798 0.14480316638946533
0.81220608949661255 0.8012009859085083 0.14456769824028015
0.86267948150634766 0.79945939779281616 0.14522886276245117
0.91316622495651245 0.79981768131256104 0.14610029757022858
0.017296645790338516 0.027071470394730568 0.073650702834129333
0.060694973915815353 0.028520112857222557 0.075926609337329865
0.1228276863694191 0.031666327267885208 0.073061957955360413
0.19717620313167572 0.035788681358098984 0.068484634160995483
0.27573788166046143 0.04224802553653717 0.065491333603858948
0.35699164867401123 0.051249783486127853 0.065870828926563263
0.44000110030174255 0.063742272555828094 0.068890832364559174
0.52287095785140991 0.079619750380516052 0.073841989040374756
0.60261619091033936 0.096688397228717804 0.078681096434593201
0.67465841770172119 0.11059550940990448 0.081628046929836273
0.73839825391769409 0.12095353007316589 0.083361290395259857
0.79602503776550293 0.13013714551925659 0.086101606488227844
0.85022008419036865 0.13967464864253998 0.091084405779838562
0.015890488401055336 0.077808186411857605 0.083508871495723724
0.056202638894319534 0.079581350088119507 0.083673097193241119
0.12091933935880661 0.081765435636043549 0.078855670988559723
0.19658325612545013 0.085645385086536407 0.073435932397842407
0.27758282423019409 0.09176674485206604 0.069762073457241058
0.36070850491523743 0.10005342215299606 0.070388928055763245
0.44312748312950134 0.11223474889993668 0.074232183396816254
0.52488452196121216 0.12774685025215149 0.079509377479553223
0.60379385948181152 0.14464458823204041 0.084548637270927429
0.67616063356399536 0.15991224348545074 0.088275760412216187
0.74065530300140381 0.17290149629116058 0.091820359230041504
0.79841727018356323 0.18547181785106659 0.097844161093235016
0.85269945859909058 0.1977035254240036 0.10608021169900894
0.019072005525231361 0.13445952534675598 0.091026663780212402
0.056164924055337906 0.13626499474048615 0.091558597981929779
0.11841204762458801 0.13673947751522064 0.087385870516300201
0.19736696779727936 0.13841278851032257 0.080341354012489319
0.28227934241294861 0.14361245930194855 0.074632070958614349
0.36682736873626709 0.15173166990280151 0.074209459125995636
0.44830003380775452 0.16380587220191956 0.078654840588569641
0.52935725450515747 0.17874453961849213 0.084376811981201172
0.60754096508026123 0.19556525349617004 0.089928001165390015
0.67944324016571045 0.21208232641220093 0.095608264207839966
0.74466520547866821 0.22760745882987976 0.1013324037194252
0.80294966697692871 0.24354444444179535 0.11065783351659775
0.85680544376373291 0.25839796662330627 0.12194254249334335
0.022619061172008514 0.19039198756217957 0.098838269710540771
0.060659043490886688 0.19309912621974945 0.099819555878639221
0.11930391192436218 0.19433210790157318 0.095960639417171478
0.19986723363399506 0.19471438229084015 0.086529567837715149
0.29194837808609009 0.19799378514289856 0.076938167214393616
0.38068512082099915 0.20523726940155029 0.075148321688175201
0.4619382917881012 0.21698324382305145 0.0801115483045578
0.54301804304122925 0.23178082704544067 0.086155474185943604
0.62103211879730225 0.24853615462779999 0.092262595891952515
0.69143909215927124 0.26659739017486572 0.1002519503235817
0.75517052412033081 0.28468352556228638 0.10927339643239975
0.81183469295501709 0.30274665355682373 0.1219426766037941
0.86471390724182129 0.31909245252609253 0.13571985065937042
0.029510512948036194 0.24552813172340393 0.10651218146085739
0.06813647598028183 0.24922391772270203 0.10676068812608719
0.12411247938871384 0.25230079889297485 0.10245959460735321
0.20349687337875366 0.2545769214630127 0.091866664588451385
0.30248376727104187 0.25672245025634766 0.079461775720119476
0.40211021900177002 0.26113086938858032 0.075538843870162964
0.48895567655563354 0.27126801013946533 0.07986970990896225
0.5694730281829834 0.28583857417106628 0.085512511432170868
0.64555424451828003 0.30256694555282593 0.090570561587810516
0.71322500705718994 0.32126283645629883 0.099090784788131714
0.7723274827003479 0.34122005105018616 0.11254013329744339
0.82534128427505493 0.36033833026885986 0.12866295874118805
0.87648975849151611 0.3764241635799408 0.14405320584774017
0.039239548146724701 0.30118754506111145 0.11477846652269363
0.076910354197025299 0.30659970641136169 0.11440757662057877
0.12931296229362488 0.3127589225769043 0.11006532609462738
0.20538568496704102 0.31893843412399292 0.099977456033229828
0.30885311961174011 0.32263267040252686 0.088082149624824524
0.42207452654838562 0.32391849160194397 0.083007544279098511
0.51911634206771851 0.33080205321311951 0.08561483770608902
0.59953033924102783 0.34413638710975647 0.088645234704017639
0.67170602083206177 0.36016660928726196 0.091543935239315033
0.7347906231880188 0.37879568338394165 0.099182739853858948
0.7893073558807373 0.39843994379043579 0.11383654922246933
0.84025120735168457 0.41555899381637573 0.13093249499797821
0.8903958797454834 0.42924761772155762 0.14649322628974915
0.050716191530227661 0.35875687003135681 0.12517647445201874
0.086432166397571564 0.36547008156776428 0.12462065368890762
0.13550643622875214 0.3747500479221344 0.1210363358259201
0.20954510569572449 0.38565832376480103 0.11330925673246384
0.31571477651596069 0.39469197392463684 0.10352083295583725
0.43702775239944458 0.39805281162261963 0.099219314754009247
0.53975266218185425 0.40178832411766052 0.099358849227428436
0.62099295854568481 0.41023203730583191 0.099700450897216797
0.69131100177764893 0.42278537154197693 0.098634861409664154
0.75122499465942383 0.43932795524597168 0.10411641746759415
0.80320638418197632 0.45620959997177124 0.11701227724552155
0.85363495349884033 0.46890845894813538 0.13206906616687775
0.90344542264938354 0.47913837432861328 0.14592257142066956
0.061780426651239395 0.4190065860748291 0.13897289335727692
0.096444673836231232 0.42597746849060059 0.13822610676288605
0.14305961132049561 0.43649694323539734 0.13579747080802917
0.2160414457321167 0.45118138194084167 0.13153590261936188
0.32603192329406738 0.46577385067939758 0.12420419603586197
0.45040297508239746 0.47502061724662781 0.11800092458724976
0.55308628082275391 0.47896575927734375 0.11503525078296661
0.63389098644256592 0.48268193006515503 0.11217956244945526
0.7044481635093689 0.48896172642707825 0.10845043510198593
0.76412051916122437 0.49963527917861938 0.11223760992288589
0.81511199474334717 0.51179653406143188 0.12393418699502945
0.8642880916595459 0.52117383480072021 0.136768639087677
0.91325259208679199 0.52929991483688354 0.14854574203491211
0.072266444563865662 0.48189267516136169 0.15640813112258911
0.10753235220909119 0.48854926228523254 0.15400166809558868
0.15290169417858124 0.49882680177688599 0.15299077332019806
0.22293640673160553 0.51400166749954224 0.1506599485874176
0.33302125334739685 0.53095602989196777 0.14470118284225464
0.46028244495391846 0.54522091150283813 0.13515166938304901
0.56346696615219116 0.55370962619781494 0.12780341506004333
0.64115035533905029 0.55742084980010986 0.12320170551538467
0.71014022827148438 0.55828595161437988 0.12049941718578339
0.77102988958358765 0.56184548139572144 0.12499295175075531
0.82282453775405884 0.56845152378082275 0.13593938946723938
0.87111496925354004 0.57517504692077637 0.14760200679302216
0.91875559091567993 0.58219510316848755 0.15791912376880646
0.084976732730865479 0.54547232389450073 0.17301753163337708
0.12201371788978577 0.55254226922988892 0.17183518409729004
0.1677432507276535 0.56288182735443115 0.16959396004676819
0.23572677373886108 0.57706403732299805 0.16694283485412598
0.34220731258392334 0.59346175193786621 0.16001869738101959
0.47135385870933533 0.60969620943069458 0.14821895956993103
0.57542359828948975 0.62251299619674683 0.13984303176403046
0.64714330434799194 0.62910133600234985 0.13765114545822144
0.7105146050453186 0.62920701503753662 0.13839086890220642
0.77097564935684204 0.6277802586555481 0.14321072399616241
0.82391709089279175 0.62841469049453735 0.15230599045753479
0.87247604131698608 0.63155794143676758 0.16144576668739319
0.92022496461868286 0.63706690073013306 0.16914695501327515
0.10178451240062714 0.60730040073394775 0.19051451981067657
0.141815185546875 0.61520463228225708 0.18841075897216797
0.1902284175157547 0.62630897760391235 0.18602855503559113
0.25902757048606873 0.64143377542495728 0.18154944479465485
0.36031907796859741 0.65781921148300171 0.17292644083499908
0.48381137847900391 0.67278361320495605 0.16266432404518127
0.58712255954742432 0.68613821268081665 0.15581385791301727
0.65698212385177612 0.69454419612884521 0.15529455244541168
0.7140052318572998 0.69593560695648193 0.15792575478553772
0.76825892925262451 0.6929207444190979 0.16205340623855591
0.82069963216781616 0.68980079889297485 0.16836996376514435
0.87006807327270508 0.6897960901260376 0.17450673878192902
0.91775292158126831 0.69306915998458862 0.17960759997367859
0.1201532855629921 0.66625356674194336 0.20635496079921722
0.16431635618209839 0.67459678649902344 0.20512852072715759
0.21664221584796906 0.68592280149459839 0.20443020761013031
0.28589680790901184 0.70142912864685059 0.20146264135837555
0.38041472434997559 0.71733063459396362 0.19485397636890411
0.49201872944831848 0.73217165470123291 0.18631406128406525
0.59228575229644775 0.74516844749450684 0.17943446338176727
0.66408741474151611 0.75378024578094482 0.17642374336719513
0.7172057032585144 0.75599080324172974 0.1763923168182373
0.76600676774978638 0.75345838069915771 0.17816779017448425
0.81569689512252808 0.75001484155654907 0.18136124312877655
0.86497688293457031 0.74845767021179199 0.18469160795211792
0.91377997398376465 0.74981874227523804 0.18794023990631104
0.13893726468086243 0.72304975986480713 0.22208268940448761
0.18758842349052429 0.73137205839157104 0.22262993454933167
0.24261379241943359 0.74262881278991699 0.22406302392482758
0.31171125173568726 0.75672096014022827 0.22396105527877808
0.39990127086639404 0.772297203540802 0.21952921152114868
0.50102955102920532 0.78733301162719727 0.2116440087556839
0.59596651792526245 0.8002856969833374 0.20346295833587646
0.66720306873321533 0.80851513147354126 0.19747085869312286
0.71846181154251099 0.81118369102478027 0.19356973469257355
0.76460707187652588 0.81002449989318848 0.19224412739276886
0.81278437376022339 0.80772393941879272 0.19276340305805206
0.86142373085021973 0.80605071783065796 0.19383412599563599
0.9108884334564209 0.80647450685501099 0.19539149105548859
0.020459208637475967 0.032538663595914841 0.12441872805356979
0.058623146265745163 0.031949076801538467 0.12738613784313202
0.11697058379650116 0.032879024744033813 0.12510514259338379
0.1954217255115509 0.036295227706432343 0.1181795597076416
0.27975738048553467 0.044012151658535004 0.11239252984523773
0.36473831534385681 0.053178045898675919 0.10951568186283112
0.4474484920501709 0.063507571816444397 0.11044933646917343
0.52923160791397095 0.078107364475727081 0.1145462766289711
0.60891497135162354 0.0959433913230896 0.11936687678098679
0.68085497617721558 0.11060815304517746 0.12171955406665802
0.74306958913803101 0.12053046375513077 0.12220188230276108
0.79834866523742676 0.12989586591720581 0.12580415606498718
0.85034489631652832 0.14024855196475983 0.13277362287044525
0.017549313604831696 0.081933178007602692 0.13723890483379364
0.050085119903087616 0.082193456590175629 0.14063714444637299
0.10689495503902435 0.083779387176036835 0.13771657645702362
0.18962107598781586 0.087159126996994019 0.12899427115917206
0.27956497669219971 0.093879535794258118 0.12170147150754929
0.36809363961219788 0.10269758850336075 0.11858991533517838
0.45157769322395325 0.11321090906858444 0.11931899189949036
0.53293997049331665 0.12760163843631744 0.12210540473461151
0.61211609840393066 0.14425833523273468 0.12478251755237579
0.68391281366348267 0.15914361178874969 0.1258474588394165
0.74628043174743652 0.17203715443611145 0.12914101779460907
0.80070972442626953 0.18609373271465302 0.13777799904346466
0.85215860605239868 0.2004871666431427 0.1495787501335144
0.017067285254597664 0.13735933601856232 0.1476425975561142
0.045302014797925949 0.14006872475147247 0.15191833674907684
0.096211977303028107 0.14293807744979858 0.15132559835910797
0.17972919344902039 0.14448708295822144 0.14276908338069916
0.27670937776565552 0.14887958765029907 0.13218419253826141
0.37005239725112915 0.15717414021492004 0.12821537256240845
0.45427826046943665 0.16864456236362457 0.13002176582813263
0.53696721792221069 0.18282116949558258 0.13169063627719879
0.6164739727973938 0.19841781258583069 0.1322314441204071
0.68821948766708374 0.21327307820320129 0.1335761696100235
0.75068742036819458 0.22954152524471283 0.13988299667835236
0.80456805229187012 0.24797318875789642 0.15412391722202301
0.85510909557342529 0.26604953408241272 0.17023678123950958
0.019068893045186996 0.19430440664291382 0.1564389169216156
0.049142710864543915 0.19784711301326752 0.16114844381809235
0.098615594208240509 0.20038548111915588 0.16199861466884613
0.17834438383579254 0.20223413407802582 0.15210682153701782
0.28201156854629517 0.2051011323928833 0.1365797370672226
0.3807060718536377 0.21270492672920227 0.13164958357810974
0.46414646506309509 0.22538256645202637 0.13603122532367706
0.5483587384223938 0.24039377272129059 0.13820897042751312
0.62860667705535889 0.25630781054496765 0.13803331553936005
0.69926047325134277 0.27301725745201111 0.14187605679035187
0.75963389873504639 0.29171976447105408 0.15323685109615326
0.81188392639160156 0.31287723779678345 0.17130859196186066
0.86145699024200439 0.33194470405578613 0.18976368010044098
0.024597316980361938 0.25078025460243225 0.16518688201904297
0.057175610214471817 0.25453019142150879 0.16867141425609589
0.10518726706504822 0.25830861926078796 0.1676298975944519
0.18070510029792786 0.26173496246337891 0.15636469423770905
0.29130429029464722 0.26412713527679443 0.13588102161884308
