assets/lut/abigailgonzalez cinematic for flog.cube
# Created by: G'MIC (https://gmic.eu)
TITLE "cinematic_for_flog"
# LUT size
LUT_3D_SIZE 13
# Data domain
DOMAIN_MIN 0.0 0.0 0.0
DOMAIN_MAX 1.0 1.0 1.0
# LUT data points
0.0051976819522678852 0.0037640142254531384 0.027001893147826195
0.047646213322877884 0.0057690488174557686 0.022870920598506927
0.13096904754638672 0.0069033754989504814 0.017751431092619896
0.22796379029750824 0.013539677485823631 0.013726522214710712
0.32491263747215271 0.02916431799530983 0.012561035342514515
0.42307648062705994 0.049091517925262451 0.012714670039713383
0.52032911777496338 0.071621820330619812 0.013310735113918781
0.60695993900299072 0.090919226408004761 0.014992359094321728
0.67594993114471436 0.10381116718053818 0.015025224536657333
0.73214441537857056 0.11446382105350494 0.014393765479326248
0.78094452619552612 0.1253938227891922 0.01353924348950386
0.82505196332931519 0.13501571118831635 0.012107520364224911
0.8662300705909729 0.14228880405426025 0.010812317952513695
0.0059160417877137661 0.021329378709197044 0.031110113486647606
0.034245479851961136 0.02415568009018898 0.025948228314518929
0.10684585571289062 0.025472125038504601 0.017411414533853531
0.20598696172237396 0.033449150621891022 0.010736009106040001
0.31119683384895325 0.051217425614595413 0.0091252792626619339
0.42005136609077454 0.07461923360824585 0.0096676694229245186
0.52635723352432251 0.099911466240882874 0.012093158438801765
0.61898338794708252 0.12207519263029099 0.015426800586283207
0.68955904245376587 0.1358267217874527 0.015563725493848324
0.74505412578582764 0.14678984880447388 0.015488463453948498
0.79227757453918457 0.15787817537784576 0.014234490692615509
0.83449286222457886 0.16719208657741547 0.012699665501713753
0.87311500310897827 0.17417192459106445 0.010916003026068211
0.0055969688110053539 0.054298911243677139 0.040081951767206192
0.028438717126846313 0.055826809257268906 0.035663366317749023
0.086285114288330078 0.057775296270847321 0.026674980297684669
0.18114931881427765 0.063850626349449158 0.015932105481624603
0.29372283816337585 0.079800322651863098 0.0094478679820895195
0.41320306062698364 0.10182133316993713 0.00846074428409338
0.52803903818130493 0.12680377066135406 0.010672116652131081
0.62486946582794189 0.14903214573860168 0.012424379587173462
0.69846004247665405 0.16385442018508911 0.014371445402503014
0.75430625677108765 0.17484110593795776 0.015024296939373016
0.80068933963775635 0.18511037528514862 0.012751081958413124
0.84156215190887451 0.19400106370449066 0.011521447449922562
0.87877017259597778 0.20211157202720642 0.010101722553372383
0.0028580161742866039 0.10414977371692657 0.054616563022136688
0.020874965935945511 0.10505794733762741 0.052868232131004333
0.065647050738334656 0.10843502730131149 0.048658259212970734
0.15509364008903503 0.11202117055654526 0.033866941928863525
0.27438169717788696 0.1211644783616066 0.018136342987418175
0.40368703007698059 0.13841864466667175 0.01075458899140358
0.5275917649269104 0.16166684031486511 0.009843459352850914
0.62992227077484131 0.18375922739505768 0.011496300809085369
0.70494401454925537 0.19693273305892944 0.011768760159611702
0.76089894771575928 0.20603689551353455 0.013025261461734772
0.80683994293212891 0.21463991701602936 0.011699212715029716
0.84672129154205322 0.22244659066200256 0.009922281838953495
0.88283604383468628 0.23201118409633636 0.0097756478935480118
0.0015581018524244428 0.16809201240539551 0.07486271858215332
0.017096292227506638 0.16704235970973969 0.07357914000749588
0.055500075221061707 0.17183506488800049 0.071855075657367706
0.13325002789497375 0.17843680083751678 0.060511361807584763
0.25045207142829895 0.18553411960601807 0.041151262819766998
0.38982126116752625 0.19538916647434235 0.022226117551326752
0.52701079845428467 0.21615652740001678 0.012737229466438293
0.63690191507339478 0.23782634735107422 0.011703207157552242
0.7124711275100708 0.24794672429561615 0.013680177740752697
0.76812678575515747 0.25508970022201538 0.015308903530240059
0.81421506404876709 0.2618192732334137 0.013103919103741646
0.85319197177886963 0.26759552955627441 0.011367184109985828
0.88761985301971436 0.27675411105155945 0.013267053291201591
0.0045211343094706535 0.24652658402919769 0.099191628396511078
0.022026630118489265 0.24319680035114288 0.097695760428905487
0.052783548831939697 0.24942144751548767 0.099205568432807922
0.1150629073381424 0.26227614283561707 0.096518240869045258
0.22494421899318695 0.27471217513084412 0.081647582352161407
0.37519410252571106 0.2804725170135498 0.052160359919071198
0.52555686235427856 0.2917407751083374 0.02746601402759552
0.64355194568634033 0.31179869174957275 0.018510647118091583
0.72274714708328247 0.32461979985237122 0.019809678196907043
0.78006249666213989 0.33463960886001587 0.021629437804222107
0.8259737491607666 0.33974003791809082 0.019947545602917671
0.86342453956604004 0.34378460049629211 0.020200736820697784
0.89565402269363403 0.35249426960945129 0.024973506107926369
0.015438484027981758 0.33994659781455994 0.12830321490764618
0.034647773951292038 0.33748123049736023 0.12742926180362701
0.059736873954534531 0.34230908751487732 0.13087365031242371
0.10966240614652634 0.3546757698059082 0.13370351493358612
0.21351906657218933 0.37758111953735352 0.12855742871761322
0.37211602926254272 0.39610463380813599 0.10407981276512146
0.52820718288421631 0.39077872037887573 0.065041050314903259
0.64968293905258179 0.3971518874168396 0.04088185727596283
0.73500782251358032 0.41678610444068909 0.036583349108695984
0.79512554407119751 0.43433579802513123 0.03811289370059967
0.84048956632614136 0.43977588415145874 0.038226272910833359
0.87607342004776001 0.44516721367835999 0.040948845446109772
0.9062424898147583 0.45322775840759277 0.04680035263299942
0.031777236610651016 0.43907895684242249 0.15873256325721741
0.054258517920970917 0.43942257761955261 0.15927456319332123
0.078810416162014008 0.44194364547729492 0.16289019584655762
0.11947223544120789 0.4506765604019165 0.16775307059288025
0.21268078684806824 0.4783763587474823 0.17026607692241669
0.37493264675140381 0.51928400993347168 0.16166029870510101
0.5428728461265564 0.52325940132141113 0.12679612636566162
0.66421264410018921 0.50665038824081421 0.088333144783973694
0.74838083982467651 0.5076485276222229 0.068430565297603607
0.80840295553207397 0.52109998464584351 0.06410197913646698
0.85346400737762451 0.53133690357208252 0.065057791769504547
0.88815891742706299 0.54238557815551758 0.06914578378200531
0.91728675365447998 0.5520014762878418 0.073748208582401276
0.047730959951877594 0.5274469256401062 0.18523764610290527
0.074526481330394745 0.53040021657943726 0.18610306084156036
0.10141067206859589 0.53298330307006836 0.18902266025543213
0.1368739902973175 0.53885406255722046 0.19391044974327087
0.21935506165027618 0.56191718578338623 0.19832560420036316
0.37553083896636963 0.60472118854522705 0.19632075726985931
0.5540928840637207 0.63216304779052734 0.17678447067737579
0.68070107698440552 0.61928534507751465 0.14163638651371002
0.76059359312057495 0.59672576189041138 0.10906087607145309
0.81887859106063843 0.59316623210906982 0.09549444168806076
0.86369681358337402 0.60077202320098877 0.09353974461555481
0.89814352989196777 0.61297732591629028 0.095904797315597534
0.92630511522293091 0.62249082326889038 0.097652778029441833
0.059497639536857605 0.596718430519104 0.20375914871692657
0.084909968078136444 0.60007721185684204 0.20434151589870453
0.11153396964073181 0.60300612449645996 0.20642317831516266
0.15115118026733398 0.6094365119934082 0.21020743250846863
0.23787656426429749 0.63075935840606689 0.21449907124042511
0.39165902137756348 0.66992884874343872 0.21429421007633209
0.56161952018737793 0.70518118143081665 0.2043963223695755
0.68824189901351929 0.70516586303710938 0.17902256548404694
0.76948064565658569 0.67834162712097168 0.14629532396793365
0.8268018364906311 0.66023552417755127 0.12569771707057953
0.87139678001403809 0.65795809030532837 0.11866834759712219
0.9048612117767334 0.66506266593933105 0.1174028292298317
0.93238735198974609 0.67299586534500122 0.11681823432445526
0.067084789276123047 0.65195614099502563 0.21695874631404877
0.087960340082645416 0.65372699499130249 0.2163655012845993
0.1125650480389595 0.65574097633361816 0.21691237390041351
0.1565273255109787 0.66286033391952515 0.21933330595493317
0.24630597233772278 0.68363112211227417 0.22299706935882568
0.39039641618728638 0.71920877695083618 0.22430193424224854
0.55030554533004761 0.75372260808944702 0.21786719560623169
0.68294882774353027 0.76458358764648438 0.19980302453041077
0.77428114414215088 0.74880772829055786 0.17373412847518921
0.83393961191177368 0.72554057836532593 0.15163338184356689
0.87616407871246338 0.711742103099823 0.13942939043045044
0.90811675786972046 0.71051579713821411 0.13492216169834137
0.93604493141174316 0.71573084592819214 0.132433220744133
0.073688358068466187 0.70066565275192261 0.22808557748794556
0.092088989913463593 0.70028305053710938 0.2260795384645462
0.11547382175922394 0.70078963041305542 0.22490084171295166
0.15950652956962585 0.70682626962661743 0.22567427158355713
0.24767740070819855 0.72610712051391602 0.22850535809993744
0.38203781843185425 0.75805002450942993 0.23061975836753845
0.53294819593429565 0.79148727655410767 0.2269761860370636
0.6697617769241333 0.81188839673995972 0.21475449204444885
0.77147257328033447 0.80878275632858276 0.19499304890632629
0.8341904878616333 0.78520405292510986 0.17357935011386871
0.8760111927986145 0.76166462898254395 0.1576245129108429
0.90836220979690552 0.75398480892181396 0.15051320195198059
0.93765884637832642 0.75623875856399536 0.14690998196601868
0.081062391400337219 0.74679434299468994 0.23878218233585358
0.10021297633647919 0.74473351240158081 0.23568715155124664
0.1263936460018158 0.74442827701568604 0.23369863629341125
0.17313727736473083 0.75013858079910278 0.23340420424938202
0.25760588049888611 0.76663124561309814 0.23531600832939148
0.37899228930473328 0.79393434524536133 0.23720693588256836
0.5164828896522522 0.82379394769668579 0.23495055735111237
0.64743912220001221 0.84701722860336304 0.22629311680793762
0.75150132179260254 0.85193169116973877 0.21125152707099915
0.82057672739028931 0.8347504734992981 0.19254106283187866
0.86763101816177368 0.81184041500091553 0.17603445053100586
0.90428215265274048 0.8000674843788147 0.16662237048149109
0.93673586845397949 0.79845279455184937 0.1609511524438858
0.0047023249790072441 0.0054431091994047165 0.063633054494857788
0.046240773051977158 0.0071935765445232391 0.057421199977397919
0.13337257504463196 0.0060871648602187634 0.050278786569833755
0.23564024269580841 0.014043830335140228 0.045718219131231308
0.33378896117210388 0.02922375313937664 0.043261867016553879
0.42914888262748718 0.047555737197399139 0.039567865431308746
0.52278202772140503 0.067030318081378937 0.035683918744325638
0.60569506883621216 0.083053991198539734 0.034865196794271469
0.67263835668563843 0.09547443687915802 0.035544034093618393
0.72815829515457153 0.1088729128241539 0.037442345172166824
0.77754199504852295 0.12495962530374527 0.038583192974328995
0.82258063554763794 0.13837736845016479 0.038567546755075455
0.86355435848236084 0.14656449854373932 0.03818073496222496
0.0069896322675049305 0.024547681212425232 0.068058595061302185
0.034849744290113449 0.026136809960007668 0.062877461314201355
0.10848648846149445 0.027072936296463013 0.052012395113706589
0.21053619682788849 0.036323860287666321 0.043298669159412384
0.3176581859588623 0.05456128716468811 0.038618814200162888
0.42573532462120056 0.075928196310997009 0.035686179995536804
0.52977448701858521 0.09772452712059021 0.034032050520181656
0.61885619163513184 0.11632280796766281 0.034100625663995743
0.68780672550201416 0.13040792942047119 0.034777279943227768
0.74324357509613037 0.14490441977977753 0.036016695201396942
0.79120135307312012 0.1624772846698761 0.037816453725099564
0.83396065235137939 0.17537705600261688 0.037922758609056473
0.8721468448638916 0.1815321296453476 0.037428732961416245
0.0073005077429115772 0.058059543371200562 0.075743824243545532
0.026228826493024826 0.0605914406478405 0.072271533310413361
0.081714019179344177 0.062861829996109009 0.062105126678943634
0.18045514822006226 0.069884821772575378 0.047389175742864609
0.29740989208221436 0.086709208786487579 0.037746191024780273
0.41980412602424622 0.10696353018283844 0.033896412700414658
0.53495454788208008 0.12847425043582916 0.032570425420999527
0.62962502241134644 0.14747591316699982 0.031024260446429253
0.70102065801620483 0.16129294037818909 0.031676333397626877
0.75581538677215576 0.17477734386920929 0.033319182693958282
0.8023679256439209 0.18994933366775513 0.03428032249212265
0.84253007173538208 0.20187966525554657 0.034304104745388031
0.87888211011886597 0.20999719202518463 0.034464623779058456
0.0057859085500240326 0.10857336223125458 0.088016539812088013
0.021723398938775063 0.11087552458047867 0.085169054567813873
0.061516318470239639 0.11550509929656982 0.080006405711174011
0.15483565628528595 0.11894261837005615 0.06168052926659584
0.28080540895462036 0.12943859398365021 0.044627845287322998
0.41425114870071411 0.14518435299396515 0.036725707352161407
0.53898042440414429 0.16378697752952576 0.033787552267313004
0.63888239860534668 0.18258726596832275 0.031003525480628014
0.71153014898300171 0.19400171935558319 0.030943626537919044
0.76589870452880859 0.20398987829685211 0.030943626537919044
0.8106154203414917 0.21535937488079071 0.030633321031928062
0.84942126274108887 0.22581394016742706 0.029668351635336876
0.88382303714752197 0.23645780980587006 0.031634822487831116
0.0028623694088310003 0.17479601502418518 0.1076662540435791
0.016868935897946358 0.17505225539207458 0.10481306910514832
0.051813762634992599 0.17963141202926636 0.10049019753932953
0.13324059545993805 0.1863832026720047 0.086246699094772339
0.25902581214904785 0.19563819468021393 0.065959319472312927
0.40378746390342712 0.20350717008113861 0.045908130705356598
0.54072046279907227 0.21873453259468079 0.034102898091077805
0.64767223596572876 0.23536413908004761 0.031045591458678246
0.72116351127624512 0.24195478856563568 0.032312847673892975
0.7751811146736145 0.24889126420021057 0.032435502856969833
0.81964266300201416 0.25663688778877258 0.029509810730814934
0.85674208402633667 0.26391863822937012 0.02776012010872364
0.88886827230453491 0.27510929107666016 0.032709397375583649
0.0054878685623407364 0.2573583722114563 0.13221648335456848
0.02014261856675148 0.25616389513015747 0.12889721989631653
0.047740023583173752 0.26003572344779968 0.12685395777225494
0.11171609908342361 0.26966971158981323 0.1204691007733345
0.23010933399200439 0.28284445405006409 0.10343101620674133
0.38818109035491943 0.28834095597267151 0.072049669921398163
0.540740966796875 0.298280268907547 0.046014148741960526
0.65725600719451904 0.31552645564079285 0.037836067378520966
0.73369115591049194 0.32126966118812561 0.038358397781848907
0.78870302438735962 0.32733502984046936 0.038386207073926926
0.83297145366668701 0.3302459716796875 0.03431040421128273
0.8675883412361145 0.33374911546707153 0.034377619624137878
0.8965337872505188 0.34372928738594055 0.042049065232276917
0.016850745305418968 0.35397332906723022 0.16058848798274994
0.033125858753919601 0.35386461019515991 0.15749405324459076
0.054446142166852951 0.35497450828552246 0.15700608491897583
0.10102467238903046 0.35914784669876099 0.15580503642559052
0.20952944457530975 0.37942999601364136 0.14873816072940826
0.37805679440498352 0.40381255745887756 0.1251823902130127
0.54292052984237671 0.40452367067337036 0.086126349866390228
0.66606813669204712 0.40955746173858643 0.060780841857194901
0.74864703416824341 0.42156028747558594 0.054190106689929962
0.80575776100158691 0.43207475543022156 0.053909748792648315
0.8486868143081665 0.43541720509529114 0.053100347518920898
0.8809124231338501 0.43959745764732361 0.055638749152421951
0.9074939489364624 0.44548812508583069 0.062923148274421692
0.032966271042823792 0.45423117280006409 0.18996749818325043
0.052847005426883698 0.45633938908576965 0.18724898993968964
0.072541177272796631 0.45565328001976013 0.18726339936256409
0.10777606070041656 0.45534816384315491 0.18910737335681915
0.20312173664569855 0.47991129755973816 0.1916690319776535
0.37243005633354187 0.52258694171905518 0.18354047834873199
0.54864341020584106 0.52957433462142944 0.14744684100151062
0.67675459384918213 0.51651906967163086 0.10799500346183777
0.76125442981719971 0.5167345404624939 0.087521001696586609
0.81982505321502686 0.52674084901809692 0.082637399435043335
0.86262410879135132 0.53674525022506714 0.084459520876407623
0.89387845993041992 0.54693031311035156 0.088500127196311951
0.91918033361434937 0.55044615268707275 0.092003732919692993
0.048750393092632294 0.54128289222717285 0.21447598934173584
0.071825422346591949 0.54394125938415527 0.21177089214324951
0.093071907758712769 0.54404127597808838 0.21168340742588043
0.12505687773227692 0.54613715410232544 0.21521477401256561
0.20897781848907471 0.56735169887542725 0.22090256214141846
0.36980274319648743 0.6087157130241394 0.21871668100357056
0.55223917961120605 0.63300102949142456 0.19618433713912964
0.68588757514953613 0.62089258432388306 0.1596667468547821
0.76985222101211548 0.60221236944198608 0.12985759973526001
0.82995158433914185 0.60179054737091064 0.11743552982807159
0.87314808368682861 0.61018210649490356 0.11701025813817978
0.90425378084182739 0.62147480249404907 0.11945018172264099
0.92869067192077637 0.62680065631866455 0.11945567280054092
0.060478959232568741 0.60654878616333008 0.23072336614131927
0.082567714154720306 0.60973066091537476 0.22826963663101196
0.10433457046747208 0.61121529340744019 0.22786159813404083
0.1384473443031311 0.61545729637145996 0.23104885220527649
0.21938444674015045 0.63362032175064087 0.23640565574169159
0.37286549806594849 0.6708717942237854 0.23652094602584839
0.55219352245330811 0.70429146289825439 0.22395585477352142
0.68835729360580444 0.70474827289581299 0.19720341265201569
0.77728581428527832 0.6840938925743103 0.16736164689064026
0.83794951438903809 0.67050373554229736 0.14935244619846344
0.8804398775100708 0.66792780160903931 0.14371739327907562
0.91015136241912842 0.67376136779785156 0.14284370839595795
0.93431949615478516 0.67947769165039062 0.1407037228345871
0.067824378609657288 0.65755558013916016 0.24160552024841309
0.086335696280002594 0.65941047668457031 0.23889490962028503
0.10794536769390106 0.66143506765365601 0.23773753643035889
0.14688697457313538 0.66719561815261841 0.23986214399337769
0.22926650941371918 0.68484038114547729 0.24429035186767578
0.37064185738563538 0.71861058473587036 0.24593688547611237
0.53907042741775513 0.75340098142623901 0.23855175077915192
0.68051815032958984 0.76672124862670898 0.21987603604793549
0.77857041358947754 0.75585168600082397 0.19561906158924103
0.84191018342971802 0.73605376482009888 0.17566464841365814
0.8833010196685791 0.72202140092849731 0.1646004319190979
0.9120715856552124 0.71900361776351929 0.15969885885715485
0.93711930513381958 0.72207576036453247 0.1563909649848938
0.073410838842391968 0.70362550020217896 0.25082048773765564
0.090991571545600891 0.70325523614883423 0.24752849340438843
0.113188736140728 0.7043834924697876 0.24584731459617615
0.15610209107398987 0.7103583812713623 0.2468443363904953
0.23927494883537292 0.72715216875076294 0.25028422474861145
0.3692229688167572 0.75675338506698608 0.2526237964630127
0.52200710773468018 0.78939509391784668 0.24863623082637787
0.66262125968933105 0.81200295686721802 0.23612833023071289
0.7683447003364563 0.8134695291519165 0.21782819926738739
0.83653026819229126 0.79489201307296753 0.19787265360355377
0.8806157112121582 0.77257007360458374 0.18285579979419708
0.91202670335769653 0.76178431510925293 0.17468370497226715
0.9396471381187439 0.76080203056335449 0.1693827211856842
0.079825535416603088 0.74765461683273315 0.26122555136680603
0.098576672375202179 0.74613583087921143 0.25752609968185425
0.12449577450752258 0.74624603986740112 0.25554192066192627
0.17074756324291229 0.75158500671386719 0.2559390664100647
0.25236514210700989 0.76696896553039551 0.25854992866516113
0.36942258477210999 0.79054641723632812 0.26073509454727173
0.50555431842803955 0.81887960433959961 0.25833150744438171
0.63801783323287964 0.84482365846633911 0.24935044348239899
0.74491232633590698 0.85550540685653687 0.23529641330242157
0.81933200359344482 0.84355217218399048 0.21777583658695221
0.87030482292175293 0.82036185264587402 0.20133496820926666
0.9075387716293335 0.80531007051467896 0.18988001346588135
0.9396020770072937 0.80047786235809326 0.18190932273864746
0.0070364708080887794 0.0060984441079199314 0.10768679529428482
0.04445025697350502 0.0063915178179740906 0.099910393357276917
0.1293567568063736 0.0083353081718087196 0.092473737895488739
0.24270102381706238 0.01692219078540802 0.087620995938777924
0.34544244408607483 0.02953624352812767 0.08163190633058548
0.43785539269447327 0.044635459780693054 0.072299480438232422
0.5261504054069519 0.060495622456073761 0.062327753752470016
0.60331243276596069 0.073022700846195221 0.058607406914234161
0.66644752025604248 0.082595780491828918 0.060508459806442261
0.72027844190597534 0.096286177635192871 0.06322014331817627
0.77074539661407471 0.11736396700143814 0.064883902668952942
0.81686794757843018 0.13561831414699554 0.066343002021312714
0.85882073640823364 0.14628976583480835 0.068140335381031036
0.0056321984156966209 0.031350407749414444 0.11394499242305756
0.029950354248285294 0.031386896967887878 0.1088702455163002
0.10026665776968002 0.033609576523303986 0.098753608763217926
0.21064065396785736 0.042358040809631348 0.087473012506961823
0.32535102963447571 0.057511962950229645 0.07751762866973877
0.43296027183532715 0.075468488037586212 0.068127050995826721
0.53297334909439087 0.094313494861125946 0.059858135879039764
0.61658340692520142 0.1092480793595314 0.05591144785284996
0.68275386095046997 0.12119828909635544 0.056430578231811523
0.73698669672012329 0.13741616904735565 0.059198610484600067
0.78605252504348755 0.16085973381996155 0.062539719045162201
0.82977795600891113 0.17847250401973724 0.064564555883407593
0.86835312843322754 0.18569399416446686 0.065701067447662354
0.0053226398304104805 0.067321911454200745 0.12175837159156799
0.022119918838143349 0.06833946704864502 0.11967803537845612
0.073763109743595123 0.071101516485214233 0.10959520190954208
0.1756923496723175 0.07828858494758606 0.092249669134616852
0.30081859230995178 0.094175152480602264 0.076443858444690704
0.42665138840675354 0.1128116101026535 0.065810650587081909
0.54038059711456299 0.1330687403678894 0.057983998209238052
0.63108193874359131 0.14803984761238098 0.052663497626781464
0.69930744171142578 0.15857920050621033 0.051454760134220123
0.75335443019866943 0.17291466891765594 0.053210105746984482
0.80001640319824219 0.19280247390270233 0.056109126657247543
0.84115022420883179 0.20933455228805542 0.05830797553062439
0.87715625762939453 0.21879297494888306 0.060811750590801239
0.0056751025840640068 0.11764369159936905 0.13263006508350372
0.021306416019797325 0.1179889440536499 0.13015389442443848
0.058379184454679489 0.12138926237821579 0.12292245775461197
0.14797306060791016 0.12699005007743835 0.10441908240318298
0.28135710954666138 0.13828341662883759 0.083152726292610168
0.42096957564353943 0.15461143851280212 0.068662472069263458
0.54567998647689819 0.17312231659889221 0.059184055775403976
0.64377707242965698 0.18697069585323334 0.052150726318359375
0.71470946073532104 0.19500681757926941 0.050255868583917618
0.767772376537323 0.20520000159740448 0.050254028290510178
0.81183820962905884 0.21936531364917755 0.05037790909409523
0.85026079416275024 0.23363989591598511 0.051654096692800522
0.88418138027191162 0.2465188056230545 0.056149739772081375
0.0037071227561682463 0.18470491468906403 0.15044814348220825
0.017514681443572044 0.18406757712364197 0.14628812670707703
0.04775753989815712 0.18685521185398102 0.14060534536838531
