assets/lut/abigailgonzalez cinema 05.cube
# Created by: G'MIC (https://gmic.eu)
TITLE "cinema_5"
# LUT size
LUT_3D_SIZE 5
# Data domain
DOMAIN_MIN 0.0 0.0 0.0
DOMAIN_MAX 1.0 1.0 1.0
# LUT data points
0.03473784402012825 0.032999403774738312 0.047940615564584732
0.26715514063835144 0.053842656314373016 0.046376410871744156
0.48411440849304199 0.076530769467353821 0.075242690742015839
0.76366281509399414 0.11220246553421021 0.11436498165130615
0.9641115665435791 0.1490510106086731 0.14821946620941162
0.010755620896816254 0.21728029847145081 0.059095807373523712
0.23539334535598755 0.24183733761310577 0.058632928878068924
0.5259709358215332 0.25167810916900635 0.049585200846195221
0.83514100313186646 0.29820910096168518 0.073058217763900757
0.99015146493911743 0.34550198912620544 0.12243782728910446
0.014583856798708439 0.40310630202293396 0.08245377242565155
0.14333818852901459 0.42724937200546265 0.072732351720333099
0.49951469898223877 0.47000625729560852 0.078871004283428192
0.83582049608230591 0.51328879594802856 0.05473988875746727
0.99369210004806519 0.55223971605300903 0.087121643126010895
0.016947204247117043 0.64965903759002686 0.1130872368812561
0.11412884294986725 0.67234742641448975 0.090304113924503326
0.47326990962028503 0.72504621744155884 0.097227878868579865
0.83755606412887573 0.76148819923400879 0.11244243383407593
0.9976574182510376 0.76425981521606445 0.11465225368738174
0.0037083644419908524 0.81379157304763794 0.10319811105728149
0.091755717992782593 0.83708864450454712 0.10201182961463928
0.4146721363067627 0.86365032196044922 0.11833468824625015
0.79056209325790405 0.89863240718841553 0.14066527783870697
0.98128718137741089 0.89846068620681763 0.13659416139125824
0.01281083095818758 0.038237940520048141 0.29272985458374023
0.25383344292640686 0.038764175027608871 0.31248238682746887
0.51150834560394287 0.045537911355495453 0.24411249160766602
0.76801097393035889 0.086020074784755707 0.2553287148475647
0.94291424751281738 0.12693165242671967 0.27584603428840637
0.014760095626115799 0.25835654139518738 0.30728363990783691
0.1817123144865036 0.26563000679016113 0.30717426538467407
0.52487576007843018 0.29402545094490051 0.29458469152450562
0.83730405569076538 0.34733930230140686 0.31137049198150635
0.97536158561706543 0.40464967489242554 0.36055830121040344
0.012167253531515598 0.45574462413787842 0.3017725944519043
0.11102233827114105 0.46296873688697815 0.31172114610671997
0.4475826621055603 0.48898392915725708 0.3245202898979187
0.85383927822113037 0.55421030521392822 0.30445677042007446
0.99224048852920532 0.59824949502944946 0.35394006967544556
0.0096520064398646355 0.68296223878860474 0.31123721599578857
0.084913931787014008 0.69658321142196655 0.3011469841003418
0.40441742539405823 0.73523461818695068 0.32827353477478027
0.82897710800170898 0.78014367818832397 0.34566327929496765
0.99949526786804199 0.79159224033355713 0.35646134614944458
0.019429270178079605 0.82823538780212402 0.29107987880706787
0.097171694040298462 0.84402120113372803 0.2869572639465332
0.4215373694896698 0.88105934858322144 0.32269832491874695
0.80094921588897705 0.91565406322479248 0.35378235578536987
0.99357312917709351 0.92208355665206909 0.36298647522926331
0.010483955033123493 0.042448800057172775 0.46564871072769165
0.13529369235038757 0.045953951776027679 0.50561749935150146
0.47918447852134705 0.044922653585672379 0.51885926723480225
0.78937560319900513 0.058504350483417511 0.51287782192230225
0.9638599157333374 0.10075522214174271 0.47726565599441528
0.019009668380022049 0.25905343890190125 0.53251552581787109
0.10178574174642563 0.27573767304420471 0.52722078561782837
0.44267314672470093 0.28185242414474487 0.53085660934448242
0.82042151689529419 0.31153371930122375 0.50204521417617798
0.97666758298873901 0.36739525198936462 0.50058192014694214
0.013924483209848404 0.48854398727416992 0.53287899494171143
0.10136238485574722 0.51043438911437988 0.53198862075805664
0.35421258211135864 0.51387888193130493 0.53569597005844116
0.82837218046188354 0.56245523691177368 0.52547919750213623
0.98404443264007568 0.62897312641143799 0.57735657691955566
0.013246304355561733 0.7194364070892334 0.53667891025543213
0.085160426795482635 0.73987233638763428 0.52955812215805054
0.28905266523361206 0.75354844331741333 0.5383526086807251
0.79743295907974243 0.79860085248947144 0.56229490041732788
0.99496877193450928 0.81011343002319336 0.58861327171325684
0.01800861768424511 0.86219269037246704 0.50523394346237183
0.090054482221603394 0.86668586730957031 0.48951774835586548
0.32910117506980896 0.8829725980758667 0.49353322386741638
0.79179888963699341 0.92358481884002686 0.54209005832672119
0.98887121677398682 0.93975627422332764 0.58205723762512207
0.013763128779828548 0.026616264134645462 0.68139415979385376
0.12484769523143768 0.040738541632890701 0.71570038795471191
0.39949041604995728 0.034465055912733078 0.73160713911056519
0.7583085298538208 0.049258902668952942 0.74365019798278809
0.97425192594528198 0.082165107131004333 0.72414344549179077
0.013101674616336823 0.25567573308944702 0.73656421899795532
0.097649939358234406 0.28220102190971375 0.74005204439163208
0.33961457014083862 0.27210456132888794 0.75651305913925171
0.76737505197525024 0.29290556907653809 0.76556873321533203
0.99138236045837402 0.33761253952980042 0.73650479316711426
0.019170753657817841 0.50591146945953369 0.74299591779708862
0.10627878457307816 0.53284889459609985 0.75378167629241943
0.19336581230163574 0.51763486862182617 0.77035492658615112
0.76772868633270264 0.53852170705795288 0.77801936864852905
0.98426300287246704 0.58089166879653931 0.73383867740631104
0.023345274850726128 0.75496131181716919 0.76683539152145386
0.12186408042907715 0.78324228525161743 0.77357488870620728
0.1424565464258194 0.79405182600021362 0.77396935224533081
0.72520709037780762 0.81370216608047485 0.78644835948944092
0.98629289865493774 0.84605872631072998 0.80102074146270752
0.013731922954320908 0.90549385547637939 0.74580633640289307
0.089969605207443237 0.91064608097076416 0.73989230394363403
0.14005167782306671 0.91223651170730591 0.72449105978012085
0.74596720933914185 0.93861156702041626 0.75887733697891235
0.98086953163146973 0.95925086736679077 0.80199271440505981
0.0094183078035712242 0.014280102215707302 0.84156632423400879
0.12795671820640564 0.040576592087745667 0.86891365051269531
0.3137543797492981 0.04961109533905983 0.85772502422332764
0.66908514499664307 0.044587571173906326 0.86669027805328369
0.92460691928863525 0.070303209125995636 0.86908650398254395
0.012361099943518639 0.23953038454055786 0.86684644222259521
0.087841376662254333 0.25971409678459167 0.87627726793289185
0.2722586989402771 0.25694096088409424 0.87149888277053833
0.67339271306991577 0.260947585105896 0.87513250112533569
0.94845050573348999 0.31586381793022156 0.88664740324020386
0.013147825375199318 0.47331082820892334 0.86899518966674805
0.10603480786085129 0.48916897177696228 0.87013113498687744
0.14737896621227264 0.47758468985557556 0.87976169586181641
0.6617438793182373 0.49444684386253357 0.89708822965621948
0.95450055599212646 0.5520932674407959 0.89607393741607666
0.016336642205715179 0.70580393075942993 0.87378543615341187
0.12133949249982834 0.73614466190338135 0.88062202930450439
0.15846224129199982 0.75056952238082886 0.89801615476608276
0.67931163311004639 0.79433435201644897 0.91384178400039673
0.9708983302116394 0.8233267068862915 0.92289453744888306
5.1700368203455582e-05 0.87751156091690063 0.87457054853439331
0.044623043388128281 0.89702188968658447 0.88130223751068115
0.077380359172821045 0.92067015171051025 0.90109628438949585
0.65804767608642578 0.94751685857772827 0.91415506601333618
0.98307377099990845 0.98517370223999023 0.95795202255249023
