assets/lut/abigailgonzalez fuji hdr.cube
# Created by: G'MIC (https://gmic.eu)
TITLE "fuji_hdr"
# LUT size
LUT_3D_SIZE 7
# Data domain
DOMAIN_MIN 0.0 0.0 0.0
DOMAIN_MAX 1.0 1.0 1.0
# LUT data points
0.021801413968205452 0.033733952790498734 0.037502303719520569
0.25423511862754822 0.030348340049386024 0.041666951030492783
0.48218387365341187 0.035922989249229431 0.039628002792596817
0.62975186109542847 0.047270651906728745 0.045308806002140045
0.70961421728134155 0.058171544224023819 0.03767559677362442
0.76766973733901978 0.063116498291492462 0.036805965006351471
0.82107174396514893 0.055454015731811523 0.048644557595252991
0.041994985193014145 0.18428850173950195 0.028399059548974037
0.198579341173172 0.18267104029655457 0.026425739750266075
0.36379018425941467 0.18122963607311249 0.035213351249694824
0.53291791677474976 0.18303193151950836 0.048530697822570801
0.65916401147842407 0.17460706830024719 0.04835263267159462
0.73684471845626831 0.1663227379322052 0.044287364929914474
0.79224056005477905 0.15482568740844727 0.039868671447038651
0.10581059008836746 0.34666845202445984 0.05194459855556488
0.21758493781089783 0.34615835547447205 0.046863000839948654
0.35731208324432373 0.34736540913581848 0.058355458080768585
0.52709925174713135 0.3395792543888092 0.073700025677680969
0.66080260276794434 0.32902765274047852 0.087879866361618042
0.74182301759719849 0.31433039903640747 0.090790934860706329
0.79741817712783813 0.29266825318336487 0.076109915971755981
0.17804162204265594 0.52869230508804321 0.075845427811145782
0.2686716616153717 0.52272814512252808 0.072663836181163788
0.35820695757865906 0.51777678728103638 0.081920385360717773
0.5226777195930481 0.50606697797775269 0.09021468460559845
0.68361461162567139 0.48988801240921021 0.10640755295753479
0.78312128782272339 0.47397524118423462 0.11322741210460663
0.85328066349029541 0.44914531707763672 0.1071939691901207
0.24511846899986267 0.68865346908569336 0.091020308434963226
0.30645760893821716 0.68307149410247803 0.091043330729007721
0.37008491158485413 0.67774862051010132 0.094578027725219727
0.52146404981613159 0.66610211133956909 0.097657389938831329
0.69278055429458618 0.64773929119110107 0.10619562119245529
0.81821972131729126 0.63409119844436646 0.11045747995376587
0.9082222580909729 0.62160009145736694 0.11017918586730957
0.28458979725837708 0.81970137357711792 0.098574630916118622
0.33717447519302368 0.8197668194770813 0.10435333102941513
0.40413022041320801 0.817970871925354 0.10572758316993713
0.54835522174835205 0.80618488788604736 0.10478650033473969
0.70910942554473877 0.78979992866516113 0.10537847131490707
0.83809596300125122 0.77551460266113281 0.10775803029537201
0.93828433752059937 0.76060950756072998 0.11683779209852219
0.29600286483764648 0.94371426105499268 0.10588701814413071
0.35823231935501099 0.94710314273834229 0.11046586930751801
0.44303774833679199 0.94715571403503418 0.1098218709230423
0.57394266128540039 0.93901371955871582 0.10647247731685638
0.72374820709228516 0.92463487386703491 0.11020694673061371
0.84647238254547119 0.90943849086761475 0.1339070200920105
0.9447292685508728 0.8923267126083374 0.17442558705806732
0.025037951767444611 0.056058172136545181 0.22894424200057983
0.20033982396125793 0.018916245549917221 0.19961501657962799
0.42144092917442322 0.013598677702248096 0.16970978677272797
0.60370880365371704 0.029795479029417038 0.16062545776367188
0.73066705465316772 0.037238534539937973 0.14600029587745667
0.79574382305145264 0.043806802481412888 0.13699100911617279
0.84091645479202271 0.041772849857807159 0.12912836670875549
0.036666091531515121 0.18248306214809418 0.18207177519798279
0.17331549525260925 0.17080080509185791 0.17993961274623871
0.37264928221702576 0.1529788076877594 0.14867232739925385
0.55116838216781616 0.14087431132793427 0.12655332684516907
0.69659674167633057 0.12813469767570496 0.11216387152671814
0.78264564275741577 0.1224316731095314 0.09339410811662674
0.82417160272598267 0.11891820281744003 0.076876819133758545
0.072723627090454102 0.32586660981178284 0.16207993030548096
0.16486148536205292 0.33919382095336914 0.13476657867431641
0.34147101640701294 0.34489926695823669 0.12535281479358673
0.53457880020141602 0.32666462659835815 0.12099636346101761
0.68502563238143921 0.30664864182472229 0.12294270843267441
0.77356857061386108 0.29820340871810913 0.11543435603380203
0.83207911252975464 0.27007871866226196 0.096052683889865875
0.12679080665111542 0.51960688829421997 0.14519950747489929
0.19137103855609894 0.51776903867721558 0.10972843319177628
0.32143238186836243 0.51210480928421021 0.1072380542755127
0.52111160755157471 0.50107264518737793 0.11258764564990997
0.68730777502059937 0.4906080961227417 0.13342584669589996
0.78978055715560913 0.47729155421257019 0.13772071897983551
0.86266857385635376 0.44760811328887939 0.12679480016231537
0.18830606341362 0.68691575527191162 0.12256938219070435
0.24152535200119019 0.68204814195632935 0.10323122888803482
0.33978661894798279 0.6736864447593689 0.10426759719848633
0.52272206544876099 0.66165721416473389 0.10964734107255936
0.6999208927154541 0.64984583854675293 0.12350387871265411
0.81857174634933472 0.63681435585021973 0.12986589968204498
0.90702861547470093 0.615578293800354 0.12507279217243195
0.22032567858695984 0.8238447904586792 0.10767928510904312
0.28071731328964233 0.82162469625473022 0.10975290834903717
0.38117855787277222 0.81667983531951904 0.11579722911119461
0.54481858015060425 0.80623745918273926 0.11894124001264572
0.70998591184616089 0.79508906602859497 0.11775078624486923
0.83555799722671509 0.78120440244674683 0.11930982023477554
0.94118523597717285 0.75815141201019287 0.12774986028671265
0.22366999089717865 0.95274263620376587 0.10557753592729568
0.29283544421195984 0.95297861099243164 0.11488223820924759
0.39281907677650452 0.95286095142364502 0.11021021008491516
0.53861570358276367 0.94584923982620239 0.11393532902002335
0.711780846118927 0.93296128511428833 0.11672747880220413
0.8464425802230835 0.92047643661499023 0.14107754826545715
0.95177072286605835 0.90447556972503662 0.19563066959381104
0.029561569914221764 0.091311737895011902 0.4077819287776947
0.1749967634677887 0.048010837286710739 0.41021835803985596
0.37605845928192139 0.033381249755620956 0.37961468100547791
0.57203036546707153 0.038454107940196991 0.34316647052764893
0.73428183794021606 0.041918497532606125 0.31594598293304443
0.81974464654922485 0.042210180312395096 0.28835231065750122
0.87065416574478149 0.041015699505805969 0.25615856051445007
0.032331116497516632 0.19065976142883301 0.35337400436401367
0.12599635124206543 0.16690744459629059 0.39120873808860779
0.33901116251945496 0.15421487390995026 0.38626247644424438
0.5553240180015564 0.13340054452419281 0.33309537172317505
0.72835624217987061 0.10798483341932297 0.29322576522827148
0.82316631078720093 0.098454102873802185 0.26056087017059326
0.87285995483398438 0.094751112163066864 0.22238117456436157
0.058403149247169495 0.31904846429824829 0.32228097319602966
0.12020335346460342 0.33804234862327576 0.33326241374015808
0.30882388353347778 0.35567751526832581 0.33522924780845642
0.55513268709182739 0.32119649648666382 0.29814377427101135
0.74253439903259277 0.2683563232421875 0.2473340630531311
0.8364139199256897 0.25374343991279602 0.21997749805450439
0.89814561605453491 0.22474291920661926 0.18451082706451416
0.090986557304859161 0.51413893699645996 0.29033467173576355
0.13226383924484253 0.52397966384887695 0.25965377688407898
0.25461366772651672 0.53546798229217529 0.22706392407417297
0.5036628246307373 0.51894330978393555 0.215192511677742
0.71594607830047607 0.48725754022598267 0.21619980037212372
0.83375191688537598 0.46268442273139954 0.202249675989151
0.9078788161277771 0.43008103966712952 0.18179050087928772
0.12062286585569382 0.68777543306350708 0.23525318503379822
0.15720944106578827 0.69016355276107788 0.20816023647785187
0.2627769410610199 0.68934422731399536 0.1900256872177124
0.48449000716209412 0.6812860369682312 0.16776229441165924
0.70582079887390137 0.66245019435882568 0.17560414969921112
0.83473902940750122 0.64201933145523071 0.1887565404176712
0.92103844881057739 0.61955130100250244 0.18109425902366638
0.13865511119365692 0.82786214351654053 0.20169618725776672
0.19279853999614716 0.82889151573181152 0.18515750765800476
0.3046049177646637 0.8272864818572998 0.16859801113605499
0.4971582293510437 0.81819963455200195 0.16011121869087219
0.70705950260162354 0.80467069149017334 0.15973357856273651
0.84239077568054199 0.78917992115020752 0.16236622631549835
0.95137161016464233 0.76366913318634033 0.17157591879367828
0.15048754215240479 0.95756071805953979 0.18473023176193237
0.21082605421543121 0.96134835481643677 0.1613200306892395
0.30708512663841248 0.96539986133575439 0.1215219721198082
0.46229007840156555 0.95927804708480835 0.13802365958690643
0.67963325977325439 0.94648271799087524 0.15076595544815063
0.84332334995269775 0.93789929151535034 0.16120579838752747
0.96777749061584473 0.91646689176559448 0.20560172200202942
0.045679595321416855 0.11863029003143311 0.60397565364837646
0.15358701348304749 0.067511074244976044 0.63327497243881226
0.35617572069168091 0.058324821293354034 0.60992306470870972
0.53863567113876343 0.050925746560096741 0.56611472368240356
0.70741790533065796 0.051256246864795685 0.52789592742919922
0.82095932960510254 0.056166600435972214 0.49024546146392822
0.88550227880477905 0.050071969628334045 0.45187866687774658
0.041072051972150803 0.216809943318367 0.54559093713760376
0.10279346257448196 0.17939895391464233 0.59459346532821655
0.28994119167327881 0.15355250239372253 0.63018649816513062
0.52277642488479614 0.13664001226425171 0.58993339538574219
0.72185611724853516 0.11565955728292465 0.53211683034896851
0.84192001819610596 0.098656840622425079 0.48496329784393311
0.90254682302474976 0.088554739952087402 0.43736529350280762
0.059999160468578339 0.33126777410507202 0.51176100969314575
0.10695642232894897 0.33423590660095215 0.54072004556655884
0.24928703904151917 0.33693969249725342 0.58833825588226318
0.52738505601882935 0.31450587511062622 0.58363038301467896
0.75365686416625977 0.26178857684135437 0.51544618606567383
0.8827025294303894 0.21341851353645325 0.45709708333015442
0.94376087188720703 0.19712117314338684 0.40753111243247986
0.086122266948223114 0.50787967443466187 0.48542925715446472
0.12120605260133743 0.51697468757629395 0.49308404326438904
0.21416951715946198 0.53484833240509033 0.49972164630889893
0.47295302152633667 0.53397995233535767 0.48700582981109619
0.73318302631378174 0.48908823728561401 0.44869792461395264
0.88885706663131714 0.4382881224155426 0.39620643854141235
0.95913553237915039 0.41057154536247253 0.36756128072738647
0.10883007943630219 0.68001824617385864 0.46040588617324829
0.13226726651191711 0.68545174598693848 0.44839394092559814
0.20617476105690002 0.69666296243667603 0.43466439843177795
0.42569980025291443 0.70717859268188477 0.3716682493686676
0.70225429534912109 0.68672853708267212 0.33394765853881836
0.86609101295471191 0.64953631162643433 0.33873945474624634
0.95826917886734009 0.62080591917037964 0.31890967488288879
0.11651192605495453 0.81911540031433105 0.43589437007904053
0.14973968267440796 0.82471710443496704 0.40700763463973999
0.22977897524833679 0.83090412616729736 0.36194223165512085
0.42074784636497498 0.83329933881759644 0.29923141002655029
0.68313479423522949 0.82422691583633423 0.26604235172271729
0.85412788391113281 0.80546927452087402 0.26819983124732971
0.97762763500213623 0.77239274978637695 0.29467064142227173
0.12770417332649231 0.94720578193664551 0.39853140711784363
0.16239123046398163 0.95466059446334839 0.35683789849281311
0.23025204241275787 0.96499878168106079 0.27074846625328064
0.3819240927696228 0.96749436855316162 0.20353399217128754
0.64621776342391968 0.96182918548583984 0.20339605212211609
0.83707612752914429 0.96385592222213745 0.22468675673007965
0.9861680269241333 0.93422406911849976 0.29177668690681458
0.054032448679208755 0.15590240061283112 0.78158742189407349
0.13275353610515594 0.082757897675037384 0.82441842555999756
0.32629230618476868 0.066748462617397308 0.81462287902832031
0.51742291450500488 0.061593569815158844 0.77798497676849365
0.6889951229095459 0.060393299907445908 0.73677784204483032
0.81861764192581177 0.073374897241592407 0.70228248834609985
0.88919562101364136 0.06043204665184021 0.66816729307174683
0.05962696298956871 0.27314502000808716 0.72913116216659546
0.10008422285318375 0.21742047369480133 0.77360826730728149
0.25557836890220642 0.15924100577831268 0.8386378288269043
0.4958018958568573 0.1468377411365509 0.80997622013092041
0.7030789852142334 0.13150262832641602 0.75426429510116577
0.83745908737182617 0.12467054277658463 0.70015984773635864
0.91122061014175415 0.097536094486713409 0.64416581392288208
0.067495681345462799 0.36211016774177551 0.70307296514511108
0.10673283785581589 0.34916898608207703 0.73028123378753662
0.22624991834163666 0.32764235138893127 0.79662591218948364
0.48157477378845215 0.30706134438514709 0.81086325645446777
0.72762346267700195 0.26498270034790039 0.76706528663635254
0.87973636388778687 0.22562476992607117 0.70492231845855713
0.95673882961273193 0.20454162359237671 0.63920950889587402
0.088549308478832245 0.51371783018112183 0.68157559633255005
0.12387515604496002 0.51317858695983887 0.69293433427810669
0.20511427521705627 0.52051198482513428 0.73479634523391724
0.43141257762908936 0.51664859056472778 0.77130705118179321
0.71253818273544312 0.48100301623344421 0.74668586254119873
0.89729177951812744 0.42982137203216553 0.68326044082641602
0.98045468330383301 0.40739661455154419 0.61617785692214966
0.11251364648342133 0.67214953899383545 0.66169357299804688
0.13924509286880493 0.67913007736206055 0.65984714031219482
0.20063883066177368 0.69102001190185547 0.67325359582901001
0.38101130723953247 0.70569819211959839 0.67910909652709961
0.67071753740310669 0.69787847995758057 0.65026456117630005
0.88055896759033203 0.65354406833648682 0.61840474605560303
0.97764259576797485 0.63049238920211792 0.57169038057327271
0.12316993623971939 0.80968105792999268 0.64322370290756226
0.14872369170188904 0.815532386302948 0.63840079307556152
0.20641425251960754 0.82450312376022339 0.63503670692443848
0.35154414176940918 0.84081888198852539 0.58847516775131226
0.61458134651184082 0.84477591514587402 0.5280652642250061
0.85060620307922363 0.81969934701919556 0.50253605842590332
0.98858904838562012 0.78813636302947998 0.55550932884216309
0.13309121131896973 0.9280855655670166 0.63947522640228271
0.15344744920730591 0.93681180477142334 0.63136273622512817
0.20102943480014801 0.94880223274230957 0.61297976970672607
0.31433907151222229 0.97039324045181274 0.50133597850799561
0.56290227174758911 0.9795304536819458 0.43153619766235352
0.80087822675704956 0.98075562715530396 0.42069330811500549
0.98696213960647583 0.95347505807876587 0.58141207695007324
0.072832919657230377 0.16888286173343658 0.91025412082672119
0.1619257926940918 0.097365237772464752 0.93230050802230835
0.32048755884170532 0.073874905705451965 0.91445708274841309
0.48938170075416565 0.054681096225976944 0.90497493743896484
0.67140698432922363 0.054371494799852371 0.88747859001159668
0.81305539608001709 0.057978656142950058 0.86618387699127197
0.90064358711242676 0.032932177186012268 0.84120482206344604
0.09258539229631424 0.32378023862838745 0.88644826412200928
0.12878815829753876 0.24617978930473328 0.92934799194335938
0.28686356544494629 0.20885518193244934 0.95162642002105713
0.51702076196670532 0.19724051654338837 0.93547779321670532
0.69127458333969116 0.14497697353363037 0.9099191427230835
0.82589614391326904 0.11888021975755692 0.87070262432098389
0.923012375831604 0.084267713129520416 0.83059710264205933
0.083285555243492126 0.39590078592300415 0.86927056312561035
0.12343776971101761 0.38023912906646729 0.90286117792129517
0.24763280153274536 0.35553926229476929 0.93498808145523071
0.48503938317298889 0.33646312355995178 0.93982470035552979
0.70596826076507568 0.27927109599113464 0.92681527137756348
0.8567391037940979 0.23069360852241516 0.88936179876327515
0.95759397745132446 0.20434509217739105 0.83357101678848267
0.10353609174489975 0.53204220533370972 0.8567579984664917
0.13419328629970551 0.53098315000534058 0.87547141313552856
0.20450073480606079 0.52391970157623291 0.898712158203125
0.40959721803665161 0.50661635398864746 0.92613202333450317
0.67186522483825684 0.47164928913116455 0.92595243453979492
0.86740744113922119 0.43160444498062134 0.89503747224807739
0.97883260250091553 0.41268458962440491 0.83196359872817993
0.11533826589584351 0.69438427686691284 0.82618427276611328
0.14534780383110046 0.68794018030166626 0.83457547426223755
0.21069398522377014 0.68764591217041016 0.85054570436477661
0.36467370390892029 0.69026410579681396 0.88044756650924683
0.62616336345672607 0.6795494556427002 0.89075827598571777
0.85787349939346313 0.65419226884841919 0.86832320690155029
0.98764210939407349 0.63538193702697754 0.8114694356918335
0.12160944938659668 0.81581592559814453 0.79564070701599121
0.14828431606292725 0.8187568187713623 0.80772840976715088
0.21192830801010132 0.82746130228042603 0.81660622358322144
0.34255874156951904 0.84034198522567749 0.83016031980514526
0.58222419023513794 0.84318244457244873 0.82461655139923096
0.82929497957229614 0.82404232025146484 0.79621535539627075
0.98822814226150513 0.81410872936248779 0.77648502588272095
0.13323314487934113 0.91528034210205078 0.81486475467681885
0.15359272062778473 0.92737996578216553 0.81396651268005371
0.20427817106246948 0.9465712308883667 0.82042700052261353
0.31597036123275757 0.97127735614776611 0.8040393590927124
0.54082512855529785 0.98519599437713623 0.74830818176269531
0.78783726692199707 0.98448187112808228 0.75668537616729736
0.98634999990463257 0.9748418927192688 0.78398388624191284
0.097360871732234955 0.18184992671012878 0.95534801483154297
0.18117515742778778 0.12937632203102112 0.96301919221878052
0.31710174679756165 0.11986531317234039 0.94671344757080078
0.5060734748840332 0.09737078845500946 0.96468949317932129
0.67231291532516479 0.080292463302612305 0.97122687101364136
0.79677146673202515 0.037832461297512054 0.96765375137329102
0.90496993064880371 0.003466632217168808 0.96290165185928345
0.094904929399490356 0.33657974004745483 0.96721971035003662
0.1584627777338028 0.29103550314903259 0.97922629117965698
0.34287628531455994 0.30541998147964478 0.97798103094100952
0.60196948051452637 0.34344074130058289 0.98162895441055298
0.71868383884429932 0.26192441582679749 0.9785882830619812
0.81167232990264893 0.13384023308753967 0.9704861044883728
0.92655432224273682 0.073596864938735962 0.96332693099975586
0.094118081033229828 0.44889718294143677 0.96939599514007568
0.14426372945308685 0.43605124950408936 0.98158049583435059
0.29030030965805054 0.41973599791526794 0.9874957799911499
0.51045548915863037 0.41819408535957336 0.98433476686477661
0.69656026363372803 0.37367787957191467 0.98681694269180298
0.82141095399856567 0.29436501860618591 0.98509013652801514
0.94896191358566284 0.22055327892303467 0.96987855434417725
0.11411518603563309 0.56818318367004395 0.9717332124710083
0.15854279696941376 0.56811070442199707 0.98766583204269409
0.25143247842788696 0.5525888204574585 0.99309390783309937
0.42171838879585266 0.54332202672958374 0.98673856258392334
0.62402999401092529 0.50014787912368774 0.98693645000457764
0.80115777254104614 0.48059624433517456 0.98814833164215088
0.95415335893630981 0.440513014793396 0.97743427753448486
0.11558209359645844 0.71622240543365479 0.94795376062393188
0.16178637742996216 0.70363634824752808 0.971854567527771
0.2424074113368988 0.69713777303695679 0.9862944483757019
0.40326884388923645 0.68778669834136963 0.98935037851333618
0.60925489664077759 0.6764293909072876 0.99008381366729736
0.80487060546875 0.6693875789642334 0.99037784337997437
0.98064947128295898 0.63659238815307617 0.98741847276687622
0.12614190578460693 0.82106274366378784 0.91118603944778442
0.15447589755058289 0.82514625787734985 0.9421122670173645
0.21799729764461517 0.83127254247665405 0.97087526321411133
0.36770108342170715 0.83651512861251831 0.98589920997619629
0.60506027936935425 0.84368050098419189 0.99247896671295166
0.81525415182113647 0.84027856588363647 0.99271672964096069
0.98770946264266968 0.82130426168441772 0.98147505521774292
0.1529962569475174 0.90423637628555298 0.9042050838470459
0.16644343733787537 0.92689239978790283 0.93065398931503296
0.21387535333633423 0.95095300674438477 0.95694643259048462
0.34052577614784241 0.97550481557846069 0.97859674692153931
0.6347968578338623 0.98777318000793457 0.98363929986953735
0.85801094770431519 0.98860293626785278 0.98660004138946533
0.99699681997299194 0.98625040054321289 0.99124586582183838
