assets/lut/abigailgonzalez cinematic for flog.cube
# Created by: G'MIC (https://gmic.eu)
TITLE "cinematic_for_flog"
# LUT size
LUT_3D_SIZE 7
# Data domain
DOMAIN_MIN 0.0 0.0 0.0
DOMAIN_MAX 1.0 1.0 1.0
# LUT data points
0.0051976819522678852 0.0037640142254531384 0.027001893147826195
0.13096904754638672 0.0069033754989504814 0.017751431092619896
0.32491263747215271 0.02916431799530983 0.012561035342514515
0.52032911777496338 0.071621820330619812 0.013310735113918781
0.67594993114471436 0.10381116718053818 0.015025224536657333
0.78094452619552612 0.1253938227891922 0.01353924348950386
0.8662300705909729 0.14228880405426025 0.010812317952513695
0.0055969688110053539 0.054298911243677139 0.040081951767206192
0.086285114288330078 0.057775296270847321 0.026674980297684669
0.29372283816337585 0.079800322651863098 0.0094478679820895195
0.52803903818130493 0.12680377066135406 0.010672116652131081
0.69846004247665405 0.16385442018508911 0.014371445402503014
0.80068933963775635 0.18511037528514862 0.012751081958413124
0.87877017259597778 0.20211157202720642 0.010101722553372383
0.0015581018524244428 0.16809201240539551 0.07486271858215332
0.055500075221061707 0.17183506488800049 0.071855075657367706
0.25045207142829895 0.18553411960601807 0.041151262819766998
0.52701079845428467 0.21615652740001678 0.012737229466438293
0.7124711275100708 0.24794672429561615 0.013680177740752697
0.81421506404876709 0.2618192732334137 0.013103919103741646
0.88761985301971436 0.27675411105155945 0.013267053291201591
0.015438484027981758 0.33994659781455994 0.12830321490764618
0.059736873954534531 0.34230908751487732 0.13087365031242371
0.21351906657218933 0.37758111953735352 0.12855742871761322
0.52820718288421631 0.39077872037887573 0.065041050314903259
0.73500782251358032 0.41678610444068909 0.036583349108695984
0.84048956632614136 0.43977588415145874 0.038226272910833359
0.9062424898147583 0.45322775840759277 0.04680035263299942
0.047730959951877594 0.5274469256401062 0.18523764610290527
0.10141067206859589 0.53298330307006836 0.18902266025543213
0.21935506165027618 0.56191718578338623 0.19832560420036316
0.5540928840637207 0.63216304779052734 0.17678447067737579
0.76059359312057495 0.59672576189041138 0.10906087607145309
0.86369681358337402 0.60077202320098877 0.09353974461555481
0.92630511522293091 0.62249082326889038 0.097652778029441833
0.067084789276123047 0.65195614099502563 0.21695874631404877
0.1125650480389595 0.65574097633361816 0.21691237390041351
0.24630597233772278 0.68363112211227417 0.22299706935882568
0.55030554533004761 0.75372260808944702 0.21786719560623169
0.77428114414215088 0.74880772829055786 0.17373412847518921
0.87616407871246338 0.711742103099823 0.13942939043045044
0.93604493141174316 0.71573084592819214 0.132433220744133
0.081062391400337219 0.74679434299468994 0.23878218233585358
0.1263936460018158 0.74442827701568604 0.23369863629341125
0.25760588049888611 0.76663124561309814 0.23531600832939148
0.5164828896522522 0.82379394769668579 0.23495055735111237
0.75150132179260254 0.85193169116973877 0.21125152707099915
0.86763101816177368 0.81184041500091553 0.17603445053100586
0.93673586845397949 0.79845279455184937 0.1609511524438858
0.0070364708080887794 0.0060984441079199314 0.10768679529428482
0.1293567568063736 0.0083353081718087196 0.092473737895488739
0.34544244408607483 0.02953624352812767 0.08163190633058548
0.5261504054069519 0.060495622456073761 0.062327753752470016
0.66644752025604248 0.082595780491828918 0.060508459806442261
0.77074539661407471 0.11736396700143814 0.064883902668952942
0.85882073640823364 0.14628976583480835 0.068140335381031036
0.0053226398304104805 0.067321911454200745 0.12175837159156799
0.073763109743595123 0.071101516485214233 0.10959520190954208
0.30081859230995178 0.094175152480602264 0.076443858444690704
0.54038059711456299 0.1330687403678894 0.057983998209238052
0.69930744171142578 0.15857920050621033 0.051454760134220123
0.80001640319824219 0.19280247390270233 0.056109126657247543
0.87715625762939453 0.21879297494888306 0.060811750590801239
0.0037071227561682463 0.18470491468906403 0.15044814348220825
0.04775753989815712 0.18685521185398102 0.14060534536838531
0.25817281007766724 0.20098328590393066 0.10143336653709412
0.54913997650146484 0.22464732825756073 0.059804100543260574
0.72914332151412964 0.24060991406440735 0.052373908460140228
0.82360094785690308 0.25737699866294861 0.049686148762702942
0.88960868120193481 0.27886694669723511 0.055467087775468826
0.02025897428393364 0.36693120002746582 0.1991829127073288
0.05361633375287056 0.37050008773803711 0.19005207717418671
0.19556385278701782 0.38474902510643005 0.17875924706459045
0.55057257413864136 0.40825152397155762 0.10593469440937042
0.76013422012329102 0.42423734068870544 0.072393022477626801
0.85573136806488037 0.43496224284172058 0.073720566928386688
0.90838825702667236 0.43664652109146118 0.081199049949645996
0.052862878888845444 0.54934287071228027 0.24743181467056274
0.095158517360687256 0.55986082553863525 0.23936918377876282
0.19089959561824799 0.57438141107559204 0.24627217650413513
0.54539573192596436 0.6453557014465332 0.22266462445259094
0.78281271457672119 0.61853241920471191 0.15252105891704559
0.88311731815338135 0.62187749147415161 0.14250729978084564
0.93170011043548584 0.63018393516540527 0.14225876331329346
0.070635072886943817 0.66218256950378418 0.26972845196723938
0.11004583537578583 0.66950535774230957 0.26109558343887329
0.21664713323116302 0.68972551822662354 0.26638811826705933
0.5240248441696167 0.7587122917175293 0.26141417026519775
0.78334975242614746 0.76763159036636353 0.21694764494895935
0.89039868116378784 0.73410815000534058 0.1888115257024765
0.94025242328643799 0.72827208042144775 0.18059225380420685
0.080444157123565674 0.74958926439285278 0.28658914566040039
0.12692861258983612 0.75025606155395508 0.28076231479644775
0.24989023804664612 0.76849466562271118 0.28408658504486084
0.49644064903259277 0.81661880016326904 0.2818722128868103
0.73898863792419434 0.85901838541030884 0.25818923115730286
0.87211048603057861 0.82832568883895874 0.22609816491603851
0.94257444143295288 0.80390214920043945 0.20284688472747803
0.0017068900633603334 0.047326572239398956 0.22686713933944702
0.088469982147216797 0.013983169570565224 0.19519892334938049
0.32621029019355774 0.027275698259472847 0.1827550083398819
0.53503477573394775 0.053393390029668808 0.1618979424238205
0.66647607088088989 0.063234247267246246 0.14611464738845825
0.75893634557723999 0.087445519864559174 0.13447907567024231
0.84560120105743408 0.12690463662147522 0.14624710381031036
0.0027231404092162848 0.12711405754089355 0.24626697599887848
0.04251493513584137 0.097948871552944183 0.22824116051197052
0.28452131152153015 0.084951780736446381 0.18280373513698578
0.53785848617553711 0.11541333794593811 0.15283192694187164
0.68980592489242554 0.1391671746969223 0.12975035607814789
0.7847248911857605 0.17111043632030487 0.1245599165558815
0.86395150423049927 0.21378013491630554 0.13411647081375122
0.0088648330420255661 0.22727985680103302 0.26980322599411011
0.039801981300115585 0.2196185290813446 0.26368910074234009
0.20492856204509735 0.21814759075641632 0.22858321666717529
0.5260385274887085 0.24390500783920288 0.16837581992149353
0.72381234169006348 0.26029714941978455 0.12669102847576141
0.82140600681304932 0.27340537309646606 0.11085884273052216
0.88747316598892212 0.30863496661186218 0.12753646075725555
0.028648810461163521 0.39069902896881104 0.31018197536468506
0.067119523882865906 0.40362980961799622 0.30228391289710999
0.14984793961048126 0.3986450731754303 0.28636819124221802
0.51939547061920166 0.41710725426673889 0.20039086043834686
0.76368874311447144 0.42150372266769409 0.13076558709144592
0.8614954948425293 0.42570361495018005 0.13176617026329041
0.9101606011390686 0.42045608162879944 0.12984786927700043
0.059742975980043411 0.56568527221679688 0.34903055429458618
0.10205402970314026 0.58541887998580933 0.33812764286994934
0.1623615175485611 0.59191542863845825 0.33116829395294189
0.49750229716300964 0.65404564142227173 0.31079915165901184
0.79223048686981201 0.63562947511672974 0.21291472017765045
0.89462906122207642 0.64240014553070068 0.18656723201274872
0.93795257806777954 0.63229382038116455 0.19762974977493286
0.079248256981372833 0.67888098955154419 0.35947290062904358
0.11591783165931702 0.68966680765151978 0.34266829490661621
0.19631657004356384 0.70066893100738525 0.33375862240791321
0.48865196108818054 0.76535844802856445 0.33556240797042847
0.78762948513031006 0.78388881683349609 0.27310702204704285
0.90086513757705688 0.75272035598754883 0.23793919384479523
0.94844001531600952 0.74311846494674683 0.2428613007068634
0.08715558797121048 0.76089531183242798 0.36831706762313843
0.13179732859134674 0.76459312438964844 0.36166143417358398
0.23531308770179749 0.77678596973419189 0.36308211088180542
0.47076329588890076 0.81601238250732422 0.36207118630409241
0.72848492860794067 0.85330820083618164 0.32284066081047058
0.8728795051574707 0.83712291717529297 0.28308188915252686
0.94685572385787964 0.81416559219360352 0.25182417035102844
0.0095159793272614479 0.12276093661785126 0.38206326961517334
0.070203714072704315 0.048580903559923172 0.33595287799835205
0.25232908129692078 0.028532080352306366 0.30421614646911621
0.52126610279083252 0.070520155131816864 0.29877597093582153
0.68870288133621216 0.07988256961107254 0.28491035103797913
0.76609796285629272 0.088837370276451111 0.27317753434181213
0.84094119071960449 0.11729621142148972 0.27404168248176575
0.011433948762714863 0.21149328351020813 0.40432140231132507
0.04093628004193306 0.16270400583744049 0.38517388701438904
0.19448494911193848 0.096713468432426453 0.33287596702575684
0.52298527956008911 0.12025415897369385 0.3039926290512085
0.7013276219367981 0.12364482134580612 0.28252848982810974
0.78084719181060791 0.14838215708732605 0.27105700969696045
0.84475982189178467 0.17216666042804718 0.25382339954376221
0.018960347399115562 0.29363086819648743 0.42127043008804321
0.051411017775535583 0.29715690016746521 0.43198689818382263
0.13689862191677094 0.26133489608764648 0.40486031770706177
0.48067650198936462 0.23734574019908905 0.326425701379776
0.71196204423904419 0.23661687970161438 0.27417519688606262
0.80170142650604248 0.25267559289932251 0.25907096266746521
0.86500298976898193 0.29404333233833313 0.25469937920570374
0.034401688724756241 0.41736277937889099 0.4513506293296814
0.080712892115116119 0.43328437209129333 0.46243542432785034
0.12924802303314209 0.43374952673912048 0.46418276429176331
0.4132036566734314 0.43633487820625305 0.40733164548873901
0.72664052248001099 0.45314821600914001 0.32295799255371094
0.84007781744003296 0.45443710684776306 0.29096561670303345
0.90305233001708984 0.46948531270027161 0.28920859098434448
0.066603399813175201 0.59122538566589355 0.49251705408096313
0.1121172159910202 0.61493390798568726 0.50101786851882935
0.15553981065750122 0.62077027559280396 0.49291208386421204
0.35780259966850281 0.63588857650756836 0.47769495844841003
0.75573241710662842 0.66348803043365479 0.39363911747932434
0.89202845096588135 0.65783441066741943 0.3352387547492981
0.93985962867736816 0.64288532733917236 0.34285619854927063
0.089106462895870209 0.70104354619979858 0.50614356994628906
0.12047870457172394 0.71353739500045776 0.49927136301994324
0.15856365859508514 0.71750545501708984 0.47880271077156067
0.38459047675132751 0.75052458047866821 0.4775128960609436
0.74630367755889893 0.79864406585693359 0.43327155709266663
0.90224909782409668 0.7851988673210144 0.37701109051704407
0.9511878490447998 0.77996772527694702 0.3903459906578064
0.094139784574508667 0.78094792366027832 0.51214444637298584
0.12952743470668793 0.78544968366622925 0.50530701875686646
0.1942189484834671 0.78863030672073364 0.49926298856735229
0.39314928650856018 0.81366389989852905 0.50770938396453857
0.68342161178588867 0.8630523681640625 0.47418355941772461
0.86310702562332153 0.86384695768356323 0.42152819037437439
0.94759076833724976 0.84196072816848755 0.38128164410591125
0.021050756797194481 0.17581552267074585 0.51039218902587891
0.083106890320777893 0.092699535191059113 0.46243435144424438
0.22706185281276703 0.042524930089712143 0.41666075587272644
0.44815558195114136 0.073719143867492676 0.41217368841171265
0.67323529720306396 0.10744672268629074 0.40982583165168762
0.77206367254257202 0.1204141229391098 0.40348765254020691
0.85206121206283569 0.14666782319545746 0.4023081362247467
0.022092707455158234 0.27452123165130615 0.54074245691299438
0.060644786804914474 0.22075942158699036 0.52131718397140503
0.15909697115421295 0.12065900862216949 0.46594250202178955
0.41504383087158203 0.11151333898305893 0.42492967844009399
0.68624871969223022 0.15200205147266388 0.42131200432777405
0.79830306768417358 0.18315997719764709 0.41750678420066833
0.85743683576583862 0.20005714893341064 0.39735502004623413
0.029605790972709656 0.35539129376411438 0.55115622282028198
0.066918917000293732 0.35964751243591309 0.56868064403533936
0.12257952243089676 0.3142707347869873 0.55649083852767944
0.37746977806091309 0.22128333151340485 0.46729826927185059
0.71046751737594604 0.24104282259941101 0.42110469937324524
0.81755441427230835 0.25236925482749939 0.40689298510551453
0.86620241403579712 0.27919712662696838 0.38700789213180542
0.042211882770061493 0.45174360275268555 0.57343780994415283
0.085367031395435333 0.46647217869758606 0.59325939416885376
0.12805114686489105 0.48046386241912842 0.61057460308074951
0.29614287614822388 0.45507362484931946 0.5792582631111145
0.69740235805511475 0.43033406138420105 0.46051445603370667
0.83122080564498901 0.42979457974433899 0.43225389719009399
0.88410037755966187 0.44689151644706726 0.41808247566223145
0.074678130447864532 0.60182148218154907 0.61835819482803345
0.12285757809877396 0.61931073665618896 0.63515549898147583
0.16830751299858093 0.64024746417999268 0.64932155609130859
0.29021906852722168 0.65251713991165161 0.65212059020996094
0.66931909322738647 0.68619483709335327 0.60276460647583008
0.86685276031494141 0.68165278434753418 0.54604494571685791
0.92584013938903809 0.67411386966705322 0.52391725778579712
0.098188482224941254 0.72080135345458984 0.64625579118728638
0.13805609941482544 0.74102175235748291 0.66015362739562988
0.16654179990291595 0.75039422512054443 0.65347063541412354
0.30459249019622803 0.76067745685577393 0.64694947004318237
0.64432615041732788 0.81189626455307007 0.63826721906661987
0.87659436464309692 0.82422757148742676 0.59668862819671631
0.94930964708328247 0.82165926694869995 0.58803784847259521
0.1014452651143074 0.80225229263305664 0.65649384260177612
0.13673664629459381 0.81285065412521362 0.65937274694442749
0.17247547209262848 0.81224006414413452 0.64925962686538696
0.30342072248458862 0.81556415557861328 0.63787800073623657
0.60995727777481079 0.86207872629165649 0.61847126483917236
0.84502154588699341 0.89098888635635376 0.58947628736495972
0.94683855772018433 0.88029295206069946 0.56489109992980957
0.02938639372587204 0.20862819254398346 0.60402441024780273
0.093831203877925873 0.12016846984624863 0.55262726545333862
0.23432798683643341 0.053320582956075668 0.49804690480232239
0.41236549615859985 0.070126540958881378 0.48730725049972534
0.63613599538803101 0.1140148863196373 0.49115636944770813
0.77232939004898071 0.13111163675785065 0.49067500233650208
0.8585052490234375 0.15690046548843384 0.49078661203384399
0.030124349519610405 0.31103235483169556 0.63323867321014404
0.068872116506099701 0.25318565964698792 0.61165517568588257
0.17452928423881531 0.14445590972900391 0.54815495014190674
0.40331023931503296 0.11339959502220154 0.49843448400497437
0.65097212791442871 0.15900376439094543 0.50205123424530029
0.79401183128356934 0.19059453904628754 0.50524073839187622
0.86981368064880371 0.21649983525276184 0.49608370661735535
0.039086300879716873 0.39333507418632507 0.64390701055526733
0.071633957326412201 0.38842537999153137 0.65602701902389526
0.1356637179851532 0.32749012112617493 0.63202887773513794
0.34608891606330872 0.2182314544916153 0.54496234655380249
0.64392030239105225 0.24050815403461456 0.51269960403442383
0.81307613849639893 0.27193289995193481 0.51012116670608521
0.88261038064956665 0.30088257789611816 0.4978223443031311
0.052763037383556366 0.49124345183372498 0.66809761524200439
0.09457678347826004 0.4998127818107605 0.67935711145401001
0.13527476787567139 0.50298559665679932 0.69138413667678833
0.27271077036857605 0.46329742670059204 0.66105568408966064
0.61682426929473877 0.41172432899475098 0.56049889326095581
0.82059675455093384 0.41637450456619263 0.51923000812530518
0.89340794086456299 0.45218497514724731 0.51984143257141113
0.075861118733882904 0.60650515556335449 0.70244395732879639
0.12788178026676178 0.618366539478302 0.71288740634918213
0.17224222421646118 0.62903743982315063 0.72247755527496338
0.26507824659347534 0.6478196382522583 0.73996520042419434
0.58420085906982422 0.66723322868347168 0.70259338617324829
0.84130895137786865 0.66807705163955688 0.63893342018127441
0.92368471622467041 0.67772144079208374 0.62015610933303833
0.095176547765731812 0.7192000150680542 0.73265200853347778
0.15006162226200104 0.73931372165679932 0.74869579076766968
0.1932065337896347 0.75231009721755981 0.7547951340675354
0.27890652418136597 0.76340335607528687 0.76491302251815796
0.53170967102050781 0.80504262447357178 0.77141439914703369
0.835579514503479 0.85247516632080078 0.73638385534286499
0.94840782880783081 0.84964561462402344 0.70915573835372925
0.10051129013299942 0.81314939260482788 0.74909985065460205
0.14934740960597992 0.82449442148208618 0.75703102350234985
0.1909027099609375 0.8265380859375 0.75586467981338501
0.28334528207778931 0.83177852630615234 0.75515246391296387
0.50064486265182495 0.86116307973861694 0.75364285707473755
0.79504609107971191 0.90993881225585938 0.72497677803039551
0.95207232236862183 0.92678213119506836 0.70929765701293945
0.03143475204706192 0.24799366295337677 0.6787116527557373
0.090068310499191284 0.14257068932056427 0.62256455421447754
0.24118667840957642 0.078130044043064117 0.57030892372131348
0.41028106212615967 0.080677136778831482 0.5518304705619812
0.61007452011108398 0.11587570607662201 0.55453133583068848
0.76739752292633057 0.14171618223190308 0.55757629871368408
0.85882401466369629 0.16607826948165894 0.55946409702301025
0.032540295273065567 0.33933946490287781 0.70336145162582397
0.075436398386955261 0.29090651869773865 0.68423730134963989
0.17375184595584869 0.18987016379833221 0.62213486433029175
0.37372317910194397 0.13875521719455719 0.56874167919158936
0.60524165630340576 0.1656264066696167 0.55899381637573242
0.77157020568847656 0.19596931338310242 0.56063228845596313
0.86953884363174438 0.22493788599967957 0.56117349863052368
0.045052085071802139 0.41855630278587341 0.71356093883514404
0.080530561506748199 0.42022234201431274 0.72279137372970581
0.13931788504123688 0.37183791399002075 0.70435070991516113
0.32974997162818909 0.26685401797294617 0.62235784530639648
0.59145313501358032 0.25478237867355347 0.57371234893798828
0.77711707353591919 0.27935010194778442 0.56162780523300171
0.88005799055099487 0.31009101867675781 0.56114333868026733
0.057461980730295181 0.51774120330810547 0.73614037036895752
0.10508843511343002 0.51919496059417725 0.73650586605072021
0.14489521086215973 0.51952934265136719 0.74656540155410767
0.27773061394691467 0.4761522114276886 0.71602934598922729
0.57287895679473877 0.4124349057674408 0.62822616100311279
0.78418397903442383 0.42058348655700684 0.57845354080200195
0.89392036199569702 0.45727720856666565 0.58547878265380859
0.071680285036563873 0.61507278680801392 0.76395666599273682
0.12628452479839325 0.61913478374481201 0.76443135738372803
0.17237871885299683 0.62871247529983521 0.77249252796173096
0.2598872184753418 0.65182280540466309 0.79128837585449219
0.54591703414916992 0.65317064523696899 0.75907069444656372
0.80037063360214233 0.64543318748474121 0.69109863042831421
0.92141222953796387 0.66624611616134644 0.6788487434387207
0.083610430359840393 0.71520400047302246 0.79262298345565796
0.14269207417964935 0.72155100107192993 0.79520058631896973
0.19485323131084442 0.72847187519073486 0.7990642786026001
0.26880320906639099 0.74639517068862915 0.81787610054016113
0.48304373025894165 0.78890621662139893 0.83293187618255615
0.79752475023269653 0.83810234069824219 0.80738544464111328
0.94121342897415161 0.84714013338088989 0.77914977073669434
0.085557036101818085 0.81077718734741211 0.8158150315284729
0.14353963732719421 0.81409686803817749 0.81679582595825195
0.20083051919937134 0.81604939699172974 0.81659567356109619
0.27682170271873474 0.82956898212432861 0.82903546094894409
0.40078219771385193 0.84669381380081177 0.84260940551757812
0.6568487286567688 0.89707058668136597 0.84494650363922119
0.93024206161499023 0.94511032104492188 0.81670010089874268
