assets/lut/abigailgonzalez eterna for flog.cube
# Created by: G'MIC (https://gmic.eu)
TITLE "eterna_for_flog"
# LUT size
LUT_3D_SIZE 5
# Data domain
DOMAIN_MIN 0.0 0.0 0.0
DOMAIN_MAX 1.0 1.0 1.0
# LUT data points
0.0085438145324587822 0.0077919755131006241 0.0076945587061345577
0.33360782265663147 0.0077663795091211796 0.028121873736381531
0.89166843891143799 0.024957155808806419 0.11876755952835083
0.99985754489898682 0.03082294762134552 0.13910192251205444
0.97636306285858154 0.029769493266940117 0.13327012956142426
0 0.18344037234783173 0.00099349673837423325
0.18740496039390564 0.16460937261581421 0.0021545409690588713
0.65932708978652954 0.072280943393707275 0.061451766639947891
0.98978978395462036 0.013223251327872276 0.13989134132862091
0.98105138540267944 0.029741967096924782 0.1299290657043457
0.0012988969683647156 0.53988438844680786 4.434024594957009e-05
0.021061662584543228 0.55393075942993164 0
0.58655977249145508 0.52239406108856201 0.00035666671465151012
0.97932714223861694 0.38114696741104126 0.041352320462465286
0.99020665884017944 0.13200920820236206 0.10724183917045593
0.00093347887741401792 0.9300808310508728 7.0010914896556642e-06
0 0.94219225645065308 0.00015460743452422321
0.38695761561393738 0.92653989791870117 0.0016573139000684023
0.90101361274719238 0.88935941457748413 0
0.96292459964752197 0.70737528800964355 0.00070821726694703102
0.0012887693010270596 0.9885108470916748 0.0010379118612036109
0 0.98534286022186279 0.0013819376472383738
0.02943756990134716 0.99036264419555664 0.00028607237618416548
0.66934263706207275 0.99995625019073486 0.00044729196815751493
0.91677910089492798 0.99628764390945435 8.8680491899140179e-05
0.0094811087474226952 0.013962061144411564 0.21606427431106567
0.29742777347564697 0.0026403239462524652 0.12955710291862488
0.84325897693634033 0.022952195256948471 0.11132699996232986
0.99933928251266479 0.031147167086601257 0.14389649033546448
0.9767795205116272 0.028885994106531143 0.13257351517677307
0.00028276629745960236 0.18292245268821716 0.21506144106388092
0.16446898877620697 0.17107222974300385 0.17151124775409698
0.64622622728347778 0.096959039568901062 0.088288009166717529
0.98388755321502686 0.020575668662786484 0.1310124546289444
0.98419564962387085 0.028728693723678589 0.13333334028720856
0 0.56182610988616943 0.21889479458332062
0.0079738246276974678 0.57435756921768188 0.16348893940448761
0.58045101165771484 0.55022728443145752 0.099159777164459229
0.98499405384063721 0.41367876529693604 0.027534844353795052
0.99026525020599365 0.16315752267837524 0.10366488993167877
0.0006430682260543108 0.9178270697593689 0.19308182597160339
0.00037618898204527795 0.93630301952362061 0.1259143054485321
0.37535911798477173 0.93581056594848633 0.065496452152729034
0.88894999027252197 0.90275555849075317 1.0905546332651284e-05
0.96381020545959473 0.72777187824249268 0.0014223136240616441
6.8395274865906686e-05 0.97788029909133911 0.030154718086123466
0 0.97608113288879395 0.00064477359410375357
0.02594941109418869 0.97938787937164307 0.018940150737762451
0.63398653268814087 0.99749362468719482 0.047404255717992783
0.92577767372131348 0.99645709991455078 0
0.016046082600951195 0.052686832845211029 0.65029752254486084
0.24486646056175232 0.015266433358192444 0.50929063558578491
0.82290416955947876 0.019121371209621429 0.31619682908058167
0.9812435507774353 0.027450980618596077 0.1276136040687561
0.98630249500274658 0.028381736949086189 0.13512034714221954
0.0021505018230527639 0.17508876323699951 0.61416250467300415
0.088685996830463409 0.16956238448619843 0.51228588819503784
0.65543705224990845 0.097405105829238892 0.47245049476623535
0.98584800958633423 0.02391267754137516 0.1668352335691452
0.9843137264251709 0.029632776975631714 0.13794110715389252
4.846909359912388e-05 0.57521408796310425 0.63817602396011353
0.00064751121681183577 0.58694565296173096 0.57771199941635132
0.56208962202072144 0.56120634078979492 0.56202620267868042
0.98890876770019531 0.44497388601303101 0.37185424566268921
0.99175268411636353 0.16075779497623444 0.093206174671649933
0.00051253073615953326 0.90537780523300171 0.64950180053710938
0.0014428531285375357 0.92727452516555786 0.60358732938766479
0.27571648359298706 0.91823804378509521 0.59081077575683594
0.89930886030197144 0.89979439973831177 0.47092863917350769
0.95962280035018921 0.74660962820053101 0.030568156391382217
6.8933826696593314e-05 0.97000575065612793 0.49067863821983337
0.0031078113242983818 0.96845310926437378 0.3907744288444519
0.016686009243130684 0.97584992647171021 0.35262459516525269
0.63178044557571411 0.99128007888793945 0.45428070425987244
0.92486894130706787 0.99917256832122803 0.019536381587386131
0.00023998186225071549 0.12724527716636658 0.97981375455856323
0.15874840319156647 0.074484445154666901 0.89471220970153809
0.8001524806022644 0.022513579577207565 0.85422074794769287
0.99159860610961914 0.025605877861380577 0.32880625128746033
0.98397457599639893 0.027450980618596077 0.12702205777168274
0.0014123206492513418 0.15689778327941895 0.95523154735565186
0.01231059618294239 0.15512493252754211 0.89831292629241943
0.60652631521224976 0.10598297417163849 0.88824170827865601
0.99323278665542603 0.0073323119431734085 0.67249608039855957
0.98947477340698242 0.027008220553398132 0.20931920409202576
0.0016973607707768679 0.53462326526641846 0.91670423746109009
0 0.5670095682144165 0.88570654392242432
0.41521677374839783 0.55251085758209229 0.89495450258255005
0.98217511177062988 0.44610685110092163 0.85539186000823975
0.99994480609893799 0.3145386278629303 0.49733126163482666
0 0.86033695936203003 0.88176065683364868
4.4968550355406478e-05 0.88791370391845703 0.85932546854019165
0.14125740528106689 0.89126980304718018 0.85777521133422852
0.86901026964187622 0.8713916540145874 0.86927568912506104
0.99111688137054443 0.76642251014709473 0.68866539001464844
0.00025921990163624287 0.96398097276687622 0.79250240325927734
0 0.96029436588287354 0.74851691722869873
0 0.96487593650817871 0.7170671820640564
0.53519898653030396 0.98299270868301392 0.74833595752716064
0.97400885820388794 0.99770903587341309 0.65052622556686401
9.6070529252756387e-05 0.13457852602005005 0.98668986558914185
0.022290920838713646 0.12276948243379593 0.96891123056411743
0.72397565841674805 0.052904509007930756 0.99957382678985596
1 0.018428653478622437 0.79186433553695679
1 0.023721553385257721 0.52208667993545532
0.0008321425411850214 0.14721482992172241 0.98344230651855469
0 0.14905275404453278 0.9826323390007019
0.3798862099647522 0.10372194647789001 0.99419385194778442
0.99385637044906616 0.005035789217799902 0.97842258214950562
1 0.023087624460458755 0.72337263822555542
0 0.37778177857398987 0.95243126153945923
0.00086183735402300954 0.42895898222923279 0.94476133584976196
0.054219011217355728 0.43885001540184021 0.96210575103759766
0.90344679355621338 0.35471376776695251 1
0.99962699413299561 0.22379818558692932 0.89890968799591064
0 0.73685061931610107 0.90467220544815063
0.0055300542153418064 0.76823359727859497 0.89622682332992554
0 0.77570879459381104 0.89567631483078003
0.68220585584640503 0.7885698676109314 0.97583776712417603
1 0.74232202768325806 0.95316725969314575
0 0.96148073673248291 0.88627451658248901
0.00053649605251848698 0.96292656660079956 0.88439923524856567
0.00035956889041699469 0.96083813905715942 0.89042878150939941
0.19408009946346283 0.97289729118347168 0.91677820682525635
0.97821557521820068 0.99116760492324829 0.98485249280929565
