assets/lut/abigailgonzalez caribe.cube
# Created by: G'MIC (https://gmic.eu)
TITLE "caribe"
# LUT size
LUT_3D_SIZE 7
# Data domain
DOMAIN_MIN 0.0 0.0 0.0
DOMAIN_MAX 1.0 1.0 1.0
# LUT data points
0.043249256908893585 0.039704956114292145 0.041487898677587509
0.13243198394775391 0.050140395760536194 0.038848549127578735
0.17487154901027679 0.048066698014736176 0.035035841166973114
0.18281075358390808 0.046654600650072098 0.031446062028408051
0.19950741529464722 0.043181207031011581 0.035294119268655777
0.29697415232658386 0.043137256056070328 0.040749151259660721
0.41645219922065735 0.045634102076292038 0.048019722104072571
0.037033874541521072 0.089887626469135284 0.047963701188564301
0.15195432305335999 0.11934193968772888 0.042877197265625
0.33067682385444641 0.12433747202157974 0.042494051158428192
0.35705262422561646 0.086007796227931976 0.040537260472774506
0.32332134246826172 0.05248279869556427 0.040526639670133591
0.35293310880661011 0.043232247233390808 0.042765717953443527
0.43511909246444702 0.049094781279563904 0.047456525266170502
0.11641602218151093 0.21139451861381531 0.060608148574829102
0.15821798145771027 0.23528821766376495 0.05953623354434967
0.30981704592704773 0.26303765177726746 0.059531867504119873
0.50079995393753052 0.23517784476280212 0.055428300052881241
0.53481245040893555 0.15100932121276855 0.05154133215546608
0.48154380917549133 0.067057333886623383 0.049462456256151199
0.54606252908706665 0.077739894390106201 0.052289325743913651
0.3990359902381897 0.38641801476478577 0.066510908305644989
0.37240743637084961 0.38535186648368835 0.068916082382202148
0.34817913174629211 0.38559091091156006 0.071681931614875793
0.54074728488922119 0.41048836708068848 0.076485760509967804
0.73990088701248169 0.3609870970249176 0.079276621341705322
0.68308424949645996 0.20872987806797028 0.063920028507709503
0.77638781070709229 0.25897681713104248 0.072139963507652283
0.72033613920211792 0.5696101188659668 0.10847491025924683
0.69909083843231201 0.56220334768295288 0.10578592121601105
0.62078648805618286 0.54489469528198242 0.097137466073036194
0.608531653881073 0.53144806623458862 0.096718728542327881
0.82684266567230225 0.53958821296691895 0.11956773698329926
0.90576505661010742 0.49516254663467407 0.1204315647482872
0.93392813205718994 0.51165032386779785 0.12777471542358398
0.93246877193450928 0.71156978607177734 0.16792325675487518
0.92218339443206787 0.70249980688095093 0.16414310038089752
0.88661432266235352 0.68745666742324829 0.1545431911945343
0.80848944187164307 0.65736657381057739 0.13887381553649902
0.86573308706283569 0.66519725322723389 0.15239351987838745
0.94160950183868408 0.67297202348709106 0.17130376398563385
0.95721578598022461 0.67404544353485107 0.19323883950710297
0.95655220746994019 0.77832651138305664 0.19686122238636017
0.95742440223693848 0.78232389688491821 0.19740791618824005
0.95648181438446045 0.78033632040023804 0.19642190635204315
0.94877463579177856 0.76988798379898071 0.19173926115036011
0.94510889053344727 0.7729758620262146 0.20600329339504242
0.95589512586593628 0.77341681718826294 0.23169107735157013
0.9609869122505188 0.77691948413848877 0.26610937714576721
0.029906822368502617 0.039016753435134888 0.084853947162628174
0.10771186649799347 0.044789873063564301 0.10720991343259811
0.1742277592420578 0.046161022037267685 0.10458730161190033
0.18027324974536896 0.045568235218524933 0.075085580348968506
0.19023451209068298 0.043208971619606018 0.050663862377405167
0.24465551972389221 0.043137256056070328 0.035612471401691437
0.38158407807350159 0.043219905346632004 0.04211985319852829
0.029188014566898346 0.094067715108394623 0.12826690077781677
0.11048905551433563 0.10911960899829865 0.10751184076070786
0.30473381280899048 0.11656962335109711 0.078312881290912628
0.38764867186546326 0.090042218565940857 0.056993655860424042
0.36340850591659546 0.062200911343097687 0.046131372451782227
0.34073743224143982 0.045837730169296265 0.040218725800514221
0.42834910750389099 0.045775573700666428 0.047728117555379868
0.054490871727466583 0.21763373911380768 0.12055402249097824
0.14419806003570557 0.23800143599510193 0.10808081179857254
0.37525156140327454 0.28836148977279663 0.081753090023994446
0.55918532609939575 0.24152147769927979 0.060126569122076035
0.58533066511154175 0.1497972309589386 0.052027340978384018
0.54449117183685303 0.087101295590400696 0.053159106522798538
0.52454066276550293 0.076972171664237976 0.052670706063508987
0.33899250626564026 0.40780282020568848 0.076063208281993866
0.35180872678756714 0.40719488263130188 0.083047486841678619
0.46963128447532654 0.44074195623397827 0.080685600638389587
0.64337146282196045 0.44531777501106262 0.080246850848197937
0.76994967460632324 0.37341484427452087 0.082330368459224701
0.76352262496948242 0.2767510712146759 0.072285205125808716
0.74741578102111816 0.22941470146179199 0.069430902600288391
0.68799901008605957 0.58273231983184814 0.10131556540727615
0.67661726474761963 0.57554548978805542 0.1055774912238121
0.6792944073677063 0.57150524854660034 0.10558453947305679
0.70767045021057129 0.56755775213241577 0.10580804944038391
0.86105883121490479 0.57154363393783569 0.12864771485328674
0.92045885324478149 0.52876478433609009 0.12750208377838135
0.90869820117950439 0.44520923495292664 0.1117890477180481
0.926838219165802 0.7203601598739624 0.16228099167346954
0.91694039106369019 0.7081109881401062 0.15966083109378815
0.89986157417297363 0.69360357522964478 0.15098024904727936
0.88161098957061768 0.68061608076095581 0.14806443452835083
0.92480617761611938 0.69173747301101685 0.16380932927131653
0.95026963949203491 0.70156824588775635 0.18144261837005615
0.95293986797332764 0.65686535835266113 0.18159465491771698
0.95655912160873413 0.77481675148010254 0.18579334020614624
0.95930159091949463 0.77636468410491943 0.19232000410556793
0.96288645267486572 0.77927404642105103 0.18981918692588806
0.94809788465499878 0.7633049488067627 0.18502263724803925
0.94047743082046509 0.76088672876358032 0.18974059820175171
0.95454806089401245 0.77017772197723389 0.21275804936885834
0.96003270149230957 0.76847511529922485 0.24427524209022522
0.030079292133450508 0.032498154789209366 0.10551157593727112
0.05257866159081459 0.037993039935827255 0.13068604469299316
0.12211061269044876 0.03929341584444046 0.15178906917572021
0.16787075996398926 0.039215687662363052 0.15557418763637543
0.20676727592945099 0.039278455078601837 0.1345020979642868
0.25533732771873474 0.041183397173881531 0.088597588241100311
0.37941151857376099 0.043137256056070328 0.03637363389134407
0.036447115242481232 0.086355797946453094 0.1947443038225174
0.060814023017883301 0.089932702481746674 0.19006858766078949
0.21534359455108643 0.080798789858818054 0.18997690081596375
0.30856651067733765 0.065945535898208618 0.15871715545654297
0.33009582757949829 0.046922165900468826 0.12004908919334412
0.32493188977241516 0.043377730995416641 0.061898939311504364
0.36283820867538452 0.043090581893920898 0.040793221443891525
0.032074183225631714 0.22765211760997772 0.2830621600151062
0.070904061198234558 0.24146571755409241 0.25982555747032166
0.2787778377532959 0.25136813521385193 0.2341388612985611
0.48020264506340027 0.22873185575008392 0.17251333594322205
0.54471009969711304 0.15264923870563507 0.10676887631416321
0.52299970388412476 0.082957431674003601 0.058661919087171555
0.43333050608634949 0.056189727038145065 0.047916650772094727
0.11220505833625793 0.39163699746131897 0.24843047559261322
0.18408210575580597 0.39616855978965759 0.22990909218788147
0.38623204827308655 0.43142038583755493 0.21873949468135834
0.6160622239112854 0.45910897850990295 0.17267650365829468
0.76568162441253662 0.39266321063041687 0.12607145309448242
0.77273619174957275 0.27135515213012695 0.079552367329597473
0.72866666316986084 0.20855605602264404 0.063124023377895355
0.4421941339969635 0.56406408548355103 0.17705309391021729
0.46536844968795776 0.56020718812942505 0.17708086967468262
0.564525306224823 0.57603710889816284 0.17939504981040955
0.72529715299606323 0.60522246360778809 0.16020818054676056
0.88347351551055908 0.60195130109786987 0.15132836997509003
0.92850810289382935 0.54629981517791748 0.13223010301589966
0.91403472423553467 0.4603290855884552 0.1099126785993576
0.81764441728591919 0.72781562805175781 0.19981347024440765
0.82218223810195923 0.71315151453018188 0.17290264368057251
0.84202253818511963 0.70755988359451294 0.16640889644622803
0.88202214241027832 0.70764654874801636 0.16840828955173492
0.93739348649978638 0.71602553129196167 0.17003588378429413
0.95681637525558472 0.71056437492370605 0.17352002859115601
0.95648694038391113 0.66520935297012329 0.17073443531990051
0.96054458618164062 0.81085866689682007 0.25967115163803101
0.96025562286376953 0.80548310279846191 0.23572316765785217
0.95960706472396851 0.79663586616516113 0.21134172379970551
0.96053957939147949 0.77994608879089355 0.19068159162998199
0.9519118070602417 0.77083826065063477 0.18138760328292847
0.95445823669433594 0.76919490098953247 0.18669134378433228
0.9585767388343811 0.75480586290359497 0.20843307673931122
0.031314205378293991 0.031372550874948502 0.13383024930953979
0.032941017299890518 0.031157908961176872 0.13772469758987427
0.065818816423416138 0.034863326698541641 0.16775135695934296
0.11263910681009293 0.036445215344429016 0.17947286367416382
0.16215930879116058 0.035303451120853424 0.17481611669063568
0.24319486320018768 0.037490427494049072 0.17279012501239777
0.44268807768821716 0.047620180994272232 0.095424443483352661
0.034543488174676895 0.056049078702926636 0.20258644223213196
0.037572644650936127 0.050371058285236359 0.19726218283176422
0.12235143035650253 0.053759422153234482 0.21896296739578247
0.2270873636007309 0.044036880135536194 0.22048304975032806
0.270498126745224 0.037564728409051895 0.20026284456253052
0.29645755887031555 0.038973115384578705 0.16573557257652283
0.37919774651527405 0.042587205767631531 0.04715028777718544
0.044003505259752274 0.21714015305042267 0.38810235261917114
0.044185757637023926 0.20574234426021576 0.36183956265449524
0.15297988057136536 0.21332159638404846 0.3378569483757019
0.37781685590744019 0.19123658537864685 0.31394341588020325
0.4579542875289917 0.11804603040218353 0.25873315334320068
0.44506415724754333 0.058448117226362228 0.15580853819847107
0.43746635317802429 0.032000314444303513 0.052766673266887665
0.054015964269638062 0.3976655900478363 0.47244623303413391
0.079745948314666748 0.41221126914024353 0.45775142312049866
0.20848909020423889 0.4319741427898407 0.43699133396148682
0.46665605902671814 0.43977132439613342 0.40945687890052795
0.6744236946105957 0.39197051525115967 0.33776566386222839
0.69322270154953003 0.24767357110977173 0.19776122272014618
0.65377974510192871 0.12995518743991852 0.069289065897464752
0.16884207725524902 0.54606294631958008 0.43719908595085144
0.19959589838981628 0.55147314071655273 0.41866886615753174
0.33293181657791138 0.57221090793609619 0.38940510153770447
0.5526653528213501 0.60400962829589844 0.37856879830360413
0.80759048461914062 0.64013326168060303 0.35201498866081238
0.90834975242614746 0.58410000801086426 0.26223874092102051
0.88893276453018188 0.42154622077941895 0.13063186407089233
0.57127887010574341 0.71501791477203369 0.40830510854721069
0.5810120701789856 0.70226418972015381 0.36253601312637329
0.62618821859359741 0.7030872106552124 0.33838808536529541
0.73321545124053955 0.72291451692581177 0.32330989837646484
0.88092499971389771 0.75439280271530151 0.31040716171264648
0.95517587661743164 0.74868392944335938 0.26171231269836426
0.95822107791900635 0.68522143363952637 0.19008409976959229
0.88838011026382446 0.83800512552261353 0.45966434478759766
0.90454673767089844 0.82834929227828979 0.39984595775604248
0.91184836626052856 0.8183361291885376 0.3488105833530426
0.9281383752822876 0.80964738130569458 0.28673186898231506
0.94876867532730103 0.80159097909927368 0.23786494135856628
0.95930546522140503 0.78582829236984253 0.20778512954711914
0.95836347341537476 0.76609045267105103 0.18351294100284576
0.032611414790153503 0.031606186181306839 0.17051343619823456
0.031688015908002853 0.031181035563349724 0.16104540228843689
0.03937925398349762 0.03522847592830658 0.18246553838253021
0.068287789821624756 0.035294119268655777 0.20662324130535126
0.089129537343978882 0.035294119268655777 0.19807398319244385
0.19817343354225159 0.037191055715084076 0.22129242122173309
0.515330970287323 0.051598057150840759 0.27784052491188049
0.034195378422737122 0.041021071374416351 0.21583640575408936
0.035263299942016602 0.035426780581474304 0.20777174830436707
0.05725841224193573 0.039046298712491989 0.23207500576972961
0.12768682837486267 0.039208490401506424 0.25432980060577393
0.1648222804069519 0.035419151186943054 0.24618296325206757
0.20932158827781677 0.035316377878189087 0.23159560561180115
0.4273381233215332 0.047292269766330719 0.18335804343223572
0.046229343861341476 0.17146366834640503 0.4120577871799469
0.043320957571268082 0.14862722158432007 0.38683691620826721
0.065377645194530487 0.13944712281227112 0.37395048141479492
0.23087455332279205 0.1318589448928833 0.37247025966644287
0.33694899082183838 0.084383182227611542 0.34745308756828308
0.36932268738746643 0.045302804559469223 0.29321545362472534
0.48570975661277771 0.036682277917861938 0.19629736244678497
0.050825484097003937 0.35780155658721924 0.56281358003616333
0.056008283048868179 0.35985636711120605 0.54974251985549927
0.073685184121131897 0.36681726574897766 0.53262448310852051
0.26852476596832275 0.38760766386985779 0.51711231470108032
0.51420879364013672 0.3579460084438324 0.49269995093345642
0.60042881965637207 0.2352210134267807 0.41244745254516602
0.63045817613601685 0.092738524079322815 0.21346090734004974
0.087607771158218384 0.53427207469940186 0.62650835514068604
0.10265893489122391 0.55199569463729858 0.61607229709625244
0.16645975410938263 0.57625645399093628 0.59934532642364502
0.34518307447433472 0.60256278514862061 0.59272670745849609
0.64446026086807251 0.62858551740646362 0.59804391860961914
0.81824189424514771 0.58006006479263306 0.53365510702133179
0.83841985464096069 0.40285032987594604 0.31640619039535522
0.3120415210723877 0.69516021013259888 0.62533223628997803
0.28643974661827087 0.68383723497390747 0.61713892221450806
0.33317852020263672 0.69460302591323853 0.60102212429046631
0.46786770224571228 0.70887911319732666 0.56471920013427734
0.72116917371749878 0.7585524320602417 0.57021510601043701
0.91874879598617554 0.78882938623428345 0.55319011211395264
0.95648849010467529 0.73717886209487915 0.43373331427574158
0.72745412588119507 0.83165103197097778 0.66865640878677368
0.71362167596817017 0.81670117378234863 0.61507672071456909
0.71206450462341309 0.80568701028823853 0.57423460483551025
0.76343828439712524 0.80814498662948608 0.52552998065948486
0.85607767105102539 0.820331871509552 0.45194169878959656
0.93491220474243164 0.82657825946807861 0.41615170240402222
0.96357524394989014 0.81871891021728516 0.34728708863258362
0.035294119268655777 0.035294119268655777 0.2140171080827713
0.035294119268655777 0.035220514982938766 0.21261420845985413
0.035131312906742096 0.035294119268655777 0.2169775515794754
0.042380537837743759 0.035296272486448288 0.23822984099388123
0.054963383823633194 0.039200127124786377 0.2531898021697998
0.17636866867542267 0.039216462522745132 0.30720257759094238
0.47836533188819885 0.047782629728317261 0.38803744316101074
0.035397190600633621 0.031098593026399612 0.22691942751407623
0.033540643751621246 0.030477246269583702 0.22443950176239014
0.035880323499441147 0.032692719250917435 0.23562628030776978
0.074960298836231232 0.032926969230175018 0.28194829821586609
0.10618595778942108 0.037724781781435013 0.29319626092910767
0.11127416789531708 0.039215687662363052 0.27520373463630676
0.46671977639198303 0.048592031002044678 0.36538293957710266
0.044357825070619583 0.13879188895225525 0.41269180178642273
0.042449157685041428 0.1215093582868576 0.39188811182975769
0.044501166790723801 0.095363721251487732 0.37624666094779968
0.10300961881875992 0.081613503396511078 0.38846632838249207
0.20294126868247986 0.057827308773994446 0.38662391901016235
0.25475400686264038 0.042455278337001801 0.36063092947006226
0.48111611604690552 0.034403335303068161 0.37047639489173889
0.050595227628946304 0.3334260880947113 0.58166444301605225
0.053031995892524719 0.32609313726425171 0.57279747724533081
0.05179259181022644 0.30360084772109985 0.55417072772979736
0.097522139549255371 0.30896833539009094 0.54189276695251465
0.30994817614555359 0.30434560775756836 0.54114055633544922
0.45805132389068604 0.22691087424755096 0.51479840278625488
0.61825656890869141 0.084090575575828552 0.44943028688430786
0.069918826222419739 0.49946132302284241 0.67509359121322632
0.075474590063095093 0.51461291313171387 0.67726868391036987
0.10915015637874603 0.54815977811813354 0.67650145292282104
0.20628871023654938 0.58005237579345703 0.67732781171798706
0.4590490460395813 0.58983802795410156 0.67515838146209717
0.66558986902236938 0.56597095727920532 0.66629576683044434
0.78781956434249878 0.43728446960449219 0.5919654369354248
0.17590387165546417 0.67435985803604126 0.72237080335617065
0.18500161170959473 0.67837381362915039 0.7248644232749939
0.21123693883419037 0.68640947341918945 0.71471565961837769
0.329790860414505 0.71402585506439209 0.71911919116973877
0.57651031017303467 0.75546038150787354 0.74063611030578613
0.8134300708770752 0.78484910726547241 0.76036530733108521
0.90936464071273804 0.75908911228179932 0.72368764877319336
0.54107022285461426 0.81699347496032715 0.77376621961593628
0.53486412763595581 0.80551767349243164 0.74287551641464233
0.43188187479972839 0.77589857578277588 0.72900122404098511
0.54196661710739136 0.7982475757598877 0.73421585559844971
0.65338826179504395 0.81758952140808105 0.71391403675079346
0.81873005628585815 0.84481990337371826 0.68114686012268066
0.95562261343002319 0.87196773290634155 0.70219594240188599
0.036276020109653473 0.036579012870788574 0.24565435945987701
0.035317454487085342 0.035427723079919815 0.24656756222248077
0.03891327977180481 0.035886801779270172 0.26093235611915588
0.034927025437355042 0.03946227952837944 0.2782512903213501
0.059789005666971207 0.041576802730560303 0.30296331644058228
0.17373044788837433 0.043398823589086533 0.35396319627761841
0.36928164958953857 0.047363955527544022 0.40362405776977539
0.039276182651519775 0.048381056636571884 0.29758918285369873
0.033862438052892685 0.032640852034091949 0.24642603099346161
0.043199129402637482 0.037300452589988708 0.27118271589279175
0.067099370062351227 0.039752226322889328 0.32284960150718689
0.078056111931800842 0.038950692862272263 0.31969097256660461
0.21570174396038055 0.043550752103328705 0.36322975158691406
0.4336707592010498 0.046969186514616013 0.4130556583404541
0.04742845892906189 0.16682572662830353 0.45608615875244141
0.042035661637783051 0.098714642226696014 0.37573510408401489
0.042963437736034393 0.079260915517807007 0.36665567755699158
0.050976652652025223 0.07056262344121933 0.38117197155952454
0.12230990827083588 0.06725580245256424 0.40728926658630371
0.23582150042057037 0.064359523355960846 0.41604217886924744
0.4511563777923584 0.052894037216901779 0.44392356276512146
0.051313810050487518 0.35755124688148499 0.6149175763130188
0.054085209965705872 0.33427953720092773 0.59455126523971558
0.054082430899143219 0.30128058791160583 0.57152849435806274
0.051081668585538864 0.25168275833129883 0.54272943735122681
0.20298105478286743 0.30287185311317444 0.57021975517272949
0.3686312735080719 0.27136394381523132 0.56437677145004272
0.54774922132492065 0.20559507608413696 0.5572858452796936
0.064108863472938538 0.49503585696220398 0.70323175191879272
0.14856089651584625 0.58674228191375732 0.7269713282585144
0.16387324035167694 0.58263808488845825 0.72012346982955933
0.19550043344497681 0.56173324584960938 0.7022584080696106
0.38163650035858154 0.57975083589553833 0.70565861463546753
0.57947337627410889 0.57960599660873413 0.7042156457901001
0.69476163387298584 0.53300273418426514 0.69227039813995361
0.14459854364395142 0.66208440065383911 0.75909346342086792
0.31062018871307373 0.73437923192977905 0.78072965145111084
0.39229458570480347 0.75255066156387329 0.78834789991378784
0.53395408391952515 0.77412676811218262 0.8008309006690979
0.61447620391845703 0.7711787223815918 0.80188477039337158
0.76662003993988037 0.78184759616851807 0.81013047695159912
0.84128385782241821 0.77762538194656372 0.80866736173629761
0.39373904466629028 0.79064333438873291 0.80468183755874634
0.46324416995048523 0.80824524164199829 0.80851012468338013
0.55194032192230225 0.82208698987960815 0.8195805549621582
0.58266723155975342 0.82789158821105957 0.82401043176651001
0.63164782524108887 0.82885360717773438 0.82512748241424561
0.77356618642807007 0.85113322734832764 0.83817815780639648
0.91506040096282959 0.88044583797454834 0.86442321538925171
