assets/lut/abigailgonzalez filmic.cube
# Created by: G'MIC (https://gmic.eu)
TITLE "filmic"
# LUT size
LUT_3D_SIZE 5
# Data domain
DOMAIN_MIN 0.0 0.0 0.0
DOMAIN_MAX 1.0 1.0 1.0
# LUT data points
0.024315644055604935 0.045693207532167435 0.062518894672393799
0.23950588703155518 0.054369967430830002 0.042336065322160721
0.60882782936096191 0.019282381981611252 0.02232939749956131
0.71921831369400024 0.0036747651174664497 0.0057254265993833542
0.74158936738967896 0 0.0011907540028914809
0.0044032377190887928 0.14934062957763672 0.066753581166267395
0.17852684855461121 0.17065998911857605 0.033886075019836426
0.65198183059692383 0.18167652189731598 0.011757854372262955
0.78625375032424927 0.15669666230678558 0.014714259654283524
0.79590463638305664 0.13519853353500366 0.012992933392524719
0 0.3730282187461853 0.02352561242878437
0.020977199077606201 0.41992431879043579 0.014145989902317524
0.6855931282043457 0.57434332370758057 0.011681321077048779
0.94592469930648804 0.58080762624740601 0.016519762575626373
0.96407192945480347 0.54916012287139893 0.01951955072581768
0.019291521981358528 0.48339459300041199 0.0098496228456497192
0 0.52107304334640503 0.015097703784704208
0.48348435759544373 0.73866313695907593 0.020418070256710052
0.98896628618240356 0.85291630029678345 0.026197440922260284
1 0.83626484870910645 0.017653955146670341
0.012804921716451645 0.53516691923141479 0.025672897696495056
0.00019028608221560717 0.56368553638458252 0.020439403131604195
0.2916998565196991 0.72517907619476318 0.020286649465560913
0.952461838722229 0.8987310528755188 0.025853998959064484
1 0.90841484069824219 0.021320747211575508
0.014461951330304146 0.032989814877510071 0.2330033928155899
0.23607766628265381 0.033819820731878281 0.23916862905025482
0.63419193029403687 0.012118694372475147 0.22575566172599792
0.74827003479003906 0.024973791092634201 0.20943054556846619
0.76812744140625 0.0065653780475258827 0.19202873110771179
0.0041083390824496746 0.16359351575374603 0.22592264413833618
0.13866925239562988 0.17930193245410919 0.21468877792358398
0.64453583955764771 0.15441299974918365 0.1670231819152832
0.78898018598556519 0.12543059885501862 0.14119590818881989
0.80075669288635254 0.1013939380645752 0.12217936664819717
0.0008267122320830822 0.40059137344360352 0.18108570575714111
0.0096035823225975037 0.43367087841033936 0.13859871029853821
0.67218261957168579 0.57491618394851685 0.052047938108444214
0.94750809669494629 0.57214295864105225 0.034564539790153503
0.97169899940490723 0.54901212453842163 0.036565534770488739
0.0061343023553490639 0.50525593757629395 0.13029159605503082
0.011860162951052189 0.52764534950256348 0.084850981831550598
0.44933277368545532 0.73349094390869141 0.027189113199710846
0.98170042037963867 0.85216617584228516 0.021158838644623756
1 0.83301913738250732 0.011371059343218803
0.013624781742691994 0.54722303152084351 0.13113486766815186
0.029664671048521996 0.56226116418838501 0.10826127231121063
0.25280120968818665 0.71485203504562378 0.04235941544175148
0.93074780702590942 0.89446824789047241 0.020373474806547165
1 0.9035642147064209 0.041505206376314163
0.0038098352961242199 0.051180984824895859 0.47373843193054199
0.22830508649349213 0.033896621316671371 0.51008301973342896
0.66375720500946045 0.014676621183753014 0.55028003454208374
0.76632153987884521 0.019533973187208176 0.53074759244918823
0.78919476270675659 0.019989792257547379 0.52311760187149048
0.0040819356217980385 0.1210889145731926 0.51679521799087524
0.098284520208835602 0.16593824326992035 0.55538684129714966
0.65757590532302856 0.1302565336227417 0.58970564603805542
0.80084002017974854 0.087359562516212463 0.55103665590286255
0.82269740104675293 0.10272841900587082 0.52596515417098999
0.0082721337676048279 0.45533657073974609 0.5956081748008728
0.0097664175555109978 0.48521089553833008 0.6016431450843811
0.58909255266189575 0.60954529047012329 0.62334895133972168
0.9262690544128418 0.58594095706939697 0.59303003549575806
0.95426499843597412 0.56136679649353027 0.55020201206207275
0.0096975285559892654 0.58949869871139526 0.56962710618972778
0.0016796037089079618 0.60830330848693848 0.54293006658554077
0.27491459250450134 0.7721482515335083 0.53520447015762329
0.94933676719665527 0.88194447755813599 0.45638859272003174
1 0.8638988733291626 0.39319825172424316
0.012326034717261791 0.62247723340988159 0.52658289670944214
0.011504573747515678 0.63871222734451294 0.52307510375976562
0.13013382256031036 0.76128917932510376 0.48549145460128784
0.88698333501815796 0.92019975185394287 0.41578143835067749
0.99960201978683472 0.92632615566253662 0.33348709344863892
0.00091247557429596782 0.062570638954639435 0.58627241849899292
0.18322812020778656 0.086950518190860748 0.6505587100982666
0.66528451442718506 0.036638610064983368 0.69996684789657593
0.7582392692565918 0.012619647197425365 0.65748584270477295
0.77779144048690796 0.0070702498778700829 0.6515621542930603
0.0035552978515625 0.15545576810836792 0.65989750623703003
0.058618314564228058 0.21550160646438599 0.71410638093948364
0.64798355102539062 0.20048166811466217 0.78157299757003784
0.80200910568237305 0.16710205376148224 0.74350142478942871
0.8170318603515625 0.14305546879768372 0.7278447151184082
0.00013077679614070803 0.45478692650794983 0.76395249366760254
0.00015828749747015536 0.47318115830421448 0.7834784984588623
0.48833507299423218 0.59425681829452515 0.87169194221496582
0.89972084760665894 0.56972825527191162 0.87688910961151123
0.93382471799850464 0.5412101149559021 0.86475437879562378
0.0043844636529684067 0.61007684469223022 0.80301183462142944
0.027639036998152733 0.63441133499145508 0.8118559718132019
0.19969360530376434 0.79570937156677246 0.87032639980316162
0.91038811206817627 0.9159015417098999 0.91330814361572266
0.99959677457809448 0.90758794546127319 0.89424604177474976
0.0083174463361501694 0.66543185710906982 0.81270074844360352
0.026987785473465919 0.67421728372573853 0.8075670599937439
0.067897319793701172 0.80262911319732666 0.84723055362701416
0.81929826736450195 0.96723169088363647 0.88514232635498047
1 0.98534619808197021 0.8567277193069458
0.00098657049238681793 0.052890866994857788 0.60825055837631226
0.1753983348608017 0.07358282059431076 0.66714036464691162
0.64102262258529663 0.029339181259274483 0.7032734751701355
0.76497882604598999 6.4625460254319478e-06 0.68882101774215698
0.79115861654281616 0 0.68914610147476196
0 0.15913580358028412 0.68522268533706665
0.061559371650218964 0.20418752729892731 0.73601818084716797
0.61574667692184448 0.21979355812072754 0.79827368259429932
0.80184996128082275 0.1868768185377121 0.78019458055496216
0.82754015922546387 0.17460301518440247 0.77248561382293701
0.0021270452998578548 0.44555249810218811 0.78991794586181641
0.001193506526760757 0.46603354811668396 0.80893313884735107
0.45417559146881104 0.58897757530212402 0.90106064081192017
0.89442843198776245 0.56823539733886719 0.92407482862472534
0.93279862403869629 0.55736708641052246 0.90953153371810913
0.0040714936330914497 0.61798375844955444 0.84310472011566162
0.020524313673377037 0.63620251417160034 0.8584858775138855
0.14170461893081665 0.78950852155685425 0.92753696441650391
0.88055151700973511 0.91279792785644531 0.98595172166824341
0.99599683284759521 0.91029542684555054 0.9882577657699585
0.0022296232637017965 0.67610353231430054 0.86803644895553589
0.033609144389629364 0.6886899471282959 0.875194251537323
0.039736144244670868 0.80336344242095947 0.92143118381500244
0.79041123390197754 0.96832478046417236 0.98505067825317383
0.99774962663650513 0.99870496988296509 0.99833124876022339
