assets/lut/abigailgonzalez blue ice.cube
# Created by: G'MIC (https://gmic.eu)
TITLE "blue_ice"
# LUT size
LUT_3D_SIZE 13
# Data domain
DOMAIN_MIN 0.0 0.0 0.0
DOMAIN_MAX 1.0 1.0 1.0
# LUT data points
0.013335613533854485 0.03041585348546505 0.057031743228435516
0.070128314197063446 0.038594849407672882 0.053720287978649139
0.14139798283576965 0.050475969910621643 0.051491230726242065
0.21825429797172546 0.058140967041254044 0.047450389713048935
0.29766523838043213 0.063400089740753174 0.050905264914035797
0.37500736117362976 0.076360039412975311 0.070635236799716949
0.45431420207023621 0.086734086275100708 0.090919479727745056
0.54223173856735229 0.096713930368423462 0.11135470867156982
0.64088404178619385 0.11300093680620193 0.12952113151550293
0.73993641138076782 0.13352973759174347 0.14440968632698059
0.82590728998184204 0.15458521246910095 0.16182723641395569
0.89507848024368286 0.17660015821456909 0.18225699663162231
0.95346570014953613 0.20070843398571014 0.19757837057113647
0.012121926061809063 0.06673721969127655 0.054781895130872726
0.061180025339126587 0.072592824697494507 0.052555292844772339
0.13152989745140076 0.082699857652187347 0.051963388919830322
0.21785569190979004 0.093996800482273102 0.045459792017936707
0.30964034795761108 0.1020568385720253 0.043454308062791824
0.40055418014526367 0.11526726931333542 0.056993849575519562
0.48787248134613037 0.13003838062286377 0.081643693149089813
0.58140015602111816 0.14372217655181885 0.10497701168060303
0.68188679218292236 0.16122426092624664 0.12275280058383942
0.77650612592697144 0.18135847151279449 0.13819593191146851
0.85413587093353271 0.20248161256313324 0.15881922841072083
0.91429924964904785 0.22492422163486481 0.17873719334602356
0.96327376365661621 0.25019544363021851 0.19176888465881348
0.011599401943385601 0.10851234197616577 0.054437465965747833
0.046902630478143692 0.114562027156353 0.056068435311317444
0.10884863138198853 0.12469783425331116 0.05811290442943573
0.19926849007606506 0.13870066404342651 0.053375482559204102
0.30680942535400391 0.15053065121173859 0.044116195291280746
0.41608947515487671 0.16156119108200073 0.043160576373338699
0.51472270488739014 0.17691971361637115 0.061141084879636765
0.61887794733047485 0.19295229017734528 0.078455783426761627
0.72212940454483032 0.20967277884483337 0.089731864631175995
0.81147849559783936 0.22893199324607849 0.10466422140598297
0.88146686553955078 0.25258693099021912 0.13195744156837463
0.93256914615631104 0.27696654200553894 0.15519475936889648
0.97203302383422852 0.30234494805335999 0.17123429477214813
0.0086477538570761681 0.15559075772762299 0.059693742543458939
0.032112389802932739 0.16160798072814941 0.061964716762304306
0.08298773318529129 0.17118048667907715 0.064407080411911011
0.17348267138004303 0.18616461753845215 0.064868941903114319
0.28841221332550049 0.20226764678955078 0.059520289301872253
0.40292531251907349 0.21533448994159698 0.05036601796746254
0.51789200305938721 0.22943446040153503 0.050258547067642212
0.63750350475311279 0.245229572057724 0.053287938237190247
0.74898111820220947 0.2613530158996582 0.053977157920598984
0.83780598640441895 0.28112030029296875 0.064504034817218781
0.90318804979324341 0.30756497383117676 0.094169646501541138
0.94921505451202393 0.33501887321472168 0.12355852127075195
0.98320311307907104 0.36261773109436035 0.14902165532112122
0.0050368066877126694 0.20896732807159424 0.076772354543209076
0.018779484555125237 0.2146325409412384 0.073109723627567291
0.057659164071083069 0.22351604700088501 0.072289668023586273
0.14260654151439667 0.23976421356201172 0.075999602675437927
0.26058286428451538 0.25990405678749084 0.077956244349479675
0.38065019249916077 0.27654087543487549 0.069395370781421661
0.50137162208557129 0.29045844078063965 0.060630694031715393
0.62831956148147583 0.3050079345703125 0.052095301449298859
0.75224882364273071 0.32143926620483398 0.042524959892034531
0.8489951491355896 0.34323999285697937 0.045591659843921661
0.91730093955993652 0.37121006846427917 0.065300896763801575
0.96296459436416626 0.40066522359848022 0.094789586961269379
0.9930691123008728 0.42950248718261719 0.12873846292495728
0.00066323374630883336 0.27188822627067566 0.091960996389389038
0.0076523125171661377 0.27659565210342407 0.085102513432502747
0.037861932069063187 0.2843879759311676 0.080555155873298645
0.11023048311471939 0.3002331554889679 0.081262387335300446
0.22616355121135712 0.32235348224639893 0.083801031112670898
0.36029011011123657 0.34285739064216614 0.081514082849025726
0.48580849170684814 0.35789567232131958 0.075807414948940277
0.61122596263885498 0.37137511372566223 0.064714707434177399
0.73895800113677979 0.38752883672714233 0.049970962107181549
0.84618186950683594 0.41117119789123535 0.042434349656105042
0.92265701293945312 0.44143825769424438 0.049136128276586533
0.97150695323944092 0.47160458564758301 0.073584616184234619
0.99766409397125244 0.49905580282211304 0.11131050437688828
0 0.34359696507453918 0.10250610858201981
0.00086907780496403575 0.34734252095222473 0.094606034457683563
0.01997050829231739 0.35405084490776062 0.087665453553199768
0.077905543148517609 0.36902284622192383 0.084342613816261292
0.1886313408613205 0.39214235544204712 0.085677295923233032
0.33841049671173096 0.41534560918807983 0.088542059063911438
0.47547513246536255 0.43228226900100708 0.087677896022796631
0.59836864471435547 0.44520372152328491 0.079318523406982422
0.72500836849212646 0.45983108878135681 0.066266767680644989
0.83827745914459229 0.48261982202529907 0.053491808474063873
0.92221605777740479 0.51392734050750732 0.049237869679927826
0.97489088773727417 0.54371839761734009 0.066823504865169525
0.9989820122718811 0.56856930255889893 0.10427169501781464
0 0.42046329379081726 0.111652672290802
0 0.42505908012390137 0.10386283695697784
0.0071317637339234352 0.43220910429954529 0.095413818955421448
0.051061324775218964 0.44684502482414246 0.089383341372013092
0.15174601972103119 0.46953204274177551 0.088836699724197388
0.30922532081604004 0.49427586793899536 0.094095073640346527
0.46031635999679565 0.51492053270339966 0.09721992164850235
0.59009635448455811 0.52970629930496216 0.09546266496181488
0.717945396900177 0.54294747114181519 0.08943524956703186
0.83183473348617554 0.56047749519348145 0.079036220908164978
0.91766482591629028 0.58507198095321655 0.071846470236778259
0.9721788763999939 0.61162823438644409 0.082243241369724274
0.99863511323928833 0.63542342185974121 0.11202403157949448
3.7339155824156478e-05 0.49964430928230286 0.12209363281726837
0 0.50600439310073853 0.11424282193183899
0.0037880092859268188 0.51405137777328491 0.10515750199556351
0.041013859212398529 0.52805078029632568 0.097851082682609558
0.13389842212200165 0.54952526092529297 0.095009744167327881
0.28157138824462891 0.57563102245330811 0.098479218780994415
0.44197171926498413 0.60055750608444214 0.10432356595993042
0.58854442834854126 0.61957859992980957 0.11108291894197464
0.71945661306381226 0.63419824838638306 0.11561448127031326
0.8300178050994873 0.64611577987670898 0.11192848533391953
0.91231626272201538 0.65902715921401978 0.10532738268375397
0.96661138534545898 0.67838865518569946 0.10986313223838806
0.99732822179794312 0.69982314109802246 0.12981021404266357
0.0036821253597736359 0.57749897241592407 0.13635963201522827
0.00083094579167664051 0.58409643173217773 0.12699323892593384
0.0044861137866973877 0.59212839603424072 0.11694729328155518
0.037460837513208389 0.60469144582748413 0.10811918973922729
0.12201065570116043 0.62418729066848755 0.10355666279792786
0.26201573014259338 0.64938783645629883 0.10418815165758133
0.43018978834152222 0.67588216066360474 0.11076977103948593
0.58910304307937622 0.69841694831848145 0.12400735914707184
0.7236519455909729 0.71624314785003662 0.13731157779693604
0.83050704002380371 0.72630530595779419 0.13987578451633453
0.90926516056060791 0.73229366540908813 0.13422422111034393
0.96330887079238892 0.7441096305847168 0.13421487808227539
0.99673384428024292 0.76036250591278076 0.14718665182590485
0.010794082656502724 0.64651310443878174 0.15283431112766266
0.003377069253474474 0.653006911277771 0.14136265218257904
0.0032299414742738008 0.66029173135757446 0.12913854420185089
0.029289619997143745 0.67111647129058838 0.11898297816514969
0.10473927855491638 0.6876673698425293 0.11305190622806549
0.24110870063304901 0.70967042446136475 0.11294057220220566
0.41698044538497925 0.73415076732635498 0.12022027373313904
0.58564639091491699 0.75710242986679077 0.1353735625743866
0.72333711385726929 0.77565115690231323 0.15051959455013275
0.8296927809715271 0.78637510538101196 0.15599535405635834
0.90813994407653809 0.792339026927948 0.15307909250259399
0.96399444341659546 0.80092060565948486 0.15259510278701782
0.99766969680786133 0.81383341550827026 0.16263210773468018
0.012867961078882217 0.70209741592407227 0.16795146465301514
0.0031870375387370586 0.70962697267532349 0.15478487312793732
0.00026367785176262259 0.7169453501701355 0.14098073542118073
0.01742878369987011 0.72635895013809204 0.12960413098335266
0.082724884152412415 0.7396996021270752 0.12328781187534332
0.21442815661430359 0.75772881507873535 0.12451664358377457
0.397380530834198 0.77896577119827271 0.13412387669086456
0.57531309127807617 0.80029559135437012 0.14870478212833405
0.71670854091644287 0.81809180974960327 0.16115906834602356
0.82436293363571167 0.83017587661743164 0.1662323921918869
0.9060935378074646 0.83792024850845337 0.16560813784599304
0.96597802639007568 0.84705501794815063 0.16705317795276642
0.99891448020935059 0.8598361611366272 0.1775021106004715
0.010739823803305626 0.74976992607116699 0.17968015372753143
0.0016754450043663383 0.75765973329544067 0.16565047204494476
0 0.76485186815261841 0.15108712017536163
0.012930925935506821 0.77298438549041748 0.1394873708486557
0.070753328502178192 0.78376436233520508 0.13358131051063538
0.19623519480228424 0.79843026399612427 0.13621950149536133
0.38196253776550293 0.81652945280075073 0.14752677083015442
0.56238740682601929 0.835673987865448 0.16107816994190216
0.70301562547683716 0.85308104753494263 0.17070749402046204
0.8123624324798584 0.86619716882705688 0.17549698054790497
0.89825469255447388 0.87624281644821167 0.17705123126506805
0.9633440375328064 0.88736134767532349 0.18098625540733337
0.99898719787597656 0.90125942230224609 0.19231843948364258
0.0098660485818982124 0.034532077610492706 0.12737247347831726
0.065274737775325775 0.040059797465801239 0.12647905945777893
0.14355888962745667 0.045666266232728958 0.12138064205646515
0.22814418375492096 0.050432167947292328 0.10751181095838547
0.30735528469085693 0.057923231273889542 0.10164874047040939
0.38247489929199219 0.067764684557914734 0.10617844760417938
0.46009114384651184 0.079071655869483948 0.11818920820951462
0.54744869470596313 0.093123160302639008 0.13817779719829559
0.6469084620475769 0.11099593341350555 0.15933816134929657
0.74396443367004395 0.13078494369983673 0.17573767900466919
0.82558560371398926 0.1506294310092926 0.19162219762802124
0.89164304733276367 0.17170973122119904 0.21134611964225769
0.94675213098526001 0.19476297497749329 0.22996319830417633
0.0083124199882149696 0.074511252343654633 0.1242949366569519
0.052531387656927109 0.079073995351791382 0.12139660865068436
0.12770044803619385 0.085100837051868439 0.11678686738014221
0.22258791327476501 0.09430549293756485 0.10629013925790787
0.31441482901573181 0.10490677505731583 0.10516656935214996
0.40641185641288757 0.11723347008228302 0.11096608638763428
0.49552276730537415 0.13208569586277008 0.12887068092823029
0.59104442596435547 0.14752641320228577 0.14779447019100189
0.69344872236251831 0.16661831736564636 0.16734679043292999
0.78576374053955078 0.18616403639316559 0.18384650349617004
0.85950154066085815 0.20712085068225861 0.20318430662155151
0.91495579481124878 0.23039236664772034 0.22283272445201874
0.95939153432846069 0.25550031661987305 0.23862908780574799
0.0094468211755156517 0.12012369185686111 0.12305484712123871
0.036783508956432343 0.12495383620262146 0.12087728828191757
0.098685950040817261 0.13159307837486267 0.11965960264205933
0.19751916825771332 0.14272311329841614 0.11434575915336609
0.31102690100669861 0.15558621287345886 0.10742818564176559
0.42264091968536377 0.16885663568973541 0.10514062643051147
0.52529913187026978 0.18539458513259888 0.11874012649059296
0.63335895538330078 0.20174989104270935 0.1318860799074173
0.73872268199920654 0.21955698728561401 0.14500884711742401
0.82585388422012329 0.23929221928119659 0.16442830860614777
0.89177733659744263 0.26433128118515015 0.19508224725723267
0.93687528371810913 0.29095402359962463 0.21866278350353241
0.97065430879592896 0.31783625483512878 0.23613351583480835
0.0077120764181017876 0.17181545495986938 0.12578418850898743
0.024173406884074211 0.17607247829437256 0.12490219622850418
0.071337036788463593 0.18154475092887878 0.12461915612220764
0.16382628679275513 0.19229809939861298 0.12358462810516357
0.2845020592212677 0.20858682692050934 0.11825646460056305
0.41087597608566284 0.22435130178928375 0.1104932576417923
0.53785848617553711 0.23976030945777893 0.10687661170959473
0.66213309764862061 0.25635388493537903 0.10806385427713394
0.7746584415435791 0.2737116813659668 0.11253175884485245
0.85778272151947021 0.29425904154777527 0.13138298690319061
0.91711759567260742 0.32227310538291931 0.1652555912733078
0.95609396696090698 0.35234925150871277 0.19640624523162842
0.98291707038879395 0.38181641697883606 0.22311395406723022
0.0061672134324908257 0.22932618856430054 0.13841404020786285
0.015221031382679939 0.23315964639186859 0.13432139158248901
0.047052569687366486 0.23680497705936432 0.13109643757343292
0.12327403575181961 0.24738654494285583 0.13114035129547119
0.24178177118301392 0.26653555035591125 0.13327799737453461
0.37801578640937805 0.2843773365020752 0.12760891020298004
0.5150606632232666 0.29954379796981812 0.11726380884647369
0.65302902460098267 0.3158382773399353 0.10771668702363968
0.78080403804779053 0.33424663543701172 0.10135091096162796
0.87246137857437134 0.35699370503425598 0.1104096919298172
0.93390274047851562 0.38605132699012756 0.13411149382591248
0.97117406129837036 0.41724652051925659 0.16663083434104919
0.99386662244796753 0.44698011875152588 0.2026519775390625
0.0038080553058534861 0.29369121789932251 0.1524927020072937
0.0084941191598773003 0.2957482635974884 0.14551170170307159
0.029400590807199478 0.2973426878452301 0.13830888271331787
0.090798519551753998 0.30694130063056946 0.1358063668012619
0.2053598016500473 0.32713517546653748 0.13966785371303558
0.34595605731010437 0.34809193015098572 0.14046302437782288
0.48078110814094543 0.36448469758033752 0.13567060232162476
0.61938017606735229 0.38064730167388916 0.12425534427165985
0.75808256864547729 0.40006965398788452 0.10968882590532303
0.86790865659713745 0.42496266961097717 0.10207797586917877
0.94013893604278564 0.45546433329582214 0.10984788835048676
0.9805063009262085 0.48590320348739624 0.13862161338329315
0.99866563081741333 0.5132213830947876 0.18165604770183563
0.0014528910396620631 0.36393046379089355 0.16388046741485596
0.0028976439498364925 0.36490312218666077 0.15595391392707825
0.018156807869672775 0.36408698558807373 0.1467801034450531
0.069081597030162811 0.37415298819541931 0.14190812408924103
0.17564815282821655 0.39580580592155457 0.14373120665550232
0.3199346661567688 0.41972836852073669 0.14801992475986481
0.45756331086158752 0.43828502297401428 0.14880155026912689
0.59083425998687744 0.45403572916984558 0.1412140429019928
0.73119264841079712 0.47243711352348328 0.12614703178405762
0.8530881404876709 0.49620270729064941 0.10953732579946518
0.93754023313522339 0.5267755389213562 0.10373567789793015
0.98403036594390869 0.55563592910766602 0.12497273087501526
0.99982136487960815 0.57974141836166382 0.16928189992904663
0.0014085507718846202 0.43876940011978149 0.17278511822223663
0.0010089051211252809 0.44143268465995789 0.16544122993946075
0.009660772979259491 0.44252979755401611 0.15610808134078979
0.049911439418792725 0.45265862345695496 0.14888757467269897
0.14600855112075806 0.47374895215034485 0.14796999096870422
0.29157334566116333 0.49941590428352356 0.1524476557970047
0.43913975358009338 0.52131181955337524 0.1570584625005722
0.57471227645874023 0.53819435834884644 0.15690708160400391
0.71389460563659668 0.55430543422698975 0.14931765198707581
0.83820658922195435 0.57162868976593018 0.13496364653110504
0.92859005928039551 0.59335708618164062 0.12528412044048309
0.97999709844589233 0.61991173028945923 0.13730479776859283
0.99958318471908569 0.64469379186630249 0.17250561714172363
0.0049149757251143456 0.51510357856750488 0.18053831160068512
0.0028414407279342413 0.52084416151046753 0.17381861805915833
0.0062946095131337643 0.52574676275253296 0.16469955444335938
0.036999572068452835 0.53580588102340698 0.15638813376426697
0.12121755629777908 0.55514621734619141 0.15312750637531281
0.26067459583282471 0.58080554008483887 0.15586179494857788
0.42087253928184509 0.60578644275665283 0.1624273955821991
0.5726618766784668 0.62624132633209229 0.1702834814786911
0.71110355854034424 0.64226984977722168 0.17366403341293335
0.82988631725311279 0.65347194671630859 0.16769517958164215
0.91860616207122803 0.66314178705215454 0.15958988666534424
0.97294753789901733 0.6839371919631958 0.16396890580654144
0.99878489971160889 0.70775699615478516 0.18687881529331207
0.013799884356558323 0.58964288234710693 0.1906343549489975
0.0095755485817790031 0.59698760509490967 0.18254345655441284
0.0082800621166825294 0.60377776622772217 0.17253731191158295
0.029811261221766472 0.61387926340103149 0.16365951299667358
0.10175507515668869 0.63115763664245605 0.15893316268920898
0.2358163446187973 0.65515804290771484 0.15913952887058258
0.40979430079460144 0.68087714910507202 0.16472175717353821
0.57677841186523438 0.70377612113952637 0.17841033637523651
0.71600627899169922 0.72204339504241943 0.19198641180992126
0.82844805717468262 0.73239731788635254 0.19430364668369293
0.9125446081161499 0.73761826753616333 0.18845522403717041
0.96736478805541992 0.74995595216751099 0.1882433146238327
0.99737131595611572 0.76793289184570312 0.20266975462436676
0.020236160606145859 0.65567773580551147 0.20204988121986389
0.013443427160382271 0.66389113664627075 0.19165945053100586
0.0078151775524020195 0.67097842693328857 0.18027867376804352
0.022343939170241356 0.6805071234703064 0.17056405544281006
0.086459681391716003 0.69562268257141113 0.16507382690906525
0.21795114874839783 0.71658492088317871 0.16426429152488708
0.40164843201637268 0.7403872013092041 0.1692211776971817
0.57783472537994385 0.76319199800491333 0.18571469187736511
0.71963751316070557 0.78171342611312866 0.20336844027042389
0.82959485054016113 0.79240918159484863 0.20999529957771301
0.91120189428329468 0.79787665605545044 0.20723752677440643
0.96746259927749634 0.80664539337158203 0.20619989931583405
0.9981614351272583 0.82066196203231812 0.21785895526409149
0.019559165462851524 0.71097695827484131 0.21235239505767822
0.0098389573395252228 0.71891522407531738 0.20030337572097778
0.0020261877216398716 0.72606748342514038 0.18764805793762207
0.014664219692349434 0.73459291458129883 0.17703115940093994
0.075680963695049286 0.74737918376922607 0.17115475237369537
0.20479616522789001 0.7650216817855835 0.17194373905658722
0.38734963536262512 0.78570842742919922 0.18030785024166107
0.56884300708770752 0.80699294805526733 0.19618701934814453
0.7153012752532959 0.82439297437667847 0.21240468323230743
0.82661503553390503 0.83551377058029175 0.2202250212430954
0.91125321388244629 0.84210890531539917 0.21964055299758911
0.97146505117416382 0.85103821754455566 0.22114299237728119
0.99968928098678589 0.86499834060668945 0.23338764905929565
0.014048587530851364 0.75771832466125488 0.22022606432437897
0.0042020310647785664 0.76526415348052979 0.20745962858200073
0.00010196461516898125 0.77206063270568848 0.19425451755523682
0.014748292975127697 0.77982479333877563 0.18351033329963684
0.07628244161605835 0.79030948877334595 0.17806468904018402
0.20207291841506958 0.80492568016052246 0.18009202182292938
0.37923061847686768 0.82294350862503052 0.19029627740383148
0.55785363912582397 0.84179335832595825 0.20537833869457245
0.70324194431304932 0.85872149467468262 0.21984827518463135
0.81554454565048218 0.87071222066879272 0.22849473357200623
0.90456730127334595 0.87939357757568359 0.23061671853065491
0.97050613164901733 0.88980841636657715 0.23519471287727356
0.99996501207351685 0.90496724843978882 0.2488313615322113
0.0074234609492123127 0.037657253444194794 0.20328684151172638
0.053390234708786011 0.040904264897108078 0.20793639123439789
0.12816627323627472 0.040832802653312683 0.20955327153205872
0.2238236665725708 0.038784429430961609 0.20224964618682861
0.3187008798122406 0.043126378208398819 0.19273890554904938
0.39996889233589172 0.053137939423322678 0.17843113839626312
0.47644978761672974 0.064637906849384308 0.16911314427852631
0.55682635307312012 0.07881888747215271 0.17312018573284149
0.65126413106918335 0.097242884337902069 0.18930882215499878
0.74167680740356445 0.11756237596273422 0.20501832664012909
0.81775486469268799 0.13596639037132263 0.2178628146648407
0.88234448432922363 0.15777499973773956 0.23669812083244324
0.93724316358566284 0.18159894645214081 0.2584632933139801
0.0046204212121665478 0.082044444978237152 0.20254699885845184
0.037400953471660614 0.084701612591743469 0.20327398180961609
0.10484566539525986 0.084863491356372833 0.20394062995910645
0.20470519363880157 0.086304806172847748 0.19778481125831604
0.3112870454788208 0.094872631132602692 0.18923875689506531
0.41139137744903564 0.10705235600471497 0.17993269860744476
0.50107884407043457 0.12080457806587219 0.17839333415031433
0.59298264980316162 0.13573528826236725 0.18409213423728943
0.69231134653091431 0.15533484518527985 0.19886597990989685
0.78191119432449341 0.17769588530063629 0.21742898225784302
0.85348093509674072 0.20086610317230225 0.23716995120048523
0.90825802087783813 0.22720885276794434 0.2595486044883728
0.95191073417663574 0.2547859251499176 0.28182563185691833
0.0030019273981451988 0.13274937868118286 0.20272839069366455
0.01975708082318306 0.13611268997192383 0.19975253939628601
0.070571914315223694 0.13724072277545929 0.1988980770111084
0.17105510830879211 0.14218887686729431 0.1957639753818512
0.2942817211151123 0.15419995784759521 0.18903593719005585
0.40803533792495728 0.16958838701248169 0.18407323956489563
0.50836080312728882 0.18579405546188354 0.18785928189754486
0.61919522285461426 0.20101830363273621 0.19051593542098999
0.72799551486968994 0.21902523934841156 0.19999223947525024
0.81930661201477051 0.24038958549499512 0.22056300938129425
0.88682377338409424 0.26736271381378174 0.2483258843421936
0.93242365121841431 0.29930314421653748 0.27630165219306946
0.96546250581741333 0.33168724179267883 0.30283492803573608
0.0041207107715308666 0.18974992632865906 0.20567129552364349
0.012042311020195484 0.19274003803730011 0.20238900184631348
0.048173956573009491 0.19389967620372772 0.19978326559066772
0.13747631013393402 0.19913601875305176 0.19707322120666504
0.26533764600753784 0.21316573023796082 0.19277359545230865
0.39513811469078064 0.23195043206214905 0.18959280848503113
0.51493752002716064 0.25005325675010681 0.18947973847389221
0.63943922519683838 0.26766639947891235 0.18930467963218689
0.75776034593582153 0.28454452753067017 0.19401100277900696
0.85039544105529785 0.30429214239120483 0.21351917088031769
0.91420984268188477 0.33262538909912109 0.24200055003166199
0.9535103440284729 0.36688598990440369 0.2724858820438385
0.97847771644592285 0.40082591772079468 0.30302008986473083
0.0069956313818693161 0.25266945362091064 0.2137971967458725
0.011255511082708836 0.25614809989929199 0.20939381420612335
0.032300688326358795 0.25484827160835266 0.20385722815990448
0.097579032182693481 0.25833943486213684 0.19988852739334106
0.21951240301132202 0.27312782406806946 0.20143628120422363
0.36291104555130005 0.29244941473007202 0.20152369141578674
