assets/lut/abigailgonzalez day 4nite.cube
# Created by: G'MIC (https://gmic.eu)
TITLE "day_4nite"
# LUT size
LUT_3D_SIZE 5
# Data domain
DOMAIN_MIN 0.0 0.0 0.0
DOMAIN_MAX 1.0 1.0 1.0
# LUT data points
0.005510382354259491 0.01483306847512722 0.04631640762090683
0.10654470324516296 0.024614222347736359 0.036390714347362518
0.2636876106262207 0.038786616176366806 0.033004101365804672
0.43375095725059509 0.05223376676440239 0.02988903596997261
0.53766483068466187 0.059764713048934937 0.02690601721405983
0.048739712685346603 0.17451976239681244 0.050986077636480331
0.13504664599895477 0.19177432358264923 0.048427671194076538
0.29260456562042236 0.2053934633731842 0.044522468000650406
0.48552191257476807 0.20841294527053833 0.037415582686662674
0.60121101140975952 0.19455060362815857 0.030021756887435913
0.13989284634590149 0.41599315404891968 0.066834405064582825
0.20370496809482574 0.42991152405738831 0.082396805286407471
0.36267673969268799 0.45215320587158203 0.086852416396141052
0.57862740755081177 0.4341474175453186 0.089103668928146362
0.70513933897018433 0.36001190543174744 0.071352370083332062
0.20147185027599335 0.70339596271514893 0.084542110562324524
0.2740514874458313 0.73950779438018799 0.11470124125480652
0.43723830580711365 0.77524292469024658 0.10740859061479568
0.71045631170272827 0.79406434297561646 0.078843511641025543
0.86546564102172852 0.63320523500442505 0.076149746775627136
0.25561100244522095 0.91750103235244751 0.081131383776664734
0.31111231446266174 0.94390559196472168 0.097668036818504333
0.44799590110778809 0.99661457538604736 0.0920591801404953
0.66460716724395752 0.99640083312988281 0.072938300669193268
0.98450452089309692 0.98549759387969971 0.04377315565943718
0.020132191479206085 0.037814885377883911 0.30139186978340149
0.10993709415197372 0.038805719465017319 0.29811584949493408
0.25083887577056885 0.049414541572332382 0.27716514468193054
0.42491275072097778 0.058616742491722107 0.23863112926483154
0.52220219373703003 0.058034274727106094 0.1910005509853363
0.053173650056123734 0.16496679186820984 0.29534390568733215
0.13648609817028046 0.17713280022144318 0.28495138883590698
0.2846832275390625 0.19402995705604553 0.26879829168319702
0.47624912858009338 0.21257986128330231 0.24727463722229004
0.61380815505981445 0.22124351561069489 0.23114028573036194
0.12719886004924774 0.39887180924415588 0.28297197818756104
0.20091621577739716 0.41138681769371033 0.28504776954650879
0.35846513509750366 0.43369489908218384 0.2733580470085144
0.56830215454101562 0.43283003568649292 0.26021775603294373
0.71031194925308228 0.38597828149795532 0.2473810613155365
0.1860872358083725 0.68817436695098877 0.26544511318206787
0.28008231520652771 0.7199251651763916 0.27435344457626343
0.44338870048522949 0.74032306671142578 0.2774043083190918
0.68858665227890015 0.75715154409408569 0.24274004995822906
0.84360051155090332 0.61603623628616333 0.24089442193508148
0.24556726217269897 0.91300284862518311 0.2302338033914566
0.32842782139778137 0.9366944432258606 0.26049661636352539
0.43477451801300049 0.98490732908248901 0.25725504755973816
0.66195428371429443 0.99452924728393555 0.22851294279098511
0.98165905475616455 0.97316545248031616 0.17980538308620453
0.043530542403459549 0.071370862424373627 0.56698822975158691
0.12283386290073395 0.06470758467912674 0.56137591600418091
0.26086658239364624 0.07589016854763031 0.54887491464614868
0.4346575140953064 0.084337629377841949 0.50921636819839478
0.52862417697906494 0.088443949818611145 0.40466210246086121
0.066871732473373413 0.17626149952411652 0.56564503908157349
0.1552889347076416 0.19332985579967499 0.55688273906707764
0.30243834853172302 0.21479202806949615 0.54215562343597412
0.48844385147094727 0.2287178635597229 0.49940553307533264
0.62699300050735474 0.23931944370269775 0.42664569616317749
0.14088740944862366 0.39370027184486389 0.5651203989982605
0.22376507520675659 0.41634029150009155 0.55924314260482788
0.37722718715667725 0.44005849957466125 0.54593241214752197
0.59171652793884277 0.46244674921035767 0.52076572179794312
0.77002519369125366 0.48131212592124939 0.48911648988723755
0.18502649664878845 0.6739509105682373 0.51206421852111816
0.29423105716705322 0.70666313171386719 0.51170963048934937
0.46754264831542969 0.7296828031539917 0.51209056377410889
0.7021753191947937 0.74590897560119629 0.48765212297439575
0.89527159929275513 0.66232883930206299 0.47250455617904663
0.22888638079166412 0.89857518672943115 0.40666061639785767
0.34028026461601257 0.93115830421447754 0.42082694172859192
0.512908935546875 0.97340285778045654 0.46119949221611023
0.68229281902313232 0.99583375453948975 0.45938804745674133
0.98258310556411743 0.97747182846069336 0.39890024065971375
0.054452273994684219 0.081999912858009338 0.96315211057662964
0.12780345976352692 0.074562475085258484 0.96263736486434937
0.2513224184513092 0.084674373269081116 0.96193772554397583
0.43211480975151062 0.08760109543800354 0.90266591310501099
0.52542531490325928 0.080935411155223846 0.6546250581741333
0.090795107185840607 0.1880204975605011 0.96117913722991943
0.19144456088542938 0.21580818295478821 0.96360158920288086
0.3263111412525177 0.24311079084873199 0.95889091491699219
0.50461632013320923 0.24448370933532715 0.91570836305618286
0.63248527050018311 0.24714410305023193 0.65871983766555786
0.15596461296081543 0.37513774633407593 0.97661173343658447
0.24132229387760162 0.39715096354484558 0.96639561653137207
0.39797627925872803 0.44519221782684326 0.96334731578826904
0.60174459218978882 0.46858319640159607 0.91463607549667358
0.79219239950180054 0.49319440126419067 0.6667289137840271
0.1993776261806488 0.67926895618438721 0.97362148761749268
0.30896234512329102 0.69937288761138916 0.91931027173995972
0.47301965951919556 0.72789877653121948 0.88585114479064941
0.72164839506149292 0.75293874740600586 0.80480152368545532
0.97799193859100342 0.75553649663925171 0.6824689507484436
0.21831664443016052 0.89380240440368652 0.64121907949447632
0.33913999795913696 0.93065571784973145 0.62298411130905151
0.51684850454330444 0.97402405738830566 0.63824808597564697
0.74054360389709473 0.99855262041091919 0.67293906211853027
0.99040758609771729 0.98612678050994873 0.58538126945495605
0.054664269089698792 0.083792589604854584 1
0.11998099833726883 0.079866014420986176 1
0.22960396111011505 0.098538793623447418 1
0.35396626591682434 0.088511809706687927 1
0.51706063747406006 0.10665090382099152 1
0.082433529198169708 0.17457722127437592 1
0.20306272804737091 0.23099181056022644 1
0.33183401823043823 0.26424992084503174 1
0.43516832590103149 0.24579456448554993 1
0.62184041738510132 0.25514692068099976 1
0.15582276880741119 0.32426390051841736 1
0.24554811418056488 0.35789114236831665 1
0.39881071448326111 0.43613341450691223 1
0.53784102201461792 0.45010077953338623 1
0.8077390193939209 0.481263667345047 0.99896597862243652
0.17911542952060699 0.52949219942092896 1
0.28273928165435791 0.54933309555053711 1
0.44509553909301758 0.61352324485778809 1
0.69850999116897583 0.72188693284988403 1
0.97861474752426147 0.7025306224822998 1
0.19490648806095123 0.86313080787658691 0.99952787160873413
0.3128715455532074 0.90332061052322388 0.99921262264251709
0.47335666418075562 0.9747883677482605 0.9987872838973999
0.6805846095085144 0.9862741231918335 0.99899417161941528
0.99997198581695557 1 0.97241425514221191
