assets/lut/abigailgonzalez caribe.cube
# Created by: G'MIC (https://gmic.eu)
TITLE "caribe"
# LUT size
LUT_3D_SIZE 13
# Data domain
DOMAIN_MIN 0.0 0.0 0.0
DOMAIN_MAX 1.0 1.0 1.0
# LUT data points
0.043249256908893585 0.039704956114292145 0.041487898677587509
0.079589948058128357 0.045647267252206802 0.038526274263858795
0.13243198394775391 0.050140395760536194 0.038848549127578735
0.16955232620239258 0.052170157432556152 0.035493049770593643
0.17487154901027679 0.048066698014736176 0.035035841166973114
0.17411632835865021 0.046651188284158707 0.032375022768974304
0.18281075358390808 0.046654600650072098 0.031446062028408051
0.19324128329753876 0.045855533331632614 0.033935219049453735
0.19950741529464722 0.043181207031011581 0.035294119268655777
0.22594465315341949 0.042824734002351761 0.036704491823911667
0.29697415232658386 0.043137256056070328 0.040749151259660721
0.36880090832710266 0.043141741305589676 0.044354099780321121
0.41645219922065735 0.045634102076292038 0.048019722104072571
0.03879253938794136 0.056074135005474091 0.044577296823263168
0.076582781970500946 0.064747333526611328 0.039857678115367889
0.15464003384113312 0.073581025004386902 0.038698218762874603
0.22695423662662506 0.077554754912853241 0.037432156503200531
0.27603867650032043 0.072674453258514404 0.039543613791465759
0.27447742223739624 0.062595993280410767 0.036368336528539658
0.25489389896392822 0.053644485771656036 0.033743944019079208
0.24580360949039459 0.046894613653421402 0.035044711083173752
0.24490413069725037 0.04173571988940239 0.036866176873445511
0.26852455735206604 0.041310165077447891 0.039064519107341766
0.31324899196624756 0.042829267680644989 0.040917955338954926
0.36944609880447388 0.044994637370109558 0.04381268098950386
0.41723150014877319 0.047469750046730042 0.047509033232927322
0.037033874541521072 0.089887626469135284 0.047963701188564301
0.069277234375476837 0.10134100914001465 0.043730642646551132
0.15195432305335999 0.11934193968772888 0.042877197265625
0.24472291767597198 0.12765838205814362 0.041120462119579315
0.33067682385444641 0.12433747202157974 0.042494051158428192
0.36602342128753662 0.10806053131818771 0.041581485420465469
0.35705262422561646 0.086007796227931976 0.040537260472774506
0.34011983871459961 0.066755585372447968 0.040551457554101944
0.32332134246826172 0.05248279869556427 0.040526639670133591
0.32506760954856873 0.044571295380592346 0.041354671120643616
0.35293310880661011 0.043232247233390808 0.042765717953443527
0.40585201978683472 0.047474611550569534 0.045575790107250214
0.43511909246444702 0.049094781279563904 0.047456525266170502
0.055156946182250977 0.14322714507579803 0.053866084665060043
0.078054852783679962 0.15339016914367676 0.052112311124801636
0.13552835583686829 0.17451144754886627 0.052540212869644165
0.23083323240280151 0.19109280407428741 0.051000706851482391
0.34514474868774414 0.19519473612308502 0.049562521278858185
0.42427477240562439 0.18096709251403809 0.04827156662940979
0.44754061102867126 0.14886513352394104 0.046733975410461426
0.4432823657989502 0.11475957185029984 0.045533124357461929
0.42526274919509888 0.086231961846351624 0.044814929366111755
0.40326860547065735 0.061500132083892822 0.044419560581445694
0.41216617822647095 0.047503452748060226 0.04571165144443512
0.46313297748565674 0.04831777885556221 0.049570240080356598
0.4702400267124176 0.05248941108584404 0.049409769475460052
0.11641602218151093 0.21139451861381531 0.060608148574829102
0.12975981831550598 0.21833710372447968 0.06025245413184166
0.15821798145771027 0.23528821766376495 0.05953623354434967
0.20788465440273285 0.2512543797492981 0.059921968728303909
0.30981704592704773 0.26303765177726746 0.059531867504119873
0.43168473243713379 0.26245886087417603 0.057581312954425812
0.50079995393753052 0.23517784476280212 0.055428300052881241
0.53332424163818359 0.19527861475944519 0.053412478417158127
0.53481245040893555 0.15100932121276855 0.05154133215546608
0.50522232055664062 0.10497327148914337 0.049733061343431473
0.48154380917549133 0.067057333886623383 0.049462456256151199
0.49731391668319702 0.054738990962505341 0.050939701497554779
0.54606252908706665 0.077739894390106201 0.052289325743913651
0.24056676030158997 0.2939799427986145 0.063611961901187897
0.23852372169494629 0.29535302519798279 0.065262287855148315
0.24211719632148743 0.30467638373374939 0.063155293464660645
0.24213676154613495 0.31150573492050171 0.064119793474674225
0.28527399897575378 0.32125064730644226 0.066742852330207825
0.40419718623161316 0.33577579259872437 0.067025639116764069
0.52023905515670776 0.32799467444419861 0.065947003662586212
0.6061255931854248 0.29696398973464966 0.064479753375053406
0.64281105995178223 0.24812959134578705 0.062645211815834045
0.61989271640777588 0.18449312448501587 0.058344628661870956
0.57009637355804443 0.11474869400262833 0.053657487034797668
0.54295831918716431 0.079613387584686279 0.051797304302453995
0.6614069938659668 0.15114463865756989 0.058760445564985275
0.3990359902381897 0.38641801476478577 0.066510908305644989
0.38884446024894714 0.3846764862537384 0.069329790771007538
0.37240743637084961 0.38535186648368835 0.068916082382202148
0.34938821196556091 0.38281500339508057 0.069527827203273773
0.34817913174629211 0.38559091091156006 0.071681931614875793
0.41636231541633606 0.40094354748725891 0.073442451655864716
0.54074728488922119 0.41048836708068848 0.076485760509967804
0.67216682434082031 0.39935961365699768 0.079550705850124359
0.73990088701248169 0.3609870970249176 0.079276621341705322
0.73382735252380371 0.29665839672088623 0.072732783854007721
0.68308424949645996 0.20872987806797028 0.063920028507709503
0.64996063709259033 0.16026660799980164 0.058913376182317734
0.77638781070709229 0.25897681713104248 0.072139963507652283
0.55655699968338013 0.4779052734375 0.08001275360584259
0.54630297422409058 0.47574815154075623 0.080226302146911621
0.53021526336669922 0.47304472327232361 0.081362508237361908
0.49925193190574646 0.46649384498596191 0.08133842796087265
0.46306893229484558 0.45856761932373047 0.079885400831699371
0.4730510413646698 0.46178334951400757 0.080270029604434967
0.56536239385604858 0.47591087222099304 0.086120977997779846
0.70503389835357666 0.47976922988891602 0.095335029065608978
0.80444151163101196 0.46013393998146057 0.10039985179901123
0.83204227685928345 0.41457635164260864 0.095813184976577759
0.81585413217544556 0.35089731216430664 0.086655981838703156
0.81054896116256714 0.32316690683364868 0.082257770001888275
0.8796883225440979 0.39274674654006958 0.095711454749107361
0.72033613920211792 0.5696101188659668 0.10847491025924683
0.70695436000823975 0.56522303819656372 0.1058199405670166
0.69909083843231201 0.56220334768295288 0.10578592121601105
0.67488652467727661 0.55869996547698975 0.10296747833490372
0.62078648805618286 0.54489469528198242 0.097137466073036194
0.57752865552902222 0.52991718053817749 0.093225233256816864
0.608531653881073 0.53144806623458862 0.096718728542327881
0.71574771404266357 0.53995007276535034 0.1087079793214798
0.82684266567230225 0.53958821296691895 0.11956773698329926
0.89125460386276245 0.52355164289474487 0.12289120256900787
0.90576505661010742 0.49516254663467407 0.1204315647482872
0.91295480728149414 0.48527610301971436 0.11829211562871933
0.93392813205718994 0.51165032386779785 0.12777471542358398
0.85826766490936279 0.65287399291992188 0.1420055478811264
0.84567791223526001 0.64550870656967163 0.138884037733078
0.84080582857131958 0.64050561189651489 0.13746382296085358
0.82192087173461914 0.63516813516616821 0.13307340443134308
0.77330291271209717 0.62158983945846558 0.12523573637008667
0.71359837055206299 0.60159367322921753 0.11685765534639359
0.68839919567108154 0.58925408124923706 0.11268793791532516
0.74419218301773071 0.59543073177337646 0.12173288315534592
0.83380037546157837 0.60660636425018311 0.13500270247459412
0.90690070390701294 0.61266839504241943 0.14551977813243866
0.93651479482650757 0.60742473602294922 0.15079617500305176
0.94325816631317139 0.59704387187957764 0.15268111228942871
0.95062792301177979 0.59913653135299683 0.1593339592218399
0.93246877193450928 0.71156978607177734 0.16792325675487518
0.92843025922775269 0.70613199472427368 0.16572627425193787
0.92218339443206787 0.70249980688095093 0.16414310038089752
0.91136151552200317 0.6973450779914856 0.16017252206802368
0.88661432266235352 0.68745666742324829 0.1545431911945343
0.84503912925720215 0.67140746116638184 0.1460733562707901
0.80848944187164307 0.65736657381057739 0.13887381553649902
0.82041531801223755 0.65700662136077881 0.14181740581989288
0.86573308706283569 0.66519725322723389 0.15239351987838745
0.91449564695358276 0.67132419347763062 0.16256305575370789
0.94160950183868408 0.67297202348709106 0.17130376398563385
0.95062816143035889 0.67163711786270142 0.1804676353931427
0.95721578598022461 0.67404544353485107 0.19323883950710297
0.95084983110427856 0.74879318475723267 0.18346355855464935
0.9510459303855896 0.74910759925842285 0.18349003791809082
0.94852912425994873 0.74900376796722412 0.18208518624305725
0.94576787948608398 0.74552661180496216 0.18049193918704987
0.93855077028274536 0.73954033851623535 0.17735472321510315
0.92059570550918579 0.72943198680877686 0.17190258204936981
0.90397560596466064 0.71947687864303589 0.16562403738498688
0.90124845504760742 0.71654856204986572 0.16637232899665833
0.91037935018539429 0.7208293080329895 0.17609576880931854
0.93133777379989624 0.72465711832046509 0.18790468573570251
0.94644373655319214 0.72340649366378784 0.19733726978302002
0.95251870155334473 0.72308129072189331 0.20980115234851837
0.95813441276550293 0.72981476783752441 0.2292485386133194
0.95655220746994019 0.77832651138305664 0.19686122238636017
0.95641332864761353 0.7802729606628418 0.19720210134983063
0.95742440223693848 0.78232389688491821 0.19740791618824005
0.95839893817901611 0.78302419185638428 0.19721147418022156
0.95648181438446045 0.78033632040023804 0.19642190635204315
0.95028895139694214 0.77487862110137939 0.1944718062877655
0.94877463579177856 0.76988798379898071 0.19173926115036011
0.9470449686050415 0.76877260208129883 0.19452781975269318
0.94510889053344727 0.7729758620262146 0.20600329339504242
0.95115005970001221 0.77736800909042358 0.22077354788780212
0.95589512586593628 0.77341681718826294 0.23169107735157013
0.95713776350021362 0.77142810821533203 0.24660024046897888
0.9609869122505188 0.77691948413848877 0.26610937714576721
0.03426792100071907 0.039385821670293808 0.060727663338184357
0.067613370716571808 0.044897429645061493 0.062411334365606308
0.12786059081554413 0.048982132226228714 0.065341964364051819
0.16876360774040222 0.051593180745840073 0.060657232999801636
0.17507857084274292 0.048531953245401382 0.057628735899925232
0.16767299175262451 0.047718271613121033 0.046078477054834366
0.17567437887191772 0.04781678318977356 0.038985744118690491
0.17950974404811859 0.046875897794961929 0.037295937538146973
0.19403143227100372 0.043555419892072678 0.036524798721075058
0.2166038453578949 0.043137256056070328 0.036253027617931366
0.26574462652206421 0.043137256056070328 0.038768842816352844
0.33823880553245544 0.043139766901731491 0.04190705344080925
0.40512984991073608 0.044886570423841476 0.046800006181001663
0.031168574467301369 0.053887594491243362 0.069639064371585846
0.06235358864068985 0.061970744282007217 0.064225681126117706
0.14423850178718567 0.070789560675621033 0.059029418975114822
0.2311759889125824 0.076961636543273926 0.052836772054433823
0.28542917966842651 0.073874346911907196 0.050772558897733688
0.28248953819274902 0.066523730754852295 0.042417861521244049
0.26783362030982971 0.058601394295692444 0.037275202572345734
0.25416535139083862 0.051573958247900009 0.036524243652820587
0.2512880265712738 0.046054795384407043 0.035566501319408417
0.26479548215866089 0.044013302773237228 0.036431673914194107
0.29401722550392151 0.043160352855920792 0.038276821374893188
0.35425189137458801 0.044605255126953125 0.042020101100206375
0.4284231960773468 0.047706782817840576 0.047973018139600754
0.030528364703059196 0.091274887323379517 0.076447159051895142
0.058193594217300415 0.099643245339393616 0.069390870630741119
0.1475912481546402 0.11707087606191635 0.060471374541521072
0.25841736793518066 0.12886671721935272 0.05264035239815712
0.35403016209602356 0.12835797667503357 0.047515388578176498
0.39773067831993103 0.11432561278343201 0.043079078197479248
0.39875265955924988 0.092844955623149872 0.041234962642192841
0.38178139925003052 0.073240987956523895 0.041625767946243286
0.35779088735580444 0.059301711618900299 0.040121894329786301
0.34542512893676758 0.050066959112882614 0.039837706834077835
0.34747245907783508 0.044037807732820511 0.04070383682847023
0.39452677965164185 0.044947769492864609 0.044303219765424728
0.47238188982009888 0.050512008368968964 0.049829505383968353
0.042903900146484375 0.14775632321834564 0.07625686377286911
0.065924502909183502 0.15407894551753998 0.07339680939912796
0.1411479264497757 0.17593939602375031 0.066458068788051605
0.25104114413261414 0.19893021881580353 0.059134017676115036
0.37374603748321533 0.20701254904270172 0.052977215498685837
0.46248155832290649 0.19013367593288422 0.04950307309627533
0.49422818422317505 0.15446177124977112 0.045821696519851685
0.49033156037330627 0.1191256195306778 0.044631734490394592
0.47040745615959167 0.090164646506309509 0.044827569276094437
0.44191613793373108 0.066883489489555359 0.045020684599876404
0.42067652940750122 0.049215923994779587 0.045312784612178802
0.44460737705230713 0.044573929160833359 0.047578234225511551
0.49833455681800842 0.056260500103235245 0.050823211669921875
0.093326583504676819 0.21728809177875519 0.068768277764320374
0.10421410202980042 0.21899984776973724 0.070828698575496674
0.16330486536026001 0.24009960889816284 0.06744607537984848
0.24873317778110504 0.26827722787857056 0.063299216330051422
0.36683240532875061 0.28639525175094604 0.060623407363891602
0.48797175288200378 0.27906203269958496 0.05929228663444519
0.55532753467559814 0.24404405057430267 0.055240824818611145
0.57360750436782837 0.19565156102180481 0.052175648510456085
0.56575411558151245 0.14812976121902466 0.051273122429847717
0.54183864593505859 0.11000578850507736 0.050945866852998734
0.51115673780441284 0.077211685478687286 0.050390340387821198
0.51090973615646362 0.062470380216836929 0.051012720912694931
0.57087498903274536 0.087032020092010498 0.053418643772602081
0.22037103772163391 0.30383467674255371 0.060691565275192261
0.21009247004985809 0.30055919289588928 0.063929975032806396
0.24806441366672516 0.31567728519439697 0.062705680727958679
0.2985280454158783 0.33727520704269409 0.062037747353315353
0.36596259474754333 0.35296505689620972 0.063896641135215759
0.48184478282928467 0.36024901270866394 0.067058593034744263
0.58687293529510498 0.34535759687423706 0.067512929439544678
0.64306735992431641 0.30201879143714905 0.065617024898529053
0.66052854061126709 0.24672049283981323 0.063368178904056549
0.64994782209396362 0.19665291905403137 0.05950927734375
0.62582296133041382 0.14947605133056641 0.056501023471355438
0.61064416170120239 0.11930563300848007 0.055415239185094833
0.67171305418014526 0.15217182040214539 0.059557028114795685
0.39228790998458862 0.40120577812194824 0.057632371783256531
0.3716532289981842 0.39622882008552551 0.060874205082654953
0.38123521208763123 0.40155753493309021 0.063738681375980377
0.40381050109863281 0.41121006011962891 0.065229766070842743
0.4221547544002533 0.41638821363449097 0.068375527858734131
0.48417976498603821 0.4253121018409729 0.073197819292545319
0.59346336126327515 0.4296468198299408 0.078458972275257111
0.69848877191543579 0.41181114315986633 0.08206571638584137
0.75455617904663086 0.37242630124092102 0.08140130341053009
0.76160508394241333 0.32122501730918884 0.075156956911087036
0.74764174222946167 0.26605930924415588 0.068685673177242279
0.73251944780349731 0.22762693464756012 0.065432287752628326
0.77228260040283203 0.25205114483833313 0.071203358471393585
0.56335544586181641 0.49234119057655334 0.073035009205341339
0.54624927043914795 0.48861587047576904 0.074158839881420135
0.53948944807052612 0.48645219206809998 0.077882803976535797
0.53143954277038574 0.48352542519569397 0.080015994608402252
0.51709336042404175 0.47957012057304382 0.079417072236537933
0.52967506647109985 0.4822022020816803 0.081209190189838409
0.60900110006332397 0.49261665344238281 0.088414482772350311
0.7275393009185791 0.49626380205154419 0.098868519067764282
0.8136667013168335 0.48040112853050232 0.10443659871816635
0.84824740886688232 0.44077625870704651 0.10005433112382889
0.84956538677215576 0.3891235888004303 0.091266095638275146
0.83938640356063843 0.35075634717941284 0.085680745542049408
0.85802698135375977 0.36269310116767883 0.090732559561729431
0.72499459981918335 0.57855820655822754 0.10624509304761887
0.71003234386444092 0.57497161626815796 0.10484146326780319
0.70714521408081055 0.56989598274230957 0.10664127022027969
0.68739062547683716 0.56419295072555542 0.10350091755390167
0.65111899375915527 0.55363696813583374 0.098904900252819061
0.62593334913253784 0.54555982351303101 0.096739165484905243
0.66163575649261475 0.55011910200119019 0.10240364819765091
0.75474202632904053 0.56102257966995239 0.11582332104444504
0.84299039840698242 0.56229621171951294 0.12715525925159454
0.89617854356765747 0.54078966379165649 0.12818804383277893
0.91132360696792603 0.50415915250778198 0.12255154550075531
0.91119378805160522 0.48032897710800171 0.11818449944257736
0.91761249303817749 0.47701343894004822 0.12004347890615463
0.85070955753326416 0.65795159339904785 0.14187829196453094
0.83570617437362671 0.65282541513442993 0.13894075155258179
0.84211611747741699 0.64554405212402344 0.13853862881660461
0.82745957374572754 0.63840699195861816 0.1335611492395401
0.7909044623374939 0.62663894891738892 0.12633994221687317
0.75327330827713013 0.6141200065612793 0.12092799693346024
0.75376999378204346 0.61100327968597412 0.12279265373945236
0.80609983205795288 0.6194348931312561 0.13333708047866821
0.87330847978591919 0.62801212072372437 0.1453571617603302
0.92087137699127197 0.62651991844177246 0.15278327465057373
0.93830358982086182 0.61195611953735352 0.15435287356376648
0.94146203994750977 0.59642672538757324 0.15330506861209869
0.9444618821144104 0.58344113826751709 0.15391847491264343
0.93012768030166626 0.71586048603057861 0.16812026500701904
0.92113864421844482 0.71133232116699219 0.16639505326747894
0.92314499616622925 0.7053532600402832 0.16435761749744415
0.9151989221572876 0.69910705089569092 0.15942476689815521
0.89354664087295532 0.68983614444732666 0.15322181582450867
0.86442005634307861 0.67826664447784424 0.14748327434062958
0.85002118349075317 0.67088693380355835 0.14521633088588715
0.86712998151779175 0.67295652627944946 0.15024060010910034
0.90344679355621338 0.681354820728302 0.16030377149581909
0.93272620439529419 0.68861621618270874 0.17054390907287598
0.94595074653625488 0.68710207939147949 0.17707285284996033
0.9510236382484436 0.67967593669891357 0.18165971338748932
0.95464271306991577 0.6729312539100647 0.18926572799682617
0.95312654972076416 0.75067681074142456 0.18099622428417206
0.95014095306396484 0.74951189756393433 0.18263567984104156
0.95086824893951416 0.74739503860473633 0.18095874786376953
0.94848030805587769 0.74525994062423706 0.17774981260299683
0.94137758016586304 0.74022579193115234 0.1746407151222229
0.9269065260887146 0.73193967342376709 0.17080914974212646
0.91445577144622803 0.72269272804260254 0.16654554009437561
0.91166377067565918 0.71879196166992188 0.16711360216140747
0.92062252759933472 0.72410792112350464 0.17485998570919037
0.93828719854354858 0.73157531023025513 0.18695573508739471
0.94947564601898193 0.73147416114807129 0.19629481434822083
0.95299637317657471 0.72916370630264282 0.20697897672653198
0.95710271596908569 0.73128479719161987 0.22315774857997894
0.95622855424880981 0.77505987882614136 0.19068297743797302
0.95435714721679688 0.77575188875198364 0.19283714890480042
0.95730918645858765 0.77787685394287109 0.19408106803894043
0.9599263072013855 0.77989572286605835 0.19401434063911438
0.95853513479232788 0.77926099300384521 0.19347447156906128
0.95215988159179688 0.77439910173416138 0.19171826541423798
0.94618946313858032 0.76647520065307617 0.18887351453304291
0.94011646509170532 0.76178193092346191 0.18907672166824341
0.93943488597869873 0.76510608196258545 0.19634492695331573
0.94820100069046021 0.77061456441879272 0.20904870331287384
0.95518404245376587 0.7693067193031311 0.22073674201965332
0.95738667249679565 0.76943385601043701 0.23615327477455139
0.96069622039794922 0.77473050355911255 0.25480052828788757
0.029906822368502617 0.039016753435134888 0.084853947162628174
0.054897278547286987 0.04227612167596817 0.094923831522464752
0.10771186649799347 0.044789873063564301 0.10720991343259811
0.15631850063800812 0.047019749879837036 0.11157183349132538
0.1742277592420578 0.046161022037267685 0.10458730161190033
0.17500664293766022 0.045213945209980011 0.088296450674533844
0.18027324974536896 0.045568235218524933 0.075085580348968506
0.17955632507801056 0.045061223208904266 0.062984690070152283
0.19023451209068298 0.043208971619606018 0.050663862377405167
0.20508867502212524 0.043137256056070328 0.039371669292449951
0.24465551972389221 0.043137256056070328 0.035612471401691437
0.31216546893119812 0.043137256056070328 0.037113428115844727
0.38158407807350159 0.043219905346632004 0.04211985319852829
0.028402695432305336 0.054831068962812424 0.10581998527050018
0.048946335911750793 0.059620503336191177 0.1064751148223877
0.11112610995769501 0.065622352063655853 0.10347312688827515
0.19275638461112976 0.06873786449432373 0.098130077123641968
0.2443910539150238 0.066456466913223267 0.089348644018173218
0.26314640045166016 0.061788208782672882 0.076925195753574371
0.2646845281124115 0.056663453578948975 0.065762355923652649
0.25049620866775513 0.051333781331777573 0.056116756051778793
0.2416827529668808 0.047286733984947205 0.044680800288915634
0.24998800456523895 0.045033548027276993 0.037686321884393692
0.27286359667778015 0.043270379304885864 0.036063637584447861
0.32383111119270325 0.043137971311807632 0.038992580026388168
0.39274981617927551 0.044247571378946304 0.044150825589895248
0.029188014566898346 0.094067715108394623 0.12826690077781677
0.045566469430923462 0.099684648215770721 0.12344201654195786
0.11048905551433563 0.10911960899829865 0.10751184076070786
0.21561798453330994 0.11655104160308838 0.093742892146110535
0.30473381280899048 0.11656962335109711 0.078312881290912628
0.36546757817268372 0.10695235431194305 0.065550394356250763
0.38764867186546326 0.090042218565940857 0.056993655860424042
0.3794829249382019 0.073443546891212463 0.052549771964550018
0.36340850591659546 0.062200911343097687 0.046131372451782227
0.35098177194595337 0.053766317665576935 0.041619438678026199
0.34073743224143982 0.045837730169296265 0.040218725800514221
0.36655515432357788 0.042551226913928986 0.042873397469520569
0.42834910750389099 0.045775573700666428 0.047728117555379868
0.031579349189996719 0.15058903396129608 0.13417939841747284
0.048104066401720047 0.15571343898773193 0.12891741096973419
0.11808965355157852 0.17061533033847809 0.11331310123205185
0.23207022249698639 0.18998005986213684 0.09706878662109375
0.34886518120765686 0.19864505529403687 0.0801057368516922
0.43590465188026428 0.18139274418354034 0.066144444048404694
0.48137179017066956 0.14895850419998169 0.054527521133422852
0.49328503012657166 0.11844148486852646 0.049815922975540161
0.49042981863021851 0.093955948948860168 0.048369716852903366
0.47224307060241699 0.073961220681667328 0.047470405697822571
0.43791559338569641 0.055398259311914444 0.046543270349502563
0.42330005764961243 0.044051676988601685 0.046865306794643402
0.45617842674255371 0.050837617367506027 0.049318738281726837
0.054490871727466583 0.21763373911380768 0.12055402249097824
0.069318778812885284 0.22000768780708313 0.11704672873020172
