assets/lut/abigailgonzalez cinema 02.cube
# Created by: G'MIC (https://gmic.eu)
TITLE "cinema_2"
# LUT size
LUT_3D_SIZE 7
# Data domain
DOMAIN_MIN 0.0 0.0 0.0
DOMAIN_MAX 1.0 1.0 1.0
# LUT data points
0.02469908818602562 0.010704593732953072 0.0091777872294187546
0.14185558259487152 0.01431458443403244 0.009532509371638298
0.28872659802436829 0.033988352864980698 0.026652796193957329
0.4655381441116333 0.070928297936916351 0.070481784641742706
0.64409768581390381 0.10229040682315826 0.10092175006866455
0.80843096971511841 0.1302037239074707 0.11335071921348572
0.96220934391021729 0.15946999192237854 0.12148666381835938
0.028093211352825165 0.077148169279098511 0.014574357308447361
0.14406874775886536 0.078744255006313324 0.015515032224357128
0.29331302642822266 0.12043634802103043 0.029835375025868416
0.4713207483291626 0.17757542431354523 0.069395177066326141
0.64725852012634277 0.21038572490215302 0.10001455247402191
0.80939775705337524 0.23822320997714996 0.11559239029884338
0.96078908443450928 0.27332121133804321 0.12113276124000549
0.039973929524421692 0.24312645196914673 0.030054474249482155
0.15043181180953979 0.24071073532104492 0.030525686219334602
0.30436587333679199 0.25721797347068787 0.039369247853755951
0.49219617247581482 0.30388566851615906 0.073653005063533783
0.66164422035217285 0.33335027098655701 0.10408624261617661
0.81609237194061279 0.36923235654830933 0.11573692411184311
0.96291267871856689 0.40797123312950134 0.11746132373809814
0.052459672093391418 0.40398839116096497 0.056682780385017395
0.16041921079158783 0.40929606556892395 0.059537041932344437
0.30854329466819763 0.4458501935005188 0.067761681973934174
0.50481700897216797 0.44663816690444946 0.080466419458389282
0.67201751470565796 0.46357721090316772 0.10168030858039856
0.82155537605285645 0.51007449626922607 0.11130180954933167
0.96445941925048828 0.55081695318222046 0.11416541039943695
0.063719458878040314 0.57890719175338745 0.080957703292369843
0.1742451936006546 0.58063364028930664 0.08686172217130661
0.31670254468917847 0.61410939693450928 0.09108009934425354
0.50945258140563965 0.63572317361831665 0.096816450357437134
0.67970645427703857 0.61515301465988159 0.099030390381813049
0.82095950841903687 0.64614444971084595 0.10613958537578583
0.95992004871368408 0.68780869245529175 0.11197669804096222
0.076427891850471497 0.76912039518356323 0.095755286514759064
0.19723066687583923 0.77213025093078613 0.10034942626953125
0.34693118929862976 0.78651219606399536 0.10640308260917664
0.53433012962341309 0.81060171127319336 0.11724381148815155
0.69964373111724854 0.79992008209228516 0.11936624348163605
0.83276540040969849 0.79308986663818359 0.11560263484716415
0.95773744583129883 0.82263648509979248 0.11835393309593201
0.092537865042686462 0.96215546131134033 0.11790952831506729
0.22705806791782379 0.96814334392547607 0.11898750066757202
0.3909282386302948 0.97327017784118652 0.12300527095794678
0.57269847393035889 0.97974038124084473 0.13343565165996552
0.73522251844406128 0.97590023279190063 0.14066597819328308
0.86687463521957397 0.96705639362335205 0.13971257209777832
0.96731215715408325 0.96863281726837158 0.1364736407995224
0.026547180488705635 0.024842161685228348 0.067932650446891785
0.13523074984550476 0.015802167356014252 0.062655352056026459
0.27415335178375244 0.036637160927057266 0.091187946498394012
0.45277851819992065 0.074760392308235168 0.1627299040555954
0.64116126298904419 0.10855410993099213 0.20587712526321411
0.81392431259155273 0.13671272993087769 0.22196884453296661
0.96897274255752563 0.1662600189447403 0.23854191601276398
0.026602607220411301 0.10784714668989182 0.069803334772586823
0.13833998143672943 0.082393422722816467 0.062960155308246613
0.28423461318016052 0.11871755123138428 0.097747460007667542
0.46226200461387634 0.18363580107688904 0.16823743283748627
0.64653992652893066 0.21425586938858032 0.20914769172668457
0.81295502185821533 0.23855224251747131 0.22145853936672211
0.96348279714584351 0.27064952254295349 0.22979347407817841
0.035768456757068634 0.26263868808746338 0.10063867270946503
0.14303998649120331 0.24566221237182617 0.10019713640213013
0.29163259267807007 0.25248423218727112 0.1153738871216774
0.47756585478782654 0.3048795759677887 0.17095218598842621
0.65280932188034058 0.33290395140647888 0.20877163112163544
0.81524801254272461 0.36889597773551941 0.21790425479412079
0.9641832709312439 0.40424913167953491 0.21981801092624664
0.049838989973068237 0.43246674537658691 0.16383738815784454
0.15274500846862793 0.41888701915740967 0.15748803317546844
0.29490673542022705 0.43508762121200562 0.16115964949131012
0.49317094683647156 0.44133928418159485 0.17890496551990509
0.66482526063919067 0.46348053216934204 0.20295186340808868
0.82036340236663818 0.51089233160018921 0.21347901225090027
0.96708166599273682 0.554268479347229 0.2193678617477417
0.061222586780786514 0.59990280866622925 0.19924873113632202
0.16993412375450134 0.58579003810882568 0.19623631238937378
0.31229126453399658 0.60433745384216309 0.19680638611316681
0.4985504150390625 0.63020354509353638 0.2014775276184082
0.67267102003097534 0.61762779951095581 0.20812611281871796
0.82002776861190796 0.64102184772491455 0.21311163902282715
0.96298515796661377 0.69026106595993042 0.21659614145755768
0.070110633969306946 0.77600985765457153 0.21579720079898834
0.18690316379070282 0.77407211065292358 0.21063308417797089
0.3377763032913208 0.78442692756652832 0.20659524202346802
0.51871246099472046 0.80751538276672363 0.21876472234725952
0.68807059526443481 0.80808472633361816 0.22877436876296997
0.82911378145217896 0.80233079195022583 0.22219240665435791
0.96038162708282471 0.82606500387191772 0.21701808273792267
0.078462325036525726 0.96376746892929077 0.25253146886825562
0.20453907549381256 0.96974200010299683 0.2395181804895401
0.36845025420188904 0.97439038753509521 0.22868911921977997
0.55203133821487427 0.98051971197128296 0.23843197524547577
0.72372949123382568 0.98061257600784302 0.24985121190547943
0.85925781726837158 0.96882551908493042 0.24270175397396088
0.97052901983261108 0.96500903367996216 0.23211152851581573
0.038137577474117279 0.059768076986074448 0.2324998676776886
0.13761910796165466 0.043773621320724487 0.21814192831516266
0.25924932956695557 0.04334399476647377 0.21591922640800476
0.41964679956436157 0.07878565788269043 0.2655261754989624
0.61229628324508667 0.11819209903478622 0.30891069769859314
0.80560684204101562 0.1463501900434494 0.3277401328086853
0.96932947635650635 0.1780848503112793 0.35987189412117004
0.032618444412946701 0.16423355042934418 0.22973601520061493
0.13117773830890656 0.14649383723735809 0.22597181797027588
0.26228764653205872 0.13719978928565979 0.22309786081314087
0.42954516410827637 0.18481525778770447 0.27174669504165649
0.62295854091644287 0.22690212726593018 0.31183111667633057
0.80460071563720703 0.24754589796066284 0.32518255710601807
0.96207106113433838 0.27202016115188599 0.34259742498397827
0.032015062868595123 0.30200710892677307 0.24141222238540649
0.12772086262702942 0.2806856632232666 0.23514750599861145
0.2641238272190094 0.27351716160774231 0.24630106985569
0.44926241040229797 0.30280688405036926 0.28407114744186401
0.63727247714996338 0.33804133534431458 0.31855154037475586
0.80766868591308594 0.36274832487106323 0.32410457730293274
0.96451079845428467 0.39218375086784363 0.33140447735786438
0.039393078535795212 0.47435405850410461 0.30190446972846985
0.13338270783424377 0.45384514331817627 0.29174652695655823
0.26737281680107117 0.44514626264572144 0.29150572419166565
0.4694458544254303 0.44649150967597961 0.3006298840045929
0.65555596351623535 0.47080275416374207 0.31413477659225464
0.81501638889312744 0.51152157783508301 0.3139820396900177
0.96754723787307739 0.54835516214370728 0.31803396344184875
0.049208082258701324 0.64186930656433105 0.34983688592910767
0.14940206706523895 0.62268310785293579 0.33616369962692261
0.28786507248878479 0.61242473125457764 0.32535514235496521
0.472116619348526 0.61988896131515503 0.31616514921188354
0.65961521863937378 0.61921685934066772 0.31168818473815918
0.81926214694976807 0.64533042907714844 0.31019800901412964
0.96301925182342529 0.68755388259887695 0.30908635258674622
0.054730836302042007 0.79987281560897827 0.37500166893005371
0.15754561126232147 0.7906913161277771 0.35509338974952698
0.30993741750717163 0.78475922346115112 0.32905027270317078
0.49416863918304443 0.79657316207885742 0.32983672618865967
0.67408448457717896 0.79858821630477905 0.33841529488563538
0.8271031379699707 0.79885387420654297 0.32768866419792175
0.96077257394790649 0.82164424657821655 0.31506609916687012
0.055912647396326065 0.96742343902587891 0.41901388764381409
0.15845553576946259 0.96764153242111206 0.3941224217414856
0.31640434265136719 0.9699816107749939 0.36081874370574951
0.52026855945587158 0.97590869665145874 0.35170653462409973
0.71045547723770142 0.97570580244064331 0.36215600371360779
0.85384410619735718 0.96854788064956665 0.35991126298904419
0.97204911708831787 0.96534675359725952 0.34427341818809509
0.045952096581459045 0.13907112181186676 0.437276691198349
0.14390145242214203 0.114449143409729 0.41937711834907532
0.24650584161281586 0.095824763178825378 0.39376533031463623
0.38000786304473877 0.10386066883802414 0.38936665654182434
0.56918156147003174 0.12710218131542206 0.40431869029998779
0.78404039144515991 0.16234643757343292 0.45338648557662964
0.97144162654876709 0.20301797986030579 0.53268754482269287
0.038318827748298645 0.25269299745559692 0.4370734691619873
0.13801471889019012 0.23648621141910553 0.43239235877990723
0.24233178794384003 0.21065495908260345 0.410919189453125
0.38055473566055298 0.20505256950855255 0.38693752884864807
0.58023154735565186 0.23310993611812592 0.40503805875778198
0.79316180944442749 0.27164176106452942 0.45896703004837036
0.97410452365875244 0.30960264801979065 0.52655118703842163
0.033203814178705215 0.3642846941947937 0.42741701006889343
0.1217222660779953 0.35455209016799927 0.42641216516494751
0.23359628021717072 0.34578791260719299 0.43633186817169189
0.39943698048591614 0.32323947548866272 0.41408231854438782
0.60627192258834839 0.35382956266403198 0.4356447160243988
0.80434501171112061 0.38263139128684998 0.46908774971961975
0.97611868381500244 0.41236302256584167 0.51223421096801758
0.030787508934736252 0.48457244038581848 0.43916872143745422
0.11023367941379547 0.47412437200546265 0.43609923124313354
0.22164329886436462 0.48006412386894226 0.45209464430809021
0.4182758629322052 0.47691214084625244 0.46239790320396423
0.64001470804214478 0.49022728204727173 0.46937805414199829
0.81551849842071533 0.50715917348861694 0.46759799122810364
0.97241735458374023 0.53223496675491333 0.47523918747901917
0.033930204808712006 0.65944617986679077 0.50186634063720703
0.11549147218465805 0.6548352837562561 0.49582824110984802
0.22407817840576172 0.64436817169189453 0.48674854636192322
0.41117161512374878 0.63737905025482178 0.47016251087188721
0.64683276414871216 0.63081032037734985 0.45979547500610352
0.82367938756942749 0.65968149900436401 0.4570196270942688
0.96696704626083374 0.68503731489181519 0.43663278222084045
0.03545195609331131 0.82184499502182007 0.5510057806968689
0.1111663356423378 0.81578820943832397 0.53363996744155884
0.23066532611846924 0.80337554216384888 0.50835824012756348
0.43624818325042725 0.80178451538085938 0.47559633851051331
0.6586376428604126 0.80609488487243652 0.46881353855133057
0.82944345474243164 0.80748206377029419 0.45281189680099487
0.96423959732055664 0.82316428422927856 0.42871779203414917
0.033858653157949448 0.97202014923095703 0.60276973247528076
0.1029115691781044 0.969585120677948 0.58043861389160156
0.23327548801898956 0.96704107522964478 0.54353964328765869
0.46744188666343689 0.97620934247970581 0.48832127451896667
0.68762493133544922 0.98072719573974609 0.47537937760353088
0.84559375047683716 0.98048669099807739 0.48362529277801514
0.97427183389663696 0.97157257795333862 0.46817991137504578
0.04627087339758873 0.21654514968395233 0.61995118856430054
0.14441567659378052 0.18721325695514679 0.60276603698730469
0.24511931836605072 0.16505980491638184 0.57765370607376099
0.36086761951446533 0.1530214250087738 0.54345178604125977
0.53811359405517578 0.15291053056716919 0.52591651678085327
0.77104538679122925 0.17626944184303284 0.57487136125564575
0.97358834743499756 0.21281187236309052 0.6724819540977478
0.040888123214244843 0.3266700804233551 0.61763477325439453
0.14001700282096863 0.31200015544891357 0.61650913953781128
0.24248018860816956 0.28699824213981628 0.59646803140640259
0.36043235659599304 0.2640385627746582 0.5562978982925415
0.54730594158172607 0.26146030426025391 0.53710150718688965
0.77905380725860596 0.28866991400718689 0.59123778343200684
0.97831809520721436 0.32689023017883301 0.6855781078338623
0.03574821725487709 0.43863031268119812 0.61587047576904297
0.12394949048757553 0.42823505401611328 0.61874246597290039
0.22539234161376953 0.41267865896224976 0.61780178546905518
0.36172688007354736 0.38402605056762695 0.58560770750045776
0.56868439912796021 0.37485453486442566 0.56970566511154175
0.79245597124099731 0.39931082725524902 0.61412352323532104
0.98053169250488281 0.43564513325691223 0.68867594003677368
0.027736634016036987 0.53832292556762695 0.60978454351425171
0.1056564599275589 0.53454864025115967 0.61340165138244629
0.20033761858940125 0.52936607599258423 0.62286847829818726
0.35319104790687561 0.52659052610397339 0.62936365604400635
0.59546440839767456 0.51474690437316895 0.61524307727813721
0.80680984258651733 0.53172504901885986 0.62993758916854858
0.97543764114379883 0.55183744430541992 0.66455131769180298
0.023989224806427956 0.65933430194854736 0.62701386213302612
0.090386606752872467 0.65552502870559692 0.62954610586166382
0.17782267928123474 0.65722501277923584 0.63359010219573975
0.34547024965286255 0.65731710195541382 0.64081382751464844
0.6166224479675293 0.66961550712585449 0.62307757139205933
0.82676112651824951 0.69346541166305542 0.62044602632522583
0.97606140375137329 0.7019808292388916 0.62085229158401489
0.022432753816246986 0.81001800298690796 0.67637926340103149
0.078813575208187103 0.81326323747634888 0.67664533853530884
0.16454705595970154 0.80837535858154297 0.67199110984802246
0.33548462390899658 0.81034564971923828 0.65922993421554565
0.61580449342727661 0.82247787714004517 0.61866551637649536
0.83360379934310913 0.8308214545249939 0.5886845588684082
0.97445160150527954 0.83716756105422974 0.56978541612625122
0.020202562212944031 0.96486127376556396 0.74849557876586914
0.073576457798480988 0.97099441289901733 0.73804926872253418
0.17016954720020294 0.96846604347229004 0.72376424074172974
0.34114688634872437 0.97494965791702271 0.68935275077819824
0.61990034580230713 0.97725981473922729 0.61788111925125122
0.83828073740005493 0.97871303558349609 0.59359657764434814
0.98201912641525269 0.97795987129211426 0.58532863855361938
0.047407291829586029 0.27351933717727661 0.79298520088195801
0.14659589529037476 0.24775494635105133 0.78108519315719604
0.25700816512107849 0.22746889293193817 0.76712900400161743
0.36794883012771606 0.21762378513813019 0.74976831674575806
0.52782613039016724 0.21662247180938721 0.73990237712860107
0.76839441061019897 0.21345034241676331 0.75251990556716919
0.97297662496566772 0.22023738920688629 0.80227923393249512
0.037912975996732712 0.39196252822875977 0.79247444868087769
0.13071614503860474 0.37317565083503723 0.78979277610778809
0.24464832246303558 0.35010933876037598 0.78091728687286377
0.36331549286842346 0.33155637979507446 0.76583057641983032
0.5260460376739502 0.32387220859527588 0.75427550077438354
0.76671499013900757 0.31521162390708923 0.7612336277961731
0.97503739595413208 0.32777619361877441 0.81266337633132935
0.028614163398742676 0.50171667337417603 0.79027259349822998
0.11399900913238525 0.48699870705604553 0.79182583093643188
0.21894606947898865 0.46684378385543823 0.7902522087097168
0.34216859936714172 0.44697111845016479 0.78222441673278809
0.53168445825576782 0.43163454532623291 0.77256077527999878
0.77973538637161255 0.42485818266868591 0.78031492233276367
0.97735345363616943 0.44085422158241272 0.8235664963722229
0.021048123016953468 0.60270655155181885 0.78412801027297974
0.096905216574668884 0.59815329313278198 0.79163438081741333
0.19270004332065582 0.58602839708328247 0.79383844137191772
0.31822076439857483 0.57156449556350708 0.79556876420974731
0.53897297382354736 0.55717277526855469 0.79254180192947388
0.78925049304962158 0.54732763767242432 0.7887272834777832
0.97543507814407349 0.56415653228759766 0.82125526666641235
0.01712004654109478 0.69857734441757202 0.77623611688613892
0.080493271350860596 0.69414275884628296 0.78354012966156006
0.16795042157173157 0.69416254758834839 0.78614562749862671
0.29034283757209778 0.69189059734344482 0.79577159881591797
0.54142934083938599 0.69334167242050171 0.7998279333114624
0.81160551309585571 0.70209294557571411 0.79243403673171997
0.97786039113998413 0.70866268873214722 0.80853253602981567
0.015301693230867386 0.81643879413604736 0.79856014251708984
0.06423497200012207 0.81638878583908081 0.80441898107528687
0.14568942785263062 0.81496572494506836 0.80138802528381348
0.27189326286315918 0.81891065835952759 0.8103872537612915
0.52632373571395874 0.82750767469406128 0.80030018091201782
0.81232249736785889 0.84492141008377075 0.77760225534439087
0.97988903522491455 0.85144126415252686 0.77101099491119385
0.011914960108697414 0.95437955856323242 0.85887736082077026
0.051797140389680862 0.96043998003005981 0.85365009307861328
0.12064184993505478 0.96088171005249023 0.85297894477844238
0.24424433708190918 0.96659380197525024 0.85430753231048584
0.49144330620765686 0.96855056285858154 0.81909871101379395
0.80233943462371826 0.97715133428573608 0.76876217126846313
0.98332333564758301 0.98428791761398315 0.75735163688659668
0.051896307617425919 0.32307830452919006 0.96736931800842285
0.1555052250623703 0.30232101678848267 0.96404945850372314
0.27313819527626038 0.28258606791496277 0.96232527494430542
0.37857204675674438 0.27642065286636353 0.96276694536209106
0.52429217100143433 0.27779865264892578 0.96574407815933228
0.78941172361373901 0.2673230767250061 0.9674714207649231
0.97561931610107422 0.24487967789173126 0.96801149845123291
0.035751134157180786 0.44504415988922119 0.96537888050079346
0.12568773329257965 0.42409032583236694 0.96399712562561035
0.24287271499633789 0.4040171205997467 0.96674036979675293
0.37042978405952454 0.38714021444320679 0.96768438816070557
0.53295731544494629 0.38050568103790283 0.96754533052444458
0.78284507989883423 0.36679932475090027 0.96462339162826538
0.97999411821365356 0.34986722469329834 0.97097635269165039
0.021452691406011581 0.55490446090698242 0.96145462989807129
0.10281869024038315 0.53219789266586304 0.95915842056274414
0.20839688181877136 0.51151841878890991 0.96323126554489136
0.33792909979820251 0.49384790658950806 0.96697992086410522
0.53642857074737549 0.48292067646980286 0.96676146984100342
0.80211621522903442 0.47694307565689087 0.96916908025741577
0.9806177020072937 0.45578554272651672 0.97138291597366333
0.013329479843378067 0.66430163383483887 0.96054446697235107
0.087950840592384338 0.65759557485580444 0.96841233968734741
0.18328511714935303 0.63623344898223877 0.9687919020652771
0.30306550860404968 0.60664176940917969 0.96789360046386719
0.51700234413146973 0.59672248363494873 0.97106468677520752
0.79519534111022949 0.59366452693939209 0.97187614440917969
0.98205667734146118 0.57643973827362061 0.9744078516960144
0.010527217760682106 0.76683050394058228 0.95766192674636841
0.075425468385219574 0.76138359308242798 0.96402376890182495
0.16214422881603241 0.75211894512176514 0.96802639961242676
0.2611333429813385 0.72614866495132446 0.96700918674468994
0.45495137572288513 0.70858526229858398 0.96624195575714111
0.79196417331695557 0.71551233530044556 0.9737059473991394
0.98461037874221802 0.712380051612854 0.97941970825195312
0.0097512789070606232 0.86125630140304565 0.95561760663986206
0.057211559265851974 0.85431301593780518 0.95601040124893188
0.13395914435386658 0.8573683500289917 0.96069097518920898
0.24304796755313873 0.85144686698913574 0.96746319532394409
0.44815319776535034 0.84013867378234863 0.96385115385055542
0.77693533897399902 0.85207921266555786 0.97237294912338257
0.98138213157653809 0.8550986647605896 0.97561144828796387
0.0099006500095129013 0.95370787382125854 0.9592699408531189
0.038684964179992676 0.95086640119552612 0.96166753768920898
0.10531801730394363 0.96429955959320068 0.97233080863952637
0.21987980604171753 0.97106099128723145 0.9815247654914856
0.43100276589393616 0.96730643510818481 0.97556275129318237
0.76639795303344727 0.97232025861740112 0.97174304723739624
0.97497731447219849 0.98061978816986084 0.96618926525115967
