assets/lut/abigailgonzalez day 4nite.cube
# Created by: G'MIC (https://gmic.eu)
TITLE "day_4nite"
# LUT size
LUT_3D_SIZE 7
# Data domain
DOMAIN_MIN 0.0 0.0 0.0
DOMAIN_MAX 1.0 1.0 1.0
# LUT data points
0.005510382354259491 0.01483306847512722 0.04631640762090683
0.058849796652793884 0.020466778427362442 0.038892634212970734
0.154592365026474 0.031071381643414497 0.032840024679899216
0.2636876106262207 0.038786616176366806 0.033004101365804672
0.38050505518913269 0.048883579671382904 0.031485792249441147
0.4796486496925354 0.055499747395515442 0.028617724776268005
0.53766483068466187 0.059764713048934937 0.02690601721405983
0.02687632292509079 0.11120179295539856 0.043403342366218567
0.078398279845714569 0.11758924275636673 0.039409052580595016
0.16541573405265808 0.13146811723709106 0.035678129643201828
0.27667716145515442 0.14421015977859497 0.034520901739597321
0.40710309147834778 0.14879167079925537 0.034008219838142395
0.51612645387649536 0.15049175918102264 0.027387432754039764
0.57512366771697998 0.14691923558712006 0.027176905423402786
0.073798239231109619 0.24071742594242096 0.057353541254997253
0.11974760890007019 0.26004213094711304 0.061059705913066864
0.1997520923614502 0.26945391297340393 0.064256079494953156
0.31029951572418213 0.27029696106910706 0.057863872498273849
0.44882011413574219 0.27409058809280396 0.054434504359960556
0.5692744255065918 0.26259899139404297 0.048678889870643616
0.62976419925689697 0.23962171375751495 0.040366586297750473
0.13989284634590149 0.41599315404891968 0.066834405064582825
0.1697075217962265 0.42000448703765869 0.073861174285411835
0.24215015769004822 0.43557274341583252 0.085720658302307129
0.36267673969268799 0.45215320587158203 0.086852416396141052
0.51066434383392334 0.44781398773193359 0.08580615371465683
0.64029419422149658 0.41808414459228516 0.082526847720146179
0.70513933897018433 0.36001190543174744 0.071352370083332062
0.18452325463294983 0.60570168495178223 0.080024182796478271
0.21911351382732391 0.62301057577133179 0.095861546695232391
0.29969984292984009 0.6523926854133606 0.11892662942409515
0.41684392094612122 0.66860991716384888 0.1039237380027771
0.58916497230529785 0.68310034275054932 0.084689334034919739
0.74223428964614868 0.63112199306488037 0.089869558811187744
0.8063233494758606 0.53605937957763672 0.084856100380420685
0.21867068111896515 0.79776519536972046 0.083497919142246246
0.25602969527244568 0.82386171817779541 0.10141792893409729
0.3356037437915802 0.85132032632827759 0.1156885176897049
0.45017221570014954 0.87646418809890747 0.10629656910896301
0.62121421098709106 0.89518916606903076 0.084585629403591156
0.85497504472732544 0.90396332740783691 0.059794094413518906
0.92583829164505005 0.74010097980499268 0.060882434248924255
0.25561100244522095 0.91750103235244751 0.081131383776664734
0.28276383876800537 0.93144685029983521 0.092521294951438904
0.34395936131477356 0.96848803758621216 0.097863413393497467
0.44799590110778809 0.99661457538604736 0.0920591801404953
0.58497446775436401 0.99563819169998169 0.078709274530410767
0.7575644850730896 0.99738001823425293 0.062474779784679413
0.98450452089309692 0.98549759387969971 0.04377315565943718
0.013262655586004257 0.026213059201836586 0.21075572073459625
0.064313985407352448 0.026906032115221024 0.21015214920043945
0.14617142081260681 0.033901110291481018 0.19363197684288025
0.25042349100112915 0.042936436831951141 0.18269670009613037
0.37300840020179749 0.051427099853754044 0.16553997993469238
0.47040775418281555 0.056557778269052505 0.14355602860450745
0.52429109811782837 0.058816064149141312 0.12402494996786118
0.033451590687036514 0.10858242213726044 0.19970326125621796
0.082045398652553558 0.11479436606168747 0.19514600932598114
0.15986783802509308 0.12012972682714462 0.18827763199806213
0.27204769849777222 0.13881447911262512 0.17902496457099915
0.39473119378089905 0.14780054986476898 0.16676603257656097
0.50691717863082886 0.15304607152938843 0.14731603860855103
0.57394957542419434 0.15645042061805725 0.13868808746337891
0.073862127959728241 0.23252417147159576 0.20799700915813446
0.11523866653442383 0.23713487386703491 0.20115107297897339
0.19420263171195984 0.24994966387748718 0.19159294664859772
0.30335113406181335 0.26048710942268372 0.18433897197246552
0.43935501575469971 0.27058890461921692 0.17606185376644135
0.56175655126571655 0.26709941029548645 0.15874491631984711
0.63093584775924683 0.24819561839103699 0.15437084436416626
0.12458284944295883 0.40497592091560364 0.20047532021999359
0.16161003708839417 0.40755125880241394 0.20273005962371826
0.2454458624124527 0.42632260918617249 0.20515778660774231
0.36091595888137817 0.44283181428909302 0.19757752120494843
0.50143522024154663 0.44058689475059509 0.18743094801902771
0.63137757778167725 0.41566187143325806 0.18090277910232544
0.69615405797958374 0.36153212189674377 0.16443878412246704
0.16912528872489929 0.59724313020706177 0.19915309548377991
0.2159583568572998 0.61490374803543091 0.19757522642612457
0.29794400930404663 0.63474631309509277 0.21538868546485901
0.42113921046257019 0.65046519041061401 0.20905005931854248
0.5752289891242981 0.66159522533416748 0.18351621925830841
0.7222825288772583 0.61610907316207886 0.18058867752552032
0.79239875078201294 0.53110486268997192 0.17686620354652405
0.21386989951133728 0.7898857593536377 0.19422301650047302
0.2598082423210144 0.81737029552459717 0.19830191135406494
0.33763730525970459 0.84366416931152344 0.20500549674034119
0.44886842370033264 0.85537225008010864 0.20519959926605225
0.60658985376358032 0.8757096529006958 0.18560843169689178
0.83339428901672363 0.86861491203308105 0.15573666989803314
0.91121071577072144 0.71733134984970093 0.15821529924869537
0.25002849102020264 0.91645359992980957 0.17529287934303284
0.28455731272697449 0.92988497018814087 0.19090105593204498
0.34928140044212341 0.95654845237731934 0.19519193470478058
0.43685093522071838 0.98974597454071045 0.19078433513641357
0.58158797025680542 0.99516838788986206 0.16872553527355194
0.74730402231216431 0.99790662527084351 0.1536000669002533
0.98298722505569458 0.97011756896972656 0.11344596743583679
0.029495120048522949 0.051292479038238525 0.39159369468688965
0.078505448997020721 0.049516774713993073 0.3862031102180481
0.15596045553684235 0.04954059049487114 0.382537841796875
0.25271487236022949 0.058180894702672958 0.37052881717681885
0.37397801876068115 0.06569073349237442 0.34642285108566284
0.47179877758026123 0.065425530076026917 0.30433216691017151
0.52291417121887207 0.059692487120628357 0.25856426358222961
0.042500916868448257 0.11998129636049271 0.38684168457984924
0.09186108410358429 0.12217219918966293 0.37834882736206055
0.16978906095027924 0.133132204413414 0.37257486581802368
0.27585706114768982 0.14188976585865021 0.35795620083808899
0.39564943313598633 0.14832077920436859 0.3340294361114502
0.50919997692108154 0.15706737339496613 0.30356845259666443
0.57531332969665527 0.16039800643920898 0.26326155662536621
0.081664413213729858 0.23553137481212616 0.38299417495727539
0.127627894282341 0.24252486228942871 0.37754625082015991
0.20227576792240143 0.2529941201210022 0.36540681123733521
0.31357699632644653 0.26781374216079712 0.35703927278518677
0.44333907961845398 0.27872666716575623 0.34370142221450806
0.57255136966705322 0.29145139455795288 0.33429217338562012
0.66098701953887939 0.29417574405670166 0.32689684629440308
0.13124527037143707 0.39617857336997986 0.37140077352523804
0.17071825265884399 0.40541729331016541 0.37265601754188538
0.25153651833534241 0.41834363341331482 0.37018197774887085
0.3651600182056427 0.43772399425506592 0.3623010516166687
0.50543469190597534 0.44358956813812256 0.35238179564476013
0.63786005973815918 0.43646478652954102 0.33911940455436707
0.72601693868637085 0.41077104210853577 0.33269557356834412
0.16845929622650146 0.58640146255493164 0.35252085328102112
0.21805192530155182 0.60525703430175781 0.35627800226211548
0.30825337767601013 0.61763757467269897 0.36472681164741516
0.42629042267799377 0.63266825675964355 0.35751920938491821
0.57872742414474487 0.64621144533157349 0.33836328983306885
0.72589641809463501 0.61615228652954102 0.32940512895584106
0.80733996629714966 0.55048578977584839 0.32355555891990662
0.20417927205562592 0.77953016757965088 0.32275876402854919
0.26167136430740356 0.80384570360183716 0.32619097828865051
0.35647529363632202 0.8218579888343811 0.34440463781356812
0.4660065770149231 0.83626735210418701 0.33862388134002686
0.60514503717422485 0.854583740234375 0.3227841854095459
0.81938689947128296 0.84721463918685913 0.30609032511711121
0.91270917654037476 0.71738618612289429 0.30626621842384338
0.23456145823001862 0.91065424680709839 0.27877688407897949
0.29083821177482605 0.92467737197875977 0.30165433883666992
0.38295799493789673 0.93889325857162476 0.32974570989608765
0.45789483189582825 0.96996724605560303 0.32526838779449463
0.58337372541427612 0.99076825380325317 0.30785420536994934
0.74068135023117065 0.99747395515441895 0.2884831428527832
0.9775964617729187 0.96619331836700439 0.25569042563438416
0.043530542403459549 0.071370862424373627 0.56698822975158691
0.08668249100446701 0.064585849642753601 0.56310975551605225
0.16252255439758301 0.066809199750423431 0.55783039331436157
0.26086658239364624 0.07589016854763031 0.54887491464614868
0.38289400935173035 0.086089111864566803 0.52935206890106201
0.4761430025100708 0.079322949051856995 0.47704145312309265
0.52862417697906494 0.088443949818611145 0.40466210246086121
0.059328131377696991 0.13405010104179382 0.56074738502502441
0.10596964508295059 0.13401336967945099 0.55982697010040283
0.18273270130157471 0.14795564115047455 0.55393308401107788
0.28788548707962036 0.16236810386180878 0.54399019479751587
0.41008320450782776 0.17144720256328583 0.52051657438278198
0.5194588303565979 0.17555291950702667 0.47388103604316711
0.58477652072906494 0.17355047166347504 0.41125196218490601
0.085962064564228058 0.23446410894393921 0.56593567132949829
0.13801440596580505 0.24393713474273682 0.56109493970870972
0.217964768409729 0.26373866200447083 0.55492335557937622
0.32481241226196289 0.27990058064460754 0.54403543472290039
0.45543292164802551 0.29632091522216797 0.52287077903747559
0.58244794607162476 0.30973735451698303 0.49313738942146301
0.67137736082077026 0.31721705198287964 0.45296567678451538
0.14088740944862366 0.39370027184486389 0.5651203989982605
0.18338291347026825 0.4064103364944458 0.56161308288574219
0.26825982332229614 0.42646211385726929 0.55549889802932739
0.37722718715667725 0.44005849957466125 0.54593241214752197
0.51973670721054077 0.45397770404815674 0.52956974506378174
0.6640697717666626 0.47130176424980164 0.50883859395980835
0.77002519369125366 0.48131212592124939 0.48911648988723755
0.17529506981372833 0.5828171968460083 0.53593051433563232
0.22911988198757172 0.60153055191040039 0.53436744213104248
0.32246631383895874 0.61767864227294922 0.5307425856590271
0.43887495994567871 0.62950551509857178 0.52805310487747192
0.58584690093994141 0.64425081014633179 0.51205563545227051
0.74791020154953003 0.63045006990432739 0.49359071254730225
0.8466494083404541 0.60030156373977661 0.48205876350402832
0.19713208079338074 0.76404023170471191 0.48116430640220642
0.26047441363334656 0.7905535101890564 0.47319427132606506
0.37126931548118591 0.81345623731613159 0.48822695016860962
0.49253341555595398 0.83559644222259521 0.49279880523681641
0.622691810131073 0.85025793313980103 0.48022642731666565
0.83152854442596436 0.84500712156295776 0.46091532707214355
0.95003616809844971 0.7408137321472168 0.45801803469657898
0.22888638079166412 0.89857518672943115 0.40666061639785767
0.28895968198776245 0.92159897089004517 0.4134070873260498
0.39588582515716553 0.93751662969589233 0.43724837899208069
0.512908935546875 0.97340285778045654 0.46119949221611023
0.62247878313064575 0.99432843923568726 0.46649396419525146
0.75820338726043701 0.99692344665527344 0.44802007079124451
0.98258310556411743 0.97747182846069336 0.39890024065971375
0.055057168006896973 0.0831565260887146 0.77925938367843628
0.095021806657314301 0.070864610373973846 0.77655619382858276
0.15999646484851837 0.070863626897335052 0.76746970415115356
0.25322476029396057 0.086615525186061859 0.77690809965133667
0.38366064429283142 0.093710817396640778 0.75360506772994995
0.48035004734992981 0.087080933153629303 0.65379887819290161
0.52269268035888672 0.076603442430496216 0.56693536043167114
0.08239339292049408 0.15391293168067932 0.77068245410919189
0.12870761752128601 0.15506584942340851 0.77443748712539673
0.20481970906257629 0.166396364569664 0.79474711418151855
0.2958686351776123 0.17876999080181122 0.76550602912902832
0.41609498858451843 0.18030592799186707 0.7627100944519043
0.52400577068328857 0.1822299063205719 0.65966063737869263
0.58395117521286011 0.17818105220794678 0.56493681669235229
0.10447697341442108 0.23639099299907684 0.78704118728637695
0.15474258363246918 0.24937744438648224 0.79066407680511475
0.2395351380109787 0.27613586187362671 0.7880709171295166
0.33866766095161438 0.29445424675941467 0.77466213703155518
0.46652910113334656 0.30326029658317566 0.77432864904403687
0.59035301208496094 0.31590276956558228 0.67162597179412842
0.67738097906112671 0.32069197297096252 0.58539265394210815
0.1508537232875824 0.38738211989402771 0.83811956644058228
0.19613352417945862 0.39505112171173096 0.79510825872421265
0.28191313147544861 0.420428067445755 0.7776484489440918
0.3906739354133606 0.44514855742454529 0.77181416749954224
0.52910459041595459 0.46092405915260315 0.76191455125808716
0.67394459247589111 0.47864964604377747 0.66446423530578613
0.78578358888626099 0.49444586038589478 0.60389912128448486
0.19027753174304962 0.59140932559967041 0.79154485464096069
0.24536502361297607 0.60231351852416992 0.7787015438079834
0.33467903733253479 0.61640405654907227 0.76658368110656738
0.44962337613105774 0.63279086351394653 0.75154638290405273
0.59848350286483765 0.64864593744277954 0.69972038269042969
0.77408391237258911 0.65484791994094849 0.65297752618789673
0.91361808776855469 0.66348183155059814 0.62515741586685181
0.20174281299114227 0.76796901226043701 0.69966787099838257
0.27159509062767029 0.79126793146133423 0.65737617015838623
0.37707746028900146 0.81530225276947021 0.64224827289581299
0.49847489595413208 0.83990013599395752 0.64208173751831055
0.64240789413452148 0.85332995653152466 0.63940340280532837
0.84922343492507935 0.85689365863800049 0.61701565980911255
0.98818057775497437 0.79834514856338501 0.60238498449325562
0.22383387386798859 0.89346408843994141 0.55663847923278809
0.28683432936668396 0.91922050714492798 0.55114644765853882
0.39606305956840515 0.93529379367828369 0.55607050657272339
0.52204710245132446 0.9785272479057312 0.5741502046585083
0.65351772308349609 0.99573159217834473 0.60954225063323975
0.79661452770233154 0.99757122993469238 0.59708815813064575
0.98754948377609253 0.97751539945602417 0.53293502330780029
0.057354617863893509 0.0835556760430336 0.99847316741943359
0.10053661465644836 0.080563910305500031 0.99767708778381348
0.1656978577375412 0.084588430821895599 0.99605977535247803
0.25045379996299744 0.08926863968372345 0.99724668264389038
0.35508263111114502 0.089406214654445648 0.99240940809249878
0.47392129898071289 0.091428600251674652 0.97677463293075562
0.53160327672958374 0.082252010703086853 0.83176547288894653
0.086242601275444031 0.1546379029750824 0.99652218818664551
0.139786496758461 0.16316971182823181 0.99593156576156616
0.23389892280101776 0.19439229369163513 0.99656069278717041
0.32424822449684143 0.20693245530128479 0.99732714891433716
0.40502837300300598 0.18844693899154663 0.99412304162979126
0.52436590194702148 0.18494205176830292 0.97846227884292603
0.59362775087356567 0.18226449191570282 0.82912534475326538
0.11916349828243256 0.23859250545501709 0.99889451265335083
0.17386503517627716 0.25746062397956848 0.9957001805305481
0.25859507918357849 0.29127612709999084 0.99628281593322754
0.3430773913860321 0.3007240891456604 0.99761253595352173
0.45233815908432007 0.30712196230888367 0.99188423156738281
0.59226292371749878 0.31751531362533569 0.98068714141845703
0.68905657529830933 0.32325088977813721 0.83482903242111206
0.16362762451171875 0.36060300469398499 0.9988587498664856
0.20525963604450226 0.3705083429813385 0.99734634160995483
0.29367244243621826 0.40701600909233093 0.9969322681427002
0.40151745080947876 0.44513615965843201 0.99680286645889282
0.51650428771972656 0.45587465167045593 0.99423325061798096
0.67599236965179443 0.47419124841690063 0.97775453329086304
0.79852801561355591 0.49085652828216553 0.8248487114906311
0.18971242010593414 0.54696309566497803 0.99822705984115601
0.24433836340904236 0.55036836862564087 0.99664032459259033
0.33426889777183533 0.56994479894638062 0.99814873933792114
0.44555529952049255 0.5960390567779541 0.99546200037002563
0.59237289428710938 0.63445532321929932 0.98908096551895142
0.77964389324188232 0.6522706151008606 0.9814566969871521
0.94405192136764526 0.66951298713684082 0.83494716882705688
0.20753885805606842 0.75954675674438477 0.98769271373748779
0.26917856931686401 0.7759472131729126 0.9839668869972229
0.36431124806404114 0.80055028200149536 0.98396426439285278
0.48367056250572205 0.82489335536956787 0.98396092653274536
0.64316534996032715 0.84958231449127197 0.97105532884597778
0.86550909280776978 0.86197125911712646 0.90006744861602783
0.99916332960128784 0.85468590259552002 0.83184361457824707
0.21388499438762665 0.89602267742156982 0.78550964593887329
0.279296875 0.92182344198226929 0.72390925884246826
0.3879513144493103 0.93980085849761963 0.71912717819213867
0.50984805822372437 0.969718337059021 0.73583906888961792
0.65804392099380493 0.99900418519973755 0.7479546070098877
0.85081273317337036 0.99981051683425903 0.78998845815658569
0.99697726964950562 0.99573445320129395 0.67062950134277344
0.054664269089698792 0.083792589604854584 1
0.095115557312965393 0.079336903989315033 1
0.15792225301265717 0.08968806266784668 1
0.22960396111011505 0.098538793623447418 1
0.3072323203086853 0.090334437787532806 1
0.40603789687156677 0.088505640625953674 1
0.51706063747406006 0.10665090382099152 1
0.066820107400417328 0.13669306039810181 1
0.13898050785064697 0.16303461790084839 1
0.22476159036159515 0.19954249262809753 1
0.32781267166137695 0.23060691356658936 1
0.39015600085258484 0.212159663438797 1
0.45914030075073242 0.19018952548503876 1
0.60594439506530762 0.19165846705436707 0.99980396032333374
0.10021530091762543 0.21680709719657898 1
0.17858178913593292 0.25383439660072327 1
0.26188945770263672 0.2975115180015564 1
0.34027913212776184 0.30753323435783386 1
0.40927973389625549 0.29363200068473816 1
0.51328790187835693 0.3061830997467041 1
0.67323988676071167 0.32179763913154602 0.99971294403076172
0.15582276880741119 0.32426390051841736 1
0.20661690831184387 0.33417859673500061 1
0.29243588447570801 0.38270610570907593 1
0.39881071448326111 0.43613341450691223 1
0.4854920506477356 0.44389122724533081 1
0.59957879781723022 0.45557227730751038 0.99998599290847778
0.8077390193939209 0.481263667345047 0.99896597862243652
0.181520015001297 0.45088142156600952 1
0.23185665905475616 0.46032527089118958 1
0.32063525915145874 0.49569433927536011 1
0.43202477693557739 0.54764562845230103 1
0.58364629745483398 0.62567311525344849 1
0.72007948160171509 0.63767939805984497 0.99996268749237061
0.94829654693603516 0.62873917818069458 0.99968260526657104
0.18413209915161133 0.61607974767684937 1
0.25026187300682068 0.62825590372085571 1
0.33934170007705688 0.65307468175888062 1
0.45689770579338074 0.70294314622879028 1
0.62299305200576782 0.77392035722732544 1
0.8260120153427124 0.8187786340713501 1
0.9933617115020752 0.80456489324569702 0.99955987930297852
0.19490648806095123 0.86313080787658691 0.99952787160873413
0.26241287589073181 0.89493405818939209 0.99994611740112305
0.363605797290802 0.92054075002670288 0.99804425239562988
0.47335666418075562 0.9747883677482605 0.9987872838973999
0.60256463289260864 0.98639428615570068 0.99810969829559326
0.79319745302200317 0.9889223575592041 1
0.99997198581695557 1 0.97241425514221191
