assets/lut/abigailgonzalez day 4nite.cube
# Created by: G'MIC (https://gmic.eu)
TITLE "day_4nite"
# LUT size
LUT_3D_SIZE 13
# Data domain
DOMAIN_MIN 0.0 0.0 0.0
DOMAIN_MAX 1.0 1.0 1.0
# LUT data points
0.005510382354259491 0.01483306847512722 0.04631640762090683
0.025073196738958359 0.019424168393015862 0.044335130602121353
0.058849796652793884 0.020466778427362442 0.038892634212970734
0.10654470324516296 0.024614222347736359 0.036390714347362518
0.154592365026474 0.031071381643414497 0.032840024679899216
0.20788730680942535 0.03504427894949913 0.033654425293207169
0.2636876106262207 0.038786616176366806 0.033004101365804672
0.32277840375900269 0.044125784188508987 0.031387746334075928
0.38050505518913269 0.048883579671382904 0.031485792249441147
0.43375095725059509 0.05223376676440239 0.02988903596997261
0.4796486496925354 0.055499747395515442 0.028617724776268005
0.51891672611236572 0.06364256888628006 0.02582937479019165
0.53766483068466187 0.059764713048934937 0.02690601721405983
0.012207614257931709 0.051525790244340897 0.043435100466012955
0.03259894996881485 0.056972503662109375 0.040928993374109268
0.064781993627548218 0.059984497725963593 0.036541793495416641
0.10913076996803284 0.066946573555469513 0.034637242555618286
0.15724357962608337 0.073138169944286346 0.03222159668803215
0.21069000661373138 0.078973598778247833 0.031324408948421478
0.26674702763557434 0.084281072020530701 0.031067149713635445
0.3330218493938446 0.090058781206607819 0.031592246145009995
0.39262816309928894 0.094618521630764008 0.030585195869207382
0.44774368405342102 0.098303355276584625 0.028641749173402786
0.49520424008369446 0.10082611441612244 0.027445819228887558
0.53439390659332275 0.10197588056325912 0.025265427306294441
0.55295038223266602 0.10201791673898697 0.024852139875292778
0.02687632292509079 0.11120179295539856 0.043403342366218567
0.047718331217765808 0.11460529267787933 0.041425503790378571
0.078398279845714569 0.11758924275636673 0.039409052580595016
0.11895683407783508 0.12376601248979568 0.037136390805244446
0.16541573405265808 0.13146811723709106 0.035678129643201828
0.21871152520179749 0.13732729852199554 0.032896649092435837
0.27667716145515442 0.14421015977859497 0.034520901739597321
0.34174039959907532 0.14739035069942474 0.036332074552774429
0.40710309147834778 0.14879167079925537 0.034008219838142395
0.46381208300590515 0.15092863142490387 0.030854498967528343
0.51612645387649536 0.15049175918102264 0.027387432754039764
0.55567312240600586 0.1492641270160675 0.026621006429195404
0.57512366771697998 0.14691923558712006 0.027176905423402786
0.048739712685346603 0.17451976239681244 0.050986077636480331
0.069290459156036377 0.17994828522205353 0.047212008386850357
0.096211269497871399 0.18513339757919312 0.047026000916957855
0.13504664599895477 0.19177432358264923 0.048427671194076538
0.1814645528793335 0.19805791974067688 0.047038476914167404
0.23330923914909363 0.20155538618564606 0.043791152536869049
0.29260456562042236 0.2053934633731842 0.044522468000650406
0.35585063695907593 0.20871217548847198 0.042393404990434647
0.42318779230117798 0.20980477333068848 0.042270541191101074
0.48552191257476807 0.20841294527053833 0.037415582686662674
0.54078406095504761 0.20480100810527802 0.033756524324417114
0.58173984289169312 0.1993744820356369 0.030715687200427055
0.60121101140975952 0.19455060362815857 0.030021756887435913
0.073798239231109619 0.24071742594242096 0.057353541254997253
0.095993027091026306 0.25146108865737915 0.054020676761865616
0.11974760890007019 0.26004213094711304 0.061059705913066864
0.15750943124294281 0.26738694310188293 0.0639151930809021
0.1997520923614502 0.26945391297340393 0.064256079494953156
0.25048881769180298 0.26994934678077698 0.061906132847070694
0.31029951572418213 0.27029696106910706 0.057863872498273849
0.37888577580451965 0.27594208717346191 0.054998300969600677
0.44882011413574219 0.27409058809280396 0.054434504359960556
0.51299291849136353 0.27047854661941528 0.052532929927110672
0.5692744255065918 0.26259899139404297 0.048678889870643616
0.61110246181488037 0.25172579288482666 0.043189719319343567
0.62976419925689697 0.23962171375751495 0.040366586297750473
0.11137975007295609 0.32366013526916504 0.059012185782194138
0.12618087232112885 0.32974499464035034 0.060540530830621719
0.14596892893314362 0.33758136630058289 0.069287031888961792
0.18136100471019745 0.34555616974830627 0.073927231132984161
0.21951925754547119 0.34708762168884277 0.076838113367557526
0.27012693881988525 0.34985312819480896 0.077493049204349518
0.33567726612091064 0.35491213202476501 0.07520776242017746
0.40432524681091309 0.35525619983673096 0.072553865611553192
0.4767724871635437 0.35409155488014221 0.071700736880302429
0.54299890995025635 0.34797614812850952 0.072104267776012421
0.60069406032562256 0.33292633295059204 0.066465385258197784
0.6470024585723877 0.3124052882194519 0.058278102427721024
0.66539758443832397 0.29467019438743591 0.054844710975885391
0.13989284634590149 0.41599315404891968 0.066834405064582825
0.15085351467132568 0.41942232847213745 0.067648462951183319
0.1697075217962265 0.42000448703765869 0.073861174285411835
0.20370496809482574 0.42991152405738831 0.082396805286407471
0.24215015769004822 0.43557274341583252 0.085720658302307129
0.29671037197113037 0.44479873776435852 0.088573411107063293
0.36267673969268799 0.45215320587158203 0.086852416396141052
0.43629366159439087 0.45393013954162598 0.084289401769638062
0.51066434383392334 0.44781398773193359 0.08580615371465683
0.57862740755081177 0.4341474175453186 0.089103668928146362
0.64029419422149658 0.41808414459228516 0.082526847720146179
0.6871572732925415 0.38987791538238525 0.073502227663993835
0.70513933897018433 0.36001190543174744 0.071352370083332062
0.16591814160346985 0.51119375228881836 0.072928845882415771
0.17563861608505249 0.51653671264648438 0.072690136730670929
0.19711300730705261 0.52227866649627686 0.086834803223609924
0.22766499221324921 0.53531461954116821 0.097799114882946014
0.27282822132110596 0.54293668270111084 0.10227949917316437
0.32531821727752686 0.55322098731994629 0.10065858066082001
0.39164194464683533 0.56330853700637817 0.09480767697095871
0.47100925445556641 0.5713798999786377 0.089957110583782196
0.55290740728378296 0.56446188688278198 0.089836552739143372
0.62176549434661865 0.54130262136459351 0.093510538339614868
0.68848234415054321 0.51920562982559204 0.094062745571136475
0.73763692378997803 0.48432978987693787 0.085311204195022583
0.75523227453231812 0.44540643692016602 0.079991161823272705
0.18452325463294983 0.60570168495178223 0.080024182796478271
0.1940535306930542 0.61120772361755371 0.081096529960632324
0.21911351382732391 0.62301057577133179 0.095861546695232391
0.25115436315536499 0.64002984762191772 0.10792914032936096
0.29969984292984009 0.6523926854133606 0.11892662942409515
0.35178858041763306 0.66115909814834595 0.12029352784156799
0.41684392094612122 0.66860991716384888 0.1039237380027771
0.50024664402008057 0.67943406105041504 0.092264361679553986
0.58916497230529785 0.68310034275054932 0.084689334034919739
0.66922467947006226 0.6632809042930603 0.088515140116214752
0.74223428964614868 0.63112199306488037 0.089869558811187744
0.79490596055984497 0.58896553516387939 0.085884720087051392
0.8063233494758606 0.53605937957763672 0.084856100380420685
0.20147185027599335 0.70339596271514893 0.084542110562324524
0.21183408796787262 0.71136504411697388 0.085523210465908051
0.23823589086532593 0.72313433885574341 0.10076246410608292
0.2740514874458313 0.73950779438018799 0.11470124125480652
0.32096043229103088 0.75515604019165039 0.12357611209154129
0.37385696172714233 0.76370918750762939 0.12091800570487976
0.43723830580711365 0.77524292469024658 0.10740859061479568
0.51781469583511353 0.78574472665786743 0.094631612300872803
0.61153131723403931 0.79525887966156006 0.083776764571666718
0.71045631170272827 0.79406434297561646 0.078843511641025543
0.80244565010070801 0.76365381479263306 0.073137618601322174
0.85715019702911377 0.70073240995407104 0.071508519351482391
0.86546564102172852 0.63320523500442505 0.076149746775627136
0.21867068111896515 0.79776519536972046 0.083497919142246246
0.23193500936031342 0.80919116735458374 0.091313444077968597
0.25602969527244568 0.82386171817779541 0.10141792893409729
0.29154032468795776 0.83676630258560181 0.11096172034740448
0.3356037437915802 0.85132032632827759 0.1156885176897049
0.38678628206253052 0.8655124306678772 0.11477871984243393
0.45017221570014954 0.87646418809890747 0.10629656910896301
0.53019982576370239 0.88744145631790161 0.09594910591840744
0.62121421098709106 0.89518916606903076 0.084585629403591156
0.73274034261703491 0.91233867406845093 0.07123304158449173
0.85497504472732544 0.90396332740783691 0.059794094413518906
0.92219716310501099 0.83238440752029419 0.058763854205608368
0.92583829164505005 0.74010097980499268 0.060882434248924255
0.24109110236167908 0.88054883480072021 0.083645299077033997
0.25483196973800659 0.88747841119766235 0.091897286474704742
0.27451330423355103 0.89882868528366089 0.094855964183807373
0.30559027194976807 0.90943384170532227 0.10210739076137543
0.34225398302078247 0.92597818374633789 0.10598181933164597
0.38863041996955872 0.94789391756057739 0.10318165272474289
0.45016968250274658 0.96119552850723267 0.096710935235023499
0.52670091390609741 0.9645952582359314 0.089279830455780029
0.60653883218765259 0.96176552772521973 0.082794040441513062
0.70671367645263672 0.97392356395721436 0.072407953441143036
0.83057063817977905 0.98184078931808472 0.058989178389310837
0.95086288452148438 0.95799458026885986 0.047519803047180176
0.97747886180877686 0.87219655513763428 0.047922380268573761
0.25561100244522095 0.91750103235244751 0.081131383776664734
0.26573115587234497 0.92153143882751465 0.090037263929843903
0.28276383876800537 0.93144685029983521 0.092521294951438904
0.31111231446266174 0.94390559196472168 0.097668036818504333
0.34395936131477356 0.96848803758621216 0.097863413393497467
0.3848385214805603 0.99111306667327881 0.094503499567508698
0.44799590110778809 0.99661457538604736 0.0920591801404953
0.51916199922561646 0.997050940990448 0.08611559122800827
0.58497446775436401 0.99563819169998169 0.078709274530410767
0.66460716724395752 0.99640083312988281 0.072938300669193268
0.7575644850730896 0.99738001823425293 0.062474779784679413
0.87972760200500488 0.99693173170089722 0.050748653709888458
0.98450452089309692 0.98549759387969971 0.04377315565943718
0.010409919545054436 0.021143101155757904 0.1251474916934967
0.029923787340521812 0.022300928831100464 0.12157346308231354
0.058868333697319031 0.020812943577766418 0.11533469706773758
0.10014116019010544 0.024922464042901993 0.10867403447628021
0.14671733975410461 0.02921823225915432 0.1019289642572403
0.19849498569965363 0.033620152622461319 0.10053151100873947
0.25248649716377258 0.038650855422019958 0.097351536154747009
0.31304982304573059 0.045340236276388168 0.093082144856452942
0.37556001543998718 0.053295210003852844 0.088987283408641815
0.42833203077316284 0.059410635381937027 0.081939324736595154
0.47260454297065735 0.059353623539209366 0.079315811395645142
0.51347893476486206 0.067178256809711456 0.070652604103088379
0.53157716989517212 0.065615877509117126 0.068477943539619446
0.019312361255288124 0.060472242534160614 0.11956284195184708
0.036723505705595016 0.058899015188217163 0.11331258714199066
0.064097508788108826 0.057840161025524139 0.10893916338682175
0.10591587424278259 0.063537076115608215 0.10458745062351227
0.15119832754135132 0.069233864545822144 0.099583707749843597
0.20542271435260773 0.077398903667926788 0.096988648176193237
0.26023274660110474 0.083432592451572418 0.093860536813735962
0.32391524314880371 0.091243863105773926 0.09403730183839798
0.38510298728942871 0.096073076128959656 0.089797884225845337
0.44024059176445007 0.098646290600299835 0.082534492015838623
0.48708993196487427 0.10191940516233444 0.078566111624240875
0.52760940790176392 0.10440623015165329 0.072168298065662384
0.54755169153213501 0.10420569777488708 0.071051083505153656
0.029307227581739426 0.10982437431812286 0.11718335747718811
0.050252113491296768 0.11165458709001541 0.11322277039289474
0.078658036887645721 0.11427561193704605 0.10955651849508286
0.11714957654476166 0.117417111992836 0.10636024922132492
0.16089712083339691 0.12267886847257614 0.10096046328544617
0.21604591608047485 0.13311302661895752 0.097861945629119873
0.27356663346290588 0.13961665332317352 0.096995726227760315
0.3350987434387207 0.14399106800556183 0.096457585692405701
0.39945948123931885 0.14846675097942352 0.090574510395526886
0.4562685489654541 0.15062354505062103 0.083363808691501617
0.50797384977340698 0.14919106662273407 0.076339602470397949
0.54738521575927734 0.15021789073944092 0.076360799372196198
0.56977367401123047 0.14794048666954041 0.07575727254152298
0.049256913363933563 0.16990287601947784 0.12414034456014633
0.068494804203510284 0.17001029849052429 0.11895156651735306
0.096446067094802856 0.17781159281730652 0.1176515594124794
0.13351148366928101 0.18384158611297607 0.11488787829875946
0.17849306762218475 0.18960376083850861 0.1089792475104332
0.23193548619747162 0.19502638280391693 0.10695354640483856
0.2896786630153656 0.19937212765216827 0.10427659004926682
0.35109910368919373 0.20260508358478546 0.098552703857421875
0.41801142692565918 0.2031743973493576 0.091381147503852844
0.47841641306877136 0.20580001175403595 0.087899453938007355
0.53378081321716309 0.20501093566417694 0.084672443568706512
0.57177376747131348 0.19892193377017975 0.080623582005500793
0.59289717674255371 0.18953374028205872 0.076009355485439301
0.07355932891368866 0.23839206993579865 0.12663367390632629
0.092650257050991058 0.2423701137304306 0.12233156710863113
0.11402595043182373 0.24322381615638733 0.12247634679079056
0.15114328265190125 0.25187751650810242 0.12190382927656174
0.19566899538040161 0.2583453357219696 0.12185808271169662
0.24887609481811523 0.2636106014251709 0.12224803119897842
0.30723434686660767 0.26349812746047974 0.11415484547615051
0.37278765439987183 0.26770725846290588 0.10663873702287674
0.44265323877334595 0.26806804537773132 0.10212086886167526
0.50527477264404297 0.26891875267028809 0.10122139006853104
0.56223887205123901 0.2633056640625 0.098220512270927429
0.60428828001022339 0.2519838809967041 0.089531168341636658
0.62450104951858521 0.23723497986793518 0.083908244967460632
0.098649106919765472 0.31327363848686218 0.12576739490032196
0.1171753853559494 0.32081699371337891 0.12507063150405884
0.13690918684005737 0.32251322269439697 0.12665708363056183
0.17339342832565308 0.33143401145935059 0.12738817930221558
0.21776992082595825 0.33889362215995789 0.13004809617996216
0.27145788073539734 0.34655144810676575 0.13251641392707825
0.33340743184089661 0.34949854016304016 0.12640899419784546
0.39943823218345642 0.34906789660453796 0.12008671462535858
0.4715668261051178 0.34606826305389404 0.11545167863368988
0.5353543758392334 0.34256243705749512 0.11826954036951065
0.59403014183044434 0.33214598894119263 0.11410415917634964
0.63809800148010254 0.31351161003112793 0.10192838311195374
0.65863454341888428 0.29331371188163757 0.095998473465442657
0.12727518379688263 0.40814712643623352 0.12789374589920044
0.1420549601316452 0.41042634844779968 0.12730157375335693
0.15997464954853058 0.40747421979904175 0.13067030906677246
0.19866073131561279 0.42235651612281799 0.13654977083206177
0.24605274200439453 0.43458747863769531 0.140473872423172
0.30139604210853577 0.44395625591278076 0.14032073318958282
0.36502179503440857 0.45005488395690918 0.13597477972507477
0.43595096468925476 0.4546063244342804 0.12946243584156036
0.50572258234024048 0.45026752352714539 0.12682183086872101
0.57304948568344116 0.43636980652809143 0.12908485531806946
0.6333426833152771 0.41866767406463623 0.12386132031679153
0.67770695686340332 0.38849487900733948 0.11412996798753738
0.69897043704986572 0.36140123009681702 0.11225162446498871
0.15549743175506592 0.50531554222106934 0.13106988370418549
0.16907654702663422 0.5091482400894165 0.12850318849086761
0.19042052328586578 0.51298797130584717 0.13695992529392242
0.22505052387714386 0.52630513906478882 0.14654865860939026
0.27363604307174683 0.53669607639312744 0.15114195644855499
0.32859131693840027 0.54629313945770264 0.15066586434841156
0.39455041289329529 0.55564373731613159 0.14273819327354431
0.47244814038276672 0.56590843200683594 0.13333995640277863
0.54666447639465332 0.55981993675231934 0.12727594375610352
0.61471295356750488 0.53964114189147949 0.12771721184253693
0.67965197563171387 0.51435667276382446 0.12822213768959045
0.72647994756698608 0.47859424352645874 0.12272504717111588
0.74503195285797119 0.44124296307563782 0.1186811551451683
0.17854796350002289 0.60118675231933594 0.13597902655601501
0.19216328859329224 0.60772401094436646 0.13180020451545715
0.21679562330245972 0.61682188510894775 0.14187683165073395
0.24974602460861206 0.63044852018356323 0.15345896780490875
0.29862850904464722 0.64154922962188721 0.16121920943260193
0.35243973135948181 0.65237337350845337 0.1632855087518692
0.41966310143470764 0.65931469202041626 0.15413108468055725
0.49702182412147522 0.67030102014541626 0.13836151361465454
0.58032560348510742 0.6729358434677124 0.12560541927814484
0.65793216228485107 0.65364593267440796 0.12320652604103088
0.73101794719696045 0.62286341190338135 0.12699690461158752
0.78314661979675293 0.57995074987411499 0.12499005347490311
0.79619187116622925 0.52814847230911255 0.12022805213928223
0.19746488332748413 0.6987454891204834 0.13862539827823639
0.21224401891231537 0.70747977495193481 0.13594347238540649
0.23862628638744354 0.71985471248626709 0.14229932427406311
0.27411782741546631 0.73389136791229248 0.15194907784461975
0.32035204768180847 0.74541157484054565 0.16138523817062378
0.37214025855064392 0.75345516204833984 0.16232132911682129
0.43860310316085815 0.76309800148010254 0.15530513226985931
0.51687008142471313 0.77853387594223022 0.14009054005146027
0.60501015186309814 0.7868276834487915 0.12531830370426178
0.7047494649887085 0.78261637687683105 0.11496508866548538
0.79523253440856934 0.75343000888824463 0.11047454178333282
0.84800779819488525 0.69023334980010986 0.11094704270362854
0.85357010364532471 0.62261104583740234 0.11269161850214005
0.21779237687587738 0.79740822315216064 0.13550367951393127
0.23361702263355255 0.80872374773025513 0.13791105151176453
0.25831007957458496 0.82227468490600586 0.14204001426696777
0.29257097840309143 0.83285814523696899 0.14619514346122742
0.33507224917411804 0.8463592529296875 0.15342529118061066
0.38533779978752136 0.85612571239471436 0.15500819683074951
0.45078554749488831 0.86418306827545166 0.15036004781723022
0.52729398012161255 0.8806300163269043 0.13879622519016266
0.61326712369918823 0.88842117786407471 0.12625306844711304
0.72087466716766357 0.89525312185287476 0.1121300607919693
0.84120053052902222 0.88004475831985474 0.099551588296890259
0.91855692863464355 0.81821411848068237 0.093746230006217957
0.91835165023803711 0.72856700420379639 0.099339097738265991
0.2377084344625473 0.87692022323608398 0.12955881655216217
0.25173166394233704 0.88634002208709717 0.13536003232002258
0.27433884143829346 0.89906102418899536 0.14024712145328522
0.30535799264907837 0.91069322824478149 0.14179378747940063
0.34412950277328491 0.92271381616592407 0.14593769609928131
0.38698634505271912 0.9392896294593811 0.14617641270160675
0.44607245922088623 0.95288705825805664 0.14030635356903076
0.51995193958282471 0.95913881063461304 0.13064877688884735
0.60310155153274536 0.96401959657669067 0.12094990164041519
0.69819223880767822 0.96777498722076416 0.1107584610581398
0.82303982973098755 0.9670337438583374 0.095869861543178558
0.94540053606033325 0.94598793983459473 0.079204052686691284
0.97374063730239868 0.85771799087524414 0.081591963768005371
0.25315460562705994 0.91945242881774902 0.12229316681623459
0.2628016471862793 0.92347973585128784 0.12986455857753754
0.2820640504360199 0.93030476570129395 0.139051154255867
0.3111979067325592 0.93929344415664673 0.14112396538257599
0.34600841999053955 0.96002852916717529 0.14078550040721893
0.38101118803024292 0.98249965906143188 0.13677200675010681
0.43851414322853088 0.99441444873809814 0.13268867135047913
0.51488900184631348 0.99550968408584595 0.12633810937404633
0.58738476037979126 0.99602323770523071 0.11839482933282852
0.66263377666473389 0.99652773141860962 0.11072393506765366
0.75452077388763428 0.99796140193939209 0.09892871230840683
0.87783801555633545 0.99688041210174561 0.079651191830635071
0.98111575841903687 0.96601182222366333 0.070016704499721527
0.013262655586004257 0.026213059201836586 0.21075572073459625
0.034270267933607101 0.026553045958280563 0.20694980025291443
0.064313985407352448 0.026906032115221024 0.21015214920043945
0.10289670526981354 0.030241049826145172 0.20236584544181824
0.14617142081260681 0.033901110291481018 0.19363197684288025
0.19715893268585205 0.039339460432529449 0.19107250869274139
0.25042349100112915 0.042936436831951141 0.18269670009613037
0.31007009744644165 0.046395111829042435 0.17364922165870667
0.37300840020179749 0.051427099853754044 0.16553997993469238
0.42466497421264648 0.055678483098745346 0.15425831079483032
0.47040775418281555 0.056557778269052505 0.14355602860450745
0.50491082668304443 0.05983111634850502 0.13251893222332001
0.52429109811782837 0.058816064149141312 0.12402494996786118
0.023855440318584442 0.066942356526851654 0.20372338593006134
0.043806470930576324 0.067531779408454895 0.19874222576618195
0.071856431663036346 0.065216705203056335 0.19995796680450439
0.10753284394741058 0.066357150673866272 0.19867262244224548
0.15093159675598145 0.071810208261013031 0.19259953498840332
0.20562246441841125 0.081045426428318024 0.18821628391742706
0.26187869906425476 0.088483609259128571 0.18040502071380615
0.32178810238838196 0.092022716999053955 0.17130321264266968
0.38071244955062866 0.095543637871742249 0.16579864919185638
0.43602564930915833 0.098359502851963043 0.1549408882856369
0.48645898699760437 0.10131246596574783 0.1430211067199707
0.52408039569854736 0.10492625832557678 0.13375958800315857
0.54543024301528931 0.10591312497854233 0.12725098431110382
0.033451590687036514 0.10858242213726044 0.19970326125621796
0.053513918071985245 0.11069528758525848 0.19427841901779175
0.082045398652553558 0.11479436606168747 0.19514600932598114
0.11804172396659851 0.11678879708051682 0.19615478813648224
0.15986783802509308 0.12012972682714462 0.18827763199806213
0.21595330536365509 0.13181547820568085 0.18347999453544617
0.27204769849777222 0.13881447911262512 0.17902496457099915
0.33123132586479187 0.14247196912765503 0.17159354686737061
0.39473119378089905 0.14780054986476898 0.16676603257656097
0.45163378119468689 0.15062348544597626 0.15671403706073761
0.50691717863082886 0.15304607152938843 0.14731603860855103
0.55147081613540649 0.15699981153011322 0.14441664516925812
0.57394957542419434 0.15645042061805725 0.13868808746337891
0.049992386251688004 0.1633436530828476 0.20783679187297821
0.069885507225990295 0.16665050387382507 0.2011580616235733
0.096064895391464233 0.17035937309265137 0.19827578961849213
0.13166622817516327 0.17466719448566437 0.19520945847034454
0.17651253938674927 0.18152841925621033 0.18616533279418945
0.22716927528381348 0.18701840937137604 0.18131041526794434
0.2845795750617981 0.19402271509170532 0.17979095876216888
0.34711545705795288 0.19934424757957458 0.17299714684486389
0.4149492084980011 0.20401571691036224 0.16823479533195496
0.47566834092140198 0.20644833147525787 0.15776388347148895
0.53308194875717163 0.20697152614593506 0.14903496205806732
0.57702922821044922 0.20811718702316284 0.15091750025749207
0.60235327482223511 0.20411820709705353 0.14936570823192596
0.073862127959728241 0.23252417147159576 0.20799700915813446
0.092948734760284424 0.23686078190803528 0.20381584763526917
0.11523866653442383 0.23713487386703491 0.20115107297897339
0.14900657534599304 0.24186678230762482 0.19502739608287811
