assets/lut/abigailgonzalez cinema.cube
# Created by: G'MIC (https://gmic.eu)
TITLE "cinema"
# LUT size
LUT_3D_SIZE 13
# Data domain
DOMAIN_MIN 0.0 0.0 0.0
DOMAIN_MAX 1.0 1.0 1.0
# LUT data points
0.00019621007959358394 0.01018314715474844 0.017179347574710846
0.036490168422460556 0.026289621368050575 0.021467097103595734
0.11954911053180695 0.04105689749121666 0.022743837907910347
0.20734706521034241 0.056117773056030273 0.022618208080530167
0.28211072087287903 0.067170269787311554 0.022449014708399773
0.35318344831466675 0.077249221503734589 0.022468162700533867
0.4370080828666687 0.088131353259086609 0.020792793482542038
0.52740764617919922 0.10197288542985916 0.02373829297721386
0.6172175407409668 0.11909477412700653 0.033887512981891632
0.70641976594924927 0.13664679229259491 0.04293600469827652
0.78988629579544067 0.15745329856872559 0.047950834035873413
0.86423152685165405 0.18447557091712952 0.048799745738506317
0.9295804500579834 0.21367804706096649 0.048880092799663544
0.00066508870804682374 0.059981044381856918 0.030700443312525749
0.045830026268959045 0.073535025119781494 0.029040811583399773
0.14419221878051758 0.081008896231651306 0.026397794485092163
0.24029015004634857 0.091472789645195007 0.026891103014349937
0.31841269135475159 0.10270264744758606 0.024061165750026703
0.39578425884246826 0.11398810893297195 0.0209503173828125
0.48673602938652039 0.1251293271780014 0.017286457121372223
0.58053290843963623 0.14129434525966644 0.019666245207190514
0.66603684425354004 0.16543141007423401 0.028371488675475121
0.75026726722717285 0.18994297087192535 0.033219147473573685
0.82821255922317505 0.21741363406181335 0.032829180359840393
0.89664435386657715 0.24929331243038177 0.028399240225553513
0.9571794867515564 0.28109785914421082 0.024766735732555389
0.0025911668781191111 0.11927032470703125 0.040801253169775009
0.048877626657485962 0.12948518991470337 0.033675685524940491
0.16143962740898132 0.12651139497756958 0.023416616022586823
0.27450555562973022 0.12585197389125824 0.019445337355136871
0.35682079195976257 0.13263699412345886 0.017809804528951645
0.4372560977935791 0.14336669445037842 0.016878090798854828
0.52742987871170044 0.15696468949317932 0.013578063808381557
0.62013614177703857 0.17648416757583618 0.014696232974529266
0.70506459474563599 0.20480860769748688 0.020872212946414948
0.78514456748962402 0.23637929558753967 0.024301402270793915
0.85724228620529175 0.2712743878364563 0.023527242243289948
0.91956406831741333 0.30744245648384094 0.019831353798508644
0.97429472208023071 0.34027877449989319 0.017662841826677322
0.00089676800416782498 0.16279582679271698 0.034869488328695297
0.03809540718793869 0.18409520387649536 0.028998954221606255
0.15719896554946899 0.18543228507041931 0.01723034493625164
0.29550373554229736 0.17257574200630188 0.0097024356946349144
0.39509952068328857 0.16539269685745239 0.012124469503760338
0.47855919599533081 0.16972345113754272 0.014351369813084602
0.56234830617904663 0.18379656970500946 0.012380696833133698
0.64932519197463989 0.2074190229177475 0.013077904470264912
0.73401707410812378 0.23832994699478149 0.019444169476628304
0.81177455186843872 0.27496272325515747 0.023135511204600334
0.87990331649780273 0.31353124976158142 0.024470474570989609
0.93671095371246338 0.35286614298820496 0.025374319404363632
0.98430937528610229 0.39047178626060486 0.025065178051590919
0.00033228256506845355 0.20270875096321106 0.027266319841146469
0.034726761281490326 0.22727537155151367 0.024605963379144669
0.14978714287281036 0.24562051892280579 0.01735452376306057
0.29738625884056091 0.24031864106655121 0.011245024390518665
0.41782534122467041 0.2196027934551239 0.013425505720078945
0.51246720552444458 0.20752118527889252 0.016154523938894272
0.59585648775100708 0.21298679709434509 0.01491699181497097
0.67787110805511475 0.23759207129478455 0.017113165929913521
0.75851994752883911 0.27183613181114197 0.025483328849077225
0.83345693349838257 0.31097501516342163 0.029001422226428986
0.89887905120849609 0.35141828656196594 0.02996927872300148
0.95029693841934204 0.39392885565757751 0.031504057347774506
0.99033558368682861 0.43580871820449829 0.032631009817123413
0.0037897296715527773 0.24756069481372833 0.027078950777649879
0.044210858643054962 0.26914888620376587 0.025336500257253647
0.15610231459140778 0.2968386709690094 0.020775694400072098
0.30015259981155396 0.31215155124664307 0.018768610432744026
0.42893597483634949 0.29998669028282166 0.021304231137037277
0.53741538524627686 0.26974344253540039 0.020680071786046028
0.62933313846588135 0.25536441802978516 0.016847303137183189
0.70931905508041382 0.2738305926322937 0.020568398758769035
0.78360134363174438 0.31046903133392334 0.030555620789527893
0.85299581289291382 0.35016301274299622 0.034352529793977737
0.91345733404159546 0.39091894030570984 0.035117443650960922
0.96072441339492798 0.43460413813591003 0.03778756782412529
0.99453729391098022 0.47710779309272766 0.040716733783483505
0.0089307148009538651 0.29096853733062744 0.036587659269571304
0.059017825871706009 0.31415385007858276 0.027694044634699821
0.16701370477676392 0.34418487548828125 0.021257692947983742
0.30301740765571594 0.37240362167358398 0.022357191890478134
0.43009772896766663 0.38493382930755615 0.030793895944952965
0.54841941595077515 0.36234107613563538 0.02994142472743988
0.65253829956054688 0.33190298080444336 0.023713145405054092
0.73785972595214844 0.32851958274841309 0.022926539182662964
0.80934834480285645 0.35251584649085999 0.02843894250690937
0.87203729152679443 0.38981041312217712 0.033653408288955688
0.92602831125259399 0.43301290273666382 0.039779707789421082
0.9688757061958313 0.47886112332344055 0.048405367881059647
0.99714118242263794 0.52264678478240967 0.054215032607316971
0.012544025667011738 0.34020468592643738 0.045154526829719543
0.06772352010011673 0.36881086230278015 0.033523064106702805
0.17285394668579102 0.40308478474617004 0.026151888072490692
0.30954709649085999 0.43364119529724121 0.024736560881137848
0.43674975633621216 0.46111086010932922 0.033778499811887741
0.54957419633865356 0.47191563248634338 0.045344125479459763
0.65540224313735962 0.45129501819610596 0.04410267248749733
0.7502596378326416 0.42315655946731567 0.035043336451053619
0.82592892646789551 0.4215761125087738 0.032729443162679672
0.88807171583175659 0.44249483942985535 0.036054693162441254
0.93794518709182739 0.48353710770606995 0.046686284244060516
0.97493082284927368 0.53027784824371338 0.059572510421276093
0.99777829647064209 0.57456374168395996 0.068563185632228851
0.021039027720689774 0.39346188306808472 0.049562074244022369
0.088276088237762451 0.42639866471290588 0.039690352976322174
0.19822201132774353 0.46802553534507751 0.036122340708971024
0.3290693461894989 0.50298470258712769 0.032565455883741379
0.45190492272377014 0.53371769189834595 0.03589509055018425
0.55864882469177246 0.56494200229644775 0.051659632474184036
0.65655118227005005 0.57334315776824951 0.062061771750450134
0.74700266122817993 0.55726689100265503 0.060933984816074371
0.82848423719406128 0.5317312479019165 0.05347297340631485
0.89666128158569336 0.52474653720855713 0.050656635314226151
0.94739770889282227 0.55073177814483643 0.059769216924905777
0.98004615306854248 0.58822423219680786 0.071382023394107819
0.99808698892593384 0.62846618890762329 0.080861099064350128
0.03877747431397438 0.45729789137840271 0.054900612682104111
0.11775854974985123 0.49744051694869995 0.045255221426486969
0.23607850074768066 0.54110288619995117 0.046064998954534531
0.36189615726470947 0.57399111986160278 0.042554460465908051
0.47591972351074219 0.60485351085662842 0.042475156486034393
0.57882726192474365 0.63813841342926025 0.053753633052110672
0.66924101114273071 0.66651880741119385 0.068843036890029907
0.7482486367225647 0.68050199747085571 0.079872950911521912
0.82731688022613525 0.65955919027328491 0.078176267445087433
0.89829659461975098 0.63669323921203613 0.074949763715267181
0.95276087522506714 0.63378888368606567 0.076718933880329132
0.98509001731872559 0.65049862861633301 0.083397790789604187
0.99878048896789551 0.68274831771850586 0.091828994452953339
0.065139740705490112 0.52803522348403931 0.068148098886013031
0.1567404717206955 0.57875734567642212 0.054777797311544418
0.28039896488189697 0.61881464719772339 0.053105402737855911
0.40234297513961792 0.64455252885818481 0.05173594132065773
0.50609815120697021 0.677054762840271 0.056551959365606308
0.60116159915924072 0.70806616544723511 0.061791617423295975
0.68702149391174316 0.73861610889434814 0.068986840546131134
0.76245957612991333 0.76611393690109253 0.080076165497303009
0.83201801776885986 0.7738196849822998 0.090953752398490906
0.89680677652359009 0.75958466529846191 0.094972513616085052
0.95330685377120972 0.73349100351333618 0.092649467289447784
0.98841488361358643 0.72503268718719482 0.094969958066940308
0.99953055381774902 0.74371051788330078 0.10128151625394821
0.094693996012210846 0.59704607725143433 0.090273313224315643
0.21312521398067474 0.65028190612792969 0.078271292150020599
0.34212121367454529 0.68978714942932129 0.073043569922447205
0.4528452455997467 0.71759635210037231 0.072378300130367279
0.54415428638458252 0.74705463647842407 0.077579915523529053
0.62703657150268555 0.77370172739028931 0.075060717761516571
0.7055971622467041 0.80060094594955444 0.072247028350830078
0.77967029809951782 0.82850927114486694 0.082136772572994232
0.84469020366668701 0.85142970085144043 0.095365040004253387
0.90075349807739258 0.85636699199676514 0.1039053350687027
0.9512556791305542 0.83773976564407349 0.10762369632720947
0.98995828628540039 0.81377917528152466 0.1076892614364624
1 0.81078726053237915 0.10701204091310501
0.11504492908716202 0.67650765180587769 0.11245667934417725
0.24614706635475159 0.73855209350585938 0.099674686789512634
0.38680079579353333 0.76670533418655396 0.096925996243953705
0.49783605337142944 0.78741782903671265 0.097809799015522003
0.58349168300628662 0.81062835454940796 0.10330025106668472
0.65784257650375366 0.83331727981567383 0.10114340484142303
0.72862160205841064 0.85596883296966553 0.097004085779190063
0.79838919639587402 0.87946105003356934 0.10252054035663605
0.85996347665786743 0.90117943286895752 0.10890058428049088
0.90879213809967041 0.92020082473754883 0.1146143451333046
0.9503057599067688 0.92386317253112793 0.12423747777938843
0.98816442489624023 0.90291500091552734 0.1229439377784729
1 0.88601750135421753 0.11397670954465866
9.0834670118056238e-05 0.015317805111408234 0.060179106891155243
0.021162444725632668 0.033665407449007034 0.06512749195098877
0.092618636786937714 0.048815410584211349 0.066985622048377991
0.18039184808731079 0.063024558126926422 0.06829274445772171
0.25515186786651611 0.076949775218963623 0.070284746587276459
0.32525110244750977 0.09020734578371048 0.073529079556465149
0.41294160485267639 0.10214041918516159 0.070855051279067993
0.51180887222290039 0.11535165458917618 0.068926885724067688
0.61307811737060547 0.13135842978954315 0.070819810032844543
0.71148407459259033 0.15010374784469604 0.073019109666347504
0.79937112331390381 0.17448189854621887 0.073162660002708435
0.87577003240585327 0.20361439883708954 0.068831287324428558
0.94241642951965332 0.23308123648166656 0.064337126910686493
0.00044555665226653218 0.061348963528871536 0.081256210803985596
0.027953831478953362 0.075871065258979797 0.085355781018733978
0.11099366098642349 0.091932974755764008 0.084585435688495636
0.20876564085483551 0.10816600918769836 0.084799222648143768
0.29047754406929016 0.12182732671499252 0.081459760665893555
0.37142464518547058 0.13453434407711029 0.078231245279312134
0.47264876961708069 0.14304544031620026 0.069773867726325989
0.57906234264373779 0.15569388866424561 0.063223637640476227
0.67395609617233276 0.17816674709320068 0.063593767583370209
0.76464027166366577 0.20416341722011566 0.063126221299171448
0.84169232845306396 0.23593658208847046 0.060352295637130737
0.90717148780822754 0.26632767915725708 0.052829280495643616
0.9656103253364563 0.29162079095840454 0.046715933829545975
0.00055990781402215362 0.12615656852722168 0.10509315878152847
0.028897333890199661 0.137383833527565 0.1017734482884407
0.11970358341932297 0.14483045041561127 0.089373119175434113
0.23745130002498627 0.15141724050045013 0.083566941320896149
0.32930076122283936 0.16058342158794403 0.080108910799026489
0.41481134295463562 0.1728435754776001 0.077165938913822174
0.51381593942642212 0.18400594592094421 0.067048095166683197
0.61832284927368164 0.20033667981624603 0.058546837419271469
0.71227043867111206 0.22686170041561127 0.056834127753973007
0.79719245433807373 0.26045995950698853 0.054724853485822678
0.86784642934799194 0.29931503534317017 0.052782244980335236
0.9261472225189209 0.3362293541431427 0.048123259097337723
0.97882080078125 0.36242178082466125 0.047415640205144882
0.00011722340423148125 0.18035741150379181 0.11529448628425598
0.02386423759162426 0.19719119369983673 0.1072956919670105
0.11501435190439224 0.20515306293964386 0.084701031446456909
0.25352638959884644 0.20066885650157928 0.068939805030822754
0.36736291646957397 0.19951705634593964 0.067911453545093536
0.45634058117866516 0.20541852712631226 0.069642551243305206
0.54471385478973389 0.21955884993076324 0.062100682407617569
0.64040535688400269 0.24212822318077087 0.055213972926139832
0.73376190662384033 0.27185851335525513 0.055440280586481094
0.815743088722229 0.31067228317260742 0.054110150784254074
0.88488531112670898 0.35396614670753479 0.055353187024593353
0.9395328164100647 0.3967689573764801 0.05680185928940773
0.98545974493026733 0.43137931823730469 0.060532737523317337
0.00026460536173544824 0.23066166043281555 0.12001049518585205
0.023229965940117836 0.24578739702701569 0.10811427980661392
0.10906669497489929 0.26319551467895508 0.085114888846874237
0.24669758975505829 0.26629924774169922 0.063817493617534637
0.38614481687545776 0.25441679358482361 0.056700613349676132
0.49314618110656738 0.24210210144519806 0.05704638734459877
0.57945150136947632 0.24993714690208435 0.054394889622926712
0.66502755880355835 0.27843281626701355 0.053834892809391022
0.75300973653793335 0.31330704689025879 0.05858733132481575
0.83261615037918091 0.35545212030410767 0.058885268867015839
0.89889395236968994 0.40055432915687561 0.061948828399181366
0.9501761794090271 0.44697144627571106 0.066295236349105835
0.98972833156585693 0.48887836933135986 0.072222404181957245
0.0022778678685426712 0.28352776169776917 0.12517173588275909
0.027170158922672272 0.28930675983428955 0.10811422020196915
0.1056353822350502 0.3106367290019989 0.086203150451183319
0.23659016191959381 0.32987228035926819 0.06593775749206543
0.38697904348373413 0.32875961065292358 0.054742507636547089
0.51490503549575806 0.30307552218437195 0.049226034432649612
0.61371231079101562 0.2925679087638855 0.047290157526731491
0.69594395160675049 0.31704488396644592 0.050721053034067154
0.77509546279907227 0.35670572519302368 0.057721830904483795
0.84779244661331177 0.40040665864944458 0.061448294669389725
0.90985488891601562 0.4457651674747467 0.06708671897649765
0.95877981185913086 0.49157807230949402 0.073810532689094543
0.99389725923538208 0.53342729806900024 0.081885889172554016
0.0040381485596299171 0.33106794953346252 0.12914183735847473
0.031607966870069504 0.33852458000183105 0.10948564112186432
0.10802385210990906 0.35938426852226257 0.087127149105072021
0.23387078940868378 0.38687935471534729 0.068528555333614349
0.37921461462974548 0.40797048807144165 0.059000201523303986
0.51464742422103882 0.40124586224555969 0.055134374648332596
0.63138765096664429 0.37441578507423401 0.052125655114650726
0.72443395853042603 0.37301480770111084 0.05213489755988121
0.80003237724304199 0.40219923853874207 0.057204511016607285
0.86490726470947266 0.44392895698547363 0.064326435327529907
0.92044222354888916 0.4905647337436676 0.073680460453033447
0.96631008386611938 0.53567254543304443 0.085390441119670868
0.99658262729644775 0.57671791315078735 0.095132969319820404
0.0052213030867278576 0.38085740804672241 0.13469612598419189
0.036311458796262741 0.39578589797019958 0.11448859423398972
0.11483269184827805 0.4198145866394043 0.090197257697582245
0.24107010662555695 0.44821465015411377 0.071161679923534393
0.38127779960632324 0.47801101207733154 0.063575014472007751
0.51093298196792603 0.50220060348510742 0.067548699676990509
0.62948727607727051 0.49428081512451172 0.067536041140556335
0.73401165008544922 0.47248449921607971 0.061599835753440857
0.81720262765884399 0.47182077169418335 0.063013873994350433
0.88179600238800049 0.49670806527137756 0.070967666804790497
0.93257766962051392 0.53919953107833862 0.082821756601333618
0.97203010320663452 0.58333671092987061 0.096774473786354065
0.997170090675354 0.62401866912841797 0.1080721989274025
0.0094439638778567314 0.42911413311958313 0.13933975994586945
0.051552925258874893 0.44858631491661072 0.1180117279291153
0.1358640044927597 0.48628360033035278 0.097671851515769958
0.25824084877967834 0.52247357368469238 0.081911377608776093
0.39419004321098328 0.5486564040184021 0.074206948280334473
0.52018547058105469 0.58081662654876709 0.073885254561901093
0.63159817457199097 0.60204410552978516 0.078817836940288544
0.73241448402404785 0.59750545024871826 0.081786289811134338
0.82137119770050049 0.57818835973739624 0.080870486795902252
0.89253836870193481 0.57503795623779297 0.086088128387928009
0.944297194480896 0.59940457344055176 0.096450760960578918
0.97781741619110107 0.63496118783950806 0.10760466754436493
0.99762368202209473 0.67233681678771973 0.11842016875743866
0.022086169570684433 0.4859161376953125 0.14397402107715607
0.074217550456523895 0.51281356811523438 0.12292021512985229
0.16682042181491852 0.56034892797470093 0.1087600439786911
0.28977698087692261 0.59644466638565063 0.097340360283851624
0.41985604166984558 0.62128919363021851 0.091730572283267975
0.54049289226531982 0.65179276466369629 0.090398646891117096
0.64545524120330811 0.68541580438613892 0.09536433219909668
0.73685789108276367 0.70615065097808838 0.10113393515348434
0.82123273611068726 0.69657248258590698 0.10109860450029373
0.89462226629257202 0.67908430099487305 0.10414635390043259
0.95131289958953857 0.67451143264770508 0.1102626696228981
0.98372483253479004 0.68998008966445923 0.11857986450195312
0.99794876575469971 0.71923285722732544 0.1273370087146759
0.042121455073356628 0.54922878742218018 0.15877573192119598
0.10366205126047134 0.59085708856582642 0.13666799664497375
0.20942611992359161 0.64027756452560425 0.12465896457433701
0.33712717890739441 0.66743177175521851 0.11691601574420929
0.45926609635353088 0.69143003225326538 0.11793769150972366
0.56886047124862671 0.71940034627914429 0.11902599036693573
0.66653585433959961 0.75112158060073853 0.11553452163934708
0.75322914123535156 0.78007024526596069 0.110747329890728
0.82779908180236816 0.79434365034103394 0.11154317110776901
0.89462625980377197 0.78736507892608643 0.11585195362567902
0.95270490646362305 0.76609927415847778 0.11983171105384827
0.9876711368560791 0.75753104686737061 0.12716250121593475
0.99922055006027222 0.77174735069274902 0.13417020440101624
0.06925123929977417 0.60892701148986816 0.18801285326480865
0.15141250193119049 0.65964126586914062 0.16535983979701996
0.27420303225517273 0.71100199222564697 0.15197445452213287
0.39806357026100159 0.73826980590820312 0.14848946034908295
0.50706654787063599 0.76002556085586548 0.15336154401302338
0.60213583707809448 0.78271317481994629 0.14982928335666656
0.68898880481719971 0.80836915969848633 0.13749323785305023
0.77070218324661255 0.83601033687591553 0.12839974462985992
0.83952099084854126 0.86121422052383423 0.12270067632198334
0.89827299118041992 0.8719557523727417 0.12096372246742249
0.95060521364212036 0.86067318916320801 0.1275799423456192
0.98993408679962158 0.836556077003479 0.13387636840343475
1 0.83052289485931396 0.13641543686389923
0.099660463631153107 0.67979878187179565 0.21824930608272552
0.19830971956253052 0.74437630176544189 0.19299452006816864
0.33308511972427368 0.78768706321716309 0.18367575109004974
0.45330289006233215 0.80894148349761963 0.18344217538833618
0.55295437574386597 0.82503950595855713 0.1909928023815155
0.63764899969100952 0.84251385927200317 0.18663065135478973
0.71452730894088745 0.86327385902404785 0.17397473752498627
0.78734219074249268 0.88657957315444946 0.16464896500110626
0.85146647691726685 0.9094698429107666 0.14946414530277252
0.90487116575241089 0.92764580249786377 0.13614407181739807
0.9499814510345459 0.93349742889404297 0.14423529803752899
0.98831331729888916 0.91492611169815063 0.14763365685939789
1 0.89875954389572144 0.14117632806301117
0 0.031643424183130264 0.10634666681289673
0.0086276335641741753 0.048112981021404266 0.10917410999536514
0.063120178878307343 0.060322076082229614 0.10966059565544128
0.14621235430240631 0.071185842156410217 0.10791102051734924
0.22620593011379242 0.085659310221672058 0.11031126230955124
0.29918047785758972 0.10200189054012299 0.11638695001602173
0.38143926858901978 0.11723200231790543 0.11867086589336395
0.48109090328216553 0.13210880756378174 0.11748859286308289
0.5944095253944397 0.1473328024148941 0.11429397016763687
0.7035333514213562 0.16846440732479095 0.1132909432053566
0.79700988531112671 0.1986662745475769 0.11339572072029114
0.87810635566711426 0.23195625841617584 0.1097811833024025
0.94797104597091675 0.26375091075897217 0.10490414500236511
0 0.063459791243076324 0.12379268556833267
0.012067742645740509 0.081971921026706696 0.1368529200553894
0.070441104471683502 0.10084434598684311 0.14005371928215027
0.16177298128604889 0.12014932185411453 0.13745497167110443
0.25387147068977356 0.13798242807388306 0.13626022636890411
0.33825284242630005 0.15566146373748779 0.13832685351371765
0.43690526485443115 0.16681466996669769 0.13234005868434906
0.54903495311737061 0.17891116440296173 0.12352663278579712
0.66112172603607178 0.19773207604885101 0.11719051003456116
0.76461780071258545 0.22355943918228149 0.11360343545675278
0.84505891799926758 0.25912749767303467 0.11345420032739639
0.91186386346817017 0.29196956753730774 0.10866806656122208
0.97051262855529785 0.31917566061019897 0.1040385365486145
0 0.1160687729716301 0.14950141310691833
0.012744933366775513 0.13580740988254547 0.1633715033531189
0.074290074408054352 0.15095371007919312 0.16095297038555145
0.17959012091159821 0.16766013205051422 0.15540240705013275
0.28556188941001892 0.18559633195400238 0.15454176068305969
0.37996137142181396 0.20360130071640015 0.15349335968494415
0.4827193021774292 0.21663081645965576 0.14310209453105927
0.59579765796661377 0.23151898384094238 0.13058346509933472
0.7038038969039917 0.25482147932052612 0.12180811911821365
0.79918557405471802 0.28612947463989258 0.11643319576978683
0.87391144037246704 0.32332518696784973 0.11679250746965408
0.93248230218887329 0.35860615968704224 0.11451929062604904
0.98264241218566895 0.38644593954086304 0.11312893033027649
6.0496611695270985e-05 0.18028697371482849 0.1798829585313797
0.014111164025962353 0.20173555612564087 0.18722422420978546
0.074440285563468933 0.21405956149101257 0.17333768308162689
0.1901281476020813 0.22110818326473236 0.15743225812911987
0.31929334998130798 0.23093485832214355 0.15139657258987427
0.42038959264755249 0.24476011097431183 0.15305942296981812
0.5156790018081665 0.26106682419776917 0.14676113426685333
0.62202489376068115 0.28233468532562256 0.13607951998710632
0.72571098804473877 0.31045991182327271 0.12838214635848999
0.81569278240203857 0.34602773189544678 0.12289337813854218
0.88921135663986206 0.38435399532318115 0.12464506924152374
0.94465160369873047 0.42322936654090881 0.12631641328334808
0.98828905820846558 0.45665434002876282 0.12908725440502167
0.00094522215658798814 0.24961434304714203 0.21342414617538452
0.017603496089577675 0.26468703150749207 0.20928472280502319
0.072619326412677765 0.27825114130973816 0.18691554665565491
0.18566229939460754 0.28466036915779114 0.15444260835647583
0.33752676844596863 0.28399774432182312 0.13222293555736542
