assets/lut/abigailgonzalez cinema 03.cube
# Created by: G'MIC (https://gmic.eu)
TITLE "cinema_3"
# LUT size
LUT_3D_SIZE 7
# Data domain
DOMAIN_MIN 0.0 0.0 0.0
DOMAIN_MAX 1.0 1.0 1.0
# LUT data points
0.051859986037015915 0.058851532638072968 0.060875613242387772
0.10494471341371536 0.063275538384914398 0.050419781357049942
0.22031606733798981 0.084837056696414948 0.0442313551902771
0.36803188920021057 0.12292136251926422 0.056437905877828598
0.49360164999961853 0.18289051949977875 0.078190416097640991
0.58619034290313721 0.23909337818622589 0.095503531396389008
0.63802313804626465 0.27585944533348083 0.10605738312005997
0.047078840434551239 0.085875615477561951 0.059792298823595047
0.10402067750692368 0.091679774224758148 0.05512898787856102
0.24053235352039337 0.11872228235006332 0.047293391078710556
0.38602519035339355 0.14876100420951843 0.059502679854631424
0.51200050115585327 0.2024461030960083 0.082484178245067596
0.6019936203956604 0.25835803151130676 0.099370323121547699
0.66063970327377319 0.29432916641235352 0.10808009654283524
0.045636434108018875 0.14850151538848877 0.072089098393917084
0.079616963863372803 0.1555493026971817 0.071669846773147583
0.25158670544624329 0.18895266950130463 0.059857401996850967
0.45549538731575012 0.23835965991020203 0.075090520083904266
0.56965965032577515 0.27165085077285767 0.099749170243740082
0.63187199831008911 0.29387632012367249 0.11005745828151703
0.6801496148109436 0.31599751114845276 0.11354455351829529
0.04901161789894104 0.23664180934429169 0.086742788553237915
0.075246386229991913 0.24618551135063171 0.083328723907470703
0.19374814629554749 0.29362031817436218 0.083840943872928619
0.51934772729873657 0.37160372734069824 0.11507167667150497
0.66893410682678223 0.40157303214073181 0.13100212812423706
0.71540528535842896 0.39736494421958923 0.13116694986820221
0.73177236318588257 0.38783684372901917 0.1285981684923172
0.064364217221736908 0.34433048963546753 0.10141664743423462
0.083860598504543304 0.35477504134178162 0.095574803650379181
0.147166907787323 0.38313111662864685 0.091718681156635284
0.38527119159698486 0.48275253176689148 0.12936252355575562
0.73485255241394043 0.54064923524856567 0.17068976163864136
0.79613673686981201 0.53249400854110718 0.15953990817070007
0.80178725719451904 0.49079069495201111 0.147696852684021
0.076253496110439301 0.42496713995933533 0.12403721362352371
0.089863196015357971 0.43236321210861206 0.11947064846754074
0.14725787937641144 0.45834526419639587 0.11150290071964264
0.2613467276096344 0.50820541381835938 0.10997822880744934
0.60527563095092773 0.63064152002334595 0.18636803328990936
0.82225608825683594 0.63843899965286255 0.19092103838920593
0.84962689876556396 0.63212984800338745 0.18172681331634521
0.092078007757663727 0.51020091772079468 0.16805027425289154
0.11255247890949249 0.52372699975967407 0.16697661578655243
0.16889777779579163 0.54361081123352051 0.14539404213428497
0.27051132917404175 0.57561427354812622 0.12694700062274933
0.43486005067825317 0.62967109680175781 0.14967817068099976
0.71777570247650146 0.71006542444229126 0.22431309521198273
0.85528087615966797 0.72604101896286011 0.24989023804664612
0.044719323515892029 0.066469155251979828 0.096962660551071167
0.089704342186450958 0.069536097347736359 0.097219638526439667
0.20396578311920166 0.088924989104270935 0.082099258899688721
0.36677569150924683 0.13442565500736237 0.076397866010665894
0.49977922439575195 0.18430516123771667 0.093418776988983154
0.591796875 0.23625369369983673 0.10758163034915924
0.64823085069656372 0.27287349104881287 0.11743291467428207
0.043394409120082855 0.089686281979084015 0.097550548613071442
0.086976461112499237 0.091522559523582458 0.094565629959106445
0.22307506203651428 0.11341029405593872 0.07467920333147049
0.38730326294898987 0.1545771062374115 0.076078779995441437
0.51368945837020874 0.20461335778236389 0.096999466419219971
0.60484212636947632 0.25621891021728516 0.11004650592803955
0.65886157751083374 0.29080313444137573 0.11934172362089157
0.040883097797632217 0.15188238024711609 0.10981143265962601
0.067412421107292175 0.15153717994689941 0.099170103669166565
0.23373973369598389 0.18293836712837219 0.084029540419578552
0.44868355989456177 0.23658947646617889 0.092551961541175842
0.55890423059463501 0.25839000940322876 0.10852155834436417
0.62681633234024048 0.28160035610198975 0.11634346097707748
0.6872096061706543 0.31453397870063782 0.12577846646308899
0.050350893288850784 0.24077014625072479 0.11817695945501328
0.070975720882415771 0.24521353840827942 0.1074831485748291
0.17882685363292694 0.28619033098220825 0.10647892951965332
0.50637358427047729 0.36659708619117737 0.12947508692741394
0.66924548149108887 0.40166819095611572 0.1452731192111969
0.72093933820724487 0.40068390965461731 0.14466871321201324
0.73720079660415649 0.37849974632263184 0.13834254443645477
0.06846696138381958 0.34629949927330017 0.12450404465198517
0.08495001494884491 0.35280817747116089 0.11658155918121338
0.12813533842563629 0.37199050188064575 0.1061711311340332
0.35286006331443787 0.46790513396263123 0.13955046236515045
0.73214304447174072 0.54439783096313477 0.18617421388626099
0.80099666118621826 0.53760421276092529 0.17512319982051849
0.80742979049682617 0.49100694060325623 0.16111373901367188
0.078053735196590424 0.4268454909324646 0.14914938807487488
0.094036996364593506 0.4368109405040741 0.14507012069225311
0.12729473412036896 0.45115703344345093 0.13016633689403534
0.22631543874740601 0.49340316653251648 0.12418923527002335
0.59063571691513062 0.62873309850692749 0.1985628604888916
0.82757019996643066 0.64309060573577881 0.20571760833263397
0.84781509637832642 0.6358916163444519 0.19729195535182953
0.09552466869354248 0.51759105920791626 0.19855195283889771
0.11371207237243652 0.52697515487670898 0.1913473904132843
0.15582063794136047 0.54443168640136719 0.17308895289897919
0.24554623663425446 0.57364672422409058 0.14932176470756531
0.4156377911567688 0.62532263994216919 0.16059775650501251
0.69498473405838013 0.70596319437026978 0.22832660377025604
0.87237393856048584 0.73954641819000244 0.26979219913482666
0.040239386260509491 0.10147736221551895 0.17442689836025238
0.060541730374097824 0.099355973303318024 0.16955728828907013
0.1469925194978714 0.10381928831338882 0.16479171812534332
0.34318491816520691 0.1520315408706665 0.14055144786834717
0.52030104398727417 0.21763606369495392 0.13730689883232117
0.60479271411895752 0.24648036062717438 0.1360752135515213
0.65466511249542236 0.27368679642677307 0.13523794710636139
0.042135708034038544 0.11852363497018814 0.17689044773578644
0.060040775686502457 0.11729460954666138 0.17488975822925568
0.15697546303272247 0.13165362179279327 0.16976729035377502
0.36497646570205688 0.18012972176074982 0.14849221706390381
0.53895008563995361 0.23963041603565216 0.14158430695533752
0.6211283802986145 0.26810774207115173 0.14166146516799927
0.66461938619613647 0.28945031762123108 0.13603106141090393
0.041618213057518005 0.15954203903675079 0.18401236832141876
0.058514568954706192 0.16157595813274384 0.18042519688606262
0.16236200928688049 0.18291470408439636 0.18039244413375854
0.4206206202507019 0.24045513570308685 0.15524683892726898
0.56615358591079712 0.27369853854179382 0.14623002707958221
0.63542068004608154 0.2843157947063446 0.13945835828781128
0.68961435556411743 0.31236541271209717 0.14320679008960724
0.056210506707429886 0.27027535438537598 0.21931472420692444
0.068453468382358551 0.26589509844779968 0.20158500969409943
0.12540052831172943 0.27544721961021423 0.18331009149551392
0.46330717206001282 0.3655586838722229 0.18100336194038391
0.6644512414932251 0.4055904746055603 0.17355252802371979
0.70714622735977173 0.3751380443572998 0.15549755096435547
0.72120529413223267 0.35853922367095947 0.14955858886241913
0.076472245156764984 0.36609452962875366 0.20383176207542419
0.087147794663906097 0.36330655217170715 0.17954166233539581
0.11779481172561646 0.3757418692111969 0.16014891862869263
0.32035785913467407 0.45630335807800293 0.17066621780395508
0.72618687152862549 0.55019837617874146 0.20865808427333832
0.80310201644897461 0.54123497009277344 0.19196753203868866
0.81029492616653442 0.48877987265586853 0.17684260010719299
0.088132642209529877 0.44321984052658081 0.20975331962108612
0.097223438322544098 0.4440576434135437 0.1922934353351593
0.11978722363710403 0.45344531536102295 0.17012593150138855
0.19237260520458221 0.48361635208129883 0.15212899446487427
0.57532793283462524 0.62556588649749756 0.21777157485485077
0.83051937818527222 0.64988976716995239 0.22241500020027161
0.85697567462921143 0.64087259769439697 0.21308740973472595
0.10535169392824173 0.53479874134063721 0.26269468665122986
0.11548919975757599 0.53542882204055786 0.24283748865127563
0.13811928033828735 0.54149818420410156 0.2143276035785675
0.21162576973438263 0.57067275047302246 0.18576030433177948
0.36718672513961792 0.61792361736297607 0.17366832494735718
0.68716394901275635 0.71272474527359009 0.24571257829666138
0.87264668941497803 0.74399149417877197 0.28473630547523499
0.047345958650112152 0.16312946379184723 0.28026846051216125
0.063164234161376953 0.16224876046180725 0.27032506465911865
0.095507360994815826 0.16341815888881683 0.25478550791740417
0.26158550381660461 0.18527376651763916 0.22694315016269684
0.51542741060256958 0.24763767421245575 0.20450125634670258
0.65006506443023682 0.28310230374336243 0.23072025179862976
0.72307056188583374 0.29079639911651611 0.22447431087493896
0.048139996826648712 0.17597296833992004 0.28169652819633484
0.059648193418979645 0.17510458827018738 0.27969899773597717
0.099650844931602478 0.18281416594982147 0.26561775803565979
0.2724454402923584 0.21309018135070801 0.23927411437034607
0.53892308473587036 0.27952086925506592 0.22433847188949585
0.67475759983062744 0.3135678768157959 0.24421070516109467
0.74373137950897217 0.31825700402259827 0.22884584963321686
0.046414230018854141 0.19891965389251709 0.28367197513580322
0.061650518327951431 0.20982210338115692 0.29284518957138062
0.10027053207159042 0.22040845453739166 0.29479357600212097
0.30384466052055359 0.26471534371376038 0.27769780158996582
0.56976336240768433 0.32267951965332031 0.2525632381439209
0.70605218410491943 0.34585008025169373 0.26223066449165344
0.74757474660873413 0.33987516164779663 0.21498787403106689
0.055488765239715576 0.26906606554985046 0.31703642010688782
0.067456714808940887 0.26924252510070801 0.31147453188896179
0.095197923481464386 0.28526070713996887 0.31781944632530212
0.33226081728935242 0.37342023849487305 0.35319966077804565
0.6710890531539917 0.43332278728485107 0.32245850563049316
0.74212467670440674 0.39148274064064026 0.25498887896537781
0.73404264450073242 0.35033789277076721 0.17860229313373566
0.1112530305981636 0.42686411738395691 0.395334392786026
0.12296737730503082 0.43141147494316101 0.38523131608963013
0.1342792809009552 0.42687907814979553 0.36176759004592896
0.21919213235378265 0.4485480785369873 0.32641109824180603
0.70765608549118042 0.57937633991241455 0.31044045090675354
0.82674473524093628 0.56221646070480347 0.25086331367492676
0.80595463514328003 0.46988388895988464 0.19115452468395233
0.13158656656742096 0.50268352031707764 0.36314660310745239
0.12803885340690613 0.49072596430778503 0.32186776399612427
0.13567456603050232 0.48611420392990112 0.29497107863426208
0.16165187954902649 0.48945200443267822 0.23818771541118622
0.50514394044876099 0.61249667406082153 0.25098380446434021
0.83331406116485596 0.65738600492477417 0.24245749413967133
0.85849124193191528 0.64005029201507568 0.22859947383403778
0.13166114687919617 0.56692886352539062 0.36078378558158875
0.13394534587860107 0.55722230672836304 0.32924175262451172
0.13880081474781036 0.55606985092163086 0.29039371013641357
0.17759990692138672 0.57057547569274902 0.24323722720146179
0.31245905160903931 0.61239373683929443 0.20251181721687317
0.6652330756187439 0.71436619758605957 0.26022475957870483
0.88187652826309204 0.75912392139434814 0.30929914116859436
0.06783759593963623 0.25148648023605347 0.39126211404800415
0.078408487141132355 0.25335431098937988 0.3871786892414093
0.1019388809800148 0.25331887602806091 0.3692338764667511
0.17415331304073334 0.26931506395339966 0.35880264639854431
0.49269577860832214 0.3125101625919342 0.35141900181770325
0.65688586235046387 0.31835973262786865 0.36621385812759399
0.77667587995529175 0.34079691767692566 0.46445539593696594
0.068397492170333862 0.26757165789604187 0.39973264932632446
0.077914565801620483 0.2687317430973053 0.39962223172187805
0.10237577557563782 0.2678891122341156 0.37933531403541565
0.17489807307720184 0.28555315732955933 0.36775052547454834
0.50816208124160767 0.34201744198799133 0.36740016937255859
0.67786389589309692 0.34488615393638611 0.3764137327671051
0.80314075946807861 0.37209048867225647 0.4841618537902832
0.068009637296199799 0.281476229429245 0.40728697180747986
0.07957853376865387 0.28417342901229858 0.40651041269302368
0.10162093490362167 0.28818204998970032 0.40254849195480347
0.17502681910991669 0.30598455667495728 0.38947018980979919
0.5180894136428833 0.37113180756568909 0.39171871542930603
0.70307075977325439 0.37901067733764648 0.40618184208869934
0.82255756855010986 0.40817669034004211 0.49899137020111084
0.074094213545322418 0.31710731983184814 0.42133244872093201
0.086879655718803406 0.32135382294654846 0.42281827330589294
0.10355079174041748 0.3266887366771698 0.42539563775062561
0.18145795166492462 0.36017119884490967 0.44918209314346313
0.56791728734970093 0.45619457960128784 0.49134138226509094
0.74123615026473999 0.42024388909339905 0.44572234153747559
0.83586186170578003 0.43893888592720032 0.49467954039573669
0.10745260119438171 0.40194466710090637 0.47004279494285583
0.12114706635475159 0.40919032692909241 0.47154733538627625
0.14014753699302673 0.42249509692192078 0.47851800918579102
0.18123260140419006 0.4487072229385376 0.49330464005470276
0.61517053842544556 0.62988704442977905 0.59736752510070801
0.85123914480209351 0.63471734523773193 0.55795842409133911
0.8531496524810791 0.49410688877105713 0.44681206345558167
0.18519361317157745 0.54622822999954224 0.55501145124435425
0.20189647376537323 0.55551183223724365 0.55619901418685913
0.21801295876502991 0.56792706251144409 0.55601155757904053
0.23374181985855103 0.57900881767272949 0.55034971237182617
0.38492709398269653 0.63913065195083618 0.51931774616241455
0.85424619913101196 0.74112087488174438 0.44546860456466675
0.88081306219100952 0.67563188076019287 0.34036418795585632
0.19195297360420227 0.62156641483306885 0.51624763011932373
0.19514875113964081 0.62010884284973145 0.50084125995635986
0.19055676460266113 0.6100393533706665 0.46345910429954529
0.18836063146591187 0.60389453172683716 0.41248282790184021
0.2482258528470993 0.61524969339370728 0.31919029355049133
0.59233206510543823 0.71396768093109131 0.30383357405662537
0.8827400803565979 0.75566840171813965 0.32006099820137024
0.086933642625808716 0.31787696480751038 0.47695097327232361
0.097228780388832092 0.3204185962677002 0.4783056378364563
0.11781652271747589 0.3259657621383667 0.47180941700935364
0.15567377209663391 0.33271753787994385 0.47035664319992065
0.41589230298995972 0.39975741505622864 0.56386083364486694
0.6753004789352417 0.39417287707328796 0.59453654289245605
0.78331667184829712 0.36854615807533264 0.6134263277053833
0.089398451149463654 0.33596378564834595 0.48789006471633911
0.10022008419036865 0.33639729022979736 0.48729380965232849
0.11643180251121521 0.34047821164131165 0.48391911387443542
0.16568613052368164 0.35131394863128662 0.48153853416442871
0.42780581116676331 0.42393320798873901 0.5785948634147644
0.69341570138931274 0.42179226875305176 0.60828077793121338
0.80263274908065796 0.40416911244392395 0.62900447845458984
0.093985073268413544 0.35338678956031799 0.49956849217414856
0.10443176329135895 0.35283356904983521 0.50101137161254883
0.12105648219585419 0.35352534055709839 0.4967513382434845
0.16681326925754547 0.36509224772453308 0.49511629343032837
0.43902707099914551 0.4476807713508606 0.59239763021469116
0.71299922466278076 0.45061308145523071 0.62660461664199829
0.80980914831161499 0.43866264820098877 0.64035701751708984
0.10053091496229172 0.3746914267539978 0.51209741830825806
0.11026614159345627 0.37288138270378113 0.51073896884918213
0.12331308424472809 0.372129887342453 0.51139706373214722
0.1543959379196167 0.37891706824302673 0.51401609182357788
0.43395999073982239 0.46889698505401611 0.60917407274246216
0.72922611236572266 0.47510769963264465 0.64505088329315186
0.82046794891357422 0.4682374894618988 0.65438103675842285
0.12979894876480103 0.43834805488586426 0.53986746072769165
0.14059194922447205 0.44253718852996826 0.54491430521011353
0.15423785150051117 0.4483792781829834 0.54847800731658936
0.17931391298770905 0.45648476481437683 0.55806320905685425
0.42939835786819458 0.56108468770980835 0.66934347152709961
0.78287458419799805 0.58918362855911255 0.7160106897354126
0.85171806812286377 0.51942259073257446 0.67535591125488281
0.16876231133937836 0.51170939207077026 0.58295935392379761
0.18856814503669739 0.52461200952529907 0.59181660413742065
0.20883958041667938 0.53923523426055908 0.60304588079452515
0.22801557183265686 0.55189484357833862 0.61320251226425171
0.31453099846839905 0.60320544242858887 0.65253663063049316
0.81920886039733887 0.82367396354675293 0.79032230377197266
0.90181958675384521 0.77213352918624878 0.75175744295120239
0.22261784970760345 0.60918545722961426 0.65018105506896973
0.24296285212039948 0.62840890884399414 0.66323506832122803
0.26186648011207581 0.64554029703140259 0.67119675874710083
0.280464768409729 0.6643601655960083 0.67861330509185791
0.29529669880867004 0.67129695415496826 0.66693711280822754
0.44700953364372253 0.74396985769271851 0.63983833789825439
0.90662562847137451 0.85612940788269043 0.60550969839096069
0.10399536788463593 0.3648144006729126 0.53857076168060303
0.11721312254667282 0.37424948811531067 0.55312466621398926
0.13509286940097809 0.38139739632606506 0.55492544174194336
0.16741013526916504 0.38801965117454529 0.56059348583221436
0.39564457535743713 0.44843646883964539 0.69015860557556152
0.70422983169555664 0.44869574904441833 0.75332880020141602
0.78230386972427368 0.42060279846191406 0.72361356019973755
0.11228245496749878 0.39101970195770264 0.56531262397766113
0.1250682920217514 0.39584624767303467 0.569610595703125
0.13711592555046082 0.39853149652481079 0.56878983974456787
0.16417954862117767 0.40210571885108948 0.57091665267944336
0.40894106030464172 0.4751066267490387 0.70248633623123169
0.72113776206970215 0.48291170597076416 0.76876646280288696
0.81686025857925415 0.4537024199962616 0.74405014514923096
0.11946734040975571 0.40947225689888 0.5781552791595459
0.12973585724830627 0.41211482882499695 0.58192551136016846
0.14239582419395447 0.41376030445098877 0.58298927545547485
0.168526291847229 0.41311308741569519 0.57800334692001343
0.40112316608428955 0.49305179715156555 0.70294517278671265
0.7234731912612915 0.51297491788864136 0.7792668342590332
0.82528501749038696 0.49377316236495972 0.76514595746994019
0.128641277551651 0.42599070072174072 0.58788752555847168
0.136122927069664 0.4272417426109314 0.58905541896820068
0.14756900072097778 0.42734560370445251 0.59048628807067871
0.1663224995136261 0.42761889100074768 0.59127271175384521
0.35018396377563477 0.49442732334136963 0.68791866302490234
0.73047566413879395 0.54737961292266846 0.79598915576934814
0.83639359474182129 0.52850723266601562 0.78465282917022705
0.14441998302936554 0.46213126182556152 0.60907620191574097
0.15460635721683502 0.46559685468673706 0.60824453830718994
0.16165362298488617 0.45889276266098022 0.60609889030456543
0.17276777327060699 0.4571278989315033 0.61200731992721558
0.25415760278701782 0.47988894581794739 0.64870458841323853
0.72758501768112183 0.58483278751373291 0.81201839447021484
0.84369826316833496 0.55765438079833984 0.7825927734375
0.18631696701049805 0.54678070545196533 0.64858192205429077
0.20238643884658813 0.55617791414260864 0.65378451347351074
0.21777470409870148 0.56426900625228882 0.6629905104637146
0.23214666545391083 0.56570827960968018 0.66257286071777344
0.26409843564033508 0.57500165700912476 0.68155866861343384
0.68849629163742065 0.71931201219558716 0.83872121572494507
0.88156121969223022 0.69326996803283691 0.84268313646316528
0.21610382199287415 0.59039151668548584 0.66743165254592896
0.22847424447536469 0.60625648498535156 0.68087244033813477
0.24908058345317841 0.61937505006790161 0.68925184011459351
0.26786085963249207 0.6325911283493042 0.70182013511657715
0.28357520699501038 0.64380574226379395 0.71245455741882324
0.40942305326461792 0.706989586353302 0.75859290361404419
0.91893351078033447 0.91896611452102661 0.90307706594467163
