assets/lut/abigailgonzalez cinema 03.cube
# Created by: G'MIC (https://gmic.eu)
TITLE "cinema_3"
# LUT size
LUT_3D_SIZE 13
# Data domain
DOMAIN_MIN 0.0 0.0 0.0
DOMAIN_MAX 1.0 1.0 1.0
# LUT data points
0.051859986037015915 0.058851532638072968 0.060875613242387772
0.069476336240768433 0.058696702122688293 0.056150875985622406
0.10494471341371536 0.063275538384914398 0.050419781357049942
0.16000287234783173 0.073216967284679413 0.045852929353713989
0.22031606733798981 0.084837056696414948 0.0442313551902771
0.29566702246665955 0.10349281132221222 0.049421902745962143
0.36803188920021057 0.12292136251926422 0.056437905877828598
0.43371725082397461 0.15048785507678986 0.067020460963249207
0.49360164999961853 0.18289051949977875 0.078190416097640991
0.54861205816268921 0.21361865103244781 0.088148750364780426
0.58619034290313721 0.23909337818622589 0.095503531396389008
0.62038826942443848 0.26415166258811951 0.10266362875699997
0.63802313804626465 0.27585944533348083 0.10605738312005997
0.049854397773742676 0.065043099224567413 0.057280164211988449
0.066858284175395966 0.068048931658267975 0.055711559951305389
0.10368160158395767 0.07253614068031311 0.051788989454507828
0.16560427844524384 0.085351593792438507 0.048255052417516708
0.23166359961032867 0.099566802382469177 0.046905890107154846
0.30488604307174683 0.11647700518369675 0.050198439508676529
0.37582480907440186 0.13402211666107178 0.058104153722524643
0.44150397181510925 0.15866580605506897 0.068808823823928833
0.50070708990097046 0.19002434611320496 0.079919464886188507
0.55378776788711548 0.22078992426395416 0.089590363204479218
0.59301924705505371 0.24756275117397308 0.096895299851894379
0.62791532278060913 0.27249529957771301 0.10332779586315155
0.6507110595703125 0.2849007248878479 0.10699199885129929
0.047078840434551239 0.085875615477561951 0.059792298823595047
0.063062049448490143 0.087211951613426208 0.059352230280637741
0.10402067750692368 0.091679774224758148 0.05512898787856102
0.16950246691703796 0.10387042164802551 0.049809638410806656
0.24053235352039337 0.11872228235006332 0.047293391078710556
0.31401053071022034 0.13255850970745087 0.050332777202129364
0.38602519035339355 0.14876100420951843 0.059502679854631424
0.45269092917442322 0.17008461058139801 0.070576176047325134
0.51200050115585327 0.2024461030960083 0.082484178245067596
0.56225627660751343 0.23244047164916992 0.092067599296569824
0.6019936203956604 0.25835803151130676 0.099370323121547699
0.63556987047195435 0.28126317262649536 0.10494396835565567
0.66063970327377319 0.29432916641235352 0.10808009654283524
0.045560244470834732 0.11546678841114044 0.065583169460296631
0.058107532560825348 0.11667806655168533 0.065130658447742462
0.090454459190368652 0.12177064269781113 0.062660530209541321
0.16207608580589294 0.13211575150489807 0.055533792823553085
0.24662578105926514 0.14377780258655548 0.048557806760072708
0.33807063102722168 0.16637662053108215 0.054055996239185333
0.41999608278274536 0.19049064815044403 0.066142350435256958
0.48311689496040344 0.20481202006340027 0.077575236558914185
0.53088271617889404 0.22082999348640442 0.086876228451728821
0.57724958658218384 0.25052750110626221 0.097114875912666321
0.61211442947387695 0.27069026231765747 0.10332505404949188
0.64375799894332886 0.29046493768692017 0.10767633467912674
0.66621887683868408 0.30197626352310181 0.11012104898691177
0.045636434108018875 0.14850151538848877 0.072089098393917084
0.053458824753761292 0.14839421212673187 0.069351315498352051
0.079616963863372803 0.1555493026971817 0.071669846773147583
0.14415951073169708 0.17093265056610107 0.067557424306869507
0.25158670544624329 0.18895266950130463 0.059857401996850967
0.36332365870475769 0.20741753280162811 0.060057889670133591
0.45549538731575012 0.23835965991020203 0.075090520083904266
0.52491652965545654 0.26266652345657349 0.091480165719985962
0.56965965032577515 0.27165085077285767 0.099749170243740082
0.60474473237991333 0.2827877402305603 0.10655023902654648
0.63187199831008911 0.29387632012367249 0.11005745828151703
0.65707391500473022 0.30522066354751587 0.11199228465557098
0.6801496148109436 0.31599751114845276 0.11354455351829529
0.045034833252429962 0.1866363137960434 0.079711228609085083
0.055801451206207275 0.19195906817913055 0.076428323984146118
0.073867782950401306 0.19508101046085358 0.076998703181743622
0.1221332773566246 0.21119266748428345 0.075391851365566254
0.23941536247730255 0.24662375450134277 0.075164437294006348
0.382292240858078 0.27306053042411804 0.078166306018829346
0.49079093337059021 0.29372063279151917 0.090363688766956329
0.56793487071990967 0.32082265615463257 0.10681962966918945
0.62147551774978638 0.33658894896507263 0.1146470308303833
0.65281039476394653 0.33860087394714355 0.11805082112550735
0.66822570562362671 0.33501031994819641 0.11845523864030838
0.68801528215408325 0.3421284556388855 0.11922022700309753
0.70206248760223389 0.34786713123321533 0.1201561838388443
0.04901161789894104 0.23664180934429169 0.086742788553237915
0.060640927404165268 0.24362145364284515 0.084676332771778107
0.075246386229991913 0.24618551135063171 0.083328723907470703
0.10721854120492935 0.25809931755065918 0.081248611211776733
0.19374814629554749 0.29362031817436218 0.083840943872928619
0.37090522050857544 0.35310351848602295 0.10283815115690231
0.51934772729873657 0.37160372734069824 0.11507167667150497
0.60729765892028809 0.38352397084236145 0.12344379723072052
0.66893410682678223 0.40157303214073181 0.13100212812423706
0.70644539594650269 0.40835475921630859 0.13325135409832001
0.71540528535842896 0.39736494421958923 0.13116694986820221
0.72544777393341064 0.39268428087234497 0.12951532006263733
0.73177236318588257 0.38783684372901917 0.1285981684923172
0.056390229612588882 0.29536807537078857 0.09393627941608429
0.065609216690063477 0.29884666204452515 0.091369777917861938
0.079959839582443237 0.30643701553344727 0.087222561240196228
0.11161759495735168 0.31758159399032593 0.085586503148078918
0.15719160437583923 0.33769801259040833 0.085966296494007111
0.28371143341064453 0.3948979377746582 0.10252785682678223
0.49178579449653625 0.46237486600875854 0.14246615767478943
0.64038926362991333 0.46822360157966614 0.15067754685878754
0.71400338411331177 0.46954843401908875 0.15022251009941101
0.74828362464904785 0.4735146164894104 0.1486017256975174
0.76551598310470581 0.47249928116798401 0.14642883837223053
0.76696491241455078 0.45081925392150879 0.14091828465461731
0.7658420205116272 0.42737564444541931 0.13589003682136536
0.064364217221736908 0.34433048963546753 0.10141664743423462
0.072616159915924072 0.3475145697593689 0.098984226584434509
0.083860598504543304 0.35477504134178162 0.095574803650379181
0.11207772046327591 0.36674085259437561 0.093390338122844696
0.147166907787323 0.38313111662864685 0.091718681156635284
0.20689219236373901 0.41186496615409851 0.093612700700759888
0.38527119159698486 0.48275253176689148 0.12936252355575562
0.6161811351776123 0.54097217321395874 0.17168597877025604
0.73485255241394043 0.54064923524856567 0.17068976163864136
0.77860736846923828 0.5334773063659668 0.16188785433769226
0.79613673686981201 0.53249400854110718 0.15953990817070007
0.80869966745376587 0.52428245544433594 0.15544019639492035
0.80178725719451904 0.49079069495201111 0.147696852684021
0.070641368627548218 0.38716289401054382 0.11163581162691116
0.07774294912815094 0.39042165875434875 0.1098964586853981
0.087248377501964569 0.39676886796951294 0.10704607516527176
0.11084245890378952 0.4072207510471344 0.1049768477678299
0.14819878339767456 0.42201060056686401 0.10249867290258408
0.19773899018764496 0.44450503587722778 0.099976666271686554
0.28328454494476318 0.48277431726455688 0.10798492282629013
0.51428115367889404 0.56611406803131104 0.1626901775598526
0.71287405490875244 0.60866385698318481 0.19473572075366974
0.78940129280090332 0.59594935178756714 0.18116691708564758
0.81200712919235229 0.58547073602676392 0.17275960743427277
0.82866346836090088 0.58271348476409912 0.1684902161359787
0.83446198701858521 0.57390302419662476 0.16416290402412415
0.076253496110439301 0.42496713995933533 0.12403721362352371
0.080622561275959015 0.42657190561294556 0.122259221971035
0.089863196015357971 0.43236321210861206 0.11947064846754074
0.11035524308681488 0.44318512082099915 0.1162654235959053
0.14725787937641144 0.45834526419639587 0.11150290071964264
0.19063368439674377 0.47750434279441833 0.10715082287788391
0.2613467276096344 0.50820541381835938 0.10997822880744934
0.38582676649093628 0.55862081050872803 0.13172850012779236
0.60527563095092773 0.63064152002334595 0.18636803328990936
0.77573680877685547 0.65851730108261108 0.20769660174846649
0.82225608825683594 0.63843899965286255 0.19092103838920593
0.8378913402557373 0.62871009111404419 0.18238623440265656
0.84962689876556396 0.63212984800338745 0.18172681331634521
0.08316493034362793 0.46659517288208008 0.14373061060905457
0.087788678705692291 0.4685484766960144 0.1419566422700882
0.099731802940368652 0.47798928618431091 0.14200314879417419
0.1221407875418663 0.48875865340232849 0.13573721051216125
0.15523020923137665 0.50160491466522217 0.12759049236774445
0.19430713355541229 0.51563501358032227 0.11860735714435577
0.26226136088371277 0.54182863235473633 0.11776299774646759
0.35252884030342102 0.57906585931777954 0.12965713441371918
0.46883168816566467 0.62329626083374023 0.15605403482913971
0.6735762357711792 0.67710918188095093 0.20360483229160309
0.82088851928710938 0.69320207834243774 0.22270071506500244
0.84522169828414917 0.67840486764907837 0.21000434458255768
0.85032719373703003 0.67597544193267822 0.20968031883239746
0.092078007757663727 0.51020091772079468 0.16805027425289154
0.10007335990667343 0.51266074180603027 0.16654404997825623
0.11255247890949249 0.52372699975967407 0.16697661578655243
0.13639089465141296 0.53313404321670532 0.15750136971473694
0.16889777779579163 0.54361081123352051 0.14539404213428497
0.21566015481948853 0.55526447296142578 0.13381607830524445
0.27051132917404175 0.57561427354812622 0.12694700062274933
0.34095326066017151 0.60012674331665039 0.12958255410194397
0.43486005067825317 0.62967109680175781 0.14967817068099976
0.54587471485137939 0.66625297069549561 0.17861363291740417
0.71777570247650146 0.71006542444229126 0.22431309521198273
0.84868019819259644 0.73107337951660156 0.25104552507400513
0.85528087615966797 0.72604101896286011 0.24989023804664612
0.046725105494260788 0.057391386479139328 0.069956883788108826
0.062800437211990356 0.057781863957643509 0.069644078612327576
0.09713948518037796 0.063496321439743042 0.068191394209861755
0.15388447046279907 0.0720696821808815 0.058402925729751587
0.21763533353805542 0.084056124091148376 0.051953393965959549
0.29269489645957947 0.10172910243272781 0.054044254124164581
0.36678993701934814 0.12434511631727219 0.061392884701490402
0.43861562013626099 0.15410953760147095 0.073246121406555176
0.49574774503707886 0.18282561004161835 0.084416471421718597
0.54646402597427368 0.21097175776958466 0.093638911843299866
0.58792102336883545 0.23723798990249634 0.10079273581504822
0.62211340665817261 0.26098346710205078 0.10680574923753738
0.64684844017028809 0.27442172169685364 0.11137679219245911
0.04675852507352829 0.066449381411075592 0.069300726056098938
0.061572548002004623 0.068132974207401276 0.069515451788902283
0.097467578947544098 0.071993105113506317 0.067587114870548248
0.15710437297821045 0.081806480884552002 0.058106053620576859
0.2232726663351059 0.094275668263435364 0.050226397812366486
0.30061578750610352 0.11248301714658737 0.054467745125293732
0.37610173225402832 0.13480828702449799 0.063256099820137024
0.44753888249397278 0.16127361357212067 0.074682377278804779
0.5027497410774231 0.19088445603847504 0.085477553308010101
0.55308520793914795 0.21991273760795593 0.094891354441642761
0.59448885917663574 0.24670794606208801 0.10179993510246277
0.6300283670425415 0.27046364545822144 0.10791468620300293
0.65652847290039062 0.2849280834197998 0.11193457245826721
0.045461483299732208 0.086456507444381714 0.073654532432556152
0.061083432286977768 0.086713887751102448 0.073407895863056183
0.096974782645702362 0.090435221791267395 0.068704627454280853
0.16128553450107574 0.1019083634018898 0.060546979308128357
0.23414459824562073 0.11523827910423279 0.054025344550609589
0.3097359836101532 0.12846796214580536 0.05604114755988121
0.38593840599060059 0.14907467365264893 0.064836569130420685
0.45611941814422607 0.17312194406986237 0.07712835818529129
0.51304572820663452 0.20287805795669556 0.088010899722576141
0.56184810400009155 0.2317860871553421 0.097307212650775909
0.60199904441833496 0.25690644979476929 0.1042177677154541
0.63699173927307129 0.27987644076347351 0.10989800095558167
0.66299521923065186 0.29352357983589172 0.11342161893844604
0.043920271098613739 0.1160801574587822 0.083799384534358978
0.055443454533815384 0.1161242201924324 0.080885253846645355
0.087227433919906616 0.11926416307687759 0.074128173291683197
0.15864710509777069 0.13098634779453278 0.067018412053585052
0.2452349066734314 0.14606830477714539 0.060105178505182266
0.33380648493766785 0.16542646288871765 0.060480006039142609
0.41748863458633423 0.18958631157875061 0.071641750633716583
0.48012012243270874 0.20360378921031952 0.083081431686878204
0.52927017211914062 0.22181199491024017 0.092659518122673035
0.57687801122665405 0.25003263354301453 0.10186556726694107
0.61122709512710571 0.2683747410774231 0.10736823081970215
0.64491140842437744 0.28927314281463623 0.11248829960823059
0.67199653387069702 0.30289912223815918 0.11599833518266678
0.042801801115274429 0.14996746182441711 0.08985631912946701
0.052064664661884308 0.14907361567020416 0.08468424528837204
0.074059411883354187 0.15199537575244904 0.079658061265945435
0.13878704607486725 0.16597317159175873 0.075414590537548065
0.24769526720046997 0.18594348430633545 0.067940719425678253
0.35808098316192627 0.20717501640319824 0.066945739090442657
0.45388498902320862 0.23830112814903259 0.081853978335857391
0.52048194408416748 0.25917813181877136 0.095522426068782806
0.56445974111557007 0.2661249041557312 0.10327360779047012
0.60251802206039429 0.2781047523021698 0.10910677164793015
0.63027834892272949 0.28957909345626831 0.11241310089826584
0.65819734334945679 0.30304202437400818 0.11604899913072586
0.68418902158737183 0.31737592816352844 0.11976071447134018
0.044797621667385101 0.18924558162689209 0.094493135809898376
0.053395036607980728 0.19014623761177063 0.08878607302904129
0.073946796357631683 0.19564171135425568 0.086399227380752563
0.1169610396027565 0.20788189768791199 0.083333276212215424
0.22947110235691071 0.24268731474876404 0.082872636616230011
0.37571319937705994 0.26971197128295898 0.084874294698238373
0.48770326375961304 0.29047223925590515 0.094845987856388092
0.56627267599105835 0.31926023960113525 0.11091944575309753
0.6188892126083374 0.33346247673034668 0.11956042051315308
0.64831233024597168 0.33116599917411804 0.12170420587062836
0.66602987051010132 0.33045455813407898 0.12139376252889633
0.68814855813980103 0.33737620711326599 0.12272307276725769
0.70761531591415405 0.34532260894775391 0.1244451031088829
0.050147350877523422 0.23812156915664673 0.099518701434135437
0.058750662952661514 0.24231620132923126 0.09469170868396759
0.074322797358036041 0.24716287851333618 0.091821931302547455
0.1018502339720726 0.25540345907211304 0.089501507580280304
0.18485577404499054 0.28884276747703552 0.091688238084316254
0.35843303799629211 0.34639880061149597 0.10877398401498795
0.51381880044937134 0.36811459064483643 0.12078092992305756
0.60405611991882324 0.38257643580436707 0.1297716498374939
0.66715973615646362 0.40157604217529297 0.13744884729385376
0.70861953496932983 0.40905377268791199 0.14021685719490051
0.72007721662521362 0.40064677596092224 0.13768820464611053
0.726673424243927 0.38851055502891541 0.13419196009635925
0.73629331588745117 0.3843533992767334 0.13309517502784729
0.057482745498418808 0.2926526665687561 0.10519685596227646
0.066082611680030823 0.29715567827224731 0.10076057910919189
0.080326378345489502 0.3032495379447937 0.097164511680603027
0.1080901175737381 0.311767578125 0.095299646258354187
0.15440315008163452 0.33401361107826233 0.094020023941993713
0.26840612292289734 0.38585159182548523 0.10721350461244583
0.48040097951889038 0.4533132016658783 0.14584770798683167
0.63619047403335571 0.46901372075080872 0.157260462641716
0.70690542459487915 0.46987128257751465 0.15588365495204926
0.75262206792831421 0.4765620231628418 0.1554916650056839
0.77012914419174194 0.47652792930603027 0.15418927371501923
0.77060478925704956 0.45263060927391052 0.14819122850894928
0.76836806535720825 0.42606189846992493 0.14235235750675201
0.066400028765201569 0.34402826428413391 0.11098179221153259
0.073395028710365295 0.3467923104763031 0.10838359594345093
0.084287233650684357 0.35182815790176392 0.1047876849770546
0.10713605582714081 0.36122345924377441 0.10136078298091888
0.13916075229644775 0.37710541486740112 0.097113639116287231
0.19428570568561554 0.40458187460899353 0.097642369568347931
0.36826291680335999 0.47468531131744385 0.13314314186573029
0.60269373655319214 0.53724551200866699 0.17620620131492615
0.73018175363540649 0.54109561443328857 0.17752483487129211
0.77765166759490967 0.53405237197875977 0.16874194145202637
0.79754388332366943 0.5343584418296814 0.16638070344924927
0.81010442972183228 0.52614748477935791 0.16244453191757202
0.80476087331771851 0.48836013674736023 0.15295480191707611
0.072481580078601837 0.38639706373214722 0.12174199521541595
0.078974209725856781 0.38925871253013611 0.11915609240531921
0.08805122971534729 0.39534831047058105 0.11485528200864792
0.1019086167216301 0.40478333830833435 0.11034722626209259
0.13815714418888092 0.4183901846408844 0.10670910775661469
0.18389612436294556 0.43780121207237244 0.10420136153697968
0.26941069960594177 0.47552710771560669 0.11382912844419479
0.50033968687057495 0.56024265289306641 0.16703684628009796
0.70605242252349854 0.60724204778671265 0.19927933812141418
0.79207342863082886 0.59866529703140259 0.18819807469844818
0.81451445817947388 0.58823955059051514 0.17977689206600189
0.82989513874053955 0.58514231443405151 0.17575553059577942
0.83365744352340698 0.57390624284744263 0.17155405879020691
0.076818995177745819 0.42500001192092896 0.13522797822952271
0.0831184983253479 0.42753255367279053 0.13281308114528656
0.092430621385574341 0.43468442559242249 0.13053537905216217
0.10824821144342422 0.44426724314689636 0.12645797431468964
0.1372254341840744 0.45484203100204468 0.11900335550308228
0.18081606924533844 0.47257766127586365 0.11500118672847748
0.24342674016952515 0.50026857852935791 0.11496955901384354
0.37249031662940979 0.55322057008743286 0.13690178096294403
0.59910178184509277 0.63073140382766724 0.19227699935436249
0.77272546291351318 0.65837091207504272 0.21258130669593811
0.82523322105407715 0.64025497436523438 0.19754534959793091
0.83854407072067261 0.63072782754898071 0.19050401449203491
0.8465043306350708 0.63083529472351074 0.18908645212650299
0.083857037127017975 0.46712064743041992 0.15473082661628723
0.09022897481918335 0.47099679708480835 0.15430489182472229
0.10171118378639221 0.4800737202167511 0.15385086834430695
0.1202004998922348 0.49031969904899597 0.14798694849014282
0.14817613363265991 0.50051045417785645 0.13906215131282806
0.18853496015071869 0.51469147205352783 0.12923164665699005
0.25003278255462646 0.5392460823059082 0.12474947422742844
0.33135885000228882 0.5728919506072998 0.1310177743434906
0.46006080508232117 0.6216658353805542 0.15839675068855286
0.66977250576019287 0.67958265542984009 0.21048718690872192
0.8182748556137085 0.69418793916702271 0.22800961136817932
0.84686148166656494 0.67984884977340698 0.21537907421588898
0.85439229011535645 0.67849719524383545 0.21479886770248413
0.093730822205543518 0.51131719350814819 0.18040260672569275
0.10063542425632477 0.51400589942932129 0.17840616405010223
0.11297973990440369 0.52301925420761108 0.17690290510654449
0.13202868402004242 0.53302633762359619 0.16931414604187012
0.16290490329265594 0.54363459348678589 0.15805326402187347
0.2061149924993515 0.55646103620529175 0.14484092593193054
0.25853043794631958 0.57612437009811401 0.13420374691486359
0.33204656839370728 0.59895086288452148 0.13656355440616608
0.42345544695854187 0.62657368183135986 0.15068012475967407
0.53491580486297607 0.66515982151031494 0.1819128692150116
0.70930451154708862 0.70887076854705811 0.22713437676429749
0.85230338573455811 0.73412013053894043 0.25790113210678101
0.87011301517486572 0.73675072193145752 0.26306116580963135
0.044719323515892029 0.066469155251979828 0.096962660551071167
0.058344852179288864 0.067371875047683716 0.098044194281101227
0.089704342186450958 0.069536097347736359 0.097219638526439667
0.13660198450088501 0.073905378580093384 0.091025285422801971
0.20396578311920166 0.088924989104270935 0.082099258899688721
0.28288102149963379 0.10866060107946396 0.072841674089431763
0.36677569150924683 0.13442565500736237 0.076397866010665894
0.43973198533058167 0.16005039215087891 0.084751680493354797
0.49977922439575195 0.18430516123771667 0.093418776988983154
0.54869312047958374 0.21060407161712646 0.10104386508464813
0.591796875 0.23625369369983673 0.10758163034915924
0.62409758567810059 0.2577909529209137 0.11321939527988434
0.64823085069656372 0.27287349104881287 0.11743291467428207
0.044436167925596237 0.073726475238800049 0.096050575375556946
0.059373624622821808 0.076692633330821991 0.098644033074378967
0.090227074921131134 0.077423140406608582 0.096600957214832306
0.14239531755447388 0.083969861268997192 0.088491387665271759
0.20998398959636688 0.097569003701210022 0.079218722879886627
0.29331007599830627 0.11737262457609177 0.07224542647600174
0.37642210721969604 0.1422928124666214 0.075944267213344574
0.44814604520797729 0.16749495267868042 0.084687761962413788
0.50608384609222412 0.19357195496559143 0.09455610066652298
0.5561443567276001 0.22026820480823517 0.10279028117656708
0.59749007225036621 0.24673093855381012 0.10884713381528854
0.63218015432357788 0.26915860176086426 0.11418790370225906
0.65427428483963013 0.28220012784004211 0.11809501051902771
0.043394409120082855 0.089686281979084015 0.097550548613071442
0.057450506836175919 0.09055531769990921 0.09776604175567627
0.086976461112499237 0.091522559523582458 0.094565629959106445
0.14786215126514435 0.10006869584321976 0.084199078381061554
0.22307506203651428 0.11341029405593872 0.07467920333147049
0.30345591902732849 0.12875764071941376 0.069776423275470734
0.38730326294898987 0.1545771062374115 0.076078779995441437
0.45717546343803406 0.17764030396938324 0.086139261722564697
0.51368945837020874 0.20461335778236389 0.096999466419219971
0.56478631496429443 0.23150207102298737 0.10406649857759476
0.60484212636947632 0.25621891021728516 0.11004650592803955
0.6388971209526062 0.27919885516166687 0.1159888356924057
0.65886157751083374 0.29080313444137573 0.11934172362089157
0.040797244757413864 0.11613106727600098 0.10364318639039993
0.051603756844997406 0.11697691679000854 0.10128815472126007
0.078854762017726898 0.1197974681854248 0.096741892397403717
0.14468531310558319 0.12745176255702972 0.088285930454730988
0.23466140031814575 0.14309945702552795 0.077645473182201385
0.32645067572593689 0.16370061039924622 0.07362288236618042
0.4128815233707428 0.18691490590572357 0.082369394600391388
0.47725227475166321 0.20176886022090912 0.092030346393585205
0.5274505615234375 0.21936881542205811 0.10019471496343613
0.57390981912612915 0.24408966302871704 0.10739189386367798
0.61110711097717285 0.26454219222068787 0.11248831450939178
0.64562404155731201 0.28623425960540771 0.11805132776498795
0.6706688404083252 0.29843729734420776 0.1221751794219017
0.040883097797632217 0.15188238024711609 0.10981143265962601
0.0478045754134655 0.14891481399536133 0.10368658602237701
0.067412421107292175 0.15153717994689941 0.099170103669166565
0.1265953928232193 0.1632164865732193 0.09537544846534729
