assets/lut/abigailgonzalez monochrome 02.cube
# Created by: G'MIC (https://gmic.eu)
TITLE "monochrome_2"
# LUT size
LUT_3D_SIZE 13
# Data domain
DOMAIN_MIN 0.0 0.0 0.0
DOMAIN_MAX 1.0 1.0 1.0
# LUT data points
0.026111781597137451 0.026111781597137451 0.026111781597137451
0.0404471755027771 0.0404471755027771 0.0404471755027771
0.054139483720064163 0.054139483720064163 0.054139483720064163
0.07084018737077713 0.07084018737077713 0.07084018737077713
0.095039159059524536 0.095039159059524536 0.095039159059524536
0.12050075083971024 0.12050075083971024 0.12050075083971024
0.14904330670833588 0.14904330670833588 0.14904330670833588
0.18050090968608856 0.18050090968608856 0.18050090968608856
0.20412489771842957 0.20412489771842957 0.20412489771842957
0.22349424660205841 0.22349424660205841 0.22349424660205841
0.23544700443744659 0.23544700443744659 0.23544700443744659
0.24313630163669586 0.24313630163669586 0.24313630163669586
0.25302368402481079 0.25302368402481079 0.25302368402481079
0.044229678809642792 0.044229678809642792 0.044229678809642792
0.055427283048629761 0.055427283048629761 0.055427283048629761
0.067872002720832825 0.067872002720832825 0.067872002720832825
0.083280615508556366 0.083280615508556366 0.083280615508556366
0.10651786625385284 0.10651786625385284 0.10651786625385284
0.13306589424610138 0.13306589424610138 0.13306589424610138
0.16858392953872681 0.16858392953872681 0.16858392953872681
0.20896278321743011 0.20896278321743011 0.20896278321743011
0.23653638362884521 0.23653638362884521 0.23653638362884521
0.25225943326950073 0.25225943326950073 0.25225943326950073
0.26511776447296143 0.26511776447296143 0.26511776447296143
0.28566774725914001 0.28566774725914001 0.28566774725914001
0.30647733807563782 0.30647733807563782 0.30647733807563782
0.065766245126724243 0.065766245126724243 0.065766245126724243
0.075661227107048035 0.075661227107048035 0.075661227107048035
0.086977817118167877 0.086977817118167877 0.086977817118167877
0.10013964772224426 0.10013964772224426 0.10013964772224426
0.12106218189001083 0.12106218189001083 0.12106218189001083
0.15413665771484375 0.15413665771484375 0.15413665771484375
0.19719360768795013 0.19719360768795013 0.19719360768795013
0.24275092780590057 0.24275092780590057 0.24275092780590057
0.27629247307777405 0.27629247307777405 0.27629247307777405
0.2951311469078064 0.2951311469078064 0.2951311469078064
0.31557503342628479 0.31557503342628479 0.31557503342628479
0.34422704577445984 0.34422704577445984 0.34422704577445984
0.36678838729858398 0.36678838729858398 0.36678838729858398
0.087078914046287537 0.087078914046287537 0.087078914046287537
0.097528226673603058 0.097528226673603058 0.097528226673603058
0.10917762666940689 0.10917762666940689 0.10917762666940689
0.12116450816392899 0.12116450816392899 0.12116450816392899
0.14207819104194641 0.14207819104194641 0.14207819104194641
0.18572255969047546 0.18572255969047546 0.18572255969047546
0.23168730735778809 0.23168730735778809 0.23168730735778809
0.27898693084716797 0.27898693084716797 0.27898693084716797
0.32100081443786621 0.32100081443786621 0.32100081443786621
0.34750965237617493 0.34750965237617493 0.34750965237617493
0.37336212396621704 0.37336212396621704 0.37336212396621704
0.40149033069610596 0.40149033069610596 0.40149033069610596
0.42545026540756226 0.42545026540756226 0.42545026540756226
0.1145998015999794 0.1145998015999794 0.1145998015999794
0.126704141497612 0.126704141497612 0.126704141497612
0.13970537483692169 0.13970537483692169 0.13970537483692169
0.15400558710098267 0.15400558710098267 0.15400558710098267
0.18000464141368866 0.18000464141368866 0.18000464141368866
0.22220461070537567 0.22220461070537567 0.22220461070537567
0.26775568723678589 0.26775568723678589 0.26775568723678589
0.31551152467727661 0.31551152467727661 0.31551152467727661
0.36332139372825623 0.36332139372825623 0.36332139372825623
0.40033161640167236 0.40033161640167236 0.40033161640167236
0.42957049608230591 0.42957049608230591 0.42957049608230591
0.45665201544761658 0.45665201544761658 0.45665201544761658
0.47948703169822693 0.47948703169822693 0.47948703169822693
0.15526928007602692 0.15526928007602692 0.15526928007602692
0.16065903007984161 0.16065903007984161 0.16065903007984161
0.17228740453720093 0.17228740453720093 0.17228740453720093
0.18896153569221497 0.18896153569221497 0.18896153569221497
0.21965563297271729 0.21965563297271729 0.21965563297271729
0.26134181022644043 0.26134181022644043 0.26134181022644043
0.30598384141921997 0.30598384141921997 0.30598384141921997
0.35324707627296448 0.35324707627296448 0.35324707627296448
0.4007689356803894 0.4007689356803894 0.4007689356803894
0.44168677926063538 0.44168677926063538 0.44168677926063538
0.47784793376922607 0.47784793376922607 0.47784793376922607
0.50574463605880737 0.50574463605880737 0.50574463605880737
0.52749377489089966 0.52749377489089966 0.52749377489089966
0.1992214173078537 0.1992214173078537 0.1992214173078537
0.1972939521074295 0.1972939521074295 0.1972939521074295
0.20532312989234924 0.20532312989234924 0.20532312989234924
0.22473606467247009 0.22473606467247009 0.22473606467247009
0.25947552919387817 0.25947552919387817 0.25947552919387817
0.30095133185386658 0.30095133185386658 0.30095133185386658
0.34628787636756897 0.34628787636756897 0.34628787636756897
0.3932308554649353 0.3932308554649353 0.3932308554649353
0.44000107049942017 0.44000107049942017 0.44000107049942017
0.4843495786190033 0.4843495786190033 0.4843495786190033
0.5190315842628479 0.5190315842628479 0.5190315842628479
0.5458827018737793 0.5458827018737793 0.5458827018737793
0.56764203310012817 0.56764203310012817 0.56764203310012817
0.24251829087734222 0.24251829087734222 0.24251829087734222
0.23712438344955444 0.23712438344955444 0.23712438344955444
0.23996154963970184 0.23996154963970184 0.23996154963970184
0.26209253072738647 0.26209253072738647 0.26209253072738647
0.30004632472991943 0.30004632472991943 0.30004632472991943
0.34268894791603088 0.34268894791603088 0.34268894791603088
0.3886895477771759 0.3886895477771759 0.3886895477771759
0.43595448136329651 0.43595448136329651 0.43595448136329651
0.48284491896629333 0.48284491896629333 0.48284491896629333
0.52760499715805054 0.52760499715805054 0.52760499715805054
0.55897444486618042 0.55897444486618042 0.55897444486618042
0.58323872089385986 0.58323872089385986 0.58323872089385986
0.60453337430953979 0.60453337430953979 0.60453337430953979
0.27819764614105225 0.27819764614105225 0.27819764614105225
0.27499127388000488 0.27499127388000488 0.27499127388000488
0.27665230631828308 0.27665230631828308 0.27665230631828308
0.30188322067260742 0.30188322067260742 0.30188322067260742
0.34232088923454285 0.34232088923454285 0.34232088923454285
0.38478249311447144 0.38478249311447144 0.38478249311447144
0.43062078952789307 0.43062078952789307 0.43062078952789307
0.47855487465858459 0.47855487465858459 0.47855487465858459
0.52468550205230713 0.52468550205230713 0.52468550205230713
0.56390368938446045 0.56390368938446045 0.56390368938446045
0.59286403656005859 0.59286403656005859 0.59286403656005859
0.61825191974639893 0.61825191974639893 0.61825191974639893
0.63979315757751465 0.63979315757751465 0.63979315757751465
0.31533312797546387 0.31533312797546387 0.31533312797546387
0.31187546253204346 0.31187546253204346 0.31187546253204346
0.31281086802482605 0.31281086802482605 0.31281086802482605
0.33421826362609863 0.33421826362609863 0.33421826362609863
0.37685343623161316 0.37685343623161316 0.37685343623161316
0.42082393169403076 0.42082393169403076 0.42082393169403076
0.46846768260002136 0.46846768260002136 0.46846768260002136
0.51775223016738892 0.51775223016738892 0.51775223016738892
0.56156712770462036 0.56156712770462036 0.56156712770462036
0.59564787149429321 0.59564787149429321 0.59564787149429321
0.62651503086090088 0.62651503086090088 0.62651503086090088
0.65333223342895508 0.65333223342895508 0.65333223342895508
0.67618817090988159 0.67618817090988159 0.67618817090988159
0.35239562392234802 0.35239562392234802 0.35239562392234802
0.34987261891365051 0.34987261891365051 0.34987261891365051
0.34995967149734497 0.34995967149734497 0.34995967149734497
0.36339560151100159 0.36339560151100159 0.36339560151100159
0.40336519479751587 0.40336519479751587 0.40336519479751587
0.45258250832557678 0.45258250832557678 0.45258250832557678
0.50287657976150513 0.50287657976150513 0.50287657976150513
0.55403274297714233 0.55403274297714233 0.55403274297714233
0.5949518084526062 0.5949518084526062 0.5949518084526062
0.62670934200286865 0.62670934200286865 0.62670934200286865
0.65848469734191895 0.65848469734191895 0.65848469734191895
0.6834183931350708 0.6834183931350708 0.6834183931350708
0.69931399822235107 0.69931399822235107 0.69931399822235107
0.3821968138217926 0.3821968138217926 0.3821968138217926
0.38322600722312927 0.38322600722312927 0.38322600722312927
0.3857860267162323 0.3857860267162323 0.3857860267162323
0.39298802614212036 0.39298802614212036 0.39298802614212036
0.42386868596076965 0.42386868596076965 0.42386868596076965
0.47735992074012756 0.47735992074012756 0.47735992074012756
0.53393441438674927 0.53393441438674927 0.53393441438674927
0.58660745620727539 0.58660745620727539 0.58660745620727539
0.62469106912612915 0.62469106912612915 0.62469106912612915
0.6572577953338623 0.6572577953338623 0.6572577953338623
0.68747365474700928 0.68747365474700928 0.68747365474700928
0.70990389585494995 0.70990389585494995 0.70990389585494995
0.72621613740921021 0.72621613740921021 0.72621613740921021
0.40974357724189758 0.40974357724189758 0.40974357724189758
0.40980091691017151 0.40980091691017151 0.40980091691017151
0.41213110089302063 0.41213110089302063 0.41213110089302063
0.41756239533424377 0.41756239533424377 0.41756239533424377
0.4367060661315918 0.4367060661315918 0.4367060661315918
0.48972707986831665 0.48972707986831665 0.48972707986831665
0.55281281471252441 0.55281281471252441 0.55281281471252441
0.61380583047866821 0.61380583047866821 0.61380583047866821
0.64773052930831909 0.64773052930831909 0.64773052930831909
0.68180388212203979 0.68180388212203979 0.68180388212203979
0.71412867307662964 0.71412867307662964 0.71412867307662964
0.73449313640594482 0.73449313640594482 0.73449313640594482
0.75379455089569092 0.75379455089569092 0.75379455089569092
0.039279773831367493 0.039279773831367493 0.039279773831367493
0.050824902951717377 0.050824902951717377 0.050824902951717377
0.065582811832427979 0.065582811832427979 0.065582811832427979
0.083271697163581848 0.083271697163581848 0.083271697163581848
0.10442227870225906 0.10442227870225906 0.10442227870225906
0.12852604687213898 0.12852604687213898 0.12852604687213898
0.15365929901599884 0.15365929901599884 0.15365929901599884
0.17716650664806366 0.17716650664806366 0.17716650664806366
0.20092426240444183 0.20092426240444183 0.20092426240444183
0.2223474532365799 0.2223474532365799 0.2223474532365799
0.23769138753414154 0.23769138753414154 0.23769138753414154
0.24725757539272308 0.24725757539272308 0.24725757539272308
0.25586456060409546 0.25586456060409546 0.25586456060409546
0.051113143563270569 0.051113143563270569 0.051113143563270569
0.060905411839485168 0.060905411839485168 0.060905411839485168
0.073723256587982178 0.073723256587982178 0.073723256587982178
0.090167388319969177 0.090167388319969177 0.090167388319969177
0.11346724629402161 0.11346724629402161 0.11346724629402161
0.14172421395778656 0.14172421395778656 0.14172421395778656
0.1759091317653656 0.1759091317653656 0.1759091317653656
0.20576074719429016 0.20576074719429016 0.20576074719429016
0.22660206258296967 0.22660206258296967 0.22660206258296967
0.24559666216373444 0.24559666216373444 0.24559666216373444
0.26116037368774414 0.26116037368774414 0.26116037368774414
0.28006824851036072 0.28006824851036072 0.28006824851036072
0.29995512962341309 0.29995512962341309 0.29995512962341309
0.068617604672908783 0.068617604672908783 0.068617604672908783
0.077209800481796265 0.077209800481796265 0.077209800481796265
0.089890047907829285 0.089890047907829285 0.089890047907829285
0.10541516542434692 0.10541516542434692 0.10541516542434692
0.12988203763961792 0.12988203763961792 0.12988203763961792
0.1641375869512558 0.1641375869512558 0.1641375869512558
0.20457880198955536 0.20457880198955536 0.20457880198955536
0.24385756254196167 0.24385756254196167 0.24385756254196167
0.26771259307861328 0.26771259307861328 0.26771259307861328
0.28566431999206543 0.28566431999206543 0.28566431999206543
0.30694663524627686 0.30694663524627686 0.30694663524627686
0.33510497212409973 0.33510497212409973 0.33510497212409973
0.35793036222457886 0.35793036222457886 0.35793036222457886
0.091727495193481445 0.091727495193481445 0.091727495193481445
0.10023967921733856 0.10023967921733856 0.10023967921733856
0.11333510279655457 0.11333510279655457 0.11333510279655457
0.12941561639308929 0.12941561639308929 0.12941561639308929
0.15485605597496033 0.15485605597496033 0.15485605597496033
0.19311125576496124 0.19311125576496124 0.19311125576496124
0.23723393678665161 0.23723393678665161 0.23723393678665161
0.28183203935623169 0.28183203935623169 0.28183203935623169
0.31555134057998657 0.31555134057998657 0.31555134057998657
0.3398166298866272 0.3398166298866272 0.3398166298866272
0.36519283056259155 0.36519283056259155 0.36519283056259155
0.39278337359428406 0.39278337359428406 0.39278337359428406
0.41455376148223877 0.41455376148223877 0.41455376148223877
0.12459520995616913 0.12459520995616913 0.12459520995616913
0.13232022523880005 0.13232022523880005 0.13232022523880005
0.14546395838260651 0.14546395838260651 0.14546395838260651
0.1620560884475708 0.1620560884475708 0.1620560884475708
0.18722745776176453 0.18722745776176453 0.18722745776176453
0.22779481112957001 0.22779481112957001 0.22779481112957001
0.27283072471618652 0.27283072471618652 0.27283072471618652
0.31885656714439392 0.31885656714439392 0.31885656714439392
0.36195236444473267 0.36195236444473267 0.36195236444473267
0.39611175656318665 0.39611175656318665 0.39611175656318665
0.42571249604225159 0.42571249604225159 0.42571249604225159
0.45081591606140137 0.45081591606140137 0.45081591606140137
0.47004097700119019 0.47004097700119019 0.47004097700119019
0.16499195992946625 0.16499195992946625 0.16499195992946625
0.17005157470703125 0.17005157470703125 0.17005157470703125
0.17957603931427002 0.17957603931427002 0.17957603931427002
0.19589489698410034 0.19589489698410034 0.19589489698410034
0.22431106865406036 0.22431106865406036 0.22431106865406036
0.26543459296226501 0.26543459296226501 0.26543459296226501
0.31019413471221924 0.31019413471221924 0.31019413471221924
0.35620996356010437 0.35620996356010437 0.35620996356010437
0.40104261040687561 0.40104261040687561 0.40104261040687561
0.44021144509315491 0.44021144509315491 0.44021144509315491
0.47792848944664001 0.47792848944664001 0.47792848944664001
0.50332862138748169 0.50332862138748169 0.50332862138748169
0.52262520790100098 0.52262520790100098 0.52262520790100098
0.20840072631835938 0.20840072631835938 0.20840072631835938
0.20985013246536255 0.20985013246536255 0.20985013246536255
0.2138681560754776 0.2138681560754776 0.2138681560754776
0.23005695641040802 0.23005695641040802 0.23005695641040802
0.26091894507408142 0.26091894507408142 0.26091894507408142
0.30248174071311951 0.30248174071311951 0.30248174071311951
0.34851577877998352 0.34851577877998352 0.34851577877998352
0.39534631371498108 0.39534631371498108 0.39534631371498108
0.44160234928131104 0.44160234928131104 0.44160234928131104
0.48559027910232544 0.48559027910232544 0.48559027910232544
0.51969277858734131 0.51969277858734131 0.51969277858734131
0.54293715953826904 0.54293715953826904 0.54293715953826904
0.56303441524505615 0.56303441524505615 0.56303441524505615
0.25054028630256653 0.25054028630256653 0.25054028630256653
0.2477823942899704 0.2477823942899704 0.2477823942899704
0.24954834580421448 0.24954834580421448 0.24954834580421448
0.26483726501464844 0.26483726501464844 0.26483726501464844
0.29776385426521301 0.29776385426521301 0.29776385426521301
0.33998647332191467 0.33998647332191467 0.33998647332191467
0.38788440823554993 0.38788440823554993 0.38788440823554993
0.43615487217903137 0.43615487217903137 0.43615487217903137
0.48351991176605225 0.48351991176605225 0.48351991176605225
0.53152233362197876 0.53152233362197876 0.53152233362197876
0.56122332811355591 0.56122332811355591 0.56122332811355591
0.58305883407592773 0.58305883407592773 0.58305883407592773
0.60420560836791992 0.60420560836791992 0.60420560836791992
0.28626921772956848 0.28626921772956848 0.28626921772956848
0.28479495644569397 0.28479495644569397 0.28479495644569397
0.28765007853507996 0.28765007853507996 0.28765007853507996
0.3018781840801239 0.3018781840801239 0.3018781840801239
0.33777642250061035 0.33777642250061035 0.33777642250061035
0.38163954019546509 0.38163954019546509 0.38163954019546509
0.42989572882652283 0.42989572882652283 0.42989572882652283
0.47811546921730042 0.47811546921730042 0.47811546921730042
0.52505218982696533 0.52505218982696533 0.52505218982696533
0.56665307283401489 0.56665307283401489 0.56665307283401489
0.59641438722610474 0.59641438722610474 0.59641438722610474
0.6210440993309021 0.6210440993309021 0.6210440993309021
0.642403244972229 0.642403244972229 0.642403244972229
0.3215174674987793 0.3215174674987793 0.3215174674987793
0.32086953520774841 0.32086953520774841 0.32086953520774841
0.32398334145545959 0.32398334145545959 0.32398334145545959
0.33729013800621033 0.33729013800621033 0.33729013800621033
0.3738914430141449 0.3738914430141449 0.3738914430141449
0.41861692070960999 0.41861692070960999 0.41861692070960999
0.46787050366401672 0.46787050366401672 0.46787050366401672
0.5173686146736145 0.5173686146736145 0.5173686146736145
0.5628056526184082 0.5628056526184082 0.5628056526184082
0.59865677356719971 0.59865677356719971 0.59865677356719971
0.63033777475357056 0.63033777475357056 0.63033777475357056
0.65621817111968994 0.65621817111968994 0.65621817111968994
0.67541253566741943 0.67541253566741943 0.67541253566741943
0.35709989070892334 0.35709989070892334 0.35709989070892334
0.3575650155544281 0.3575650155544281 0.3575650155544281
0.36069336533546448 0.36069336533546448 0.36069336533546448
0.37156528234481812 0.37156528234481812 0.37156528234481812
0.40705469250679016 0.40705469250679016 0.40705469250679016
0.4522978663444519 0.4522978663444519 0.4522978663444519
0.50262176990509033 0.50262176990509033 0.50262176990509033
0.55666369199752808 0.55666369199752808 0.55666369199752808
0.59815657138824463 0.59815657138824463 0.59815657138824463
0.62982797622680664 0.62982797622680664 0.62982797622680664
0.66298383474349976 0.66298383474349976 0.66298383474349976
0.68710410594940186 0.68710410594940186 0.68710410594940186
0.69944608211517334 0.69944608211517334 0.69944608211517334
0.38738417625427246 0.38738417625427246 0.38738417625427246
0.38938012719154358 0.38938012719154358 0.38938012719154358
0.39376956224441528 0.39376956224441528 0.39376956224441528
0.40201526880264282 0.40201526880264282 0.40201526880264282
0.43302720785140991 0.43302720785140991 0.43302720785140991
0.47932463884353638 0.47932463884353638 0.47932463884353638
0.53393107652664185 0.53393107652664185 0.53393107652664185
0.58957922458648682 0.58957922458648682 0.58957922458648682
0.62787884473800659 0.62787884473800659 0.62787884473800659
0.66072386503219604 0.66072386503219604 0.66072386503219604
0.692607581615448 0.692607581615448 0.692607581615448
0.71455138921737671 0.71455138921737671 0.71455138921737671
0.72814995050430298 0.72814995050430298 0.72814995050430298
0.41454318165779114 0.41454318165779114 0.41454318165779114
0.41488054394721985 0.41488054394721985 0.41488054394721985
0.41804072260856628 0.41804072260856628 0.41804072260856628
0.42411014437675476 0.42411014437675476 0.42411014437675476
0.44331270456314087 0.44331270456314087 0.44331270456314087
0.48831257224082947 0.48831257224082947 0.48831257224082947
0.55008512735366821 0.55008512735366821 0.55008512735366821
0.61492419242858887 0.61492419242858887 0.61492419242858887
0.65069115161895752 0.65069115161895752 0.65069115161895752
0.68586450815200806 0.68586450815200806 0.68586450815200806
0.71853911876678467 0.71853911876678467 0.71853911876678467
0.73898422718048096 0.73898422718048096 0.73898422718048096
0.75769412517547607 0.75769412517547607 0.75769412517547607
0.052845660597085953 0.052845660597085953 0.052845660597085953
0.062622010707855225 0.062622010707855225 0.062622010707855225
0.078704223036766052 0.078704223036766052 0.078704223036766052
0.096954226493835449 0.096954226493835449 0.096954226493835449
0.11701908707618713 0.11701908707618713 0.11701908707618713
0.14030790328979492 0.14030790328979492 0.14030790328979492
0.16296233236789703 0.16296233236789703 0.16296233236789703
0.18447960913181305 0.18447960913181305 0.18447960913181305
0.20520901679992676 0.20520901679992676 0.20520901679992676
0.22379682958126068 0.22379682958126068 0.22379682958126068
0.23910598456859589 0.23910598456859589 0.23910598456859589
0.25108101963996887 0.25108101963996887 0.25108101963996887
0.25911885499954224 0.25911885499954224 0.25911885499954224
0.062993459403514862 0.062993459403514862 0.062993459403514862
0.070100821554660797 0.070100821554660797 0.070100821554660797
0.083014652132987976 0.083014652132987976 0.083014652132987976
0.10066502541303635 0.10066502541303635 0.10066502541303635
0.12472043186426163 0.12472043186426163 0.12472043186426163
0.15590777993202209 0.15590777993202209 0.15590777993202209
0.18485024571418762 0.18485024571418762 0.18485024571418762
0.20599819719791412 0.20599819719791412 0.20599819719791412
0.2255471795797348 0.2255471795797348 0.2255471795797348
0.24341525137424469 0.24341525137424469 0.24341525137424469
0.25893387198448181 0.25893387198448181 0.25893387198448181
0.27515187859535217 0.27515187859535217 0.27515187859535217
0.29160892963409424 0.29160892963409424 0.29160892963409424
0.074904486536979675 0.074904486536979675 0.074904486536979675
0.082099899649620056 0.082099899649620056 0.082099899649620056
0.094814866781234741 0.094814866781234741 0.094814866781234741
0.10952167958021164 0.10952167958021164 0.10952167958021164
0.13960397243499756 0.13960397243499756 0.13960397243499756
0.17637291550636292 0.17637291550636292 0.17637291550636292
0.21211056411266327 0.21211056411266327 0.21211056411266327
0.24062167108058929 0.24062167108058929 0.24062167108058929
0.26117762923240662 0.26117762923240662 0.26117762923240662
0.27826112508773804 0.27826112508773804 0.27826112508773804
0.29675447940826416 0.29675447940826416 0.29675447940826416
0.31826150417327881 0.31826150417327881 0.31826150417327881
0.33699068427085876 0.33699068427085876 0.33699068427085876
0.097064182162284851 0.097064182162284851 0.097064182162284851
0.10428867489099503 0.10428867489099503 0.10428867489099503
0.11949742585420609 0.11949742585420609 0.11949742585420609
0.13612329959869385 0.13612329959869385 0.13612329959869385
0.16359445452690125 0.16359445452690125 0.16359445452690125
0.20018438994884491 0.20018438994884491 0.20018438994884491
0.24187318980693817 0.24187318980693817 0.24187318980693817
0.2829454243183136 0.2829454243183136 0.2829454243183136
0.3111191987991333 0.3111191987991333 0.3111191987991333
0.33280253410339355 0.33280253410339355 0.33280253410339355
0.35525527596473694 0.35525527596473694 0.35525527596473694
0.37491172552108765 0.37491172552108765 0.37491172552108765
0.39240762591362 0.39240762591362 0.39240762591362
0.13450020551681519 0.13450020551681519 0.13450020551681519
0.13886865973472595 0.13886865973472595 0.13886865973472595
0.15169493854045868 0.15169493854045868 0.15169493854045868
0.16934531927108765 0.16934531927108765 0.16934531927108765
0.19160610437393188 0.19160610437393188 0.19160610437393188
0.23139666020870209 0.23139666020870209 0.23139666020870209
0.27826383709907532 0.27826383709907532 0.27826383709907532
