assets/lut/abigailgonzalez fuji hdr.cube
# Created by: G'MIC (https://gmic.eu)
TITLE "fuji_hdr"
# LUT size
LUT_3D_SIZE 13
# Data domain
DOMAIN_MIN 0.0 0.0 0.0
DOMAIN_MAX 1.0 1.0 1.0
# LUT data points
0.021801413968205452 0.033733952790498734 0.037502303719520569
0.11737439036369324 0.02905731275677681 0.044811278581619263
0.25423511862754822 0.030348340049386024 0.041666951030492783
0.37852185964584351 0.033662803471088409 0.039728321135044098
0.48218387365341187 0.035922989249229431 0.039628002792596817
0.56956058740615845 0.040258236229419708 0.04206433892250061
0.62975186109542847 0.047270651906728745 0.045308806002140045
0.67413938045501709 0.052943840622901917 0.044500388205051422
0.70961421728134155 0.058171544224023819 0.03767559677362442
0.73982667922973633 0.062634006142616272 0.032301120460033417
0.76766973733901978 0.063116498291492462 0.036805965006351471
0.79376453161239624 0.060487963259220123 0.043694231659173965
0.82107174396514893 0.055454015731811523 0.048644557595252991
0.02511412650346756 0.10684263706207275 0.027333337813615799
0.10999505966901779 0.1025591716170311 0.023199297487735748
0.21693894267082214 0.10269960761070251 0.028108514845371246
0.30918332934379578 0.10477649420499802 0.03222351148724556
0.40293166041374207 0.10343118011951447 0.032185513526201248
0.49704587459564209 0.10463932901620865 0.035851124674081802
0.57159483432769775 0.10879069566726685 0.041989553719758987
0.63017958402633667 0.11007406562566757 0.042395811527967453
0.67753434181213379 0.11070529371500015 0.036504350602626801
0.7158694863319397 0.11115935444831848 0.030708836391568184
0.74793469905853271 0.1094440221786499 0.031777564436197281
0.77572768926620483 0.10580975562334061 0.035304199904203415
0.80369436740875244 0.10080906003713608 0.038134030997753143
0.041994985193014145 0.18428850173950195 0.028399059548974037
0.11139024049043655 0.18251253664493561 0.023623298853635788
0.198579341173172 0.18267104029655457 0.026425739750266075
0.27925679087638855 0.18335799872875214 0.030986292287707329
0.36379018425941467 0.18122963607311249 0.035213351249694824
0.45284318923950195 0.18139953911304474 0.04193529486656189
0.53291791677474976 0.18303193151950836 0.048530697822570801
0.60270959138870239 0.17937083542346954 0.049468081444501877
0.65916401147842407 0.17460706830024719 0.04835263267159462
0.70300257205963135 0.17074650526046753 0.046938937157392502
0.73684471845626831 0.1663227379322052 0.044287364929914474
0.76420706510543823 0.16101919114589691 0.041042342782020569
0.79224056005477905 0.15482568740844727 0.039868671447038651
0.071792915463447571 0.26223066449165344 0.03943755105137825
0.13062514364719391 0.26113879680633545 0.03493969514966011
0.20293803513050079 0.26184520125389099 0.03537335991859436
0.27761763334274292 0.26351022720336914 0.039062619209289551
0.3577728271484375 0.26303458213806152 0.046033449470996857
0.4431077241897583 0.26191955804824829 0.055065557360649109
0.52328157424926758 0.26067924499511719 0.061098285019397736
0.59515970945358276 0.25555366277694702 0.064083322882652283
0.65451061725616455 0.24913132190704346 0.068611472845077515
0.69977641105651855 0.24333488941192627 0.072981290519237518
0.7337881326675415 0.23658303916454315 0.068805500864982605
0.76064044237136841 0.22846910357475281 0.060094960033893585
0.78849416971206665 0.2196747362613678 0.054665599018335342
0.10581059008836746 0.34666845202445984 0.05194459855556488
0.15773169696331024 0.34551697969436646 0.04749877005815506
0.21758493781089783 0.34615835547447205 0.046863000839948654
0.28250157833099365 0.34786608815193176 0.050773005932569504
0.35731208324432373 0.34736540913581848 0.058355458080768585
0.44326749444007874 0.34352824091911316 0.067167691886425018
0.52709925174713135 0.3395792543888092 0.073700025677680969
0.60054212808609009 0.33487555384635925 0.080070436000823975
0.66080260276794434 0.32902765274047852 0.087879866361618042
0.70740222930908203 0.32229110598564148 0.093587182462215424
0.74182301759719849 0.31433039903640747 0.090790934860706329
0.76887363195419312 0.30405065417289734 0.083005271852016449
0.79741817712783813 0.29266825318336487 0.076109915971755981
0.14199773967266083 0.43726471066474915 0.064349308609962463
0.19033268094062805 0.43546053767204285 0.059946861118078232
0.24044185876846313 0.43492993712425232 0.05945548415184021
0.29126700758934021 0.43484669923782349 0.063695944845676422
0.35515663027763367 0.43357333540916443 0.070522546768188477
0.4388134777545929 0.42843401432037354 0.077036932110786438
0.52752155065536499 0.42223715782165527 0.083573482930660248
0.60645210742950439 0.41636243462562561 0.091699816286563873
0.67302227020263672 0.40964582562446594 0.10070481896400452
0.72404938936233521 0.40228208899497986 0.10617084801197052
0.76053744554519653 0.39383551478385925 0.10567236691713333
0.7904096245765686 0.38255620002746582 0.10095253586769104
0.82162827253341675 0.3691290020942688 0.095209382474422455
0.17804162204265594 0.52869230508804321 0.075845427811145782
0.2249688059091568 0.52553427219390869 0.072242230176925659
0.2686716616153717 0.52272814512252808 0.072663836181163788
0.30610281229019165 0.52058964967727661 0.076963581144809723
0.35820695757865906 0.51777678728103638 0.081920385360717773
0.43467617034912109 0.51260340213775635 0.085441485047340393
0.5226777195930481 0.50606697797775269 0.09021468460559845
0.6081891655921936 0.49860352277755737 0.09787585586309433
0.68361461162567139 0.48988801240921021 0.10640755295753479
0.74167996644973755 0.48178625106811523 0.11202174425125122
0.78312128782272339 0.47397524118423462 0.11322741210460663
0.81823813915252686 0.46253246068954468 0.11084169894456863
0.85328066349029541 0.44914531707763672 0.1071939691901207
0.21230177581310272 0.61404764652252197 0.084890581667423248
0.25502026081085205 0.61000531911849976 0.082560025155544281
0.28989079594612122 0.60605591535568237 0.083094626665115356
0.31981286406517029 0.60280436277389526 0.086527854204177856
0.36446404457092285 0.5992656946182251 0.089663684368133545
0.43386664986610413 0.59468430280685425 0.091230474412441254
0.51856511831283569 0.58862864971160889 0.09411119669675827
0.60723650455474854 0.57989299297332764 0.10025974363088608
0.68793123960494995 0.57032257318496704 0.10744410753250122
0.75281977653503418 0.5619996190071106 0.1122753694653511
0.80231034755706787 0.55489635467529297 0.11384947597980499
0.84445160627365112 0.546245276927948 0.11263605952262878
0.88297337293624878 0.535209059715271 0.11124730110168457
0.24511846899986267 0.68865346908569336 0.091020308434963226
0.2811090350151062 0.68571436405181885 0.090529605746269226
0.30645760893821716 0.68307149410247803 0.091043330729007721
0.32960665225982666 0.68084543943405151 0.092788055539131165
0.37008491158485413 0.67774862051010132 0.094578027725219727
0.43748754262924194 0.67267948389053345 0.095831327140331268
0.52146404981613159 0.66610211133956909 0.097657389938831329
0.61029189825057983 0.65716886520385742 0.10156607627868652
0.69278055429458618 0.64773929119110107 0.10619562119245529
0.76222336292266846 0.63970845937728882 0.10959906131029129
0.81821972131729126 0.63409119844436646 0.11045747995376587
0.86603623628616333 0.62900805473327637 0.10989894717931747
0.9082222580909729 0.62160009145736694 0.11017918586730957
0.2705172598361969 0.75593852996826172 0.095132984220981598
0.302712082862854 0.75431644916534424 0.096775799989700317
0.32253775000572205 0.75365501642227173 0.098057731986045837
0.34260103106498718 0.75302970409393311 0.099128499627113342
0.38104158639907837 0.75078308582305908 0.10008362680673599
0.44970306754112244 0.74532091617584229 0.10076859593391418
0.53269737958908081 0.7380484938621521 0.1014857292175293
0.61921292543411255 0.72946947813034058 0.10292650014162064
0.70023059844970703 0.72053200006484985 0.10521962493658066
0.77112537622451782 0.71268123388290405 0.10656276345252991
0.83015602827072144 0.70727658271789551 0.10650324821472168
0.88129943609237671 0.70318365097045898 0.10604409873485565
0.92701339721679688 0.69672155380249023 0.10976789891719818
0.28458979725837708 0.81970137357711792 0.098574630916118622
0.31492540240287781 0.81958812475204468 0.10192520916461945
0.33717447519302368 0.8197668194770813 0.10435333102941513
0.36212176084518433 0.8197929859161377 0.10553977638483047
0.40413022041320801 0.817970871925354 0.10572758316993713
0.46935856342315674 0.81320381164550781 0.10534543544054031
0.54835522174835205 0.80618488788604736 0.10478650033473969
0.63095903396606445 0.79838299751281738 0.10427229851484299
0.70910942554473877 0.78979992866516113 0.10537847131490707
0.77847534418106079 0.78215336799621582 0.10607887804508209
0.83809596300125122 0.77551460266113281 0.10775803029537201
0.89063644409179688 0.76897281408309937 0.11006689816713333
0.93828433752059937 0.76060950756072998 0.11683779209852219
0.2915860116481781 0.88161545991897583 0.10253352671861649
0.32180988788604736 0.88219541311264038 0.10609296709299088
0.3490368127822876 0.88341218233108521 0.10917944461107254
0.38103446364402771 0.88402456045150757 0.11012695729732513
0.42679348587989807 0.88254886865615845 0.10939371585845947
0.48906776309013367 0.87868505716323853 0.10794124007225037
0.56350487470626831 0.87270438671112061 0.1061321496963501
0.64229613542556763 0.86531102657318115 0.10579892247915268
0.71797758340835571 0.85724329948425293 0.10608746111392975
0.78502249717712402 0.84959787130355835 0.10982417315244675
0.84295171499252319 0.84190338850021362 0.1170681044459343
0.89482426643371582 0.83343493938446045 0.12644787132740021
0.94315254688262939 0.82441204786300659 0.14007110893726349
0.29600286483764648 0.94371426105499268 0.10588701814413071
0.32677984237670898 0.94525408744812012 0.10891301929950714
0.35823231935501099 0.94710314273834229 0.11046586930751801
0.39537566900253296 0.94771885871887207 0.11100906878709793
0.44303774833679199 0.94715571403503418 0.1098218709230423
0.50345760583877563 0.94421082735061646 0.10913045704364777
0.57394266128540039 0.93901371955871582 0.10647247731685638
0.64975005388259888 0.93221569061279297 0.10713807493448257
0.72374820709228516 0.92463487386703491 0.11020694673061371
0.79000318050384521 0.91707444190979004 0.11875860393047333
0.84647238254547119 0.90943849086761475 0.1339070200920105
0.89662623405456543 0.90093165636062622 0.15240262448787689
0.9447292685508728 0.8923267126083374 0.17442558705806732
0.02284749411046505 0.04301014170050621 0.11369093507528305
0.10621456056833267 0.026266269385814667 0.10765400528907776
0.22227178514003754 0.018121682107448578 0.10427418351173401
0.33785706758499146 0.015615006908774376 0.097272001206874847
0.4487672746181488 0.015938134863972664 0.08812357485294342
0.54282671213150024 0.021996831521391869 0.087232001125812531
0.6163637638092041 0.031732238829135895 0.091316461563110352
0.67268764972686768 0.037434402853250504 0.091317027807235718
0.71630573272705078 0.043003682047128677 0.083558656275272369
0.75111722946166992 0.049138866364955902 0.075783252716064453
0.77927058935165405 0.052007891237735748 0.078933641314506531
0.80333077907562256 0.051834121346473694 0.083936534821987152
0.82839357852935791 0.047657806426286697 0.083806075155735016
0.021298667415976524 0.11357074975967407 0.10416276007890701
0.099649123847484589 0.09672284871339798 0.094966277480125427
0.20034779608249664 0.087986484169960022 0.092784374952316284
0.2974153459072113 0.081683427095413208 0.084589146077632904
0.39459359645843506 0.074798911809921265 0.07075953483581543
0.48773577809333801 0.077638261020183563 0.07081189751625061
0.56850409507751465 0.084652692079544067 0.078109875321388245
0.63454151153564453 0.085900142788887024 0.078776434063911438
0.68806582689285278 0.087423525750637054 0.071716815233230591
0.73183637857437134 0.089908257126808167 0.062655366957187653
0.76431500911712646 0.090415149927139282 0.060470834374427795
0.78905576467514038 0.089481666684150696 0.061159364879131317
0.81374859809875488 0.086584992706775665 0.061055410653352737
0.035027388483285904 0.1825312077999115 0.096269570291042328
0.1006106361746788 0.17562411725521088 0.090763509273529053
0.1908687949180603 0.17319570481777191 0.084639094769954681
0.28099316358566284 0.16758567094802856 0.076937943696975708
0.36835157871246338 0.15866951644420624 0.069769524037837982
0.45702987909317017 0.15607129037380219 0.069635190069675446
0.54030930995941162 0.15642483532428741 0.072253882884979248
0.61374402046203613 0.15327733755111694 0.070960894227027893
0.67435425519943237 0.14942416548728943 0.069622531533241272
0.72187334299087524 0.14653998613357544 0.066157892346382141
0.75632023811340332 0.1436946839094162 0.059989646077156067
0.78053838014602661 0.14107926189899445 0.05445658415555954
0.80465680360794067 0.13694348931312561 0.051632869988679886
0.059946514666080475 0.25293123722076416 0.097435668110847473
0.11464888602495193 0.2516007125377655 0.089492350816726685
0.1897444874048233 0.25399211049079895 0.082491107285022736
0.2724640965461731 0.25488027930259705 0.077106818556785583
0.35818877816200256 0.2510664165019989 0.076179355382919312
0.4460848867893219 0.24631175398826599 0.077542036771774292
0.5304189920425415 0.24161428213119507 0.078058831393718719
0.6063808798789978 0.23526684939861298 0.078312985599040985
0.66885221004486084 0.22924405336380005 0.082547895610332489
0.71646606922149658 0.22425571084022522 0.085211329162120819
0.75139975547790527 0.21926812827587128 0.078539453446865082
0.77672827243804932 0.2125285416841507 0.068232320249080658
0.80274397134780884 0.20397840440273285 0.06185932457447052
0.088641494512557983 0.33594325184822083 0.099345490336418152
0.13539873063564301 0.33546382188796997 0.088998876512050629
0.19551803171634674 0.33878141641616821 0.080475077033042908
0.26691552996635437 0.34213036298751831 0.077437952160835266
0.34944930672645569 0.34147268533706665 0.079924426972866058
0.43930476903915405 0.33696061372756958 0.084698744118213654
0.52767717838287354 0.33092454075813293 0.08793187141418457
0.60516250133514404 0.3248215913772583 0.093303874135017395
0.66874462366104126 0.31890004873275757 0.10089126229286194
0.71788209676742554 0.31320101022720337 0.10481748729944229
0.75380605459213257 0.30662146210670471 0.10021322220563889
0.78158265352249146 0.29601877927780151 0.090590424835681915
0.81019240617752075 0.28240424394607544 0.082833006978034973
0.12035986036062241 0.42878046631813049 0.10172908753156662
0.16183926165103912 0.42746263742446899 0.089552603662014008
0.21001636981964111 0.42855212092399597 0.080955982208251953
0.2680911123752594 0.42924055457115173 0.080196470022201538
0.3429771363735199 0.42764070630073547 0.084845632314682007
0.43305125832557678 0.42345350980758667 0.089254938066005707
0.52513498067855835 0.41800466179847717 0.09475669264793396
0.60647505521774292 0.41307342052459717 0.10413537174463272
0.67479997873306274 0.40754741430282593 0.11390700936317444
0.72772479057312012 0.40094903111457825 0.11803605407476425
0.76599287986755371 0.39309152960777283 0.1158781498670578
0.79689961671829224 0.38106948137283325 0.11000153422355652
0.82860767841339111 0.36518356204032898 0.10381867736577988
0.15448200702667236 0.52295416593551636 0.10401234030723572
0.19306851923465729 0.51997071504592896 0.092628940939903259
0.23263928294181824 0.51738667488098145 0.086498945951461792
0.27857205271720886 0.51410049200057983 0.089237362146377563
0.34304848313331604 0.51056194305419922 0.092948630452156067
0.42863571643829346 0.50666123628616333 0.093626432120800018
0.52166521549224854 0.50184297561645508 0.098236799240112305
0.60930269956588745 0.4965149462223053 0.10757100582122803
0.68393534421920776 0.49022066593170166 0.11747988313436508
0.74176537990570068 0.48356255888938904 0.12339045107364655
0.78396797180175781 0.47592318058013916 0.12362352013587952
0.81978398561477661 0.46440041065216064 0.12026140093803406
0.85457503795623779 0.44940009713172913 0.11603393405675888
0.18948701024055481 0.61004334688186646 0.10457974672317505
0.22529543936252594 0.60639101266860962 0.095624051988124847
0.25736472010612488 0.60225629806518555 0.091469347476959229
0.29356840252876282 0.59762424230575562 0.093720890581607819
0.34910500049591064 0.59321290254592896 0.096325144171714783
0.42811077833175659 0.58884543180465698 0.096527665853500366
0.51970261335372925 0.58358168601989746 0.099829807877540588
0.61073118448257446 0.57726174592971802 0.10742160677909851
0.69043397903442383 0.57023221254348755 0.11605734378099442
0.75350868701934814 0.56368958950042725 0.12194046378135681
0.80235552787780762 0.5567706823348999 0.12311766296625137
0.84361052513122559 0.5474892258644104 0.12058819085359573
0.88215315341949463 0.53490042686462402 0.11782069504261017
0.22395783662796021 0.68647927045822144 0.10337216407060623
0.25752782821655273 0.68345862627029419 0.097955621778964996
0.28124994039535522 0.68046396970748901 0.095107614994049072
0.31000277400016785 0.67721086740493774 0.0961800217628479
0.35972481966018677 0.67322468757629395 0.098231203854084015
0.43473193049430847 0.66808021068572998 0.099651947617530823
0.52421021461486816 0.66195356845855713 0.10222174227237701
0.61478489637374878 0.65503895282745361 0.10693635791540146
0.69612747430801392 0.6478390097618103 0.1127917543053627
0.76324057579040527 0.64142489433288574 0.11679482460021973
0.81781119108200073 0.63511210680007935 0.11711224168539047
0.86443036794662476 0.62804168462753296 0.11485912650823593
0.90724188089370728 0.61762803792953491 0.11428981274366379
0.25012224912643433 0.75536978244781494 0.10212361812591553
0.28305375576019287 0.75323927402496338 0.10096863657236099
0.30242112278938293 0.7518271803855896 0.10015833377838135
0.3287656307220459 0.75062978267669678 0.10130120068788528
0.37637817859649658 0.74724191427230835 0.10348162055015564
0.44941297173500061 0.7419896125793457 0.10518781095743179
0.53540819883346558 0.73553502559661865 0.1063053086400032
0.62272995710372925 0.72869455814361572 0.10783781111240387
0.70264512300491333 0.72174417972564697 0.11016363650560379
0.77061218023300171 0.71527433395385742 0.11185921728610992
0.82866907119750977 0.70878368616104126 0.1109103187918663
0.88041132688522339 0.70136404037475586 0.1084514707326889
0.9271388053894043 0.69148969650268555 0.11066653579473495
0.260282963514328 0.82073622941970825 0.10175634920597076
0.29191157221794128 0.81967687606811523 0.10293092578649521
0.31619969010353088 0.81912398338317871 0.10596893727779388
0.34713917970657349 0.81870484352111816 0.10816532373428345
0.39667835831642151 0.81613707542419434 0.10951536893844604
0.46743178367614746 0.81133222579956055 0.11035935580730438
0.54874312877655029 0.80536603927612305 0.10982009023427963
0.6323285698890686 0.79863607883453369 0.10853959619998932
0.70986902713775635 0.79189330339431763 0.10831809043884277
0.77661556005477905 0.7854992151260376 0.10942138731479645
0.8360443115234375 0.77806740999221802 0.10996405035257339
0.8910292387008667 0.76839613914489746 0.10953828692436218
0.94098508358001709 0.7574390172958374 0.11450367420911789
0.26234441995620728 0.88455855846405029 0.10203641653060913
0.2940363883972168 0.88428044319152832 0.10589638352394104
0.32440993189811707 0.88446474075317383 0.11121628433465958
0.36120963096618652 0.88424074649810791 0.11318745464086533
0.41285023093223572 0.88258820772171021 0.11258304119110107
0.48017585277557373 0.87882411479949951 0.11143161356449127
0.55786120891571045 0.87332803010940552 0.11048111319541931
0.63944512605667114 0.86667323112487793 0.10832709819078445
0.71770095825195312 0.85960721969604492 0.10746598988771439
0.78536748886108398 0.85282450914382935 0.11088100075721741
0.84350824356079102 0.84503316879272461 0.11796596646308899
0.8970981240272522 0.83500421047210693 0.12686498463153839
0.94735848903656006 0.82459127902984619 0.14002381265163422
0.26372599601745605 0.94783866405487061 0.10383883863687515
0.29560747742652893 0.94830197095870972 0.1075870618224144
0.32972025871276855 0.94903385639190674 0.11263708770275116
0.37029904127120972 0.9496539831161499 0.11336696892976761
0.42203187942504883 0.94899743795394897 0.1105443462729454
0.4862576425075531 0.9461594820022583 0.10980392247438431
0.56097960472106934 0.94140243530273438 0.1095457524061203
0.64184504747390747 0.93493103981018066 0.10869345813989639
0.72188609838485718 0.92764830589294434 0.10997343063354492
0.79083645343780518 0.92064094543457031 0.11798857152462006
0.8479074239730835 0.91375255584716797 0.13460242748260498
0.89935708045959473 0.90553140640258789 0.15577946603298187
0.94919389486312866 0.89667969942092896 0.17994727194309235
0.025037951767444611 0.056058172136545181 0.22894424200057983
0.096659250557422638 0.031384322792291641 0.21168985962867737
0.20033982396125793 0.018916245549917221 0.19961501657962799
0.31330865621566772 0.014519695192575455 0.18571373820304871
0.42144092917442322 0.013598677702248096 0.16970978677272797
0.51745235919952393 0.019347157329320908 0.16228426992893219
0.60370880365371704 0.029795479029417038 0.16062545776367188
0.67766833305358887 0.035272065550088882 0.15455585718154907
0.73066705465316772 0.037238534539937973 0.14600029587745667
0.76848173141479492 0.040549080818891525 0.13820835947990417
0.79574382305145264 0.043806802481412888 0.13699100911617279
0.81749612092971802 0.045237477868795395 0.13622204959392548
0.84091645479202271 0.041772849857807159 0.12912836670875549
0.027010420337319374 0.12479113042354584 0.20079004764556885
0.086938627064228058 0.096657648682594299 0.19656381011009216
0.18267571926116943 0.084062241017818451 0.1923694908618927
0.28928032517433167 0.076656371355056763 0.17810401320457458
0.38765263557434082 0.069296233355998993 0.15573225915431976
0.48009622097015381 0.069794431328773499 0.14584077894687653
0.56666594743728638 0.074346311390399933 0.14327818155288696
0.64426416158676147 0.073320202529430389 0.13661731779575348
0.70644986629486084 0.072160236537456512 0.12777657806873322
0.75403904914855957 0.072420023381710052 0.11680736392736435
0.78660255670547485 0.073364496231079102 0.10868383944034576
0.8082466721534729 0.075069308280944824 0.10268133133649826
0.82966405153274536 0.073448106646537781 0.096920236945152283
0.036666091531515121 0.18248306214809418 0.18207177519798279
0.087830021977424622 0.17145280539989471 0.18236489593982697
0.17331549525260925 0.17080080509185791 0.17993961274623871
0.27650362253189087 0.1651550680398941 0.16738680005073547
0.37264928221702576 0.1529788076877594 0.14867232739925385
0.46401324868202209 0.14550736546516418 0.13638417422771454
0.55116838216781616 0.14087431132793427 0.12655332684516907
0.63092160224914551 0.13413934409618378 0.11632572114467621
0.69659674167633057 0.12813469767570496 0.11216387152671814
0.74763971567153931 0.12406507134437561 0.10499367862939835
0.78264564275741577 0.1224316731095314 0.09339410811662674
0.80332666635513306 0.12194342166185379 0.084020920097827911
0.82417160272598267 0.11891820281744003 0.076876819133758545
0.051817905157804489 0.243909552693367 0.17199334502220154
0.095559276640415192 0.24520091712474823 0.16682757437229156
0.16534414887428284 0.25525152683258057 0.15948979556560516
0.25910788774490356 0.25888797640800476 0.1495254784822464
0.35980468988418579 0.25031450390815735 0.14059488475322723
0.45459327101707458 0.23997457325458527 0.13183678686618805
0.54360687732696533 0.22938913106918335 0.12115886807441711
0.62495094537734985 0.21769729256629944 0.11239092797040939
0.69129699468612671 0.20912843942642212 0.11199194192886353
0.74171465635299683 0.20435686409473419 0.10961290448904037
0.77665752172470093 0.20152398943901062 0.10031545162200928
0.80100935697555542 0.19603054225444794 0.088449962437152863
0.82527095079421997 0.18657486140727997 0.080296486616134644
0.072723627090454102 0.32586660981178284 0.16207993030548096
0.10993929207324982 0.32870763540267944 0.14914646744728088
0.16486148536205292 0.33919382095336914 0.13476657867431641
0.24366232752799988 0.34648638963699341 0.12585951387882233
0.34147101640701294 0.34489926695823669 0.12535281479358673
