assets/lut/abigailgonzalez cinema 05.cube
# Created by: G'MIC (https://gmic.eu)
TITLE "cinema_5"
# LUT size
LUT_3D_SIZE 13
# Data domain
DOMAIN_MIN 0.0 0.0 0.0
DOMAIN_MAX 1.0 1.0 1.0
# LUT data points
0.03473784402012825 0.032999403774738312 0.047940615564584732
0.10452023893594742 0.041798938065767288 0.049713253974914551
0.18324853479862213 0.049283478409051895 0.048720356076955795
0.26715514063835144 0.053842656314373016 0.046376410871744156
0.34352996945381165 0.060481186956167221 0.052986562252044678
0.411935955286026 0.067615821957588196 0.064030833542346954
0.48411440849304199 0.076530769467353821 0.075242690742015839
0.56825608015060425 0.087541066110134125 0.089132077991962433
0.66387146711349487 0.098925918340682983 0.1015021950006485
0.76366281509399414 0.11220246553421021 0.11436498165130615
0.85383999347686768 0.1270950585603714 0.12728016078472137
0.92063421010971069 0.14022016525268555 0.13914808630943298
0.9641115665435791 0.1490510106086731 0.14821946620941162
0.024419911205768585 0.09567655622959137 0.049089573323726654
0.089754335582256317 0.10096938163042068 0.048662897199392319
0.17287170886993408 0.10675768554210663 0.047470767050981522
0.26729157567024231 0.11394713073968887 0.043888930231332779
0.35746997594833374 0.12016594409942627 0.045239273458719254
0.43665844202041626 0.12604533135890961 0.054735563695430756
0.50810593366622925 0.1377190500497818 0.072862498462200165
0.59391885995864868 0.14985983073711395 0.087209708988666534
0.69310355186462402 0.16200500726699829 0.099167332053184509
0.79333549737930298 0.17564059793949127 0.11278827488422394
0.87971705198287964 0.19020447134971619 0.12544967234134674
0.94088351726531982 0.20366111397743225 0.13435038924217224
0.97844821214675903 0.2143121212720871 0.14284534752368927
0.016815783455967903 0.15714684128761292 0.053645100444555283
0.07400214672088623 0.16177201271057129 0.052677392959594727
0.15594390034675598 0.16776497662067413 0.05203845351934433
0.25696554780006409 0.17605289816856384 0.049873292446136475
0.35574093461036682 0.18152174353599548 0.045235097408294678
0.44204255938529968 0.18399092555046082 0.046226605772972107
0.52187979221343994 0.19166719913482666 0.058441311120986938
0.61782294511795044 0.20369300246238708 0.069763153791427612
0.72127360105514526 0.21956707537174225 0.082847654819488525
0.81806778907775879 0.23520016670227051 0.099084340035915375
0.89707463979721069 0.24998518824577332 0.11357516050338745
0.95144271850585938 0.26400694251060486 0.12252242118120193
0.98549002408981323 0.27765011787414551 0.13330742716789246
0.010755620896816254 0.21728029847145081 0.059095807373523712
0.057584051042795181 0.22228546440601349 0.057499170303344727
0.13172508776187897 0.23009860515594482 0.057547401636838913
0.23539334535598755 0.24183733761310577 0.058632928878068924
0.3423803448677063 0.25094661116600037 0.05669790506362915
0.43330550193786621 0.25207877159118652 0.052235592156648636
0.5259709358215332 0.25167810916900635 0.049585200846195221
0.63367968797683716 0.25943019986152649 0.048717692494392395
0.74085068702697754 0.27815324068069458 0.056896418333053589
0.83514100313186646 0.29820910096168518 0.073058217763900757
0.90929710865020752 0.31600332260131836 0.090243592858314514
0.95894348621368408 0.33189183473587036 0.10571977496147156
0.99015146493911743 0.34550198912620544 0.12243782728910446
0.0074263927526772022 0.27540954947471619 0.065370894968509674
0.043473906815052032 0.28082641959190369 0.062768436968326569
0.10387901216745377 0.29022526741027832 0.062204848974943161
0.20646904408931732 0.30579006671905518 0.06707783043384552
0.32514923810958862 0.32029733061790466 0.07096341997385025
0.42291462421417236 0.32389861345291138 0.066888116300106049
0.51819396018981934 0.32099735736846924 0.057467814534902573
0.62854772806167603 0.3242315948009491 0.046089574694633484
0.74267774820327759 0.3426964282989502 0.041850879788398743
0.84233295917510986 0.36676836013793945 0.050386734306812286
0.91734719276428223 0.38998645544052124 0.065498694777488708
0.96530354022979736 0.40585172176361084 0.085309036076068878
0.9932098388671875 0.41518875956535339 0.1072845458984375
0.0095053724944591522 0.33502700924873352 0.073732800781726837
0.038601383566856384 0.34050941467285156 0.069578416645526886
0.086683370172977448 0.34947991371154785 0.068038016557693481
0.1744658499956131 0.36532676219940186 0.071516029536724091
0.29127496480941772 0.38344559073448181 0.07645309716463089
0.40607461333274841 0.39397901296615601 0.076794341206550598
0.50793427228927612 0.39415648579597473 0.070034682750701904
0.61570280790328979 0.39582517743110657 0.057625520974397659
0.73391902446746826 0.41165217757225037 0.046790763735771179
0.84096932411193848 0.4386478066444397 0.044901546090841293
0.92099994421005249 0.46788650751113892 0.052370604127645493
0.96891152858734131 0.48325935006141663 0.069534182548522949
0.99443513154983521 0.48471897840499878 0.093003936111927032
0.014583856798708439 0.40310630202293396 0.08245377242565155
0.040046032518148422 0.40627658367156982 0.077218733727931976
0.076628439128398895 0.41310366988182068 0.073716029524803162
0.14333818852901459 0.42724937200546265 0.072732351720333099
0.24988019466400146 0.44614145159721375 0.075143299996852875
0.38152256608009338 0.46298104524612427 0.079366527497768402
0.49951469898223877 0.47000625729560852 0.078871004283428192
0.60911661386489868 0.47471481561660767 0.071797341108322144
0.72679054737091064 0.48766723275184631 0.061821836978197098
0.83582049608230591 0.51328879594802856 0.05473988875746727
0.91756480932235718 0.54257094860076904 0.055227570235729218
0.96719914674758911 0.55573904514312744 0.067198611795902252
0.99369210004806519 0.55223971605300903 0.087121643126010895
0.017265170812606812 0.48020920157432556 0.091905258595943451
0.041803427040576935 0.48055517673492432 0.085566818714141846
0.069578863680362701 0.48652777075767517 0.079482361674308777
0.11880074441432953 0.49923944473266602 0.073965318500995636
0.21343676745891571 0.51744914054870605 0.072953425347805023
0.35507640242576599 0.5376400351524353 0.079006612300872803
0.48967093229293823 0.5515637993812561 0.084313787519931793
0.60629212856292725 0.56140363216400146 0.084359250962734222
0.72405040264129639 0.57439672946929932 0.079143509268760681
0.83110314607620239 0.59497809410095215 0.072844289243221283
0.9128042459487915 0.61655598878860474 0.070512734353542328
0.96415126323699951 0.6254393458366394 0.07664567232131958
0.99329179525375366 0.62094676494598389 0.091135717928409576
0.017568551003932953 0.56501942873001099 0.10318814218044281
0.042536206543445587 0.56595677137374878 0.096112750470638275
0.068129010498523712 0.57222604751586914 0.088010750710964203
0.11285413801670074 0.58452486991882324 0.080394655466079712
0.20105758309364319 0.60201364755630493 0.076949596405029297
0.33605208992958069 0.6220470666885376 0.080962024629116058
0.48015502095222473 0.63939052820205688 0.089100584387779236
0.61052292585372925 0.65321403741836548 0.095714285969734192
0.72886425256729126 0.66644161939620972 0.096099376678466797
0.83208394050598145 0.68123316764831543 0.092838555574417114
0.91219758987426758 0.6947479248046875 0.091015025973320007
0.96542656421661377 0.70000761747360229 0.092857643961906433
0.99572944641113281 0.69453310966491699 0.10217829793691635
0.016947204247117043 0.64965903759002686 0.1130872368812561
0.042963080108165741 0.65328305959701538 0.10669993609189987
0.070835515856742859 0.66048389673233032 0.098552092909812927
0.11412884294986725 0.67234742641448975 0.090304113924503326
0.19448094069957733 0.68844771385192871 0.085367567837238312
0.32145917415618896 0.7068677544593811 0.087189696729183197
0.47326990962028503 0.72504621744155884 0.097227878868579865
0.61817502975463867 0.74075376987457275 0.10864658653736115
0.73962491750717163 0.75260090827941895 0.11403617262840271
0.83755606412887573 0.76148819923400879 0.11244243383407593
0.91382390260696411 0.76877903938293457 0.11001806706190109
0.96725249290466309 0.77155923843383789 0.10986859351396561
0.9976574182510376 0.76425981521606445 0.11465225368738174
0.014747858978807926 0.72003984451293945 0.11658008396625519
0.042083695530891418 0.72744685411453247 0.11215736716985703
0.071512393653392792 0.73655366897583008 0.10630792379379272
0.11054523289203644 0.74766647815704346 0.099302090704441071
0.18041048943996429 0.76180523633956909 0.094806626439094543
0.30205792188644409 0.7783890962600708 0.09746946394443512
0.46332284808158875 0.79508298635482788 0.10871116816997528
0.62197470664978027 0.8122832179069519 0.12239343672990799
0.74685090780258179 0.82267695665359497 0.12899953126907349
0.83882737159729004 0.82621651887893677 0.12846888601779938
0.91037410497665405 0.82820862531661987 0.12490808963775635
0.96455156803131104 0.82749634981155396 0.12357719242572784
0.99739283323287964 0.82028692960739136 0.1252313107252121
0.0097765307873487473 0.77320808172225952 0.11218219995498657
0.036624308675527573 0.7825624942779541 0.11044501513242722
0.06404423713684082 0.79171478748321533 0.10720547288656235
0.10050505399703979 0.80129009485244751 0.10323593765497208
0.1652529239654541 0.81212854385375977 0.10156188905239105
0.28187981247901917 0.82438719272613525 0.10584854334592819
0.44296899437904358 0.83930814266204834 0.11695318669080734
0.60466980934143066 0.85726994276046753 0.13025262951850891
0.73160684108734131 0.86783552169799805 0.13802771270275116
0.82357543706893921 0.87050557136535645 0.13858568668365479
0.89561319351196289 0.87094289064407349 0.1352536529302597
0.95279043912887573 0.86933773756027222 0.13234204053878784
0.99337172508239746 0.86368906497955322 0.13192564249038696
0.0037083644419908524 0.81379157304763794 0.10319811105728149
0.0268746018409729 0.82267355918884277 0.10357403010129929
0.054068218916654587 0.83044624328613281 0.10264856368303299
0.091755717992782593 0.83708864450454712 0.10201182961463928
0.15643136203289032 0.84352511167526245 0.10347983986139297
0.26657998561859131 0.85118305683135986 0.10889186710119247
0.4146721363067627 0.86365032196044922 0.11833468824625015
0.56622213125228882 0.88125836849212646 0.12989515066146851
0.69312095642089844 0.8935127854347229 0.13815836608409882
0.79056209325790405 0.89863240718841553 0.14066527783870697
0.86854994297027588 0.90110963582992554 0.1395038366317749
0.93181079626083374 0.90134042501449585 0.13673222064971924
0.98128718137741089 0.89846068620681763 0.13659416139125824
0.028767978772521019 0.03744075819849968 0.13833819329738617
0.10046666115522385 0.040413562208414078 0.14442272484302521
0.18710069358348846 0.042756609618663788 0.13682952523231506
0.27794241905212402 0.047011759132146835 0.12036877870559692
0.35422360897064209 0.055587694048881531 0.11452527344226837
0.41863757371902466 0.062469616532325745 0.11424554884433746
0.48726487159729004 0.069633767008781433 0.11781246960163116
0.56655657291412354 0.080739520490169525 0.13076198101043701
0.66200453042984009 0.094482704997062683 0.14657559990882874
0.76710528135299683 0.11077083647251129 0.16341882944107056
0.86144894361495972 0.12838201224803925 0.17777241766452789
0.92545294761657715 0.14076080918312073 0.18777841329574585
0.96209591627120972 0.14744892716407776 0.19495508074760437
0.017651606351137161 0.10520751029253006 0.13785691559314728
0.078838303685188293 0.10821163654327393 0.13770963251590729
0.16887848079204559 0.10952172428369522 0.13200855255126953
0.27258780598640442 0.11623694002628326 0.12248189747333527
0.36138895153999329 0.12974818050861359 0.12424186617136002
0.44308584928512573 0.13657443225383759 0.12841644883155823
0.51843523979187012 0.14688539505004883 0.14022080600261688
0.6015893816947937 0.15710771083831787 0.14961577951908112
0.69860506057739258 0.16880059242248535 0.15992078185081482
0.80082714557647705 0.18376801908016205 0.17470698058605194
0.8894420862197876 0.20101690292358398 0.18880182504653931
0.94641590118408203 0.21735836565494537 0.19948340952396393
0.97687864303588867 0.22866658866405487 0.20861949026584625
0.015031642280519009 0.1700243353843689 0.13935166597366333
0.064675875008106232 0.17305167019367218 0.13769188523292542
0.14758987724781036 0.1762111485004425 0.1354825347661972
0.25797140598297119 0.1840924471616745 0.13406360149383545
0.36346107721328735 0.19407111406326294 0.13249872624874115
0.45817276835441589 0.19971191883087158 0.13236300647258759
0.54375898838043213 0.20896624028682709 0.13993182778358459
0.63728469610214233 0.22013168036937714 0.14672183990478516
0.73511797189712524 0.23557908833026886 0.15894415974617004
0.8298802375793457 0.25069040060043335 0.17518578469753265
0.90722954273223877 0.26705345511436462 0.19128929078578949
0.95616614818572998 0.28715848922729492 0.20456311106681824
0.98337781429290771 0.30503958463668823 0.21830551326274872
0.01107660960406065 0.23465591669082642 0.1403108537197113
0.053769819438457489 0.23697948455810547 0.13990110158920288
0.12673342227935791 0.24155887961387634 0.14029483497142792
0.23326334357261658 0.25051060318946838 0.14175406098365784
0.34652402997016907 0.25960221886634827 0.14070895314216614
0.44789081811904907 0.26423639059066772 0.13673429191112518
0.54975396394729614 0.26734235882759094 0.13092796504497528
0.66288667917251587 0.27523890137672424 0.12606741487979889
0.76307547092437744 0.29611146450042725 0.13744591176509857
0.85245931148529053 0.31600400805473328 0.1553729772567749
0.92181038856506348 0.33359166979789734 0.17394883930683136
0.96453392505645752 0.35407054424285889 0.19378985464572906
0.98875218629837036 0.37283116579055786 0.21414762735366821
0.0090374220162630081 0.29449990391731262 0.14264613389968872
0.044940680265426636 0.29777941107749939 0.1426355242729187
0.10585041344165802 0.30302327871322632 0.14467251300811768
0.20298492908477783 0.31337577104568481 0.14873957633972168
0.31730502843856812 0.32470345497131348 0.15129761397838593
0.42321011424064636 0.33121636509895325 0.14841116964817047
0.52927595376968384 0.3337557315826416 0.13851252198219299
0.65151280164718628 0.34031987190246582 0.124850794672966
0.76605552434921265 0.35987108945846558 0.12187571823596954
0.86311811208724976 0.38308081030845642 0.13039827346801758
0.93290817737579346 0.40461689233779907 0.14735384285449982
0.97287231683731079 0.42329958081245422 0.17135155200958252
0.99360537528991699 0.43570622801780701 0.19734328985214233
0.011291040107607841 0.35543698072433472 0.14648441970348358
0.041290685534477234 0.35785454511642456 0.14662322402000427
0.089257724583148956 0.36181598901748657 0.14926838874816895
0.17128874361515045 0.37231600284576416 0.15356190502643585
0.2808375358581543 0.38630771636962891 0.15761145949363708
0.39477354288101196 0.39731985330581665 0.15810315310955048
0.50547343492507935 0.40299797058105469 0.15129318833351135
0.62587487697601318 0.41014629602432251 0.13775192201137543
0.75023072957992554 0.42782336473464966 0.12552435696125031
0.85933256149291992 0.45434132218360901 0.12151216715574265
0.93633937835693359 0.48216721415519714 0.13030032813549042
0.97731369733810425 0.49758690595626831 0.15202252566814423
0.99516075849533081 0.49929571151733398 0.17982280254364014
0.016198191791772842 0.42279520630836487 0.15300028026103973
0.041352320462465286 0.42342469096183777 0.15208639204502106
0.077245511114597321 0.4242437481880188 0.15358169376850128
0.1411118358373642 0.43386116623878479 0.15510338544845581
0.24235960841178894 0.44988313317298889 0.15769065916538239
0.36710056662559509 0.46514779329299927 0.16060714423656464
0.48704874515533447 0.47537645697593689 0.15967395901679993
0.60380381345748901 0.48512911796569824 0.15246930718421936
0.73012804985046387 0.50262069702148438 0.14062872529029846
0.84626656770706177 0.52978718280792236 0.13124597072601318
0.93012404441833496 0.55819392204284668 0.13218764960765839
0.97529548406600952 0.57014083862304688 0.14747662842273712
0.99526005983352661 0.56588315963745117 0.17182347178459167
0.017489055171608925 0.49659979343414307 0.16177602112293243
0.039589662104845047 0.49659296870231628 0.15853764116764069
0.066672138869762421 0.49805253744125366 0.1563044935464859
0.11685524880886078 0.50709646940231323 0.15465296804904938
0.2100994884967804 0.52315157651901245 0.15498140454292297
0.34194892644882202 0.54109311103820801 0.15911227464675903
0.47326067090034485 0.55597013235092163 0.16391828656196594
0.59304320812225342 0.56900137662887573 0.16464783251285553
0.71845388412475586 0.58642864227294922 0.15861526131629944
0.83507817983627319 0.6097034215927124 0.15056829154491425
0.92240399122238159 0.6317564845085144 0.14826305210590363
0.9730762243270874 0.6403842568397522 0.15709243714809418
0.99646389484405518 0.63543832302093506 0.17519545555114746
0.016556339338421822 0.57769781351089478 0.17129091918468475
0.037750858813524246 0.57906436920166016 0.16648586094379425
0.061829287558794022 0.58274036645889282 0.16126748919487
0.10614878684282303 0.59212291240692139 0.15632893145084381
0.19233874976634979 0.60758489370346069 0.1549212783575058
0.32271412014961243 0.62614643573760986 0.15852907299995422
0.46504685282707214 0.64384192228317261 0.16698528826236725
0.59744888544082642 0.65963649749755859 0.17462645471096039
0.72042018175125122 0.67566877603530884 0.1758386492729187
0.83207911252975464 0.69265639781951904 0.1713574081659317
0.92059612274169922 0.70690083503723145 0.16828188300132751
0.97508686780929565 0.71238100528717041 0.17261768877506256
0.99880319833755493 0.70713388919830322 0.18484441936016083
0.016308384016156197 0.65835678577423096 0.17884494364261627
0.038398832082748413 0.66217637062072754 0.17338593304157257
0.062716826796531677 0.66784876585006714 0.16704252362251282
0.10444343090057373 0.67774426937103271 0.16136713325977325
0.18439291417598724 0.69251435995101929 0.15902620553970337
0.31239289045333862 0.71092522144317627 0.16253724694252014
0.46552082896232605 0.72957849502563477 0.17344927787780762
0.60968434810638428 0.74620664119720459 0.18615086376667023
0.73168987035751343 0.75998246669769287 0.19180318713188171
0.83692973852157593 0.77048200368881226 0.1903662234544754
0.92145299911499023 0.77850174903869629 0.18709112703800201
0.97723877429962158 0.78121590614318848 0.18797053396701813
0.99978619813919067 0.77494728565216064 0.19495230913162231
0.016646277159452438 0.72677749395370483 0.18064649403095245
0.0393039770424366 0.7333027720451355 0.17635990679264069
0.0633416548371315 0.74042016267776489 0.1710505485534668
0.10132759064435959 0.75014877319335938 0.16668963432312012
0.17476765811443329 0.76340895891189575 0.16590926051139832
0.30129224061965942 0.780376136302948 0.17164859175682068
0.46473461389541626 0.79924917221069336 0.1844923347234726
0.62008082866668701 0.81625217199325562 0.19836276769638062
0.74307608604431152 0.82754093408584595 0.20545293390750885
0.83995342254638672 0.83359062671661377 0.20515704154968262
0.91719383001327515 0.83702617883682251 0.20163905620574951
0.97337490320205688 0.83719468116760254 0.20010338723659515
0.99959444999694824 0.83094662427902222 0.20352701842784882
0.014550077728927135 0.77839332818984985 0.17610499262809753
0.037379801273345947 0.78615736961364746 0.17355257272720337
0.058929204940795898 0.79377031326293945 0.17054182291030884
0.092630989849567413 0.80219703912734985 0.16911241412162781
0.15904086828231812 0.81242400407791138 0.17127954959869385
0.28081014752388 0.82586401700973511 0.17916885018348694
0.4466380774974823 0.84396445751190186 0.1920032799243927
0.60662704706192017 0.86126077175140381 0.20514354109764099
0.73224067687988281 0.87203788757324219 0.21282428503036499
0.82704383134841919 0.87608373165130615 0.2139119952917099
0.90250188112258911 0.87832951545715332 0.21086831390857697
0.96188414096832275 0.8784024715423584 0.20841504633426666
0.9975544810295105 0.87374204397201538 0.2090945690870285
0.0087502868846058846 0.8174712061882019 0.1670926958322525
0.030690809711813927 0.82475346326828003 0.16635428369045258
0.051842454820871353 0.83151590824127197 0.16593630611896515
0.083494283258914948 0.83735162019729614 0.16730797290802002
0.14375306665897369 0.84357577562332153 0.17208093404769897
0.25592416524887085 0.8535199761390686 0.1806962639093399
0.41288259625434875 0.86969804763793945 0.19189538061618805
0.56889885663986206 0.88659995794296265 0.20365069806575775
0.69656860828399658 0.89826887845993042 0.21214824914932251
0.79526525735855103 0.90321642160415649 0.21560497581958771
0.87589496374130249 0.90679252147674561 0.21419733762741089
0.94173657894134521 0.90918099880218506 0.21176236867904663
0.98940622806549072 0.90763628482818604 0.21176953613758087
0.020472493022680283 0.038559991866350174 0.22086943686008453
0.083075791597366333 0.039923649281263351 0.22829613089561462
0.17225699126720428 0.039550453424453735 0.22619412839412689
0.27331298589706421 0.04127686470746994 0.21501952409744263
0.35840213298797607 0.047874793410301208 0.19966953992843628
0.42887493968009949 0.052265960723161697 0.18063120543956757
0.49782711267471313 0.055719621479511261 0.16564549505710602
0.57012826204299927 0.066490620374679565 0.1714651882648468
0.66139441728591919 0.082787670195102692 0.18825054168701172
0.76529353857040405 0.10131789743900299 0.20620369911193848
0.85554260015487671 0.11888772994279861 0.22011704742908478
0.91581910848617554 0.13061738014221191 0.22796478867530823
0.95098000764846802 0.13725854456424713 0.23319901525974274
0.014461442828178406 0.10953772813081741 0.22404719889163971
0.06463170051574707 0.11201351135969162 0.22456970810890198
0.15040415525436401 0.11142497509717941 0.21988458931446075
0.26249366998672485 0.11563195288181305 0.21317438781261444
0.35914281010627747 0.12730704247951508 0.20769684016704559
0.44423827528953552 0.13462421298027039 0.19740043580532074
0.5240059494972229 0.1408231258392334 0.19037066400051117
0.60413002967834473 0.15244801342487335 0.19623711705207825
0.69756960868835449 0.16760069131851196 0.20887249708175659
0.79839032888412476 0.18473650515079498 0.22339586913585663
0.88317596912384033 0.20239947736263275 0.23814062774181366
0.93683892488479614 0.22046004235744476 0.25070363283157349
0.96596342325210571 0.23344071209430695 0.26160538196563721
0.013456262648105621 0.18049158155918121 0.22490665316581726
0.05232727900147438 0.1824306845664978 0.22319822013378143
0.12526778876781464 0.18357408046722412 0.21990041434764862
0.24149751663208008 0.18878954648971558 0.21898612380027771
0.35408312082290649 0.19981895387172699 0.21722063422203064
0.45353066921234131 0.2082502543926239 0.21180424094200134
0.54268777370452881 0.21768486499786377 0.21016313135623932
0.63194972276687622 0.23141656816005707 0.21668379008769989
0.72883182764053345 0.24824875593185425 0.22935514152050018
0.82658451795578003 0.26411864161491394 0.24147817492485046
0.9030725359916687 0.28107127547264099 0.25469857454299927
0.94906044006347656 0.30302879214286804 0.27199837565422058
0.97367352247238159 0.32417252659797668 0.29001882672309875
0.011656054295599461 0.25063434243202209 0.22307488322257996
0.047774400562047958 0.25124570727348328 0.22389024496078491
0.11135252565145493 0.25306293368339539 0.22385485470294952
0.21516112983226776 0.2588229775428772 0.22492636740207672
0.33467382192611694 0.26773017644882202 0.22393912076950073
0.44438332319259644 0.27557751536369324 0.21999603509902954
0.54519957304000854 0.2847694456577301 0.21564693748950958
0.65018981695175171 0.29782822728157043 0.21658734977245331
0.755390465259552 0.31696531176567078 0.22680889070034027
0.85120201110839844 0.33525407314300537 0.23931919038295746
0.92091882228851318 0.35063391923904419 0.2525792121887207
0.96048223972320557 0.37296706438064575 0.27429378032684326
0.98143142461776733 0.39535036683082581 0.29792293906211853
0.010719792917370796 0.31283220648765564 0.22127118706703186
0.043758302927017212 0.31534028053283691 0.22420290112495422
0.098388776183128357 0.31732803583145142 0.22737507522106171
0.18672077357769012 0.32303085923194885 0.23044787347316742
0.30101695656776428 0.3313886821269989 0.23196807503700256
