assets/lut/abigailgonzalez monochrome 02.cube
# Created by: G'MIC (https://gmic.eu)
TITLE "monochrome_2"
# LUT size
LUT_3D_SIZE 7
# Data domain
DOMAIN_MIN 0.0 0.0 0.0
DOMAIN_MAX 1.0 1.0 1.0
# LUT data points
0.026111781597137451 0.026111781597137451 0.026111781597137451
0.054139483720064163 0.054139483720064163 0.054139483720064163
0.095039159059524536 0.095039159059524536 0.095039159059524536
0.14904330670833588 0.14904330670833588 0.14904330670833588
0.20412489771842957 0.20412489771842957 0.20412489771842957
0.23544700443744659 0.23544700443744659 0.23544700443744659
0.25302368402481079 0.25302368402481079 0.25302368402481079
0.065766245126724243 0.065766245126724243 0.065766245126724243
0.086977817118167877 0.086977817118167877 0.086977817118167877
0.12106218189001083 0.12106218189001083 0.12106218189001083
0.19719360768795013 0.19719360768795013 0.19719360768795013
0.27629247307777405 0.27629247307777405 0.27629247307777405
0.31557503342628479 0.31557503342628479 0.31557503342628479
0.36678838729858398 0.36678838729858398 0.36678838729858398
0.1145998015999794 0.1145998015999794 0.1145998015999794
0.13970537483692169 0.13970537483692169 0.13970537483692169
0.18000464141368866 0.18000464141368866 0.18000464141368866
0.26775568723678589 0.26775568723678589 0.26775568723678589
0.36332139372825623 0.36332139372825623 0.36332139372825623
0.42957049608230591 0.42957049608230591 0.42957049608230591
0.47948703169822693 0.47948703169822693 0.47948703169822693
0.1992214173078537 0.1992214173078537 0.1992214173078537
0.20532312989234924 0.20532312989234924 0.20532312989234924
0.25947552919387817 0.25947552919387817 0.25947552919387817
0.34628787636756897 0.34628787636756897 0.34628787636756897
0.44000107049942017 0.44000107049942017 0.44000107049942017
0.5190315842628479 0.5190315842628479 0.5190315842628479
0.56764203310012817 0.56764203310012817 0.56764203310012817
0.27819764614105225 0.27819764614105225 0.27819764614105225
0.27665230631828308 0.27665230631828308 0.27665230631828308
0.34232088923454285 0.34232088923454285 0.34232088923454285
0.43062078952789307 0.43062078952789307 0.43062078952789307
0.52468550205230713 0.52468550205230713 0.52468550205230713
0.59286403656005859 0.59286403656005859 0.59286403656005859
0.63979315757751465 0.63979315757751465 0.63979315757751465
0.35239562392234802 0.35239562392234802 0.35239562392234802
0.34995967149734497 0.34995967149734497 0.34995967149734497
0.40336519479751587 0.40336519479751587 0.40336519479751587
0.50287657976150513 0.50287657976150513 0.50287657976150513
0.5949518084526062 0.5949518084526062 0.5949518084526062
0.65848469734191895 0.65848469734191895 0.65848469734191895
0.69931399822235107 0.69931399822235107 0.69931399822235107
0.40974357724189758 0.40974357724189758 0.40974357724189758
0.41213110089302063 0.41213110089302063 0.41213110089302063
0.4367060661315918 0.4367060661315918 0.4367060661315918
0.55281281471252441 0.55281281471252441 0.55281281471252441
0.64773052930831909 0.64773052930831909 0.64773052930831909
0.71412867307662964 0.71412867307662964 0.71412867307662964
0.75379455089569092 0.75379455089569092 0.75379455089569092
0.052845660597085953 0.052845660597085953 0.052845660597085953
0.078704223036766052 0.078704223036766052 0.078704223036766052
0.11701908707618713 0.11701908707618713 0.11701908707618713
0.16296233236789703 0.16296233236789703 0.16296233236789703
0.20520901679992676 0.20520901679992676 0.20520901679992676
0.23910598456859589 0.23910598456859589 0.23910598456859589
0.25911885499954224 0.25911885499954224 0.25911885499954224
0.074904486536979675 0.074904486536979675 0.074904486536979675
0.094814866781234741 0.094814866781234741 0.094814866781234741
0.13960397243499756 0.13960397243499756 0.13960397243499756
0.21211056411266327 0.21211056411266327 0.21211056411266327
0.26117762923240662 0.26117762923240662 0.26117762923240662
0.29675447940826416 0.29675447940826416 0.29675447940826416
0.33699068427085876 0.33699068427085876 0.33699068427085876
0.13450020551681519 0.13450020551681519 0.13450020551681519
0.15169493854045868 0.15169493854045868 0.15169493854045868
0.19160610437393188 0.19160610437393188 0.19160610437393188
0.27826383709907532 0.27826383709907532 0.27826383709907532
0.36204409599304199 0.36204409599304199 0.36204409599304199
0.41679692268371582 0.41679692268371582 0.41679692268371582
0.45596662163734436 0.45596662163734436 0.45596662163734436
0.21933062374591827 0.21933062374591827 0.21933062374591827
0.2227000892162323 0.2227000892162323 0.2227000892162323
0.26431944966316223 0.26431944966316223 0.26431944966316223
0.35293972492218018 0.35293972492218018 0.35293972492218018
0.44710075855255127 0.44710075855255127 0.44710075855255127
0.5210992693901062 0.5210992693901062 0.5210992693901062
0.56037092208862305 0.56037092208862305 0.56037092208862305
0.29855895042419434 0.29855895042419434 0.29855895042419434
0.30154374241828918 0.30154374241828918 0.30154374241828918
0.33327296376228333 0.33327296376228333 0.33327296376228333
0.43297180533409119 0.43297180533409119 0.43297180533409119
0.53186172246932983 0.53186172246932983 0.53186172246932983
0.60402631759643555 0.60402631759643555 0.60402631759643555
0.6492341160774231 0.6492341160774231 0.6492341160774231
0.36698201298713684 0.36698201298713684 0.36698201298713684
0.37208303809165955 0.37208303809165955 0.37208303809165955
0.40417388081550598 0.40417388081550598 0.40417388081550598
0.50912618637084961 0.50912618637084961 0.50912618637084961
0.60546207427978516 0.60546207427978516 0.60546207427978516
0.6729927659034729 0.6729927659034729 0.6729927659034729
0.70952874422073364 0.70952874422073364 0.70952874422073364
0.42265653610229492 0.42265653610229492 0.42265653610229492
0.4275134801864624 0.4275134801864624 0.4275134801864624
0.44403395056724548 0.44403395056724548 0.44403395056724548
0.55565011501312256 0.55565011501312256 0.55565011501312256
0.65914320945739746 0.65914320945739746 0.65914320945739746
0.72545790672302246 0.72545790672302246 0.72545790672302246
0.76990795135498047 0.76990795135498047 0.76990795135498047
0.074253380298614502 0.074253380298614502 0.074253380298614502
0.13307343423366547 0.13307343423366547 0.13307343423366547
0.15339420735836029 0.15339420735836029 0.15339420735836029
0.20174048840999603 0.20174048840999603 0.20174048840999603
0.24862483143806458 0.24862483143806458 0.24862483143806458
0.26592186093330383 0.26592186093330383 0.26592186093330383
0.28084495663642883 0.28084495663642883 0.28084495663642883
0.10481958091259003 0.10481958091259003 0.10481958091259003
0.11952145397663116 0.11952145397663116 0.11952145397663116
0.1754584014415741 0.1754584014415741 0.1754584014415741
0.23214523494243622 0.23214523494243622 0.23214523494243622
0.2844984233379364 0.2844984233379364 0.2844984233379364
0.3128875195980072 0.3128875195980072 0.3128875195980072
0.34025263786315918 0.34025263786315918 0.34025263786315918
0.15708822011947632 0.15708822011947632 0.15708822011947632
0.16206222772598267 0.16206222772598267 0.16206222772598267
0.21915346384048462 0.21915346384048462 0.21915346384048462
0.29808470606803894 0.29808470606803894 0.29808470606803894
0.37148335576057434 0.37148335576057434 0.37148335576057434
0.41839653253555298 0.41839653253555298 0.41839653253555298
0.45328536629676819 0.45328536629676819 0.45328536629676819
0.23918041586875916 0.23918041586875916 0.23918041586875916
0.23951525986194611 0.23951525986194611 0.23951525986194611
0.290056973695755 0.290056973695755 0.290056973695755
0.38185927271842957 0.38185927271842957 0.38185927271842957
0.46984633803367615 0.46984633803367615 0.46984633803367615
0.53759700059890747 0.53759700059890747 0.53759700059890747
0.57552170753479004 0.57552170753479004 0.57552170753479004
0.32672971487045288 0.32672971487045288 0.32672971487045288
0.33106398582458496 0.33106398582458496 0.33106398582458496
0.36124762892723083 0.36124762892723083 0.36124762892723083
0.45929494500160217 0.45929494500160217 0.45929494500160217
0.55652141571044922 0.55652141571044922 0.55652141571044922
0.62962347269058228 0.62962347269058228 0.62962347269058228
0.66396379470825195 0.66396379470825195 0.66396379470825195
0.39687234163284302 0.39687234163284302 0.39687234163284302
0.40068355202674866 0.40068355202674866 0.40068355202674866
0.42233887314796448 0.42233887314796448 0.42233887314796448
0.51924425363540649 0.51924425363540649 0.51924425363540649
0.62878948450088501 0.62878948450088501 0.62878948450088501
0.70426034927368164 0.70426034927368164 0.70426034927368164
0.74327993392944336 0.74327993392944336 0.74327993392944336
0.45110279321670532 0.45110279321670532 0.45110279321670532
0.45879793167114258 0.45879793167114258 0.45879793167114258
0.46156710386276245 0.46156710386276245 0.46156710386276245
0.55525785684585571 0.55525785684585571 0.55525785684585571
0.67620646953582764 0.67620646953582764 0.67620646953582764
0.75080585479736328 0.75080585479736328 0.75080585479736328
0.8067435622215271 0.8067435622215271 0.8067435622215271
0.14023196697235107 0.14023196697235107 0.14023196697235107
0.19355499744415283 0.19355499744415283 0.19355499744415283
0.21557030081748962 0.21557030081748962 0.21557030081748962
0.24878066778182983 0.24878066778182983 0.24878066778182983
0.27181628346443176 0.27181628346443176 0.27181628346443176
0.28651881217956543 0.28651881217956543 0.28651881217956543
0.30099022388458252 0.30099022388458252 0.30099022388458252
0.14473502337932587 0.14473502337932587 0.14473502337932587
0.15786918997764587 0.15786918997764587 0.15786918997764587
0.21496604382991791 0.21496604382991791 0.21496604382991791
0.26844719052314758 0.26844719052314758 0.26844719052314758
0.30949383974075317 0.30949383974075317 0.30949383974075317
0.33094802498817444 0.33094802498817444 0.33094802498817444
0.36880046129226685 0.36880046129226685 0.36880046129226685
0.19694644212722778 0.19694644212722778 0.19694644212722778
0.20956137776374817 0.20956137776374817 0.20956137776374817
0.2666378915309906 0.2666378915309906 0.2666378915309906
0.33729830384254456 0.33729830384254456 0.33729830384254456
0.39745938777923584 0.39745938777923584 0.39745938777923584
0.43655374646186829 0.43655374646186829 0.43655374646186829
0.47240972518920898 0.47240972518920898 0.47240972518920898
0.27494663000106812 0.27494663000106812 0.27494663000106812
0.27670857310295105 0.27670857310295105 0.27670857310295105
0.32569572329521179 0.32569572329521179 0.32569572329521179
0.41772791743278503 0.41772791743278503 0.41772791743278503
0.5023537278175354 0.5023537278175354 0.5023537278175354
0.55832892656326294 0.55832892656326294 0.55832892656326294
0.59326052665710449 0.59326052665710449 0.59326052665710449
0.36319532990455627 0.36319532990455627 0.36319532990455627
0.3689538836479187 0.3689538836479187 0.3689538836479187
0.40256556868553162 0.40256556868553162 0.40256556868553162
0.49763447046279907 0.49763447046279907 0.49763447046279907
0.59150564670562744 0.59150564670562744 0.59150564670562744
0.66182106733322144 0.66182106733322144 0.66182106733322144
0.69737499952316284 0.69737499952316284 0.69737499952316284
0.43429180979728699 0.43429180979728699 0.43429180979728699
0.44097962975502014 0.44097962975502014 0.44097962975502014
0.46391883492469788 0.46391883492469788 0.46391883492469788
0.54415297508239746 0.54415297508239746 0.54415297508239746
0.66491866111755371 0.66491866111755371 0.66491866111755371
0.74202460050582886 0.74202460050582886 0.74202460050582886
0.77967339754104614 0.77967339754104614 0.77967339754104614
0.48508608341217041 0.48508608341217041 0.48508608341217041
0.49052724242210388 0.49052724242210388 0.49052724242210388
0.49980831146240234 0.49980831146240234 0.49980831146240234
0.5711979866027832 0.5711979866027832 0.5711979866027832
0.70712441205978394 0.70712441205978394 0.70712441205978394
0.79656559228897095 0.79656559228897095 0.79656559228897095
0.84348112344741821 0.84348112344741821 0.84348112344741821
0.19291219115257263 0.19291219115257263 0.19291219115257263
0.23839180171489716 0.23839180171489716 0.23839180171489716
0.26051610708236694 0.26051610708236694 0.26051610708236694
0.27842038869857788 0.27842038869857788 0.27842038869857788
0.27824851870536804 0.27824851870536804 0.27824851870536804
0.3110119104385376 0.3110119104385376 0.3110119104385376
0.32122576236724854 0.32122576236724854 0.32122576236724854
0.18244269490242004 0.18244269490242004 0.18244269490242004
0.19119305908679962 0.19119305908679962 0.19119305908679962
0.24802170693874359 0.24802170693874359 0.24802170693874359
0.29122704267501831 0.29122704267501831 0.29122704267501831
0.3170589804649353 0.3170589804649353 0.3170589804649353
0.33069252967834473 0.33069252967834473 0.33069252967834473
0.35545617341995239 0.35545617341995239 0.35545617341995239
0.23826628923416138 0.23826628923416138 0.23826628923416138
0.25547006726264954 0.25547006726264954 0.25547006726264954
0.30374741554260254 0.30374741554260254 0.30374741554260254
0.36833345890045166 0.36833345890045166 0.36833345890045166
0.41446453332901001 0.41446453332901001 0.41446453332901001
0.45098298788070679 0.45098298788070679 0.45098298788070679
0.48312753438949585 0.48312753438949585 0.48312753438949585
0.31672996282577515 0.31672996282577515 0.31672996282577515
0.33259773254394531 0.33259773254394531 0.33259773254394531
0.37913650274276733 0.37913650274276733 0.37913650274276733
0.45563036203384399 0.45563036203384399 0.45563036203384399
0.53526443243026733 0.53526443243026733 0.53526443243026733
0.58170408010482788 0.58170408010482788 0.58170408010482788
0.61283355951309204 0.61283355951309204 0.61283355951309204
0.39635357260704041 0.39635357260704041 0.39635357260704041
0.40404447913169861 0.40404447913169861 0.40404447913169861
0.43973624706268311 0.43973624706268311 0.43973624706268311
0.54578197002410889 0.54578197002410889 0.54578197002410889
0.63874971866607666 0.63874971866607666 0.63874971866607666
0.69623339176177979 0.69623339176177979 0.69623339176177979
0.73371481895446777 0.73371481895446777 0.73371481895446777
0.46798413991928101 0.46798413991928101 0.46798413991928101
0.47257551550865173 0.47257551550865173 0.47257551550865173
0.49368584156036377 0.49368584156036377 0.49368584156036377
0.59419018030166626 0.59419018030166626 0.59419018030166626
0.70383673906326294 0.70383673906326294 0.70383673906326294
0.77406793832778931 0.77406793832778931 0.77406793832778931
0.81533294916152954 0.81533294916152954 0.81533294916152954
0.51295095682144165 0.51295095682144165 0.51295095682144165
0.52169257402420044 0.52169257402420044 0.52169257402420044
0.54422283172607422 0.54422283172607422 0.54422283172607422
0.64193195104598999 0.64193195104598999 0.64193195104598999
0.74431681632995605 0.74431681632995605 0.74431681632995605
0.81777113676071167 0.81777113676071167 0.81777113676071167
0.87932980060577393 0.87932980060577393 0.87932980060577393
0.25471746921539307 0.25471746921539307 0.25471746921539307
0.27682274580001831 0.27682274580001831 0.27682274580001831
0.28841891884803772 0.28841891884803772 0.28841891884803772
0.30358350276947021 0.30358350276947021 0.30358350276947021
0.30738621950149536 0.30738621950149536 0.30738621950149536
0.32692864537239075 0.32692864537239075 0.32692864537239075
0.33507218956947327 0.33507218956947327 0.33507218956947327
0.22353005409240723 0.22353005409240723 0.22353005409240723
0.23071464896202087 0.23071464896202087 0.23071464896202087
0.26319986581802368 0.26319986581802368 0.26319986581802368
0.29486668109893799 0.29486668109893799 0.29486668109893799
0.31692054867744446 0.31692054867744446 0.31692054867744446
0.33349558711051941 0.33349558711051941 0.33349558711051941
0.34961393475532532 0.34961393475532532 0.34961393475532532
0.29511156678199768 0.29511156678199768 0.29511156678199768
0.31877249479293823 0.31877249479293823 0.31877249479293823
0.34493988752365112 0.34493988752365112 0.34493988752365112
0.3859390914440155 0.3859390914440155 0.3859390914440155
0.41901165246963501 0.41901165246963501 0.41901165246963501
0.44870650768280029 0.44870650768280029 0.44870650768280029
0.46322372555732727 0.46322372555732727 0.46322372555732727
0.36715668439865112 0.36715668439865112 0.36715668439865112
0.39700761437416077 0.39700761437416077 0.39700761437416077
0.44699111580848694 0.44699111580848694 0.44699111580848694
0.50400608777999878 0.50400608777999878 0.50400608777999878
0.55847412347793579 0.55847412347793579 0.55847412347793579
0.59703785181045532 0.59703785181045532 0.59703785181045532
0.6204410195350647 0.6204410195350647 0.6204410195350647
0.43545681238174438 0.43545681238174438 0.43545681238174438
0.45147258043289185 0.45147258043289185 0.45147258043289185
0.51336801052093506 0.51336801052093506 0.51336801052093506
0.60005819797515869 0.60005819797515869 0.60005819797515869
0.67199015617370605 0.67199015617370605 0.67199015617370605
0.71753334999084473 0.71753334999084473 0.71753334999084473
0.75391381978988647 0.75391381978988647 0.75391381978988647
0.49335429072380066 0.49335429072380066 0.49335429072380066
0.5020143985748291 0.5020143985748291 0.5020143985748291
0.55340421199798584 0.55340421199798584 0.55340421199798584
0.65653109550476074 0.65653109550476074 0.65653109550476074
0.74528235197067261 0.74528235197067261 0.74528235197067261
0.80161523818969727 0.80161523818969727 0.80161523818969727
0.84431219100952148 0.84431219100952148 0.84431219100952148
0.53868764638900757 0.53868764638900757 0.53868764638900757
0.54944074153900146 0.54944074153900146 0.54944074153900146
0.57757049798965454 0.57757049798965454 0.57757049798965454
0.69151872396469116 0.69151872396469116 0.69151872396469116
0.79264742136001587 0.79264742136001587 0.79264742136001587
0.85684406757354736 0.85684406757354736 0.85684406757354736
0.90888887643814087 0.90888887643814087 0.90888887643814087
0.30164015293121338 0.30164015293121338 0.30164015293121338
0.3100394606590271 0.3100394606590271 0.3100394606590271
0.31439828872680664 0.31439828872680664 0.31439828872680664
0.31464043259620667 0.31464043259620667 0.31464043259620667
0.32317939400672913 0.32317939400672913 0.32317939400672913
0.33664214611053467 0.33664214611053467 0.33664214611053467
0.33402684330940247 0.33402684330940247 0.33402684330940247
0.31099128723144531 0.31099128723144531 0.31099128723144531
0.26276704668998718 0.26276704668998718 0.26276704668998718
0.28890854120254517 0.28890854120254517 0.28890854120254517
0.29981863498687744 0.29981863498687744 0.29981863498687744
0.3383927047252655 0.3383927047252655 0.3383927047252655
0.33585754036903381 0.33585754036903381 0.33585754036903381
0.34131050109863281 0.34131050109863281 0.34131050109863281
0.37324604392051697 0.37324604392051697 0.37324604392051697
0.37138375639915466 0.37138375639915466 0.37138375639915466
0.36219555139541626 0.36219555139541626 0.36219555139541626
0.38941079378128052 0.38941079378128052 0.38941079378128052
0.40694350004196167 0.40694350004196167 0.40694350004196167
0.43738910555839539 0.43738910555839539 0.43738910555839539
0.45763584971427917 0.45763584971427917 0.45763584971427917
0.45158147811889648 0.45158147811889648 0.45158147811889648
0.46629291772842407 0.46629291772842407 0.46629291772842407
0.49904575943946838 0.49904575943946838 0.49904575943946838
0.53252780437469482 0.53252780437469482 0.53252780437469482
0.56725674867630005 0.56725674867630005 0.56725674867630005
0.60169297456741333 0.60169297456741333 0.60169297456741333
0.62676990032196045 0.62676990032196045 0.62676990032196045
0.46510699391365051 0.46510699391365051 0.46510699391365051
0.52086502313613892 0.52086502313613892 0.52086502313613892
0.57422482967376709 0.57422482967376709 0.57422482967376709
0.63552695512771606 0.63552695512771606 0.63552695512771606
0.69706100225448608 0.69706100225448608 0.69706100225448608
0.73463499546051025 0.73463499546051025 0.73463499546051025
0.75943231582641602 0.75943231582641602 0.75943231582641602
0.51892125606536865 0.51892125606536865 0.51892125606536865
0.55300366878509521 0.55300366878509521 0.55300366878509521
0.62327784299850464 0.62327784299850464 0.62327784299850464
0.70047110319137573 0.70047110319137573 0.70047110319137573
0.772053062915802 0.772053062915802 0.772053062915802
0.81606161594390869 0.81606161594390869 0.81606161594390869
0.85626518726348877 0.85626518726348877 0.85626518726348877
0.56200486421585083 0.56200486421585083 0.56200486421585083
0.57678771018981934 0.57678771018981934 0.57678771018981934
0.648590087890625 0.648590087890625 0.648590087890625
0.74255812168121338 0.74255812168121338 0.74255812168121338
0.82432597875595093 0.82432597875595093 0.82432597875595093
0.87923198938369751 0.87923198938369751 0.87923198938369751
0.92913591861724854 0.92913591861724854 0.92913591861724854
