assets/lut/abigailgonzalez blade runner.cube
# Created by: G'MIC (https://gmic.eu)
TITLE "blade_runner"
# LUT size
LUT_3D_SIZE 5
# Data domain
DOMAIN_MIN 0.0 0.0 0.0
DOMAIN_MAX 1.0 1.0 1.0
# LUT data points
0.068973258137702942 0.047766488045454025 0.033422850072383881
0.45700851082801819 0.0055654789321124554 0.00029476391500793397
0.76830756664276123 0 0
0.98428612947463989 0.00042220469913445413 0.0041582891717553139
0.99160706996917725 0.00087513640755787492 0.0037387474440038204
0.034254591912031174 0.28146731853485107 0.03804156556725502
0.43356013298034668 0.2387160062789917 0.0023668026551604271
0.7528337836265564 0.17895077168941498 0.0027908922638744116
0.97492402791976929 0.12676352262496948 0.012850308790802956
0.99336373805999756 0.065555855631828308 0.0011857574572786689
0 0.54003810882568359 0.062123719602823257
0.35234177112579346 0.52654880285263062 0.0076981340534985065
0.72036999464035034 0.50626975297927856 0.00049012125236913562
0.97774583101272583 0.47562333941459656 0.00095874560065567493
0.99378126859664917 0.46970483660697937 0.0015610340051352978
0.014652895741164684 0.79768133163452148 0.097397401928901672
0.21250516176223755 0.80444347858428955 0.029586073011159897
0.65704637765884399 0.79330658912658691 0
0.95551824569702148 0.77551156282424927 0.0039215688593685627
0.99851793050765991 0.76863282918930054 0.0052495771087706089
0.037513598799705505 0.97592806816101074 0.11700684577226639
0.032405883073806763 0.99997901916503906 0.059379801154136658
0.55110025405883789 0.99300748109817505 0
0.90174007415771484 0.99075007438659668 0
0.97450214624404907 0.99101126194000244 0.00082943483721464872
0.058442119508981705 0.034599903970956802 0.11651939153671265
0.46249157190322876 0.0022902993950992823 0.061872430145740509
0.7713809609413147 0 0.00046175788156688213
0.98529917001724243 0 0
0.97759532928466797 0.018318640068173409 0.0064282137900590897
0.020558584481477737 0.26876193284988403 0.11817774921655655
0.45095795392990112 0.23795191943645477 0.061917264014482498
0.75938796997070312 0.17587858438491821 0.0012443392770364881
0.981334388256073 0.097879581153392792 7.0010914896556642e-06
0.97872245311737061 0.079312130808830261 0.012656970880925655
0.0017225976334884763 0.53610491752624512 0.13352814316749573
0.35219079256057739 0.52615189552307129 0.075412869453430176
0.72521328926086426 0.50208646059036255 0.0038493587635457516
0.98204034566879272 0.4746476411819458 3.8775277062086388e-05
0.98113840818405151 0.47247764468193054 0.006669407244771719
0.018237050622701645 0.80380499362945557 0.14845947921276093
0.21393342316150665 0.80420714616775513 0.10377544164657593
0.66840726137161255 0.79486197233200073 0.01782594621181488
0.9523354172706604 0.77067703008651733 0
0.98148888349533081 0.7552560567855835 0.010380644351243973
0.01641114242374897 0.98580127954483032 0.15836185216903687
0.07799859344959259 1 0.13028223812580109
0.54552632570266724 0.99999678134918213 0.057544723153114319
0.9036598801612854 0.99126404523849487 0.00083206774434074759
0.96003049612045288 0.96487659215927124 0.012976403348147869
0.077658995985984802 0.010844391770660877 0.30493119359016418
0.47241759300231934 0.0050217420794069767 0.28798231482505798
0.77578139305114746 0 0.26477193832397461
0.98344999551773071 0.0037317462265491486 0.1891130656003952
0.99661511182785034 7.4678311648312956e-05 0.1706915944814682
0.013471176847815514 0.25447201728820801 0.30548325181007385
0.46355482935905457 0.21814209222793579 0.28605934977531433
0.76475614309310913 0.14572127163410187 0.25790619850158691
0.98850995302200317 0.055693518370389938 0.20254656672477722
0.98226797580718994 0.063701897859573364 0.18343622982501984
9.2270798631943762e-05 0.5339544415473938 0.30974337458610535
0.38396832346916199 0.51778775453567505 0.29116040468215942
0.73465460538864136 0.49709385633468628 0.26333454251289368
0.97971469163894653 0.46820473670959473 0.21115821599960327
0.98082226514816284 0.45971080660820007 0.18942919373512268
0.015359123237431049 0.80263024568557739 0.3090088963508606
0.19400134682655334 0.80301862955093384 0.2992972731590271
0.66662377119064331 0.79003959894180298 0.27307555079460144
0.95698297023773193 0.76910400390625 0.21838152408599854
0.98651838302612305 0.75082892179489136 0.19914403557777405
0.0048945406451821327 0.99992763996124268 0.31711089611053467
0.095736578106880188 1 0.30440458655357361
0.5552709698677063 1 0.27367100119590759
0.90173244476318359 0.99299073219299316 0.22855624556541443
0.96319937705993652 0.97728556394577026 0.2275308221578598
0.13711945712566376 0 0.53536319732666016
0.47706699371337891 0 0.52974212169647217
0.78044641017913818 0.00022597967472393066 0.51640242338180542
0.99257034063339233 0.00081757188308984041 0.50351452827453613
0.99944311380386353 0 0.48709028959274292
0.057413946837186813 0.21568228304386139 0.53217935562133789
0.45995375514030457 0.18585436046123505 0.52386176586151123
0.77058923244476318 0.11134627461433411 0.51302921772003174
0.98882168531417847 0.053062155842781067 0.49362772703170776
0.98809432983398438 0.03984089195728302 0.48939576745033264
0.00088354374747723341 0.5218956470489502 0.53322315216064453
0.38833019137382507 0.50674474239349365 0.52771162986755371
0.73640745878219604 0.48617133498191833 0.51648616790771484
0.98290419578552246 0.45528742671012878 0.49316442012786865
0.99150896072387695 0.44308233261108398 0.48238447308540344
0.0057482849806547165 0.79497170448303223 0.54022282361984253
0.23690633475780487 0.78971403837203979 0.53397434949874878
0.67906200885772705 0.7842215895652771 0.51578587293624878
0.96238481998443604 0.7627180814743042 0.50148850679397583
0.98969739675521851 0.75588387250900269 0.48738357424736023
0.0037578358314931393 1 0.54540729522705078
0.11356747150421143 0.99943864345550537 0.54975444078445435
0.55760753154754639 0.99928891658782959 0.52554041147232056
0.90999048948287964 0.99023455381393433 0.50113534927368164
0.97403264045715332 0.9805791974067688 0.48936790227890015
0.27274662256240845 0.0065847062505781651 0.88099145889282227
0.52459710836410522 0 0.89498233795166016
0.78773343563079834 0.0035763909108936787 0.89632642269134521
0.98496782779693604 0.00085880054393783212 0.88233870267868042
0.99990147352218628 0 0.88399785757064819
0.21152181923389435 0.075955033302307129 0.90212732553482056
0.49833971261978149 0.057450506836175919 0.90151047706604004
0.78512334823608398 0.021711895242333412 0.89970946311950684
0.99385648965835571 0.010485989041626453 0.88507080078125
0.99914836883544922 0.00039452945929951966 0.87988179922103882
0.036501940339803696 0.47020983695983887 0.91101187467575073
0.44770923256874084 0.45774188637733459 0.90438103675842285
0.75565403699874878 0.42661833763122559 0.90221881866455078
0.98443883657455444 0.37789395451545715 0.89157712459564209
0.99114805459976196 0.36804085969924927 0.88583213090896606
0.035873442888259888 0.760611891746521 0.88752269744873047
0.26835417747497559 0.76669752597808838 0.9135245680809021
0.69689244031906128 0.75194466114044189 0.90896207094192505
0.97071367502212524 0.73969745635986328 0.89777147769927979
0.99233168363571167 0.72382533550262451 0.89555919170379639
0.0034791536163538694 0.98594194650650024 0.9160650372505188
0.10934682935476303 0.99477463960647583 0.92114114761352539
0.58085387945175171 0.99016809463500977 0.90999394655227661
0.91819322109222412 0.98341900110244751 0.90176868438720703
0.9862053394317627 0.97710347175598145 0.89939022064208984
