assets/lut/abigailgonzalez cinema 02.cube
# Created by: G'MIC (https://gmic.eu)
TITLE "cinema_2"
# LUT size
LUT_3D_SIZE 5
# Data domain
DOMAIN_MIN 0.0 0.0 0.0
DOMAIN_MAX 1.0 1.0 1.0
# LUT data points
0.02469908818602562 0.010704593732953072 0.0091777872294187546
0.21106927096843719 0.019608426839113235 0.013412490487098694
0.4655381441116333 0.070928297936916351 0.070481784641742706
0.72784602642059326 0.11602716147899628 0.10802502930164337
0.96220934391021729 0.15946999192237854 0.12148666381835938
0.033793043345212936 0.15835775434970856 0.02170296385884285
0.2166702002286911 0.16614519059658051 0.023768750950694084
0.47992596030235291 0.23987568914890289 0.069435194134712219
0.73390179872512817 0.28390282392501831 0.11004956066608429
0.96135848760604858 0.33777913451194763 0.11964131146669388
0.052459672093391418 0.40398839116096497 0.056682780385017395
0.22674201428890228 0.42550534009933472 0.062711454927921295
0.50481700897216797 0.44663816690444946 0.080466419458389282
0.74844729900360107 0.4843839704990387 0.10780984908342361
0.96445941925048828 0.55081695318222046 0.11416541039943695
0.069681175053119659 0.6725391149520874 0.088595762848854065
0.24995517730712891 0.68104743957519531 0.096649676561355591
0.5181158185005188 0.72411578893661499 0.10798946022987366
0.75599110126495361 0.70070040225982666 0.10674601793289185
0.95756644010543823 0.75449049472808838 0.11383592337369919
0.092537865042686462 0.96215546131134033 0.11790952831506729
0.30513879656791687 0.97043812274932861 0.12016251683235168
0.57269847393035889 0.97974038124084473 0.13343565165996552
0.80633264780044556 0.97092270851135254 0.14099548757076263
0.96731215715408325 0.96863281726837158 0.1364736407995224
0.031814020127058029 0.037560794502496719 0.13673628866672516
0.19612114131450653 0.027055090293288231 0.12962499260902405
0.43841126561164856 0.076175376772880554 0.21101208031177521
0.72409284114837646 0.12697015702724457 0.26403272151947021
0.96972966194152832 0.17098961770534515 0.29644638299942017
0.029567748308181763 0.20118416845798492 0.14135086536407471
0.20145216584205627 0.17641746997833252 0.14454521238803864
0.45689350366592407 0.24377332627773285 0.22130541503429413
0.72801065444946289 0.28514385223388672 0.26582160592079163
0.96145427227020264 0.32331830263137817 0.27466785907745361
0.044862635433673859 0.45864012837409973 0.23218198120594025
0.20653432607650757 0.43116611242294312 0.21823647618293762
0.4826832115650177 0.43922716379165649 0.23533311486244202
0.73949378728866577 0.48568570613861084 0.25863516330718994
0.96672791242599487 0.55236947536468506 0.26775059103965759
0.060485586524009705 0.69876611232757568 0.27623254060745239
0.23783949017524719 0.68431645631790161 0.26304677128791809
0.49596515297889709 0.71405929327011108 0.26429629325866699
0.74695903062820435 0.70521324872970581 0.26671046018600464
0.96115142107009888 0.75726509094238281 0.26239624619483948
0.068150192499160767 0.96483069658279419 0.3312646746635437
0.26146021485328674 0.97042155265808105 0.29737955331802368
0.53788852691650391 0.97848522663116455 0.2933925986289978
0.79325306415557861 0.9729035496711731 0.30482304096221924
0.97133839130401611 0.96337950229644775 0.28436985611915588
0.045952096581459045 0.13907112181186676 0.437276691198349
0.19393809139728546 0.10313531011343002 0.40611636638641357
0.38000786304473877 0.10386066883802414 0.38936665654182434
0.67733299732208252 0.14281974732875824 0.42253026366233826
0.97144162654876709 0.20301797986030579 0.53268754482269287
0.035517644137144089 0.30821841955184937 0.4328746497631073
0.18245960772037506 0.29034179449081421 0.43317967653274536
0.38576042652130127 0.25768172740936279 0.3894951343536377
0.69687426090240479 0.30701103806495667 0.43463444709777832
0.97641271352767944 0.36154744029045105 0.5236625075340271
0.030787508934736252 0.48457244038581848 0.43916872143745422
0.15900130569934845 0.47654980421066284 0.44379812479019165
0.4182758629322052 0.47691214084625244 0.46239790320396423
0.72876417636871338 0.50420808792114258 0.46944290399551392
0.97241735458374023 0.53223496675491333 0.47523918747901917
0.035601131618022919 0.74427300691604614 0.52864629030227661
0.16537758708000183 0.73275816440582275 0.50886303186416626
0.42085784673690796 0.71573537588119507 0.4748176634311676
0.74140256643295288 0.71857893466949463 0.45941662788391113
0.9642643928527832 0.7532273530960083 0.42516046762466431
0.033858653157949448 0.97202014923095703 0.60276973247528076
0.15334174036979675 0.96716797351837158 0.56496679782867432
0.46744188666343689 0.97620934247970581 0.48832127451896667
0.7733081579208374 0.98166584968566895 0.48142063617706299
0.97427183389663696 0.97157257795333862 0.46817991137504578
0.046361573040485382 0.24521690607070923 0.70625734329223633
0.19630718231201172 0.20488448441028595 0.68114441633224487
0.3627372682094574 0.18397559225559235 0.64119023084640503
0.64776378870010376 0.18393674492835999 0.63133436441421509
0.97319227457046509 0.21421194076538086 0.73214888572692871
0.036187458783388138 0.41510006785392761 0.70440995693206787
0.1811065673828125 0.39137351512908936 0.70292437076568604
0.3562074601650238 0.35480806231498718 0.66852056980133057
0.65700286626815796 0.34462761878967285 0.65534460544586182
0.97833538055419922 0.38347867131233215 0.75415158271789551
0.02523435652256012 0.56957471370697021 0.69637441635131836
0.14678296446800232 0.56207561492919922 0.70507490634918213
0.33370557427406311 0.5493462085723877 0.71052789688110352
0.68634366989135742 0.53064888715744019 0.69582998752593994
0.97535401582717896 0.5617983341217041 0.74643641710281372
0.019509095698595047 0.73454862833023071 0.70473593473434448
0.11329321563243866 0.73274123668670654 0.711986243724823
0.30961698293685913 0.73772913217544556 0.72154128551483154
0.72028809785842896 0.76521009206771851 0.69320940971374512
0.97797787189483643 0.775276780128479 0.68790131807327271
0.01525853481143713 0.95936918258666992 0.80554413795471191
0.0955076664686203 0.96640807390213013 0.79621964693069458
0.28134363889694214 0.97111207246780396 0.78110593557357788
0.70027363300323486 0.97524595260620117 0.69038289785385132
0.98435491323471069 0.98127329349517822 0.662250816822052
0.051896307617425919 0.32307830452919006 0.96736931800842285
0.21365126967430115 0.29167625308036804 0.96296221017837524
0.37857204675674438 0.27642065286636353 0.96276694536209106
0.65493208169937134 0.27479669451713562 0.96709275245666504
0.97561931610107422 0.24487967789173126 0.96801149845123291
0.028024904429912567 0.50035864114761353 0.96295714378356934
0.16422785818576813 0.46529123187065125 0.96048235893249512
0.35437878966331482 0.43939635157585144 0.96694266796112061
0.66559302806854248 0.42693391442298889 0.96561968326568604
0.98129981756210327 0.40254613757133484 0.97178101539611816
0.013329479843378067 0.66430163383483887 0.96054446697235107
0.13328486680984497 0.64784151315689087 0.96875029802322388
0.30306550860404968 0.60664176940917969 0.96789360046386719
0.66158288717269897 0.60025393962860107 0.97337383031845093
0.98205667734146118 0.57643973827362061 0.9744078516960144
0.0098819062113761902 0.81661891937255859 0.95774233341217041
0.10502789169549942 0.80589675903320312 0.96036255359649658
0.24989816546440125 0.78906702995300293 0.96754986047744751
0.61080312728881836 0.77601474523544312 0.96881777048110962
0.9821242094039917 0.78352689743041992 0.97919350862503052
0.0099006500095129013 0.95370787382125854 0.9592699408531189
0.065729595720767975 0.95618951320648193 0.96574968099594116
0.21987980604171753 0.97106099128723145 0.9815247654914856
0.60005688667297363 0.96770304441452026 0.97301781177520752
0.97497731447219849 0.98061978816986084 0.96618926525115967
