assets/lut/abigailgonzalez blue ice.cube
# Created by: G'MIC (https://gmic.eu)
TITLE "blue_ice"
# LUT size
LUT_3D_SIZE 5
# Data domain
DOMAIN_MIN 0.0 0.0 0.0
DOMAIN_MAX 1.0 1.0 1.0
# LUT data points
0.013335613533854485 0.03041585348546505 0.057031743228435516
0.21825429797172546 0.058140967041254044 0.047450389713048935
0.45431420207023621 0.086734086275100708 0.090919479727745056
0.73993641138076782 0.13352973759174347 0.14440968632698059
0.95346570014953613 0.20070843398571014 0.19757837057113647
0.0086477538570761681 0.15559075772762299 0.059693742543458939
0.17348267138004303 0.18616461753845215 0.064868941903114319
0.51789200305938721 0.22943446040153503 0.050258547067642212
0.83780598640441895 0.28112030029296875 0.064504034817218781
0.98320311307907104 0.36261773109436035 0.14902165532112122
0 0.34359696507453918 0.10250610858201981
0.077905543148517609 0.36902284622192383 0.084342613816261292
0.47547513246536255 0.43228226900100708 0.087677896022796631
0.83827745914459229 0.48261982202529907 0.053491808474063873
0.9989820122718811 0.56856930255889893 0.10427169501781464
0.0036821253597736359 0.57749897241592407 0.13635963201522827
0.037460837513208389 0.60469144582748413 0.10811918973922729
0.43018978834152222 0.67588216066360474 0.11076977103948593
0.83050704002380371 0.72630530595779419 0.13987578451633453
0.99673384428024292 0.76036250591278076 0.14718665182590485
0.010739823803305626 0.74976992607116699 0.17968015372753143
0.012930925935506821 0.77298438549041748 0.1394873708486557
0.38196253776550293 0.81652945280075073 0.14752677083015442
0.8123624324798584 0.86619716882705688 0.17549698054790497
0.99898719787597656 0.90125942230224609 0.19231843948364258
0.003096157917752862 0.03973388671875 0.27786985039710999
0.19505903124809265 0.036799844354391098 0.30134260654449463
0.49537238478660583 0.050519667565822601 0.25489106774330139
0.7463105320930481 0.098001591861248016 0.25127246975898743
0.93276959657669067 0.16000296175479889 0.28844320774078369
0.0022992151789367199 0.20512121915817261 0.29004043340682983
0.10606716573238373 0.20806477963924408 0.282166987657547
0.49380487203598022 0.25072962045669556 0.2745499312877655
0.82876330614089966 0.30349618196487427 0.27719840407371521
0.97145730257034302 0.40302154421806335 0.36190485954284668
0.0087944334372878075 0.41708856821060181 0.31388008594512939
0.038456171751022339 0.41308802366256714 0.29646313190460205
0.41325819492340088 0.4526512622833252 0.30815586447715759
0.87102091312408447 0.52413135766983032 0.27561938762664795
0.99332225322723389 0.60532993078231812 0.34955209493637085
0.021843690425157547 0.62259864807128906 0.32454016804695129
0.0007804721244610846 0.6399388313293457 0.30204221606254578
0.30013325810432434 0.68782877922058105 0.31401523947715759
0.806598961353302 0.74492806196212769 0.34040489792823792
0.99920153617858887 0.78888875246047974 0.35106015205383301
0.012624000199139118 0.7729727029800415 0.31280156970024109
0.008493117056787014 0.7918468713760376 0.28725296258926392
0.35896086692810059 0.82961165904998779 0.29445841908454895
0.81089621782302856 0.87969565391540527 0.35400962829589844
0.99980789422988892 0.91593468189239502 0.38780549168586731
0.0021037980914115906 0.041880395263433456 0.4937642514705658
0.093914613127708435 0.038893546909093857 0.5162733793258667
0.43408533930778503 0.030920574441552162 0.5501781702041626
0.77350729703903198 0.04504191130399704 0.53435349464416504
0.96143466234207153 0.10303986817598343 0.48749503493309021
0 0.23387432098388672 0.53143191337585449
0.017295882105827332 0.22976884245872498 0.53713715076446533
0.39123913645744324 0.22523528337478638 0.55790811777114868
0.79481852054595947 0.25916373729705811 0.51671630144119263
0.96967941522598267 0.3458123505115509 0.50915080308914185
0.0064464644528925419 0.46612393856048584 0.55870902538299561
0.011739334091544151 0.4860980212688446 0.56142061948776245
0.23794470727443695 0.48484259843826294 0.55955642461776733
0.82127267122268677 0.55211621522903442 0.55281603336334229
0.98108005523681641 0.65707194805145264 0.62103909254074097
0.005742181558161974 0.68265283107757568 0.56577324867248535
0.00013903449871577322 0.70856308937072754 0.5564456582069397
0.07938702404499054 0.72041839361190796 0.55083811283111572
0.75646579265594482 0.77899086475372314 0.59282642602920532
0.99550807476043701 0.82895076274871826 0.63012844324111938
0.0001973918842850253 0.82233321666717529 0.53520888090133667
0 0.82834303379058838 0.51361942291259766
0.23480603098869324 0.84182775020599365 0.50145506858825684
0.779205322265625 0.89425182342529297 0.55681473016738892
0.99826675653457642 0.93776637315750122 0.63153350353240967
0.0099435392767190933 0.04219156876206398 0.67759299278259277
0.066983334720134735 0.034582715481519699 0.71492487192153931
0.31347864866256714 0.035861071199178696 0.73600131273269653
0.71100354194641113 0.029552789404988289 0.74951440095901489
0.97535163164138794 0.088594727218151093 0.74022865295410156
0.0059388852678239346 0.2268940657377243 0.74511158466339111
0.020544731989502907 0.22954598069190979 0.74344742298126221
0.22784413397312164 0.21446958184242249 0.76246678829193115
0.71167176961898804 0.237148717045784 0.77871996164321899
0.97291004657745361 0.3003849983215332 0.77147620916366577
0.0018928677309304476 0.47246462106704712 0.75827246904373169
0.018900180235505104 0.49352321028709412 0.76851117610931396
0.06885981559753418 0.48203310370445251 0.78829419612884521
0.71647828817367554 0.51169759035110474 0.80267941951751709
0.97168010473251343 0.57592785358428955 0.77969402074813843
0.0031537672039121389 0.7188103199005127 0.77919900417327881
0.033331356942653656 0.75334817171096802 0.7847820520401001
0.010402783751487732 0.76502156257629395 0.79136663675308228
0.63340681791305542 0.80351024866104126 0.81388962268829346
0.98554259538650513 0.85300719738006592 0.83297872543334961
0.00094459386309608817 0.87130582332611084 0.78305560350418091
0.019618434831500053 0.87999677658081055 0.78127503395080566
0.040712080895900726 0.88604539632797241 0.76289385557174683
0.70847129821777344 0.921164870262146 0.79576760530471802
0.99257576465606689 0.96402621269226074 0.84705018997192383
0.016696736216545105 0.033761985599994659 0.82846206426620483
0.095528952777385712 0.044628515839576721 0.845600426197052
0.24942125380039215 0.057754456996917725 0.84883928298950195
0.60011667013168335 0.045277196913957596 0.85400611162185669
0.91912668943405151 0.072851665318012238 0.86171519756317139
0.004599343053996563 0.22901263833045959 0.85362005233764648
0.016843130812048912 0.21913175284862518 0.85427618026733398
0.15339057147502899 0.20567423105239868 0.860881507396698
0.63164752721786499 0.20811393857002258 0.86612272262573242
0.94482362270355225 0.25645920634269714 0.87160956859588623
0.0025767607148736715 0.46086239814758301 0.85425764322280884
0.015029413625597954 0.46756407618522644 0.86121392250061035
0.027971230447292328 0.43818113207817078 0.87248772382736206
0.60891580581665039 0.45520392060279846 0.89249187707901001
0.95427823066711426 0.51406395435333252 0.9017978310585022
0.0034373116213828325 0.68660891056060791 0.86343693733215332
0.026532715186476707 0.71636950969696045 0.87428444623947144
0.012758576311171055 0.73587095737457275 0.88938277959823608
0.57122510671615601 0.77358478307723999 0.91472548246383667
0.9713931679725647 0.80459821224212646 0.92767083644866943
8.1858917837962508e-05 0.86574327945709229 0.88251340389251709
0.031046055257320404 0.87929421663284302 0.88747614622116089
0.005150484386831522 0.90435761213302612 0.9093940258026123
0.47331029176712036 0.93379873037338257 0.92009252309799194
0.98916411399841309 0.98709946870803833 0.98199403285980225
