assets/lut/abigailgonzalez blade runner.cube
# Created by: G'MIC (https://gmic.eu)
TITLE "blade_runner"
# LUT size
LUT_3D_SIZE 13
# Data domain
DOMAIN_MIN 0.0 0.0 0.0
DOMAIN_MAX 1.0 1.0 1.0
# LUT data points
0.068973258137702942 0.047766488045454025 0.033422850072383881
0.1654670238494873 0.021577274426817894 0.015839310362935066
0.31586965918540955 0.013755573891103268 0.0049242055974900723
0.45700851082801819 0.0055654789321124554 0.00029476391500793397
0.57397967576980591 0.0003610648273024708 0
0.67481261491775513 0 0
0.76830756664276123 0 0
0.85846495628356934 0 0
0.93673026561737061 1.0112687959917821e-05 0.0015416613314300776
0.98428612947463989 0.00042220469913445413 0.0041582891717553139
0.99964433908462524 2.994911301357206e-05 0.0042418534867465496
0.99955463409423828 0.00025281720445491374 0.0037311629857867956
0.99160706996917725 0.00087513640755787492 0.0037387474440038204
0.055167313665151596 0.12072601169347763 0.032691821455955505
0.15048803389072418 0.095525451004505157 0.017094392329454422
0.30716511607170105 0.077268533408641815 0.010459615848958492
0.4531228244304657 0.054642517119646072 0.0038903478998690844
0.57182163000106812 0.032298922538757324 0.00018051745428238064
0.67057543992996216 0.013873575255274773 0
0.75992769002914429 0.0043817856349050999 3.7518668250413612e-05
0.84843152761459351 0.0027402392588555813 0.0022657506633549929
0.92857080698013306 0.0055395239032804966 0.0084349540993571281
0.98105919361114502 0.0058397031389176846 0.011140561662614346
0.99951362609863281 0.0013891481794416904 0.0098852869123220444
0.99997061491012573 0 0.0070025576278567314
0.99306267499923706 0 0.0045102289877831936
0.043143942952156067 0.19687950611114502 0.033995579928159714
0.12295681983232498 0.1784185916185379 0.017582448199391365
0.29361489415168762 0.16365893185138702 0.013065936975181103
0.44517874717712402 0.13888904452323914 0.0060566174797713757
0.56720781326293945 0.11556863039731979 0.00045209398376755416
0.6661643385887146 0.090890355408191681 0
0.75504040718078613 0.069417677819728851 0.0018949321238324046
0.84253466129302979 0.058215450495481491 0.0073169334791600704
0.92180126905441284 0.054005522280931473 0.012467567808926105
0.97639346122741699 0.045178595930337906 0.0147197050973773
0.99875354766845703 0.028987271711230278 0.01213912945240736
0.99998098611831665 0.011732617393136024 0.0077847200445830822
0.9933205246925354 0.0061789718456566334 0.0036545847542583942
0.034254591912031174 0.28146731853485107 0.03804156556725502
0.10535864531993866 0.2660822868347168 0.020083783194422722
0.26737600564956665 0.25441381335258484 0.0096694650128483772
0.43356013298034668 0.2387160062789917 0.0023668026551604271
0.56297504901885986 0.22091370820999146 1.382266782457009e-05
0.66328525543212891 0.19961933791637421 0
0.7528337836265564 0.17895077168941498 0.0027908922638744116
0.84118276834487915 0.16095280647277832 0.00788141880184412
0.920024573802948 0.14526465535163879 0.011588242836296558
0.97492402791976929 0.12676352262496948 0.012850308790802956
0.99831372499465942 0.1031024381518364 0.010605067946016788
0.99997681379318237 0.078597798943519592 0.0058556203730404377
0.99336373805999756 0.065555855631828308 0.0011857574572786689
0.012184890918433666 0.36769688129425049 0.044826880097389221
0.078288376331329346 0.35546624660491943 0.026614440605044365
0.23916429281234741 0.34568461775779724 0.0099903484806418419
0.4224056601524353 0.33589664101600647 0.0011782926740124822
0.55779916048049927 0.32518205046653748 0
0.65849775075912476 0.31160226464271545 0
0.74870204925537109 0.29560768604278564 0.0024995093699544668
0.83861833810806274 0.27790173888206482 0.0056446748785674572
0.92006474733352661 0.26018592715263367 0.0072110346518456936
0.97651231288909912 0.23935413360595703 0.0082251457497477531
0.99908947944641113 0.2179512083530426 0.007155698724091053
0.99999159574508667 0.20018182694911957 0.0036504557356238365
0.99360877275466919 0.19331401586532593 1.7233456674148329e-05
0.00023208318452816457 0.45408055186271667 0.05406583845615387
0.039545260369777679 0.44702726602554321 0.036591801792383194
0.20066134631633759 0.43958345055580139 0.016644451767206192
0.40051072835922241 0.43228939175605774 0.0040388517081737518
0.54263961315155029 0.42471516132354736 0.00038713941466994584
0.64627152681350708 0.41620638966560364 0
0.73800671100616455 0.40497919917106628 0.0016192866023629904
0.83091193437576294 0.39186766743659973 0.0030232896097004414
0.91759645938873291 0.37804871797561646 0.0025523616932332516
0.97799515724182129 0.36197838187217712 0.003268013708293438
0.99968200922012329 0.34798824787139893 0.0036687813699245453
1 0.34296917915344238 0.0029698091093450785
0.99269568920135498 0.34392058849334717 0.0012597925961017609
0 0.54003810882568359 0.062123719602823257
0.0087296729907393456 0.53755098581314087 0.043744854629039764
0.13710266351699829 0.53251177072525024 0.02135448157787323
0.35234177112579346 0.52654880285263062 0.0076981340534985065
0.51576882600784302 0.52088242769241333 0.0015816781669855118
0.62664681673049927 0.51444965600967407 1.7053940609912388e-05
0.72036999464035034 0.50626975297927856 0.00049012125236913562
0.81631463766098022 0.49657729268074036 0.0018327600555494428
0.90958869457244873 0.4862397313117981 0.00064719707006588578
0.97774583101272583 0.47562333941459656 0.00095874560065567493
0.99993777275085449 0.46908771991729736 0.0019579569343477488
1 0.46904519200325012 0.0020211611408740282
0.99378126859664917 0.46970483660697937 0.0015610340051352978
0 0.62506103515625 0.071094781160354614
0.0017829595599323511 0.62706547975540161 0.053225170820951462
0.096330679953098297 0.62439620494842529 0.031716875731945038
0.29914265871047974 0.61962425708770752 0.013629688881337643
0.48072141408920288 0.6142699122428894 0.0026351478882133961
0.60341900587081909 0.60916233062744141 4.1288487409474328e-05
0.70029032230377197 0.60312908887863159 0
0.79876315593719482 0.59525102376937866 0.001460969215258956
0.90020358562469482 0.58646297454833984 0.0018694709287956357
0.97712326049804688 0.57838863134384155 0.0013189128367230296
1 0.57555323839187622 0.0016977497143670917
1 0.57564347982406616 0.0016866646474227309
0.99596428871154785 0.57438582181930542 0.0011678059818223119
0.00066665949998423457 0.71084922552108765 0.083573058247566223
0.002505388343706727 0.71779602766036987 0.067454919219017029
0.081228502094745636 0.71697252988815308 0.046335570514202118
0.25841441750526428 0.71192282438278198 0.021513126790523529
0.44395214319229126 0.70595526695251465 0.0030209708493202925
0.5783124566078186 0.70180690288543701 0
0.68209850788116455 0.69869089126586914 0
0.78386080265045166 0.69302427768707275 0.0022357567213475704
0.8887292742729187 0.68455231189727783 0.0035174500662833452
0.97230112552642822 0.67721909284591675 0.0027693056035786867
0.99990338087081909 0.67379367351531982 0.0029364342335611582
1 0.67346441745758057 0.0031221427489072084
0.99778181314468384 0.67242825031280518 0.0031509250402450562
0.014652895741164684 0.79768133163452148 0.097397401928901672
0.004383341409265995 0.81100445985794067 0.081327684223651886
0.062198221683502197 0.81118732690811157 0.05880756676197052
0.21250516176223755 0.80444347858428955 0.029586073011159897
0.39509209990501404 0.7976374626159668 0.0051640528254210949
0.54003137350082397 0.79449576139450073 2.7196547307539731e-05
0.65704637765884399 0.79330658912658691 0
0.76501649618148804 0.79094719886779785 0.0026744918432086706
0.87015378475189209 0.78354698419570923 0.0039215688593685627
0.95551824569702148 0.77551156282424927 0.0039215688593685627
0.99708491563796997 0.77262365818023682 0.0039504705928266048
1 0.77158546447753906 0.0044442568905651569
0.99851793050765991 0.76863282918930054 0.0052495771087706089
0.035009153187274933 0.88173413276672363 0.109513059258461
0.0026275485288351774 0.9060361385345459 0.092119358479976654
0.02107657678425312 0.90534842014312744 0.070304691791534424
0.13076946139335632 0.89519220590591431 0.043042171746492386
0.30321517586708069 0.88550180196762085 0.017434811219573021
0.4738013744354248 0.88011592626571655 0.0029459486249834299
0.61572396755218506 0.881602942943573 2.1541820842685411e-06
0.73548215627670288 0.88346689939498901 0.0019595576450228691
0.84583306312561035 0.87679803371429443 0.0035158642567694187
0.93548077344894409 0.86708813905715942 0.003148501506075263
0.98740065097808838 0.86286443471908569 0.0024497536942362785
0.99979907274246216 0.86351263523101807 0.0022228015586733818
0.99718391895294189 0.86103111505508423 0.0038073819596320391
0.036756120622158051 0.95064419507980347 0.1156659722328186
0.00077984377276152372 0.98513150215148926 0.097591772675514221
0.00032954497146420181 0.98388910293579102 0.077766552567481995
0.04985746368765831 0.97258913516998291 0.055085394531488419
0.21520377695560455 0.95836573839187622 0.029528584331274033
0.41050109267234802 0.94753676652908325 0.0070713418535888195
0.57453560829162598 0.95111095905303955 3.9852366171544418e-05
0.70332956314086914 0.96004325151443481 0.00036580703454092145
0.8224760890007019 0.95283651351928711 0.0013512106379494071
0.91857457160949707 0.94090425968170166 0.00066335342125967145
0.97344887256622314 0.93773740530014038 2.1392223061411642e-05
0.99210542440414429 0.94078081846237183 0
0.98934042453765869 0.93936371803283691 0.0010025174124166369
0.037513598799705505 0.97592806816101074 0.11700684577226639
0.0010194367496296763 0.9999203085899353 0.09834558516740799
0 1 0.079945854842662811
0.032405883073806763 0.99997901916503906 0.059379801154136658
0.18410611152648926 0.99789232015609741 0.033654037863016129
0.38102993369102478 0.9911726713180542 0.0073053846135735512
0.55110025405883789 0.99300748109817505 0
0.68315684795379639 0.99845290184020996 0
0.80435270071029663 0.99645727872848511 0
0.90174007415771484 0.99075007438659668 0
0.95525330305099487 0.98964005708694458 0
0.97449296712875366 0.99205267429351807 0
0.97450214624404907 0.99101126194000244 0.00082943483721464872
0.04361724853515625 0.026564653962850571 0.071766950190067291
0.17783892154693604 0.020544283092021942 0.062550291419029236
0.32211297750473022 0.0077355178073048592 0.039125777781009674
0.46317169070243835 0.0022343953605741262 0.012295966036617756
0.58173489570617676 3.177418329869397e-05 0.00041556265205144882
0.68242418766021729 0 0
0.77496898174285889 0 0
0.86372005939483643 0 0
0.9393693208694458 0 4.8364378017140552e-05
0.98651939630508423 0 0.00054177676793187857
0.99987131357192993 0.00032924578408710659 0.0015714458422735333
0.99721622467041016 0.00270105991512537 0.0055386712774634361
0.98516440391540527 0.007152976468205452 0.010288073681294918
0.03165435791015625 0.10263941437005997 0.069873020052909851
0.16253469884395599 0.094170622527599335 0.061915334314107895
0.31571942567825317 0.070893064141273499 0.04494788870215416
0.4614197313785553 0.049274221062660217 0.020235413685441017
0.58135879039764404 0.027500750496983528 0.0026881946250796318
0.67929023504257202 0.0084673715755343437 0
0.76960104703903198 0.001700292807072401 9.8733346476365114e-07
0.85905873775482178 0.00099983962718397379 0.00056696875253692269
0.93781214952468872 0.0013459897600114346 0.0037594814784824848
0.98796415328979492 0.0010145149426534772 0.0072315442375838757
1 7.8163895523175597e-05 0.007598203606903553
0.99908924102783203 0 0.0076387440785765648
0.98791831731796265 0.00026973648346029222 0.0082945134490728378
0.027894981205463409 0.18655022978782654 0.068660825490951538
0.14319781959056854 0.17763142287731171 0.059224266558885574
0.30620875954627991 0.16076259315013885 0.043194249272346497
0.45757609605789185 0.13833057880401611 0.020217910408973694
0.57894539833068848 0.11395449191331863 0.0030022864229977131
0.67522740364074707 0.083463065326213837 0
0.76391196250915527 0.061111629009246826 0.0018512351671233773
0.85342955589294434 0.051068190485239029 0.0050855600275099277
0.93343770503997803 0.044432174414396286 0.010478464886546135
0.98572558164596558 0.034936059266328812 0.013481708243489265
0.99999654293060303 0.022504828870296478 0.011753321625292301
0.9996839165687561 0.012903235852718353 0.0086080813780426979
0.98979806900024414 0.012975401245057583 0.0069224489852786064
0.023068387061357498 0.27366629242897034 0.069701522588729858
0.11663608998060226 0.26305016875267029 0.056308656930923462
0.28295719623565674 0.25211670994758606 0.038377724587917328
0.4490540623664856 0.23885279893875122 0.016209769994020462
0.57530480623245239 0.22260324656963348 0.0013503878144547343
0.67139846086502075 0.19894604384899139 0
0.75914674997329712 0.17702065408229828 0.0028162039816379547
0.84901136159896851 0.15775734186172485 0.0063120825216174126
0.93010216951370239 0.13942326605319977 0.010424475185573101
0.98383915424346924 0.11914776265621185 0.012884342111647129
0.99999171495437622 0.09825509786605835 0.011557904072105885
0.99990314245223999 0.082399599254131317 0.0073120864108204842
0.99163782596588135 0.079654335975646973 0.003318726783618331
0.0070041283033788204 0.36293849349021912 0.075086139142513275
0.082623094320297241 0.35351693630218506 0.060729935765266418
0.25077423453330994 0.3449002206325531 0.039207890629768372
0.43508508801460266 0.33621257543563843 0.016199000179767609
0.56948351860046387 0.3272973895072937 0.0022142746020108461
0.66527628898620605 0.31490656733512878 0
0.75213652849197388 0.29936602711677551 0.0026149824261665344
0.84365671873092651 0.27930477261543274 0.0043100845068693161
0.92814046144485474 0.25866782665252686 0.0068090851418673992
0.98435252904891968 0.23630855977535248 0.0089459288865327835
1 0.21515072882175446 0.0084707075729966164
0.99998205900192261 0.2030266672372818 0.005601935088634491
0.99245655536651611 0.2019672691822052 0.0013798881554976106
5.5649699788773432e-05 0.45284590125083923 0.084648892283439636
0.038152359426021576 0.44718220829963684 0.072970040142536163
0.20516344904899597 0.43968141078948975 0.047688815742731094
0.40868717432022095 0.43220639228820801 0.021320013329386711
0.55430269241333008 0.42579585313796997 0.0058799143880605698
0.65223151445388794 0.4182889461517334 0.00026266061468049884
0.74036794900894165 0.40707248449325562 0.0014001285890117288
0.83364808559417725 0.39297759532928467 0.0020509457681328058
0.92277038097381592 0.3774009644985199 0.0025113574229180813
0.98392093181610107 0.36087825894355774 0.0040980172343552113
1 0.34701147675514221 0.0053284289315342903
0.99985748529434204 0.34228253364562988 0.0063168695196509361
0.98990404605865479 0.34430307149887085 0.0058149597607553005
0 0.54103636741638184 0.091579809784889221
0.010954643599689007 0.53898352384567261 0.079843915998935699
0.15297991037368774 0.53286164999008179 0.054581031203269958
0.36994454264640808 0.52548974752426147 0.026922771707177162
0.528847336769104 0.52063649892807007 0.0090974392369389534
0.63126182556152344 0.51591944694519043 0.00097588932840153575
0.72226148843765259 0.50696998834609985 0.00025530048878863454
0.81888681650161743 0.49626973271369934 0.00098615163005888462
0.9133913516998291 0.48608154058456421 0.00044050029828213155
0.98141759634017944 0.47552922368049622 0.0019741731230169535
1 0.46859979629516602 0.0038327684160321951
0.99991828203201294 0.46878555417060852 0.006181769073009491
0.98930180072784424 0.4700891375541687 0.0077476203441619873
0 0.62783598899841309 0.096700526773929596
0.0026864593382924795 0.62856805324554443 0.084433503448963165
0.10402631759643555 0.62426882982254028 0.063237272202968597
0.3085930347442627 0.6181984543800354 0.034952573478221893
0.48881193995475769 0.61364221572875977 0.011549212969839573
0.6092950701713562 0.60962462425231934 0.00080346502363681793
0.70636194944381714 0.60334712266921997 0
0.80390644073486328 0.59479421377182007 0.00060590857174247503
0.90261447429656982 0.5862734317779541 0.0019216201035305858
0.97802734375 0.57858157157897949 0.0029777525924146175
1 0.57502090930938721 0.0039158840663731098
0.99998307228088379 0.57499247789382935 0.0060065626166760921
0.99076384305953979 0.57443678379058838 0.0075827203691005707
7.7789906072212034e-07 0.7167624831199646 0.10509023070335388
0.00031282013515010476 0.71987026929855347 0.093913041055202484
0.070293799042701721 0.71615636348724365 0.075147815048694611
0.25427737832069397 0.71038681268692017 0.043358329683542252
0.44887623190879822 0.70561307668685913 0.013153749518096447
0.58812552690505981 0.70226627588272095 0.00045656689326278865
0.69185346364974976 0.69886595010757446 0
0.7891499400138855 0.691977858543396 0.0013715557288378477
0.88947468996047974 0.68388909101486206 0.0032273237593472004
0.97130954265594482 0.67663300037384033 0.0037840001750737429
0.99991500377655029 0.67322182655334473 0.0048538059927523136
0.99998944997787476 0.67227977514266968 0.0077856327407062054
0.99210512638092041 0.67024701833724976 0.010082170367240906
0.0022879955358803272 0.8091006875038147 0.11554244160652161
5.7594447753217537e-06 0.81309014558792114 0.10429075360298157
0.049593772739171982 0.80830127000808716 0.084275253117084503
0.20882131159305573 0.80253392457962036 0.050851769745349884
0.40195173025131226 0.79823577404022217 0.016883101314306259
0.55412650108337402 0.79612463712692261 0.0013063019141554832
0.66908252239227295 0.79399913549423218 0
0.7710191011428833 0.79032683372497559 0.00042621386819519103
0.87219786643981934 0.78260141611099243 0.0018249661661684513
0.95751404762268066 0.77473545074462891 0.0025604397524148226
0.99776381254196167 0.7709234356880188 0.0034754285588860512
0.999988853931427 0.76995360851287842 0.0065977657213807106
0.99271208047866821 0.76665109395980835 0.010246187448501587
0.0060944501310586929 0.90273153781890869 0.12464307993650436
0 0.90951633453369141 0.11307287961244583
0.015433532185852528 0.9003598690032959 0.094663761556148529
0.13103483617305756 0.89423936605453491 0.064745567739009857
0.31205791234970093 0.88912969827651978 0.032211378216743469
0.48943477869033813 0.88418513536453247 0.0084528159350156784
0.62914621829986572 0.8835265040397644 0.00026530845207162201
0.74326318502426147 0.88316267728805542 3.6651013033406343e-06
0.84974640607833862 0.87707674503326416 0.00011400708899600431
0.93894851207733154 0.86838191747665405 0.00014823464152868837
0.98906946182250977 0.86504435539245605 0.00024274938914459199
0.99970895051956177 0.86618262529373169 0.0012853136286139488
0.99223595857620239 0.86336034536361694 0.0054227942600846291
0.0039423923008143902 0.980765700340271 0.12948228418827057
0 0.98806184530258179 0.11634093523025513
0.00026658002752810717 0.98269033432006836 0.10065026581287384
0.051453117281198502 0.97637856006622314 0.078359849750995636
0.21442577242851257 0.96760153770446777 0.049585230648517609
0.4172738790512085 0.9551510214805603 0.01851348951458931
0.5844341516494751 0.95425260066986084 0.0023487017024308443
0.71178293228149414 0.95945638418197632 1.8265667677042075e-05
0.82569414377212524 0.95477777719497681 0
0.919666588306427 0.9451482892036438 0
0.9745713472366333 0.94306254386901855 0
0.99213981628417969 0.94704192876815796 0
0.98728913068771362 0.94613164663314819 0.0013270957861095667
0.006650842260569334 0.99900895357131958 0.13081583380699158
0 1 0.11629578471183777
0 1 0.10142135620117188
0.029856154695153236 1 0.082239843904972076
0.17736543715000153 0.99973511695861816 0.05533619225025177
0.37901240587234497 0.9961821436882019 0.02264130488038063
0.55392950773239136 0.99582755565643311 0.0044403676874935627
0.68753659725189209 0.99862033128738403 0.00039499319973401725
0.80522960424423218 0.99775481224060059 0
0.89987480640411377 0.99427247047424316 0
0.95543897151947021 0.99281060695648193 0
0.97483581304550171 0.99487876892089844 0
0.97366416454315186 0.9936593770980835 0.0014614778338000178
0.047739680856466293 0.028785556554794312 0.09733174741268158
0.1735532283782959 0.019121566787362099 0.088214084506034851
0.31808584928512573 0.0056645111180841923 0.066359274089336395
0.46152222156524658 0.0012047262862324715 0.033075369894504547
0.58410197496414185 4.9187154218088835e-05 0.0057754069566726685
0.68460851907730103 0 8.9757586465566419e-06
0.77567100524902344 0 0
0.86397141218185425 0 0
0.93941032886505127 0 0
0.98573380708694458 0 0
0.99912375211715698 0.00068669038591906428 7.1806067580837407e-07
0.99242514371871948 0.007217826321721077 0.0023284913040697575
0.97782224416732788 0.017693808302283287 0.01277739554643631
0.039231814444065094 0.10658115893602371 0.096038520336151123
0.16031269729137421 0.094997182488441467 0.087550297379493713
0.31335654854774475 0.068113155663013458 0.068062499165534973
0.46212130784988403 0.047072853893041611 0.036081802099943161
0.58565253019332886 0.027249744161963463 0.008741685189306736
0.68286681175231934 0.0071578230708837509 0.00017719643074087799
0.77283847332000732 0.001075684791430831 0
0.86364209651947021 0.00065591849852353334 0
0.94290965795516968 0.00011091045598732308 0.00018077177810482681
0.99071979522705078 2.9620002806041157e-06 0.0008674770942889154
1 0 0.00078157911775633693
0.99637508392333984 2.2469313989859074e-05 0.0023423288948833942
0.98217356204986572 0.003522027749568224 0.0075412527658045292
0.026345361024141312 0.18807762861251831 0.094035416841506958
0.13779501616954803 0.17754685878753662 0.084477551281452179
0.3042941689491272 0.15899726748466492 0.064511589705944061
0.46159866452217102 0.13731597363948822 0.033139713108539581
0.58490914106369019 0.11230612546205521 0.0065705990418791771
0.67932009696960449 0.078906655311584473 0.00010359520820202306
0.7676774263381958 0.0574454665184021 0
0.85883337259292603 0.047691509127616882 0.00014832441229373217
0.939655601978302 0.036732632666826248 0.0023751652333885431
0.98957866430282593 0.024919068440794945 0.0054588615894317627
1 0.016072770580649376 0.0046290978789329529
0.99743044376373291 0.01251825038343668 0.0052677975036203861
0.98400092124938965 0.018144614994525909 0.007460231427103281
0.019047187641263008 0.27019122242927551 0.094106994569301605
0.11371748894453049 0.25989869236946106 0.083303175866603851
0.2864716649055481 0.25028705596923828 0.063339173793792725
0.45462578535079956 0.23720604181289673 0.032885517925024033
0.58028310537338257 0.22046269476413727 0.0060238107107579708
0.67393398284912109 0.19706380367279053 6.731818757543806e-06
0.7610592246055603 0.17567645013332367 0
0.85226309299468994 0.15516255795955658 0.00022738586994819343
0.93438935279846191 0.13327017426490784 0.0021853877697139978
0.98576074838638306 0.10989850759506226 0.005405037198215723
0.99992817640304565 0.089866876602172852 0.0069217607378959656
0.99709230661392212 0.080659665167331696 0.0077634323388338089
0.98423945903778076 0.084929689764976501 0.0089859608560800552
0.013569551520049572 0.35965070128440857 0.098169006407260895
0.088374026119709015 0.35109627246856689 0.087293036282062531
0.25443792343139648 0.34347507357597351 0.066313818097114563
0.43573063611984253 0.33546283841133118 0.036930922418832779
0.56995236873626709 0.32627037167549133 0.010718252509832382
0.66556650400161743 0.31349122524261475 0.0002743889344856143
0.75248831510543823 0.29856184124946594 0
0.84526127576828003 0.27857533097267151 2.6269051886629313e-05
0.93145132064819336 0.25603702664375305 0.00068586762063205242
0.98631769418716431 0.23073682188987732 0.0025653913617134094
0.99997454881668091 0.2085278183221817 0.0048149558715522289
0.99743282794952393 0.20072591304779053 0.0075584114529192448
0.98436921834945679 0.20476961135864258 0.008940049447119236
0.0012614381266757846 0.45052605867385864 0.10629526525735855
0.049306083470582962 0.44558680057525635 0.096200264990329742
0.2081596851348877 0.4391791820526123 0.072415143251419067
0.40353497862815857 0.43171983957290649 0.041554275900125504
0.55232006311416626 0.42419180274009705 0.015722133219242096
0.6530081033706665 0.41470250487327576 0.0015382205601781607
0.74115020036697388 0.40426823496818542 0
0.83527451753616333 0.39210447669029236 0
0.92525988817214966 0.37673673033714294 1.4989515875640791e-05
0.98507165908813477 0.35872790217399597 0.00031358306296169758
