assets/lut/abigailgonzalez matrix.cube
# Created by: G'MIC (https://gmic.eu)
TITLE "matrix"
# LUT size
LUT_3D_SIZE 13
# Data domain
DOMAIN_MIN 0.0 0.0 0.0
DOMAIN_MAX 1.0 1.0 1.0
# LUT data points
0.015800610184669495 0.042143609374761581 0.039935346692800522
0.053357023745775223 0.05932241678237915 0.038544103503227234
0.10368076711893082 0.072250440716743469 0.037491008639335632
0.15578897297382355 0.082289330661296844 0.038128752261400223
0.20390339195728302 0.089434906840324402 0.03985634446144104
0.25088071823120117 0.093479618430137634 0.04111124575138092
0.298704594373703 0.095941446721553802 0.043068457394838333
0.3455912172794342 0.094233781099319458 0.047653049230575562
0.39219754934310913 0.089271724224090576 0.055376555770635605
0.43878725171089172 0.082500994205474854 0.063934549689292908
0.48279142379760742 0.075559996068477631 0.071165420114994049
0.52128076553344727 0.06853446364402771 0.077506452798843384
0.55542147159576416 0.061375517398118973 0.084918014705181122
0.010995722375810146 0.074938587844371796 0.047923337668180466
0.046756085008382797 0.091685861349105835 0.046588104218244553
0.097601346671581268 0.1059856191277504 0.04416949674487114
0.15050815045833588 0.1176140159368515 0.043155580759048462
0.2004988044500351 0.12579944729804993 0.043360047042369843
0.25247600674629211 0.13115783035755157 0.043383114039897919
0.30549091100692749 0.13508172333240509 0.043964192271232605
0.35633832216262817 0.13580650091171265 0.04776681587100029
0.40689966082572937 0.13282744586467743 0.055283010005950928
0.45746496319770813 0.12744978070259094 0.064315527677536011
0.5038909912109375 0.12092924118041992 0.072513580322265625
0.54310554265975952 0.11360440403223038 0.079703405499458313
0.57646894454956055 0.10628249496221542 0.087953351438045502
0.0096976039931178093 0.10989414155483246 0.052498344331979752
0.042754407972097397 0.12689247727394104 0.052548844367265701
0.08879406750202179 0.14332839846611023 0.050021138042211533
0.14128535985946655 0.15638478100299835 0.048239510506391525
0.19541087746620178 0.16398192942142487 0.048286870121955872
0.25278210639953613 0.16895896196365356 0.047739423811435699
0.30918979644775391 0.17401553690433502 0.047261767089366913
0.36363363265991211 0.1778809130191803 0.049633506685495377
0.41857323050498962 0.17828176915645599 0.056170985102653503
0.47408914566040039 0.17535065114498138 0.065621361136436462
0.52454429864883423 0.16970135271549225 0.075285546481609344
0.56484192609786987 0.16231526434421539 0.084089554846286774
0.59790199995040894 0.15440253913402557 0.093260534107685089
0.0097919236868619919 0.14558352530002594 0.057879235595464706
0.041597031056880951 0.16377444565296173 0.059098862111568451
0.083899103105068207 0.1816977858543396 0.058214299380779266
0.13480988144874573 0.19633887708187103 0.056621730327606201
0.19245758652687073 0.20578780770301819 0.055540300905704498
0.2533995509147644 0.21190370619297028 0.054222781211137772
0.31301137804985046 0.21754403412342072 0.052894443273544312
0.36980238556861877 0.22331105172634125 0.05367717519402504
0.42869484424591064 0.22708050906658173 0.059204384684562683
0.49117773771286011 0.22701092064380646 0.070341251790523529
0.54526299238204956 0.22281429171562195 0.081840813159942627
0.58672606945037842 0.21501708030700684 0.091603249311447144
0.61990642547607422 0.20648398995399475 0.10165955871343613
0.010853561572730541 0.18182840943336487 0.064103372395038605
0.042736262083053589 0.20183660089969635 0.066159524023532867
0.081958368420600891 0.22075378894805908 0.067079029977321625
0.12959866225719452 0.23652400076389313 0.066524893045425415
0.18759174644947052 0.24996498227119446 0.065168507397174835
0.25327029824256897 0.26117536425590515 0.063143081963062286
0.31812751293182373 0.26817867159843445 0.060951277613639832
0.37932339310646057 0.27333280444145203 0.060772750526666641
0.44372200965881348 0.27987766265869141 0.066044449806213379
0.51122039556503296 0.28394722938537598 0.078159764409065247
0.56920927762985229 0.28188908100128174 0.091383196413516998
0.61111712455749512 0.27413240075111389 0.10223773121833801
0.64356023073196411 0.26417142152786255 0.11287735402584076
0.013618125580251217 0.22015033662319183 0.068431183695793152
0.045519091188907623 0.24138897657394409 0.071263283491134644
0.079612404108047485 0.25994685292243958 0.073522709310054779
0.11942856758832932 0.27529823780059814 0.074296914041042328
0.17567440867424011 0.29244539141654968 0.073800243437290192
0.24825336039066315 0.31157219409942627 0.072276145219802856
0.32160186767578125 0.32305628061294556 0.069567270576953888
0.39072772860527039 0.32887452840805054 0.068901628255844116
0.46260440349578857 0.33878719806671143 0.074144951999187469
0.53438287973403931 0.34771087765693665 0.086230874061584473
0.59607559442520142 0.34975239634513855 0.1009160503745079
0.64030975103378296 0.34298509359359741 0.11394403129816055
0.67371797561645508 0.33133769035339355 0.12615619599819183
0.017482219263911247 0.26234003901481628 0.071318231523036957
0.045897495001554489 0.28183797001838684 0.074560292065143585
0.071530349552631378 0.29840439558029175 0.077845059335231781
0.099243372678756714 0.31044244766235352 0.080441705882549286
0.15106883645057678 0.32913666963577271 0.081435665488243103
0.23049288988113403 0.35535570979118347 0.079717956483364105
0.31576728820800781 0.37565982341766357 0.076404139399528503
0.39697006344795227 0.38926446437835693 0.075003638863563538
0.4781247079372406 0.40395596623420715 0.079857878386974335
0.55716985464096069 0.41837635636329651 0.092108003795146942
0.62558126449584961 0.42592921853065491 0.10868903994560242
0.67553311586380005 0.4218955934047699 0.12443873286247253
0.71176958084106445 0.40997123718261719 0.13865530490875244
0.016141165047883987 0.3076397180557251 0.076937459409236908
0.035012952983379364 0.32307896018028259 0.08042067289352417
0.050966136157512665 0.33627977967262268 0.08413899689912796
0.071997322142124176 0.34780231118202209 0.087675459682941437
0.1216113492846489 0.36828777194023132 0.090174823999404907
0.20789095759391785 0.39994269609451294 0.088795952498912811
0.30576831102371216 0.42928874492645264 0.084697887301445007
0.3998006284236908 0.45196112990379333 0.081671424210071564
0.49070623517036438 0.4728548526763916 0.084810502827167511
0.57793223857879639 0.49274417757987976 0.096023783087730408
0.65501862764358521 0.50625979900360107 0.11345786601305008
0.71219128370285034 0.50578075647354126 0.13092561066150665
0.75198864936828613 0.49380916357040405 0.14600954949855804
0.010154514573514462 0.3585716187953949 0.090440578758716583
0.01887015625834465 0.37068811058998108 0.094109311699867249
0.028647210448980331 0.38374358415603638 0.097280196845531464
0.05025951936841011 0.40013888478279114 0.10085383057594299
0.1039542555809021 0.42594480514526367 0.1047336682677269
0.19479541480541229 0.46082231402397156 0.105025514960289
0.30237102508544922 0.49539652466773987 0.10085531324148178
0.40765184164047241 0.52389079332351685 0.095572061836719513
0.50475001335144043 0.54758667945861816 0.093985326588153839
0.5954667329788208 0.56729280948638916 0.10026437789201736
0.67830747365951538 0.58461213111877441 0.11523976176977158
0.7423710823059082 0.58781677484512329 0.1319468766450882
0.78792238235473633 0.57763791084289551 0.14902856945991516
0.0049705058336257935 0.41811960935592651 0.11255957186222076
0.0073809004388749599 0.42934247851371765 0.11582428961992264
0.012801675125956535 0.44488650560379028 0.11859984695911407
0.033362578600645065 0.46638002991676331 0.12277830392122269
0.088615149259567261 0.49578559398651123 0.12810078263282776
0.18362708389759064 0.53228998184204102 0.13033130764961243
0.30191579461097717 0.5718265175819397 0.1269046813249588
0.41993376612663269 0.60492241382598877 0.11998684704303741
0.52161461114883423 0.62756466865539551 0.11309274286031723
0.6124800443649292 0.64518445730209351 0.11295182257890701
0.69863408803939819 0.66263258457183838 0.12363754212856293
0.76846468448638916 0.66766119003295898 0.13794839382171631
0.8192790150642395 0.65948694944381714 0.15613262355327606
0.0028449264355003834 0.4829896092414856 0.13770236074924469
0.00080508063547313213 0.49340599775314331 0.13963919878005981
0.0016124650137498975 0.50812947750091553 0.14217342436313629
0.013473735190927982 0.5289192795753479 0.14649908244609833
0.062224220484495163 0.55674988031387329 0.15258443355560303
0.15738192200660706 0.59384697675704956 0.15696908533573151
0.28801766037940979 0.64006209373474121 0.15741093456745148
0.42454805970191956 0.68329107761383057 0.1533292829990387
0.53728228807449341 0.71046227216720581 0.14694857597351074
0.63520717620849609 0.73061883449554443 0.14647878706455231
0.72535490989685059 0.74767559766769409 0.15456584095954895
0.79605871438980103 0.75050580501556396 0.1641591489315033
0.84778064489364624 0.74006849527359009 0.18040712177753448
0.00077400956070050597 0.54235857725143433 0.1603882759809494
0 0.55038803815841675 0.1610511839389801
0 0.55996394157409668 0.16191506385803223
0.00049477373249828815 0.57364022731781006 0.16603665053844452
0.022494731470942497 0.5950084924697876 0.17205008864402771
0.10787975788116455 0.63185876607894897 0.17986671626567841
0.24384172260761261 0.68476742506027222 0.18755294382572174
0.39624759554862976 0.73932397365570068 0.19154560565948486
0.53035879135131836 0.77923548221588135 0.19310584664344788
0.64796847105026245 0.81004679203033447 0.20003612339496613
0.74808228015899658 0.83074837923049927 0.21237474679946899
0.8209918737411499 0.83177471160888672 0.22248357534408569
0.87340563535690308 0.81876617670059204 0.23717266321182251
3.0338062060764059e-05 0.5912928581237793 0.17958122491836548
0 0.59595829248428345 0.17920666933059692
0 0.60066407918930054 0.18011933565139771
0 0.60807424783706665 0.18408592045307159
0.0010593190090730786 0.62312430143356323 0.1917310506105423
0.054589200764894485 0.65749114751815796 0.20376481115818024
0.1860489547252655 0.7131655216217041 0.21917858719825745
0.34258601069450378 0.77291780710220337 0.23272857069969177
0.49731361865997314 0.82557308673858643 0.24521511793136597
0.63542956113815308 0.86748594045639038 0.2632288932800293
0.74939358234405518 0.89499408006668091 0.2868899405002594
0.8331943154335022 0.90184980630874634 0.31169402599334717
0.89424806833267212 0.89435338973999023 0.33820223808288574
0.0094213150441646576 0.043528657406568527 0.084432177245616913
0.04348774254322052 0.059775933623313904 0.08299795538187027
0.094260305166244507 0.072814136743545532 0.080450020730495453
0.14749421179294586 0.083799012005329132 0.079019077122211456
0.19811378419399261 0.091921821236610413 0.079394049942493439
0.24861766397953033 0.097622878849506378 0.080069310963153839
0.29909041523933411 0.10219202935695648 0.08081180602312088
0.34664270281791687 0.10160662978887558 0.084059007465839386
0.39472863078117371 0.09704793244600296 0.091069452464580536
0.44381317496299744 0.091196291148662567 0.098105050623416901
0.48925915360450745 0.084540784358978271 0.10361948609352112
0.52652275562286377 0.076714597642421722 0.10816626250743866
0.5572199821472168 0.068253837525844574 0.11373621970415115
0.0053208144381642342 0.078771434724330902 0.095090501010417938
0.035835281014442444 0.09413987398147583 0.092895880341529846
0.088792704045772552 0.10877753049135208 0.088319100439548492
0.14753703773021698 0.12157115340232849 0.085049375891685486
0.20280078053474426 0.13114610314369202 0.083483800292015076
0.25775709748268127 0.13772971928119659 0.082412853837013245
0.31262433528900146 0.14321418106555939 0.081816412508487701
0.36454445123672485 0.14422331750392914 0.084287159144878387
0.41651490330696106 0.14132146537303925 0.09096093475818634
0.4693152904510498 0.13654901087284088 0.098133832216262817
0.51662808656692505 0.13009478151798248 0.10416318476200104
0.55317884683609009 0.12172172218561172 0.10945902764797211
0.58151334524154663 0.11276933550834656 0.11582309752702713
0.007062829565256834 0.11838129162788391 0.099760986864566803
0.034167017787694931 0.1321900337934494 0.099716603755950928
0.080391779541969299 0.14729973673820496 0.096308209002017975
0.13941179215908051 0.16172544658184052 0.091969557106494904
0.20125210285186768 0.17095352709293365 0.089529551565647125
0.2621949315071106 0.17716044187545776 0.087380245327949524
0.32127079367637634 0.18295718729496002 0.085687704384326935
0.37815648317337036 0.18665887415409088 0.087040305137634277
0.43526285886764526 0.1869405061006546 0.092300191521644592
0.49202647805213928 0.18414473533630371 0.09989205002784729
0.54235464334487915 0.17870528995990753 0.10705187916755676
0.57891952991485596 0.17023926973342896 0.11339162290096283
0.60649120807647705 0.16109901666641235 0.1207047700881958
0.0077680549584329128 0.15554025769233704 0.10347037017345428
0.034258224070072174 0.17091973125934601 0.10596943646669388
0.07588544487953186 0.18735156953334808 0.10480671375989914
0.13177764415740967 0.20282018184661865 0.10115929692983627
0.19632695615291595 0.21341755986213684 0.097806848585605621
0.26255002617835999 0.22058561444282532 0.094290666282176971
0.32671657204627991 0.2265281081199646 0.09143809974193573
0.38842558860778809 0.23168118298053741 0.091331183910369873
0.45104610919952393 0.23499888181686401 0.095805749297142029
0.51302003860473633 0.23531609773635864 0.10441779345273972
0.56592077016830444 0.23130311071872711 0.11353176087141037
0.60338348150253296 0.22341887652873993 0.12084814161062241
0.63112252950668335 0.21379908919334412 0.12927933037281036
0.0074833440594375134 0.19208060204982758 0.1061941534280777
0.034118890762329102 0.20973443984985352 0.11054530739784241
0.072589889168739319 0.22785694897174835 0.1118212565779686
0.12413316965103149 0.24419088661670685 0.10964079946279526
0.18858803808689117 0.25786644220352173 0.10591152310371399
0.25951626896858215 0.26881730556488037 0.10154063254594803
0.32998016476631165 0.27558329701423645 0.097606033086776733
0.39770835638046265 0.28081926703453064 0.096302703022956848
0.46640145778656006 0.28744560480117798 0.10067300498485565
0.53432691097259521 0.29187050461769104 0.11069953441619873
0.59072810411453247 0.29063338041305542 0.12209589034318924
0.62888699769973755 0.28265571594238281 0.13093960285186768
0.65665221214294434 0.27187219262123108 0.14009763300418854
0.0082358419895172119 0.22909456491470337 0.10604085028171539
0.033758573234081268 0.24803313612937927 0.11127666383981705
0.066684827208518982 0.26627987623214722 0.11463024467229843
0.11190028488636017 0.28267446160316467 0.11402636021375656
0.17423459887504578 0.300008624792099 0.11115863174200058
0.25111103057861328 0.31699243187904358 0.10678894817829132
0.32976007461547852 0.32814589142799377 0.10245944559574127
0.40513718128204346 0.33556821942329407 0.10082753747701645
0.48091804981231689 0.34634155035018921 0.10432641953229904
0.5543932318687439 0.35605642199516296 0.11495885252952576
0.61546075344085693 0.35837322473526001 0.12850050628185272
0.65661144256591797 0.35070967674255371 0.1410214900970459
0.68539464473724365 0.33757659792900085 0.1532871276140213
0.0095969401299953461 0.26847141981124878 0.10237850248813629
0.030701028183102608 0.28548824787139893 0.10775469243526459
0.055747207254171371 0.30116182565689087 0.1123441681265831
0.091722451150417328 0.31623631715774536 0.11336714774370193
0.15137824416160583 0.33659860491752625 0.11297088116407394
0.23374216258525848 0.36063796281814575 0.10947716236114502
0.32238426804542542 0.37994357943534851 0.10455663502216339
0.4078826904296875 0.39488184452056885 0.10218939930200577
0.49191996455192566 0.41091614961624146 0.10532183200120926
0.57218432426452637 0.42571428418159485 0.11563276499509811
0.63950181007385254 0.43257531523704529 0.13094219565391541
0.68660348653793335 0.4263627827167511 0.14785504341125488
0.71894246339797974 0.41186928749084473 0.16406281292438507
0.0085761426016688347 0.31102332472801208 0.099899530410766602
0.022110793739557266 0.32444226741790771 0.10550984740257263
0.037925839424133301 0.33653190732002258 0.10993608832359314
0.066444680094718933 0.35054308176040649 0.11247645318508148
0.12491691112518311 0.3746778666973114 0.11477255821228027
0.21326014399528503 0.40537092089653015 0.11319956928491592
0.31269508600234985 0.4331270158290863 0.10780926793813705
0.40821418166160583 0.45683091878890991 0.10407453030347824
0.5001254677772522 0.47866180539131165 0.10532514005899429
0.58715105056762695 0.49793875217437744 0.11371275782585144
0.66191083192825317 0.50918984413146973 0.12914630770683289
0.71699023246765137 0.5065956711769104 0.14743627607822418
0.75516754388809204 0.49341318011283875 0.16593784093856812
0.0056218765676021576 0.36244279146194458 0.10695371776819229
0.011949082836508751 0.37307846546173096 0.11186114698648453
0.020724965259432793 0.3834175169467926 0.11504171043634415
0.045211583375930786 0.39826428890228271 0.11764044314622879
0.1051892414689064 0.42824217677116394 0.12376923114061356
0.19957815110683441 0.46528756618499756 0.12552234530448914
0.30794796347618103 0.49907419085502625 0.11990540474653244
0.41287076473236084 0.52806007862091064 0.11328566074371338
0.51002293825149536 0.55182415246963501 0.10950980335474014
0.60033673048019409 0.57185202836990356 0.11271893233060837
0.68113893270492554 0.58597850799560547 0.12488066405057907
0.74446135759353638 0.58750951290130615 0.14208701252937317
0.78991162776947021 0.57719802856445312 0.16196398437023163
0.0040266448631882668 0.42581266164779663 0.12587025761604309
0.0059745637699961662 0.43547990918159485 0.12891481816768646
0.011666151694953442 0.44721686840057373 0.13122646510601044
0.032761741429567337 0.46568107604980469 0.13560481369495392
0.090378358960151672 0.49792450666427612 0.14405713975429535
0.18694207072257996 0.53806942701339722 0.14897917211055756
0.30372369289398193 0.57597172260284424 0.14340107142925262
0.41980665922164917 0.60796618461608887 0.13270384073257446
0.52290385961532593 0.63145500421524048 0.12306097894906998
0.61508846282958984 0.65008682012557983 0.12036840617656708
0.70152938365936279 0.66627901792526245 0.12899082899093628
0.77085405588150024 0.66942691802978516 0.14299052953720093
0.82110124826431274 0.65967804193496704 0.16260628402233124
0.0030765458941459656 0.49299615621566772 0.14783434569835663
0.0028309391345828772 0.50254672765731812 0.14889185130596161
0.0048661325126886368 0.51488393545150757 0.15108491480350494
0.017538242042064667 0.53251034021377563 0.15568897128105164
0.065193787217140198 0.56153368949890137 0.16444030404090881
0.15821060538291931 0.60136502981185913 0.17136335372924805
0.28281614184379578 0.64409142732620239 0.1682514101266861
0.4153689444065094 0.68285655975341797 0.15873971581459045
0.53396093845367432 0.71257966756820679 0.14973916113376617
0.6375916600227356 0.73634082078933716 0.14825277030467987
0.73098254203796387 0.75475227832794189 0.15613530576229095
0.80089634656906128 0.75503909587860107 0.16461434960365295
0.85009276866912842 0.74105876684188843 0.18088024854660034
3.2477284548804164e-05 0.55226945877075195 0.16503570973873138
0 0.55938047170639038 0.16390600800514221
0 0.56830191612243652 0.16531410813331604
0.00097021961119025946 0.58055764436721802 0.16939783096313477
0.023741254583001137 0.6030849814414978 0.17721390724182129
0.10454715043306351 0.64007771015167236 0.18606896698474884
0.23263901472091675 0.68801432847976685 0.1907651424407959
0.38241231441497803 0.73771625757217407 0.19010336697101593
0.52656459808349609 0.7804412841796875 0.1891670823097229
0.65420305728912354 0.81700193881988525 0.19621284306049347
0.76063054800033569 0.8419722318649292 0.21190813183784485
0.82987070083618164 0.8385806679725647 0.2215745598077774
0.8758162260055542 0.81959110498428345 0.2343280017375946
0 0.5975644588470459 0.17650754749774933
0 0.60223758220672607 0.17561788856983185
0 0.60701227188110352 0.17751312255859375
0 0.61517035961151123 0.18247216939926147
0.00095196894835680723 0.63273411989212036 0.19140185415744781
0.048378422856330872 0.66669625043869019 0.2041165679693222
0.17078489065170288 0.71646749973297119 0.21821051836013794
0.32830223441123962 0.77326023578643799 0.22905342280864716
0.49445411562919617 0.82792562246322632 0.23826740682125092
0.64307147264480591 0.8737909197807312 0.25638630986213684
0.76290595531463623 0.90439856052398682 0.28502428531646729
0.84318727254867554 0.90859663486480713 0.31418511271476746
0.8980022668838501 0.89631253480911255 0.34311684966087341
0.0077919755131006241 0.044399663805961609 0.12514306604862213
0.036259431391954422 0.058100186288356781 0.12598098814487457
0.082688786089420319 0.069780312478542328 0.1260174959897995
0.13608419895172119 0.080038122832775116 0.12536224722862244
0.1877019852399826 0.088969163596630096 0.1243726834654808
0.2392784059047699 0.096316181123256683 0.12392618507146835
0.29104131460189819 0.10277177393436432 0.12337484955787659
0.34025788307189941 0.1042780727148056 0.12634246051311493
0.39093488454818726 0.1021663174033165 0.13218891620635986
0.44488295912742615 0.098418444395065308 0.13763408362865448
0.49299091100692749 0.093011848628520966 0.1412833034992218
0.52884703874588013 0.084621444344520569 0.14366669952869415
0.55655956268310547 0.075023874640464783 0.14680519700050354
0.004596455954015255 0.081184655427932739 0.13723884522914886
0.028386149555444717 0.095524221658706665 0.13739359378814697
0.076048232614994049 0.10972894728183746 0.13519527018070221
0.13685700297355652 0.12383289635181427 0.1313844621181488
0.19680705666542053 0.13324631750583649 0.12879996001720428
0.25493898987770081 0.14062888920307159 0.12696294486522675
0.31146532297134399 0.14767301082611084 0.1254551112651825
0.36582383513450623 0.15001997351646423 0.12733429670333862
0.42067873477935791 0.14799532294273376 0.13240240514278412
0.47659340500831604 0.14414201676845551 0.13788895308971405
0.5256161093711853 0.13848786056041718 0.14170484244823456
0.55942201614379883 0.12959745526313782 0.14447341859340668
0.58369356393814087 0.11952362209558487 0.14864431321620941
0.0047373604029417038 0.12277968227863312 0.1448228657245636
0.026573868468403816 0.13486036658287048 0.14705760776996613
0.06977718323469162 0.14872220158576965 0.14622935652732849
0.13186673820018768 0.16571319103240967 0.14104747772216797
0.19971184432506561 0.17654421925544739 0.13671045005321503
0.26526793837547302 0.18436706066131592 0.13306938111782074
0.32752549648284912 0.19161505997180939 0.13032573461532593
0.38763773441314697 0.19525884091854095 0.13064450025558472
0.44770553708076477 0.19508758187294006 0.13465459644794464
0.50660592317581177 0.19246858358383179 0.14031483232975006
0.5564461350440979 0.18718218803405762 0.14497259259223938
0.58979040384292603 0.17867192625999451 0.14893737435340881
0.61305564641952515 0.16868746280670166 0.15392102301120758
0.0048192641697824001 0.16247455775737762 0.15001074969768524
0.027310479432344437 0.17621035873889923 0.15474346280097961
0.066874682903289795 0.19182108342647552 0.15553565323352814
0.12537597119808197 0.20861636102199554 0.15156807005405426
0.19531071186065674 0.22123777866363525 0.14622241258621216
0.2672695517539978 0.23012025654315948 0.14084070920944214
0.33642050623893738 0.23724320530891418 0.13635152578353882
0.40336573123931885 0.24231672286987305 0.13504873216152191
0.4692135751247406 0.24492120742797852 0.13825292885303497
0.53204441070556641 0.24476499855518341 0.14465998113155365
0.58350688219070435 0.24075892567634583 0.1511615514755249
0.61842018365859985 0.23288692533969879 0.15629540383815765
0.64241713285446167 0.22303134202957153 0.16213700175285339
0.0042133107781410217 0.20169062912464142 0.15251941978931427
0.025740724056959152 0.21841888129711151 0.15922540426254272
0.062270339578390121 0.23589785397052765 0.16216756403446198
0.11658495664596558 0.25277426838874817 0.15944613516330719
0.18596655130386353 0.26727163791656494 0.15366560220718384
0.26245653629302979 0.27859225869178772 0.14731061458587646
0.33909386396408081 0.28652498126029968 0.14148621261119843
