assets/lut/abigailgonzalez blade runner.cube
# Created by: G'MIC (https://gmic.eu)
TITLE "blade_runner"
# LUT size
LUT_3D_SIZE 7
# Data domain
DOMAIN_MIN 0.0 0.0 0.0
DOMAIN_MAX 1.0 1.0 1.0
# LUT data points
0.068973258137702942 0.047766488045454025 0.033422850072383881
0.31586965918540955 0.013755573891103268 0.0049242055974900723
0.57397967576980591 0.0003610648273024708 0
0.76830756664276123 0 0
0.93673026561737061 1.0112687959917821e-05 0.0015416613314300776
0.99964433908462524 2.994911301357206e-05 0.0042418534867465496
0.99160706996917725 0.00087513640755787492 0.0037387474440038204
0.043143942952156067 0.19687950611114502 0.033995579928159714
0.29361489415168762 0.16365893185138702 0.013065936975181103
0.56720781326293945 0.11556863039731979 0.00045209398376755416
0.75504040718078613 0.069417677819728851 0.0018949321238324046
0.92180126905441284 0.054005522280931473 0.012467567808926105
0.99875354766845703 0.028987271711230278 0.01213912945240736
0.9933205246925354 0.0061789718456566334 0.0036545847542583942
0.012184890918433666 0.36769688129425049 0.044826880097389221
0.23916429281234741 0.34568461775779724 0.0099903484806418419
0.55779916048049927 0.32518205046653748 0
0.74870204925537109 0.29560768604278564 0.0024995093699544668
0.92006474733352661 0.26018592715263367 0.0072110346518456936
0.99908947944641113 0.2179512083530426 0.007155698724091053
0.99360877275466919 0.19331401586532593 1.7233456674148329e-05
0 0.54003810882568359 0.062123719602823257
0.13710266351699829 0.53251177072525024 0.02135448157787323
0.51576882600784302 0.52088242769241333 0.0015816781669855118
0.72036999464035034 0.50626975297927856 0.00049012125236913562
0.90958869457244873 0.4862397313117981 0.00064719707006588578
0.99993777275085449 0.46908771991729736 0.0019579569343477488
0.99378126859664917 0.46970483660697937 0.0015610340051352978
0.00066665949998423457 0.71084922552108765 0.083573058247566223
0.081228502094745636 0.71697252988815308 0.046335570514202118
0.44395214319229126 0.70595526695251465 0.0030209708493202925
0.68209850788116455 0.69869089126586914 0
0.8887292742729187 0.68455231189727783 0.0035174500662833452
0.99990338087081909 0.67379367351531982 0.0029364342335611582
0.99778181314468384 0.67242825031280518 0.0031509250402450562
0.035009153187274933 0.88173413276672363 0.109513059258461
0.02107657678425312 0.90534842014312744 0.070304691791534424
0.30321517586708069 0.88550180196762085 0.017434811219573021
0.61572396755218506 0.881602942943573 2.1541820842685411e-06
0.84583306312561035 0.87679803371429443 0.0035158642567694187
0.98740065097808838 0.86286443471908569 0.0024497536942362785
0.99718391895294189 0.86103111505508423 0.0038073819596320391
0.037513598799705505 0.97592806816101074 0.11700684577226639
0 1 0.079945854842662811
0.18410611152648926 0.99789232015609741 0.033654037863016129
0.55110025405883789 0.99300748109817505 0
0.80435270071029663 0.99645727872848511 0
0.95525330305099487 0.98964005708694458 0
0.97450214624404907 0.99101126194000244 0.00082943483721464872
0.047739680856466293 0.028785556554794312 0.09733174741268158
0.31808584928512573 0.0056645111180841923 0.066359274089336395
0.58410197496414185 4.9187154218088835e-05 0.0057754069566726685
0.77567100524902344 0 0
0.93941032886505127 0 0
0.99912375211715698 0.00068669038591906428 7.1806067580837407e-07
0.97782224416732788 0.017693808302283287 0.01277739554643631
0.026345361024141312 0.18807762861251831 0.094035416841506958
0.3042941689491272 0.15899726748466492 0.064511589705944061
0.58490914106369019 0.11230612546205521 0.0065705990418791771
0.7676774263381958 0.0574454665184021 0
0.939655601978302 0.036732632666826248 0.0023751652333885431
1 0.016072770580649376 0.0046290978789329529
0.98400092124938965 0.018144614994525909 0.007460231427103281
0.013569551520049572 0.35965070128440857 0.098169006407260895
0.25443792343139648 0.34347507357597351 0.066313818097114563
0.56995236873626709 0.32627037167549133 0.010718252509832382
0.75248831510543823 0.29856184124946594 0
0.93145132064819336 0.25603702664375305 0.00068586762063205242
0.99997454881668091 0.2085278183221817 0.0048149558715522289
0.98436921834945679 0.20476961135864258 0.008940049447119236
0 0.53896600008010864 0.11218735575675964
0.16147042810916901 0.53280866146087646 0.078238017857074738
0.52416473627090454 0.519561767578125 0.019103555008769035
0.72400486469268799 0.50437968969345093 0
0.91533076763153076 0.48592600226402283 0
1 0.46678569912910461 0.00093090580776333809
0.98240935802459717 0.47165891528129578 0.012039722874760628
0.0012868394842371345 0.71632450819015503 0.12199024856090546
0.084498040378093719 0.71470898389816284 0.095995552837848663
0.44430401921272278 0.70680826902389526 0.027373654767870903
0.6940801739692688 0.69889706373214722 1.52587890625e-05
0.88779944181442261 0.68313944339752197 1.5557981214442407e-06
0.99959009885787964 0.66994422674179077 0.0011590995127335191
0.98379582166671753 0.66409140825271606 0.012306033633649349
0.0045701568014919758 0.89980697631835938 0.13574756681919098
0.022865250706672668 0.89404189586639404 0.11446040868759155
0.32738175988197327 0.89128023386001587 0.050698090344667435
0.63586962223052979 0.88494729995727539 0.004129327367991209
0.84786689281463623 0.87459594011306763 0
0.98755937814712524 0.8639947772026062 0
0.98488700389862061 0.855945885181427 0.0036818410735577345
0.0046074958518147469 0.99886798858642578 0.1419219970703125
0.00039807488792575896 1 0.11973558366298676
0.19607192277908325 1 0.077937617897987366
0.54757452011108398 0.99906796216964722 0.024143563583493233
0.8027043342590332 0.99780410528182983 0.00043967753299511969
0.95404976606369019 0.99196040630340576 0
0.96626675128936768 0.9807509183883667 0.0027792388573288918
0.061577215790748596 0.034245956689119339 0.15657877922058105
0.3183300793170929 0.008741011843085289 0.13953480124473572
0.58625972270965576 0.0038837508764117956 0.090540990233421326
0.7684447169303894 0.00013068703992757946 0.040728818625211716
0.94146084785461426 0 0.010727572254836559
0.9988136887550354 0.00018669577548280358 0.00086861406452953815
0.98709064722061157 0.0064153335988521576 0.0034138548653572798
0.034917972981929779 0.18965566158294678 0.15780648589134216
0.30626741051673889 0.1560567319393158 0.13759586215019226
0.58267438411712646 0.1002657562494278 0.09225984662771225
0.76744359731674194 0.059700671583414078 0.043189387768507004
0.93448799848556519 0.025472603738307953 0.018216270953416824
0.99581289291381836 0.0057253520935773849 0.0027588340453803539
0.98753952980041504 0.0097260270267724991 0.0071853934787213802
0.023205582052469254 0.35775035619735718 0.16205956041812897
0.24751532077789307 0.34348812699317932 0.14302679896354675
0.56716197729110718 0.32135009765625 0.092110350728034973
0.75018465518951416 0.29341879487037659 0.044522631913423538
0.92698389291763306 0.24428272247314453 0.017555685713887215
0.99492877721786499 0.19379673898220062 0.0036871368065476418
0.98366785049438477 0.20152553915977478 0.012754148803651333
0.0047972286120057106 0.53405666351318359 0.1728348433971405
0.15871107578277588 0.53172469139099121 0.14924232661724091
0.52323257923126221 0.51761770248413086 0.10362638533115387
0.7253606915473938 0.50223338603973389 0.053632341325283051
0.91414636373519897 0.48755845427513123 0.024863477796316147
0.99934077262878418 0.46663853526115417 0.010386358946561813
0.98817914724349976 0.47045394778251648 0.0066830203868448734
0.028648091480135918 0.71100133657455444 0.17888316512107849
0.1048322468996048 0.71628808975219727 0.1645294725894928
0.44678857922554016 0.70864009857177734 0.11865533888339996
0.68553274869918823 0.69988739490509033 0.071250304579734802
0.88370794057846069 0.683074951171875 0.037226088345050812
0.99783527851104736 0.66969215869903564 0.016027607023715973
0.9903872013092041 0.66646075248718262 0.014520847238600254
0.019628502428531647 0.88638913631439209 0.18714411556720734
0.028847398236393929 0.89877849817276001 0.17684368789196014
0.32066649198532104 0.89280456304550171 0.14213748276233673
0.62948131561279297 0.88502955436706543 0.087979637086391449
0.84594243764877319 0.86922037601470947 0.036992810666561127
0.99128800630569458 0.86558932065963745 0.01594136469066143
0.99365508556365967 0.86304253339767456 0.013869580812752247
0.019980337470769882 0.98192507028579712 0.19275796413421631
0.0091509204357862473 1 0.18258798122406006
0.22903217375278473 1 0.15908715128898621
0.54649883508682251 1 0.11233578622341156
0.80459815263748169 0.99607115983963013 0.058662161231040955
0.95942622423171997 0.99227321147918701 0.032819919288158417
0.96402990818023682 0.97144013643264771 0.049313053488731384
0.077658995985984802 0.010844391770660877 0.30493119359016418
0.32758036255836487 0.008389701135456562 0.29755637049674988
0.59169179201126099 0.00042287789983674884 0.27958476543426514
0.77578139305114746 0 0.26477193832397461
0.93972444534301758 0.0034173403400927782 0.22047735750675201
0.99729841947555542 0.0011048110900446773 0.17434893548488617
0.99661511182785034 7.4678311648312956e-05 0.1706915944814682
0.039029274135828018 0.16319070756435394 0.30224081873893738
0.31435263156890869 0.14071246981620789 0.29485657811164856
0.58854514360427856 0.082961931824684143 0.27640393376350403
0.77215778827667236 0.030105695128440857 0.25561615824699402
0.94200432300567627 0.012447581626474857 0.22600817680358887
0.99880290031433105 0.0029061110690236092 0.18623201549053192
0.99345797300338745 0.0032311384566128254 0.16654615104198456
0.0056450339034199715 0.34710720181465149 0.305122971534729
0.27367463707923889 0.33487242460250854 0.29724869132041931
0.57399743795394897 0.31195312738418579 0.27649465203285217
0.75604128837585449 0.28121477365493774 0.25916567444801331
0.93475234508514404 0.227338045835495 0.2191476970911026
0.995830237865448 0.17807793617248535 0.18667040765285492
0.98190766572952271 0.18920868635177612 0.17737378180027008
9.2270798631943762e-05 0.5339544415473938 0.30974337458610535
0.17619350552558899 0.52496349811553955 0.29960280656814575
0.53754270076751709 0.51315021514892578 0.28203874826431274
0.73465460538864136 0.49709385633468628 0.26333454251289368
0.92159658670425415 0.48074808716773987 0.2254171222448349
0.99889510869979858 0.46141731739044189 0.19580812752246857
0.98082226514816284 0.45971080660820007 0.18942919373512268
0.0091697098687291145 0.71326076984405518 0.31167328357696533
0.079571835696697235 0.71441471576690674 0.30302345752716064
0.44177687168121338 0.70371311902999878 0.28955364227294922
0.68764734268188477 0.69458240270614624 0.27282193303108215
0.89080160856246948 0.67822110652923584 0.23508931696414948
0.99700915813446045 0.66895276308059692 0.19441306591033936
0.98793631792068481 0.66108125448226929 0.18744349479675293
0.010132210329174995 0.89342820644378662 0.30954661965370178
0.018064131960272789 0.89762359857559204 0.30560344457626343
0.31895577907562256 0.88818013668060303 0.29644954204559326
0.63727837800979614 0.88217031955718994 0.27259045839309692
0.85306590795516968 0.86807215213775635 0.23786771297454834
0.99051022529602051 0.86323517560958862 0.21163173019886017
0.98283451795578003 0.84196746349334717 0.21235942840576172
0.0048945406451821327 0.99992763996124268 0.31711089611053467
0.011162806302309036 1 0.30797630548477173
0.24597752094268799 1 0.29787713289260864
0.5552709698677063 1 0.27367100119590759
0.80135703086853027 0.99675637483596802 0.24192945659160614
0.95929241180419922 0.99453103542327881 0.22447106242179871
0.96319937705993652 0.97728556394577026 0.2275308221578598
0.12223926931619644 0.00012368595344014466 0.45226895809173584
0.33552625775337219 0 0.45118921995162964
0.59293848276138306 0 0.4394741952419281
0.77612555027008057 0 0.4280034601688385
0.93961614370346069 0.0018762925174087286 0.41610544919967651
0.99983197450637817 0.00082865695003420115 0.40685173869132996
0.99832266569137573 0 0.3913731575012207
0.089712254703044891 0.1304285079240799 0.44843101501464844
0.32079049944877625 0.10584989190101624 0.4492790699005127
0.58898425102233887 0.06966158002614975 0.43796506524085999
0.77667021751403809 0.023613095283508301 0.43003600835800171
0.94634032249450684 0.013628731481730938 0.41377449035644531
1 0.00045073265209794044 0.41043254733085632
0.99308937788009644 0.00096962123643606901 0.39782890677452087
0.017328988760709763 0.33483928442001343 0.45236074924468994
0.27593132853507996 0.32224360108375549 0.44962835311889648
0.57066470384597778 0.29829931259155273 0.43912756443023682
0.7569432258605957 0.26591989398002625 0.42645928263664246
0.93231880664825439 0.22296236455440521 0.40961119532585144
0.99728256464004517 0.16468346118927002 0.40117603540420532
0.98492282629013062 0.16063752770423889 0.39451539516448975
0.0013505973620340228 0.52668702602386475 0.45090469717979431
0.19662903249263763 0.51903039216995239 0.44523942470550537
0.53017491102218628 0.50704646110534668 0.44124814867973328
0.73459261655807495 0.49198731780052185 0.43144208192825317
0.92186915874481201 0.47502842545509338 0.41318342089653015
0.9996141791343689 0.45506531000137329 0.40012907981872559
0.98880332708358765 0.45543542504310608 0.3957524299621582
0.0045536416582763195 0.70665830373764038 0.45785635709762573
0.10634252429008484 0.70760321617126465 0.44768616557121277
0.44526565074920654 0.69719666242599487 0.43953421711921692
0.69541680812835693 0.68929117918014526 0.4303487241268158
0.90162140130996704 0.67423176765441895 0.41708400845527649
0.9991576075553894 0.66301697492599487 0.40094077587127686
0.99496752023696899 0.66429698467254639 0.39979013800621033
0.0202623400837183 0.87950831651687622 0.45355740189552307
0.058587722480297089 0.88715857267379761 0.45303267240524292
0.35199734568595886 0.88089287281036377 0.44301286339759827
0.64029353857040405 0.88051784038543701 0.43248039484024048
0.85468780994415283 0.86954736709594727 0.42200228571891785
0.98850893974304199 0.85760700702667236 0.40728166699409485
0.98933368921279907 0.85380667448043823 0.40442821383476257
0.014488609507679939 0.99875038862228394 0.46284550428390503
0.032160680741071701 1 0.4599052369594574
0.25806614756584167 1 0.45208537578582764
0.55524998903274536 0.999958336353302 0.43776330351829529
0.80422604084014893 0.99609053134918213 0.42090523242950439
0.9634895920753479 0.99204146862030029 0.40606614947319031
0.97352361679077148 0.9858061671257019 0.4037841260433197
0.17540921270847321 0.0046374751254916191 0.62817108631134033
0.36339652538299561 7.7789906072212034e-07 0.63115370273590088
0.59967005252838135 8.6541265773121268e-05 0.63125312328338623
0.7841792106628418 0.0020802966319024563 0.62618899345397949
0.95530545711517334 0.0025353673845529556 0.61334580183029175
1 0.00022811889357399195 0.60960239171981812
1 0 0.60279613733291626
0.14072823524475098 0.063472598791122437 0.63294237852096558
0.34504193067550659 0.063638918101787567 0.63329863548278809
0.59376716613769531 0.038774333894252777 0.62784850597381592
0.78034019470214844 0.0086711207404732704 0.62358146905899048
0.95188790559768677 0.0052797803655266762 0.6096152663230896
1 0 0.6032942533493042
0.99765080213546753 1.9447476006462239e-05 0.60094267129898071
0.047933138906955719 0.30280444025993347 0.63327503204345703
0.2943708598613739 0.28878751397132874 0.62968140840530396
0.58284598588943481 0.26010599732398987 0.62561267614364624
0.76371824741363525 0.22114533185958862 0.61820799112319946
0.93809819221496582 0.18276126682758331 0.6099318265914917
0.99723976850509644 0.11779890209436417 0.59801614284515381
0.97895514965057373 0.13698369264602661 0.58637708425521851
0.00089627434499561787 0.5120769739151001 0.64081132411956787
0.21425670385360718 0.50277578830718994 0.6343119740486145
0.55015045404434204 0.48892360925674438 0.63343089818954468
0.73971462249755859 0.47797948122024536 0.62418127059936523
0.92362362146377563 0.4563177227973938 0.6131889820098877
0.99941056966781616 0.43449047207832336 0.60757893323898315
0.98444539308547974 0.4358990490436554 0.58369261026382446
0.003223419189453125 0.69971972703933716 0.64700132608413696
0.094754956662654877 0.6985742449760437 0.64254301786422729
0.47309580445289612 0.68497002124786377 0.63497436046600342
0.70059078931808472 0.679801344871521 0.62683743238449097
0.89413648843765259 0.66691762208938599 0.61513257026672363
0.99340593814849854 0.65131914615631104 0.60799431800842285
0.98147249221801758 0.64121657609939575 0.58400148153305054
0.010912756435573101 0.8749811053276062 0.62895947694778442
0.04671967402100563 0.87725090980529785 0.64738821983337402
0.36542177200317383 0.86825329065322876 0.63878434896469116
0.65433567762374878 0.8682977557182312 0.62573635578155518
0.86174386739730835 0.85679906606674194 0.62092524766921997
0.99037343263626099 0.85020911693572998 0.62077635526657104
0.98199677467346191 0.83703207969665527 0.60154342651367188
0.012138755992054939 0.99501907825469971 0.63762861490249634
0.014318922534584999 0.99830847978591919 0.65550416707992554
0.23516261577606201 0.99771398305892944 0.65409058332443237
0.55968177318572998 0.99722743034362793 0.63482725620269775
0.817798912525177 0.98748695850372314 0.62078654766082764
0.96821194887161255 0.98896467685699463 0.61542010307312012
0.96561300754547119 0.95856457948684692 0.59179222583770752
0.27274662256240845 0.0065847062505781651 0.88099145889282227
0.42212578654289246 0 0.89230561256408691
0.6262362003326416 0.00012232462177053094 0.89512544870376587
0.78773343563079834 0.0035763909108936787 0.89632642269134521
0.93841201066970825 0.0029311235994100571 0.88636761903762817
0.99955755472183228 2.3336971935350448e-05 0.88068163394927979
0.99990147352218628 0 0.88399785757064819
0.25482285022735596 0.018811110407114029 0.88361376523971558
0.39638552069664001 0.0032477136701345444 0.90456950664520264
0.61331003904342651 0.00024225571542046964 0.89789348840713501
0.79075580835342407 0 0.89775598049163818
0.95473319292068481 0.00065397372236475348 0.88907021284103394
1 0 0.87972444295883179
1 0 0.879111647605896
0.17406006157398224 0.21439722180366516 0.89401566982269287
0.35694646835327148 0.20193551480770111 0.90608859062194824
0.60159003734588623 0.15054723620414734 0.89882147312164307
0.77486664056777954 0.12712447345256805 0.90189850330352783
0.93858522176742554 0.10555718839168549 0.89120149612426758
0.99830794334411621 0.043882094323635101 0.88484370708465576
0.99467885494232178 0.044713594019412994 0.88321149349212646
0.036501940339803696 0.47020983695983887 0.91101187467575073
0.28349930047988892 0.46257820725440979 0.91192907094955444
0.56915098428726196 0.45434844493865967 0.90118014812469482
0.75565403699874878 0.42661833763122559 0.90221881866455078
0.9318726658821106 0.39974808692932129 0.89345520734786987
0.99964404106140137 0.35841771960258484 0.89657437801361084
0.99114805459976196 0.36804085969924927 0.88583213090896606
0.044373530894517899 0.66424041986465454 0.88804733753204346
0.15382327139377594 0.67500633001327515 0.92116820812225342
0.49750328063964844 0.6638452410697937 0.90888446569442749
0.71634763479232788 0.65270650386810303 0.90881955623626709
0.91032642126083374 0.64028739929199219 0.89952778816223145
0.99988508224487305 0.62775892019271851 0.89887785911560059
0.99207907915115356 0.62030750513076782 0.89222770929336548
0.01021683681756258 0.86274921894073486 0.90141785144805908
0.041822679340839386 0.86754518747329712 0.9106823205947876
0.41365545988082886 0.85187947750091553 0.90900141000747681
0.67286747694015503 0.84579062461853027 0.90569353103637695
0.86694157123565674 0.84091705083847046 0.90047067403793335
0.99615335464477539 0.83725857734680176 0.90292000770568848
0.99292713403701782 0.82381594181060791 0.8998374342918396
0.0034791536163538694 0.98594194650650024 0.9160650372505188
0.023279003798961639 0.99624073505401611 0.91833102703094482
0.26694157719612122 0.99461674690246582 0.91717082262039185
0.58085387945175171 0.99016809463500977 0.90999394655227661
0.81897532939910889 0.98308825492858887 0.90648609399795532
0.97455108165740967 0.98176342248916626 0.89878153800964355
0.9862053394317627 0.97710347175598145 0.89939022064208984
