assets/lut/abigailgonzalez goldengate.cube
# Created by: G'MIC (https://gmic.eu)
TITLE "goldengate"
# LUT size
LUT_3D_SIZE 13
# Data domain
DOMAIN_MIN 0.0 0.0 0.0
DOMAIN_MAX 1.0 1.0 1.0
# LUT data points
0.03336060419678688 0.044167924672365189 0.052464399486780167
0.086097761988639832 0.043714605271816254 0.036211904138326645
0.15895675122737885 0.043384343385696411 0.014872487634420395
0.23733800649642944 0.042274639010429382 0.0092095173895359039
0.31202861666679382 0.038851030170917511 0.0047723660245537758
0.37835285067558289 0.032531306147575378 0.00027552584651857615
0.43748602271080017 0.023644166067242622 0
0.48782464861869812 0.015172427520155907 0
0.52784883975982666 0.0089053437113761902 0
0.55672609806060791 0.0050649605691432953 0
0.57532662153244019 0.0030683181248605251 0
0.5856812596321106 0.0019145292462781072 0
0.59117060899734497 0.0010110294679179788 0
0.03898436576128006 0.077406056225299835 0.044027891010046005
0.094023056328296661 0.080956526100635529 0.028341121971607208
0.16574643552303314 0.084736809134483337 0.014954660087823868
0.24365013837814331 0.089496612548828125 0.010131028480827808
0.32167205214500427 0.0894288569688797 0.0059954626485705376
0.39468348026275635 0.083472609519958496 0.0011210571974515915
0.46038392186164856 0.073479294776916504 0
0.51610589027404785 0.062348548322916031 0
0.55941283702850342 0.052543178200721741 0
0.5905754566192627 0.045258838683366776 0
0.6099393367767334 0.040706411004066467 0
0.62024927139282227 0.037912257015705109 0
0.62527024745941162 0.035226918756961823 0
0.049861233681440353 0.11542714387178421 0.040623221546411514
0.10604406893253326 0.1232524961233139 0.026840852573513985
0.17514050006866455 0.13099417090415955 0.016779223456978798
0.25204551219940186 0.13894519209861755 0.011726019904017448
0.33121779561042786 0.14140999317169189 0.0073163947090506554
0.40865862369537354 0.13546733558177948 0.0025361005682498217
0.48073101043701172 0.12453237920999527 0.00014145794557407498
0.54172712564468384 0.11212845146656036 0
0.5886077880859375 0.10108211636543274 0
0.6219867467880249 0.093683816492557526 0
0.64263772964477539 0.090157240629196167 0
0.65343093872070312 0.089193321764469147 0
0.65853756666183472 0.088616028428077698 0
0.069220148026943207 0.1502658873796463 0.038317721337080002
0.12687981128692627 0.16066096723079681 0.027853617444634438
0.19233198463916779 0.17153771221637726 0.019608397036790848
0.26340308785438538 0.18288931250572205 0.012846030294895172
0.33974167704582214 0.18899482488632202 0.0075401156209409237
0.4199644923210144 0.1863609105348587 0.0036638746969401836
0.49811854958534241 0.17700617015361786 0.0014457552460953593
0.5641791820526123 0.16407935321331024 6.0900518292328343e-05
0.61436527967453003 0.15225090086460114 0
0.65010702610015869 0.14563614130020142 0
0.67264372110366821 0.1443316787481308 0
0.68459838628768921 0.14612598717212677 0
0.69005346298217773 0.14797833561897278 0
0.097307302057743073 0.18357615172863007 0.034760851413011551
0.15303587913513184 0.19760902225971222 0.026408446952700615
0.21181419491767883 0.21070708334445953 0.019018899649381638
0.27413564920425415 0.223862424492836 0.011872011236846447
0.34624806046485901 0.23381981253623962 0.006345157977193594
0.42685970664024353 0.23707212507724762 0.0036429460160434246
0.50815987586975098 0.23182806372642517 0.0028213202022016048
0.57872384786605835 0.21993070840835571 0.0010942197404801846
0.63410091400146484 0.20815287530422211 0
0.67418694496154785 0.20353326201438904 0
0.69964975118637085 0.20601080358028412 0
0.71356326341629028 0.21152631938457489 0
0.72001880407333374 0.21536663174629211 0
0.13041020929813385 0.22400873899459839 0.029520461335778236
0.1853632926940918 0.24029956758022308 0.02206827886402607
0.23361393809318542 0.25421863794326782 0.015202241949737072
0.28526756167411804 0.26737341284751892 0.0092983022332191467
0.35307377576828003 0.28070002794265747 0.0052359485998749733
0.43151041865348816 0.29031223058700562 0.0034768646582961082
0.51201766729354858 0.29186049103736877 0.0027217490132898092
0.58628743886947632 0.28375682234764099 0.0015588199021294713
0.64775443077087402 0.27302587032318115 0
0.69381862878799438 0.26975953578948975 0
0.72392147779464722 0.27551665902137756 0
0.74053293466567993 0.28467100858688354 0
0.74839508533477783 0.29005497694015503 0
0.16948272287845612 0.27158069610595703 0.022876979783177376
0.22838641703128815 0.28952318429946899 0.0169094018638134
0.26665794849395752 0.30227124691009521 0.011331161484122276
0.30509716272354126 0.31440633535385132 0.0067486031912267208
0.36408287286758423 0.33015260100364685 0.004732857458293438
0.43800348043441772 0.34614166617393494 0.003036439185962081
0.51658350229263306 0.3559296727180481 0.0020161946304142475
0.59157478809356689 0.35419958829879761 0.00059519748901948333
0.65762108564376831 0.34605675935745239 0
0.71029627323150635 0.34262889623641968 0
0.74591362476348877 0.35077649354934692 6.4954569097608328e-05
0.76577287912368774 0.36287465691566467 0.00092103244969621301
0.77485412359237671 0.36798050999641418 7.234461372718215e-05
0.21732230484485626 0.32132655382156372 0.01607239618897438
0.27511200308799744 0.33969247341156006 0.011935783550143242
0.29992485046386719 0.35019609332084656 0.0073655219748616219
0.32615062594413757 0.36179149150848389 0.0047877742908895016
0.37780174612998962 0.37969112396240234 0.003228415735065937
0.44836387038230896 0.40006187558174133 0.0021953359246253967
0.52552396059036255 0.41558358073234558 0.0013674866640940309
0.59973889589309692 0.42121541500091553 9.6758674771990627e-05
0.66724139451980591 0.41748908162117004 0
0.72435688972473145 0.41431686282157898 0
0.76455152034759521 0.42542216181755066 0.00027887680334970355
0.78860682249069214 0.44126328825950623 0.0027518179267644882
0.79863762855529785 0.44281652569770813 0.00056786631466820836
0.25946906208992004 0.3668152391910553 0.010115335695445538
0.30214262008666992 0.38204863667488098 0.0070770415477454662
0.31486999988555908 0.39075586199760437 0.0038088331930339336
0.337352454662323 0.40394288301467896 0.0023892719764262438
0.38874831795692444 0.42595669627189636 0.001973828999325633
0.46053424477577209 0.45002764463424683 0.001582605647854507
0.53826433420181274 0.46803098917007446 0.00097466266015544534
0.61144167184829712 0.47749695181846619 2.6388728656456806e-05
0.67708784341812134 0.47889065742492676 0
0.73433107137680054 0.4765324592590332 0
0.77763170003890991 0.48891821503639221 0
0.80436933040618896 0.50899809598922729 0
0.81643986701965332 0.5049368143081665 0
0.27059680223464966 0.39854368567466736 0.0032755981665104628
0.30714133381843567 0.41356027126312256 0.0022693111095577478
0.31906864047050476 0.42249006032943726 0.0013891182607039809
0.34173524379730225 0.43808570504188538 0.0011412976309657097
0.39790275692939758 0.46593698859214783 0.00077044917270541191
0.47250247001647949 0.49473893642425537 0.00041728300857357681
0.55113446712493896 0.51395720243453979 0.00014738195750396699
0.62345969676971436 0.51924866437911987 0
0.68665730953216553 0.51693123579025269 0
0.74166309833526611 0.5122026801109314 0
0.78493261337280273 0.52642941474914551 0
0.81252259016036987 0.54730892181396484 0
0.8255537748336792 0.53601336479187012 0
0.25932073593139648 0.40832263231277466 0.0012422598665580153
0.30236324667930603 0.42900192737579346 0.00021290498261805624
0.32250607013702393 0.44213226437568665 5.0264246965525672e-05
0.35047337412834167 0.46172475814819336 0
0.40937045216560364 0.49497482180595398 0
0.48408877849578857 0.52796423435211182 0
0.56178170442581177 0.55017721652984619 0
0.63458377122879028 0.54846310615539551 0
0.69741928577423096 0.5341789722442627 0
0.75060313940048218 0.52364838123321533 0
0.79061603546142578 0.53664481639862061 0
0.81578993797302246 0.55389374494552612 0
0.82979679107666016 0.54273432493209839 0
0.26351210474967957 0.40721410512924194 0.0011016995413228869
0.30039256811141968 0.42786014080047607 0
0.32426637411117554 0.4430583119392395 0
0.35786381363868713 0.46513745188713074 0
0.41908520460128784 0.50004738569259644 0
0.49207314848899841 0.53032958507537842 0
0.56896734237670898 0.55620992183685303 0
0.64453959465026855 0.55904507637023926 0
0.71067935228347778 0.54443973302841187 0
0.76296782493591309 0.53719687461853027 0
0.79872304201126099 0.54727184772491455 0
0.82190901041030884 0.56209880113601685 0
0.83819204568862915 0.57208728790283203 3.5199933336116374e-05
0.28956565260887146 0.40744847059249878 0
0.31011870503425598 0.42072826623916626 0
0.32830852270126343 0.43157130479812622 0
0.36029383540153503 0.44811654090881348 0
0.42073088884353638 0.47493079304695129 0
0.49299275875091553 0.49577882885932922 0
0.57145094871520996 0.52132612466812134 0
0.6516268253326416 0.54197436571121216 0
0.72227281332015991 0.54624205827713013 0
0.77502447366714478 0.55298316478729248 0
0.80958515405654907 0.57055091857910156 0
0.83292865753173828 0.59503823518753052 2.3336972390097799e-06
0.85155218839645386 0.62462830543518066 0.001749883871525526
0.02574189193546772 0.04798540472984314 0.09785008430480957
0.077700749039649963 0.04845467209815979 0.077410541474819183
0.14303597807884216 0.048221062868833542 0.057034540921449661
0.21447525918483734 0.047830063849687576 0.041076242923736572
0.28704270720481873 0.044993873685598373 0.02717316523194313
0.35669854283332825 0.038343153893947601 0.013068614527583122
0.420320063829422 0.029251996427774429 0.0024862701538950205
0.4754369854927063 0.019969131797552109 2.8797225240850821e-05
0.52008283138275146 0.013416080735623837 0
0.55261039733886719 0.0092964768409729004 0
0.57289761304855347 0.0071687586605548859 0
0.58312582969665527 0.0059051215648651123 0
0.58780235052108765 0.0045538810081779957 0
0.026736300438642502 0.080203384160995483 0.10401980578899384
0.077441573143005371 0.08295942097902298 0.082368232309818268
0.14147013425827026 0.087519146502017975 0.063072949647903442
0.21521148085594177 0.092384651303291321 0.04759521409869194
0.29265347123146057 0.093064345419406891 0.03349984809756279
0.36855891346931458 0.087540209293365479 0.018567701801657677
0.43899056315422058 0.077881798148155212 0.0055361278355121613
0.50066828727722168 0.067346610128879547 0.00033084643655456603
0.55011534690856934 0.058282304555177689 0
0.5856468677520752 0.051816485822200775 0
0.6074521541595459 0.048126131296157837 0
0.61810398101806641 0.046324755996465683 0
0.62259906530380249 0.04471220076084137 0
0.03245047852396965 0.11994506418704987 0.10958733409643173
0.083059392869472504 0.12610200047492981 0.088025830686092377
0.14532929658889771 0.13328009843826294 0.067715920507907867
0.21936368942260742 0.1401202529668808 0.052407238632440567
0.29835492372512817 0.14281065762042999 0.037942145019769669
0.37861546874046326 0.1384541392326355 0.023160537704825401
0.45565718412399292 0.12872740626335144 0.010272202081978321
0.52344793081283569 0.11710887402296066 0.0018681095680221915
0.57765823602676392 0.10666273534297943 1.3164445590518881e-05
0.61629652976989746 0.099473543465137482 0
0.63990777730941772 0.096025161445140839 0
0.65146815776824951 0.095098398625850677 0
0.65635472536087036 0.09543590247631073 0
0.046391893178224564 0.15940681099891663 0.11186249554157257
0.098431892693042755 0.16740912199020386 0.09224681556224823
0.15931706130504608 0.17577135562896729 0.072232171893119812
0.22823619842529297 0.18492360413074493 0.05521686002612114
0.30450248718261719 0.19053454697132111 0.038403037935495377
0.38672178983688354 0.18929153680801392 0.024377021938562393
0.4693598747253418 0.18151940405368805 0.014177912846207619
0.54283678531646729 0.16982820630073547 0.0051380828954279423
0.60142421722412109 0.15881413221359253 0.00040414847899228334
0.64356297254562378 0.15192490816116333 0
0.66962361335754395 0.15033142268657684 0
0.68269425630569458 0.15194812417030334 0
0.68833261728286743 0.15435531735420227 0
0.068831667304039001 0.19737488031387329 0.10929302126169205
0.1196521520614624 0.20780487358570099 0.091036729514598846
0.1752571165561676 0.21766360104084015 0.071994468569755554
0.23727573454380035 0.22817455232143402 0.053808368742465973
0.30981218814849854 0.23701031506061554 0.036456223577260971
0.3924291729927063 0.24070082604885101 0.023506313562393188
0.47852173447608948 0.23695971071720123 0.015332121402025223
0.55654436349868774 0.22730757296085358 0.0080396616831421852
0.62031865119934082 0.21678651869297028 0.0018244724487885833
0.66714173555374146 0.21138395369052887 1.1848001122416463e-05
0.69658917188644409 0.2134852409362793 0
0.71214479207992554 0.219644695520401 0
0.71886754035949707 0.22441108524799347 0
0.095758102834224701 0.23963835835456848 0.099682241678237915
0.14524471759796143 0.25159019231796265 0.083074979484081268
0.19296170771121979 0.26191237568855286 0.066061176359653473
0.24710763990879059 0.27253562211990356 0.049983888864517212
0.31642436981201172 0.2844139039516449 0.035144072026014328
0.39827945828437805 0.29400399327278137 0.023642851039767265
0.48448383808135986 0.29700461030006409 0.015046332962810993
0.56528544425964355 0.29226031899452209 0.007967810146510601
0.63393288850784302 0.28383231163024902 0.0024039773270487785
0.68674606084823608 0.27967578172683716 8.4417006291914731e-05
0.72117620706558228 0.2859538197517395 0
0.73960417509078979 0.29713404178619385 0
0.7484060525894165 0.3037218451499939 0
0.12811417877674103 0.28756192326545715 0.084245704114437103
0.17696112394332886 0.30013623833656311 0.070199377834796906
0.21649223566055298 0.309541255235672 0.056082408875226974
0.26207923889160156 0.31971478462219238 0.043413542211055756
0.32668027281761169 0.33377841114997864 0.03249754011631012
0.40647962689399719 0.34962409734725952 0.022622471675276756
0.49122020602226257 0.36066913604736328 0.013736186549067497
0.57217633724212646 0.36329495906829834 0.0060808220878243446
0.6440393328666687 0.35867273807525635 0.00089280371321365237
0.70308005809783936 0.35554447770118713 0
0.74356502294540405 0.36390212178230286 0
0.76607918739318848 0.37797203660011292 6.0287175074336119e-06
0.77653884887695312 0.38476160168647766 0
0.16772451996803284 0.33805224299430847 0.066513553261756897
0.21134704351425171 0.34979993104934692 0.053759690374135971
0.24005106091499329 0.35702252388000488 0.042345456779003143
0.27928712964057922 0.36754664778709412 0.034151952713727951
0.34052351117134094 0.38436657190322876 0.026974458247423172
0.418924480676651 0.40485316514968872 0.019401654601097107
0.50279563665390015 0.42210149765014648 0.011637893505394459
0.58168447017669678 0.43222129344940186 0.0042086131870746613
0.65338462591171265 0.43278729915618896 0.00018596275185700506
0.71691083908081055 0.43046000599861145 0
0.76267188787460327 0.4399229884147644 0
0.78961509466171265 0.45610129833221436 2.994911301357206e-05
0.80137795209884644 0.46114447712898254 7.0010914896556642e-06
0.2052948921918869 0.38566845655441284 0.047876141965389252
0.2408941388130188 0.39563000202178955 0.03675326332449913
0.26022830605506897 0.40096446871757507 0.027763471007347107
0.2960512638092041 0.41303357481956482 0.023354249075055122
0.35683092474937439 0.43351584672927856 0.019223202019929886
0.43532133102416992 0.45709335803985596 0.014292638748884201
0.51921552419662476 0.47734230756759644 0.0090818963944911957
0.59588438272476196 0.49139025807380676 0.0034419340081512928
0.66490119695663452 0.49582305550575256 8.4252453234512359e-05
0.72745263576507568 0.49446156620979309 0
0.77620440721511841 0.50485718250274658 0
0.80601966381072998 0.52444201707839966 0
0.82007026672363281 0.52645707130432129 0
0.22413963079452515 0.42175900936126709 0.030683614313602448
0.26060548424720764 0.43269774317741394 0.022258639335632324
0.28192046284675598 0.43887704610824585 0.016446730121970177
0.31379342079162598 0.45231184363365173 0.013618558645248413
0.37285515666007996 0.47677367925643921 0.01107895839959383
0.45156523585319519 0.50436586141586304 0.0080986320972442627
0.53483271598815918 0.52664905786514282 0.0053933686576783657
0.60923570394515991 0.54047799110412598 0.0019183887634426355
0.67438787221908569 0.54436302185058594 6.3189341744873673e-05
0.73485648632049561 0.54100131988525391 0
0.78397822380065918 0.55084967613220215 0
0.81554055213928223 0.57275354862213135 0
0.83134621381759644 0.57187461853027344 0
0.22438648343086243 0.43718460202217102 0.019220838323235512
0.26631617546081543 0.45325201749801636 0.011019628494977951
0.29370015859603882 0.463011234998703 0.0063902162946760654
0.32695621252059937 0.47915264964103699 0.0043919431045651436
0.38639125227928162 0.50741767883300781 0.003197838319465518
0.46403095126152039 0.53924757242202759 0.0020747315138578415
0.54602152109146118 0.56485104560852051 0.00097554526291787624
0.62072032690048218 0.57647192478179932 0.00020015941117890179
0.68514454364776611 0.57598096132278442 0
0.74364674091339111 0.56855136156082153 0
0.79082602262496948 0.57380735874176025 0
0.82109695672988892 0.59139168262481689 0
0.83790075778961182 0.59315246343612671 3.7144680391065776e-05
0.2283267080783844 0.43835210800170898 0.0085478387773036957
0.26525592803955078 0.45530256628990173 0.0020788004621863365
0.29428333044052124 0.46742880344390869 0.0004111794987693429
0.3322921097278595 0.48612019419670105 9.9556120403576642e-05
0.39398804306983948 0.51582783460617065 0
0.47190180420875549 0.54821336269378662 0
0.55453091859817505 0.57659304141998291 0
0.63303548097610474 0.59140282869338989 0
0.70124918222427368 0.59225249290466309 0
0.75771385431289673 0.59044492244720459 0
0.80071192979812622 0.59864598512649536 0
0.82846438884735107 0.60879957675933838 0
0.84613823890686035 0.61765676736831665 0.0010322720045223832
0.24533309042453766 0.43778866529464722 0.00053616694640368223
0.2715972363948822 0.45010390877723694 0
0.29707619547843933 0.46069294214248657 0
0.33595827221870422 0.47724974155426025 0
0.39829936623573303 0.50308144092559814 0
0.47647404670715332 0.53169161081314087 0
0.56119698286056519 0.56192809343338013 0
0.64398133754730225 0.586570143699646 0
0.71586090326309204 0.59981584548950195 0
0.77194875478744507 0.61131978034973145 0
0.81222689151763916 0.6261560320854187 4.278444976080209e-06
0.83907407522201538 0.63945180177688599 0.00051399681251496077
0.85852968692779541 0.66031849384307861 0.0068184798583388329
0.024530299007892609 0.056773614138364792 0.1628669947385788
0.073814153671264648 0.057308420538902283 0.14132370054721832
0.13261424005031586 0.055949132889509201 0.11826511472463608
0.19736221432685852 0.055268619209527969 0.093391597270965576
0.26604285836219788 0.052436139434576035 0.070755258202552795
0.33610445261001587 0.045024454593658447 0.050059761852025986
0.40263178944587708 0.035135786980390549 0.029775341972708702
0.46264612674713135 0.025837693363428116 0.013174498453736305
0.51320153474807739 0.018820594996213913 0.0035573174245655537
0.55083554983139038 0.014745794236660004 0.00031041164766065776
0.5737450122833252 0.012670195661485195 0
0.58379030227661133 0.011830498464405537 0
0.5874178409576416 0.010460034944117069 0
0.02350006066262722 0.088465794920921326 0.18085621297359467
0.069637373089790344 0.0915956050157547 0.15760160982608795
0.12667490541934967 0.094495587050914764 0.13364957273006439
0.19380177557468414 0.098513811826705933 0.10785949975252151
0.26685541868209839 0.098847411572933197 0.083181045949459076
0.34346553683280945 0.09292864054441452 0.058935053646564484
0.41792848706245422 0.083036638796329498 0.035872966051101685
0.48543000221252441 0.073165491223335266 0.017957918345928192
0.54184448719024658 0.064669094979763031 0.005656776949763298
0.58346366882324219 0.05862446129322052 0.00071806064806878567
0.60866665840148926 0.055093053728342056 0
0.6199224591255188 0.053711146116256714 0
0.62358182668685913 0.052528157830238342 0
0.025362351909279823 0.12641735374927521 0.19483205676078796
0.070453152060508728 0.13300994038581848 0.16879682242870331
0.12634158134460449 0.1393926590681076 0.14201734960079193
0.19418691098690033 0.14453433454036713 0.11653760820627213
0.27007013559341431 0.14633822441101074 0.091284133493900299
0.35082933306694031 0.14237979054450989 0.065970882773399353
0.43162766098976135 0.13367326557636261 0.042826410382986069
0.50593215227127075 0.12316197156906128 0.023467015475034714
0.56812721490859985 0.11343210190534592 0.0086036231368780136
0.61341023445129395 0.10609018802642822 0.0015426785685122013
0.64122861623764038 0.1018286794424057 1.4959597137931269e-05
0.65399837493896484 0.10003050416707993 0
0.65827804803848267 0.10038638859987259 0
0.034663405269384384 0.16776145994663239 0.20188012719154358
0.08075232058763504 0.1754036545753479 0.17515559494495392
0.13638781011104584 0.18234969675540924 0.14697577059268951
0.20164294540882111 0.18875645101070404 0.11976789683103561
0.27584007382392883 0.19311420619487762 0.092787541449069977
0.35804718732833862 0.19226944446563721 0.067512452602386475
0.44346567988395691 0.18607789278030396 0.046098161488771439
0.52325326204299927 0.17656150460243225 0.028049290180206299
0.59070181846618652 0.16643400490283966 0.012753983959555626
0.64037883281707764 0.15936297178268433 0.0032626581378281116
0.67087835073471069 0.15607376396656036 0.00026284012710675597
0.68516677618026733 0.15591026842594147 0
0.69043540954589844 0.15778310596942902 0
0.050788715481758118 0.20980043709278107 0.20154184103012085
0.097069278359413147 0.21821977198123932 0.17487780749797821
0.14966066181659698 0.22565613687038422 0.14677941799163818
0.21053650975227356 0.23300303518772125 0.11914099752902985
0.28195512294769287 0.23974896967411041 0.091104157269001007
0.36432170867919922 0.24336618185043335 0.066008396446704865
0.45299175381660461 0.2414359450340271 0.046415500342845917
0.53719085454940796 0.23474316298961639 0.029814163222908974
0.60918337106704712 0.22618384659290314 0.015272567048668861
0.66353273391723633 0.22061266005039215 0.0054309321567416191
0.69779771566390991 0.2215418666601181 0.0010289510246366262
0.71466553211212158 0.22621072828769684 1.3164445590518881e-05
0.72172468900680542 0.23036669194698334 0
0.07131543755531311 0.2543022632598877 0.1897265613079071
0.11646772176027298 0.26365193724632263 0.16526784002780914
0.16385968029499054 0.27126452326774597 0.13982030749320984
0.21937835216522217 0.27891239523887634 0.11466154456138611
0.28870585560798645 0.28790557384490967 0.089219518005847931
0.37153756618499756 0.29646217823028564 0.065634332597255707
0.46107012033462524 0.30100882053375244 0.04521096870303154
0.54770803451538086 0.29959094524383545 0.027844103053212166
0.62383818626403809 0.29393309354782104 0.014236181043088436
0.68347811698913574 0.29068252444267273 0.0058877682313323021
0.72268593311309814 0.29682609438896179 0.0015637865290045738
0.74292808771133423 0.30874773859977722 0.00015587899542879313
0.75253438949584961 0.31540536880493164 0
0.097000941634178162 0.30284267663955688 0.16879084706306458
0.13880258798599243 0.31194174289703369 0.14740048348903656
0.17977623641490936 0.31880629062652588 0.126084104180336
0.22955872118473053 0.32664436101913452 0.10577385127544403
0.29681521654129028 0.33802810311317444 0.085136130452156067
0.37978503108024597 0.35210022330284119 0.063467510044574738
0.469633549451828 0.36400178074836731 0.042612470686435699
0.55675548315048218 0.36965805292129517 0.024032667279243469
0.6355278491973877 0.36815714836120605 0.010531451553106308
0.70097845792770386 0.36627987027168274 0.0031904182396829128
0.74568712711334229 0.37581685185432434 0.00060514564393088222
0.76992332935333252 0.39175376296043396 3.1265557481674477e-05
0.78182113170623779 0.39979907870292664 0
0.12787969410419464 0.35285907983779907 0.14149422943592072
0.16460536420345306 0.36106431484222412 0.12226453423500061
0.19777141511440277 0.3664073646068573 0.10530915856361389
0.24343970417976379 0.37499105930328369 0.090839073061943054
0.30947670340538025 0.38934648036956787 0.075242601335048676
0.39269039034843445 0.40809816122055054 0.05679016187787056
0.48209092020988464 0.42600679397583008 0.037975504994392395
