assets/lut/abigailgonzalez cinema noir.cube
# Created by: G'MIC (https://gmic.eu)
TITLE "cinema_noir"
# LUT size
LUT_3D_SIZE 13
# Data domain
DOMAIN_MIN 0.0 0.0 0.0
DOMAIN_MAX 1.0 1.0 1.0
# LUT data points
0.049899470061063766 0.049899470061063766 0.049899470061063766
0.081552572548389435 0.081552572548389435 0.081552572548389435
0.15537327527999878 0.15537327527999878 0.15537327527999878
0.24559479951858521 0.24559479951858521 0.24559479951858521
0.32650050520896912 0.32650050520896912 0.32650050520896912
0.40312203764915466 0.40330260992050171 0.40312203764915466
0.49336391687393188 0.49460932612419128 0.49334874749183655
0.57322317361831665 0.57567381858825684 0.57239484786987305
0.64161652326583862 0.64218837022781372 0.64001351594924927
0.6839061975479126 0.6839061975479126 0.68357926607131958
0.72330594062805176 0.72330594062805176 0.72307854890823364
0.76468443870544434 0.76468443870544434 0.76456528902053833
0.78227698802947998 0.78227698802947998 0.78227698802947998
0.056009944528341293 0.056009944528341293 0.056009944528341293
0.08391309529542923 0.08391309529542923 0.08391309529542923
0.15165154635906219 0.15165154635906219 0.15165154635906219
0.23143690824508667 0.23143690824508667 0.23143690824508667
0.30925509333610535 0.30922219157218933 0.30925509333610535
0.38645216822624207 0.38663408160209656 0.38645216822624207
0.47326931357383728 0.47479733824729919 0.47326931357383728
0.55573976039886475 0.55862051248550415 0.55570691823959351
0.62612831592559814 0.62739968299865723 0.62604314088821411
0.67925518751144409 0.67948341369628906 0.67913812398910522
0.72101515531539917 0.72104805707931519 0.72094959020614624
0.75988537073135376 0.75988537073135376 0.75988537073135376
0.77095204591751099 0.77095204591751099 0.77095204591751099
0.073628462851047516 0.073628462851047516 0.073628462851047516
0.096405580639839172 0.096405580639839172 0.096405580639839172
0.15398064255714417 0.15398064255714417 0.15398064255714417
0.22459788620471954 0.22459788620471954 0.22459788620471954
0.2992306649684906 0.29924622178077698 0.2992306649684906
0.37394344806671143 0.37403661012649536 0.37394344806671143
0.45770761370658875 0.45892393589019775 0.45767471194267273
0.54299873113632202 0.54586315155029297 0.54296588897705078
0.61280012130737305 0.61489051580429077 0.61280012130737305
0.6720624566078186 0.67257040739059448 0.67202961444854736
0.71923238039016724 0.71926271915435791 0.71919441223144531
0.75689870119094849 0.75689870119094849 0.75689870119094849
0.77497446537017822 0.77497446537017822 0.77497446537017822
0.094432279467582703 0.094514153897762299 0.094432279467582703
0.11783745139837265 0.11786933988332748 0.11783745139837265
0.16462703049182892 0.16463208198547363 0.16462703049182892
0.22359234094619751 0.22359234094619751 0.22359234094619751
0.29421332478523254 0.29424074292182922 0.29421332478523254
0.36717793345451355 0.36728197336196899 0.36717793345451355
0.44743934273719788 0.44835773110389709 0.44743934273719788
0.53048211336135864 0.53233140707015991 0.53048211336135864
0.60724854469299316 0.60825806856155396 0.60724854469299316
0.66949892044067383 0.66970914602279663 0.66949892044067383
0.7169683575630188 0.71703410148620605 0.7169683575630188
0.7540401816368103 0.7540401816368103 0.7540401816368103
0.78229331970214844 0.78229331970214844 0.78229331970214844
0.11029845476150513 0.11044275760650635 0.11029845476150513
0.13471099734306335 0.13473044335842133 0.13471099734306335
0.17452016472816467 0.17455615103244781 0.17452016472816467
0.21918469667434692 0.21918469667434692 0.21918469667434692
0.28703805804252625 0.28710123896598816 0.28703805804252625
0.36110085248947144 0.36115238070487976 0.36110085248947144
0.43876534700393677 0.43914538621902466 0.43876534700393677
0.52036279439926147 0.52076476812362671 0.52036279439926147
0.60022497177124023 0.6002616286277771 0.60022497177124023
0.66617172956466675 0.66617172956466675 0.66617172956466675
0.71336281299591064 0.71339315176010132 0.71336281299591064
0.75518053770065308 0.75518053770065308 0.75518053770065308
0.78751951456069946 0.78751951456069946 0.78751951456069946
0.12373589724302292 0.12417473644018173 0.12373589724302292
0.14574509859085083 0.14616116881370544 0.14574509859085083
0.1814277321100235 0.18150299787521362 0.1814277321100235
0.22099553048610687 0.22100777924060822 0.22099553048610687
0.27806815505027771 0.27813932299613953 0.27806815505027771
0.35139772295951843 0.35160154104232788 0.35139772295951843
0.42943453788757324 0.42953354120254517 0.42943453788757324
0.51183605194091797 0.51200157403945923 0.51183605194091797
0.59068495035171509 0.59068495035171509 0.59068495035171509
0.6608891487121582 0.66087281703948975 0.6608891487121582
0.71251648664474487 0.71251648664474487 0.71251648664474487
0.75601977109909058 0.75619804859161377 0.75601977109909058
0.79169994592666626 0.79217129945755005 0.79169994592666626
0.1365533173084259 0.13804522156715393 0.1365533173084259
0.16078795492649078 0.16237710416316986 0.16078795492649078
0.19016289710998535 0.19032217562198639 0.19016289710998535
0.22636270523071289 0.22640606760978699 0.22636270523071289
0.27383929491043091 0.27386263012886047 0.27383929491043091
0.3428598940372467 0.34293726086616516 0.3428598940372467
0.41706985235214233 0.4171237051486969 0.41706985235214233
0.49784618616104126 0.49787065386772156 0.49784618616104126
0.57921439409255981 0.57921439409255981 0.57921439409255981
0.65573501586914062 0.65567296743392944 0.65573501586914062
0.71329164505004883 0.71333193778991699 0.71329164505004883
0.75960308313369751 0.75999850034713745 0.75960308313369751
0.79644793272018433 0.79783397912979126 0.79644793272018433
0.1534426361322403 0.15485413372516632 0.1534426361322403
0.17491482198238373 0.17681756615638733 0.17491482198238373
0.20152038335800171 0.20178857445716858 0.20152038335800171
0.23053646087646484 0.23056426644325256 0.23053646087646484
0.27435407042503357 0.27435407042503357 0.27435407042503357
0.33936199545860291 0.33936199545860291 0.33936199545860291
0.40787747502326965 0.4078926146030426 0.40787747502326965
0.48297634720802307 0.48299404978752136 0.48297634720802307
0.56866633892059326 0.56866633892059326 0.56866633892059326
0.65060323476791382 0.65058553218841553 0.65060323476791382
0.71691173315048218 0.71707272529602051 0.71691173315048218
0.76415324211120605 0.76461333036422729 0.76415324211120605
0.79930210113525391 0.80053329467773438 0.79930210113525391
0.17257125675678253 0.17348392307758331 0.17257125675678253
0.18957380950450897 0.19071479141712189 0.18957380950450897
0.21445955336093903 0.21520479023456573 0.21445955336093903
0.24033889174461365 0.24042154848575592 0.24033889174461365
0.28366029262542725 0.28366029262542725 0.28366029262542725
0.34292033314704895 0.34295320510864258 0.34292033314704895
0.40576475858688354 0.40576475858688354 0.40576475858688354
0.48315581679344177 0.48315581679344177 0.48315581679344177
0.56831562519073486 0.56831562519073486 0.56831562519073486
0.65003287792205811 0.65009570121765137 0.65003287792205811
0.71597975492477417 0.71748131513595581 0.71597975492477417
0.76572436094284058 0.7674710750579834 0.76572436094284058
0.80052131414413452 0.80090343952178955 0.80052131414413452
0.19040095806121826 0.19076448678970337 0.19040095806121826
0.2039124071598053 0.20451776683330536 0.2039124071598053
0.22589395940303802 0.22632335126399994 0.22589395940303802
0.25288864970207214 0.25294250249862671 0.25288864970207214
0.29498463869094849 0.2951296865940094 0.29498463869094849
0.3520667552947998 0.35237565636634827 0.3520667552947998
0.41391286253929138 0.41406646370887756 0.41391286253929138
0.49028733372688293 0.49035054445266724 0.49028733372688293
0.57418793439865112 0.57418793439865112 0.57418793439865112
0.65358805656433105 0.65377050638198853 0.65358805656433105
0.7125389575958252 0.71458756923675537 0.7125389575958252
0.76632702350616455 0.76755863428115845 0.76632702350616455
0.80923199653625488 0.80934149026870728 0.80923199653625488
0.20896041393280029 0.20898701250553131 0.20896041393280029
0.2168874591588974 0.21714712679386139 0.2168874591588974
0.23467470705509186 0.23477077484130859 0.23467470705509186
0.26259568333625793 0.26264840364456177 0.26259568333625793
0.30189439654350281 0.30203187465667725 0.30189439654350281
0.36196368932723999 0.36287745833396912 0.36196368932723999
0.42736327648162842 0.42830368876457214 0.42736327648162842
0.49873813986778259 0.49894911050796509 0.49873813986778259
0.5818251371383667 0.5818781852722168 0.5818251371383667
0.65154403448104858 0.65159028768539429 0.65154403448104858
0.71472907066345215 0.71490782499313354 0.71472907066345215
0.76631885766983032 0.76644784212112427 0.76631885766983032
0.8115430474281311 0.8115430474281311 0.8115430474281311
0.23134405910968781 0.23143507540225983 0.23134405910968781
0.23558239638805389 0.235645592212677 0.23558239638805389
0.24507714807987213 0.24508200585842133 0.24507714807987213
0.26682355999946594 0.26693442463874817 0.26682355999946594
0.30205106735229492 0.30222269892692566 0.30205106735229492
0.36247545480728149 0.36294257640838623 0.36247545480728149
0.42422133684158325 0.42475855350494385 0.42422133684158325
0.48963260650634766 0.48975777626037598 0.48963260650634766
0.5633881688117981 0.56340843439102173 0.5633881688117981
0.63092643022537231 0.63092643022537231 0.63092643022537231
0.69985294342041016 0.6998857855796814 0.69985294342041016
0.76342993974685669 0.76342993974685669 0.76342993974685669
0.81750935316085815 0.81750935316085815 0.81750935316085815
0.25021865963935852 0.25034508109092712 0.25021865963935852
0.25315245985984802 0.2532716691493988 0.25315245985984802
0.2593778669834137 0.25947374105453491 0.2593778669834137
0.27331489324569702 0.27333590388298035 0.27331489324569702
0.30146574974060059 0.30152520537376404 0.30146574974060059
0.35576558113098145 0.35580667853355408 0.35576558113098145
0.41408944129943848 0.41419589519500732 0.41408944129943848
0.4740314781665802 0.47404655814170837 0.4740314781665802
0.53732097148895264 0.53735381364822388 0.53732097148895264
0.60715192556381226 0.60715192556381226 0.60715192556381226
0.68094050884246826 0.68094050884246826 0.68094050884246826
0.75228554010391235 0.75228554010391235 0.75228554010391235
0.81815910339355469 0.81815910339355469 0.81815910339355469
0.060277886688709259 0.060277886688709259 0.060277886688709259
0.09574088454246521 0.09574088454246521 0.09574088454246521
0.167384073138237 0.167384073138237 0.167384073138237
0.24212831258773804 0.24212831258773804 0.24212831258773804
0.32269221544265747 0.32269221544265747 0.32269221544265747
0.40329369902610779 0.40338230133056641 0.40329369902610779
0.48642987012863159 0.48743671178817749 0.48639702796936035
0.56613165140151978 0.5681532621383667 0.56603717803955078
0.62876182794570923 0.62952190637588501 0.62773966789245605
0.68048214912414551 0.68053531646728516 0.6796836256980896
0.72275447845458984 0.72275447845458984 0.72238659858703613
0.76322674751281738 0.76322674751281738 0.76309311389923096
0.78583359718322754 0.78583359718322754 0.78583359718322754
0.068979538977146149 0.068979538977146149 0.068979538977146149
0.095688551664352417 0.095688551664352417 0.095688551664352417
0.15877789258956909 0.15877789258956909 0.15877789258956909
0.23268163204193115 0.23268163204193115 0.23268163204193115
0.30981263518333435 0.30981263518333435 0.30981263518333435
0.38830506801605225 0.3883950412273407 0.38830506801605225
0.46922624111175537 0.47011694312095642 0.46922624111175537
0.54963511228561401 0.55141836404800415 0.54963260889053345
0.61746108531951904 0.61855936050415039 0.61729997396469116
0.67565435171127319 0.67574173212051392 0.67522746324539185
0.71910417079925537 0.71910417079925537 0.71899658441543579
0.75599324703216553 0.75599324703216553 0.75599324703216553
0.77433878183364868 0.77433878183364868 0.77424532175064087
0.083450868725776672 0.083450868725776672 0.083450868725776672
0.10460910946130753 0.10460910946130753 0.10460910946130753
0.15800414979457855 0.15800414979457855 0.15800414979457855
0.22227911651134491 0.22227911651134491 0.22227911651134491
0.2998567521572113 0.2998567521572113 0.2998567521572113
0.37830135226249695 0.37831905484199524 0.37830135226249695
0.4567248523235321 0.45765122771263123 0.45669451355934143
0.53592664003372192 0.53758901357650757 0.53589129447937012
0.60833120346069336 0.60960596799850464 0.60833120346069336
0.6719629168510437 0.67213761806488037 0.67196172475814819
0.71591144800186157 0.71591401100158691 0.71590757369995117
0.75291329622268677 0.75291329622268677 0.75291329622268677
0.76948380470275879 0.76948380470275879 0.76948380470275879
0.097630336880683899 0.097665540874004364 0.097630336880683899
0.11876482516527176 0.11876501888036728 0.11876482516527176
0.16781242191791534 0.16781242191791534 0.16781242191791534
0.22417990863323212 0.22417990863323212 0.22417990863323212
0.29156807065010071 0.29158830642700195 0.29156807065010071
0.36719357967376709 0.36726182699203491 0.36719357967376709
0.44301405549049377 0.44338971376419067 0.44301405549049377
0.52380579710006714 0.52497166395187378 0.52380579710006714
0.60259568691253662 0.60344278812408447 0.60259568691253662
0.66627168655395508 0.66645115613937378 0.6662488579750061
0.71396678686141968 0.71399199962615967 0.71396678686141968
0.75260430574417114 0.75260430574417114 0.75260430574417114
0.77145397663116455 0.77145397663116455 0.77145397663116455
0.10824596881866455 0.10824849456548691 0.10824596881866455
0.13206495344638824 0.13206495344638824 0.13206495344638824
0.17744515836238861 0.17744515836238861 0.17744515836238861
0.22531075775623322 0.22531075775623322 0.22531075775623322
0.28432253003120422 0.28432253003120422 0.28432253003120422
0.35697788000106812 0.35707294940948486 0.35697788000106812
0.43263280391693115 0.43282529711723328 0.43263280391693115
0.51412814855575562 0.5143287181854248 0.51412814855575562
0.59683167934417725 0.5969279408454895 0.59683167934417725
0.66505932807922363 0.66505932807922363 0.66504925489425659
0.71436083316802979 0.71439617872238159 0.71436083316802979
0.75434213876724243 0.75437498092651367 0.75434213876724243
0.775718092918396 0.77573835849761963 0.775718092918396
0.11879725754261017 0.1189500093460083 0.11879725754261017
0.14191050827503204 0.14210177958011627 0.14191050827503204
0.18267291784286499 0.18273864686489105 0.18267291784286499
0.222746342420578 0.222746342420578 0.222746342420578
0.27407369017601013 0.27409392595291138 0.27407369017601013
0.34928828477859497 0.3493044376373291 0.34928828477859497
0.42585974931716919 0.42589244246482849 0.42585974931716919
0.50711548328399658 0.50721335411071777 0.50711548328399658
0.58743137121200562 0.58743137121200562 0.58743137121200562
0.65782999992370605 0.65782850980758667 0.65782999992370605
0.71399128437042236 0.71399128437042236 0.71399128437042236
0.75677573680877686 0.75687438249588013 0.75677573680877686
0.7828790545463562 0.78294223546981812 0.7828790545463562
0.13367839157581329 0.13378253579139709 0.13367839157581329
0.15991826355457306 0.16030535101890564 0.15991826355457306
0.19273361563682556 0.19283473491668701 0.19273361563682556
0.22677263617515564 0.22681055963039398 0.22677263617515564
0.26998516917228699 0.27004486322402954 0.26998516917228699
0.34286761283874512 0.3428686261177063 0.34286761283874512
0.41723358631134033 0.41723477840423584 0.41723358631134033
0.49634960293769836 0.4963509738445282 0.49634960293769836
0.57781291007995605 0.57781291007995605 0.57781291007995605
0.65336030721664429 0.65335923433303833 0.65336030721664429
0.71272629499435425 0.71275407075881958 0.71272629499435425
0.75754988193511963 0.75768011808395386 0.75754988193511963
0.79219424724578857 0.79231035709381104 0.79219424724578857
0.15127696096897125 0.15141814947128296 0.15127696096897125
0.17485083639621735 0.17580434679985046 0.17485083639621735
0.20289173722267151 0.20309652388095856 0.20289173722267151
0.23157823085784912 0.23161615431308746 0.23157823085784912
0.27170684933662415 0.27175742387771606 0.27170684933662415
0.3416963517665863 0.3416963517665863 0.3416963517665863
0.41194909811019897 0.41194909811019897 0.41194909811019897
0.48726350069046021 0.48726350069046021 0.48726350069046021
0.57136404514312744 0.57135391235351562 0.57136404514312744
0.65057957172393799 0.65055686235427856 0.65057957172393799
0.71363812685012817 0.71378964185714722 0.71362745761871338
0.75932073593139648 0.75966554880142212 0.75932073593139648
0.79420953989028931 0.79459398984909058 0.79420953989028931
0.1718149334192276 0.17216207087039948 0.1718149334192276
0.1884290874004364 0.18892012536525726 0.1884290874004364
0.21377265453338623 0.21392123401165009 0.21377265453338623
0.24177494645118713 0.24185915291309357 0.24177494645118713
0.28454127907752991 0.28455141186714172 0.28454127907752991
0.34546005725860596 0.34546551108360291 0.34546005725860596
0.41107788681983948 0.41108253598213196 0.41107788681983948
0.48730960488319397 0.48730960488319397 0.48730960488319397
0.57095956802368164 0.57095956802368164 0.57095956802368164
0.65045267343521118 0.65049034357070923 0.65045267343521118
0.71227562427520752 0.71282398700714111 0.71225851774215698
0.76094955205917358 0.76184314489364624 0.76094955205917358
0.79708260297775269 0.79730409383773804 0.79705476760864258
0.18999432027339935 0.19016812741756439 0.18999432027339935
0.20324970781803131 0.2034233957529068 0.20324970781803131
0.2251334935426712 0.22531710565090179 0.2251334935426712
0.25487211346626282 0.25500920414924622 0.25487211346626282
0.2967371940612793 0.29678386449813843 0.2967371940612793
0.35043719410896301 0.35097578167915344 0.35043719410896301
0.41528719663619995 0.41650533676147461 0.41528719663619995
0.4921664297580719 0.49249023199081421 0.4921664297580719
0.57495206594467163 0.57499253749847412 0.57495206594467163
0.65279936790466309 0.65287214517593384 0.65279936790466309
0.71201276779174805 0.7121424674987793 0.71201276779174805
0.76451033353805542 0.76532930135726929 0.76451033353805542
0.80691355466842651 0.80699014663696289 0.80691355466842651
0.20858974754810333 0.20866233110427856 0.20858974754810333
0.21737731993198395 0.21752645075321198 0.21737731993198395
0.23546428978443146 0.23564454913139343 0.23546428978443146
0.26260560750961304 0.26266530156135559 0.26260560750961304
0.30230778455734253 0.30256742238998413 0.30230778455734253
0.35824906826019287 0.35961794853210449 0.35824906826019287
0.42240762710571289 0.42475035786628723 0.42240762710571289
0.50138449668884277 0.50220650434494019 0.50138449668884277
0.58217698335647583 0.5822022557258606 0.58217698335647583
0.65057289600372314 0.65057289600372314 0.65057289600372314
0.71362924575805664 0.71371269226074219 0.71362924575805664
0.76642525196075439 0.76642781496047974 0.76642525196075439
0.81226980686187744 0.81227481365203857 0.81226980686187744
0.2304481565952301 0.23102651536464691 0.2304481565952301
0.23500652611255646 0.23507945239543915 0.23500652611255646
0.24891208112239838 0.24900580942630768 0.24891208112239838
0.2689787745475769 0.26904410123825073 0.2689787745475769
0.30192115902900696 0.30214843153953552 0.30192115902900696
0.35607871413230896 0.35688856244087219 0.35607871413230896
0.41402283310890198 0.41510751843452454 0.41402283310890198
0.49048754572868347 0.49104195833206177 0.49048754572868347
0.56899744272232056 0.56899744272232056 0.56899744272232056
0.63541644811630249 0.63541644811630249 0.63541644811630249
0.70271074771881104 0.7027440071105957 0.70271074771881104
0.76665037870407104 0.76671570539474487 0.76665037870407104
0.81807571649551392 0.81816667318344116 0.81807571649551392
0.24878205358982086 0.24966457486152649 0.24878205358982086
0.2524566650390625 0.25296908617019653 0.2524566650390625
0.26159206032752991 0.26170021295547485 0.26159206032752991
0.27657914161682129 0.27666759490966797 0.27657914161682129
0.30164554715156555 0.30165711045265198 0.30164554715156555
0.34694218635559082 0.34700882434844971 0.34694218635559082
0.39966347813606262 0.3999270498752594 0.39966347813606262
0.468515545129776 0.46865445375442505 0.468515545129776
0.54686027765274048 0.54686027765274048 0.54686027765274048
0.61541163921356201 0.61544454097747803 0.61541163921356201
0.68553245067596436 0.68559771776199341 0.68553245067596436
0.75818437337875366 0.75821000337600708 0.75818437337875366
0.82431566715240479 0.824371337890625 0.82431566715240479
0.076660901308059692 0.076660901308059692 0.076660901308059692
0.11281848698854446 0.11281848698854446 0.11281848698854446
0.18320171535015106 0.18320171535015106 0.18320171535015106
0.25768458843231201 0.25768458843231201 0.25768458843231201
0.33295133709907532 0.33295133709907532 0.33295133709907532
0.40695512294769287 0.40696874260902405 0.40692225098609924
0.48534497618675232 0.48566505312919617 0.48531463742256165
0.56353425979614258 0.56401050090789795 0.56353425979614258
0.62125217914581299 0.62134182453155518 0.6209176778793335
0.67747032642364502 0.6775815486907959 0.67712861299514771
0.72634172439575195 0.72634172439575195 0.72624927759170532
0.76066333055496216 0.76066333055496216 0.76066333055496216
0.78920567035675049 0.78920567035675049 0.78920567035675049
0.087397061288356781 0.087397061288356781 0.087397061288356781
0.11269567161798477 0.11269567161798477 0.11269567161798477
0.17309467494487762 0.17309467494487762 0.17309467494487762
0.24392069876194 0.24392069876194 0.24392069876194
0.31703147292137146 0.31703147292137146 0.31703147292137146
0.39389181137084961 0.39392465353012085 0.39389181137084961
0.46896716952323914 0.46934366226196289 0.46896463632583618
0.54496389627456665 0.54537546634674072 0.54494249820709229
0.61413514614105225 0.61441612243652344 0.61413025856018066
0.67011469602584839 0.6702120304107666 0.67000573873519897
0.71986848115921021 0.71988987922668457 0.71986848115921021
0.75316286087036133 0.75316286087036133 0.75316286087036133
0.77908229827880859 0.77908229827880859 0.77907717227935791
0.10806415230035782 0.10806415230035782 0.10806415230035782
0.12072686851024628 0.12072686851024628 0.12072686851024628
0.17121976613998413 0.17121976613998413 0.17121976613998413
0.23395092785358429 0.23395092785358429 0.23395092785358429
0.30477991700172424 0.30477991700172424 0.30477991700172424
0.38037705421447754 0.38037705421447754 0.38037705421447754
0.45451155304908752 0.45467293262481689 0.45451155304908752
0.53030002117156982 0.53064876794815063 0.53026324510574341
0.60554307699203491 0.60586428642272949 0.60554307699203491
0.66618257761001587 0.66622155904769897 0.66618257761001587
0.71508091688156128 0.71508479118347168 0.71508091688156128
0.75134211778640747 0.75134211778640747 0.75134211778640747
0.76986849308013916 0.76986849308013916 0.76986849308013916
0.11472228169441223 0.11472228169441223 0.11472228169441223
0.13125725090503693 0.13125725090503693 0.13125725090503693
0.17493878304958344 0.17493878304958344 0.17493878304958344
0.23088391125202179 0.23088391125202179 0.23088391125202179
0.29392978549003601 0.29392978549003601 0.29392978549003601
0.36700761318206787 0.36700761318206787 0.36700761318206787
0.43905720114707947 0.43917545676231384 0.43905720114707947
0.51500904560089111 0.5152706503868103 0.51500904560089111
0.59710037708282471 0.59721857309341431 0.59710037708282471
0.66328436136245728 0.66332221031188965 0.66328436136245728
0.71139216423034668 0.71139216423034668 0.71139216423034668
0.75194710493087769 0.75194710493087769 0.75194710493087769
0.76456952095031738 0.76456952095031738 0.76456952095031738
0.11933103203773499 0.11933103203773499 0.11933103203773499
0.14101162552833557 0.14101162552833557 0.14101162552833557
0.18264733254909515 0.18264733254909515 0.18264733254909515
0.23007121682167053 0.23007121682167053 0.23007121682167053
0.2815156877040863 0.2815156877040863 0.2815156877040863
0.35280576348304749 0.35280576348304749 0.35280576348304749
0.4265882670879364 0.42660459876060486 0.4265882670879364
0.50348228216171265 0.50349956750869751 0.50348228216171265
