assets/lut/abigailgonzalez eterna for flog.cube
# Created by: G'MIC (https://gmic.eu)
TITLE "eterna_for_flog"
# LUT size
LUT_3D_SIZE 7
# Data domain
DOMAIN_MIN 0.0 0.0 0.0
DOMAIN_MAX 1.0 1.0 1.0
# LUT data points
0.0085438145324587822 0.0077919755131006241 0.0076945587061345577
0.18771576881408691 0.0090938340872526169 0.012131650000810623
0.51183217763900757 0.011474818922579288 0.055716183036565781
0.89166843891143799 0.024957155808806419 0.11876755952835083
0.99992817640304565 0.030796574428677559 0.14201045036315918
0.99158787727355957 0.029235227033495903 0.13484068214893341
0.97636306285858154 0.029769493266940117 0.13327012956142426
4.5118144043954089e-05 0.10566408932209015 0.00054723699577152729
0.10682082921266556 0.089926041662693024 0.0039185169152915478
0.36127066612243652 0.04447772353887558 0.026180895045399666
0.71296006441116333 0.017657620832324028 0.083939932286739349
0.97423738241195679 0.026917342096567154 0.13216677308082581
0.97990149259567261 0.031747646629810333 0.13145186007022858
0.97665494680404663 0.033279899507761002 0.12971222400665283
0.00043679031659848988 0.27549001574516296 0.0031421736348420382
0.031325172632932663 0.28518256545066833 0.00015546013310085982
0.29158103466033936 0.25523126125335693 0.00064381619449704885
0.63153225183486938 0.20635361969470978 0.027029315009713173
0.93430155515670776 0.082731671631336212 0.11121056973934174
0.98906069993972778 0.013723230920732021 0.14046816527843475
0.98392349481582642 0.01761290617287159 0.13374011218547821
0.0012988969683647156 0.53988438844680786 4.434024594957009e-05
0 0.57098037004470825 0
0.16812014579772949 0.54178786277770996 0.00033644132781773806
0.58655977249145508 0.52239406108856201 0.00035666671465151012
0.90483593940734863 0.46890351176261902 0.01391257531940937
0.99336737394332886 0.25655731558799744 0.072656400501728058
0.99020665884017944 0.13200920820236206 0.10724183917045593
0.0019446727819740772 0.83261799812316895 0.00067541084717959166
0 0.85796546936035156 0
0.060718461871147156 0.84179574251174927 0
0.46863949298858643 0.82233411073684692 0.0040534972213208675
0.83642435073852539 0.80245488882064819 0
0.96780246496200562 0.68374347686767578 0.00025559967616572976
0.98286139965057373 0.53243178129196167 0.013366055674850941
0.0021445031743496656 0.98282557725906372 0.0010929481359198689
0 0.98471027612686157 0.0065798293799161911
0.0082404790446162224 0.98542410135269165 0.0016448675887659192
0.27444040775299072 0.9837682843208313 0.0021681990474462509
0.7227662205696106 0.98491775989532471 0.00011901855759788305
0.91639262437820435 0.9477773904800415 0
0.94711285829544067 0.84978902339935303 0.00016569250146858394
0.0012887693010270596 0.9885108470916748 0.0010379118612036109
0 0.98710852861404419 0.0038879993371665478
0 0.98757481575012207 0.0001923355448525399
0.02943756990134716 0.99036264419555664 0.00028607237618416548
0.45844471454620361 0.99718290567398071 0.0017529206816107035
0.82173603773117065 0.99999535083770752 0
0.91677910089492798 0.99628764390945435 8.8680491899140179e-05
0.0075696907006204128 0.0094622448086738586 0.12049815058708191
0.17108280956745148 0.0060948841273784637 0.072861768305301666
0.48447930812835693 0.012414012104272842 0.047063551843166351
0.84812599420547485 0.0218073520809412 0.11339696496725082
0.99828219413757324 0.032646045088768005 0.14810790121555328
0.98559051752090454 0.030713953077793121 0.13485413789749146
0.97301709651947021 0.029632193967700005 0.13043737411499023
0.0015518038999289274 0.1028885617852211 0.12013796716928482
0.093710757791996002 0.09287300705909729 0.09243137389421463
0.34679535031318665 0.058312211185693741 0.054551158100366592
0.69350498914718628 0.024932486936450005 0.076602712273597717
0.96306180953979492 0.025573879480361938 0.13102792203426361
0.98426109552383423 0.035461664199829102 0.13107007741928101
0.98120319843292236 0.029826220124959946 0.13313610851764679
0 0.27952113747596741 0.1168871745467186
0.024170130491256714 0.29207682609558105 0.090270757675170898
0.27993494272232056 0.26904961466789246 0.057635392993688583
0.62511211633682251 0.22298029065132141 0.029712647199630737
0.93333762884140015 0.091645903885364532 0.10849104076623917
0.98488563299179077 0.01972491666674614 0.13672821223735809
0.98242580890655518 0.0137520432472229 0.13484977185726166
0.00024426029995083809 0.55874574184417725 0.081067688763141632
0 0.58868861198425293 0.047622844576835632
0.11900483816862106 0.56107443571090698 0.041155528277158737
0.5772165060043335 0.54437941312789917 0.0095109529793262482
0.90576153993606567 0.48096641898155212 0.011959180235862732
0.99463534355163574 0.28202936053276062 0.067739389836788177
0.990273118019104 0.15371105074882507 0.10343769937753677
0.0024610632099211216 0.82919549942016602 0.048004612326622009
0.0015308604342862964 0.85935264825820923 0.022892536595463753
0.029460817575454712 0.84918475151062012 0.017948374152183533
0.45061329007148743 0.83520835638046265 0.0061817844398319721
0.82730793952941895 0.81214803457260132 9.5741424956941046e-06
0.96734696626663208 0.70350724458694458 4.6165318053681403e-05
0.98296570777893066 0.54663205146789551 0.013334565795958042
0.0018619312904775143 0.97535496950149536 0.01975695975124836
6.2157123466022313e-05 0.97590929269790649 0.0055982400663197041
0.0079877516254782677 0.98107081651687622 0.00022484274813905358
0.25034797191619873 0.98163598775863647 0.00061654485762119293
0.70171844959259033 0.98222345113754272 0
0.9104006290435791 0.94833439588546753 0
0.94081372022628784 0.85838443040847778 0.011706408113241196
0.00058556353906169534 0.98068815469741821 9.3347887741401792e-05
0 0.97430950403213501 0
0 0.97874355316162109 0
0.025069471448659897 0.98176807165145874 0.0002921310078818351
0.43609556555747986 0.99165135622024536 0.0039331475272774696
0.79049116373062134 1 0.00067813351051881909
0.92774885892868042 0.99583131074905396 0.00028435201966203749
0.011419468559324741 0.017117025330662727 0.3293871283531189
0.1287025660276413 0.006544958334416151 0.27349543571472168
0.45898145437240601 0.0112036457285285 0.19426333904266357
0.83373212814331055 0.022134877741336823 0.10799220949411392
0.9959067702293396 0.029121279716491699 0.14450500905513763
0.98703962564468384 0.027450980618596077 0.13566446304321289
0.98045676946640015 0.028432749211788177 0.13348592817783356
0.0046130907721817493 0.095102973282337189 0.33144190907478333
0.056966744363307953 0.092586338520050049 0.27921202778816223
0.34118255972862244 0.057683475315570831 0.24346993863582611
0.68192356824874878 0.02258332259953022 0.14733897149562836
0.94906294345855713 0.019286660477519035 0.11756815016269684
0.98375606536865234 0.028025923296809196 0.13748982548713684
0.98061102628707886 0.032379928976297379 0.13453161716461182
0.00037261363468132913 0.28354084491729736 0.33559343218803406
0.010554429143667221 0.29574859142303467 0.29506248235702515
0.26582175493240356 0.27343064546585083 0.27448725700378418
0.62657660245895386 0.22864371538162231 0.21596479415893555
0.92909544706344604 0.11473564058542252 0.12047853320837021
0.98893624544143677 0.022721936926245689 0.13516964018344879
0.9843137264251709 0.036206819117069244 0.13366328179836273
0 0.57216799259185791 0.37203255295753479
0 0.599323570728302 0.32278788089752197
0.10140014439821243 0.57010334730148315 0.29794543981552124
0.5815727710723877 0.55438011884689331 0.2599913477897644
0.90146070718765259 0.49959513545036316 0.10372953116893768
0.99702543020248413 0.30125007033348083 0.049633264541625977
0.9932020902633667 0.18489287793636322 0.10406292229890823
0.0017695109127089381 0.82726031541824341 0.39431113004684448
0.0065853344276547432 0.8570321798324585 0.34485232830047607
0.014878217130899429 0.84283643960952759 0.31407016515731812
0.44277381896972656 0.8356214165687561 0.27856847643852234
0.82606124877929688 0.81345582008361816 0.14801159501075745
0.96907907724380493 0.71439623832702637 0.0084373326972126961
0.98256170749664307 0.56494230031967163 0.0017999835545197129
0.00042660284088924527 0.9634091854095459 0.34787708520889282
0.0037355311214923859 0.97542768716812134 0.27747234702110291
4.7870712478470523e-06 0.97364377975463867 0.234471395611763
0.1843889057636261 0.97835969924926758 0.22971917688846588
0.69374668598175049 0.981284499168396 0.14397953450679779
0.91696465015411377 0.96108400821685791 0.019932899624109268
0.9459722638130188 0.87649625539779663 0
0.0012156467419117689 0.97624319791793823 0.18653988838195801
0.0037053725682199001 0.97622644901275635 0.071148231625556946
0 0.97494959831237793 0.055980008095502853
0.021274236962199211 0.97781777381896973 0.086880668997764587
0.41006606817245483 0.98792362213134766 0.17765544354915619
0.78950357437133789 0.99868595600128174 0.074386745691299438
0.92620170116424561 0.99749517440795898 0
0.016046082600951195 0.052686832845211029 0.65029752254486084
0.10058038681745529 0.026372244581580162 0.54522460699081421
0.43833065032958984 0.010820860043168068 0.47595047950744629
0.82290416955947876 0.019121371209621429 0.31619682908058167
0.98259776830673218 0.027355628088116646 0.13533133268356323
0.98141813278198242 0.027450980618596077 0.12756548821926117
0.98630249500274658 0.028381736949086189 0.13512034714221954
0.0015927483327686787 0.082100212574005127 0.62021952867507935
0.026774626225233078 0.084828384220600128 0.53575676679611206
0.30680623650550842 0.060783896595239639 0.48335158824920654
0.68394774198532104 0.022912926971912384 0.43261390924453735
0.96324509382247925 0.026955848559737206 0.21087311208248138
0.98423594236373901 0.030166730284690857 0.1291753351688385
0.9843137264251709 0.03089345246553421 0.13713717460632324
0.0027118159923702478 0.2926425039768219 0.61415767669677734
0.0021231707651168108 0.30223193764686584 0.55790215730667114
0.2188389003276825 0.27994281053543091 0.52298176288604736
0.63549131155014038 0.23970665037631989 0.50550204515457153
0.93924993276596069 0.10971619933843613 0.36734163761138916
0.98512518405914307 0.023264253512024879 0.14095596969127655
0.98399609327316284 0.015691015869379044 0.13508680462837219
4.846909359912388e-05 0.57521408796310425 0.63817602396011353
2.2170122974785045e-05 0.59978979825973511 0.59773063659667969
0.076804369688034058 0.57999628782272339 0.56767243146896362
0.56208962202072144 0.56120634078979492 0.56202620267868042
0.90688455104827881 0.50365722179412842 0.48972907662391663
0.99713623523712158 0.34041225910186768 0.19561314582824707
0.99175268411636353 0.16075779497623444 0.093206174671649933
0.0011916965013369918 0.81741219758987427 0.65409940481185913
0.0036153607070446014 0.8492702841758728 0.61962556838989258
0.002192523330450058 0.83897119760513306 0.60443758964538574
0.38283205032348633 0.8291441798210144 0.59881770610809326
0.8376348614692688 0.81556832790374756 0.54553401470184326
0.97678405046463013 0.72446966171264648 0.31726619601249695
0.97735476493835449 0.57642090320587158 0.0041386322118341923
0.0010209027677774429 0.95843172073364258 0.6240074634552002
0.01543661393225193 0.9709479808807373 0.5696181058883667
7.1806067580837407e-07 0.96479982137680054 0.55840456485748291
0.16012901067733765 0.96686631441116333 0.54607295989990234
0.66674822568893433 0.97290927171707153 0.5227695107460022
0.92918866872787476 0.95486241579055786 0.31227833032608032
0.94135457277297974 0.88110709190368652 0.021712688729166985
6.8933826696593314e-05 0.97000575065612793 0.49067863821983337
0.0069430782459676266 0.96825516223907471 0.3974626362323761
1.8310547602595761e-05 0.96981227397918701 0.37197703123092651
0.016686009243130684 0.97584992647171021 0.35262459516525269
0.41182747483253479 0.98614132404327393 0.4440334141254425
0.78592902421951294 0.99678832292556763 0.36664107441902161
0.92486894130706787 0.99917256832122803 0.019536381587386131
0.0038229101337492466 0.10482627898454666 0.9219016432762146
0.087323762476444244 0.062506929039955139 0.82779675722122192
0.39386114478111267 0.028608659282326698 0.77210772037506104
0.81822019815444946 0.017445553094148636 0.69626539945602417
0.99162644147872925 0.024251570925116539 0.35377845168113708
0.98102027177810669 0.027450980618596077 0.11245539039373398
0.9847182035446167 0.027781587094068527 0.13104191422462463
0 0.10662145912647247 0.88467657566070557
0.018412047997117043 0.087753519415855408 0.81923818588256836
0.24099861085414886 0.068916052579879761 0.77166825532913208
0.67907589673995972 0.037046603858470917 0.73780155181884766
0.96726065874099731 0.012746653519570827 0.57243531942367554
0.98722177743911743 0.024353595450520515 0.18949258327484131
0.98443293571472168 0.031372550874948502 0.12019713222980499
4.6673943870700896e-05 0.27523109316825867 0.86638575792312622
0 0.29558286070823669 0.81811589002609253
0.11416066437959671 0.27719414234161377 0.78427416086196899
0.61467784643173218 0.23921261727809906 0.7882530689239502
0.94354707002639771 0.13083797693252563 0.73521912097930908
0.99302375316619873 0.053390666842460632 0.37973707914352417
0.98594409227371216 0.010536119341850281 0.16230523586273193
0.00027582506299950182 0.56153351068496704 0.85276085138320923
0.00049942615441977978 0.59171098470687866 0.82519030570983887
0.0027167226653546095 0.57950598001480103 0.79530411958694458
0.49192067980766296 0.55817985534667969 0.79971575736999512
0.89490920305252075 0.50561821460723877 0.78595846891403198
0.99997407197952271 0.37708878517150879 0.59949082136154175
0.99687439203262329 0.25711986422538757 0.28168770670890808
0.00055456720292568207 0.79568576812744141 0.843636155128479
0.00024461932480335236 0.82787901163101196 0.81700789928436279
0 0.82173323631286621 0.79654306173324585
0.27483078837394714 0.81542974710464478 0.79877614974975586
0.80536746978759766 0.80128312110900879 0.80213487148284912
0.99414145946502686 0.73426496982574463 0.7129254937171936
0.99370676279067993 0.62418389320373535 0.45062005519866943
0.00013212316844146699 0.94613903760910034 0.81156611442565918
0.00080603803507983685 0.9552118182182312 0.76810812950134277
0 0.95465070009231567 0.75368106365203857
0.089892864227294922 0.95639866590499878 0.75106710195541382
0.6043199896812439 0.96257960796356201 0.76035839319229126
0.94297564029693604 0.94563448429107666 0.70440459251403809
0.96983921527862549 0.869823157787323 0.52164953947067261
8.6167283370741643e-06 0.96649056673049927 0.6964569091796875
0.00022134219761937857 0.96091300249099731 0.6426435112953186
0 0.96453183889389038 0.63357311487197876
5.7803881645668298e-05 0.96847689151763916 0.60980689525604248
0.31299903988838196 0.97895240783691406 0.63387888669967651
0.7843436598777771 0.99598133563995361 0.66729766130447388
0.96267551183700562 0.99733537435531616 0.44786795973777771
0 0.13892900943756104 0.99436694383621216
0.017620669677853584 0.11333765089511871 0.95785069465637207
0.27141854166984558 0.085706464946269989 0.95329713821411133
0.77641266584396362 0.031323853880167007 0.96851480007171631
0.99724102020263672 0.014127274975180626 0.76639217138290405
0.98719209432601929 0.025951296091079712 0.30347377061843872
0.98647862672805786 0.026251040399074554 0.20797707140445709
0.0022003322374075651 0.14131204783916473 0.98471349477767944
9.1552738012978807e-06 0.12943309545516968 0.9732128381729126
0.089700393378734589 0.10917151719331741 0.96167945861816406
0.61948120594024658 0.048454016447067261 0.96271085739135742
0.95419877767562866 1.4720243598276284e-05 0.88995110988616943
0.99429976940155029 0.010768411681056023 0.52700650691986084
0.9914926290512085 0.025656158104538918 0.31136044859886169
0.00045163024333305657 0.21534590423107147 0.97704011201858521
2.0853678506682627e-05 0.243369460105896 0.96682226657867432
0.021840114146471024 0.24115751683712006 0.94926851987838745
0.48186412453651428 0.21587735414505005 0.97270506620407104
0.92126762866973877 0.090023428201675415 0.9690975546836853
0.99993348121643066 0.009841245599091053 0.75597429275512695
0.99627333879470825 0.038699701428413391 0.48548424243927002
0.00030741971568204463 0.48426365852355957 0.94007545709609985
0.00057928048772737384 0.53637218475341797 0.92753386497497559
0 0.5367923378944397 0.92334872484207153
0.26477682590484619 0.53515869379043579 0.95302057266235352
0.85439282655715942 0.48722082376480103 0.97823792695999146
0.99929690361022949 0.34433639049530029 0.8645215630531311
1 0.2999979555606842 0.65104609727859497
1.4361213288793806e-05 0.72905153036117554 0.9100879430770874
0.0018746618879958987 0.77501749992370605 0.90072375535964966
0.0026170918717980385 0.77342021465301514 0.89733552932739258
0.087832055985927582 0.77959436178207397 0.91121238470077515
0.70694375038146973 0.77058559656143188 0.95657062530517578
0.99040400981903076 0.70909243822097778 0.91671454906463623
0.99555301666259766 0.64513248205184937 0.75435841083526611
0 0.89846622943878174 0.88580834865570068
4.487879323278321e-06 0.9262012243270874 0.88505923748016357
0.0028970306739211082 0.92819303274154663 0.87642067670822144
0.0068810554221272469 0.92925244569778442 0.87965220212936401
0.40256369113922119 0.93001490831375122 0.90114444494247437
0.91553395986557007 0.91865235567092896 0.91580957174301147
0.99528044462203979 0.87044614553451538 0.83500760793685913
2.154182038793806e-05 0.96334624290466309 0.86324197053909302
0.00022849289234727621 0.96062880754470825 0.83993268013000488
0.00013966279220767319 0.96066081523895264 0.83156532049179077
0 0.96178567409515381 0.81115233898162842
0.11897017806768417 0.96719396114349365 0.80843949317932129
0.71526223421096802 0.98876523971557617 0.83945322036743164
0.9775879979133606 0.9973759651184082 0.79612082242965698
9.6070529252756387e-05 0.13457852602005005 0.98668986558914185
0.0023846495896577835 0.12538442015647888 0.97596317529678345
0.16004186868667603 0.11147981882095337 0.96982288360595703
0.72397565841674805 0.052904509007930756 0.99957382678985596
0.99360960721969604 0.016178565099835396 0.93932950496673584
0.99956941604614258 0.023272540420293808 0.60728603601455688
1 0.023721553385257721 0.52208667993545532
0.001838743919506669 0.14836505055427551 0.98510980606079102
0.00028363396995700896 0.14467349648475647 0.98594087362289429
0.027462992817163467 0.14105264842510223 0.98596864938735962
0.50119954347610474 0.076028652489185333 0.99536246061325073
0.94404655694961548 0.012119562365114689 0.99675583839416504
0.99995028972625732 0.017366116866469383 0.83954167366027832
1 0.027238478884100914 0.66860425472259521
8.6167283370741643e-06 0.17583528161048889 0.98074507713317871
0 0.19034925103187561 0.9780881404876709
0.00048439175589010119 0.18889012932777405 0.97844564914703369
0.24183046817779541 0.17919063568115234 0.99176383018493652
0.85887104272842407 0.09975598007440567 0.99981623888015747
0.99956750869750977 0.0079000433906912804 0.95226478576660156
1 0.023206314072012901 0.7919992208480835
0 0.37778177857398987 0.95243126153945923
0.00044931151205673814 0.42494818568229675 0.94549822807312012
0.00016919303743634373 0.4276391863822937 0.94498693943023682
0.054219011217355728 0.43885001540184021 0.96210575103759766
0.70221602916717529 0.42256301641464233 0.99815523624420166
0.98226773738861084 0.2684747576713562 0.99720644950866699
0.99962699413299561 0.22379818558692932 0.89890968799591064
0 0.62899178266525269 0.91784971952438354
0.0014174517709761858 0.66891300678253174 0.91107475757598877
0.0065134833566844463 0.66798216104507446 0.90384042263031006
3.4466913348296657e-05 0.67477089166641235 0.90832304954528809
0.47793233394622803 0.6886170506477356 0.96675115823745728
0.94614678621292114 0.65010535717010498 0.9980461597442627
1 0.61836099624633789 0.93588906526565552
0 0.83928334712982178 0.89314264059066772
0 0.86014682054519653 0.89151358604431152
0.0018399705877527595 0.86078131198883057 0.88993990421295166
0 0.86251890659332275 0.88986670970916748
0.15159593522548676 0.86649572849273682 0.91194647550582886
0.81784909963607788 0.86911290884017944 0.98486936092376709
0.99931329488754272 0.84743642807006836 0.96794694662094116
0 0.96148073673248291 0.88627451658248901
0 0.96524643898010254 0.88407218456268311
0.0023188272025436163 0.9635007381439209 0.88578927516937256
0.00035956889041699469 0.96083813905715942 0.89042878150939941
0.0037441179156303406 0.96708017587661743 0.89187705516815186
0.56269639730453491 0.98124223947525024 0.94423794746398926
0.97821557521820068 0.99116760492324829 0.98485249280929565
