assets/lut/abigailgonzalez cinema 03.cube
# Created by: G'MIC (https://gmic.eu)
TITLE "cinema_3"
# LUT size
LUT_3D_SIZE 5
# Data domain
DOMAIN_MIN 0.0 0.0 0.0
DOMAIN_MAX 1.0 1.0 1.0
# LUT data points
0.051859986037015915 0.058851532638072968 0.060875613242387772
0.16000287234783173 0.073216967284679413 0.045852929353713989
0.36803188920021057 0.12292136251926422 0.056437905877828598
0.54861205816268921 0.21361865103244781 0.088148750364780426
0.63802313804626465 0.27585944533348083 0.10605738312005997
0.045560244470834732 0.11546678841114044 0.065583169460296631
0.16207608580589294 0.13211575150489807 0.055533792823553085
0.41999608278274536 0.19049064815044403 0.066142350435256958
0.57724958658218384 0.25052750110626221 0.097114875912666321
0.66621887683868408 0.30197626352310181 0.11012104898691177
0.04901161789894104 0.23664180934429169 0.086742788553237915
0.10721854120492935 0.25809931755065918 0.081248611211776733
0.51934772729873657 0.37160372734069824 0.11507167667150497
0.70644539594650269 0.40835475921630859 0.13325135409832001
0.73177236318588257 0.38783684372901917 0.1285981684923172
0.070641368627548218 0.38716289401054382 0.11163581162691116
0.11084245890378952 0.4072207510471344 0.1049768477678299
0.28328454494476318 0.48277431726455688 0.10798492282629013
0.78940129280090332 0.59594935178756714 0.18116691708564758
0.83446198701858521 0.57390302419662476 0.16416290402412415
0.092078007757663727 0.51020091772079468 0.16805027425289154
0.13639089465141296 0.53313404321670532 0.15750136971473694
0.27051132917404175 0.57561427354812622 0.12694700062274933
0.54587471485137939 0.66625297069549561 0.17861363291740417
0.85528087615966797 0.72604101896286011 0.24989023804664612
0.043055813759565353 0.082508638501167297 0.1351715624332428
0.11512569338083267 0.082511007785797119 0.13077087700366974
0.36311382055282593 0.14612248539924622 0.10181299597024918
0.55539274215698242 0.21588338911533356 0.11311779916286469
0.64702051877975464 0.27380463480949402 0.12398098409175873
0.040076415985822678 0.11976249516010284 0.13459670543670654
0.12173641473054886 0.12999215722084045 0.13162370026111603
0.40588587522506714 0.1922767162322998 0.10541404038667679
0.57699650526046753 0.24545708298683167 0.11829346418380737
0.67238950729370117 0.29754540324211121 0.12985612452030182
0.052476037293672562 0.25272241234779358 0.15661978721618652
0.087170004844665527 0.25345826148986816 0.13707900047302246
0.49138554930686951 0.3637947142124176 0.14424572885036469
0.70611745119094849 0.40413734316825867 0.15412253141403198
0.7285149097442627 0.36960297822952271 0.14432686567306519
0.078182056546211243 0.39433714747428894 0.16450744867324829
0.10120728611946106 0.40520122647285461 0.14056342840194702
0.24058692157268524 0.46286946535110474 0.13373200595378876
0.79375451803207397 0.60385775566101074 0.20713324844837189
0.84003978967666626 0.58090388774871826 0.18919682502746582
0.099497281014919281 0.52488595247268677 0.22752547264099121
0.12562519311904907 0.5341600775718689 0.20387107133865356
0.229422926902771 0.57144367694854736 0.16831915080547333
0.49785125255584717 0.65792101621627808 0.18633182346820831
0.87164562940597534 0.7408251166343689 0.2761477530002594
0.047345958650112152 0.16312946379184723 0.28026846051216125
0.078343488276004791 0.16500662267208099 0.26438373327255249
0.26158550381660461 0.18527376651763916 0.22694315016269684
0.59092032909393311 0.27198317646980286 0.21643167734146118
0.72307056188583374 0.29079639911651611 0.22447431087493896
0.046592563390731812 0.18531903624534607 0.28233060240745544
0.074641779065132141 0.19343610107898712 0.28449901938438416
0.28033778071403503 0.23087483644485474 0.25174611806869507
0.63090974092483521 0.32001206278800964 0.24161145091056824
0.7471158504486084 0.33039271831512451 0.22423779964447021
0.055488765239715576 0.26906606554985046 0.31703642010688782
0.078582510352134705 0.27434509992599487 0.31230685114860535
0.33226081728935242 0.37342023849487305 0.35319966077804565
0.72347253561019897 0.4170989990234375 0.28734555840492249
0.73404264450073242 0.35033789277076721 0.17860229313373566
0.1303049623966217 0.47750565409660339 0.39366334676742554
0.13864398002624512 0.46940380334854126 0.35551884770393372
0.17700821161270142 0.47064518928527832 0.29289543628692627
0.79742348194122314 0.62791067361831665 0.26502960920333862
0.84318393468856812 0.57453769445419312 0.21432825922966003
0.13166114687919617 0.56692886352539062 0.36078378558158875
0.1342872679233551 0.5560869574546814 0.31053701043128967
0.17759990692138672 0.57057547569274902 0.24323722720146179
0.44007664918899536 0.64927500486373901 0.21471647918224335
0.88187652826309204 0.75912392139434814 0.30929914116859436
0.078354902565479279 0.28773421049118042 0.43605408072471619
0.097067438066005707 0.29124510288238525 0.43011656403541565
0.15896898508071899 0.3033745288848877 0.41740089654922485
0.5875316858291626 0.36876040697097778 0.48601007461547852
0.77700072526931763 0.35258942842483521 0.53825563192367554
0.079360127449035645 0.30980390310287476 0.44916701316833496
0.098266169428825378 0.31170707941055298 0.44973954558372498
0.1578713059425354 0.3240581750869751 0.43207201361656189
0.6122012734413147 0.41030728816986084 0.50914973020553589
0.80536580085754395 0.40284901857376099 0.56422877311706543
0.086408309638500214 0.34729871153831482 0.46947169303894043
0.10735876113176346 0.35272368788719177 0.47149214148521423
0.15697687864303589 0.36326891183853149 0.47863361239433289
0.65090256929397583 0.46784511208534241 0.56426846981048584
0.82872635126113892 0.45445621013641357 0.58342045545578003
0.14224609732627869 0.46358370780944824 0.53256464004516602
0.16877561807632446 0.47966805100440979 0.54157739877700806
0.19874081015586853 0.50096148252487183 0.55404466390609741
0.72564280033111572 0.7307736873626709 0.69414025545120239
0.88160127401351929 0.61506420373916626 0.60787403583526611
0.22619947791099548 0.63758951425552368 0.61771070957183838
0.24250493943691254 0.64672553539276123 0.61287659406661987
0.24731026589870453 0.6526024341583252 0.57617980241775513
0.31524068117141724 0.66709375381469727 0.44599202275276184
0.89767229557037354 0.79465055465698242 0.39286810159683228
0.10399536788463593 0.3648144006729126 0.53857076168060303
0.12546209990978241 0.37779080867767334 0.55339962244033813
0.16741013526916504 0.38801965117454529 0.56059348583221436
0.5987972617149353 0.45835223793983459 0.74840885400772095
0.78230386972427368 0.42060279846191406 0.72361356019973755
0.11600098013877869 0.40020081400871277 0.57268136739730835
0.13300012052059174 0.40460389852523804 0.57518744468688965
0.16621042788028717 0.40618813037872314 0.5715600848197937
0.60266196727752686 0.50235027074813843 0.75935441255569458
0.82641726732254028 0.47433355450630188 0.7551271915435791
0.128641277551651 0.42599070072174072 0.58788752555847168
0.14176481962203979 0.42791599035263062 0.59098827838897705
0.1663224995136261 0.42761889100074768 0.59127271175384521
0.59990739822387695 0.54627692699432373 0.78199505805969238
0.83639359474182129 0.52850723266601562 0.78465282917022705
0.16309808194637299 0.50300067663192749 0.62826550006866455
0.18230845034122467 0.50777578353881836 0.6325991153717041
0.19781874120235443 0.50613415241241455 0.63707131147384644
0.43257087469100952 0.5687296986579895 0.73630416393280029
0.85642701387405396 0.59290826320648193 0.79912441968917847
0.21610382199287415 0.59039151668548584 0.66743165254592896
0.2359020859003067 0.60709446668624878 0.68431001901626587
0.26786085963249207 0.6325911283493042 0.70182013511657715
0.31051772832870483 0.66080009937286377 0.7248348593711853
0.91893351078033447 0.91896611452102661 0.90307706594467163
