assets/lut/abigailgonzalez filmic.cube
# Created by: G'MIC (https://gmic.eu)
TITLE "filmic"
# LUT size
LUT_3D_SIZE 13
# Data domain
DOMAIN_MIN 0.0 0.0 0.0
DOMAIN_MAX 1.0 1.0 1.0
# LUT data points
0.024315644055604935 0.045693207532167435 0.062518894672393799
0.063733763992786407 0.05041402205824852 0.062545537948608398
0.13136909902095795 0.057662859559059143 0.056798554956912994
0.23950588703155518 0.054369967430830002 0.042336065322160721
0.37220278382301331 0.043403744697570801 0.02677224762737751
0.50313293933868408 0.030435224995017052 0.020218553021550179
0.60882782936096191 0.019282381981611252 0.02232939749956131
0.67345207929611206 0.010065804235637188 0.019657718017697334
0.70511859655380249 0.0055321934632956982 0.012424394488334656
0.71921831369400024 0.0036747651174664497 0.0057254265993833542
0.72668975591659546 0.0018344206036999822 0.0021830988116562366
0.73370534181594849 7.7371034421958029e-05 0.0010225034784525633
0.74158936738967896 0 0.0011907540028914809
0.018877411261200905 0.064489953219890594 0.062622547149658203
0.051811862736940384 0.068754784762859344 0.060872334986925125
0.11963246762752533 0.075105898082256317 0.052867665886878967
0.22925512492656708 0.076059006154537201 0.037737738341093063
0.36700618267059326 0.06953023374080658 0.022232415154576302
0.50455683469772339 0.055771667510271072 0.016040531918406487
0.61367392539978027 0.038289327174425125 0.018275212496519089
0.68190097808837891 0.023251073434948921 0.019487194716930389
0.71691316366195679 0.01693643257021904 0.016407506540417671
0.73281735181808472 0.015360021032392979 0.013949824497103691
0.74011474847793579 0.012243921868503094 0.01172688789665699
0.74532461166381836 0.010348435491323471 0.0051938975229859352
0.75170332193374634 0.011200789362192154 0.0008684794302098453
0.011538038030266762 0.09742138534784317 0.064628362655639648
0.035377606749534607 0.10098744183778763 0.061011549085378647
0.098682910203933716 0.10729233920574188 0.051670074462890625
0.21094761788845062 0.11464668810367584 0.034906737506389618
0.35977017879486084 0.11771514266729355 0.018359988927841187
0.5099186897277832 0.10880181938409805 0.012429121881723404
0.62662363052368164 0.090330280363559723 0.015234090387821198
0.69838839769363403 0.070711113512516022 0.018707066774368286
0.73614341020584106 0.063781574368476868 0.017837779596447945
0.75307750701904297 0.06144816055893898 0.01914672926068306
0.76026666164398193 0.056271109730005264 0.021632969379425049
0.763294517993927 0.053546890616416931 0.014588434249162674
0.76704853773117065 0.055866003036499023 0.0056102825328707695
0.0044032377190887928 0.14934062957763672 0.066753581166267395
0.014338728971779346 0.15012951195240021 0.062685392796993256
0.064021974802017212 0.15674988925457001 0.053194548934698105
0.17852684855461121 0.17065998911857605 0.033886075019836426
0.34845417737960815 0.18614368140697479 0.015192024409770966
0.52076762914657593 0.19053186476230621 0.0087028350681066513
0.65198183059692383 0.18167652189731598 0.011757854372262955
0.73020660877227783 0.16662716865539551 0.014252562075853348
0.77023541927337646 0.15875166654586792 0.013727255165576935
0.78625375032424927 0.15669666230678558 0.014714259654283524
0.79307383298873901 0.14932182431221008 0.018441742286086082
0.79509007930755615 0.13930276036262512 0.018156329169869423
0.79590463638305664 0.13519853353500366 0.012992933392524719
0.0005250818794593215 0.21886970102787018 0.060639325529336929
0.00042275822488591075 0.21874625980854034 0.056907191872596741
0.023574709892272949 0.22700297832489014 0.048143737018108368
0.13074743747711182 0.2481122612953186 0.029896888881921768
0.31737208366394043 0.27663585543632507 0.012767836451530457
0.52269083261489868 0.2967924177646637 0.0083614271134138107
0.67879468202590942 0.30040368437767029 0.011306688189506531
0.7709464430809021 0.29342725872993469 0.012518804520368576
0.81805157661437988 0.28975012898445129 0.011091060005128384
0.83725792169570923 0.28804114460945129 0.011511978693306446
0.84575533866882324 0.27939328551292419 0.015170617029070854
0.84806942939758301 0.26508837938308716 0.016631361097097397
0.84678506851196289 0.25482174754142761 0.015756659209728241
0 0.29766508936882019 0.042942285537719727
0 0.29875349998474121 0.039823912084102631
0.0019725724123418331 0.31029245257377625 0.033258266746997833
0.067796207964420319 0.33937177062034607 0.021860534325242043
0.25011271238327026 0.38196337223052979 0.012488825246691704
0.49728173017501831 0.42198807001113892 0.010530045256018639
0.695564866065979 0.4393555223941803 0.011813713237643242
0.81262069940567017 0.43960025906562805 0.013430172577500343
0.87167400121688843 0.43790656328201294 0.013386715203523636
0.89702987670898438 0.43498829007148743 0.01434905081987381
0.9087984561920166 0.42679908871650696 0.015686275437474251
0.91363525390625 0.41336071491241455 0.016110438853502274
0.91055500507354736 0.40082630515098572 0.017217747867107391
0 0.3730282187461853 0.02352561242878437
0 0.37365943193435669 0.021455248817801476
0 0.38660320639610291 0.018402248620986938
0.020977199077606201 0.41992431879043579 0.014145989902317524
0.17672465741634369 0.47344309091567993 0.012456602416932583
0.4375586211681366 0.53318208456039429 0.012353216297924519
0.6855931282043457 0.57434332370758057 0.011681321077048779
0.8409421443939209 0.58688569068908691 0.013672832399606705
0.91456657648086548 0.5847969651222229 0.016946636140346527
0.94592469930648804 0.58080762624740601 0.016519762575626373
0.96084266901016235 0.57359182834625244 0.015686275437474251
0.96777069568634033 0.56260424852371216 0.016874529421329498
0.96407192945480347 0.54916012287139893 0.01951955072581768
0.00019369686197023839 0.43030953407287598 0.011125692166388035
0 0.42977684736251831 0.010261446237564087
0 0.44151431322097778 0.0097813624888658524
0.0036929561756551266 0.4740239679813385 0.01048723142594099
0.1119655966758728 0.53149950504302979 0.013211912475526333
0.35628518462181091 0.60455864667892456 0.015436628833413124
0.6343875527381897 0.66949701309204102 0.013991411775350571
0.83569997549057007 0.70248174667358398 0.015980096533894539
0.93709355592727661 0.70963108539581299 0.020391726866364479
0.9768826961517334 0.7074202299118042 0.019244983792304993
0.99130433797836304 0.70131456851959229 0.016639081761240959
0.99563992023468018 0.69316881895065308 0.018702547997236252
0.99291503429412842 0.68167626857757568 0.020499898120760918
0.0048842933028936386 0.46335753798484802 0.0078524723649024963
4.1557759686838835e-05 0.46343114972114563 0.008615126833319664
0 0.47412097454071045 0.0093721579760313034
1.4002182979311328e-05 0.50353312492370605 0.010378265753388405
0.053110502660274506 0.55770194530487061 0.013988166116178036
0.27076318860054016 0.63793116807937622 0.017246156930923462
0.56409740447998047 0.72128033638000488 0.016717888414859772
0.8067585825920105 0.77704519033432007 0.017471492290496826
0.94093400239944458 0.79816305637359619 0.021652864292263985
0.9913029670715332 0.79909080266952515 0.022619688883423805
0.99987208843231201 0.79332172870635986 0.020580261945724487
1 0.78767246007919312 0.019624298438429832
0.99993932247161865 0.77930283546447754 0.019482212141156197
0.019291521981358528 0.48339459300041199 0.0098496228456497192
0.0069232718087732792 0.48407855629920959 0.014298008754849434
5.0967348215635866e-05 0.49456700682640076 0.015410030260682106
0 0.52107304334640503 0.015097703784704208
0.021724430844187737 0.569682776927948 0.017165180295705795
0.19615888595581055 0.64742761850357056 0.02022126130759716
0.48348435759544373 0.73866313695907593 0.020418070256710052
0.75755715370178223 0.8112410306930542 0.020053893327713013
0.92400896549224854 0.84668314456939697 0.023641727864742279
0.98896628618240356 0.85291630029678345 0.026197440922260284
0.99970090389251709 0.84728920459747314 0.024081330746412277
0.99987709522247314 0.8421332836151123 0.020598946139216423
1 0.83626484870910645 0.017653955146670341
0.027170592918992043 0.5005754828453064 0.01593545638024807
0.019200090318918228 0.50215071439743042 0.020224118605256081
0.0029307946097105742 0.51323133707046509 0.021659776568412781
2.3157455871114507e-05 0.53749769926071167 0.020984949544072151
0.013280636630952358 0.58055788278579712 0.02184041403234005
0.14421668648719788 0.64863365888595581 0.023254424333572388
0.41071519255638123 0.73771965503692627 0.022519893944263458
0.70314168930053711 0.81897056102752686 0.021782085299491882
0.89266294240951538 0.86533874273300171 0.024632951244711876
0.97676193714141846 0.87935590744018555 0.028014358133077621
0.99799960851669312 0.87704074382781982 0.026326287537813187
0.99968045949935913 0.87315642833709717 0.022120367735624313
1 0.86927366256713867 0.017951920628547668
0.024463430047035217 0.51807600259780884 0.021528474986553192
0.017422949895262718 0.51998591423034668 0.023096106946468353
0.005922235082834959 0.5301472544670105 0.023375971242785454
0.0013061822392046452 0.5526123046875 0.023508798331022263
0.0053871902637183666 0.58870631456375122 0.023500749841332436
0.095755651593208313 0.64645111560821533 0.023244490846991539
0.34547290205955505 0.73134291172027588 0.022445499897003174
0.65031945705413818 0.81734484434127808 0.021349739283323288
0.85750609636306763 0.87083226442337036 0.023312557488679886
0.96564894914627075 0.89299511909484863 0.027419595047831535
0.99914109706878662 0.89725995063781738 0.027188004925847054
1 0.8947107195854187 0.023757874965667725
1 0.89201855659484863 0.01979084312915802
0.012804921716451645 0.53516691923141479 0.025672897696495056
0.0061605265364050865 0.53609997034072876 0.022979646921157837
0.0013300428399816155 0.54447907209396362 0.021108590066432953
0.00019028608221560717 0.56368553638458252 0.020439403131604195
0.00011704388452926651 0.59453946352005005 0.019959708675742149
0.052726432681083679 0.64401352405548096 0.019595202058553696
0.2916998565196991 0.72517907619476318 0.020286649465560913
0.60864782333374023 0.81458717584609985 0.021868014708161354
0.83051067590713501 0.87152886390686035 0.023412982001900673
0.952461838722229 0.8987310528755188 0.025853998959064484
0.99701195955276489 0.90910464525222778 0.025463404133915901
1 0.91032880544662476 0.023648610338568687
1 0.90841484069824219 0.021320747211575508
0.021814532577991486 0.048089690506458282 0.092693492770195007
0.059464294463396072 0.051931537687778473 0.091691561043262482
0.13048776984214783 0.054562140256166458 0.088006891310214996
0.24120472371578217 0.047744195908308029 0.07637246698141098
0.37686750292778015 0.034471608698368073 0.059210203588008881
0.50966846942901611 0.021651279181241989 0.049145329743623734
0.61370235681533813 0.014097161591053009 0.048796724528074265
0.67790764570236206 0.011530528776347637 0.045042630285024643
0.70980346202850342 0.011770450510084629 0.039192918688058853
0.7232736349105835 0.014741680584847927 0.03302491083741188
0.73040962219238281 0.013481453992426395 0.02823963575065136
0.73840945959091187 0.0049436232075095177 0.027475694194436073
0.74676275253295898 0.00027087342459708452 0.029033990576863289
0.017295777797698975 0.066402450203895569 0.088920935988426208
0.046835672110319138 0.068759039044380188 0.088256090879440308
0.11549679934978485 0.072984971106052399 0.082721754908561707
0.22773623466491699 0.070793122053146362 0.069327153265476227
0.36911869049072266 0.060916885733604431 0.052250538021326065
0.50902295112609863 0.045203026384115219 0.042635224759578705
0.61852115392684937 0.030901515856385231 0.040815599262714386
0.68556457757949829 0.019989432767033577 0.038508038967847824
0.71947044134140015 0.01674041710793972 0.035303182899951935
0.73450791835784912 0.018634257838129997 0.032879684120416641
0.74171620607376099 0.018382696434855461 0.029011042788624763
0.74790757894515991 0.014911755919456482 0.022558368742465973
0.75498026609420776 0.012720055878162384 0.018217379227280617
0.010356633923947811 0.099866427481174469 0.088671788573265076
0.031277913600206375 0.10239768028259277 0.086115635931491852
0.095363646745681763 0.10713005810976028 0.080027423799037933
0.20927244424819946 0.1135585829615593 0.063576355576515198
0.3593660295009613 0.11494604498147964 0.043439857661724091
0.51211965084075928 0.10262614488601685 0.033499326556921005
0.63022691011428833 0.084745772182941437 0.030993083491921425
0.70045840740203857 0.065658167004585266 0.02872651070356369
0.73620015382766724 0.056727167218923569 0.027414942160248756
0.75251853466033936 0.057339522987604141 0.0288504958152771
0.75975877046585083 0.055921006947755814 0.02896912582218647
0.76321351528167725 0.05236734077334404 0.023220166563987732
0.76733404397964478 0.051751289516687393 0.017922120168805122
0.0035116756334900856 0.15377908945083618 0.090055592358112335
0.012002802453935146 0.1531568169593811 0.086409807205200195
0.063091322779655457 0.15904976427555084 0.078742653131484985
0.17908430099487305 0.17301839590072632 0.058776136487722397
0.34788239002227783 0.18689244985580444 0.035320743918418884
0.52073949575424194 0.18898878991603851 0.022741399705410004
0.65390050411224365 0.17915180325508118 0.019607663154602051
0.73067295551300049 0.15854321420192719 0.016876295208930969
0.76868849992752075 0.14698193967342377 0.015752725303173065
0.78611242771148682 0.14644253253936768 0.019258551299571991
0.79274517297744751 0.14293268322944641 0.022945927456021309
0.79374533891677856 0.13444747030735016 0.02350381575524807
0.79378306865692139 0.12924326956272125 0.023984093219041824
0.00021158854360692203 0.2250954806804657 0.08180178701877594
0.00029596066451631486 0.22309239208698273 0.07856769859790802
0.022373633459210396 0.23007416725158691 0.069982551038265228
0.12940658628940582 0.25007876753807068 0.048795409500598907
0.31503996253013611 0.2757020890712738 0.026516662910580635
0.52022600173950195 0.29430782794952393 0.015717988833785057
0.67854636907577515 0.29572385549545288 0.01154912356287241
0.77118629217147827 0.28457912802696228 0.007978132925927639
0.8179435133934021 0.27812570333480835 0.0075914119370281696
0.83856940269470215 0.27778416872024536 0.012704916298389435
0.84687089920043945 0.2730821967124939 0.01814575120806694
0.84787082672119141 0.2612667977809906 0.020166074857115746
0.84618735313415527 0.25177168846130371 0.021955976262688637
0 0.30450698733329773 0.06021881103515625
0 0.3033599853515625 0.05717608705163002
0.0012263727840036154 0.31296926736831665 0.049247711896896362
0.063139535486698151 0.33935374021530151 0.033235572278499603
0.24655735492706299 0.3782627284526825 0.019662056118249893
0.49092844128608704 0.41428098082542419 0.014357308857142925
0.69160014390945435 0.43113031983375549 0.0071848402731120586
0.81178683042526245 0.43111732602119446 0.0038280561566352844
0.87218976020812988 0.42890200018882751 0.0057645910419523716
0.89878940582275391 0.42798581719398499 0.011524365283548832
0.91105341911315918 0.42330119013786316 0.015569141134619713
0.91449034214019775 0.41216310858726501 0.017187515273690224
0.91247379779815674 0.40069836378097534 0.021299773827195168
0 0.37751471996307373 0.036000031977891922
0 0.37704077363014221 0.033441953361034393
0 0.38803720474243164 0.028093449771404266
0.016785087063908577 0.41940799355506897 0.020138399675488472
0.16647882759571075 0.47030353546142578 0.01656666211783886
0.42360544204711914 0.52803206443786621 0.014118224382400513
0.67614519596099854 0.56790602207183838 0.0057128607295453548
0.83752048015594482 0.58008027076721191 0.0048220613971352577
0.91379636526107788 0.57707750797271729 0.011377850547432899
0.94809591770172119 0.574676513671875 0.013201290741562843
0.96399056911468506 0.57079023122787476 0.012121791020035744
0.97057527303695679 0.56180965900421143 0.01634642668068409
0.96853983402252197 0.54912960529327393 0.02461790107190609
2.6254092517774552e-05 0.43062612414360046 0.020734779536724091
0 0.43074387311935425 0.017170701175928116
0 0.44178220629692078 0.014118105173110962
0.0019953260198235512 0.47388216853141785 0.011642335914075375
0.10022521764039993 0.53167855739593506 0.015239236876368523
0.34229287505149841 0.60651880502700806 0.018335439264774323
0.62845748662948608 0.67103761434555054 0.011708652600646019
0.835776686668396 0.70136582851409912 0.011832098476588726
0.93791013956069946 0.70489299297332764 0.020419057458639145
0.97995907068252563 0.70250827074050903 0.019014425575733185
0.99482423067092896 0.6982085108757019 0.012933200225234032
0.99819290637969971 0.69062185287475586 0.014764164574444294
0.9970782995223999 0.6786302924156189 0.021079912781715393
0.0020903493277728558 0.46315526962280273 0.013791880570352077
8.3773744563586661e-07 0.46374610066413879 0.012146025896072388
0 0.47412437200546265 0.010178779251873493
0 0.50356596708297729 0.0088655361905694008
0.054595515131950378 0.56047630310058594 0.014047899283468723
0.26421123743057251 0.64258795976638794 0.020600173622369766
0.56072252988815308 0.72693723440170288 0.019835902377963066
0.80945402383804321 0.77999639511108398 0.021000072360038757
0.94464755058288574 0.79825824499130249 0.027708075940608978
0.99434608221054077 0.79761600494384766 0.026983628049492836
1 0.79115617275238037 0.019484426826238632
1 0.78430283069610596 0.015280480496585369
1 0.77436435222625732 0.015710044652223587
0.012010238133370876 0.48339459300041199 0.015590428374707699
0.0036918341647833586 0.48478370904922485 0.016521602869033813
0.00022470811381936073 0.49484527111053467 0.015708189457654953
3.1594670872436836e-05 0.51986265182495117 0.013812121003866196
0.025299012660980225 0.56897813081741333 0.01624603196978569
0.18015784025192261 0.64578276872634888 0.023243863135576248
0.46661031246185303 0.73830902576446533 0.025693362578749657
0.75633978843688965 0.81257855892181396 0.027919156476855278
0.92752516269683838 0.84766572713851929 0.034137308597564697
0.99090063571929932 0.85310178995132446 0.035164836794137955
0.99984490871429443 0.84632420539855957 0.028739256784319878
0.99998176097869873 0.84048932790756226 0.020817968994379044
1 0.83381408452987671 0.01583779975771904
0.021812183782458305 0.50226378440856934 0.024342959746718407
0.018673032522201538 0.50368893146514893 0.025924712419509888
0.012688087299466133 0.51302778720855713 0.024901252239942551
0.008335367776453495 0.53595256805419922 0.021746467798948288
0.018611937761306763 0.57619649171829224 0.021499514579772949
0.12074018269777298 0.64106607437133789 0.024423815310001373
0.38373687863349915 0.73136425018310547 0.025554746389389038
0.69586324691772461 0.81729841232299805 0.027037916705012321
0.89214229583740234 0.86574453115463257 0.034789111465215683
0.9753042459487915 0.87920933961868286 0.038711607456207275
0.99658107757568359 0.87650245428085327 0.034799836575984955
0.99929130077362061 0.87246161699295044 0.026961099356412888
1 0.86836516857147217 0.020424531772732735
0.023565659299492836 0.51894968748092651 0.032510735094547272
0.023812552914023399 0.52006667852401733 0.031895775347948074
0.026047725230455399 0.52908599376678467 0.029408833011984825
0.028550541028380394 0.55181729793548584 0.026806177571415901
0.026243951171636581 0.58673834800720215 0.024005725979804993
0.095798194408416748 0.64173972606658936 0.020959008485078812
0.333242267370224 0.72676360607147217 0.021535163745284081
0.63874256610870361 0.81433230638504028 0.024948958307504654
0.85012376308441162 0.86906343698501587 0.031154662370681763
0.95890974998474121 0.89227181673049927 0.035337053239345551
0.99637418985366821 0.8956831693649292 0.033438902348279953
1 0.89367258548736572 0.029637206345796585
1 0.89027398824691772 0.0257236547768116
0.0161870326846838 0.53339594602584839 0.037883460521697998
0.016274590045213699 0.53327906131744385 0.033665526658296585
0.016342850401997566 0.5407559871673584 0.029228359460830688
0.014716519042849541 0.56065481901168823 0.026068534702062607
0.010221698321402073 0.59274411201477051 0.022527283057570457
0.072324015200138092 0.64361345767974854 0.018817288801074028
0.29765200614929199 0.72444087266921997 0.019980771467089653
0.60056048631668091 0.81156265735626221 0.025851575657725334
0.82003629207611084 0.86916911602020264 0.02766786515712738
0.94303631782531738 0.89794868230819702 0.028756998479366302
0.99376136064529419 0.90699797868728638 0.028837017714977264
1 0.90770071744918823 0.029531247913837433
1 0.90553820133209229 0.030065663158893585
0.019758380949497223 0.041868008673191071 0.15093433856964111
0.055583473294973373 0.047586806118488312 0.14939039945602417
0.12689103186130524 0.04824371263384819 0.1492980420589447
0.23932722210884094 0.03956005722284317 0.14390869438648224
0.3789801299571991 0.025326283648610115 0.13229019939899445
0.51549577713012695 0.014205588959157467 0.12238261103630066
0.62030196189880371 0.010736068710684776 0.11731486767530441
0.68484562635421753 0.012313199229538441 0.11066923290491104
0.71801799535751343 0.016437215730547905 0.10545947402715683
0.73309803009033203 0.021371684968471527 0.10114294290542603
0.74124252796173096 0.020958799868822098 0.096077457070350647
0.74870485067367554 0.01247329730540514 0.092956721782684326
0.75617498159408569 0.0029497332870960236 0.092559978365898132
0.013501111418008804 0.06247691810131073 0.14482055604457855
0.039539188146591187 0.067150607705116272 0.14325627684593201
0.10560379177331924 0.070746190845966339 0.14206303656101227
0.21997818350791931 0.064263120293617249 0.1348269134759903
0.36672350764274597 0.048353664577007294 0.12202027440071106
0.51137250661849976 0.03168037161231041 0.11124835908412933
0.62182307243347168 0.02223021537065506 0.10370242595672607
0.68896019458770752 0.015757586807012558 0.097070701420307159
0.72384428977966309 0.015769194811582565 0.092926576733589172
0.7408134937286377 0.02060312032699585 0.090291790664196014
0.74976056814193726 0.021709337830543518 0.084528185427188873
0.75655275583267212 0.017736665904521942 0.075164899230003357
0.76339256763458252 0.013221531175076962 0.06912684440612793
0.0074852141551673412 0.1030435785651207 0.14119081199169159
0.024144042283296585 0.10526929050683975 0.13820680975914001
0.082256823778152466 0.11056859791278839 0.13671977818012238
0.196990966796875 0.11149425059556961 0.12684355676174164
0.35258728265762329 0.10491444915533066 0.11007560044527054
0.50875556468963623 0.090116329491138458 0.095721349120140076
0.62763673067092896 0.072577394545078278 0.085444308817386627
0.69789880514144897 0.053387001156806946 0.076377660036087036
0.73551410436630249 0.047246985137462616 0.072925463318824768
0.75535625219345093 0.052056122571229935 0.074113361537456512
0.76463061571121216 0.05337747186422348 0.070915773510932922
0.76912975311279297 0.048967011272907257 0.062080249190330505
0.77355706691741943 0.046062156558036804 0.055649358779191971
0.0035259171854704618 0.16147328913211823 0.14087232947349548
0.011656458489596844 0.15972335636615753 0.1366191953420639
0.055643733590841293 0.16547974944114685 0.13156609237194061
0.16643089056015015 0.17535150051116943 0.11808528751134872
0.336181640625 0.18378998339176178 0.095962017774581909
0.51176851987838745 0.18185210227966309 0.074346356093883514
0.64610475301742554 0.16642618179321289 0.062080428004264832
0.72384244203567505 0.14233185350894928 0.051503889262676239
0.76499873399734497 0.1319444477558136 0.048486072570085526
0.78656208515167236 0.13556878268718719 0.052668537944555283
0.79524523019790649 0.13513490557670593 0.05289885401725769
0.79673188924789429 0.12713110446929932 0.049394614994525909
0.7978827953338623 0.12141330540180206 0.049445163458585739
0.00079131778329610825 0.23521947860717773 0.13230670988559723
0.0005322475335560739 0.23238049447536469 0.12767110764980316
0.02046152763068676 0.23858384788036346 0.11889026314020157
0.11695787310600281 0.25584259629249573 0.099674239754676819
0.29993906617164612 0.27793484926223755 0.074203774333000183
0.51100057363510132 0.29153093695640564 0.051543619483709335
0.6722111701965332 0.28877493739128113 0.037344988435506821
0.76738524436950684 0.27519813179969788 0.02792702428996563
0.81618481874465942 0.26729819178581238 0.02635638602077961
