assets/lut/abigailgonzalez old west.cube
# Created by: G'MIC (https://gmic.eu)
TITLE "old_west"
# LUT size
LUT_3D_SIZE 13
# Data domain
DOMAIN_MIN 0.0 0.0 0.0
DOMAIN_MAX 1.0 1.0 1.0
# LUT data points
0.031374268233776093 0.068164065480232239 0.069671630859375
0.078446373343467712 0.074373193085193634 0.07575652003288269
0.14169353246688843 0.089534491300582886 0.08406105637550354
0.21002122759819031 0.1067216619849205 0.079272054135799408
0.28916719555854797 0.12357880920171738 0.054945942014455795
0.36970764398574829 0.14203998446464539 0.045204192399978638
0.44981342554092407 0.16187287867069244 0.063876613974571228
0.53248447179794312 0.18015491962432861 0.10439500957727432
0.61396127939224243 0.19887030124664307 0.14995108544826508
0.69126474857330322 0.21829888224601746 0.18393853306770325
0.76502281427383423 0.23744651675224304 0.20388627052307129
0.83178144693374634 0.25581160187721252 0.2150849848985672
0.8900337815284729 0.27376553416252136 0.22235693037509918
0.038726717233657837 0.10717692971229553 0.070013351738452911
0.088007278740406036 0.10611476749181747 0.070974089205265045
0.15752044320106506 0.11249739676713943 0.075077235698699951
0.23062039911746979 0.12580206990242004 0.068520158529281616
0.30809423327445984 0.14097829163074493 0.05112476646900177
0.38771665096282959 0.15842644870281219 0.04559122771024704
0.46763399243354797 0.17776110768318176 0.062154583632946014
0.55032801628112793 0.19706356525421143 0.098304599523544312
0.63201612234115601 0.21748098731040955 0.14253899455070496
0.70987915992736816 0.23906989395618439 0.17841722071170807
0.78453445434570312 0.2606845498085022 0.19972854852676392
0.85052144527435303 0.28110671043395996 0.21080330014228821
0.90591621398925781 0.30016469955444336 0.21676972508430481
0.051592390984296799 0.16088700294494629 0.060067061334848404
0.10213334113359451 0.1587839275598526 0.059153910726308823
0.18590717017650604 0.1522844135761261 0.052783366292715073
0.26724693179130554 0.15560872852802277 0.041082493960857391
0.33987060189247131 0.16831611096858978 0.037329461425542831
0.41445174813270569 0.18703010678291321 0.041665021330118179
0.49569714069366455 0.20516814291477203 0.057618159800767899
0.57822853326797485 0.22329260408878326 0.08560306578874588
0.65782004594802856 0.24349404871463776 0.12623982131481171
0.73454028367996216 0.26632151007652283 0.16519184410572052
0.80749928951263428 0.28972944617271423 0.18871699273586273
0.87142312526702881 0.31211960315704346 0.19956271350383759
0.92341256141662598 0.33278092741966248 0.20380482077598572
0.069652915000915527 0.21556399762630463 0.053167320787906647
0.11579567193984985 0.22030654549598694 0.055463530123233795
0.20289762318134308 0.21193030476570129 0.053306054323911667
0.29981905221939087 0.20359082520008087 0.033299867063760757
0.38309785723686218 0.20632103085517883 0.027388839051127434
0.46069535613059998 0.22120563685894012 0.038528997451066971
0.54382222890853882 0.23880770802497864 0.05860595777630806
0.62440627813339233 0.25694060325622559 0.085545197129249573
0.69854229688644409 0.27711972594261169 0.12266276031732559
0.76875460147857666 0.29959598183631897 0.1579178124666214
0.83528918027877808 0.32288160920143127 0.17826581001281738
0.89412522315979004 0.3463255763053894 0.18499220907688141
0.94118654727935791 0.36938872933387756 0.18589484691619873
0.085522957146167755 0.26527374982833862 0.051014035940170288
0.13307668268680573 0.27760586142539978 0.049886323511600494
0.21831426024436951 0.27624174952507019 0.052442245185375214
0.32807359099388123 0.26580384373664856 0.031606622040271759
0.43141648173332214 0.25739285349845886 0.021828370168805122
0.5231812596321106 0.26022753119468689 0.04100475087761879
0.60951894521713257 0.27534753084182739 0.071368306875228882
0.68676191568374634 0.29660853743553162 0.10550755262374878
0.75259745121002197 0.3171846866607666 0.13532933592796326
0.81397980451583862 0.33815211057662964 0.1565721184015274
0.87084096670150757 0.35897782444953918 0.16644647717475891
0.91938424110412598 0.38033404946327209 0.16772070527076721
0.95713788270950317 0.40343391895294189 0.16598351299762726
0.10252431035041809 0.31292217969894409 0.045027907937765121
0.15537412464618683 0.32959282398223877 0.037939287722110748
0.24299997091293335 0.33613860607147217 0.040459532290697098
0.35683023929595947 0.33574554324150085 0.028582539409399033
0.47373926639556885 0.33234924077987671 0.016867812722921371
0.57941174507141113 0.32212194800376892 0.041553959250450134
0.67125153541564941 0.32331886887550354 0.078560024499893188
0.74569648504257202 0.34105098247528076 0.1141498014330864
0.80644834041595459 0.36229684948921204 0.1349397748708725
0.86318749189376831 0.38124030828475952 0.14319820702075958
0.90977448225021362 0.39947509765625 0.14438314735889435
0.94295358657836914 0.41681936383247375 0.14475013315677643
0.96709144115447998 0.4373096227645874 0.14417368173599243
0.12055809050798416 0.36341679096221924 0.030828319489955902
0.17984510958194733 0.38134273886680603 0.024552229791879654
0.26995670795440674 0.39163464307785034 0.034775812178850174
0.3834221363067627 0.39886453747749329 0.039432153105735779
0.50387787818908691 0.41049486398696899 0.027581173926591873
0.61679977178573608 0.40766546130180359 0.039650112390518188
0.71534860134124756 0.3923894464969635 0.069653637707233429
0.7918471097946167 0.39530846476554871 0.097092345356941223
0.85422402620315552 0.41040542721748352 0.11291743069887161
0.90755850076675415 0.42660456895828247 0.11778166890144348
0.94227266311645508 0.44429561495780945 0.11798719316720963
0.95886152982711792 0.45976060628890991 0.11943040788173676
0.97001188993453979 0.47819513082504272 0.12014254182577133
0.13782498240470886 0.4172745943069458 0.013885902240872383
0.20204047858715057 0.43471577763557434 0.010583406314253807
0.29462280869483948 0.44357004761695862 0.03124319389462471
0.40686196088790894 0.45287913084030151 0.051601588726043701
0.52515226602554321 0.47592777013778687 0.046598456799983978
0.63884317874908447 0.49557286500930786 0.043541163206100464
0.74017173051834106 0.49047702550888062 0.056075602769851685
0.82719838619232178 0.47472965717315674 0.074314653873443604
0.89484989643096924 0.46757832169532776 0.089568719267845154
0.93945449590682983 0.4738006591796875 0.096902407705783844
0.96031737327575684 0.48923501372337341 0.099883943796157837
0.96599644422531128 0.50565159320831299 0.10218343138694763
0.97043484449386597 0.52269858121871948 0.1039760634303093
0.15621587634086609 0.46769145131111145 0.0058514014817774296
0.22392591834068298 0.48248589038848877 0.0059097739867866039
0.3173273503780365 0.49070292711257935 0.031776998192071915
0.42696961760520935 0.50216543674468994 0.058310922235250473
0.54149782657623291 0.5304485559463501 0.056805584579706192
0.65420347452163696 0.56161963939666748 0.044643133878707886
0.75172501802444458 0.58557623624801636 0.043630771338939667
0.84081923961639404 0.57993727922439575 0.055432308465242386
0.91462671756744385 0.55517131090164185 0.070182487368583679
0.9551735520362854 0.54197198152542114 0.081187106668949127
0.96765732765197754 0.54387599229812622 0.08903948962688446
0.96916520595550537 0.55447876453399658 0.094794765114784241
0.97355782985687256 0.56805092096328735 0.09871942549943924
0.17627289891242981 0.5109856128692627 0.011001108214259148
0.24713508784770966 0.52480518817901611 0.013641088269650936
0.34017044305801392 0.53681153059005737 0.037406306713819504
0.44673094153404236 0.55160939693450928 0.060705401003360748
0.55632656812667847 0.58341234922409058 0.057750940322875977
0.66421985626220703 0.61941945552825928 0.045074194669723511
0.76039141416549683 0.6568487286567688 0.040082219988107681
0.84690392017364502 0.67566752433776855 0.044847108423709869
0.91928905248641968 0.6665080189704895 0.053115140646696091
0.95975559949874878 0.64069533348083496 0.063888922333717346
0.97169148921966553 0.61828821897506714 0.075007513165473938
0.97439324855804443 0.61230969429016113 0.084919139742851257
0.98015362024307251 0.61763805150985718 0.092979103326797485
0.20226968824863434 0.58219069242477417 0.0087333228439092636
0.27196586132049561 0.59863829612731934 0.013035852462053299
0.36158141493797302 0.61052632331848145 0.031220335513353348
0.46560928225517273 0.6267966628074646 0.046502251178026199
0.57196992635726929 0.66001689434051514 0.043570276349782944
0.67530417442321777 0.6946638822555542 0.040280584245920181
0.76982200145721436 0.72396916151046753 0.040944371372461319
0.8538825511932373 0.74876391887664795 0.042040087282657623
0.92197972536087036 0.76366645097732544 0.042836163192987442
0.9609641432762146 0.75025463104248047 0.048756811767816544
0.97631257772445679 0.71915680170059204 0.057755578309297562
0.98288482427597046 0.69458353519439697 0.06878364086151123
0.98987704515457153 0.68472588062286377 0.081434853374958038
0.2405647337436676 0.69047224521636963 0.00015204933879431337
0.30192708969116211 0.7038034200668335 0.002868846757337451
0.38340836763381958 0.71806764602661133 0.012339154258370399
0.48139545321464539 0.73970460891723633 0.018562227487564087
0.58705347776412964 0.76457524299621582 0.02719859778881073
0.68965232372283936 0.78908240795135498 0.037350717931985855
0.78228467702865601 0.8037911057472229 0.04260547086596489
0.86285984516143799 0.81572645902633667 0.043265879154205322
0.92552810907363892 0.83058267831802368 0.041952889412641525
0.96253591775894165 0.8414386510848999 0.041771773248910904
0.98032283782958984 0.83162021636962891 0.044745620340108871
0.99132716655731201 0.79967761039733887 0.052304510027170181
0.99867045879364014 0.77783900499343872 0.064286626875400543
0.28829649090766907 0.80832439661026001 0
0.34316998720169067 0.81893491744995117 0.00010304170427843928
0.41539579629898071 0.83456075191497803 0.0036063848529011011
0.50561189651489258 0.8525158166885376 0.013498642481863499
0.6069648265838623 0.86491066217422485 0.030552433803677559
0.70565205812454224 0.87754881381988525 0.043061245232820511
0.79534393548965454 0.88278365135192871 0.046259623020887375
0.87225353717803955 0.88218611478805542 0.04588935524225235
0.93178963661193848 0.88660198450088501 0.043598923832178116
0.96825653314590454 0.90505200624465942 0.040044266730546951
0.98802000284194946 0.91296678781509399 0.037831790745258331
0.99873113632202148 0.89699423313140869 0.040209271013736725
1 0.87888699769973755 0.048985470086336136
0.015274212695658207 0.077878408133983612 0.10245705395936966
0.07451234757900238 0.080559566617012024 0.10448409616947174
0.14985905587673187 0.093355171382427216 0.11121480911970139
0.2180182933807373 0.10924066603183746 0.11120880395174026
0.29273399710655212 0.12239515781402588 0.091670498251914978
0.37039196491241455 0.13866175711154938 0.075334377586841583
0.45025116205215454 0.15517519414424896 0.087934277951717377
0.53108447790145874 0.17412543296813965 0.12114368379116058
0.61052745580673218 0.19542869925498962 0.16243262588977814
0.68792301416397095 0.2153436690568924 0.19761216640472412
0.76292133331298828 0.23403234779834747 0.21667152643203735
0.83131164312362671 0.25084802508354187 0.22804842889308929
0.89095056056976318 0.26794809103012085 0.23649142682552338
0.016190892085433006 0.10621297359466553 0.10561879724264145
0.065175779163837433 0.10979397594928741 0.10383368283510208
0.14329321682453156 0.11914524435997009 0.11116566509008408
0.22299686074256897 0.13247829675674438 0.10956862568855286
0.30191195011138916 0.1451537162065506 0.087510094046592712
0.38307040929794312 0.15773652493953705 0.072270065546035767
0.46418225765228271 0.17163421213626862 0.08304094523191452
0.54443836212158203 0.18939469754695892 0.11424164474010468
0.62391364574432373 0.21128466725349426 0.15517760813236237
0.70130926370620728 0.23310966789722443 0.19160966575145721
0.7772061824798584 0.25393101572990417 0.21206456422805786
0.84531897306442261 0.27256032824516296 0.22433829307556152
0.90320539474487305 0.29093369841575623 0.23270642757415771
0.028678415343165398 0.15725088119506836 0.096101351082324982
0.075151123106479645 0.15816040337085724 0.096852123737335205
0.16089150309562683 0.15739555656909943 0.098432697355747223
0.24917899072170258 0.16263402998447418 0.090031631290912628
0.3267572820186615 0.17335636913776398 0.073713488876819611
0.40812766551971436 0.1863568127155304 0.062567420303821564
0.49008470773696899 0.20008882880210876 0.071706987917423248
0.5696641206741333 0.21626372635364532 0.098264046013355255
0.64700412750244141 0.23667328059673309 0.13763026893138885
0.72292864322662354 0.25948816537857056 0.17557238042354584
0.79728806018829346 0.28194579482078552 0.19951990246772766
0.86464494466781616 0.30336102843284607 0.21210141479969025
0.9205743670463562 0.32403266429901123 0.21864935755729675
0.054132632911205292 0.2099999338388443 0.085076846182346344
0.093633852899074554 0.21723902225494385 0.085192345082759857
0.18066291511058807 0.21558675169944763 0.087014786899089813
0.28726428747177124 0.20911489427089691 0.066908739507198334
0.37377676367759705 0.21060988306999207 0.051979392766952515
0.45416745543479919 0.22059443593025208 0.050347018986940384
0.53543603420257568 0.23687076568603516 0.062549427151679993
0.61269551515579224 0.25431519746780396 0.089027136564254761
0.68515819311141968 0.27273720502853394 0.12804526090621948
0.75531858205795288 0.29462906718254089 0.16362635791301727
0.82506334781646729 0.31745231151580811 0.18505410850048065
0.88897556066513062 0.34103542566299438 0.19463323056697845
0.9403260350227356 0.36495873332023621 0.19789537787437439
0.072208195924758911 0.26306638121604919 0.074074685573577881
0.11079137772321701 0.27817422151565552 0.060566995292901993
0.19746525585651398 0.28062433004379272 0.063246965408325195
0.31776490807533264 0.2708771824836731 0.045017153024673462
0.42366430163383484 0.26290732622146606 0.029555182904005051
0.51486605405807495 0.26166620850563049 0.043542150408029556
0.5989530086517334 0.27751407027244568 0.066474854946136475
0.67253023386001587 0.29779309034347534 0.097868628799915314
0.73821926116943359 0.31630441546440125 0.13276655972003937
0.80215418338775635 0.3365841805934906 0.15630283951759338
0.86354893445968628 0.35792696475982666 0.1682228296995163
0.91646426916122437 0.37971463799476624 0.17457467317581177
0.95797646045684814 0.40377146005630493 0.17684903740882874
0.086684480309486389 0.31063830852508545 0.066690452396869659
0.13180844485759735 0.32956188917160034 0.048330120742321014
0.22091233730316162 0.33935144543647766 0.053646519780158997
0.3427063524723053 0.33657866716384888 0.050419721752405167
0.46307671070098877 0.33410775661468506 0.02889404259622097
0.5718877911567688 0.32370832562446594 0.045792523771524429
0.66306960582733154 0.3253631591796875 0.077726744115352631
0.73326247930526733 0.34275490045547485 0.1066298708319664
0.79383748769760132 0.36395630240440369 0.12868224084377289
0.85386937856674194 0.38372623920440674 0.1371169239282608
0.9047045111656189 0.40211421251296997 0.14135174453258514
0.94175279140472412 0.41924995183944702 0.14935563504695892
0.96855282783508301 0.43992376327514648 0.15421530604362488
0.1046941876411438 0.35652759671211243 0.05496278777718544
0.15725575387477875 0.37889483571052551 0.037304583936929703
0.24872128665447235 0.39411664009094238 0.050169538706541061
0.36778181791305542 0.39678704738616943 0.071083933115005493
0.49229982495307922 0.41024282574653625 0.050642695277929306
0.60958003997802734 0.41322031617164612 0.047874510288238525
0.71020793914794922 0.39899030327796936 0.075229570269584656
0.78556239604949951 0.39837956428527832 0.098105363547801971
0.84503477811813354 0.41287717223167419 0.10978547483682632
0.89939439296722412 0.42988359928131104 0.11171869188547134
0.93744850158691406 0.44744250178337097 0.11416591703891754
0.95853573083877563 0.46407344937324524 0.12126140296459198
0.97287482023239136 0.48275414109230042 0.12801675498485565
0.12069991230964661 0.41179534792900085 0.037904657423496246
0.18033373355865479 0.43384408950805664 0.022302201017737389
0.27563324570655823 0.44506704807281494 0.045523997396230698
0.39275521039962769 0.45183035731315613 0.078090697526931763
0.51553738117218018 0.47720524668693542 0.067738339304924011
0.63231402635574341 0.50174039602279663 0.051474761217832565
0.73472732305526733 0.49768364429473877 0.061991013586521149
0.82304388284683228 0.47746333479881287 0.080314993858337402
0.8881797194480896 0.47048300504684448 0.092954911291599274
0.93340891599655151 0.47655108571052551 0.097596518695354462
0.95778799057006836 0.49163347482681274 0.0990409255027771
0.96708464622497559 0.51031047105789185 0.10183181613683701
0.97311931848526001 0.52815252542495728 0.10759604722261429
0.13836152851581573 0.46807143092155457 0.028499498963356018
0.2033296674489975 0.48230138421058655 0.019841019064188004
0.30080679059028625 0.48902395367622375 0.048581786453723907
0.41440793871879578 0.50064194202423096 0.080141626298427582
0.53274393081665039 0.53048068284988403 0.074827350676059723
0.64843600988388062 0.56410300731658936 0.053646281361579895
0.74586641788482666 0.58846533298492432 0.050779037177562714
0.83591979742050171 0.58247953653335571 0.062793239951133728
0.90881693363189697 0.55829650163650513 0.077695183455944061
0.95174151659011841 0.54199278354644775 0.08734111487865448
0.96790379285812378 0.54451602697372437 0.090857550501823425
0.97123992443084717 0.55817437171936035 0.093752570450305939
0.97464686632156372 0.57363122701644897 0.099861577153205872
0.16104550659656525 0.51435971260070801 0.03191731870174408
0.22940751910209656 0.52231293916702271 0.029785649850964546
0.32487595081329346 0.5319979190826416 0.054381038993597031
0.43469071388244629 0.54746925830841064 0.077801816165447235
0.54714924097061157 0.5807870626449585 0.072365269064903259
0.65935128927230835 0.61672317981719971 0.056263748556375504
0.75838303565979004 0.65636461973190308 0.048356462270021439
0.8441540002822876 0.67814403772354126 0.052867516875267029
0.91482055187225342 0.66504865884780884 0.063204914331436157
0.95704048871994019 0.63679391145706177 0.07394690066576004
0.97262740135192871 0.61870551109313965 0.081108197569847107
0.97618824243545532 0.61458051204681396 0.087449245154857635
0.97993403673171997 0.62091457843780518 0.097673512995243073
0.18793168663978577 0.58420789241790771 0.025475520640611649
0.25478562712669373 0.59241127967834473 0.02735157310962677
0.34623724222183228 0.60217517614364624 0.04570934921503067
0.45297816395759583 0.62011480331420898 0.055831130594015121
0.56324946880340576 0.65495669841766357 0.046306788921356201
0.67129796743392944 0.69021940231323242 0.046473171561956406
0.77015084028244019 0.72441911697387695 0.04841676726937294
0.85365533828735352 0.75263470411300659 0.050550498068332672
0.91848170757293701 0.76055866479873657 0.0548580102622509
0.95809876918792725 0.74504804611206055 0.061462849378585815
0.97522050142288208 0.7186816930770874 0.068158350884914398
0.98287534713745117 0.69393175840377808 0.075475789606571198
0.98881798982620239 0.68528282642364502 0.089785017073154449
0.22918914258480072 0.69095128774642944 0.0058469437062740326
0.28532162308692932 0.69507700204849243 0.014125091023743153
0.36734142899513245 0.70717847347259521 0.027831867337226868
0.46885278820991516 0.72873252630233765 0.031329523772001266
0.57856947183609009 0.75598859786987305 0.029747294262051582
0.68504977226257324 0.78404474258422852 0.041945260018110275
0.78136032819747925 0.80556517839431763 0.05011233314871788
0.86271929740905762 0.820881187915802 0.052323136478662491
0.92423826456069946 0.83251535892486572 0.052671186625957489
0.9612622857093811 0.83927923440933228 0.054088547825813293
0.97888553142547607 0.82922917604446411 0.055654533207416534
0.98992919921875 0.79581385850906372 0.058828778564929962
0.99792349338531494 0.77560746669769287 0.071827232837677002
0.28312060236930847 0.81241118907928467 0
0.3316400945186615 0.81616663932800293 0.0034260470420122147
0.40080991387367249 0.82914024591445923 0.019832789897918701
0.49228003621101379 0.84488451480865479 0.034304838627576828
0.59813320636749268 0.85555446147918701 0.045506078749895096
0.70092755556106567 0.87207204103469849 0.05345376580953598
0.79317456483840942 0.88404959440231323 0.055934682488441467
0.87193244695663452 0.8871644139289856 0.055681835860013962
0.93168050050735474 0.89181828498840332 0.053972698748111725
0.96812444925308228 0.90590363740921021 0.051281318068504333
0.98641282320022583 0.91427195072174072 0.048235844820737839
0.99746745824813843 0.89803510904312134 0.04664338007569313
1 0.88045376539230347 0.055505402386188507
0.0050945505499839783 0.092655614018440247 0.13770811259746552
0.053377486765384674 0.094896383583545685 0.14170944690704346
0.15233437716960907 0.10194458067417145 0.14628933370113373
0.24305081367492676 0.11821944266557693 0.14586769044399261
0.31860440969467163 0.12968212366104126 0.13294187188148499
0.39187157154083252 0.14206480979919434 0.11716841161251068
0.47022703289985657 0.15745577216148376 0.1230408176779747
0.54687494039535522 0.17735694348812103 0.1470903754234314
0.62226039171218872 0.20031885802745819 0.17842705547809601
0.69733345508575439 0.21970854699611664 0.20766085386276245
0.77039891481399536 0.23589144647121429 0.22506599128246307
0.83738452196121216 0.25004401803016663 0.23742461204528809
0.89655393362045288 0.2650512158870697 0.24852234125137329
0.0031999177299439907 0.11209900677204132 0.14149269461631775
0.044880721718072891 0.11722839623689651 0.14324162900447845
0.13881374895572662 0.12502586841583252 0.15179312229156494
0.23293913900852203 0.14022523164749146 0.15288713574409485
0.31650403141975403 0.15286025404930115 0.13583636283874512
0.39878261089324951 0.16207441687583923 0.11736999452114105
0.47861084342002869 0.17198295891284943 0.12216107547283173
0.55531734228134155 0.18932619690895081 0.14573118090629578
0.63040900230407715 0.2123764306306839 0.17741462588310242
0.70567566156387329 0.23333039879798889 0.20542033016681671
0.77965700626373291 0.25120866298675537 0.22259566187858582
0.84663385152816772 0.26595571637153625 0.23653624951839447
0.90446680784225464 0.28149124979972839 0.24880507588386536
0.009514274075627327 0.15123137831687927 0.14189121127128601
0.043028738349676132 0.15752905607223511 0.14409966766834259
0.12847144901752472 0.16342395544052124 0.15207374095916748
0.23177424073219299 0.17232425510883331 0.15072228014469147
0.32018712162971497 0.18450058996677399 0.13547191023826599
0.4112529456615448 0.19245107471942902 0.11330313235521317
0.49508008360862732 0.20024178922176361 0.11531122028827667
0.57299447059631348 0.21390259265899658 0.13756097853183746
0.64773368835449219 0.23385846614837646 0.16877612471580505
0.72193974256515503 0.25511786341667175 0.19755809009075165
0.79558944702148438 0.27459686994552612 0.2165440171957016
0.86335450410842896 0.29266732931137085 0.22867763042449951
0.92069917917251587 0.31111642718315125 0.23721235990524292
0.028567669913172722 0.20525640249252319 0.13380877673625946
0.053729966282844543 0.21304129064083099 0.13235947489738464
0.13329744338989258 0.21907880902290344 0.13417033851146698
0.26055550575256348 0.2174675464630127 0.12596037983894348
0.35741204023361206 0.22196784615516663 0.11459389328956604
0.44429033994674683 0.22852405905723572 0.10026835650205612
0.52748245000839233 0.24159598350524902 0.10210797190666199
0.60613125562667847 0.25515648722648621 0.1251644641160965
0.67901945114135742 0.26999172568321228 0.15915636718273163
0.7498663067817688 0.28869277238845825 0.18862858414649963
0.82109630107879639 0.30955275893211365 0.20719227194786072
0.8868592381477356 0.33067190647125244 0.21644628047943115
0.94034808874130249 0.35254639387130737 0.22011958062648773
0.047695562243461609 0.26376745104789734 0.12234903872013092
0.074610196053981781 0.27362406253814697 0.10721176862716675
0.15168195962905884 0.2835727334022522 0.10340940952301025
0.28859585523605347 0.27722641825675964 0.089560143649578094
0.40739494562149048 0.27116554975509644 0.073299303650856018
