assets/lut/abigailgonzalez matrix.cube
# Created by: G'MIC (https://gmic.eu)
TITLE "matrix"
# LUT size
LUT_3D_SIZE 7
# Data domain
DOMAIN_MIN 0.0 0.0 0.0
DOMAIN_MAX 1.0 1.0 1.0
# LUT data points
0.015800610184669495 0.042143609374761581 0.039935346692800522
0.10368076711893082 0.072250440716743469 0.037491008639335632
0.20390339195728302 0.089434906840324402 0.03985634446144104
0.298704594373703 0.095941446721553802 0.043068457394838333
0.39219754934310913 0.089271724224090576 0.055376555770635605
0.48279142379760742 0.075559996068477631 0.071165420114994049
0.55542147159576416 0.061375517398118973 0.084918014705181122
0.0096976039931178093 0.10989414155483246 0.052498344331979752
0.08879406750202179 0.14332839846611023 0.050021138042211533
0.19541087746620178 0.16398192942142487 0.048286870121955872
0.30918979644775391 0.17401553690433502 0.047261767089366913
0.41857323050498962 0.17828176915645599 0.056170985102653503
0.52454429864883423 0.16970135271549225 0.075285546481609344
0.59790199995040894 0.15440253913402557 0.093260534107685089
0.010853561572730541 0.18182840943336487 0.064103372395038605
0.081958368420600891 0.22075378894805908 0.067079029977321625
0.18759174644947052 0.24996498227119446 0.065168507397174835
0.31812751293182373 0.26817867159843445 0.060951277613639832
0.44372200965881348 0.27987766265869141 0.066044449806213379
0.56920927762985229 0.28188908100128174 0.091383196413516998
0.64356023073196411 0.26417142152786255 0.11287735402584076
0.017482219263911247 0.26234003901481628 0.071318231523036957
0.071530349552631378 0.29840439558029175 0.077845059335231781
0.15106883645057678 0.32913666963577271 0.081435665488243103
0.31576728820800781 0.37565982341766357 0.076404139399528503
0.4781247079372406 0.40395596623420715 0.079857878386974335
0.62558126449584961 0.42592921853065491 0.10868903994560242
0.71176958084106445 0.40997123718261719 0.13865530490875244
0.010154514573514462 0.3585716187953949 0.090440578758716583
0.028647210448980331 0.38374358415603638 0.097280196845531464
0.1039542555809021 0.42594480514526367 0.1047336682677269
0.30237102508544922 0.49539652466773987 0.10085531324148178
0.50475001335144043 0.54758667945861816 0.093985326588153839
0.67830747365951538 0.58461213111877441 0.11523976176977158
0.78792238235473633 0.57763791084289551 0.14902856945991516
0.0028449264355003834 0.4829896092414856 0.13770236074924469
0.0016124650137498975 0.50812947750091553 0.14217342436313629
0.062224220484495163 0.55674988031387329 0.15258443355560303
0.28801766037940979 0.64006209373474121 0.15741093456745148
0.53728228807449341 0.71046227216720581 0.14694857597351074
0.72535490989685059 0.74767559766769409 0.15456584095954895
0.84778064489364624 0.74006849527359009 0.18040712177753448
3.0338062060764059e-05 0.5912928581237793 0.17958122491836548
0 0.60066407918930054 0.18011933565139771
0.0010593190090730786 0.62312430143356323 0.1917310506105423
0.1860489547252655 0.7131655216217041 0.21917858719825745
0.49731361865997314 0.82557308673858643 0.24521511793136597
0.74939358234405518 0.89499408006668091 0.2868899405002594
0.89424806833267212 0.89435338973999023 0.33820223808288574
0.0077919755131006241 0.044399663805961609 0.12514306604862213
0.082688786089420319 0.069780312478542328 0.1260174959897995
0.1877019852399826 0.088969163596630096 0.1243726834654808
0.29104131460189819 0.10277177393436432 0.12337484955787659
0.39093488454818726 0.1021663174033165 0.13218891620635986
0.49299091100692749 0.093011848628520966 0.1412833034992218
0.55655956268310547 0.075023874640464783 0.14680519700050354
0.0047373604029417038 0.12277968227863312 0.1448228657245636
0.06977718323469162 0.14872220158576965 0.14622935652732849
0.19971184432506561 0.17654421925544739 0.13671045005321503
0.32752549648284912 0.19161505997180939 0.13032573461532593
0.44770553708076477 0.19508758187294006 0.13465459644794464
0.5564461350440979 0.18718218803405762 0.14497259259223938
0.61305564641952515 0.16868746280670166 0.15392102301120758
0.0042133107781410217 0.20169062912464142 0.15251941978931427
0.062270339578390121 0.23589785397052765 0.16216756403446198
0.18596655130386353 0.26727163791656494 0.15366560220718384
0.33909386396408081 0.28652498126029968 0.14148621261119843
0.48598825931549072 0.29939860105514526 0.1414608359336853
0.6097903847694397 0.30227434635162354 0.15787419676780701
0.67175275087356567 0.28350690007209778 0.17358303070068359
0.0032125734724104404 0.27852806448936462 0.14359858632087708
0.042056575417518616 0.31066000461578369 0.15742252767086029
0.15033148229122162 0.35032349824905396 0.15627862513065338
0.32836431264877319 0.3910268247127533 0.14533236622810364
0.50670117139816284 0.42438891530036926 0.14166858792304993
0.65724599361419678 0.44572287797927856 0.16244803369045258
0.73221653699874878 0.42153531312942505 0.19738566875457764
0.0014978296821936965 0.37121051549911499 0.13745364546775818
0.01522852573543787 0.39217269420623779 0.14967364072799683
0.10786936432123184 0.44201275706291199 0.16012470424175262
0.31442305445671082 0.5124632716178894 0.15596462786197662
0.52110767364501953 0.56500524282455444 0.14335456490516663
0.68945062160491943 0.59437650442123413 0.15138740837574005
0.79602694511413574 0.58112215995788574 0.19127939641475677
0.0036437241360545158 0.50195193290710449 0.16441766917705536
0.008149120956659317 0.52305507659912109 0.16832904517650604
0.067802220582962036 0.57060927152633667 0.18369801342487335
0.28353995084762573 0.65244942903518677 0.18626277148723602
0.53943783044815063 0.72032541036605835 0.1662575751543045
0.73299670219421387 0.76027631759643555 0.17498530447483063
0.85540139675140381 0.74576377868652344 0.20983798801898956
0 0.59990566968917847 0.1740153580904007
0 0.61213511228561401 0.17796015739440918
0.00094305298989638686 0.64229917526245117 0.19490358233451843
0.16827073693275452 0.72396034002304077 0.21816329658031464
0.50146287679672241 0.83080136775970459 0.23588860034942627
0.76677930355072021 0.90239101648330688 0.28824895620346069
0.90544730424880981 0.90209501981735229 0.37968340516090393
0.0049376841634511948 0.048927847295999527 0.18929772078990936
0.057965610176324844 0.062497727572917938 0.19837185740470886
0.15584497153759003 0.074929103255271912 0.20303530991077423
0.26598590612411499 0.096280328929424286 0.20790301263332367
0.38025945425033569 0.10557188093662262 0.22201964259147644
0.49418100714683533 0.10521316528320312 0.23270420730113983
0.54267328977584839 0.083309605717658997 0.22574353218078613
0.0028014238923788071 0.12283414602279663 0.21783885359764099
0.050283871591091156 0.14812253415584564 0.22773838043212891
0.16822893917560577 0.17807288467884064 0.22957713901996613
0.31572738289833069 0.20081958174705505 0.22438697516918182
0.45031341910362244 0.20372545719146729 0.23117311298847198
0.55980563163757324 0.19229117035865784 0.24232830107212067
0.61231464147567749 0.17698542773723602 0.24055467545986176
0.0018458048580214381 0.21062670648097992 0.24199770390987396
0.046802550554275513 0.24474914371967316 0.2553718090057373
0.16946695744991302 0.28054887056350708 0.25617089867591858
0.34117251634597778 0.30547326803207397 0.24454325437545776
0.50609970092773438 0.31759524345397949 0.24072383344173431
0.63366991281509399 0.31298530101776123 0.25594022870063782
0.69561296701431274 0.30004388093948364 0.26897978782653809
0.00078641105210408568 0.30650988221168518 0.24949946999549866
0.030624523758888245 0.33805456757545471 0.26279273629188538
0.14332978427410126 0.38184681534767151 0.26918166875839233
0.33789551258087158 0.42210841178894043 0.25868117809295654
0.53397434949874878 0.45051866769790649 0.24526865780353546
0.68950003385543823 0.46370154619216919 0.26140281558036804
0.76446437835693359 0.44403859972953796 0.29490658640861511
0 0.40824586153030396 0.25770047307014465
0.0068360273726284504 0.42811068892478943 0.26744335889816284
0.098368071019649506 0.4890119731426239 0.2791391909122467
0.31757029891014099 0.55146509408950806 0.27184006571769714
0.54536962509155273 0.59628784656524658 0.25842207670211792
0.71833032369613647 0.61943858861923218 0.25905618071556091
0.82263058423995972 0.60176801681518555 0.30031445622444153
0.003359372029080987 0.53101241588592529 0.25378867983818054
0.0046546934172511101 0.55174988508224487 0.25456207990646362
0.048266138881444931 0.59450334310531616 0.25914931297302246
0.26962244510650635 0.67264187335968018 0.25846615433692932
0.5688139796257019 0.7474551796913147 0.25292620062828064
0.75480347871780396 0.78000670671463013 0.27302572131156921
0.88087040185928345 0.76768022775650024 0.32270058989524841
0.00030279721249826252 0.61321866512298584 0.22011199593544006
0 0.62998694181442261 0.22979888319969177
0.00016515394963789731 0.66840016841888428 0.25767305493354797
0.15705962479114532 0.74974572658538818 0.28432005643844604
0.52541583776473999 0.85547542572021484 0.30949652194976807
0.77991139888763428 0.9165046215057373 0.37566640973091125
0.92845183610916138 0.9212113618850708 0.44961556792259216
0.0018526563653722405 0.050439707934856415 0.24696485698223114
0.042210672050714493 0.059320367872714996 0.26083207130432129
0.13670441508293152 0.06972687691450119 0.2745843231678009
0.24496985971927643 0.08822166919708252 0.288810133934021
0.36921042203903198 0.10227935016155243 0.31412282586097717
0.48713782429695129 0.10880840569734573 0.33644044399261475
0.53877085447311401 0.089463040232658386 0.32829752564430237
0.00019279928528703749 0.1133871003985405 0.27773183584213257
0.033183526247739792 0.13631592690944672 0.29423549771308899
0.1353541761636734 0.16649726033210754 0.30967923998832703
0.27966675162315369 0.18698298931121826 0.31654989719390869
0.42798522114753723 0.19624829292297363 0.33359977602958679
0.54294800758361816 0.18447181582450867 0.35053509473800659
0.60281836986541748 0.17237436771392822 0.34549760818481445
0.0014571844367310405 0.20594651997089386 0.31886908411979675
0.031327281147241592 0.2363186776638031 0.33542156219482422
0.14019805192947388 0.27517867088317871 0.35346081852912903
0.31664180755615234 0.30916985869407654 0.356629878282547
0.49697443842887878 0.32279518246650696 0.35967585444450378
0.62919718027114868 0.30476945638656616 0.37697666883468628
0.70037496089935303 0.29855430126190186 0.38438686728477478
0.0024293188471347094 0.32376396656036377 0.35424742102622986
0.021869359537959099 0.35172238945960999 0.36590105295181274
0.12432216852903366 0.39155566692352295 0.38408055901527405
0.32796883583068848 0.43649905920028687 0.38847431540489197
0.54376530647277832 0.46215307712554932 0.37600237131118774
0.70809769630432129 0.46503490209579468 0.39057454466819763
0.78594648838043213 0.45437330007553101 0.4138602614402771
0 0.44588854908943176 0.39090943336486816
0.0025130775757133961 0.46318128705024719 0.39463990926742554
0.083463855087757111 0.51353919506072998 0.40475550293922424
0.30149957537651062 0.57372844219207764 0.40970292687416077
0.5594983696937561 0.61735457181930542 0.39497709274291992
0.75330817699432373 0.64158672094345093 0.40330800414085388
0.85081583261489868 0.62665092945098877 0.44245868921279907
0 0.58350324630737305 0.41902229189872742
0.001105828327126801 0.59874027967453003 0.41445714235305786
0.032369036227464676 0.63772881031036377 0.41622596979141235
0.2264215350151062 0.70401531457901001 0.42017552256584167
0.57268458604812622 0.78116393089294434 0.42244735360145569
0.79577553272247314 0.82179206609725952 0.45716434717178345
0.91353064775466919 0.80366647243499756 0.51681339740753174
0 0.67281949520111084 0.39805972576141357
0 0.69142717123031616 0.40945792198181152
0.010635301470756531 0.74345511198043823 0.45613941550254822
0.14659701287746429 0.80495846271514893 0.48830801248550415
0.52334821224212646 0.89152967929840088 0.51746296882629395
0.80922454595565796 0.9484291672706604 0.59458404779434204
0.96741163730621338 0.95793634653091431 0.66428196430206299
4.9007641791831702e-05 0.038787662982940674 0.31378993391990662
0.029732244089245796 0.055336415767669678 0.33016249537467957
0.12794262170791626 0.077870659530162811 0.35768795013427734
0.23840159177780151 0.096078045666217804 0.38152024149894714
0.36352354288101196 0.10775100439786911 0.41469466686248779
0.48728913068771362 0.11501778662204742 0.44761034846305847
0.55437332391738892 0.09988868236541748 0.4429314136505127
0 0.10089139640331268 0.34522959589958191
0.022605461999773979 0.1159227266907692 0.3617190420627594
0.11384876072406769 0.14684692025184631 0.39125347137451172
0.25473979115486145 0.16584676504135132 0.41352617740631104
0.40217298269271851 0.17913217842578888 0.44001641869544983
0.5153357982635498 0.16598229110240936 0.45512741804122925
0.57800489664077759 0.14271238446235657 0.43999063968658447
0 0.19447903335094452 0.39792191982269287
0.018886132165789604 0.2229473888874054 0.41661372780799866
0.11396421492099762 0.26223859190940857 0.44603720307350159
0.29062625765800476 0.29842248558998108 0.47143858671188354
0.46942993998527527 0.31369933485984802 0.49000895023345947
0.59923619031906128 0.29180434346199036 0.50099921226501465
0.67142373323440552 0.27453011274337769 0.4877312183380127
0 0.32644644379615784 0.45394405722618103
0.010681002400815487 0.35023653507232666 0.46716576814651489
0.097713768482208252 0.40040016174316406 0.49601295590400696
0.29663750529289246 0.44138747453689575 0.52521491050720215
0.51824486255645752 0.46929335594177246 0.53437525033950806
0.6963086724281311 0.46775263547897339 0.54035681486129761
0.78502923250198364 0.46278700232505798 0.54348570108413696
0 0.46776559948921204 0.50466454029083252
0.0011197258718311787 0.48772457242012024 0.51379251480102539
0.063548505306243896 0.53911077976226807 0.53356921672821045
0.25131058692932129 0.58845263719558716 0.56085580587387085
0.53263705968856812 0.63376778364181519 0.57122987508773804
0.76808172464370728 0.65375435352325439 0.58158880472183228
0.87439709901809692 0.65578198432922363 0.60896956920623779
0 0.6131322979927063 0.55901241302490234
0 0.63190245628356934 0.56579047441482544
0.024061240255832672 0.68012136220932007 0.58293193578720093
0.2022516280412674 0.74967479705810547 0.61140042543411255
0.55774444341659546 0.82133686542510986 0.64306950569152832
0.83231794834136963 0.86234092712402344 0.67799592018127441
0.94842684268951416 0.8438645601272583 0.71843427419662476
0 0.72648686170578003 0.57793921232223511
0 0.7435491681098938 0.59191584587097168
0.023538103327155113 0.80302196741104126 0.63419169187545776
0.20927625894546509 0.87412983179092407 0.68177658319473267
0.56536763906478882 0.93136137723922729 0.73235815763473511
0.84038233757019043 0.97139656543731689 0.8010636568069458
0.97992050647735596 0.97331935167312622 0.83823281526565552
0.0012518640141934156 0.024053655564785004 0.38767841458320618
0.022216916084289551 0.031029285863041878 0.4005851149559021
0.086502283811569214 0.051420487463474274 0.4317328929901123
0.21104821562767029 0.086574271321296692 0.46573355793952942
0.3505936861038208 0.10724516957998276 0.50230640172958374
0.48020094633102417 0.12245486676692963 0.53610730171203613
0.56293177604675293 0.11834219843149185 0.54355412721633911
8.4731160313822329e-05 0.10303184390068054 0.43329384922981262
0.019661607220768929 0.0899323970079422 0.43655127286911011
0.10647767037153244 0.11893177777528763 0.47400647401809692
0.26021021604537964 0.15533928573131561 0.51369470357894897
0.38747555017471313 0.16503585875034332 0.53357672691345215
0.49427658319473267 0.15942583978176117 0.54420721530914307
0.57762455940246582 0.14986498653888702 0.54295963048934937
0 0.16967815160751343 0.4707750678062439
0.010724535211920738 0.19185532629489899 0.49203059077262878
0.099403545260429382 0.22766904532909393 0.53081506490707397
0.29345196485519409 0.27343958616256714 0.57719880342483521
0.44963890314102173 0.28411334753036499 0.59559577703475952
0.56612765789031982 0.2733408510684967 0.5990830659866333
0.65606909990310669 0.26518073678016663 0.59266215562820435
0 0.31547307968139648 0.54092198610305786
0.0034460180904716253 0.34234848618507385 0.56099271774291992
0.075587332248687744 0.38725796341896057 0.59835469722747803
0.26679414510726929 0.42053809762001038 0.63631421327590942
0.48378172516822815 0.44417572021484375 0.66424077749252319
0.6554865837097168 0.44941693544387817 0.67130732536315918
0.76548093557357788 0.45425450801849365 0.66951721906661987
0 0.49775803089141846 0.62496548891067505
0 0.50847572088241577 0.62736368179321289
0.034052230417728424 0.54796546697616577 0.65344905853271484
0.21541731059551239 0.60042715072631836 0.69938892126083374
0.49953266978263855 0.64026212692260742 0.73891419172286987
0.74590742588043213 0.66588568687438965 0.75553888082504272
0.88695365190505981 0.69326961040496826 0.77022403478622437
0 0.64556425809860229 0.67935782670974731
0 0.65797120332717896 0.68473190069198608
0.010409336537122726 0.69991981983184814 0.70721054077148438
0.18008023500442505 0.78061044216156006 0.75715363025665283
0.54835242033004761 0.85492998361587524 0.81764489412307739
0.84579277038574219 0.89599651098251343 0.85813349485397339
0.98164874315261841 0.89702087640762329 0.88603150844573975
0 0.76372736692428589 0.70976471900939941
1.4002182979311328e-05 0.78768825531005859 0.72638493776321411
0.02078857459127903 0.82679277658462524 0.74987924098968506
0.22458583116531372 0.89009636640548706 0.7955898642539978
0.61452805995941162 0.96140164136886597 0.87140500545501709
0.88692080974578857 0.99490988254547119 0.94247806072235107
0.99784868955612183 0.99306303262710571 0.96410608291625977
0.0034390767104923725 0.024507949128746986 0.44452711939811707
0.030333066359162331 0.030439967289566994 0.46437761187553406
0.099481262266635895 0.060198016464710236 0.49833637475967407
0.20649614930152893 0.095586366951465607 0.53395116329193115
0.34383916854858398 0.11417444050312042 0.57200556993484497
0.46742132306098938 0.12780153751373291 0.6059190034866333
0.56329387426376343 0.13544920086860657 0.62843334674835205
0.0032325445208698511 0.079567030072212219 0.47903376817703247
0.032410148531198502 0.083723165094852448 0.49944069981575012
0.13222788274288177 0.12451412528753281 0.54425781965255737
0.28148099780082703 0.1675240695476532 0.58833330869674683
0.37140592932701111 0.15799866616725922 0.5970684289932251
0.4675908088684082 0.14832358062267303 0.6101151704788208
0.57505166530609131 0.15305517613887787 0.63201022148132324
0.00079520727740600705 0.1357763260602951 0.50788372755050659
0.016949133947491646 0.15674759447574615 0.53971642255783081
0.1009138822555542 0.20030310750007629 0.58616346120834351
0.2835640013217926 0.24587994813919067 0.63377493619918823
0.40573272109031677 0.23571260273456573 0.64589685201644897
0.511272132396698 0.2167375236749649 0.65356063842773438
0.62128430604934692 0.20917890965938568 0.66646164655685425
0.00049454934196546674 0.27771499752998352 0.58108699321746826
0.0071984832175076008 0.29917523264884949 0.60629504919052124
0.064953505992889404 0.3440912663936615 0.64513528347015381
0.23149523138999939 0.37414783239364624 0.68236517906188965
0.4258362352848053 0.38179671764373779 0.71347522735595703
0.58382534980773926 0.38362380862236023 0.73343396186828613
0.71293443441390991 0.37599220871925354 0.74587804079055786
0 0.47421374917030334 0.67046856880187988
0.00019077974138781428 0.47931802272796631 0.67965817451477051
0.02642262727022171 0.5182831883430481 0.71100747585296631
0.17880247533321381 0.56077200174331665 0.75100249052047729
0.45859119296073914 0.60638391971588135 0.80278092622756958
0.68658757209777832 0.65350759029388428 0.84105640649795532
0.87330412864685059 0.71021592617034912 0.88092470169067383
0 0.62931245565414429 0.73370110988616943
1.0112687959917821e-05 0.6326490044593811 0.73984020948410034
0.0045929704792797565 0.68990433216094971 0.77385085821151733
0.1312146782875061 0.74801969528198242 0.81106972694396973
0.51007270812988281 0.82233130931854248 0.88013613224029541
0.81855159997940063 0.89877462387084961 0.93798643350601196
0.98174846172332764 0.92253440618515015 0.96724236011505127
0.0045674340799450874 0.77905863523483276 0.79675912857055664
0.0077492659911513329 0.79926425218582153 0.81031203269958496
0.024226514622569084 0.81054675579071045 0.81254881620407104
0.19691330194473267 0.86499470472335815 0.84654504060745239
0.63320857286453247 0.9643746018409729 0.93768537044525146
0.90288650989532471 0.99586027860641479 0.98862892389297485
0.99708908796310425 0.99648571014404297 0.99774914979934692
