assets/lut/abigailgonzalez cinema.cube
# Created by: G'MIC (https://gmic.eu)
TITLE "cinema"
# LUT size
LUT_3D_SIZE 5
# Data domain
DOMAIN_MIN 0.0 0.0 0.0
DOMAIN_MAX 1.0 1.0 1.0
# LUT data points
0.00019621007959358394 0.01018314715474844 0.017179347574710846
0.20734706521034241 0.056117773056030273 0.022618208080530167
0.4370080828666687 0.088131353259086609 0.020792793482542038
0.70641976594924927 0.13664679229259491 0.04293600469827652
0.9295804500579834 0.21367804706096649 0.048880092799663544
0.00089676800416782498 0.16279582679271698 0.034869488328695297
0.29550373554229736 0.17257574200630188 0.0097024356946349144
0.56234830617904663 0.18379656970500946 0.012380696833133698
0.81177455186843872 0.27496272325515747 0.023135511204600334
0.98430937528610229 0.39047178626060486 0.025065178051590919
0.0089307148009538651 0.29096853733062744 0.036587659269571304
0.30301740765571594 0.37240362167358398 0.022357191890478134
0.65253829956054688 0.33190298080444336 0.023713145405054092
0.87203729152679443 0.38981041312217712 0.033653408288955688
0.99714118242263794 0.52264678478240967 0.054215032607316971
0.03877747431397438 0.45729789137840271 0.054900612682104111
0.36189615726470947 0.57399111986160278 0.042554460465908051
0.66924101114273071 0.66651880741119385 0.068843036890029907
0.89829659461975098 0.63669323921203613 0.074949763715267181
0.99878048896789551 0.68274831771850586 0.091828994452953339
0.11504492908716202 0.67650765180587769 0.11245667934417725
0.49783605337142944 0.78741782903671265 0.097809799015522003
0.72862160205841064 0.85596883296966553 0.097004085779190063
0.90879213809967041 0.92020082473754883 0.1146143451333046
1 0.88601750135421753 0.11397670954465866
0 0.052683856338262558 0.15217551589012146
0.098253808915615082 0.08757038414478302 0.148048996925354
0.35240903496742249 0.1278209388256073 0.15131141245365143
0.67760992050170898 0.19209402799606323 0.16025908291339874
0.93840467929840088 0.29799222946166992 0.17007672786712646
0.0004773756954818964 0.16335283219814301 0.21303077042102814
0.12322522699832916 0.22549407184123993 0.23938892781734467
0.48426234722137451 0.2942737340927124 0.23267167806625366
0.80579853057861328 0.3777000904083252 0.22031666338443756
0.9881095290184021 0.47391560673713684 0.22429361939430237
0.017193393781781197 0.385700523853302 0.34047216176986694
0.12504550814628601 0.42963036894798279 0.28573721647262573
0.57274329662322998 0.45680376887321472 0.18075524270534515
0.84276390075683594 0.54089760780334473 0.23317593336105347
0.99442476034164429 0.65216755867004395 0.25482955574989319
0.049707360565662384 0.58980309963226318 0.42268234491348267
0.17960529029369354 0.61702597141265869 0.30077001452445984
0.57827490568161011 0.71000277996063232 0.26248520612716675
0.88740605115890503 0.73540997505187988 0.17662385106086731
0.99894505739212036 0.77332442998886108 0.21576207876205444
0.087689295411109924 0.74251753091812134 0.45440411567687988
0.35871315002441406 0.82380825281143188 0.35454669594764709
0.68690323829650879 0.87909901142120361 0.36593765020370483
0.89441424608230591 0.94757968187332153 0.3031272292137146
0.999278724193573 0.92246562242507935 0.19070354104042053
0 0.11428355425596237 0.28381064534187317
0.015261765569448471 0.13979318737983704 0.28403711318969727
0.20454445481300354 0.1716664582490921 0.25763729214668274
0.60399782657623291 0.23151491582393646 0.24409118294715881
0.88355857133865356 0.36530917882919312 0.31784528493881226
0.0051712635904550552 0.19015426933765411 0.34760403633117676
0.058700263500213623 0.24903266131877899 0.41328635811805725
0.31191149353981018 0.32997843623161316 0.39624455571174622
0.72422999143600464 0.44163763523101807 0.40928888320922852
0.95025289058685303 0.55460399389266968 0.48163086175918579
0.016758667305111885 0.28669187426567078 0.39666905999183655
0.085699565708637238 0.38414996862411499 0.49712678790092468
0.36784416437149048 0.50947469472885132 0.53145593404769897
0.79842448234558105 0.63069635629653931 0.55456936359405518
0.98601269721984863 0.709938645362854 0.57471495866775513
0.07294338196516037 0.59739083051681519 0.6405225396156311
0.13039854168891907 0.67985028028488159 0.69174027442932129
0.43852365016937256 0.74222594499588013 0.6019967794418335
0.86567455530166626 0.80052798986434937 0.50392937660217285
0.99775034189224243 0.83868026733398438 0.54197877645492554
0.12399547547101974 0.84091997146606445 0.82057076692581177
0.19950549304485321 0.85877686738967896 0.74087417125701904
0.62506306171417236 0.90680783987045288 0.56695479154586792
0.88236290216445923 0.95626050233840942 0.56778782606124878
0.99926626682281494 0.94708770513534546 0.32269683480262756
0.0069912183098495007 0.20670469105243683 0.48214307427406311
0.030278060585260391 0.21977311372756958 0.4693426787853241
0.081230685114860535 0.24045902490615845 0.44827014207839966
0.49481058120727539 0.29542639851570129 0.36165741086006165
0.84835195541381836 0.39948257803916931 0.40539312362670898
0.021716563031077385 0.28208881616592407 0.54210656881332397
0.064793333411216736 0.33361032605171204 0.60855001211166382
0.13218642771244049 0.3679502010345459 0.6101105809211731
0.63077282905578613 0.49110531806945801 0.55268323421478271
0.91317188739776611 0.59386438131332397 0.61551749706268311
0.036748398095369339 0.34070351719856262 0.58732128143310547
0.090226389467716217 0.41361513733863831 0.67234969139099121
0.2087654173374176 0.50308096408843994 0.73526674509048462
0.73186725378036499 0.66079807281494141 0.70917153358459473
0.95529663562774658 0.73974800109863281 0.74937146902084351
0.06671123206615448 0.48022168874740601 0.6659923791885376
0.12329698354005814 0.56087577342987061 0.74364626407623291
0.27686807513237 0.6704028844833374 0.8109586238861084
0.82363355159759521 0.83484607934951782 0.79879659414291382
0.99065995216369629 0.87420749664306641 0.80524462461471558
0.11952130496501923 0.72857445478439331 0.84368276596069336
0.16449753940105438 0.78324329853057861 0.88438516855239868
0.29473567008972168 0.87403351068496704 0.91751909255981445
0.85475009679794312 0.97222888469696045 0.80172830820083618
0.99773281812667847 0.96728867292404175 0.7089887261390686
0.035119462758302689 0.32245892286300659 0.70111739635467529
0.057294644415378571 0.33199900388717651 0.69235503673553467
0.084762543439865112 0.34675255417823792 0.67754644155502319
0.29677101969718933 0.4306674599647522 0.67507326602935791
0.805076003074646 0.4896729588508606 0.6059224009513855
0.051534391939640045 0.39266496896743774 0.75119626522064209
0.089370876550674438 0.43532121181488037 0.8007737398147583
0.13387200236320496 0.46349439024925232 0.80694425106048584
0.45750683546066284 0.56934881210327148 0.80387610197067261
0.87652105093002319 0.61296761035919189 0.74616742134094238
0.063751578330993652 0.44253557920455933 0.7785942554473877
0.10622017085552216 0.50027507543563843 0.83958888053894043
0.16483882069587708 0.55388927459716797 0.8762851357460022
0.62638670206069946 0.70666801929473877 0.88984251022338867
0.93390583992004395 0.74048435688018799 0.85652655363082886
0.083433382213115692 0.52274197340011597 0.82127439975738525
0.13179299235343933 0.59144610166549683 0.87726080417633057
0.21460120379924774 0.65784579515457153 0.90973424911499023
0.75060063600540161 0.83797776699066162 0.93416804075241089
0.97490805387496948 0.87969595193862915 0.91748976707458496
0.11424434930086136 0.65344423055648804 0.87519079446792603
0.15494167804718018 0.71011418104171753 0.91944414377212524
0.27937585115432739 0.77645540237426758 0.94769549369812012
0.77499544620513916 0.9340507984161377 0.97187501192092896
0.99442625045776367 0.99328696727752686 0.93790137767791748
