assets/lut/abigailgonzalez cinema noir.cube
# Created by: G'MIC (https://gmic.eu)
TITLE "cinema_noir"
# LUT size
LUT_3D_SIZE 5
# Data domain
DOMAIN_MIN 0.0 0.0 0.0
DOMAIN_MAX 1.0 1.0 1.0
# LUT data points
0.049899470061063766 0.049899470061063766 0.049899470061063766
0.24559479951858521 0.24559479951858521 0.24559479951858521
0.49336391687393188 0.49460932612419128 0.49334874749183655
0.6839061975479126 0.6839061975479126 0.68357926607131958
0.78227698802947998 0.78227698802947998 0.78227698802947998
0.094432279467582703 0.094514153897762299 0.094432279467582703
0.22359234094619751 0.22359234094619751 0.22359234094619751
0.44743934273719788 0.44835773110389709 0.44743934273719788
0.66949892044067383 0.66970914602279663 0.66949892044067383
0.78229331970214844 0.78229331970214844 0.78229331970214844
0.1365533173084259 0.13804522156715393 0.1365533173084259
0.22636270523071289 0.22640606760978699 0.22636270523071289
0.41706985235214233 0.4171237051486969 0.41706985235214233
0.65573501586914062 0.65567296743392944 0.65573501586914062
0.79644793272018433 0.79783397912979126 0.79644793272018433
0.19040095806121826 0.19076448678970337 0.19040095806121826
0.25288864970207214 0.25294250249862671 0.25288864970207214
0.41391286253929138 0.41406646370887756 0.41391286253929138
0.65358805656433105 0.65377050638198853 0.65358805656433105
0.80923199653625488 0.80934149026870728 0.80923199653625488
0.25021865963935852 0.25034508109092712 0.25021865963935852
0.27331489324569702 0.27333590388298035 0.27331489324569702
0.41408944129943848 0.41419589519500732 0.41408944129943848
0.60715192556381226 0.60715192556381226 0.60715192556381226
0.81815910339355469 0.81815910339355469 0.81815910339355469
0.10088334977626801 0.10088334977626801 0.10088334977626801
0.26787289977073669 0.26787289977073669 0.26787289977073669
0.48151341080665588 0.48154979944229126 0.48151341080665588
0.67773109674453735 0.67773109674453735 0.67773109674453735
0.78507131338119507 0.78507131338119507 0.78507131338119507
0.12629519402980804 0.12629519402980804 0.12629519402980804
0.24039764702320099 0.24039764702320099 0.24039764702320099
0.44082635641098022 0.44082635641098022 0.44082635641098022
0.6618722677230835 0.6618722677230835 0.6618722677230835
0.77403199672698975 0.7740623950958252 0.77403199672698975
0.1526326984167099 0.1526326984167099 0.1526326984167099
0.24404448270797729 0.24404448270797729 0.24404448270797729
0.4216553270816803 0.4216553270816803 0.4216553270816803
0.6539117693901062 0.6539117693901062 0.65387898683547974
0.77864634990692139 0.77914535999298096 0.77864634990692139
0.19502575695514679 0.19502750039100647 0.19502575695514679
0.25279217958450317 0.25281491875648499 0.25279217958450317
0.41962981224060059 0.4196627140045166 0.41962981224060059
0.65304189920425415 0.65304309129714966 0.65304189920425415
0.7958713173866272 0.79688316583633423 0.79585558176040649
0.24811254441738129 0.25091764330863953 0.24811254441738129
0.27898719906806946 0.27914023399353027 0.27898719906806946
0.38006141781806946 0.38006141781806946 0.38006141781806946
0.62086695432662964 0.620960533618927 0.62086695432662964
0.82405060529708862 0.82649153470993042 0.82405060529708862
0.15178628265857697 0.15178628265857697 0.15178628265857697
0.27505359053611755 0.27505359053611755 0.27505359053611755
0.47218194603919983 0.47216424345970154 0.47218194603919983
0.67033451795578003 0.67208373546600342 0.67033451795578003
0.78699541091918945 0.78699541091918945 0.78699541091918945
0.1650770902633667 0.1650770902633667 0.1650770902633667
0.26065719127655029 0.26065719127655029 0.26065719127655029
0.44888997077941895 0.44888997077941895 0.44888997077941895
0.65511870384216309 0.65516191720962524 0.65511870384216309
0.78722488880157471 0.7872319221496582 0.78722488880157471
0.18835663795471191 0.18835663795471191 0.18835663795471191
0.27034306526184082 0.27035826444625854 0.27034306526184082
0.42585647106170654 0.42585647106170654 0.42587417364120483
0.65078198909759521 0.65082275867462158 0.65010327100753784
0.78885751962661743 0.79047590494155884 0.78882724046707153
0.22792540490627289 0.22792540490627289 0.22792540490627289
0.27997547388076782 0.27999824285507202 0.27997547388076782
0.42996159195899963 0.43002891540527344 0.42996159195899963
0.65062254667282104 0.65167427062988281 0.65056657791137695
0.80027765035629272 0.80099129676818848 0.80027765035629272
0.26907676458358765 0.26907676458358765 0.26907676458358765
0.28884512186050415 0.28888943791389465 0.28884512186050415
0.40805953741073608 0.40939059853553772 0.40805953741073608
0.60610580444335938 0.6069149374961853 0.60610580444335938
0.8395230770111084 0.84277784824371338 0.8395230770111084
0.21385389566421509 0.21385389566421509 0.21385389566421509
0.31678244471549988 0.31678244471549988 0.31678244471549988
0.47621431946754456 0.47633415460586548 0.47621431946754456
0.66260325908660889 0.66324007511138916 0.66260325908660889
0.77431952953338623 0.77470141649246216 0.77431952953338623
0.22151266038417816 0.22151266038417816 0.22151266038417816
0.30513346195220947 0.30513346195220947 0.30513346195220947
0.47119855880737305 0.47120380401611328 0.47119855880737305
0.65763372182846069 0.65768176317214966 0.65763372182846069
0.77685356140136719 0.77829241752624512 0.77685356140136719
0.23813094198703766 0.23813094198703766 0.23813094198703766
0.30609861016273499 0.30609861016273499 0.30609861016273499
0.45670181512832642 0.45670181512832642 0.45670181512832642
0.65636032819747925 0.65639311075210571 0.65636032819747925
0.79203206300735474 0.79367870092391968 0.79203206300735474
0.26304170489311218 0.26304170489311218 0.26304170489311218
0.30768629908561707 0.30768629908561707 0.30768629908561707
0.44549733400344849 0.44554072618484497 0.44549733400344849
0.65340733528137207 0.65344542264938354 0.65340733528137207
0.81153833866119385 0.81195360422134399 0.81153833866119385
0.29456701874732971 0.29456701874732971 0.29456701874732971
0.30880403518676758 0.30880403518676758 0.30880403518676758
0.4318939745426178 0.4333566427230835 0.4318939745426178
0.61792421340942383 0.61965358257293701 0.61792421340942383
0.84777051210403442 0.84802377223968506 0.84777051210403442
0.25882354378700256 0.25882354378700256 0.25882354378700256
0.33176758885383606 0.33176758885383606 0.33176758885383606
0.48539742827415466 0.4871324896812439 0.48539742827415466
0.64801889657974243 0.64871686697006226 0.64801889657974243
0.77997899055480957 0.78289014101028442 0.77997899055480957
0.25578629970550537 0.25578629970550537 0.25578629970550537
0.34880626201629639 0.34880626201629639 0.34880626201629639
0.52756267786026001 0.52821820974349976 0.52756267786026001
0.66183412075042725 0.66185683012008667 0.66183412075042725
0.78913658857345581 0.78944069147109985 0.78913658857345581
0.27451243996620178 0.27451243996620178 0.27451243996620178
0.34506848454475403 0.34506848454475403 0.34506848454475403
0.47562539577484131 0.47562539577484131 0.47562539577484131
0.6525605320930481 0.65259337425231934 0.6525605320930481
0.80215728282928467 0.80229884386062622 0.80215728282928467
0.29611068964004517 0.29611068964004517 0.29611068964004517
0.32978734374046326 0.3298201858997345 0.32978734374046326
0.46114018559455872 0.46120336651802063 0.46114018559455872
0.64482301473617554 0.64494174718856812 0.64482301473617554
0.83406257629394531 0.83414262533187866 0.83406257629394531
0.3109709620475769 0.3109709620475769 0.3109709620475769
0.33953720331192017 0.33959808945655823 0.33953720331192017
0.4020635187625885 0.40212675929069519 0.4020635187625885
0.6146693229675293 0.61785280704498291 0.6146693229675293
0.91272574663162231 0.91476708650588989 0.91272574663162231
