assets/lut/abigailgonzalez science fiction.cube
# Created by: G'MIC (https://gmic.eu)
TITLE "science_fiction"
# LUT size
LUT_3D_SIZE 5
# Data domain
DOMAIN_MIN 0.0 0.0 0.0
DOMAIN_MAX 1.0 1.0 1.0
# LUT data points
0.020390350371599197 0.02211393415927887 0.039695501327514648
0.20724205672740936 0.052197832614183426 0.034230548888444901
0.45483925938606262 0.086039520800113678 0.091200478374958038
0.72161775827407837 0.12423873692750931 0.13690970838069916
0.95476871728897095 0.19012570381164551 0.1937021017074585
0.0036295573227107525 0.15020981431007385 0.057432692497968674
0.17232726514339447 0.18230542540550232 0.057656709104776382
0.50476193428039551 0.22911493480205536 0.047790959477424622
0.83399474620819092 0.27772590517997742 0.065001621842384338
0.98384207487106323 0.36748436093330383 0.14831651747226715
0.0006691876333206892 0.33519604802131653 0.097004622220993042
0.07924778014421463 0.36769828200340271 0.079087004065513611
0.47502058744430542 0.43466991186141968 0.086806982755661011
0.83316588401794434 0.47915464639663696 0.043479472398757935
0.99578249454498291 0.56714189052581787 0.097656726837158203
0.0051639033481478691 0.57131856679916382 0.12927797436714172
0.014221356250345707 0.60299313068389893 0.10429873317480087
0.41900539398193359 0.67173308134078979 0.10064293444156647
0.82664310932159424 0.71841508150100708 0.12182041257619858
0.99736958742141724 0.75941658020019531 0.14192232489585876
0.0064608254469931126 0.7468104362487793 0.17456547915935516
0.0080040879547595978 0.77102154493331909 0.13332195580005646
0.37364569306373596 0.81877404451370239 0.13534703850746155
0.8184128999710083 0.86349976062774658 0.1805158257484436
0.99778324365615845 0.89046335220336914 0.18956349790096283
0.0048470143228769302 0.035894758999347687 0.28415167331695557
0.1899571418762207 0.032233413308858871 0.31413108110427856
0.49496603012084961 0.041406698524951935 0.27255824208259583
0.73501133918762207 0.072215467691421509 0.25783452391624451
0.93195217847824097 0.13843421638011932 0.28843754529953003
0.0071777794510126114 0.20983080565929413 0.30188119411468506
0.092448107898235321 0.20835302770137787 0.29889121651649475
0.4958939254283905 0.24592193961143494 0.28344428539276123
0.82589161396026611 0.30667927861213684 0.29358580708503723
0.96967971324920654 0.40545719861984253 0.37794375419616699
0.015250097960233688 0.41392230987548828 0.32312193512916565
0.02766793966293335 0.4142814576625824 0.30803179740905762
0.40937766432762146 0.45029991865158081 0.32092767953872681
0.86510717868804932 0.52351671457290649 0.2857755720615387
0.99251878261566162 0.6049848198890686 0.36098483204841614
0.02557302825152874 0.62224549055099487 0.3327937126159668
1.2521182725322433e-05 0.64141327142715454 0.30885586142539978
0.29858607053756714 0.68566989898681641 0.32327240705490112
0.80815333127975464 0.74640315771102905 0.35327491164207458
0.99924206733703613 0.78797858953475952 0.36473312973976135
0.011490751057863235 0.77115827798843384 0.32227572798728943
0.0045397737994790077 0.78946304321289062 0.29444965720176697
0.35005152225494385 0.82621181011199951 0.30965858697891235
0.80946683883666992 0.8762441873550415 0.35860937833786011
0.99630546569824219 0.90584951639175415 0.38823848962783813
0.0013059878256171942 0.041093833744525909 0.49810260534286499
0.078471675515174866 0.042753122746944427 0.55019462108612061
0.40921288728713989 0.035438299179077148 0.57177650928497314
0.76822161674499512 0.041944779455661774 0.55742174386978149
0.96194601058959961 0.091923810541629791 0.51935911178588867
0.0029343250207602978 0.23415589332580566 0.54997801780700684
0.011483106762170792 0.23490747809410095 0.55879533290863037
0.38492324948310852 0.23065216839313507 0.58115309476852417
0.78653520345687866 0.25801900029182434 0.54981988668441772
0.9695172905921936 0.32835096120834351 0.51473742723464966
0.0046233083121478558 0.46220698952674866 0.57803118228912354
0.028513470664620399 0.48753142356872559 0.58220094442367554
0.23239313066005707 0.48430627584457397 0.58662635087966919
0.81526452302932739 0.53623229265213013 0.56600499153137207
0.97680860757827759 0.64090782403945923 0.62098616361618042
0.0083073936402797699 0.68550807237625122 0.58488672971725464
0.00035051832674071193 0.71457302570343018 0.5765259861946106
0.080504685640335083 0.72214901447296143 0.57537639141082764
0.74630880355834961 0.7793278694152832 0.6139218807220459
0.9988207221031189 0.83465254306793213 0.64915370941162109
0.0012115777935832739 0.82617831230163574 0.56269705295562744
0 0.83371716737747192 0.53677362203598022
0.20453475415706635 0.84767693281173706 0.53185397386550903
0.774280846118927 0.8968735933303833 0.57950520515441895
0.99447321891784668 0.93429780006408691 0.64299595355987549
0.016414089128375053 0.030551925301551819 0.70329385995864868
0.079682335257530212 0.036869063973426819 0.74681204557418823
0.31820923089981079 0.036047212779521942 0.75286209583282471
0.6853986382484436 0.042752809822559357 0.77052938938140869
0.95594018697738647 0.065567374229431152 0.77624547481536865
0.0047130510210990906 0.22635352611541748 0.76372611522674561
0.01647624559700489 0.22513289749622345 0.76003468036651611
0.23757435381412506 0.21087600290775299 0.78177440166473389
0.70950013399124146 0.23228131234645844 0.79450559616088867
0.97426861524581909 0.29323449730873108 0.79351288080215454
0.0053539201617240906 0.4646754264831543 0.772571861743927
0.025232203304767609 0.48464947938919067 0.78140270709991455
0.084677211940288544 0.47439682483673096 0.80262857675552368
0.69275194406509399 0.50747746229171753 0.82697856426239014
0.97453778982162476 0.56299352645874023 0.80068290233612061
0.0030438441317528486 0.71113282442092896 0.79276829957962036
0.029729641973972321 0.74436336755752563 0.80233752727508545
0.030353352427482605 0.76084095239639282 0.80922186374664307
0.63089430332183838 0.79702067375183105 0.83489590883255005
0.98438066244125366 0.84219658374786377 0.84625136852264404
0.0017874025506898761 0.86875516176223755 0.79931825399398804
0.02498352900147438 0.87992167472839355 0.80049926042556763
0.051794148981571198 0.89530056715011597 0.80120712518692017
0.71207445859909058 0.92497044801712036 0.82831263542175293
0.99400907754898071 0.97117167711257935 0.87733840942382812
0.013014954514801502 0.027855204418301582 0.85990285873413086
0.089169338345527649 0.041288264095783234 0.88083434104919434
0.24510559439659119 0.048826329410076141 0.88102030754089355
0.62370580434799194 0.047137122601270676 0.88584381341934204
0.92240822315216064 0.057572219520807266 0.89654302597045898
0.00061588658718392253 0.22785089910030365 0.87632262706756592
0.023388087749481201 0.21776005625724792 0.88652694225311279
0.17456614971160889 0.19921346008777618 0.89707785844802856
0.63385146856307983 0.20831696689128876 0.89396429061889648
0.93432694673538208 0.2511080801486969 0.89469349384307861
0.003068587277084589 0.45955881476402283 0.88831812143325806
0.032727304846048355 0.46143990755081177 0.89553225040435791
0.020247125998139381 0.43885523080825806 0.90225315093994141
0.59330397844314575 0.45447471737861633 0.92513418197631836
0.95246368646621704 0.51671493053436279 0.91869151592254639
0.0044266046024858952 0.68401658535003662 0.89620238542556763
0.028561117127537727 0.71346533298492432 0.90424925088882446
0.0044425367377698421 0.73028594255447388 0.9146047830581665
0.57851845026016235 0.76924514770507812 0.94842183589935303
0.97231084108352661 0.8083183765411377 0.95818084478378296
0.0036148668732494116 0.85442692041397095 0.900032639503479
0.03609384223818779 0.87489151954650879 0.91757422685623169
0.045368988066911697 0.90097141265869141 0.93942487239837646
0.51499038934707642 0.93401223421096802 0.95507961511611938
0.99148786067962646 0.98666512966156006 0.99420863389968872
