assets/lut/abigailgonzalez matrix.cube
# Created by: G'MIC (https://gmic.eu)
TITLE "matrix"
# LUT size
LUT_3D_SIZE 5
# Data domain
DOMAIN_MIN 0.0 0.0 0.0
DOMAIN_MAX 1.0 1.0 1.0
# LUT data points
0.015800610184669495 0.042143609374761581 0.039935346692800522
0.15578897297382355 0.082289330661296844 0.038128752261400223
0.298704594373703 0.095941446721553802 0.043068457394838333
0.43878725171089172 0.082500994205474854 0.063934549689292908
0.55542147159576416 0.061375517398118973 0.084918014705181122
0.0097919236868619919 0.14558352530002594 0.057879235595464706
0.13480988144874573 0.19633887708187103 0.056621730327606201
0.31301137804985046 0.21754403412342072 0.052894443273544312
0.49117773771286011 0.22701092064380646 0.070341251790523529
0.61990642547607422 0.20648398995399475 0.10165955871343613
0.017482219263911247 0.26234003901481628 0.071318231523036957
0.099243372678756714 0.31044244766235352 0.080441705882549286
0.31576728820800781 0.37565982341766357 0.076404139399528503
0.55716985464096069 0.41837635636329651 0.092108003795146942
0.71176958084106445 0.40997123718261719 0.13865530490875244
0.0049705058336257935 0.41811960935592651 0.11255957186222076
0.033362578600645065 0.46638002991676331 0.12277830392122269
0.30191579461097717 0.5718265175819397 0.1269046813249588
0.6124800443649292 0.64518445730209351 0.11295182257890701
0.8192790150642395 0.65948694944381714 0.15613262355327606
3.0338062060764059e-05 0.5912928581237793 0.17958122491836548
0 0.60807424783706665 0.18408592045307159
0.1860489547252655 0.7131655216217041 0.21917858719825745
0.63542956113815308 0.86748594045639038 0.2632288932800293
0.89424806833267212 0.89435338973999023 0.33820223808288574
0.0068167443387210369 0.046815656125545502 0.15923021733760834
0.12034816294908524 0.074432075023651123 0.16710633039474487
0.27845075726509094 0.10027007758617401 0.1671280711889267
0.44345983862876892 0.10377097129821777 0.18204110860824585
0.55146133899688721 0.080267660319805145 0.18430985510349274
0.0038202772848308086 0.16586938500404358 0.19320888817310333
0.11487925052642822 0.21377119421958923 0.20083938539028168
0.33877801895141602 0.24642761051654816 0.18541604280471802
0.54314345121383667 0.25146964192390442 0.1916859894990921
0.65058320760726929 0.23123514652252197 0.20373411476612091
0.00064392091007903218 0.29236811399459839 0.19440796971321106
0.078589677810668945 0.34495759010314941 0.211991086602211
0.33395698666572571 0.40731441974639893 0.19822266697883606
0.60505443811416626 0.45216724276542664 0.1945873498916626
0.74937587976455688 0.4347153902053833 0.24045723676681519
0.00079894717782735825 0.45073363184928894 0.19624327123165131
0.030981549993157387 0.49337470531463623 0.21006815135478973
0.3056710958480835 0.60210704803466797 0.21386903524398804
0.6347275972366333 0.67563503980636597 0.19359789788722992
0.83622366189956665 0.67108529806137085 0.23878507316112518
0 0.60168939828872681 0.1818428635597229
0 0.62982755899429321 0.19988057017326355
0.166683629155159 0.73463541269302368 0.23268064856529236
0.65697365999221802 0.87635260820388794 0.27225381135940552
0.91271543502807617 0.9073982834815979 0.39993062615394592
0.0018526563653722405 0.050439707934856415 0.24696485698223114
0.084586620330810547 0.063860006630420685 0.26807698607444763
0.24496985971927643 0.08822166919708252 0.288810133934021
0.43544608354568481 0.10891232639551163 0.32912102341651917
0.53877085447311401 0.089463040232658386 0.32829752564430237
0.0011243184562772512 0.15633527934551239 0.29852607846260071
0.0755644291639328 0.20495514571666718 0.32576137781143188
0.30115559697151184 0.24742470681667328 0.33684784173965454
0.53248691558837891 0.24983060359954834 0.35754969716072083
0.6525999903678894 0.23311606049537659 0.36507675051689148
0.0024293188471347094 0.32376396656036377 0.35424742102622986
0.057652819901704788 0.36880627274513245 0.3751259446144104
0.32796883583068848 0.43649905920028687 0.38847431540489197
0.63653796911239624 0.46582424640655518 0.3797546923160553
0.78594648838043213 0.45437330007553101 0.4138602614402771
0 0.51661854982376099 0.40946349501609802
0.014503150247037411 0.55060458183288574 0.40933340787887573
0.26607957482337952 0.64075738191604614 0.41248267889022827
0.67629772424697876 0.71840184926986694 0.40285769104957581
0.87832784652709961 0.71269375085830688 0.46876204013824463
0 0.67281949520111084 0.39805972576141357
0.00083948770770803094 0.71315526962280273 0.42986568808555603
0.14659701287746429 0.80495846271514893 0.48830801248550415
0.68797796964645386 0.92605483531951904 0.54672938585281372
0.96741163730621338 0.95793634653091431 0.66428196430206299
0.000247955322265625 0.028843255713582039 0.35135358572006226
0.05852203443646431 0.05100606381893158 0.37918898463249207
0.22425849735736847 0.090868555009365082 0.42507466673851013
0.42486584186553955 0.11428897082805634 0.48036989569664001
0.55923813581466675 0.10767367482185364 0.49509534239768982
0 0.13598713278770447 0.4116453230381012
0.051248542964458466 0.16421838104724884 0.44183629751205444
0.2743678092956543 0.21649137139320374 0.49472090601921082
0.48802399635314941 0.22438734769821167 0.52367156744003296
0.60557883977890015 0.18866385519504547 0.50559878349304199
0 0.32401332259178162 0.50187253952026367
0.032677669078111649 0.37323448061943054 0.53361761569976807
0.28222158551216125 0.43719026446342468 0.58837807178497314
0.59999316930770874 0.46887069940567017 0.61304956674575806
0.77882862091064453 0.46710500121116638 0.60997945070266724
0 0.55770641565322876 0.59751588106155396
0.0026768255047500134 0.58865028619766235 0.60758471488952637
0.1979852169752121 0.67827171087265015 0.659648597240448
0.67814105749130249 0.762565016746521 0.70757913589477539
0.93340766429901123 0.77984684705734253 0.75644379854202271
0 0.74607306718826294 0.64937078952789307
0.0010482189245522022 0.78564333915710449 0.67710667848587036
0.22345757484436035 0.88911682367324829 0.7483019232749939
0.74794501066207886 0.9701961874961853 0.85077190399169922
0.99060070514678955 0.98533773422241211 0.91170030832290649
0.0034390767104923725 0.024507949128746986 0.44452711939811707
0.058338239789009094 0.042094241827726364 0.48016878962516785
0.20649614930152893 0.095586366951465607 0.53395116329193115
0.41050255298614502 0.12177460640668869 0.59055525064468384
0.56329387426376343 0.13544920086860657 0.62843334674835205
0.0019125096732750535 0.10307901352643967 0.49174216389656067
0.060608778148889542 0.13276468217372894 0.53881639242172241
0.29101017117500305 0.20270222425460815 0.61289781332015991
0.43200638890266418 0.18050503730773926 0.61959743499755859
0.59421253204345703 0.17521633207798004 0.64497965574264526
0.00049454934196546674 0.27771499752998352 0.58108699321746826
0.023750290274620056 0.32313540577888489 0.62599188089370728
0.23149523138999939 0.37414783239364624 0.68236517906188965
0.50960767269134521 0.38537609577178955 0.72535067796707153
0.71293443441390991 0.37599220871925354 0.74587804079055786
0 0.55502671003341675 0.70296192169189453
0.00013127046986483037 0.57205080986022949 0.72185271978378296
0.15059344470500946 0.65333181619644165 0.78209930658340454
0.62838190793991089 0.75217247009277344 0.87126064300537109
0.93819797039031982 0.83800941705703735 0.93337714672088623
0.0045674340799450874 0.77905863523483276 0.79675912857055664
0.010257765650749207 0.80469983816146851 0.81175756454467773
0.19691330194473267 0.86499470472335815 0.84654504060745239
0.78384041786193848 0.98711031675338745 0.96732801198959351
0.99708908796310425 0.99648571014404297 0.99774914979934692
