assets/lut/abigailgonzalez goldengate.cube
# Created by: G'MIC (https://gmic.eu)
TITLE "goldengate"
# LUT size
LUT_3D_SIZE 5
# Data domain
DOMAIN_MIN 0.0 0.0 0.0
DOMAIN_MAX 1.0 1.0 1.0
# LUT data points
0.03336060419678688 0.044167924672365189 0.052464399486780167
0.23733800649642944 0.042274639010429382 0.0092095173895359039
0.43748602271080017 0.023644166067242622 0
0.55672609806060791 0.0050649605691432953 0
0.59117060899734497 0.0010110294679179788 0
0.069220148026943207 0.1502658873796463 0.038317721337080002
0.26340308785438538 0.18288931250572205 0.012846030294895172
0.49811854958534241 0.17700617015361786 0.0014457552460953593
0.65010702610015869 0.14563614130020142 0
0.69005346298217773 0.14797833561897278 0
0.16948272287845612 0.27158069610595703 0.022876979783177376
0.30509716272354126 0.31440633535385132 0.0067486031912267208
0.51658350229263306 0.3559296727180481 0.0020161946304142475
0.71029627323150635 0.34262889623641968 0
0.77485412359237671 0.36798050999641418 7.234461372718215e-05
0.27059680223464966 0.39854368567466736 0.0032755981665104628
0.34173524379730225 0.43808570504188538 0.0011412976309657097
0.55113446712493896 0.51395720243453979 0.00014738195750396699
0.74166309833526611 0.5122026801109314 0
0.8255537748336792 0.53601336479187012 0
0.28956565260887146 0.40744847059249878 0
0.36029383540153503 0.44811654090881348 0
0.57145094871520996 0.52132612466812134 0
0.77502447366714478 0.55298316478729248 0
0.85155218839645386 0.62462830543518066 0.001749883871525526
0.024591423571109772 0.067640773952007294 0.23609332740306854
0.18773652613162994 0.06472441554069519 0.16270092129707336
0.38745599985122681 0.04317270964384079 0.081683248281478882
0.5528225302696228 0.022025508806109428 0.021961286664009094
0.59163981676101685 0.016810158267617226 0.0050002303905785084
0.027342956513166428 0.17616263031959534 0.29457858204841614
0.1838001012802124 0.19558602571487427 0.20536600053310394
0.42335957288742065 0.19343100488185883 0.10399840027093887
0.64256936311721802 0.16882537305355072 0.028588388115167618
0.70024430751800537 0.16164937615394592 0.0037480671890079975
0.074073821306228638 0.31706118583679199 0.2727634608745575
0.20598064363002777 0.33736929297447205 0.19515228271484375
0.45204037427902222 0.36961144208908081 0.098674967885017395
0.70259010791778564 0.37857383489608765 0.023764636367559433
0.79314565658569336 0.41367509961128235 0.00091938691912218928
0.13881136476993561 0.4485420286655426 0.16782046854496002
0.25674515962600708 0.47352147102355957 0.12106330692768097
0.49838763475418091 0.54189962148666382 0.064070053398609161
0.73268812894821167 0.58048069477081299 0.011941004544496536
0.84570586681365967 0.63444477319717407 0.0023602803703397512
0.14384730160236359 0.4848349392414093 0.068679645657539368
0.2699914276599884 0.52274990081787109 0.030072964727878571
0.53687775135040283 0.62721240520477295 0.022627392783761024
0.76809614896774292 0.71139132976531982 0.010492840781807899
0.87731790542602539 0.78750848770141602 0.054165501147508621
0.019663417711853981 0.10303793847560883 0.4645313024520874
0.15638060867786407 0.090873569250106812 0.40368101000785828
0.362408846616745 0.083034887909889221 0.32442751526832581
0.56009441614151001 0.053183283656835556 0.20965194702148438
0.62390989065170288 0.021867146715521812 0.13874179124832153
0.015871653333306313 0.1867516040802002 0.55445784330368042
0.14215439558029175 0.21633079648017883 0.50139284133911133
0.3713269829750061 0.23282776772975922 0.40274494886398315
0.65717053413391113 0.21897852420806885 0.25807371735572815
0.76018339395523071 0.2075808048248291 0.16994388401508331
0.032547850161790848 0.35132858157157898 0.6461021900177002
0.1587522029876709 0.38476353883743286 0.57174265384674072
0.41899937391281128 0.41634112596511841 0.43606504797935486
0.71920520067214966 0.44495666027069092 0.2800813615322113
0.85722249746322632 0.46928584575653076 0.16513757407665253
0.044828273355960846 0.50847339630126953 0.62795752286911011
0.15492329001426697 0.5337563157081604 0.55613446235656738
0.44964972138404846 0.60108250379562378 0.42135912179946899
0.75181692838668823 0.66743975877761841 0.27487915754318237
0.90123111009597778 0.72669154405593872 0.17968668043613434
0.027608385309576988 0.55156201124191284 0.49370089173316956
0.21005202829837799 0.62998992204666138 0.42426180839538574
0.52628022432327271 0.73153090476989746 0.33017587661743164
0.80888468027114868 0.82784950733184814 0.28118783235549927
0.92794907093048096 0.88625365495681763 0.36525276303291321
0.010870525613427162 0.099321745336055756 0.65874361991882324
0.10567618161439896 0.095985844731330872 0.62900072336196899
0.29101064801216125 0.085333943367004395 0.56754171848297119
0.52750808000564575 0.076342381536960602 0.44931954145431519
0.63463449478149414 0.028518706560134888 0.35056635737419128
0.012497367337346077 0.19438844919204712 0.81293302774429321
0.11308393627405167 0.22096939384937286 0.78671854734420776
0.33564436435699463 0.24833017587661743 0.7271391749382019
0.6204649806022644 0.25843366980552673 0.58754611015319824
0.78802621364593506 0.2431391179561615 0.47443702816963196
0.01027978677302599 0.34117311239242554 0.92698532342910767
0.11389050632715225 0.39361512660980225 0.91228616237640381
0.38071131706237793 0.44713321328163147 0.82005548477172852
0.71425479650497437 0.50827229022979736 0.6802716851234436
0.91195833683013916 0.53604841232299805 0.54469269514083862
0.015960169956088066 0.54123377799987793 0.98131847381591797
0.094495721161365509 0.5828927755355835 0.96622389554977417
0.42253386974334717 0.66502374410629272 0.87696844339370728
0.77978891134262085 0.75653856992721558 0.74254763126373291
0.96375399827957153 0.84129077196121216 0.66748982667922974
0.0051103928126394749 0.60329097509384155 0.95644164085388184
0.12781640887260437 0.71722692251205444 0.95560407638549805
0.5550035834312439 0.83180791139602661 0.87090486288070679
0.8429797887802124 0.91784662008285522 0.83329254388809204
0.99013131856918335 0.97034460306167603 0.80184090137481689
0.01068007480353117 0.082492485642433167 0.73931074142456055
0.089705958962440491 0.073394358158111572 0.71749132871627808
0.27570590376853943 0.07905520498752594 0.72539407014846802
0.4699397087097168 0.041862219572067261 0.61851698160171509
0.60120820999145508 0.0027626038063317537 0.52861469984054565
0.0062298495322465897 0.16213634610176086 0.89864140748977661
0.099664308130741119 0.21006742119789124 0.92660748958587646
0.43544930219650269 0.31312727928161621 0.95463120937347412
0.59766459465026855 0.24259120225906372 0.83562982082366943
0.74383670091629028 0.18838045001029968 0.71616113185882568
0.0027722974773496389 0.33075326681137085 0.98816382884979248
0.086527369916439056 0.39307233691215515 1
0.35392600297927856 0.44934409856796265 0.99642735719680786
0.63726401329040527 0.44719931483268738 0.95742392539978027
0.88769012689590454 0.54414409399032593 0.86002177000045776
0.0013840618776157498 0.4907221794128418 0.99711966514587402
0.058813970535993576 0.57628870010375977 0.99971061944961548
0.4036058783531189 0.68400132656097412 1
0.77019208669662476 0.80598151683807373 0.99592190980911255
0.97594517469406128 0.91695445775985718 0.96901845932006836
0.0033058763947337866 0.62683039903640747 0.99978005886077881
0.1379295289516449 0.77051806449890137 0.99278151988983154
0.59502953290939331 0.88625574111938477 1
0.87180823087692261 0.96539461612701416 1
0.99576437473297119 0.99797189235687256 0.99515384435653687
