assets/lut/abigailgonzalez cinema 04.cube
# Created by: G'MIC (https://gmic.eu)
TITLE "cinema_4"
# LUT size
LUT_3D_SIZE 7
# Data domain
DOMAIN_MIN 0.0 0.0 0.0
DOMAIN_MAX 1.0 1.0 1.0
# LUT data points
0.0060533410869538784 0.0065430435352027416 0.0051194732077419758
0.095477521419525146 0.01394277811050415 0.010692685842514038
0.25894632935523987 0.023930823430418968 0.021484538912773132
0.42874181270599365 0.038078278303146362 0.038074091076850891
0.60652101039886475 0.039231467992067337 0.043719720095396042
0.79025882482528687 0.046395067125558853 0.049053911119699478
0.94183623790740967 0.048818551003932953 0.056920744478702545
0.014053434133529663 0.09444369375705719 0.015837457031011581
0.10349749028682709 0.099209249019622803 0.019296862185001373
0.26983410120010376 0.10486838966608047 0.027644498273730278
0.43174833059310913 0.10535506904125214 0.040398601442575455
0.60791206359863281 0.10838576406240463 0.054949861019849777
0.80262953042984009 0.12872903048992157 0.068355634808540344
0.93821972608566284 0.1355096846818924 0.078166738152503967
0.027928760275244713 0.26705077290534973 0.029357625171542168
0.1105072945356369 0.27375763654708862 0.030357988551259041
0.27352234721183777 0.27553567290306091 0.035452958196401596
0.43640059232711792 0.26373666524887085 0.044646557420492172
0.61146402359008789 0.27244976162910461 0.060594595968723297
0.8128969669342041 0.29606842994689941 0.078157134354114532
0.94456171989440918 0.29089367389678955 0.0917930006980896
0.048810411244630814 0.42762717604637146 0.043946810066699982
0.12371140718460083 0.43132820725440979 0.043287314474582672
0.26780274510383606 0.43420913815498352 0.048528485000133514
0.43831086158752441 0.43401113152503967 0.05455741286277771
0.61511105298995972 0.44279763102531433 0.066951602697372437
0.80936950445175171 0.47050398588180542 0.085452601313591003
0.94315308332443237 0.46008512377738953 0.10176150500774384
0.064672239124774933 0.60318803787231445 0.061351072043180466
0.13478982448577881 0.60780501365661621 0.065792620182037354
0.27471193671226501 0.61071521043777466 0.072088651359081268
0.45106974244117737 0.61187577247619629 0.074870258569717407
0.63226485252380371 0.61947888135910034 0.081968985497951508
0.82210636138916016 0.64505016803741455 0.093824438750743866
0.94923478364944458 0.62202644348144531 0.10154514759778976
0.078827723860740662 0.80292963981628418 0.072805412113666534
0.15444844961166382 0.80942767858505249 0.089137613773345947
0.30321943759918213 0.80897730588912964 0.094275712966918945
0.48782551288604736 0.81284028291702271 0.096429936587810516
0.65261292457580566 0.80724084377288818 0.09705575555562973
0.81545239686965942 0.80600231885910034 0.098160520195960999
0.93966716527938843 0.77285796403884888 0.097190290689468384
0.088271692395210266 0.95837289094924927 0.071201160550117493
0.17929325997829437 0.95878970623016357 0.084065742790699005
0.31784924864768982 0.95346188545227051 0.090809978544712067
0.48238149285316467 0.95431506633758545 0.097079046070575714
0.63596904277801514 0.94966977834701538 0.10210990160703659
0.78774917125701904 0.9454493522644043 0.10339071601629257
0.9264833927154541 0.92676347494125366 0.099254444241523743
0.012745950371026993 0.010224824771285057 0.073849305510520935
0.09712422639131546 0.014072492718696594 0.07865200936794281
0.26561316847801208 0.026149973273277283 0.082879863679409027
0.43372559547424316 0.039259698241949081 0.090105153620243073
0.60693967342376709 0.052117664366960526 0.099837854504585266
0.79833334684371948 0.068893164396286011 0.11544036865234375
0.95382869243621826 0.073367699980735779 0.12798099219799042
0.015282784588634968 0.097211845219135284 0.085091203451156616
0.1031915694475174 0.10219445079565048 0.085014328360557556
0.27406483888626099 0.11391683667898178 0.095471158623695374
0.43322134017944336 0.11996856331825256 0.10256006568670273
0.61027294397354126 0.12783220410346985 0.11859457194805145
0.80310523509979248 0.14555066823959351 0.13747644424438477
0.94510293006896973 0.15235184133052826 0.14640103280544281
0.029887525364756584 0.26956841349601746 0.096610724925994873
0.11954052746295929 0.27397862076759338 0.097531937062740326
0.27966752648353577 0.28133717179298401 0.10814613103866577
0.43872317671775818 0.27845278382301331 0.11480714380741119
0.61339342594146729 0.28464773297309875 0.12682318687438965
0.81001156568527222 0.30563858151435852 0.143731489777565
0.9549831748008728 0.30826577544212341 0.15705111622810364
0.044726338237524033 0.42766177654266357 0.1044713482260704
0.12957872450351715 0.42902326583862305 0.10716759413480759
0.28135716915130615 0.43529412150382996 0.12237360328435898
0.44154781103134155 0.43529412150382996 0.12513807415962219
0.61717754602432251 0.44859099388122559 0.13506150245666504
0.81338560581207275 0.47877931594848633 0.15260560810565948
0.95672619342803955 0.474141925573349 0.1701437383890152
0.066127151250839233 0.60572177171707153 0.12018302828073502
0.14555497467517853 0.60495889186859131 0.1259397566318512
0.29377689957618713 0.61244922876358032 0.1441093385219574
0.45822986960411072 0.61278820037841797 0.1448429673910141
0.63686352968215942 0.62676513195037842 0.15304277837276459
0.8229253888130188 0.64904499053955078 0.165133997797966
0.9516456127166748 0.6286434531211853 0.1764388382434845
0.095131814479827881 0.80787962675094604 0.14076094329357147
0.17877575755119324 0.80565714836120605 0.15306970477104187
0.32168853282928467 0.80882328748703003 0.16649140417575836
0.49098876118659973 0.81061303615570068 0.16865019500255585
0.65931767225265503 0.81439870595932007 0.16769178211688995
0.824390709400177 0.81679034233093262 0.16853596270084381
0.95217067003250122 0.79106819629669189 0.17279323935508728
0.10295869410037994 0.95359206199645996 0.14643946290016174
0.19720301032066345 0.95119887590408325 0.15641127526760101
0.33275562524795532 0.94888007640838623 0.16732478141784668
0.48974451422691345 0.94938725233078003 0.17291396856307983
0.64185518026351929 0.94653832912445068 0.17126193642616272
0.80302232503890991 0.95593804121017456 0.17343811690807343
0.94723862409591675 0.94903939962387085 0.17820720374584198
0.016220062971115112 0.011323726736009121 0.19994057714939117
0.095955118536949158 0.015553044155240059 0.20421041548252106
0.25456038117408752 0.023512642830610275 0.2025839239358902
0.42867487668991089 0.035379447042942047 0.20145198702812195
0.61059176921844482 0.051908470690250397 0.21357651054859161
0.79661530256271362 0.071387425065040588 0.2300584614276886
0.94763904809951782 0.07471071183681488 0.23727504909038544
0.024181187152862549 0.09388434886932373 0.20822034776210785
0.10732263326644897 0.10650094598531723 0.21346114575862885
0.26986226439476013 0.11433325707912445 0.2194630354642868
0.43298149108886719 0.12766318023204803 0.22090686857700348
0.61555385589599609 0.14614355564117432 0.23554585874080658
0.80577594041824341 0.16230751574039459 0.25420185923576355
0.94456714391708374 0.16463503241539001 0.25163549184799194
0.034045889973640442 0.26249697804450989 0.2089126855134964
0.12403516471385956 0.27272078394889832 0.2165532261133194
0.2855936586856842 0.28582733869552612 0.23263806104660034
0.44670245051383972 0.29513657093048096 0.24316674470901489
0.62452715635299683 0.30917879939079285 0.25448256731033325
0.82057702541351318 0.32333475351333618 0.27142125368118286
0.96418362855911255 0.32154327630996704 0.27457040548324585
0.046616543084383011 0.42236208915710449 0.21081939339637756
0.1422586590051651 0.42836955189704895 0.22179619967937469
0.29912272095680237 0.43817564845085144 0.24561421573162079
0.45302137732505798 0.44225788116455078 0.25262153148651123
0.62450236082077026 0.45828622579574585 0.26157954335212708
0.81972223520278931 0.48501890897750854 0.27540689706802368
0.96539038419723511 0.48293665051460266 0.28491351008415222
0.070716693997383118 0.60007613897323608 0.22845245897769928
0.16530773043632507 0.60806715488433838 0.24213661253452301
0.31803050637245178 0.61729353666305542 0.26651385426521301
0.47158095240592957 0.61770856380462646 0.26976186037063599
0.63492769002914429 0.62495458126068115 0.27548554539680481
0.81790679693222046 0.6460191011428833 0.28080013394355774
0.95112138986587524 0.63204002380371094 0.28900277614593506
0.10189425945281982 0.80379694700241089 0.25738579034805298
0.20096197724342346 0.81102454662322998 0.26910865306854248
0.34559917449951172 0.82221388816833496 0.28722098469734192
0.502513587474823 0.81901967525482178 0.28776940703392029
0.66629302501678467 0.8248058557510376 0.28461650013923645
0.82713955640792847 0.82237023115158081 0.28421893715858459
0.95457273721694946 0.79847437143325806 0.28940066695213318
0.11530676484107971 0.95176130533218384 0.26176154613494873
0.21743622422218323 0.95549088716506958 0.27181780338287354
0.35330536961555481 0.96127092838287354 0.28746575117111206
0.50208711624145508 0.953388512134552 0.29059016704559326
0.65511882305145264 0.95674300193786621 0.289581298828125
0.80451619625091553 0.95550030469894409 0.29588299989700317
0.94497346878051758 0.94840538501739502 0.2996317446231842
0.027363721281290054 0.025890873745083809 0.36013662815093994
0.095529191195964813 0.031315494328737259 0.3670346736907959
0.24598789215087891 0.036328736692667007 0.36279144883155823
0.42583808302879333 0.037569321691989899 0.36078402400016785
0.61144232749938965 0.044344402849674225 0.37569242715835571
0.79673463106155396 0.068100735545158386 0.39390608668327332
0.946155846118927 0.07298964262008667 0.39433157444000244
0.033103972673416138 0.092602044343948364 0.36371931433677673
0.11086785048246384 0.11625944823026657 0.3651287853717804
0.2630780041217804 0.13019078969955444 0.36989995837211609
0.43180346488952637 0.1371181309223175 0.37205809354782104
0.61260402202606201 0.1477581262588501 0.38681796193122864
0.80284410715103149 0.17088799178600311 0.40902918577194214
0.94608485698699951 0.17391252517700195 0.40498843789100647
0.040638402104377747 0.24908000230789185 0.36251404881477356
0.13190020620822906 0.27034404873847961 0.36635145545005798
0.28970730304718018 0.29034486413002014 0.37823003530502319
0.44924390316009521 0.30274158716201782 0.38664743304252625
0.62693041563034058 0.3172723650932312 0.40354526042938232
0.82447510957717896 0.33396241068840027 0.43093660473823547
0.96808147430419922 0.33154606819152832 0.42974367737770081
0.047743074595928192 0.42164239287376404 0.3650662899017334
0.14239965379238129 0.42829319834709167 0.37114256620407104
0.30378296971321106 0.44321021437644958 0.38808563351631165
0.46083265542984009 0.45326706767082214 0.39872035384178162
0.63423067331314087 0.46862152218818665 0.41272270679473877
0.8291059136390686 0.49123877286911011 0.43238732218742371
0.97164064645767212 0.49276807904243469 0.43650290369987488
0.067681029438972473 0.60531985759735107 0.38690102100372314
0.15968780219554901 0.60732173919677734 0.39270737767219543
0.32022541761398315 0.61990064382553101 0.41229918599128723
0.47957482933998108 0.6242249608039856 0.42076537013053894
0.64623236656188965 0.63451457023620605 0.42286029458045959
0.82729226350784302 0.64948052167892456 0.42840534448623657
0.96052640676498413 0.64081758260726929 0.43380823731422424
0.1061420813202858 0.81201541423797607 0.41852867603302002
0.20562969148159027 0.81292867660522461 0.4237481951713562
0.35259741544723511 0.8259778618812561 0.43917843699455261
0.50475567579269409 0.82684230804443359 0.43797752261161804
0.6685488224029541 0.83222067356109619 0.43235841393470764
0.84000837802886963 0.83463829755783081 0.43126720190048218
0.96203321218490601 0.80245429277420044 0.43610209226608276
0.1260809451341629 0.9566352367401123 0.41140025854110718
0.22721727192401886 0.95914536714553833 0.4210437536239624
0.36152204871177673 0.96720534563064575 0.43513444066047668
0.50892895460128784 0.96544426679611206 0.43754163384437561
0.66627687215805054 0.97175312042236328 0.43900933861732483
0.82201862335205078 0.97320586442947388 0.44399657845497131
0.95012086629867554 0.95587146282196045 0.44640764594078064
0.043059747666120529 0.039020851254463196 0.55292946100234985
0.11955738812685013 0.039622526615858078 0.56120002269744873
0.2622033953666687 0.042277630418539047 0.55714410543441772
0.43863272666931152 0.04245612770318985 0.55764627456665039
0.62202882766723633 0.04578043520450592 0.56898486614227295
0.80858415365219116 0.072946749627590179 0.58699941635131836
0.95353329181671143 0.075956620275974274 0.57466965913772583
0.046060014516115189 0.10322070866823196 0.55798429250717163
0.12904423475265503 0.12560564279556274 0.55928945541381836
0.27789664268493652 0.14104188978672028 0.5600210428237915
0.44620183110237122 0.14304891228675842 0.5623963475227356
0.6186484694480896 0.14664681255817413 0.57019716501235962
0.80341440439224243 0.17055186629295349 0.58931857347488403
0.94740563631057739 0.17651441693305969 0.5774085521697998
0.05435803160071373 0.260955810546875 0.56156855821609497
0.14942486584186554 0.28502228856086731 0.56281489133834839
0.30389928817749023 0.30535659193992615 0.5663486123085022
0.46115556359291077 0.30997437238693237 0.56937134265899658
0.63229268789291382 0.32096511125564575 0.58234649896621704
0.82565599679946899 0.33706825971603394 0.61159354448318481
0.96743619441986084 0.33683925867080688 0.6021454930305481
0.059232331812381744 0.43586418032646179 0.56375640630722046
0.15710413455963135 0.44545605778694153 0.56523305177688599
0.31521344184875488 0.45869410037994385 0.57072120904922485
0.47156837582588196 0.46597254276275635 0.58282959461212158
0.64746814966201782 0.47625619173049927 0.5963742733001709
0.83747106790542603 0.49282008409500122 0.61577558517456055
0.97280114889144897 0.50011438131332397 0.60972827672958374
0.073678426444530487 0.61088234186172485 0.57463306188583374
0.1698821634054184 0.61607187986373901 0.57847273349761963
0.32730647921562195 0.62619972229003906 0.58809560537338257
0.48518583178520203 0.63832253217697144 0.60017478466033936
0.65795087814331055 0.64360785484313965 0.60435086488723755
0.84099680185317993 0.65207177400588989 0.60975879430770874
0.96687722206115723 0.65553480386734009 0.60890340805053711
0.10857710242271423 0.80893009901046753 0.59436827898025513
0.20464247465133667 0.80979049205780029 0.59916454553604126
0.3509833812713623 0.82147085666656494 0.61031973361968994
0.50480574369430542 0.83386415243148804 0.61215841770172119
0.67044824361801147 0.84079581499099731 0.61078423261642456
0.84232449531555176 0.83855503797531128 0.61475419998168945
0.96863454580307007 0.81615191698074341 0.62163656949996948
0.12969660758972168 0.94815504550933838 0.57177966833114624
0.22252535820007324 0.94989359378814697 0.58315634727478027
0.35770496726036072 0.96185398101806641 0.59665387868881226
0.51131212711334229 0.96963077783584595 0.59991854429244995
0.67532682418823242 0.97938758134841919 0.61084038019180298
0.83824467658996582 0.98066085577011108 0.62680524587631226
0.9633144736289978 0.96702104806900024 0.62726962566375732
0.051604297012090683 0.054635800421237946 0.75020241737365723
0.13229462504386902 0.055298600345849991 0.75986742973327637
0.27767634391784668 0.055496424436569214 0.75316852331161499
0.45366811752319336 0.057200998067855835 0.75550538301467896
0.63064086437225342 0.055186163634061813 0.75782555341720581
0.81412762403488159 0.076841644942760468 0.77090227603912354
0.95387428998947144 0.075408637523651123 0.74623507261276245
0.056104697287082672 0.12001018226146698 0.7537459135055542
0.14243961870670319 0.13925047218799591 0.75876379013061523
0.29313227534294128 0.15267828106880188 0.75625157356262207
0.46673712134361267 0.15278209745883942 0.763008713722229
0.63421893119812012 0.15785138309001923 0.76403957605361938
0.80597293376922607 0.17511937022209167 0.76706409454345703
0.9425654411315918 0.17564527690410614 0.74114894866943359
0.070037558674812317 0.27748420834541321 0.75881087779998779
0.16693779826164246 0.30348891019821167 0.76496726274490356
0.31892600655555725 0.32049348950386047 0.76761728525161743
0.4822792112827301 0.31894475221633911 0.77169394493103027
0.6548040509223938 0.3304775059223175 0.7813836932182312
0.83137863874435425 0.34391221404075623 0.79089683294296265
0.96860998868942261 0.34336093068122864 0.77034270763397217
0.076326481997966766 0.45781666040420532 0.76403820514678955
0.17586104571819305 0.46850806474685669 0.76549923419952393
0.32903608679771423 0.48273351788520813 0.77601838111877441
0.48847147822380066 0.4833868145942688 0.78490144014358521
0.66104328632354736 0.48977348208427429 0.78750288486480713
0.84050607681274414 0.49774110317230225 0.7948688268661499
0.97395026683807373 0.50196081399917603 0.77753472328186035
0.08436642587184906 0.62690937519073486 0.76742756366729736
0.18151284754276276 0.63320291042327881 0.76833128929138184
0.33896183967590332 0.64458823204040527 0.77805835008621216
0.49750012159347534 0.65587103366851807 0.79285186529159546
0.66510146856307983 0.65589553117752075 0.79693186283111572
0.84759140014648438 0.65867882966995239 0.79952043294906616
0.97417557239532471 0.66729998588562012 0.78243470191955566
0.11193715780973434 0.81340378522872925 0.77435940504074097
0.20212726294994354 0.81788212060928345 0.7770005464553833
0.35380220413208008 0.82715505361557007 0.78747189044952393
0.51133912801742554 0.83213841915130615 0.79357528686523438
0.6737094521522522 0.8393053412437439 0.80112314224243164
0.85312622785568237 0.85210597515106201 0.81225824356079102
0.97793561220169067 0.84845161437988281 0.80989384651184082
0.13098247349262238 0.95177143812179565 0.74542129039764404
0.22324506938457489 0.95381039381027222 0.75268816947937012
0.36037647724151611 0.96315532922744751 0.76419448852539062
0.51656758785247803 0.9662819504737854 0.76914083957672119
0.68161159753799438 0.98272579908370972 0.79278993606567383
0.85829359292984009 0.98414713144302368 0.82198256254196167
0.98105841875076294 0.98051059246063232 0.81691086292266846
0.067921973764896393 0.064728498458862305 0.88915979862213135
0.14366255700588226 0.05940285325050354 0.89380079507827759
0.28364279866218567 0.069017805159091949 0.89567291736602783
0.45304805040359497 0.074457146227359772 0.9018358588218689
0.61764621734619141 0.062920980155467987 0.897125244140625
0.79046833515167236 0.071442611515522003 0.90231698751449585
0.94300746917724609 0.078542150557041168 0.89042001962661743
0.067790806293487549 0.12982025742530823 0.88995444774627686
0.15140326321125031 0.1443808525800705 0.88847476243972778
0.29786926507949829 0.16817328333854675 0.88973361253738403
0.46229001879692078 0.17533811926841736 0.89756828546524048
0.61808514595031738 0.16725839674472809 0.89367067813873291
0.78525787591934204 0.17731994390487671 0.89658886194229126
0.93977189064025879 0.1912418007850647 0.88991934061050415
0.081051528453826904 0.26855072379112244 0.88947564363479614
0.18155840039253235 0.29807907342910767 0.89517015218734741
0.33098980784416199 0.32854998111724854 0.8985862135887146
0.48201677203178406 0.33165755867958069 0.90153700113296509
0.64179593324661255 0.33381226658821106 0.9071083664894104
0.81036376953125 0.34183010458946228 0.91563361883163452
0.95611554384231567 0.34742683172225952 0.90591311454772949
0.085094675421714783 0.44160711765289307 0.89086639881134033
0.1827733963727951 0.45640534162521362 0.89682257175445557
0.33580219745635986 0.48066425323486328 0.90761905908584595
0.49285098910331726 0.48985034227371216 0.9116327166557312
0.65353906154632568 0.49513927102088928 0.91328829526901245
0.81909698247909546 0.49805536866188049 0.91866165399551392
0.95631146430969238 0.49803921580314636 0.90780770778656006
0.084938094019889832 0.60621964931488037 0.89632940292358398
0.17542187869548798 0.60885870456695557 0.89282852411270142
0.3415161669254303 0.62963944673538208 0.90430736541748047
0.50482702255249023 0.64195489883422852 0.91509461402893066
0.66268354654312134 0.65307092666625977 0.91673117876052856
0.83396679162979126 0.66715157032012939 0.92334574460983276
0.97400796413421631 0.66914290189743042 0.92383968830108643
0.10566113144159317 0.76804810762405396 0.89068543910980225
0.2021956592798233 0.78366219997406006 0.89833468198776245
0.35769385099411011 0.79319268465042114 0.90366196632385254
0.51674550771713257 0.79962950944900513 0.91306591033935547
0.67535030841827393 0.81434005498886108 0.92272192239761353
0.85892689228057861 0.85091257095336914 0.93079018592834473
0.9855460524559021 0.86433923244476318 0.9359668493270874
0.12853541970252991 0.92105942964553833 0.87566816806793213
0.22986601293087006 0.9322318434715271 0.88559138774871826
0.36840870976448059 0.94228655099868774 0.89513939619064331
0.52200031280517578 0.95341110229492188 0.90728271007537842
0.68404150009155273 0.97774893045425415 0.92943906784057617
0.85977023839950562 0.98820316791534424 0.94160842895507812
0.98433190584182739 0.98926573991775513 0.9386252760887146
