assets/lut/abigailgonzalez cinema.cube
# Created by: G'MIC (https://gmic.eu)
TITLE "cinema"
# LUT size
LUT_3D_SIZE 7
# Data domain
DOMAIN_MIN 0.0 0.0 0.0
DOMAIN_MAX 1.0 1.0 1.0
# LUT data points
0.00019621007959358394 0.01018314715474844 0.017179347574710846
0.11954911053180695 0.04105689749121666 0.022743837907910347
0.28211072087287903 0.067170269787311554 0.022449014708399773
0.4370080828666687 0.088131353259086609 0.020792793482542038
0.6172175407409668 0.11909477412700653 0.033887512981891632
0.78988629579544067 0.15745329856872559 0.047950834035873413
0.9295804500579834 0.21367804706096649 0.048880092799663544
0.0025911668781191111 0.11927032470703125 0.040801253169775009
0.16143962740898132 0.12651139497756958 0.023416616022586823
0.35682079195976257 0.13263699412345886 0.017809804528951645
0.52742987871170044 0.15696468949317932 0.013578063808381557
0.70506459474563599 0.20480860769748688 0.020872212946414948
0.85724228620529175 0.2712743878364563 0.023527242243289948
0.97429472208023071 0.34027877449989319 0.017662841826677322
0.00033228256506845355 0.20270875096321106 0.027266319841146469
0.14978714287281036 0.24562051892280579 0.01735452376306057
0.41782534122467041 0.2196027934551239 0.013425505720078945
0.59585648775100708 0.21298679709434509 0.01491699181497097
0.75851994752883911 0.27183613181114197 0.025483328849077225
0.89887905120849609 0.35141828656196594 0.02996927872300148
0.99033558368682861 0.43580871820449829 0.032631009817123413
0.0089307148009538651 0.29096853733062744 0.036587659269571304
0.16701370477676392 0.34418487548828125 0.021257692947983742
0.43009772896766663 0.38493382930755615 0.030793895944952965
0.65253829956054688 0.33190298080444336 0.023713145405054092
0.80934834480285645 0.35251584649085999 0.02843894250690937
0.92602831125259399 0.43301290273666382 0.039779707789421082
0.99714118242263794 0.52264678478240967 0.054215032607316971
0.021039027720689774 0.39346188306808472 0.049562074244022369
0.19822201132774353 0.46802553534507751 0.036122340708971024
0.45190492272377014 0.53371769189834595 0.03589509055018425
0.65655118227005005 0.57334315776824951 0.062061771750450134
0.82848423719406128 0.5317312479019165 0.05347297340631485
0.94739770889282227 0.55073177814483643 0.059769216924905777
0.99808698892593384 0.62846618890762329 0.080861099064350128
0.065139740705490112 0.52803522348403931 0.068148098886013031
0.28039896488189697 0.61881464719772339 0.053105402737855911
0.50609815120697021 0.677054762840271 0.056551959365606308
0.68702149391174316 0.73861610889434814 0.068986840546131134
0.83201801776885986 0.7738196849822998 0.090953752398490906
0.95330685377120972 0.73349100351333618 0.092649467289447784
0.99953055381774902 0.74371051788330078 0.10128151625394821
0.11504492908716202 0.67650765180587769 0.11245667934417725
0.38680079579353333 0.76670533418655396 0.096925996243953705
0.58349168300628662 0.81062835454940796 0.10330025106668472
0.72862160205841064 0.85596883296966553 0.097004085779190063
0.85996347665786743 0.90117943286895752 0.10890058428049088
0.9503057599067688 0.92386317253112793 0.12423747777938843
1 0.88601750135421753 0.11397670954465866
0 0.031643424183130264 0.10634666681289673
0.063120178878307343 0.060322076082229614 0.10966059565544128
0.22620593011379242 0.085659310221672058 0.11031126230955124
0.38143926858901978 0.11723200231790543 0.11867086589336395
0.5944095253944397 0.1473328024148941 0.11429397016763687
0.79700988531112671 0.1986662745475769 0.11339572072029114
0.94797104597091675 0.26375091075897217 0.10490414500236511
0 0.1160687729716301 0.14950141310691833
0.074290074408054352 0.15095371007919312 0.16095297038555145
0.28556188941001892 0.18559633195400238 0.15454176068305969
0.4827193021774292 0.21663081645965576 0.14310209453105927
0.7038038969039917 0.25482147932052612 0.12180811911821365
0.87391144037246704 0.32332518696784973 0.11679250746965408
0.98264241218566895 0.38644593954086304 0.11312893033027649
0.00094522215658798814 0.24961434304714203 0.21342414617538452
0.072619326412677765 0.27825114130973816 0.18691554665565491
0.33752676844596863 0.28399774432182312 0.13222293555736542
0.55315959453582764 0.29634889960289001 0.13396498560905457
0.74280625581741333 0.36027452349662781 0.12996278703212738
0.89754873514175415 0.44146183133125305 0.12973038852214813
0.99067068099975586 0.52129447460174561 0.14236608147621155
0.0090624941512942314 0.3726561963558197 0.24831540882587433
0.070818059146404266 0.3851836621761322 0.19705997407436371
0.31228676438331604 0.42554262280464172 0.1255287230014801
0.60606712102890015 0.41881215572357178 0.098613053560256958
0.78805983066558838 0.45167875289916992 0.11612412333488464
0.91231751441955566 0.54369235038757324 0.13574923574924469
0.99562364816665649 0.62113529443740845 0.15445058047771454
0.020592886954545975 0.4805242121219635 0.2666572630405426
0.098641686141490936 0.50034582614898682 0.19783540070056915
0.32312524318695068 0.56462568044662476 0.15965838730335236
0.59916561841964722 0.62529712915420532 0.12650273740291595
0.81499576568603516 0.61469405889511108 0.11511129885911942
0.94008046388626099 0.63879960775375366 0.14150731265544891
0.99746823310852051 0.70850414037704468 0.16296420991420746
0.047426097095012665 0.58932006359100342 0.28203809261322021
0.16472405195236206 0.64417856931686401 0.22504544258117676
0.40787234902381897 0.70851784944534302 0.21065765619277954
0.64071345329284668 0.76176327466964722 0.20292013883590698
0.82004320621490479 0.81328713893890381 0.15316595137119293
0.95309191942214966 0.79138696193695068 0.14216171205043793
0.99981510639190674 0.79195231199264526 0.1630890816450119
0.087575428187847137 0.69559794664382935 0.33169910311698914
0.27717840671539307 0.7829633355140686 0.27840736508369446
0.52138388156890869 0.83799487352371216 0.28434208035469055
0.70078295469284058 0.87077558040618896 0.27621829509735107
0.84023231267929077 0.9184914231300354 0.23606191575527191
0.94786882400512695 0.94489651918411255 0.19501814246177673
0.99993181228637695 0.91118055582046509 0.16896572709083557
0 0.071953237056732178 0.19331313669681549
0.015809226781129837 0.092330023646354675 0.19602903723716736
0.12707622349262238 0.11480307579040527 0.18468131124973297
0.3230249285697937 0.13581883907318115 0.17323413491249084
0.53805577754974365 0.17929551005363464 0.185307577252388
0.7492108941078186 0.25314569473266602 0.21715997159481049
0.91958588361740112 0.32858368754386902 0.23634724318981171
1.4361213288793806e-05 0.12665891647338867 0.22800765931606293
0.023592272773385048 0.16055907309055328 0.26422539353370667
0.16129119694232941 0.20371717214584351 0.26396429538726807
0.40842530131340027 0.25606217980384827 0.25417900085449219
0.64365476369857788 0.30973750352859497 0.2610931396484375
0.83741897344589233 0.38573822379112244 0.28606981039047241
0.96842896938323975 0.44396507740020752 0.29572939872741699
0.0023145489394664764 0.20518176257610321 0.2743685245513916
0.036443836987018585 0.25502499938011169 0.3199494481086731
0.18632577359676361 0.30407512187957764 0.32484561204910278
0.47101965546607971 0.36468154191970825 0.31893333792686462
0.70654785633087158 0.43142750859260559 0.3299466073513031
0.87986022233963013 0.49827367067337036 0.33945682644844055
0.98581850528717041 0.55713802576065063 0.35510855913162231
0.019967202097177505 0.35832154750823975 0.37568125128746033
0.063917241990566254 0.42291811108589172 0.41751375794410706
0.18758702278137207 0.46272727847099304 0.36985486745834351
0.52464216947555542 0.48941102623939514 0.29621109366416931
0.75061815977096558 0.53623008728027344 0.33552911877632141
0.89631563425064087 0.61666113138198853 0.37077218294143677
0.99164330959320068 0.67744314670562744 0.37766119837760925
0.0512375608086586 0.55820232629776001 0.51460272073745728
0.083136074244976044 0.57567542791366577 0.47812727093696594
0.20281587541103363 0.59760189056396484 0.39522752165794373
0.52125120162963867 0.65119463205337524 0.32249319553375244
0.79547297954559326 0.67485523223876953 0.28151696920394897
0.92765992879867554 0.70781832933425903 0.32538875937461853
0.99704468250274658 0.76299566030502319 0.34142851829528809
0.076970197260379791 0.69193220138549805 0.58393073081970215
0.11497775465250015 0.68432426452636719 0.49461343884468079
0.29539084434509277 0.72274118661880493 0.41801422834396362
0.58478838205337524 0.77205353975296021 0.39611971378326416
0.80160468816757202 0.82974940538406372 0.32531875371932983
0.94644021987915039 0.83012789487838745 0.23295290768146515
1 0.8300442099571228 0.24746096134185791
0.099051579833030701 0.7939528226852417 0.59118497371673584
0.17606639862060547 0.79178595542907715 0.49565556645393372
0.43157482147216797 0.85176593065261841 0.42239269614219666
0.67345964908599854 0.88654345273971558 0.43109762668609619
0.83108723163604736 0.92805790901184082 0.42556911706924438
0.94307714700698853 0.96335220336914062 0.35626736283302307
0.99949431419372559 0.93189054727554321 0.19947145879268646
0 0.11428355425596237 0.28381064534187317
0.0044110617600381374 0.13074786961078644 0.28433424234390259
0.042198661714792252 0.1515747606754303 0.28170683979988098
0.20454445481300354 0.1716664582490921 0.25763729214668274
0.48222196102142334 0.20228433609008789 0.23282545804977417
0.70954108238220215 0.27397903800010681 0.26848480105400085
0.88355857133865356 0.36530917882919312 0.31784528493881226
0.0021275987382978201 0.16915692389011383 0.33525976538658142
0.026731738820672035 0.2013208270072937 0.37084430456161499
0.077184312045574188 0.22531673312187195 0.37189528346061707
0.28078886866569519 0.27615213394165039 0.34681680798530579
0.58252286911010742 0.33611717820167542 0.3322577178478241
0.78693974018096924 0.42083442211151123 0.38064852356910706
0.93242180347442627 0.49867510795593262 0.43310678005218506
0.0074806814081966877 0.21338300406932831 0.35869789123535156
0.04396369680762291 0.25745183229446411 0.41243800520896912
0.10342619568109512 0.30376279354095459 0.45487266778945923
0.34138283133506775 0.38517600297927856 0.44765424728393555
0.65414685010910034 0.47109803557395935 0.44599893689155579
0.83826529979705811 0.54181480407714844 0.48537316918373108
0.96634113788604736 0.60620266199111938 0.52223795652389526
0.016758667305111885 0.28669187426567078 0.39666905999183655
0.057674303650856018 0.34602934122085571 0.46003428101539612
0.12113087624311447 0.4161064624786377 0.52116316556930542
0.36784416437149048 0.50947469472885132 0.53145593404769897
0.70547282695770264 0.60032510757446289 0.53920358419418335
0.87744826078414917 0.66065526008605957 0.56463956832885742
0.98601269721984863 0.709938645362854 0.57471495866775513
0.050838053226470947 0.47991037368774414 0.54518646001815796
0.089483626186847687 0.55077958106994629 0.60732638835906982
0.14917060732841492 0.6200600266456604 0.64756315946578979
0.39558649063110352 0.67449957132339478 0.58561789989471436
0.76063638925552368 0.72631406784057617 0.51952528953552246
0.91060853004455566 0.76015150547027588 0.55538880825042725
0.99362599849700928 0.80492275953292847 0.56883955001831055
0.092405237257480621 0.69907981157302856 0.72208070755004883
0.11844495683908463 0.73194414377212524 0.73357594013214111
0.2042694091796875 0.76835602521896362 0.70897287130355835
0.50962150096893311 0.79715538024902344 0.59695518016815186
0.79169142246246338 0.84911966323852539 0.53880870342254639
0.93948966264724731 0.86064082384109497 0.45619627833366394
0.99980229139328003 0.86784189939498901 0.48828563094139099
0.12399547547101974 0.84091997146606445 0.82057076692581177
0.158447265625 0.85571438074111938 0.78420048952102661
0.28286799788475037 0.87079179286956787 0.68886071443557739
0.62506306171417236 0.90680783987045288 0.56695479154586792
0.82015889883041382 0.93926042318344116 0.58394593000411987
0.93858867883682251 0.96852481365203857 0.53293126821517944
0.99926626682281494 0.94708770513534546 0.32269683480262756
0.0011465334100648761 0.17192451655864716 0.40676113963127136
0.016702016815543175 0.18485091626644135 0.40176823735237122
0.028915869072079659 0.19459815323352814 0.39645957946777344
0.09769497811794281 0.21697236597537994 0.38477334380149841
0.37952116131782532 0.2467600405216217 0.32803988456726074
0.67627078294754028 0.29328188300132751 0.30617144703865051
0.86165356636047363 0.38427397608757019 0.36657494306564331
0.0088867340236902237 0.22654466331005096 0.458648681640625
0.040109999477863312 0.25698494911193848 0.49831157922744751
0.05936451256275177 0.27345186471939087 0.5029715895652771
0.14806957542896271 0.30464938282966614 0.48700478672981262
0.47989106178283691 0.37382307648658752 0.4363875687122345
0.75313019752502441 0.44229933619499207 0.44385379552841187
0.90630871057510376 0.52553701400756836 0.51387137174606323
0.018639598041772842 0.26549628376960754 0.48783588409423828
0.05295238271355629 0.31030005216598511 0.54557156562805176
0.085434526205062866 0.35025924444198608 0.58852028846740723
0.19590435922145844 0.3958284854888916 0.58513230085372925
0.55388355255126953 0.49432027339935303 0.5485156774520874
0.80816483497619629 0.56672781705856323 0.56668215990066528
0.93990331888198853 0.63549530506134033 0.62740826606750488
0.028150999918580055 0.31036046147346497 0.51726323366165161
0.063662678003311157 0.359669029712677 0.57398074865341187
0.1151135191321373 0.4185844361782074 0.63216143846511841
0.24317458271980286 0.49042615294456482 0.668873131275177
0.63349610567092896 0.61454993486404419 0.65124011039733887
0.85042977333068848 0.68174827098846436 0.66915106773376465
0.96755367517471313 0.73142194747924805 0.70612132549285889
0.047995563596487045 0.40993744134902954 0.57220429182052612
0.085119657218456268 0.47014626860618591 0.6362345814704895
0.1356227695941925 0.53511035442352295 0.69268304109573364
0.27521243691444397 0.62452447414398193 0.74256855249404907
0.70256853103637695 0.74486273527145386 0.72079086303710938
0.89372766017913818 0.79329842329025269 0.72687727212905884
0.98742973804473877 0.82582032680511475 0.74346822500228882
0.08822999894618988 0.59624844789505005 0.71151202917098999
0.12115684896707535 0.65113627910614014 0.75789612531661987
0.16846095025539398 0.7095111608505249 0.80435067415237427
0.33232235908508301 0.78049975633621216 0.81246101856231689
0.73436474800109863 0.86001861095428467 0.74301016330718994
0.92644894123077393 0.88591563701629639 0.70492666959762573
0.99719119071960449 0.89506560564041138 0.71219158172607422
0.12422429770231247 0.77432435750961304 0.85299187898635864
0.1511378288269043 0.81066370010375977 0.87605983018875122
0.20654255151748657 0.85631203651428223 0.89711952209472656
0.39166724681854248 0.91218686103820801 0.84301120042800903
0.78728842735290527 0.95535284280776978 0.73555028438568115
0.93575394153594971 0.97840934991836548 0.70397686958312988
0.99876493215560913 0.9645916223526001 0.61383134126663208
0.01681021973490715 0.24391098320484161 0.55661416053771973
0.033750750124454498 0.25196251273155212 0.55042034387588501
0.047297190874814987 0.25669136643409729 0.53282910585403442
0.078772738575935364 0.26821413636207581 0.51409375667572021
0.23733833432197571 0.31736257672309875 0.49943560361862183
0.6158483624458313 0.34991234540939331 0.40303316712379456
0.8375241756439209 0.42536121606826782 0.45627564191818237
0.028505273163318634 0.29857531189918518 0.60318028926849365
0.055304821580648422 0.32525819540023804 0.63440662622451782
0.076936982572078705 0.34075045585632324 0.6403125524520874
0.11410406976938248 0.35900768637657166 0.63234251737594604
0.33035072684288025 0.42585530877113342 0.60952675342559814
0.69125980138778687 0.48721924424171448 0.56573307514190674
0.88123959302902222 0.55248928070068359 0.60174238681793213
0.037180539220571518 0.33713704347610474 0.62723445892333984
0.06663794070482254 0.37766408920288086 0.67877674102783203
0.094725273549556732 0.41039887070655823 0.71635305881500244
0.14616154134273529 0.43906474113464355 0.72695481777191162
0.4149317741394043 0.52371025085449219 0.70354300737380981
0.76136010885238647 0.58890646696090698 0.67515325546264648
0.92054104804992676 0.64835995435714722 0.70253771543502808
0.046443864703178406 0.37421557307243347 0.65385645627975464
0.07857244461774826 0.42122560739517212 0.70998013019561768
0.11783650517463684 0.46940207481384277 0.75934630632400513
0.19538235664367676 0.52315676212310791 0.7911752462387085
0.52436500787734985 0.63096004724502563 0.78199344873428345
0.81648260354995728 0.69685274362564087 0.7671816349029541
0.94618934392929077 0.74285483360290527 0.78304260969161987
0.060009811073541641 0.4352908730506897 0.68726855516433716
0.094079874455928802 0.48571282625198364 0.74110192060470581
0.13682208955287933 0.53874963521957397 0.78741979598999023
0.24609044194221497 0.60964858531951904 0.8265647292137146
0.62736701965332031 0.7417910099029541 0.84076249599456787
0.87078273296356201 0.80448907613754272 0.82871508598327637
0.97485494613647461 0.83295989036560059 0.83229738473892212
0.085008703172206879 0.54820609092712402 0.75503969192504883
0.115497887134552 0.59233289957046509 0.79142516851425171
0.16089929640293121 0.63842052221298218 0.82437968254089355
0.25796788930892944 0.700641930103302 0.8566405177116394
0.65285396575927734 0.83540147542953491 0.87969589233398438
0.90145260095596313 0.90595537424087524 0.86177170276641846
0.99434196949005127 0.91504025459289551 0.85489428043365479
0.11498276889324188 0.69049769639968872 0.84344774484634399
0.13789021968841553 0.72455072402954102 0.86932122707366943
0.18299250304698944 0.76624083518981934 0.89814299345016479
0.26448991894721985 0.825888991355896 0.93062299489974976
0.60374540090560913 0.93215072154998779 0.9201163649559021
0.90762531757354736 0.98354059457778931 0.8603629469871521
0.99744695425033569 0.97541004419326782 0.80373573303222656
0.035119462758302689 0.32245892286300659 0.70111739635467529
0.050018820911645889 0.32859629392623901 0.69577419757843018
0.066090799868106842 0.33616423606872559 0.68736749887466431
0.084762543439865112 0.34675255417823792 0.67754644155502319
0.1636287122964859 0.38847094774246216 0.67935436964035034
0.49455484747886658 0.45128545165061951 0.65311259031295776
0.805076003074646 0.4896729588508606 0.6059224009513855
0.047768611460924149 0.3731188178062439 0.74103665351867676
0.070445999503135681 0.39686721563339233 0.76634550094604492
0.094153054058551788 0.41502895951271057 0.77758312225341797
0.12204620987176895 0.42801946401596069 0.77023792266845703
0.24558043479919434 0.47819226980209351 0.77107173204421997
0.60719436407089233 0.54580378532409668 0.75950157642364502
0.85641855001449585 0.57632887363433838 0.71404552459716797
0.055369988083839417 0.40928101539611816 0.75913840532302856
0.082708440721035004 0.44314497709274292 0.79963892698287964
0.11049564182758331 0.47163981199264526 0.82876479625701904
0.14075411856174469 0.49188041687011719 0.83528667688369751
0.32238674163818359 0.55933952331542969 0.83216410875320435
0.69227337837219238 0.63316267728805542 0.82443827390670776
0.89863628149032593 0.65039974451065063 0.78565293550491333
0.063751578330993652 0.44253557920455933 0.7785942554473877
0.09306112676858902 0.48259162902832031 0.82119733095169067
0.11805249750614166 0.51799088716506958 0.85638350248336792
0.16483882069587708 0.55388927459716797 0.8762851357460022
0.43903064727783203 0.65492933988571167 0.88833177089691162
0.77175170183181763 0.7269362211227417 0.88249164819717407
0.93390583992004395 0.74048435688018799 0.85652655363082886
0.075729593634605408 0.49075785279273987 0.8056023120880127
0.10805986821651459 0.53902733325958252 0.84878665208816528
0.13939447700977325 0.57855117321014404 0.87919628620147705
0.20100603997707367 0.62407791614532471 0.900726318359375
0.54188722372055054 0.7447168231010437 0.92175948619842529
0.83580237627029419 0.8241349458694458 0.91645520925521851
0.95987862348556519 0.83555871248245239 0.89913994073867798
0.092885129153728485 0.56114023923873901 0.83742344379425049
0.12341197580099106 0.60828429460525513 0.87405192852020264
0.15862400829792023 0.64593970775604248 0.9027361273765564
0.23350009322166443 0.69302511215209961 0.91916722059249878
0.59302955865859985 0.80857294797897339 0.93772053718566895
0.87286281585693359 0.9020044207572937 0.94075000286102295
0.98686152696609497 0.91577446460723877 0.92754340171813965
0.11424434930086136 0.65344423055648804 0.87519079446792603
0.13836541771888733 0.69266206026077271 0.90653926134109497
0.17796233296394348 0.72797369956970215 0.929637610912323
0.27937585115432739 0.77645540237426758 0.94769549369812012
0.60309547185897827 0.88335013389587402 0.97172588109970093
0.88395035266876221 0.97252368927001953 0.96154344081878662
0.99442625045776367 0.99328696727752686 0.93790137767791748
