assets/lut/abigailgonzalez filmic.cube
# Created by: G'MIC (https://gmic.eu)
TITLE "filmic"
# LUT size
LUT_3D_SIZE 7
# Data domain
DOMAIN_MIN 0.0 0.0 0.0
DOMAIN_MAX 1.0 1.0 1.0
# LUT data points
0.024315644055604935 0.045693207532167435 0.062518894672393799
0.13136909902095795 0.057662859559059143 0.056798554956912994
0.37220278382301331 0.043403744697570801 0.02677224762737751
0.60882782936096191 0.019282381981611252 0.02232939749956131
0.70511859655380249 0.0055321934632956982 0.012424394488334656
0.72668975591659546 0.0018344206036999822 0.0021830988116562366
0.74158936738967896 0 0.0011907540028914809
0.011538038030266762 0.09742138534784317 0.064628362655639648
0.098682910203933716 0.10729233920574188 0.051670074462890625
0.35977017879486084 0.11771514266729355 0.018359988927841187
0.62662363052368164 0.090330280363559723 0.015234090387821198
0.73614341020584106 0.063781574368476868 0.017837779596447945
0.76026666164398193 0.056271109730005264 0.021632969379425049
0.76704853773117065 0.055866003036499023 0.0056102825328707695
0.0005250818794593215 0.21886970102787018 0.060639325529336929
0.023574709892272949 0.22700297832489014 0.048143737018108368
0.31737208366394043 0.27663585543632507 0.012767836451530457
0.67879468202590942 0.30040368437767029 0.011306688189506531
0.81805157661437988 0.28975012898445129 0.011091060005128384
0.84575533866882324 0.27939328551292419 0.015170617029070854
0.84678506851196289 0.25482174754142761 0.015756659209728241
0 0.3730282187461853 0.02352561242878437
0 0.38660320639610291 0.018402248620986938
0.17672465741634369 0.47344309091567993 0.012456602416932583
0.6855931282043457 0.57434332370758057 0.011681321077048779
0.91456657648086548 0.5847969651222229 0.016946636140346527
0.96084266901016235 0.57359182834625244 0.015686275437474251
0.96407192945480347 0.54916012287139893 0.01951955072581768
0.0048842933028936386 0.46335753798484802 0.0078524723649024963
0 0.47412097454071045 0.0093721579760313034
0.053110502660274506 0.55770194530487061 0.013988166116178036
0.56409740447998047 0.72128033638000488 0.016717888414859772
0.94093400239944458 0.79816305637359619 0.021652864292263985
0.99987208843231201 0.79332172870635986 0.020580261945724487
0.99993932247161865 0.77930283546447754 0.019482212141156197
0.027170592918992043 0.5005754828453064 0.01593545638024807
0.0029307946097105742 0.51323133707046509 0.021659776568412781
0.013280636630952358 0.58055788278579712 0.02184041403234005
0.41071519255638123 0.73771965503692627 0.022519893944263458
0.89266294240951538 0.86533874273300171 0.024632951244711876
0.99799960851669312 0.87704074382781982 0.026326287537813187
1 0.86927366256713867 0.017951920628547668
0.012804921716451645 0.53516691923141479 0.025672897696495056
0.0013300428399816155 0.54447907209396362 0.021108590066432953
0.00011704388452926651 0.59453946352005005 0.019959708675742149
0.2916998565196991 0.72517907619476318 0.020286649465560913
0.83051067590713501 0.87152886390686035 0.023412982001900673
0.99701195955276489 0.90910464525222778 0.025463404133915901
1 0.90841484069824219 0.021320747211575508
0.019758380949497223 0.041868008673191071 0.15093433856964111
0.12689103186130524 0.04824371263384819 0.1492980420589447
0.3789801299571991 0.025326283648610115 0.13229019939899445
0.62030196189880371 0.010736068710684776 0.11731486767530441
0.71801799535751343 0.016437215730547905 0.10545947402715683
0.74124252796173096 0.020958799868822098 0.096077457070350647
0.75617498159408569 0.0029497332870960236 0.092559978365898132
0.0074852141551673412 0.1030435785651207 0.14119081199169159
0.082256823778152466 0.11056859791278839 0.13671977818012238
0.35258728265762329 0.10491444915533066 0.11007560044527054
0.62763673067092896 0.072577394545078278 0.085444308817386627
0.73551410436630249 0.047246985137462616 0.072925463318824768
0.76463061571121216 0.05337747186422348 0.070915773510932922
0.77355706691741943 0.046062156558036804 0.055649358779191971
0.00079131778329610825 0.23521947860717773 0.13230670988559723
0.02046152763068676 0.23858384788036346 0.11889026314020157
0.29993906617164612 0.27793484926223755 0.074203774333000183
0.6722111701965332 0.28877493739128113 0.037344988435506821
0.81618481874465942 0.26729819178581238 0.02635638602077961
0.84772205352783203 0.26533704996109009 0.033906105905771255
0.84898394346237183 0.24816003441810608 0.035127002745866776
1.1668485967675224e-05 0.3861716091632843 0.082463234663009644
0 0.39465561509132385 0.068485155701637268
0.15839037299156189 0.47219297289848328 0.034454047679901123
0.67773574590682983 0.56970447301864624 0.0024397158995270729
0.91345459222793579 0.57468104362487793 0.0023129032924771309
0.96481382846832275 0.56772148609161377 0.0034890568349510431
0.97258853912353516 0.54871183633804321 0.024499122053384781
0.00046654496691189706 0.46761482954025269 0.051355130970478058
0 0.47813963890075684 0.03615182638168335
0.062615878880023956 0.56104099750518799 0.020087327808141708
0.5487557053565979 0.7277599573135376 0.018584202975034714
0.94032210111618042 0.79772603511810303 0.025337906554341316
1 0.78832662105560303 0.0076324013061821461
1 0.7698974609375 0.005627994891256094
0.012474942952394485 0.50873279571533203 0.058325104415416718
0.023554634302854538 0.51704972982406616 0.050715785473585129
0.031622570008039474 0.57087641954421997 0.026271611452102661
0.37037241458892822 0.72516292333602905 0.023914173245429993
0.88652223348617554 0.86417520046234131 0.04055481031537056
0.99183684587478638 0.87450456619262695 0.031111534684896469
0.99935173988342285 0.86756306886672974 0.018312491476535797
0.014895375818014145 0.53639429807662964 0.068780355155467987
0.027316374704241753 0.53883075714111328 0.055124036967754364
0.014010590501129627 0.58819752931594849 0.037166818976402283
0.27367451786994934 0.71804380416870117 0.017365459352731705
0.80818861722946167 0.86600792407989502 0.024648314341902733
0.98789960145950317 0.90469527244567871 0.025488415732979774
1 0.9024052619934082 0.036242976784706116
0.0066060083918273449 0.034896984696388245 0.31999468803405762
0.11701929569244385 0.037329535931348801 0.3312315046787262
0.38864633440971375 0.025661632418632507 0.34806632995605469
0.6522795557975769 0.016404245048761368 0.3492414653301239
0.74756747484207153 0.020087568089365959 0.33761686086654663
0.77150744199752808 0.027239914983510971 0.32830294966697693
0.78055119514465332 0.01201394759118557 0.31372398138046265
0.0021560071036219597 0.08074728399515152 0.3221224844455719
0.054088503122329712 0.096814773976802826 0.32859554886817932
0.33417034149169922 0.10036272555589676 0.34043499827384949
0.64362132549285889 0.057062994688749313 0.32732370495796204
0.75571846961975098 0.034678023308515549 0.30795201659202576
0.78711491823196411 0.040112484246492386 0.29573047161102295
0.79041129350662231 0.022469239309430122 0.27396053075790405
0.0044609219767153263 0.25054025650024414 0.3398403525352478
0.009622521698474884 0.25593116879463196 0.3351466953754425
0.25596535205841064 0.29606854915618896 0.33276823163032532
0.67612159252166748 0.2829345166683197 0.30165094137191772
0.81644690036773682 0.25250667333602905 0.26588934659957886
0.84694421291351318 0.24353583157062531 0.24681451916694641
0.84942775964736938 0.21999232470989227 0.22371409833431244
0.0039025100413709879 0.4215603768825531 0.31847643852233887
0 0.43017575144767761 0.30251488089561462
0.08952765166759491 0.49420782923698425 0.27127858996391296
0.64270704984664917 0.58130943775177002 0.21378810703754425
0.90356981754302979 0.58100301027297974 0.17683514952659607
0.9590456485748291 0.5678095817565918 0.15065504610538483
0.96675151586532593 0.55009788274765015 0.14108297228813171
0.010122590698301792 0.50914621353149414 0.27252119779586792
0.00048211790272034705 0.5165247917175293 0.2415166050195694
0.015917669981718063 0.57643759250640869 0.19406622648239136
0.49013075232505798 0.72854775190353394 0.11949542164802551
0.92105025053024292 0.80142337083816528 0.084587022662162781
0.99653357267379761 0.79432910680770874 0.047579865902662277
1 0.77676534652709961 0.079032391309738159
0.013982451520860195 0.54853600263595581 0.25458881258964539
0.024017110466957092 0.55212926864624023 0.2341744601726532
0.0075494502671062946 0.5879020094871521 0.1772676408290863
0.32358810305595398 0.72670227289199829 0.10562322288751602
0.86735337972640991 0.861011803150177 0.049589537084102631
0.99584400653839111 0.88160949945449829 0.034793451428413391
1 0.87698155641555786 0.050909481942653656
0.014132989570498466 0.56744056940078735 0.23721303045749664
0.028684264048933983 0.57182055711746216 0.23633971810340881
0.014041511341929436 0.61201387643814087 0.21178670227527618
0.23620074987411499 0.720489501953125 0.13678489625453949
0.78906756639480591 0.864543616771698 0.065294273197650909
0.98411494493484497 0.90640950202941895 0.056148003786802292
1 0.90709716081619263 0.063417606055736542
0.0038098352961242199 0.051180984824895859 0.47373843193054199
0.10716865211725235 0.043185453861951828 0.49340856075286865
0.38599935173988342 0.027274681255221367 0.52938604354858398
0.66375720500946045 0.014676621183753014 0.55028003454208374
0.75821185111999512 0.013107479549944401 0.53778398036956787
0.77310872077941895 0.023656748235225677 0.52756613492965698
0.78919476270675659 0.019989792257547379 0.52311760187149048
0.0042872708290815353 0.065517053008079529 0.48891627788543701
0.046395767480134964 0.07906419038772583 0.51024937629699707
0.32362538576126099 0.091790683567523956 0.55521160364151001
0.66065436601638794 0.047741308808326721 0.56803768873214722
0.77449238300323486 0.016539689153432846 0.54699856042861938
0.79351067543029785 0.023327277973294258 0.53000211715698242
0.80740141868591309 0.038876328617334366 0.51994979381561279
0.0017418356146663427 0.23013865947723389 0.55569064617156982
0.003371130209416151 0.2431054413318634 0.5645936131477356
0.19831535220146179 0.289285808801651 0.5999525785446167
0.64884895086288452 0.27466034889221191 0.61545902490615845
0.81537634134292603 0.23057951033115387 0.58963668346405029
0.84464961290359497 0.2280595451593399 0.56724315881729126
0.85619544982910156 0.22627399861812592 0.54328745603561401
0.0082721337676048279 0.45533657073974609 0.5956081748008728
0.016301114112138748 0.46684044599533081 0.59867256879806519
0.0446280837059021 0.52564400434494019 0.60640221834182739
0.58909255266189575 0.60954529047012329 0.62334895133972168
0.88206034898757935 0.59490871429443359 0.60291630029678345
0.94465219974517822 0.57757246494293213 0.57888352870941162
0.95426499843597412 0.56136679649353027 0.55020201206207275
0.010495518334209919 0.56537425518035889 0.58011341094970703
0.016682613641023636 0.57579922676086426 0.56650954484939575
0.00014229568478185683 0.63008171319961548 0.56227737665176392
0.37037593126296997 0.7627747654914856 0.56109118461608887
0.87833422422409058 0.83080083131790161 0.52783697843551636
0.98527699708938599 0.82043790817260742 0.4742572009563446
0.99908447265625 0.80400305986404419 0.45996633172035217
0.012212895788252354 0.60493212938308716 0.55899852514266968
0.01739094965159893 0.60769248008728027 0.54312610626220703
5.385455096984515e-06 0.64639019966125488 0.5260847806930542
0.17948050796985626 0.77003473043441772 0.51286005973815918
0.80715906620025635 0.88868445158004761 0.46115049719810486
0.98331153392791748 0.90497541427612305 0.39190995693206787
1 0.89678174257278442 0.33985185623168945
0.012326034717261791 0.62247723340988159 0.52658289670944214
0.019621934741735458 0.62764990329742432 0.52694892883300781
0.00086183735402300954 0.66092562675476074 0.515724778175354
0.13013382256031036 0.76128917932510376 0.48549145460128784
0.70784151554107666 0.88987958431243896 0.44201526045799255
0.96556335687637329 0.93060064315795898 0.38366818428039551
0.99960201978683472 0.92632615566253662 0.33348709344863892
0.0028242822736501694 0.062457453459501266 0.56947016716003418
0.071735993027687073 0.077762782573699951 0.59650564193725586
0.36944621801376343 0.061107441782951355 0.65022033452987671
0.67089062929153442 0.031940281391143799 0.67599129676818848
0.75429695844650269 0.013782396912574768 0.64405351877212524
0.75801676511764526 0.019074847921729088 0.62673437595367432
0.77767026424407959 0.01071517076343298 0.62369608879089355
0.0013177311047911644 0.079942516982555389 0.59081548452377319
0.023489335551857948 0.11769856512546539 0.6240043044090271
0.29210013151168823 0.14364933967590332 0.68961578607559204
0.65816646814346313 0.09368838369846344 0.71139633655548096
0.77218741178512573 0.055442240089178085 0.6794818639755249
0.78022587299346924 0.051540032029151917 0.65860742330551147
0.79635095596313477 0.059790007770061493 0.65717345476150513
0.0015080620069056749 0.22457368671894073 0.67571032047271729
0.00018861060380004346 0.23996572196483612 0.68716949224472046
0.16160678863525391 0.28403386473655701 0.73667770624160767
0.63724410533905029 0.27767422795295715 0.78510951995849609
0.80967700481414795 0.23878590762615204 0.75797057151794434
0.83080673217773438 0.22079898416996002 0.73000216484069824
0.84662771224975586 0.22255556285381317 0.72642362117767334
0.0012753804912790656 0.45664674043655396 0.74165594577789307
0.0040811724029481411 0.46108385920524597 0.74543082714080811
0.030631674453616142 0.50950419902801514 0.77382862567901611
0.51641166210174561 0.59753251075744629 0.83363181352615356
0.85703057050704956 0.58558750152587891 0.83440661430358887
0.92684048414230347 0.56140512228012085 0.8179161548614502
0.94326686859130859 0.55165594816207886 0.81287539005279541
0.00228907261043787 0.58231592178344727 0.76038992404937744
0.020005514845252037 0.58895158767700195 0.76171624660491943
0.0049853157252073288 0.64546823501586914 0.78379565477371216
0.30607584118843079 0.78274446725845337 0.82332354784011841
0.8350600004196167 0.84895497560501099 0.84421670436859131
0.97438597679138184 0.84424114227294922 0.82816797494888306
0.99302834272384644 0.82909679412841797 0.81105303764343262
0.0065292208455502987 0.63114410638809204 0.76590067148208618
0.020065128803253174 0.63153302669525146 0.75697606801986694
0.024316525086760521 0.67456233501434326 0.76509940624237061
0.16025762259960175 0.79659825563430786 0.79101103544235229
0.7312854528427124 0.92537856101989746 0.814930260181427
0.965920090675354 0.94761162996292114 0.79617589712142944
1 0.94133681058883667 0.77863723039627075
0.009295070543885231 0.65798336267471313 0.75359159708023071
0.018323037773370743 0.65796858072280884 0.74622046947479248
0.033410120755434036 0.69151866436004639 0.74891072511672974
0.095962122082710266 0.79483276605606079 0.76869308948516846
0.60840052366256714 0.92817533016204834 0.78723621368408203
0.93788564205169678 0.97000360488891602 0.77065688371658325
0.99990200996398926 0.97069114446640015 0.74197423458099365
0.0022304309532046318 0.063077636063098907 0.59350812435150146
0.05350787565112114 0.082862913608551025 0.62641555070877075
0.35164806246757507 0.080110542476177216 0.69325584173202515
0.65057373046875 0.032836973667144775 0.70037710666656494
0.74533319473266602 0.0021471958607435226 0.67163598537445068
0.76986879110336304 0.0086078867316246033 0.67318040132522583
0.78134548664093018 0.0040393006056547165 0.66949516534805298
0.0086413668468594551 0.085682585835456848 0.62386918067932129
0.022381188347935677 0.13714750111103058 0.66370826959609985
0.28285175561904907 0.18633939325809479 0.74308222532272339
0.64129477739334106 0.13917779922485352 0.74851506948471069
0.75584870576858521 0.10541591048240662 0.71973985433578491
0.79780375957489014 0.12017229944467545 0.73029857873916626
0.80298835039138794 0.094998814165592194 0.71978604793548584
0.0042759017087519169 0.24071961641311646 0.72108203172683716
0.00012266870180610567 0.25226548314094543 0.7359619140625
0.146246537566185 0.30455994606018066 0.79560798406600952
0.61411780118942261 0.31139501929283142 0.83110052347183228
0.79057997465133667 0.29315146803855896 0.80740612745285034
0.84430968761444092 0.28514260053634644 0.80856144428253174
0.84726077318191528 0.25476464629173279 0.79401248693466187
0.0012465084437280893 0.4520035982131958 0.77557164430618286
0.010180439800024033 0.45811182260513306 0.78377187252044678
0.0068230573087930679 0.50541877746582031 0.81403505802154541
0.47792074084281921 0.59381955862045288 0.88904660940170288
0.84012538194656372 0.58648324012756348 0.90546482801437378
0.92134815454483032 0.56248766183853149 0.90229636430740356
0.9319450855255127 0.54760682582855225 0.89123791456222534
0.0016293245134875178 0.58004999160766602 0.81420040130615234
0.020975435152649879 0.58765459060668945 0.82175785303115845
0.019588993862271309 0.64163315296173096 0.85143363475799561
0.24225686490535736 0.7717280387878418 0.90919250249862671
0.8099244236946106 0.84514361619949341 0.95081663131713867
0.96588051319122314 0.84228378534317017 0.955474853515625
0.99172180891036987 0.82789021730422974 0.94459730386734009
0.0071995602920651436 0.63811737298965454 0.83143770694732666
0.021954884752631187 0.64256078004837036 0.83175241947174072
0.0084234047681093216 0.67915838956832886 0.8505547046661377
0.0724358931183815 0.79793769121170044 0.89647036790847778
0.67802828550338745 0.92548483610153198 0.94739681482315063
0.95069819688796997 0.95644271373748779 0.95614969730377197
1 0.95520859956741333 0.94704997539520264
0.0068069607950747013 0.6706511378288269 0.84026855230331421
0.021723100915551186 0.67328613996505737 0.83919399976730347
0.031339667737483978 0.70152574777603149 0.85137343406677246
0.059708643704652786 0.80229681730270386 0.88919508457183838
0.55444157123565674 0.93729066848754883 0.9326711893081665
0.91808003187179565 0.98595762252807617 0.94634658098220825
0.99989962577819824 0.99374794960021973 0.93149411678314209
0.00098657049238681793 0.052890866994857788 0.60825055837631226
0.068946853280067444 0.067387565970420837 0.63645893335342407
0.3394463062286377 0.073268860578536987 0.69695097208023071
0.64102262258529663 0.029339181259274483 0.7032734751701355
0.74069488048553467 0 0.68455642461776733
0.77852725982666016 0.00020321116608101875 0.69156754016876221
0.79115861654281616 0 0.68914610147476196
0 0.10144487023353577 0.64399927854537964
0.032686434686183929 0.11899538338184357 0.66708433628082275
0.27328598499298096 0.17229191958904266 0.74322289228439331
0.62661653757095337 0.13785575330257416 0.75556004047393799
0.75059670209884644 0.095518477261066437 0.73376262187957764
0.80052244663238525 0.10139839351177216 0.74493920803070068
0.80888444185256958 0.091400325298309326 0.73573559522628784
1.7233456674148329e-05 0.23794470727443695 0.73376655578613281
0.003515774616971612 0.24467062950134277 0.74770373106002808
0.13926969468593597 0.30103674530982971 0.80210739374160767
0.59350866079330444 0.30857884883880615 0.83641648292541504
0.78266936540603638 0.29208546876907349 0.81749796867370605
0.84678268432617188 0.28775873780250549 0.82642585039138794
0.85384267568588257 0.27810269594192505 0.81558161973953247
0.0021270452998578548 0.44555249810218811 0.78991794586181641
0.0088971005752682686 0.45064190030097961 0.79430943727493286
0.012178966775536537 0.5010063648223877 0.82928746938705444
0.45417559146881104 0.58897757530212402 0.90106064081192017
0.83382546901702881 0.58025383949279785 0.92054742574691772
0.9212908148765564 0.56507164239883423 0.92171680927276611
0.93279862403869629 0.55736708641052246 0.90953153371810913
0.0028669170569628477 0.58439648151397705 0.8308599591255188
0.019836500287055969 0.59131020307540894 0.83795511722564697
0.0099812373518943787 0.63925743103027344 0.86880791187286377
0.19734601676464081 0.76779192686080933 0.92903739213943481
0.78516989946365356 0.83677005767822266 0.97232210636138916
0.95682579278945923 0.83765828609466553 0.97782325744628906
0.98570996522903442 0.82458889484405518 0.97279149293899536
0.0049645518884062767 0.64280456304550171 0.851970374584198
0.022440802305936813 0.64411377906799316 0.85489743947982788
0.018221940845251083 0.67799848318099976 0.87495934963226318
0.12382697314023972 0.79230612516403198 0.92395514249801636
0.66245573759078979 0.91981250047683716 0.9776960015296936
0.93949103355407715 0.95559871196746826 0.99429452419281006
0.99934452772140503 0.95850563049316406 0.99686908721923828
0.0022296232637017965 0.67610353231430054 0.86803644895553589
0.023798445239663124 0.679412841796875 0.87095695734024048
0.040007989853620529 0.70622426271438599 0.88302600383758545
0.039736144244670868 0.80336344242095947 0.92143118381500244
0.51766610145568848 0.93470901250839233 0.97119772434234619
0.90401721000671387 0.98531484603881836 0.99416512250900269
0.99774962663650513 0.99870496988296509 0.99833124876022339
