assets/lut/abigailgonzalez cinema 04.cube
# Created by: G'MIC (https://gmic.eu)
TITLE "cinema_4"
# LUT size
LUT_3D_SIZE 13
# Data domain
DOMAIN_MIN 0.0 0.0 0.0
DOMAIN_MAX 1.0 1.0 1.0
# LUT data points
0.0060533410869538784 0.0065430435352027416 0.0051194732077419758
0.038851208984851837 0.010369274765253067 0.0076309205032885075
0.095477521419525146 0.01394277811050415 0.010692685842514038
0.17325244843959808 0.017381750047206879 0.015211860649287701
0.25894632935523987 0.023930823430418968 0.021484538912773132
0.34458827972412109 0.031936988234519958 0.029798470437526703
0.42874181270599365 0.038078278303146362 0.038074091076850891
0.51511102914810181 0.039093136787414551 0.042341314256191254
0.60652101039886475 0.039231467992067337 0.043719720095396042
0.69985955953598022 0.042005859315395355 0.045774318277835846
0.79025882482528687 0.046395067125558853 0.049053911119699478
0.8708653450012207 0.0490570068359375 0.052903506904840469
0.94183623790740967 0.048818551003932953 0.056920744478702545
0.0096390368416905403 0.039299070835113525 0.0096118105575442314
0.041405994445085526 0.042344607412815094 0.011948230676352978
0.09876810759305954 0.044142883270978928 0.014738120138645172
0.17847299575805664 0.04671274870634079 0.018972195684909821
0.26390248537063599 0.053285352885723114 0.02466164343059063
0.34764730930328369 0.059311572462320328 0.032002214342355728
0.42974919080734253 0.061962440609931946 0.039640001952648163
0.51452451944351196 0.061534356325864792 0.045279782265424728
0.60674875974655151 0.063794516026973724 0.049858212471008301
0.70382779836654663 0.070641927421092987 0.054414186626672745
0.79499667882919312 0.07828444242477417 0.059117201715707779
0.87265312671661377 0.08285599946975708 0.063673429191112518
0.93901246786117554 0.084043495357036591 0.067745700478553772
0.014053434133529663 0.09444369375705719 0.015837457031011581
0.04471549391746521 0.098238192498683929 0.017161829397082329
0.10349749028682709 0.099209249019622803 0.019296862185001373
0.18487723171710968 0.099949479103088379 0.022949952632188797
0.26983410120010376 0.10486838966608047 0.027644498273730278
0.35173431038856506 0.10678546130657196 0.033552609384059906
0.43174833059310913 0.10535506904125214 0.040398601442575455
0.51513087749481201 0.10465075820684433 0.047590024769306183
0.60791206359863281 0.10838576406240463 0.054949861019849777
0.70937705039978027 0.11873508244752884 0.061870276927947998
0.80262953042984009 0.12872903048992157 0.068355634808540344
0.8768686056137085 0.13407757878303528 0.073638513684272766
0.93821972608566284 0.1355096846818924 0.078166738152503967
0.018134951591491699 0.1765633225440979 0.022433068603277206
0.047212414443492889 0.18132908642292023 0.023351183161139488
0.10369107127189636 0.18392360210418701 0.024818120524287224
0.18660458922386169 0.18359465897083282 0.02731139212846756
0.27286329865455627 0.18433761596679688 0.030983449891209602
0.35472309589385986 0.18017055094242096 0.035853561013936996
0.43450033664703369 0.17518702149391174 0.041753314435482025
0.51657217741012573 0.17610184848308563 0.049410142004489899
0.61065185070037842 0.18254616856575012 0.058180160820484161
0.71393442153930664 0.19409769773483276 0.06671607494354248
0.80942332744598389 0.20471705496311188 0.07421652227640152
0.88293713331222534 0.20886953175067902 0.080638214945793152
0.94233614206314087 0.20692451298236847 0.085423596203327179
0.027928760275244713 0.26705077290534973 0.029357625171542168
0.057385358959436417 0.27017086744308472 0.029639225453138351
0.1105072945356369 0.27375763654708862 0.030357988551259041
0.18799440562725067 0.27667602896690369 0.032292205840349197
0.27352234721183777 0.27553567290306091 0.035452958196401596
0.35703539848327637 0.26903027296066284 0.039524812251329422
0.43640059232711792 0.26373666524887085 0.044646557420492172
0.51800185441970825 0.26467937231063843 0.051843531429767609
0.61146402359008789 0.27244976162910461 0.060594595968723297
0.71576029062271118 0.28461214900016785 0.069486446678638458
0.8128969669342041 0.29606842994689941 0.078157134354114532
0.88697177171707153 0.29732125997543335 0.085630737245082855
0.94456171989440918 0.29089367389678955 0.0917930006980896
0.039602797478437424 0.3510412871837616 0.036167293787002563
0.06976357102394104 0.35294267535209656 0.03566417470574379
0.11855418235063553 0.35438850522041321 0.036170616745948792
0.18863761425018311 0.3576006293296814 0.03824908658862114
0.27186793088912964 0.3579256534576416 0.041164100170135498
0.35793152451515198 0.35594421625137329 0.044570907950401306
0.43898597359657288 0.35232448577880859 0.048822872340679169
0.52009624242782593 0.35229462385177612 0.055095508694648743
0.61225956678390503 0.36035564541816711 0.063136979937553406
0.714893639087677 0.37375178933143616 0.071967676281929016
0.81106162071228027 0.38515350222587585 0.081443339586257935
0.88528883457183838 0.38544711470603943 0.090427324175834656
0.94268614053726196 0.37604334950447083 0.097941592335700989
0.048810411244630814 0.42762717604637146 0.043946810066699982
0.078535027801990509 0.42965453863143921 0.042861476540565491
0.12371140718460083 0.43132820725440979 0.043287314474582672
0.1876644641160965 0.4316401481628418 0.045609507709741592
0.26780274510383606 0.43420913815498352 0.048528485000133514
0.35494041442871094 0.43532541394233704 0.051317237317562103
0.43831086158752441 0.43401113152503967 0.05455741286277771
0.52182471752166748 0.43363559246063232 0.059600245207548141
0.61511105298995972 0.44279763102531433 0.066951602697372437
0.71553903818130493 0.4584905207157135 0.075968936085700989
0.80936950445175171 0.47050398588180542 0.085452601313591003
0.8845902681350708 0.4708230197429657 0.094572834670543671
0.94315308332443237 0.46008512377738953 0.10176150500774384
0.05712667852640152 0.50984060764312744 0.052789516746997833
0.085415922105312347 0.51143807172775269 0.051861468702554703
0.12748941779136658 0.51254838705062866 0.052955836057662964
0.18825049698352814 0.512725830078125 0.055771801620721817
0.26641282439231873 0.51518255472183228 0.058758709579706192
0.35368525981903076 0.51788699626922607 0.060883600264787674
0.43937832117080688 0.51672792434692383 0.063031665980815887
0.5252872109413147 0.51623070240020752 0.06705881655216217
0.62024885416030884 0.52637952566146851 0.073444396257400513
0.7211688756942749 0.54432582855224609 0.081521786749362946
0.81437653303146362 0.55707818269729614 0.08984539657831192
0.88910800218582153 0.55598777532577515 0.097206845879554749
0.94725590944290161 0.54275137186050415 0.10256088525056839
0.064672239124774933 0.60318803787231445 0.061351072043180466
0.092938445508480072 0.60546910762786865 0.062844052910804749
0.13478982448577881 0.60780501365661621 0.065792620182037354
0.19577914476394653 0.60863190889358521 0.069428764283657074
0.27471193671226501 0.61071521043777466 0.072088651359081268
0.36282816529273987 0.61243778467178345 0.073681868612766266
0.45106974244117737 0.61187577247619629 0.074870258569717407
0.53851377964019775 0.61117684841156006 0.077432401478290558
0.63226485252380371 0.61947888135910034 0.081968985497951508
0.73072421550750732 0.63463139533996582 0.087987609207630157
0.82210636138916016 0.64505016803741455 0.093824438750743866
0.89435881376266479 0.64019876718521118 0.098451815545558929
0.94923478364944458 0.62202644348144531 0.10154514759778976
0.071731656789779663 0.70527893304824829 0.068337447941303253
0.1017300933599472 0.70821672677993774 0.073503069579601288
0.14432311058044434 0.71091347932815552 0.079584755003452301
0.20734560489654541 0.71236145496368408 0.083755746483802795
0.28914949297904968 0.71339696645736694 0.085559546947479248
0.38041862845420837 0.71526366472244263 0.086750417947769165
0.47093838453292847 0.71556049585342407 0.087425515055656433
0.55767142772674561 0.71385431289672852 0.088319621980190277
0.64634984731674194 0.7170296311378479 0.090533405542373657
0.73748737573623657 0.72484308481216431 0.093639880418777466
0.82337009906768799 0.72896462678909302 0.096493862569332123
0.89231413602828979 0.7187190055847168 0.097989052534103394
0.94575375318527222 0.69738054275512695 0.09914100170135498
0.078827723860740662 0.80292963981628418 0.072805412113666534
0.11093258112668991 0.80597591400146484 0.080631017684936523
0.15444844961166382 0.80942767858505249 0.089137613773345947
0.21936234831809998 0.80939829349517822 0.093323275446891785
0.30321943759918213 0.80897730588912964 0.094275712966918945
0.39631456136703491 0.81153130531311035 0.095478922128677368
0.48782551288604736 0.81284028291702271 0.096429936587810516
0.57059603929519653 0.8091309666633606 0.096441604197025299
0.65261292457580566 0.80724084377288818 0.09705575555562973
0.73589092493057251 0.80802077054977417 0.098016016185283661
0.81545239686965942 0.80600231885910034 0.098160520195960999
0.88330060243606567 0.79363662004470825 0.097128055989742279
0.93966716527938843 0.77285796403884888 0.097190290689468384
0.084093458950519562 0.88699483871459961 0.073486596345901489
0.12037751078605652 0.88964474201202393 0.081369183957576752
0.16738604009151459 0.89087086915969849 0.089421354234218597
0.23209810256958008 0.8896329402923584 0.093670353293418884
0.31281733512878418 0.88817059993743896 0.095204174518585205
0.40188795328140259 0.88957893848419189 0.096978582441806793
0.48973864316940308 0.89063864946365356 0.098606839776039124
0.57018673419952393 0.8876802921295166 0.10006221383810043
0.64769500494003296 0.8840758204460144 0.10098741948604584
0.72587573528289795 0.88199120759963989 0.10180907696485519
0.80295026302337646 0.87844252586364746 0.10054907947778702
0.87333637475967407 0.86867743730545044 0.098097734153270721
0.93460601568222046 0.85207349061965942 0.097114056348800659
0.088271692395210266 0.95837289094924927 0.071201160550117493
0.12921044230461121 0.95949625968933105 0.077705115079879761
0.17929325997829437 0.95878970623016357 0.084065742790699005
0.24261708557605743 0.95605599880218506 0.088275149464607239
0.31784924864768982 0.95346188545227051 0.090809978544712067
0.40010321140289307 0.95364344120025635 0.093767456710338593
0.48238149285316467 0.95431506633758545 0.097079046070575714
0.56064939498901367 0.95268559455871582 0.099931873381137848
0.63596904277801514 0.94966977834701538 0.10210990160703659
0.7112242579460144 0.94778597354888916 0.10446129739284515
0.78774917125701904 0.9454493522644043 0.10339071601629257
0.86102336645126343 0.93907171487808228 0.1005990132689476
0.9264833927154541 0.92676347494125366 0.099254444241523743
0.0096289543434977531 0.0079969065263867378 0.033037059009075165
0.04083271324634552 0.010312906466424465 0.035344697535037994
0.094659171998500824 0.015111871063709259 0.038686700165271759
0.17394205927848816 0.018914496526122093 0.042726881802082062
0.26222968101501465 0.025610890239477158 0.046809926629066467
0.34875428676605225 0.033303968608379364 0.052526704967021942
0.4315645694732666 0.038682091981172562 0.059113357216119766
0.51609760522842407 0.041509799659252167 0.063889525830745697
0.60677677392959595 0.045254096388816833 0.067453749477863312
0.70224505662918091 0.051092918962240219 0.072342753410339355
0.79458028078079224 0.057694993913173676 0.078111700713634491
0.87771397829055786 0.062096197158098221 0.083840928971767426
0.94851619005203247 0.06067383661866188 0.089626654982566833
0.01219527330249548 0.03961862251162529 0.038329463452100754
0.041563969105482101 0.039985597133636475 0.038068089634180069
0.097575262188911438 0.043208342045545578 0.041008893400430679
0.1788899153470993 0.047585401684045792 0.046066328883171082
0.26649317145347595 0.055190756916999817 0.050780817866325378
0.35060697793960571 0.061831112951040268 0.056038845330476761
0.43142181634902954 0.064760319888591766 0.06232229620218277
0.51468759775161743 0.06585172563791275 0.068522974848747253
0.60674017667770386 0.06953081488609314 0.074870027601718903
0.70390105247497559 0.078107215464115143 0.081785403192043304
0.79703670740127563 0.086995206773281097 0.088595464825630188
0.87623399496078491 0.092101886868476868 0.094488911330699921
0.94293630123138428 0.092605739831924438 0.099965035915374756
0.014860743656754494 0.095884747803211212 0.04479256272315979
0.044522799551486969 0.096220515668392181 0.043147098273038864
0.10280969738960266 0.09888400137424469 0.045227512717247009
0.18517956137657166 0.10306999087333679 0.050086211413145065
0.2716604471206665 0.10940851271152496 0.054782688617706299
0.35347643494606018 0.1124114990234375 0.059647053480148315
0.43168243765830994 0.11182177811861038 0.065409190952777863
0.51465415954589844 0.11114677041769028 0.072563543915748596
0.60720366239547729 0.1146765798330307 0.081268996000289917
0.70801138877868652 0.12517589330673218 0.090008631348609924
0.80173343420028687 0.13559767603874207 0.097843125462532043
0.87792396545410156 0.14058664441108704 0.10419097542762756
0.94019091129302979 0.14040714502334595 0.10974673181772232
0.019530860707163811 0.17741920053958893 0.051900885999202728
0.050519831478595734 0.17930538952350616 0.050355259329080582
0.10776721686124802 0.18327219784259796 0.051374562084674835
0.18870103359222412 0.18683928251266479 0.054861299693584442
0.27474898099899292 0.18934965133666992 0.05924639105796814
0.35637322068214417 0.18773496150970459 0.063385650515556335
0.43469423055648804 0.18468548357486725 0.068073436617851257
0.5161583423614502 0.18405790627002716 0.074886336922645569
0.60988879203796387 0.18849214911460876 0.084629073739051819
0.71186429262161255 0.19892188906669617 0.094464592635631561
0.80703163146972656 0.20990535616874695 0.10278566926717758
0.88356661796569824 0.21471278369426727 0.10953769832849503
0.94479775428771973 0.21297658979892731 0.11567934602499008
0.02826220914721489 0.26709061861038208 0.058387920260429382
0.060141857713460922 0.26911291480064392 0.056988436728715897
0.11465774476528168 0.27282297611236572 0.057913403958082199
0.19103051722049713 0.27653005719184875 0.06109517440199852
0.27611234784126282 0.27752643823623657 0.065055251121520996
0.35895213484764099 0.27451112866401672 0.068707093596458435
0.4374484121799469 0.27082836627960205 0.072211876511573792
0.51858317852020264 0.27070885896682739 0.077973701059818268
0.61092865467071533 0.27619281411170959 0.086636468768119812
0.71328610181808472 0.2873975932598114 0.09586334228515625
0.81026351451873779 0.29921749234199524 0.10474106669425964
0.8886527419090271 0.30376526713371277 0.11242289841175079
0.94949215650558472 0.29858174920082092 0.12009486556053162
0.037947606295347214 0.35020714998245239 0.064134456217288971
0.069918915629386902 0.35063266754150391 0.062728807330131531
0.12107045948505402 0.35399708151817322 0.063909925520420074
0.19268694519996643 0.35750767588615417 0.067454889416694641
0.27596727013587952 0.35818877816200256 0.07161981612443924
0.36070311069488525 0.35804310441017151 0.07493138313293457
0.44015610218048096 0.35563546419143677 0.07754022628068924
0.52150017023086548 0.35538288950920105 0.082377247512340546
0.61275023221969604 0.36266475915908813 0.089461430907249451
0.71332138776779175 0.37580659985542297 0.098020352423191071
0.81016111373901367 0.38868412375450134 0.10774026066064835
0.88938271999359131 0.39243409037590027 0.11706545948982239
0.95026481151580811 0.3847193717956543 0.12590175867080688
0.046072822064161301 0.42778390645980835 0.070088088512420654
0.076844006776809692 0.42748424410820007 0.067998267710208893
0.12457112222909927 0.42977061867713928 0.069717720150947571
0.19237397611141205 0.43243658542633057 0.074474260210990906
0.27364203333854675 0.43526870012283325 0.078982502222061157
0.3589681088924408 0.43578070402145386 0.081267319619655609
0.4403194785118103 0.43526208400726318 0.083138816058635712
0.52337837219238281 0.43612241744995117 0.087145008146762848
0.61599946022033691 0.44565057754516602 0.094406068325042725
0.71617633104324341 0.46155229210853577 0.10325034707784653
0.81170225143432617 0.47506231069564819 0.11328838765621185
0.8899654746055603 0.47715196013450623 0.12303492426872253
0.9506683349609375 0.46750470995903015 0.13157404959201813
0.054533731192350388 0.51112085580825806 0.07747185230255127
0.083360143005847931 0.50969475507736206 0.075289241969585419
0.12855154275894165 0.51100260019302368 0.07768566906452179
0.19405347108840942 0.51375347375869751 0.083976179361343384
0.27384325861930847 0.51692712306976318 0.08891855925321579
0.35860422253608704 0.51844668388366699 0.090477138757705688
0.44217145442962646 0.51708364486694336 0.091216638684272766
0.52840924263000488 0.51953363418579102 0.094913318753242493
0.62307119369506836 0.53097474575042725 0.10220063477754593
0.72349029779434204 0.54825949668884277 0.11070190370082855
0.81739574670791626 0.56131833791732788 0.11962494254112244
0.89332717657089233 0.561015784740448 0.12783481180667877
0.95183223485946655 0.54792076349258423 0.13473509252071381
0.064944818615913391 0.60564684867858887 0.086717762053012848
0.093598999083042145 0.60463935136795044 0.086528733372688293
0.13795490562915802 0.60589027404785156 0.090545356273651123
0.20248377323150635 0.60849612951278687 0.097354605793952942
0.28212836384773254 0.61127513647079468 0.10215640813112259
0.36792770028114319 0.61244845390319824 0.10375212132930756
0.45409503579139709 0.61234462261199951 0.10416587442159653
0.54185581207275391 0.61456108093261719 0.10657939314842224
0.63575047254562378 0.6239931583404541 0.11196881532669067
0.73285341262817383 0.63818401098251343 0.11835074424743652
0.82355242967605591 0.64751899242401123 0.12463311851024628
0.8949093222618103 0.64242029190063477 0.13023047149181366
0.95124900341033936 0.62504428625106812 0.13501612842082977
0.077171757817268372 0.70946556329727173 0.09599679708480835
0.10753287374973297 0.70854181051254272 0.0992865189909935
0.15184004604816437 0.70934534072875977 0.10566310584545135
0.21593004465103149 0.71064472198486328 0.1119755432009697
0.29644984006881714 0.71285504102706909 0.11596415191888809
0.38450765609741211 0.71406108140945435 0.1172962412238121
0.47289234399795532 0.71456664800643921 0.11784330010414124
0.56019800901412964 0.71557128429412842 0.11878322809934616
0.64930129051208496 0.72068458795547485 0.12120697647333145
0.74008780717849731 0.72825217247009277 0.12426546961069107
0.8249281644821167 0.7312348484992981 0.12739439308643341
0.89336967468261719 0.72121763229370117 0.12992095947265625
0.94731485843658447 0.70021295547485352 0.13290330767631531
0.08818429708480835 0.80830568075180054 0.10277265310287476
0.12029343843460083 0.80662345886230469 0.10863114893436432
0.16538535058498383 0.80651682615280151 0.11633410304784775
0.22979278862476349 0.80661696195602417 0.1221713051199913
0.3104059100151062 0.80731105804443359 0.12520879507064819
0.39920294284820557 0.80859196186065674 0.12691646814346313
0.48799276351928711 0.80966031551361084 0.12727317214012146
0.57242971658706665 0.80928951501846313 0.12729319930076599
0.6559874415397644 0.81001430749893188 0.12764579057693481
0.74022316932678223 0.81221878528594971 0.12837143242359161
0.82052135467529297 0.8114740252494812 0.12900383770465851
0.88907831907272339 0.80046749114990234 0.12879081070423126
0.94483762979507446 0.77939540147781372 0.13056442141532898
0.093433573842048645 0.89008206129074097 0.10577347874641418
0.12992085516452789 0.88912403583526611 0.11179999262094498
0.17763930559158325 0.88784486055374146 0.11914096772670746
0.24165418744087219 0.88630169630050659 0.12429559975862503
0.31952342391014099 0.88488972187042236 0.12702289223670959
0.40535479784011841 0.88571208715438843 0.12894646823406219
0.49112620949745178 0.88749152421951294 0.13061168789863586
0.57247662544250488 0.88666558265686035 0.13113895058631897
0.65138459205627441 0.8850327730178833 0.13063383102416992
0.73146069049835205 0.8854680061340332 0.13076859712600708
0.81135463714599609 0.88590806722640991 0.13012722134590149
0.88410192728042603 0.87984341382980347 0.12947024405002594
0.94479000568389893 0.86322575807571411 0.13079801201820374
0.095845453441143036 0.95790195465087891 0.1056402325630188
0.13683924078941345 0.95659428834915161 0.11068504303693771
0.18725179135799408 0.95467275381088257 0.1164776086807251
0.24987159669399261 0.95161223411560059 0.12105612456798553
0.32335770130157471 0.94785046577453613 0.12380312383174896
0.40392768383026123 0.94842278957366943 0.12715189158916473
0.48517358303070068 0.95003253221511841 0.13030418753623962
0.56310367584228516 0.94966191053390503 0.1325252503156662
0.63894110918045044 0.94846129417419434 0.13280361890792847
0.71669918298721313 0.9489472508430481 0.13353775441646576
0.79660087823867798 0.95146125555038452 0.13380438089370728
0.87237268686294556 0.94987410306930542 0.13336803019046783
0.93775743246078491 0.93836188316345215 0.13474851846694946
0.012745950371026993 0.010224824771285057 0.073849305510520935
0.043374452739953995 0.010268836282193661 0.075186513364315033
0.09712422639131546 0.014072492718696594 0.07865200936794281
0.17570343613624573 0.018647301942110062 0.08175988495349884
0.26561316847801208 0.026149973273277283 0.082879863679409027
0.35261249542236328 0.033858697861433029 0.084915027022361755
0.43372559547424316 0.039259698241949081 0.090105153620243073
0.51685851812362671 0.044814091175794601 0.094909831881523132
0.60693967342376709 0.052117664366960526 0.099837854504585266
0.7032475471496582 0.060094468295574188 0.10742944478988647
0.79833334684371948 0.068893164396286011 0.11544036865234375
0.88346302509307861 0.075614944100379944 0.12134052067995071
0.95382869243621826 0.073367699980735779 0.12798099219799042
0.011932462453842163 0.041178099811077118 0.07789979875087738
0.040097929537296295 0.039925429970026016 0.076387949287891388
0.097350053489208221 0.044073097407817841 0.080669969320297241
0.18045301735401154 0.048590537160634995 0.086483404040336609
0.26918032765388489 0.056429784744977951 0.089220844209194183
0.3531365692615509 0.063836328685283661 0.091634266078472137
0.4325900673866272 0.06814989447593689 0.096113361418247223
0.5163683295249939 0.072536438703536987 0.10205759108066559
0.60779863595962524 0.079296410083770752 0.10951162874698639
0.70588147640228271 0.088080309331417084 0.1188020259141922
0.79957801103591919 0.097539998590946198 0.12679584324359894
0.8800092339515686 0.10389811545610428 0.13214518129825592
0.94733023643493652 0.10433170199394226 0.13694337010383606
0.015282784588634968 0.097211845219135284 0.085091203451156616
0.043717626482248306 0.096811138093471527 0.082058772444725037
0.1031915694475174 0.10219445079565048 0.085014328360557556
0.18742863833904266 0.1068468913435936 0.091788381338119507
0.27406483888626099 0.11391683667898178 0.095471158623695374
0.35477533936500549 0.1184321865439415 0.098467759788036346
0.43322134017944336 0.11996856331825256 0.10256006568670273
0.51665747165679932 0.12236664444208145 0.1091274619102478
0.61027294397354126 0.12783220410346985 0.11859457194805145
0.70980626344680786 0.13646510243415833 0.12912580370903015
0.80310523509979248 0.14555066823959351 0.13747644424438477
0.88096624612808228 0.15160779654979706 0.14224739372730255
0.94510293006896973 0.15235184133052826 0.14640103280544281
0.022015634924173355 0.18033789098262787 0.091709882020950317
0.05427386611700058 0.18075984716415405 0.089602887630462646
0.11174658685922623 0.18673183023929596 0.091080881655216217
0.19191119074821472 0.19200895726680756 0.096217408776283264
0.27743643522262573 0.1960567981004715 0.10074186325073242
0.35824915766716003 0.19608992338180542 0.10490145534276962
0.43557226657867432 0.19545614719390869 0.10807719826698303
0.51820939779281616 0.19679717719554901 0.11381897330284119
0.61226308345794678 0.20076961815357208 0.12390340119600296
0.71279823780059814 0.20897646248340607 0.13448624312877655
0.80734932422637939 0.21859268844127655 0.14254742860794067
0.88595688343048096 0.22448301315307617 0.14768482744693756
0.94947797060012817 0.22363141179084778 0.15279370546340942
0.029887525364756584 0.26956841349601746 0.096610724925994873
0.064114801585674286 0.26997578144073486 0.095434390008449554
