assets/lut/abigailgonzalez blue house.cube
# Created by: G'MIC (https://gmic.eu)
TITLE "blue_house"
# LUT size
LUT_3D_SIZE 5
# Data domain
DOMAIN_MIN 0.0 0.0 0.0
DOMAIN_MAX 1.0 1.0 1.0
# LUT data points
0.014077533967792988 0.023157695308327675 0.02442525140941143
0.19178676605224609 0.034608025103807449 0.024123458191752434
0.43030509352684021 0.062272060662508011 0.028261087834835052
0.66917687654495239 0.10917623341083527 0.041621115058660507
0.84957069158554077 0.13686801493167877 0.049515921622514725
0.024998504668474197 0.18523570895195007 0.044175751507282257
0.21165288984775543 0.18801683187484741 0.031936496496200562
0.45588874816894531 0.21341176331043243 0.0346209816634655
0.6885954737663269 0.25953617691993713 0.060875419527292252
0.86760008335113525 0.30832883715629578 0.087967634201049805
0.054129745811223984 0.35138282179832458 0.068673059344291687
0.22474199533462524 0.3774016797542572 0.064351849257946014
0.53317928314208984 0.39525958895683289 0.061929948627948761
0.74598318338394165 0.42855513095855713 0.065366916358470917
0.90503436326980591 0.47032696008682251 0.10185669362545013
0.084525167942047119 0.53647196292877197 0.11864839494228363
0.25632652640342712 0.57416868209838867 0.11484469473361969
0.57233649492263794 0.61425590515136719 0.10333474725484848
0.76791369915008545 0.62002450227737427 0.10097698122262955
0.92106443643569946 0.62932687997817993 0.11968835443258286
0.13699036836624146 0.71602678298950195 0.17261411249637604
0.32093068957328796 0.75414508581161499 0.17969460785388947
0.58900761604309082 0.79455047845840454 0.1561933308839798
0.76186782121658325 0.80319267511367798 0.14480316638946533
0.91316622495651245 0.79981768131256104 0.14610029757022858
0.020161079242825508 0.040048830211162567 0.17627730965614319
0.17381581664085388 0.040848840028047562 0.17428150773048401
0.4465433657169342 0.061923366039991379 0.1541643887758255
0.68562948703765869 0.10943026095628738 0.16228877007961273
0.85098028182983398 0.1412331759929657 0.17690402269363403
0.016929881647229195 0.1977098137140274 0.21205636858940125
0.14672164618968964 0.20906974375247955 0.22233995795249939
0.46666175127029419 0.23974567651748657 0.20126672089099884
0.70699113607406616 0.28349855542182922 0.19776307046413422
0.86053812503814697 0.34535062313079834 0.25065803527832031
0.039021823555231094 0.37623283267021179 0.25331425666809082
0.16048638522624969 0.39972737431526184 0.2520347535610199
0.54183357954025269 0.43211597204208374 0.19700740277767181
0.74971878528594971 0.47612562775611877 0.23733150959014893
0.89435595273971558 0.51286357641220093 0.28063791990280151
0.089228563010692596 0.57548993825912476 0.30234608054161072
0.20318756997585297 0.5902600884437561 0.29688310623168945
0.54387760162353516 0.64127546548843384 0.26101014018058777
0.76886618137359619 0.65207153558731079 0.26209279894828796
0.91562485694885254 0.66468816995620728 0.29458445310592651
0.14391125738620758 0.74201220273971558 0.33157876133918762
0.28344839811325073 0.75978946685791016 0.33167341351509094
0.57398301362991333 0.80764579772949219 0.32529202103614807
0.76810866594314575 0.8279765248298645 0.3070426881313324
0.90812402963638306 0.82379919290542603 0.30350509285926819
0.018592355772852898 0.072697624564170837 0.33159530162811279
0.13092535734176636 0.057537183165550232 0.33288103342056274
0.36002695560455322 0.066616803407669067 0.31421723961830139
0.67251050472259521 0.1185145378112793 0.30732429027557373
0.8538019061088562 0.16298364102840424 0.33873999118804932
0.01511727087199688 0.21330927312374115 0.37233743071556091
0.11062096804380417 0.22429151833057404 0.39307272434234619
0.39024657011032104 0.25137311220169067 0.39020001888275146
0.70937693119049072 0.32119154930114746 0.4009118378162384
0.87552529573440552 0.36532837152481079 0.43044623732566833
0.031206423416733742 0.39393866062164307 0.43363752961158752
0.13739429414272308 0.4167838990688324 0.44605377316474915
0.37230053544044495 0.46479147672653198 0.47805917263031006
0.7221376895904541 0.53549450635910034 0.50574028491973877
0.89596462249755859 0.55819803476333618 0.50831663608551025
0.089839547872543335 0.61084896326065063 0.50020295381546021
0.20581845939159393 0.62628751993179321 0.50461536645889282
0.46941310167312622 0.66391241550445557 0.50223112106323242
0.76741558313369751 0.70080387592315674 0.48953330516815186
0.92165541648864746 0.71953266859054565 0.51898032426834106
0.13513810932636261 0.77238768339157104 0.52135586738586426
0.25816142559051514 0.78221052885055542 0.52093935012817383
0.54898917675018311 0.83430081605911255 0.52632302045822144
0.77678698301315308 0.86047530174255371 0.50311136245727539
0.92420119047164917 0.86041808128356934 0.48900926113128662
0.012338929809629917 0.086645014584064484 0.49177414178848267
0.13942505419254303 0.075394198298454285 0.49411469697952271
0.27078881859779358 0.076336696743965149 0.49660012125968933
0.63408035039901733 0.13749638199806213 0.47222942113876343
0.84715813398361206 0.18734131753444672 0.50153887271881104
0.015842122957110405 0.24648745357990265 0.5380864143371582
0.13544999063014984 0.25173112750053406 0.55199068784713745
0.28085505962371826 0.25126990675926208 0.56207007169723511
0.68546980619430542 0.33257099986076355 0.56094467639923096
0.86597675085067749 0.37643846869468689 0.58859574794769287
0.032795462757349014 0.42620143294334412 0.59410762786865234
0.14054988324642181 0.44830933213233948 0.61338913440704346
0.30346587300300598 0.47913694381713867 0.64756101369857788
0.72267574071884155 0.55940139293670654 0.66524827480316162
0.89823883771896362 0.57976484298706055 0.67771494388580322
0.067411161959171295 0.60981643199920654 0.65447145700454712
0.17954176664352417 0.62828242778778076 0.66946429014205933
0.37205067276954651 0.66979187726974487 0.69657397270202637
0.75682073831558228 0.7410312294960022 0.71023190021514893
0.92222851514816284 0.75664865970611572 0.72314846515655518
0.11659758538007736 0.78013938665390015 0.6881377100944519
0.25315257906913757 0.80105775594711304 0.69958257675170898
0.47862657904624939 0.85003179311752319 0.72181534767150879
0.78079807758331299 0.89576095342636108 0.72412645816802979
0.93446648120880127 0.8973846435546875 0.69507044553756714
0.013632950372993946 0.11380592733621597 0.65531450510025024
0.1443413645029068 0.11625723540782928 0.66350692510604858
0.29603546857833862 0.12284199148416519 0.66894972324371338
0.58066236972808838 0.16410480439662933 0.6621628999710083
0.83117836713790894 0.20775613188743591 0.66479933261871338
0.020666444674134254 0.2832389771938324 0.70001041889190674
0.1426735520362854 0.29257628321647644 0.71333783864974976
0.28943496942520142 0.30744341015815735 0.7323642373085022
0.61051201820373535 0.34983041882514954 0.74245315790176392
0.85468399524688721 0.39073225855827332 0.73951172828674316
0.034947026520967484 0.46076086163520813 0.74697107076644897
0.14767485857009888 0.47959032654762268 0.76824384927749634
0.28726980090141296 0.50577366352081299 0.79637855291366577
0.66238391399383545 0.55716395378112793 0.82182192802429199
0.8895190954208374 0.58941411972045898 0.82702332735061646
0.059538178145885468 0.61964726448059082 0.79587835073471069
0.1818978488445282 0.63989073038101196 0.80983489751815796
0.34095171093940735 0.67471134662628174 0.83365380764007568
0.70477199554443359 0.74905729293823242 0.8754696249961853
0.91793197393417358 0.77495366334915161 0.88451015949249268
0.10764909535646439 0.78754109144210815 0.83422785997390747
0.24717959761619568 0.81002825498580933 0.84729546308517456
0.41660374402999878 0.84502744674682617 0.87286996841430664
0.74051970243453979 0.90388619899749756 0.90343379974365234
0.94578832387924194 0.92485594749450684 0.89387810230255127
