assets/lut/abigailgonzalez old west.cube
# Created by: G'MIC (https://gmic.eu)
TITLE "old_west"
# LUT size
LUT_3D_SIZE 7
# Data domain
DOMAIN_MIN 0.0 0.0 0.0
DOMAIN_MAX 1.0 1.0 1.0
# LUT data points
0.031374268233776093 0.068164065480232239 0.069671630859375
0.14169353246688843 0.089534491300582886 0.08406105637550354
0.28916719555854797 0.12357880920171738 0.054945942014455795
0.44981342554092407 0.16187287867069244 0.063876613974571228
0.61396127939224243 0.19887030124664307 0.14995108544826508
0.76502281427383423 0.23744651675224304 0.20388627052307129
0.8900337815284729 0.27376553416252136 0.22235693037509918
0.051592390984296799 0.16088700294494629 0.060067061334848404
0.18590717017650604 0.1522844135761261 0.052783366292715073
0.33987060189247131 0.16831611096858978 0.037329461425542831
0.49569714069366455 0.20516814291477203 0.057618159800767899
0.65782004594802856 0.24349404871463776 0.12623982131481171
0.80749928951263428 0.28972944617271423 0.18871699273586273
0.92341256141662598 0.33278092741966248 0.20380482077598572
0.085522957146167755 0.26527374982833862 0.051014035940170288
0.21831426024436951 0.27624174952507019 0.052442245185375214
0.43141648173332214 0.25739285349845886 0.021828370168805122
0.60951894521713257 0.27534753084182739 0.071368306875228882
0.75259745121002197 0.3171846866607666 0.13532933592796326
0.87084096670150757 0.35897782444953918 0.16644647717475891
0.95713788270950317 0.40343391895294189 0.16598351299762726
0.12055809050798416 0.36341679096221924 0.030828319489955902
0.26995670795440674 0.39163464307785034 0.034775812178850174
0.50387787818908691 0.41049486398696899 0.027581173926591873
0.71534860134124756 0.3923894464969635 0.069653637707233429
0.85422402620315552 0.41040542721748352 0.11291743069887161
0.94227266311645508 0.44429561495780945 0.11798719316720963
0.97001188993453979 0.47819513082504272 0.12014254182577133
0.15621587634086609 0.46769145131111145 0.0058514014817774296
0.3173273503780365 0.49070292711257935 0.031776998192071915
0.54149782657623291 0.5304485559463501 0.056805584579706192
0.75172501802444458 0.58557623624801636 0.043630771338939667
0.91462671756744385 0.55517131090164185 0.070182487368583679
0.96765732765197754 0.54387599229812622 0.08903948962688446
0.97355782985687256 0.56805092096328735 0.09871942549943924
0.20226968824863434 0.58219069242477417 0.0087333228439092636
0.36158141493797302 0.61052632331848145 0.031220335513353348
0.57196992635726929 0.66001689434051514 0.043570276349782944
0.76982200145721436 0.72396916151046753 0.040944371372461319
0.92197972536087036 0.76366645097732544 0.042836163192987442
0.97631257772445679 0.71915680170059204 0.057755578309297562
0.98987704515457153 0.68472588062286377 0.081434853374958038
0.28829649090766907 0.80832439661026001 0
0.41539579629898071 0.83456075191497803 0.0036063848529011011
0.6069648265838623 0.86491066217422485 0.030552433803677559
0.79534393548965454 0.88278365135192871 0.046259623020887375
0.93178963661193848 0.88660198450088501 0.043598923832178116
0.98802000284194946 0.91296678781509399 0.037831790745258331
1 0.87888699769973755 0.048985470086336136
0.0050945505499839783 0.092655614018440247 0.13770811259746552
0.15233437716960907 0.10194458067417145 0.14628933370113373
0.31860440969467163 0.12968212366104126 0.13294187188148499
0.47022703289985657 0.15745577216148376 0.1230408176779747
0.62226039171218872 0.20031885802745819 0.17842705547809601
0.77039891481399536 0.23589144647121429 0.22506599128246307
0.89655393362045288 0.2650512158870697 0.24852234125137329
0.009514274075627327 0.15123137831687927 0.14189121127128601
0.12847144901752472 0.16342395544052124 0.15207374095916748
0.32018712162971497 0.18450058996677399 0.13547191023826599
0.49508008360862732 0.20024178922176361 0.11531122028827667
0.64773368835449219 0.23385846614837646 0.16877612471580505
0.79558944702148438 0.27459686994552612 0.2165440171957016
0.92069917917251587 0.31111642718315125 0.23721235990524292
0.047695562243461609 0.26376745104789734 0.12234903872013092
0.15168195962905884 0.2835727334022522 0.10340940952301025
0.40739494562149048 0.27116554975509644 0.073299303650856018
0.581390380859375 0.28728985786437988 0.090966381132602692
0.7265966534614563 0.31943872570991516 0.15133368968963623
0.85754752159118652 0.35557630658149719 0.18998941779136658
0.95712602138519287 0.39754152297973633 0.20316901803016663
0.081618785858154297 0.3489205539226532 0.099504314363002777
0.21696765720844269 0.40018752217292786 0.066745102405548096
0.47878667712211609 0.41291213035583496 0.073974147439002991
0.69765192270278931 0.40228459239006042 0.086047559976577759
0.83310329914093018 0.41912487149238586 0.12369415909051895
0.93120259046554565 0.45725750923156738 0.12978480756282806
0.97374457120895386 0.49083748459815979 0.15172684192657471
0.10701274126768112 0.44037613272666931 0.08810366690158844
0.27505457401275635 0.49002334475517273 0.067865945398807526
0.51925301551818848 0.52793073654174805 0.10269772261381149
0.73651528358459473 0.58729511499404907 0.061141550540924072
0.90084278583526611 0.56107079982757568 0.086551785469055176
0.96670830249786377 0.55046325922012329 0.099196083843708038
0.97603267431259155 0.58031708002090454 0.10473573207855225
0.15126337110996246 0.56219828128814697 0.07508520781993866
0.32193857431411743 0.60563534498214722 0.058040246367454529
0.54925036430358887 0.64972031116485596 0.072821222245693207
0.76280802488327026 0.72019809484481812 0.067043140530586243
0.91373991966247559 0.75789839029312134 0.064568988978862762
0.97611540555953979 0.71327048540115356 0.076572045683860779
0.98891901969909668 0.68543511629104614 0.11362332850694656
0.2765125036239624 0.81599879264831543 0.0068123312667012215
0.38736522197723389 0.82887977361679077 0.024678727611899376
0.58300131559371948 0.85245227813720703 0.047431811690330505
0.78448987007141113 0.88574862480163574 0.065943561494350433
0.93003112077713013 0.89163672924041748 0.065828748047351837
0.9849439263343811 0.9099578857421875 0.060651831328868866
0.99987578392028809 0.88404035568237305 0.065385185182094574
0.00057043938431888819 0.12859824299812317 0.2014087438583374
0.075977414846420288 0.14131796360015869 0.2275366336107254
0.36929160356521606 0.16438567638397217 0.22208790481090546
0.55623918771743774 0.19595889747142792 0.2081366628408432
0.69277453422546387 0.22921724617481232 0.2463630735874176
0.8103756308555603 0.26063603162765503 0.26801171898841858
0.92057996988296509 0.28491911292076111 0.28119704127311707
0.0061649545095860958 0.16614571213722229 0.20250849425792694
0.047016248106956482 0.18389163911342621 0.23291808366775513
0.34350231289863586 0.20599544048309326 0.24984937906265259
0.55511069297790527 0.22779573500156403 0.22117877006530762
0.68841171264648438 0.25360071659088135 0.25594648718833923
0.81717133522033691 0.28050979971885681 0.27740058302879333
0.93835228681564331 0.30534908175468445 0.28026664257049561
0.0046406765468418598 0.26029109954833984 0.22687731683254242
0.02961914986371994 0.28325283527374268 0.23498459160327911
0.29026338458061218 0.3070533275604248 0.27012652158737183
0.53941142559051514 0.32363349199295044 0.2562122642993927
0.70456820726394653 0.34110572934150696 0.26128965616226196
0.84226500988006592 0.35955479741096497 0.29853621125221252
0.95441287755966187 0.38587099313735962 0.29929497838020325
0.016504384577274323 0.37545061111450195 0.22831055521965027
0.08006083220243454 0.39502456784248352 0.20058445632457733
0.37338441610336304 0.42948931455612183 0.19071817398071289
0.64902061223983765 0.43198677897453308 0.18806126713752747
0.79406827688217163 0.45171508193016052 0.24870428442955017
0.91228556632995605 0.48851528763771057 0.27465668320655823
0.97138470411300659 0.51614856719970703 0.28182971477508545
0.0165418591350317 0.44604027271270752 0.21693575382232666
0.12721481919288635 0.46712595224380493 0.16459368169307709
0.4485393762588501 0.52874702215194702 0.1865924596786499
0.70495355129241943 0.58740788698196411 0.15043337643146515
0.87842625379562378 0.57752972841262817 0.15800778567790985
0.9640393853187561 0.57402169704437256 0.20259085297584534
0.97596293687820435 0.60790592432022095 0.23845744132995605
0.036454562097787857 0.51395893096923828 0.21422579884529114
0.18697971105575562 0.57972550392150879 0.14298218488693237
0.48388594388961792 0.64262092113494873 0.15683078765869141
0.71691220998764038 0.71027082204818726 0.16500972211360931
0.90107572078704834 0.75152069330215454 0.11661191284656525
0.98197513818740845 0.72014278173446655 0.098329015076160431
0.98664212226867676 0.69738352298736572 0.23733146488666534
0.22777241468429565 0.80138194561004639 0.12291710078716278
0.31471008062362671 0.83722954988479614 0.069799579679965973
0.53233522176742554 0.86222201585769653 0.072500728070735931
0.75241708755493164 0.88835692405700684 0.12107250839471817
0.91862839460372925 0.89792227745056152 0.13473552465438843
0.98249989748001099 0.90776032209396362 0.11321593821048737
0.99811017513275146 0.87312459945678711 0.13680295646190643
0.013341402634978294 0.17681829631328583 0.2699027955532074
0.01580810546875 0.18340283632278442 0.29705855250358582
0.3061489462852478 0.20164807140827179 0.31956711411476135
0.60071021318435669 0.24066776037216187 0.28199821710586548
0.76653742790222168 0.26451385021209717 0.30245587229728699
0.87547028064727783 0.2948431670665741 0.32669010758399963
0.94786643981933594 0.3274175226688385 0.34975376725196838
0.011462087742984295 0.20226804912090302 0.26446843147277832
0.01716238260269165 0.21534301340579987 0.28955325484275818
0.23777945339679718 0.23229405283927917 0.32997867465019226
0.6060827374458313 0.26925212144851685 0.29618334770202637
0.75664514303207397 0.28535109758377075 0.31750637292861938
0.86998492479324341 0.31358635425567627 0.33897688984870911
0.9553033709526062 0.34822118282318115 0.36029806733131409
0.0051386966370046139 0.26325562596321106 0.27968329191207886
0.013182890601456165 0.28415316343307495 0.30733487010002136
0.12102870643138885 0.31572648882865906 0.36698499321937561
0.56567317247390747 0.34163418412208557 0.36253908276557922
0.73557287454605103 0.35304811596870422 0.35457393527030945
0.84905391931533813 0.37478548288345337 0.37801462411880493
0.95285147428512573 0.39944598078727722 0.39699971675872803
0.0038307339418679476 0.37548533082008362 0.32420498132705688
0.022826595231890678 0.40000411868095398 0.34397214651107788
0.083162881433963776 0.44220903515815735 0.38104343414306641
0.52621012926101685 0.47178903222084045 0.42227131128311157
0.72482907772064209 0.50037956237792969 0.42352235317230225
0.87175136804580688 0.52313017845153809 0.42089146375656128
0.96601885557174683 0.52559316158294678 0.43417051434516907
0.0037783603183925152 0.52826309204101562 0.36012476682662964
0.027365606278181076 0.53497016429901123 0.35601890087127686
0.17517411708831787 0.54386377334594727 0.33919963240623474
0.60103851556777954 0.59030866622924805 0.33920848369598389
0.82564616203308105 0.60657411813735962 0.34362807869911194
0.9365842342376709 0.62337428331375122 0.39575847983360291
0.97730052471160889 0.64877086877822876 0.41526257991790771
0.00029352225828915834 0.60014510154724121 0.34855836629867554
0.021391686052083969 0.58221405744552612 0.31191027164459229
0.27212241291999817 0.63338381052017212 0.25734934210777283
0.65881788730621338 0.69961452484130859 0.30657079815864563
0.85863810777664185 0.74417650699615479 0.28489434719085693
0.96995812654495239 0.72404700517654419 0.25079476833343506
0.98513758182525635 0.71833878755569458 0.38937726616859436
0.086379513144493103 0.81203699111938477 0.24937309324741364
0.1649678498506546 0.81543052196502686 0.21996809542179108
0.38708734512329102 0.90966862440109253 0.15470437705516815
0.68606352806091309 0.915854811668396 0.21496608853340149
0.88682395219802856 0.90975332260131836 0.30270305275917053
0.9787067174911499 0.90567857027053833 0.28968077898025513
0.99816298484802246 0.85905987024307251 0.29602113366127014
0.011829271912574768 0.22066694498062134 0.34114342927932739
0.001022398704662919 0.22607049345970154 0.36466309428215027
0.20063039660453796 0.24079570174217224 0.39840328693389893
0.5627790093421936 0.28226569294929504 0.34926074743270874
0.77508187294006348 0.30656242370605469 0.34517446160316467
0.91396236419677734 0.32907965779304504 0.37937167286872864
0.96902304887771606 0.37030875682830811 0.42391130328178406
0.013385024853050709 0.2466244250535965 0.3394610583782196
0.012730826623737812 0.25088769197463989 0.35362210869789124
0.11925623565912247 0.2638222873210907 0.39838963747024536
0.54865550994873047 0.30385124683380127 0.37558457255363464
0.77089673280715942 0.33096244931221008 0.36708948016166687
0.90866184234619141 0.35661804676055908 0.4029935896396637
0.97021979093551636 0.4033166766166687 0.45576968789100647
0.0094000576063990593 0.28683683276176453 0.34118545055389404
0.029004430398344994 0.29945671558380127 0.3592410683631897
0.03990936279296875 0.32208704948425293 0.41552942991256714
0.46682393550872803 0.35050061345100403 0.44823518395423889
0.75930047035217285 0.38411170244216919 0.41244038939476013
0.88478201627731323 0.40797758102416992 0.44616279006004333
0.96158552169799805 0.44621145725250244 0.4934544563293457
0.0022670670878142118 0.36432105302810669 0.3751227855682373
0.023831071332097054 0.38826745748519897 0.3981977105140686
0.028899488970637321 0.42521870136260986 0.44625663757324219
0.31420138478279114 0.4629482626914978 0.54340803623199463
0.71888828277587891 0.49871695041656494 0.54602164030075073
0.8610495924949646 0.52146637439727783 0.53884381055831909
0.9631040096282959 0.5372241735458374 0.54922348260879517
0.0053027733229100704 0.4960971474647522 0.44082161784172058
0.026016309857368469 0.52204519510269165 0.46118152141571045
0.028040718287229538 0.55341988801956177 0.48950758576393127
0.264669269323349 0.60563528537750244 0.56214123964309692
0.73256856203079224 0.63267993927001953 0.56651705503463745
0.88818317651748657 0.66356325149536133 0.58100181818008423
0.97674852609634399 0.67392271757125854 0.56819283962249756
0.0066442005336284637 0.65701425075531006 0.51413494348526001
0.0257529616355896 0.66955071687698364 0.50705784559249878
0.030473297461867332 0.6654961109161377 0.48213794827461243
0.35278704762458801 0.71277207136154175 0.48200175166130066
0.78175449371337891 0.7519608736038208 0.49178284406661987
0.9542275071144104 0.753276526927948 0.4796907901763916
0.98694717884063721 0.76378738880157471 0.5457189679145813
0.0063548218458890915 0.82771450281143188 0.47927233576774597
0.06065591424703598 0.83173191547393799 0.46582591533660889
0.1296917051076889 0.85774844884872437 0.40158915519714355
0.45152845978736877 0.92310166358947754 0.34203165769577026
0.81434458494186401 0.91694873571395874 0.42023003101348877
0.97041827440261841 0.90538549423217773 0.41255238652229309
0.9968762993812561 0.86344259977340698 0.45536151528358459
0.018960855901241302 0.26575925946235657 0.41237899661064148
0.017791777849197388 0.27008646726608276 0.4214634895324707
0.12218403816223145 0.28773695230484009 0.45786762237548828
0.51591008901596069 0.32010328769683838 0.44008398056030273
0.73643147945404053 0.35251861810684204 0.44629555940628052
0.89108902215957642 0.38188043236732483 0.50003129243850708
0.965617835521698 0.41667088866233826 0.54374796152114868
0.013382690958678722 0.29359042644500732 0.41838979721069336
0.032244529575109482 0.29682257771492004 0.42020219564437866
0.042347252368927002 0.30632117390632629 0.45771151781082153
0.45932921767234802 0.33190488815307617 0.47850984334945679
0.71982783079147339 0.37540686130523682 0.47416484355926514
0.88112163543701172 0.40644112229347229 0.52273869514465332
0.96613055467605591 0.44993025064468384 0.57841187715530396
0.0077968374826014042 0.32101926207542419 0.4142305850982666
0.031606830656528473 0.33287546038627625 0.42844647169113159
0.034599527716636658 0.34572374820709229 0.45741990208625793
0.31585395336151123 0.35929712653160095 0.531360924243927
0.71207517385482788 0.39997580647468567 0.53404521942138672
0.87125229835510254 0.43888065218925476 0.56098747253417969
0.95835262537002563 0.48620784282684326 0.60493826866149902
0.0022196003701537848 0.38727384805679321 0.43633207678794861
0.022863918915390968 0.41592365503311157 0.46243393421173096
0.045812495052814484 0.42947199940681458 0.48739033937454224
0.079411633312702179 0.46569126844406128 0.5932314395904541
0.62217104434967041 0.47696930170059204 0.65116256475448608
0.87072557210922241 0.51970589160919189 0.64541006088256836
0.95928692817687988 0.55034708976745605 0.66189491748809814
0.002351169940084219 0.48384547233581543 0.48629289865493774
0.022542033344507217 0.50761598348617554 0.508930504322052
0.038072355091571808 0.53034943342208862 0.53339767456054688
0.078854911029338837 0.57896906137466431 0.62029218673706055
0.55860352516174316 0.61736142635345459 0.71503347158432007
0.86046391725540161 0.65564560890197754 0.72278708219528198
0.96189773082733154 0.67497831583023071 0.71180278062820435
0.0035938636865466833 0.611164391040802 0.54803574085235596
0.023091111332178116 0.6329377293586731 0.56331509351730347
0.031659562140703201 0.65560942888259888 0.58241927623748779
0.040105331689119339 0.69976234436035156 0.62480682134628296
0.53577584028244019 0.75584703683853149 0.71211987733840942
0.89111196994781494 0.78308653831481934 0.70790117979049683
0.97927755117416382 0.80311840772628784 0.72659498453140259
0.0043103084899485111 0.77534544467926025 0.62275320291519165
0.024138147011399269 0.79885292053222656 0.63469123840332031
0.044578865170478821 0.82584941387176514 0.628867506980896
0.098417602479457855 0.86790686845779419 0.59389913082122803
0.5580744743347168 0.92007851600646973 0.58700227737426758
0.92083978652954102 0.90868330001831055 0.63122403621673584
0.99973338842391968 0.88733136653900146 0.64299577474594116
0.0087267858907580376 0.31072184443473816 0.48729577660560608
0.025337968021631241 0.31533005833625793 0.48987677693367004
0.082376487553119659 0.33259415626525879 0.52747952938079834
0.38160461187362671 0.35317134857177734 0.58681184053421021
0.69802528619766235 0.37872248888015747 0.60288208723068237
0.85958147048950195 0.40432816743850708 0.64210432767868042
0.96597909927368164 0.43693608045578003 0.69120848178863525
0.015217799693346024 0.34547793865203857 0.49182170629501343
0.031803775578737259 0.34677368402481079 0.49311214685440063
0.022989414632320404 0.35703793168067932 0.52223926782608032
0.26049447059631348 0.36412358283996582 0.61016029119491577
0.6629866361618042 0.38960853219032288 0.63982796669006348
0.85981398820877075 0.4171789288520813 0.66918176412582397
0.97421568632125854 0.46295130252838135 0.72868657112121582
0.0074126897379755974 0.36917641758918762 0.49078011512756348
0.030104544013738632 0.37132921814918518 0.49913465976715088
0.020930854603648186 0.38260701298713684 0.52572214603424072
0.062529392540454865 0.38832584023475647 0.60529452562332153
0.57015997171401978 0.39779353141784668 0.68750190734863281
0.86288225650787354 0.43338772654533386 0.71703255176544189
0.97382509708404541 0.48824864625930786 0.76038473844528198
8.2936006947420537e-05 0.42560184001922607 0.51198500394821167
0.01591065339744091 0.44087985157966614 0.52953767776489258
0.047117825597524643 0.45151796936988831 0.5467037558555603
0.05179532989859581 0.47524651885032654 0.6079181432723999
0.32887101173400879 0.47367206215858459 0.75184684991836548
0.80813801288604736 0.48552033305168152 0.78037112951278687
0.97677767276763916 0.5347403883934021 0.78225916624069214
0 0.51023358106613159 0.55214214324951172
0.012087219394743443 0.53067398071289062 0.57033067941665649
0.037674847990274429 0.54417258501052856 0.58597183227539062
0.022480759769678116 0.56560713052749634 0.63900750875473022
0.25905761122703552 0.59987866878509521 0.77899438142776489
0.76252996921539307 0.6124197244644165 0.82691764831542969
0.96492850780487061 0.65194237232208252 0.82020634412765503
0 0.61012250185012817 0.59605807065963745
0.01969279907643795 0.62267696857452393 0.60484063625335693
0.056334834545850754 0.63362318277359009 0.61560076475143433
0.059491746127605438 0.6525236964225769 0.64402776956558228
0.27860012650489807 0.71546608209609985 0.78641951084136963
0.76949393749237061 0.76239615678787231 0.8393852710723877
0.96090197563171387 0.78688472509384155 0.85397231578826904
0 0.74660497903823853 0.65145963430404663
0.011587165296077728 0.74879235029220581 0.65019100904464722
0.037023909389972687 0.7664484977722168 0.66603314876556396
0.038527306169271469 0.78797566890716553 0.68104356527328491
0.1894078254699707 0.85239416360855103 0.76701968908309937
0.7531856894493103 0.9063868522644043 0.83609181642532349
0.97984236478805542 0.90905338525772095 0.83688521385192871
