assets/lut/abigailgonzalez cinema 05.cube
# Created by: G'MIC (https://gmic.eu)
TITLE "cinema_5"
# LUT size
LUT_3D_SIZE 7
# Data domain
DOMAIN_MIN 0.0 0.0 0.0
DOMAIN_MAX 1.0 1.0 1.0
# LUT data points
0.03473784402012825 0.032999403774738312 0.047940615564584732
0.18324853479862213 0.049283478409051895 0.048720356076955795
0.34352996945381165 0.060481186956167221 0.052986562252044678
0.48411440849304199 0.076530769467353821 0.075242690742015839
0.66387146711349487 0.098925918340682983 0.1015021950006485
0.85383999347686768 0.1270950585603714 0.12728016078472137
0.9641115665435791 0.1490510106086731 0.14821946620941162
0.016815783455967903 0.15714684128761292 0.053645100444555283
0.15594390034675598 0.16776497662067413 0.05203845351934433
0.35574093461036682 0.18152174353599548 0.045235097408294678
0.52187979221343994 0.19166719913482666 0.058441311120986938
0.72127360105514526 0.21956707537174225 0.082847654819488525
0.89707463979721069 0.24998518824577332 0.11357516050338745
0.98549002408981323 0.27765011787414551 0.13330742716789246
0.0074263927526772022 0.27540954947471619 0.065370894968509674
0.10387901216745377 0.29022526741027832 0.062204848974943161
0.32514923810958862 0.32029733061790466 0.07096341997385025
0.51819396018981934 0.32099735736846924 0.057467814534902573
0.74267774820327759 0.3426964282989502 0.041850879788398743
0.91734719276428223 0.38998645544052124 0.065498694777488708
0.9932098388671875 0.41518875956535339 0.1072845458984375
0.014583856798708439 0.40310630202293396 0.08245377242565155
0.076628439128398895 0.41310366988182068 0.073716029524803162
0.24988019466400146 0.44614145159721375 0.075143299996852875
0.49951469898223877 0.47000625729560852 0.078871004283428192
0.72679054737091064 0.48766723275184631 0.061821836978197098
0.91756480932235718 0.54257094860076904 0.055227570235729218
0.99369210004806519 0.55223971605300903 0.087121643126010895
0.017568551003932953 0.56501942873001099 0.10318814218044281
0.068129010498523712 0.57222604751586914 0.088010750710964203
0.20105758309364319 0.60201364755630493 0.076949596405029297
0.48015502095222473 0.63939052820205688 0.089100584387779236
0.72886425256729126 0.66644161939620972 0.096099376678466797
0.91219758987426758 0.6947479248046875 0.091015025973320007
0.99572944641113281 0.69453310966491699 0.10217829793691635
0.014747858978807926 0.72003984451293945 0.11658008396625519
0.071512393653392792 0.73655366897583008 0.10630792379379272
0.18041048943996429 0.76180523633956909 0.094806626439094543
0.46332284808158875 0.79508298635482788 0.10871116816997528
0.74685090780258179 0.82267695665359497 0.12899953126907349
0.91037410497665405 0.82820862531661987 0.12490808963775635
0.99739283323287964 0.82028692960739136 0.1252313107252121
0.0037083644419908524 0.81379157304763794 0.10319811105728149
0.054068218916654587 0.83044624328613281 0.10264856368303299
0.15643136203289032 0.84352511167526245 0.10347983986139297
0.4146721363067627 0.86365032196044922 0.11833468824625015
0.69312095642089844 0.8935127854347229 0.13815836608409882
0.86854994297027588 0.90110963582992554 0.1395038366317749
0.98128718137741089 0.89846068620681763 0.13659416139125824
0.020472493022680283 0.038559991866350174 0.22086943686008453
0.17225699126720428 0.039550453424453735 0.22619412839412689
0.35840213298797607 0.047874793410301208 0.19966953992843628
0.49782711267471313 0.055719621479511261 0.16564549505710602
0.66139441728591919 0.082787670195102692 0.18825054168701172
0.85554260015487671 0.11888772994279861 0.22011704742908478
0.95098000764846802 0.13725854456424713 0.23319901525974274
0.013456262648105621 0.18049158155918121 0.22490665316581726
0.12526778876781464 0.18357408046722412 0.21990041434764862
0.35408312082290649 0.19981895387172699 0.21722063422203064
0.54268777370452881 0.21768486499786377 0.21016313135623932
0.72883182764053345 0.24824875593185425 0.22935514152050018
0.9030725359916687 0.28107127547264099 0.25469857454299927
0.97367352247238159 0.32417252659797668 0.29001882672309875
0.010719792917370796 0.31283220648765564 0.22127118706703186
0.098388776183128357 0.31732803583145142 0.22737507522106171
0.30101695656776428 0.3313886821269989 0.23196807503700256
0.52758318185806274 0.34979134798049927 0.22343870997428894
0.76773607730865479 0.37992003560066223 0.21568319201469421
0.93758225440979004 0.41772931814193726 0.23157377541065216
0.98896801471710205 0.45504385232925415 0.28720876574516296
0.013847306370735168 0.43987897038459778 0.22588232159614563
0.072322621941566467 0.44086351990699768 0.23223930597305298
0.22385360300540924 0.45624428987503052 0.23944389820098877
0.4712580144405365 0.48172983527183533 0.24256277084350586
0.72944754362106323 0.515735924243927 0.22617964446544647
0.93707287311553955 0.56939339637756348 0.21603742241859436
0.99320530891418457 0.5785178542137146 0.26203200221061707
0.012415223754942417 0.59042596817016602 0.23938378691673279
0.054783210158348083 0.59616833925247192 0.23358500003814697
0.17049224674701691 0.61429470777511597 0.23379307985305786
0.439066082239151 0.64685314893722534 0.24738980829715729
0.70957523584365845 0.68150705099105835 0.256695955991745
0.92467296123504639 0.71582376956939697 0.24909770488739014
0.99905967712402344 0.71688038110733032 0.2698667049407959
0.016014354303479195 0.73498094081878662 0.24355106055736542
0.059619754552841187 0.74599355459213257 0.23395195603370667
0.16846369206905365 0.76643967628479004 0.23579028248786926
0.46075606346130371 0.80225390195846558 0.26073247194290161
0.73876601457595825 0.83104372024536133 0.28027424216270447
0.91916048526763916 0.84363222122192383 0.27689197659492493
0.9999769926071167 0.83876991271972656 0.28148630261421204
0.016331421211361885 0.82061505317687988 0.22856977581977844
0.055688925087451935 0.83321404457092285 0.22580808401107788
0.14703357219696045 0.84595602750778198 0.23589196801185608
0.41837325692176819 0.87527668476104736 0.26075613498687744
0.69980674982070923 0.90333038568496704 0.28189730644226074
0.88130897283554077 0.91356056928634644 0.28613856434822083
0.99313759803771973 0.91526859998703003 0.28713729977607727
0.0088592832908034325 0.038583718240261078 0.35755997896194458
0.11535031348466873 0.043249554932117462 0.37600323557853699
0.32895097136497498 0.039572142064571381 0.38272303342819214
0.51607042551040649 0.041899468749761581 0.34129428863525391
0.6858288049697876 0.0555889792740345 0.32627341151237488
0.85275274515151978 0.088237956166267395 0.32535377144813538
0.94325727224349976 0.11829376220703125 0.32804736495018005
0.013559857383370399 0.1857493668794632 0.38513287901878357
0.082975246012210846 0.19532829523086548 0.3795744776725769
0.28830862045288086 0.19373750686645508 0.37588700652122498
0.51519793272018433 0.20688837766647339 0.35097086429595947
0.71233522891998291 0.22990690171718597 0.3303493857383728
0.88825637102127075 0.26899346709251404 0.34252521395683289
0.96203732490539551 0.31103473901748657 0.37226024270057678
0.019110077992081642 0.33430954813957214 0.38571611046791077
0.07087833434343338 0.34409388899803162 0.38674190640449524
0.2243342250585556 0.34477886557579041 0.38543647527694702
0.49635374546051025 0.36648827791213989 0.37761440873146057
0.73089075088500977 0.39799940586090088 0.37650942802429199
0.91579914093017578 0.44172161817550659 0.38798943161964417
0.98058289289474487 0.48304978013038635 0.43722116947174072
0.013383498415350914 0.47232216596603394 0.37911570072174072
0.063532494008541107 0.4842587411403656 0.38203781843185425
0.17389695346355438 0.48166546225547791 0.38870477676391602
0.43064934015274048 0.49762547016143799 0.39763990044593811
0.71304607391357422 0.53815174102783203 0.3944859504699707
0.93875330686569214 0.59398514032363892 0.39170071482658386
0.99131417274475098 0.61591804027557373 0.43912020325660706
0.007992972619831562 0.62086546421051025 0.38245579600334167
0.051279675215482712 0.63141506910324097 0.37696674466133118
0.12151887267827988 0.63758975267410278 0.38289973139762878
0.36837580800056458 0.65512943267822266 0.39705222845077515
0.68076813220977783 0.69080960750579834 0.41301742196083069
0.92318451404571533 0.73247414827346802 0.4062078595161438
0.99638599157333374 0.74056339263916016 0.43083065748214722
0.013479733839631081 0.76120328903198242 0.37771940231323242
0.066619649529457092 0.76747876405715942 0.36401769518852234
0.14970466494560242 0.78327155113220215 0.36830362677574158
0.39749822020530701 0.80821043252944946 0.39717289805412292
0.72028940916061401 0.83785271644592285 0.42118433117866516
0.91202104091644287 0.85345977544784546 0.42637243866920471
0.99834978580474854 0.85045057535171509 0.43773773312568665
0.018987933173775673 0.83858364820480347 0.3565068244934082
0.070216462016105652 0.84428256750106812 0.34611615538597107
0.16448605060577393 0.85832744836807251 0.3531242311000824
0.4123079776763916 0.88417702913284302 0.37959378957748413
0.69422066211700439 0.91175466775894165 0.40818482637405396
0.88227742910385132 0.92497485876083374 0.42683637142181396
0.99259740114212036 0.92768853902816772 0.43876725435256958
0.010483955033123493 0.042448800057172775 0.46564871072769165
0.074736274778842926 0.049864392727613449 0.49227529764175415
0.23857258260250092 0.043411284685134888 0.51607918739318848
0.47918447852134705 0.044922653585672379 0.51885926723480225
0.68538016080856323 0.050420768558979034 0.51769298315048218
0.87356460094451904 0.07075810432434082 0.50338655710220337
0.9638599157333374 0.10075522214174271 0.47726565599441528
0.016712533310055733 0.18259218335151672 0.52429795265197754
0.069017998874187469 0.20136886835098267 0.51660275459289551
0.19221541285514832 0.19563025236129761 0.52233898639678955
0.45578449964523315 0.20184522867202759 0.52731728553771973
0.70075184106826782 0.21785826981067657 0.51862579584121704
0.90363013744354248 0.2413908988237381 0.49461495876312256
0.9722180962562561 0.27907603979110718 0.48087850213050842
0.018505515530705452 0.33523589372634888 0.53356438875198364
0.075122088193893433 0.35139864683151245 0.53217053413391113
0.15770988166332245 0.35355699062347412 0.53329479694366455
0.42661762237548828 0.3586404025554657 0.53211742639541626
0.70063310861587524 0.37741810083389282 0.51450604200363159
0.90264350175857544 0.40696275234222412 0.49438151717185974
0.97693490982055664 0.45558759570121765 0.52429980039596558
0.013924483209848404 0.48854398727416992 0.53287899494171143
0.075196303427219391 0.50798767805099487 0.53318482637405396
0.13698382675647736 0.51006627082824707 0.53335827589035034
0.35421258211135864 0.51387888193130493 0.53569597005844116
0.69385194778442383 0.54192692041397095 0.53133493661880493
0.92332220077514648 0.58817881345748901 0.52934873104095459
0.98404443264007568 0.62897312641143799 0.57735657691955566
0.011450090445578098 0.64520722627639771 0.53694403171539307
0.064482621848583221 0.6634477972984314 0.53322666883468628
0.10888802260160446 0.67021363973617554 0.53459954261779785
0.29604044556617737 0.67715001106262207 0.54047536849975586
0.64800703525543213 0.70767968893051147 0.55083250999450684
0.92226994037628174 0.74844551086425781 0.55290848016738892
0.99485284090042114 0.76150667667388916 0.59014463424682617
0.017485450953245163 0.78199911117553711 0.53199684619903564
0.073913112282752991 0.79216033220291138 0.52210187911987305
0.12054211646318436 0.8021053671836853 0.52070415019989014
0.30866068601608276 0.81564068794250488 0.52925562858581543
0.66623741388320923 0.84163028001785278 0.55104178190231323
0.90120571851730347 0.86378651857376099 0.57037687301635742
0.99541175365447998 0.86072230339050293 0.58879023790359497
0.01800861768424511 0.86219269037246704 0.50523394346237183
0.071161620318889618 0.86305010318756104 0.49156168103218079
0.12048652768135071 0.86950808763504028 0.4875965416431427
0.32910117506980896 0.8829725980758667 0.49353322386741638
0.6717107892036438 0.91234225034713745 0.52417147159576416
0.88120126724243164 0.93173104524612427 0.55858778953552246
0.98887121677398682 0.93975627422332764 0.58205723762512207
0.01144358329474926 0.033739697188138962 0.60425674915313721
0.072153754532337189 0.04387977346777916 0.63130688667297363
0.17849816381931305 0.036217454820871353 0.64879995584487915
0.40999916195869446 0.037440504878759384 0.66337347030639648
0.64773094654083252 0.047105319797992706 0.67240476608276367
0.86577540636062622 0.063486360013484955 0.67880702018737793
0.97526097297668457 0.086291834712028503 0.65231907367706299
0.012649879790842533 0.17581397294998169 0.6643061637878418
0.067163474857807159 0.19776380062103271 0.66310399770736694
0.15597006678581238 0.19654487073421478 0.66594552993774414
0.39273029565811157 0.19440920650959015 0.68259966373443604
0.65342813730239868 0.20439974963665009 0.69320809841156006
0.88681435585021973 0.22990421950817108 0.69135206937789917
0.98273152112960815 0.25719735026359558 0.65571969747543335
0.014283677563071251 0.33917942643165588 0.67027145624160767
0.072249904274940491 0.35748711228370667 0.67610448598861694
0.12835210561752319 0.36199551820755005 0.68134641647338867
0.34282594919204712 0.3567391037940979 0.69471466541290283
0.65465164184570312 0.37488079071044922 0.7006266713142395
0.89438533782958984 0.39486271142959595 0.68611603975296021
0.98927456140518188 0.42539650201797485 0.65616101026535034
0.015746412798762321 0.5010373592376709 0.67758512496948242
0.076785996556282043 0.52295845746994019 0.6838538646697998
0.10254520922899246 0.52953606843948364 0.68970775604248047
0.2283320426940918 0.52244675159454346 0.6981697678565979
0.63356614112854004 0.53421342372894287 0.69985204935073853
0.89963769912719727 0.54982483386993408 0.6730494499206543
0.98110800981521606 0.59668850898742676 0.67386347055435181
0.016908697783946991 0.66421270370483398 0.69064438343048096
0.081513755023479462 0.69010114669799805 0.69573396444320679
0.094259373843669891 0.70304399728775024 0.69918376207351685
0.17927105724811554 0.70314377546310425 0.69950979948043823
0.57546699047088623 0.71705752611160278 0.70256203413009644
0.90872699022293091 0.74434340000152588 0.7010657787322998
0.98670554161071777 0.77325773239135742 0.72266429662704468
0.019018001854419708 0.81468230485916138 0.70017403364181519
0.093341529369354248 0.82528418302536011 0.69833874702453613
0.11385936290025711 0.83562606573104858 0.69922500848770142
0.14534996449947357 0.84024274349212646 0.68698644638061523
0.53111159801483154 0.8555336594581604 0.69789224863052368
0.88267457485198975 0.87870639562606812 0.71805542707443237
0.99120521545410156 0.88229107856750488 0.73739856481552124
0.013731533661484718 0.89596831798553467 0.67295509576797485
0.07256782054901123 0.89669358730316162 0.66565334796905518
0.087017402052879333 0.89752984046936035 0.65654522180557251
0.15979841351509094 0.89733928442001343 0.64135241508483887
0.54213446378707886 0.91242074966430664 0.65776360034942627
0.85654562711715698 0.94118857383728027 0.69241636991500854
0.97895228862762451 0.95081311464309692 0.72335350513458252
0.015552849508821964 0.02178618498146534 0.74915212392807007
0.094545803964138031 0.037361443042755127 0.77669364213943481
0.20693418383598328 0.045661058276891708 0.78710758686065674
0.39536216855049133 0.039231304079294205 0.78974771499633789
0.63461554050445557 0.041007563471794128 0.7941591739654541
0.85499167442321777 0.060409888625144958 0.80297398567199707
0.97327148914337158 0.080770008265972137 0.78484803438186646
0.014261058531701565 0.16912364959716797 0.79280787706375122
0.073865927755832672 0.19006694853305817 0.80010133981704712
0.15092548727989197 0.19494563341140747 0.79664820432662964
0.35452806949615479 0.1872134655714035 0.80366581678390503
0.63489341735839844 0.18934918940067291 0.80860298871994019
0.85487043857574463 0.21537436544895172 0.8124421238899231
0.9818871021270752 0.24751628935337067 0.79599678516387939
0.017066566273570061 0.33716648817062378 0.7914353609085083
0.077425576746463776 0.35320261120796204 0.80145394802093506
0.12749381363391876 0.35738039016723633 0.80459201335906982
0.28400543332099915 0.3462795615196228 0.81557279825210571
0.62099498510360718 0.35608506202697754 0.82351744174957275
0.86659508943557739 0.381032794713974 0.82645970582962036
0.99257552623748779 0.41419392824172974 0.80362969636917114
0.020336959511041641 0.50433796644210815 0.7988356351852417
0.094094641506671906 0.52160966396331787 0.8046342134475708
0.13350898027420044 0.52716201543807983 0.81077283620834351
0.18295897543430328 0.50338846445083618 0.82396620512008667
0.57851380109786987 0.51819813251495361 0.84070688486099243
0.87212318181991577 0.54023033380508423 0.83735948801040649
0.98707109689712524 0.57148247957229614 0.80158525705337524
0.026740564033389091 0.67158794403076172 0.8112252950668335
0.10706133395433426 0.69375395774841309 0.81572157144546509
0.1331084668636322 0.71125531196594238 0.8231927752494812
0.14849261939525604 0.70505291223526001 0.83152240514755249
0.4945005476474762 0.71448820829391479 0.84482038021087646
0.86891853809356689 0.7265859842300415 0.84157830476760864
0.98627197742462158 0.75383651256561279 0.83165377378463745
0.025653345510363579 0.82491952180862427 0.82372826337814331
0.11167261749505997 0.83440381288528442 0.82396584749221802
0.14834903180599213 0.85111534595489502 0.83073216676712036
0.17525261640548706 0.8589320182800293 0.83297121524810791
0.53322440385818481 0.87280583381652832 0.84418576955795288
0.88494378328323364 0.89366191625595093 0.8544929027557373
0.98670953512191772 0.90431743860244751 0.86524951457977295
0.011775866150856018 0.9042363166809082 0.80267214775085449
0.073574051260948181 0.91085422039031982 0.80155354738235474
0.099039964377880096 0.91956353187561035 0.80181360244750977
0.15669243037700653 0.92515009641647339 0.80135750770568848
0.54933172464370728 0.93779140710830688 0.8185575008392334
0.89009690284729004 0.9614328145980835 0.84501910209655762
0.98701232671737671 0.97205269336700439 0.875621497631073
0.0094183078035712242 0.014280102215707302 0.84156632423400879
0.085302926599979401 0.031202772632241249 0.86563920974731445
0.17596809566020966 0.0472552590072155 0.86712753772735596
0.3137543797492981 0.04961109533905983 0.85772502422332764
0.55184710025787354 0.04359123483300209 0.86283367872238159
0.77435779571533203 0.050963457673788071 0.87088805437088013
0.92460691928863525 0.070303209125995636 0.86908650398254395
0.012602832168340683 0.16138564050197601 0.86611634492874146
0.06610909104347229 0.17936228215694427 0.87914961576461792
0.12755300104618073 0.18616841733455658 0.87229758501052856
0.28838297724723816 0.18378813564777374 0.86776471138000488
0.56186538934707642 0.18284143507480621 0.87304198741912842
0.77617627382278442 0.19637458026409149 0.87324458360671997
0.9403960108757019 0.23312550783157349 0.88092058897018433
0.013053161092102528 0.31614416837692261 0.8645482063293457
0.067324243485927582 0.33211082220077515 0.87422919273376465
0.11986695975065231 0.33796882629394531 0.8727526068687439
0.24408763647079468 0.33158174157142639 0.8749624490737915
0.53285115957260132 0.32999992370605469 0.88110220432281494
0.78639727830886841 0.35161599516868591 0.88300299644470215
0.9518013596534729 0.39403209090232849 0.88957524299621582
0.013147825375199318 0.47331082820892334 0.86899518966674805
0.081614524126052856 0.48652103543281555 0.87020546197891235
0.1215217262506485 0.49054211378097534 0.87108540534973145
0.14737896621227264 0.47758468985557556 0.87976169586181641
0.46331867575645447 0.48283150792121887 0.89311432838439941
0.79810893535614014 0.51141822338104248 0.8997490406036377
0.95450055599212646 0.5520932674407959 0.89607393741607666
0.017625158652663231 0.62934809923171997 0.87118691205978394
0.094419382512569427 0.6502920389175415 0.87459725141525269
0.14361481368541718 0.66271638870239258 0.88015353679656982
0.17347119748592377 0.65857189893722534 0.88874036073684692
0.4323326051235199 0.67846739292144775 0.90341061353683472
0.81080418825149536 0.70602965354919434 0.91200554370880127
0.96266132593154907 0.73147523403167725 0.91272908449172974
0.0093508847057819366 0.77835750579833984 0.8795660138130188
0.080439232289791107 0.79354017972946167 0.87988388538360596
0.12792915105819702 0.81179577112197876 0.89203858375549316
0.14006327092647552 0.82581418752670288 0.90654510259628296
0.39176803827285767 0.84578251838684082 0.91183376312255859
0.86842221021652222 0.88303327560424805 0.9210856556892395
0.97982466220855713 0.90140068531036377 0.93331736326217651
5.1700368203455582e-05 0.87751156091690063 0.87457054853439331
0.026767237111926079 0.88976591825485229 0.87794560194015503
0.057558652013540268 0.90497422218322754 0.88734596967697144
0.077380359172821045 0.92067015171051025 0.90109628438949585
0.32497468590736389 0.93772846460342407 0.90886640548706055
0.86388444900512695 0.96117943525314331 0.92665249109268188
0.98307377099990845 0.98517370223999023 0.95795202255249023
