assets/lut/abigailgonzalez fuji hdr.cube
# Created by: G'MIC (https://gmic.eu)
TITLE "fuji_hdr"
# LUT size
LUT_3D_SIZE 5
# Data domain
DOMAIN_MIN 0.0 0.0 0.0
DOMAIN_MAX 1.0 1.0 1.0
# LUT data points
0.021801413968205452 0.033733952790498734 0.037502303719520569
0.37852185964584351 0.033662803471088409 0.039728321135044098
0.62975186109542847 0.047270651906728745 0.045308806002140045
0.73982667922973633 0.062634006142616272 0.032301120460033417
0.82107174396514893 0.055454015731811523 0.048644557595252991
0.071792915463447571 0.26223066449165344 0.03943755105137825
0.27761763334274292 0.26351022720336914 0.039062619209289551
0.52328157424926758 0.26067924499511719 0.061098285019397736
0.69977641105651855 0.24333488941192627 0.072981290519237518
0.78849416971206665 0.2196747362613678 0.054665599018335342
0.17804162204265594 0.52869230508804321 0.075845427811145782
0.30610281229019165 0.52058964967727661 0.076963581144809723
0.5226777195930481 0.50606697797775269 0.09021468460559845
0.74167996644973755 0.48178625106811523 0.11202174425125122
0.85328066349029541 0.44914531707763672 0.1071939691901207
0.2705172598361969 0.75593852996826172 0.095132984220981598
0.34260103106498718 0.75302970409393311 0.099128499627113342
0.53269737958908081 0.7380484938621521 0.1014857292175293
0.77112537622451782 0.71268123388290405 0.10656276345252991
0.92701339721679688 0.69672155380249023 0.10976789891719818
0.29600286483764648 0.94371426105499268 0.10588701814413071
0.39537566900253296 0.94771885871887207 0.11100906878709793
0.57394266128540039 0.93901371955871582 0.10647247731685638
0.79000318050384521 0.91707444190979004 0.11875860393047333
0.9447292685508728 0.8923267126083374 0.17442558705806732
0.023129826411604881 0.073173269629478455 0.32283613085746765
0.29629948735237122 0.026308709755539894 0.29016917943954468
0.59037840366363525 0.035489488393068314 0.24700547754764557
0.78129315376281738 0.038987595587968826 0.21444855630397797
0.85612136125564575 0.039164107292890549 0.18500462174415588
0.045041643083095551 0.24081195890903473 0.25295847654342651
0.2348075807094574 0.26026672124862671 0.25901514291763306
0.55824834108352661 0.22216212749481201 0.20330058038234711
0.76905697584152222 0.18504339456558228 0.16667211055755615
0.85415416955947876 0.16795304417610168 0.12568551301956177
0.10337220877408981 0.51822906732559204 0.20686788856983185
0.20595407485961914 0.52522450685501099 0.14890985190868378
0.5169028639793396 0.50667434930801392 0.14610278606414795
0.7588687539100647 0.48114043474197388 0.16484344005584717
0.88179057836532593 0.44065731763839722 0.14320684969425201
0.16448628902435303 0.75996959209442139 0.14146538078784943
0.26178461313247681 0.75598275661468506 0.13103730976581573
0.52026975154876709 0.74108976125717163 0.13075973093509674
0.77740037441253662 0.72190457582473755 0.14069904386997223
0.92873328924179077 0.69080370664596558 0.14231280982494354
0.18225011229515076 0.95674723386764526 0.12567971646785736
0.29590123891830444 0.95903098583221436 0.11670337617397308
0.50392502546310425 0.95239967107772827 0.12346390634775162
0.77706199884414673 0.93440151214599609 0.13688687980175018
0.95686310529708862 0.91163396835327148 0.20664796233177185
0.045679595321416855 0.11863029003143311 0.60397565364837646
0.25361412763595581 0.061083998531103134 0.62791568040847778
0.53863567113876343 0.050925746560096741 0.56611472368240356
0.7728765606880188 0.05387510359287262 0.51048463582992554
0.88550227880477905 0.050071969628334045 0.45187866687774658
0.050037983804941177 0.26750069856643677 0.52549177408218384
0.16970767080783844 0.2466387152671814 0.5976862907409668
0.52903854846954346 0.21397140622138977 0.59360510110855103
0.81277507543563843 0.15724940598011017 0.50054264068603516
0.92259865999221802 0.12906210124492645 0.42589491605758667
0.086122266948223114 0.50787967443466187 0.48542925715446472
0.15138225257396698 0.52648746967315674 0.50068873167037964
0.47295302152633667 0.53397995233535767 0.48700582981109619
0.82296609878540039 0.46199721097946167 0.42244324088096619
0.95913553237915039 0.41057154536247253 0.36756128072738647
0.11294279247522354 0.7523190975189209 0.44434219598770142
0.16862690448760986 0.76157671213150024 0.41880553960800171
0.42312362790107727 0.77226889133453369 0.33833038806915283
0.78854084014892578 0.74662154912948608 0.29946005344390869
0.96691405773162842 0.70125800371170044 0.30085104703903198
0.12770417332649231 0.94720578193664551 0.39853140711784363
0.19022569060325623 0.96027445793151855 0.31445619463920593
0.3819240927696228 0.96749436855316162 0.20353399217128754
0.75038260221481323 0.96450966596603394 0.21357280015945435
0.9861680269241333 0.93422406911849976 0.29177668690681458
0.063925482332706451 0.17046119272708893 0.85498899221420288
0.22665059566497803 0.071695975959300995 0.88725167512893677
0.50194144248962402 0.056648854166269302 0.85307770967483521
0.75674527883529663 0.066107697784900665 0.8070024847984314
0.89429324865341187 0.052813824266195297 0.76293748617172241
0.075222373008728027 0.33741533756256104 0.79898375272750854
0.1611156165599823 0.26985612511634827 0.87209624052047729
0.49430924654006958 0.23145987093448639 0.88980931043624878
0.78714156150817871 0.17776745557785034 0.82786327600479126
0.93785089254379272 0.1377914696931839 0.74196618795394897
0.094484500586986542 0.52230924367904663 0.77477192878723145
0.14956741034984589 0.52112877368927002 0.80373388528823853
0.4151378870010376 0.50818711519241333 0.86314612627029419
0.80721288919448853 0.44649788737297058 0.8354828953742981
0.98245149850845337 0.40865007042884827 0.731822669506073
0.1200999841094017 0.74964874982833862 0.73363697528839111
0.16841189563274384 0.75595372915267944 0.73660141229629517
0.35232028365135193 0.77508127689361572 0.75842535495758057
0.75495630502700806 0.76195693016052246 0.72800052165985107
0.98480582237243652 0.72761332988739014 0.68403375148773193
0.13525785505771637 0.91918426752090454 0.74867779016494751
0.1721404641866684 0.93812185525894165 0.74767690896987915
0.31068408489227295 0.96961253881454468 0.68366497755050659
0.66370397806167603 0.98377865552902222 0.59537422657012939
0.9846692681312561 0.96617597341537476 0.66937100887298584
0.097360871732234955 0.18184992671012878 0.95534801483154297
0.24439646303653717 0.12416543066501617 0.95467126369476318
0.5060734748840332 0.09737078845500946 0.96468949317932129
0.73791491985321045 0.061506502330303192 0.96939253807067871
0.90496993064880371 0.003466632217168808 0.96290165185928345
0.091059774160385132 0.39391869306564331 0.96777379512786865
0.21180227398872375 0.35290789604187012 0.98335719108581543
0.56909793615341187 0.38685858249664307 0.98293650150299072
0.76875972747802734 0.25704461336135864 0.98211467266082764
0.94016498327255249 0.13304254412651062 0.96661019325256348
0.11411518603563309 0.56818318367004395 0.9717332124710083
0.19445714354515076 0.56274294853210449 0.99094671010971069
0.42171838879585266 0.54332202672958374 0.98673856258392334
0.71672409772872925 0.48449167609214783 0.98983991146087646
0.95415335893630981 0.440513014793396 0.97743427753448486
0.11963339149951935 0.77439934015274048 0.92799979448318481
0.18749223649501801 0.76754164695739746 0.96874892711639404
0.39390420913696289 0.76397228240966797 0.98662358522415161
0.70976108312606812 0.7654152512550354 0.99225139617919922
0.98524540662765503 0.73238533735275269 0.98392665386199951
0.1529962569475174 0.90423637628555298 0.9042050838470459
0.18371622264385223 0.93919277191162109 0.94381678104400635
0.34052577614784241 0.97550481557846069 0.97859674692153931
0.76083016395568848 0.98872429132461548 0.98597931861877441
0.99699681997299194 0.98625040054321289 0.99124586582183838
