assets/lut/abigailgonzalez old west.cube
# Created by: G'MIC (https://gmic.eu)
TITLE "old_west"
# LUT size
LUT_3D_SIZE 5
# Data domain
DOMAIN_MIN 0.0 0.0 0.0
DOMAIN_MAX 1.0 1.0 1.0
# LUT data points
0.031374268233776093 0.068164065480232239 0.069671630859375
0.21002122759819031 0.1067216619849205 0.079272054135799408
0.44981342554092407 0.16187287867069244 0.063876613974571228
0.69126474857330322 0.21829888224601746 0.18393853306770325
0.8900337815284729 0.27376553416252136 0.22235693037509918
0.069652915000915527 0.21556399762630463 0.053167320787906647
0.29981905221939087 0.20359082520008087 0.033299867063760757
0.54382222890853882 0.23880770802497864 0.05860595777630806
0.76875460147857666 0.29959598183631897 0.1579178124666214
0.94118654727935791 0.36938872933387756 0.18589484691619873
0.12055809050798416 0.36341679096221924 0.030828319489955902
0.3834221363067627 0.39886453747749329 0.039432153105735779
0.71534860134124756 0.3923894464969635 0.069653637707233429
0.90755850076675415 0.42660456895828247 0.11778166890144348
0.97001188993453979 0.47819513082504272 0.12014254182577133
0.17627289891242981 0.5109856128692627 0.011001108214259148
0.44673094153404236 0.55160939693450928 0.060705401003360748
0.76039141416549683 0.6568487286567688 0.040082219988107681
0.95975559949874878 0.64069533348083496 0.063888922333717346
0.98015362024307251 0.61763805150985718 0.092979103326797485
0.28829649090766907 0.80832439661026001 0
0.50561189651489258 0.8525158166885376 0.013498642481863499
0.79534393548965454 0.88278365135192871 0.046259623020887375
0.96825653314590454 0.90505200624465942 0.040044266730546951
1 0.87888699769973755 0.048985470086336136
0.00060070259496569633 0.1092648059129715 0.16905739903450012
0.2508084774017334 0.13193349540233612 0.18922193348407745
0.51090049743652344 0.17320843040943146 0.1638505607843399
0.72084885835647583 0.23118647933006287 0.22677543759346008
0.90865683555603027 0.27018463611602783 0.25945559144020081
0.0073917913250625134 0.20544037222862244 0.18138968944549561
0.20171189308166504 0.22932544350624084 0.20563302934169769
0.52409970760345459 0.25367522239685059 0.17291927337646484
0.75034838914871216 0.2859489917755127 0.23294852674007416
0.94346368312835693 0.33941835165023804 0.25048702955245972
0.046626761555671692 0.35698658227920532 0.15879760682582855
0.2976982593536377 0.41171899437904358 0.12573942542076111
0.67636191844940186 0.41458368301391602 0.11749792844057083
0.87675213813781738 0.4504581093788147 0.18184125423431396
0.97330760955810547 0.50146543979644775 0.20439527928829193
0.066110916435718536 0.46344339847564697 0.15407213568687439
0.38541311025619507 0.55250394344329834 0.12419763952493668
0.73172307014465332 0.65198600292205811 0.099587924778461456
0.95679247379302979 0.6348576545715332 0.090432949364185333
0.9809877872467041 0.63439756631851196 0.16159796714782715
0.25861701369285583 0.81000268459320068 0.050254717469215393
0.4557701051235199 0.84178400039672852 0.039996188133955002
0.77041566371917725 0.88329297304153442 0.086352944374084473
0.96848678588867188 0.90097671747207642 0.079958699643611908
0.99891060590744019 0.88605529069900513 0.086664594709873199
0.013341402634978294 0.17681829631328583 0.2699027955532074
0.11491480469703674 0.18908047676086426 0.31810256838798523
0.60071021318435669 0.24066776037216187 0.28199821710586548
0.82603687047958374 0.27869251370429993 0.31590521335601807
0.94786643981933594 0.3274175226688385 0.34975376725196838
0.0075096427462995052 0.22577057778835297 0.26630279421806335
0.033024434000253677 0.25621721148490906 0.32224953174591064
0.59626680612564087 0.29479756951332092 0.31945529580116272
0.80669426918029785 0.31809335947036743 0.34292620420455933
0.95470964908599854 0.36926090717315674 0.37459778785705566
0.0038307339418679476 0.37548533082008362 0.32420498132705688
0.030972633510828018 0.41952347755432129 0.35818350315093994
0.52621012926101685 0.47178903222084045 0.42227131128311157
0.80367398262023926 0.51347547769546509 0.415162593126297
0.96601885557174683 0.52559316158294678 0.43417051434516907
0.00029243019525893033 0.57547861337661743 0.36798813939094543
0.081040732562541962 0.54943031072616577 0.32430177927017212
0.63286799192428589 0.63467258214950562 0.33291122317314148
0.92244464159011841 0.6615021824836731 0.31255680322647095
0.98059993982315063 0.68379372358322144 0.40512707829475403
0.086379513144493103 0.81203699111938477 0.24937309324741364
0.25428855419158936 0.85523277521133423 0.18629485368728638
0.68606352806091309 0.915854811668396 0.21496608853340149
0.94872617721557617 0.91083914041519165 0.31624767184257507
0.99816298484802246 0.85905987024307251 0.29602113366127014
0.014575928449630737 0.24309338629245758 0.37664645910263062
0.026537517085671425 0.25427281856536865 0.41374450922012329
0.54140746593475342 0.29980778694152832 0.38726216554641724
0.84183228015899658 0.34147512912750244 0.40981003642082214
0.96700817346572876 0.39465311169624329 0.47752249240875244
0.01054223719984293 0.28309363126754761 0.37764561176300049
0.014622901566326618 0.2928459644317627 0.40137571096420288
0.48147505521774292 0.32901486754417419 0.45381426811218262
0.82329845428466797 0.38727253675460815 0.45566010475158691
0.96402543783187866 0.44969964027404785 0.53369569778442383
0.0025700586847960949 0.37251618504524231 0.40265586972236633
0.04179871454834938 0.40941452980041504 0.43975260853767395
0.18615083396434784 0.46173030138015747 0.57661014795303345
0.80091261863708496 0.50950342416763306 0.59090501070022583
0.96063339710235596 0.54651057720184326 0.60608839988708496
0.0049876044504344463 0.5521169900894165 0.4980262815952301
0.024059474468231201 0.59125989675521851 0.53038352727890015
0.1255338191986084 0.65582931041717529 0.60016947984695435
0.80802714824676514 0.71355032920837402 0.64650106430053711
0.97638368606567383 0.74269002676010132 0.65177690982818604
0.0053886710666120052 0.80460274219512939 0.58432543277740479
0.047941528260707855 0.83361023664474487 0.56231307983398438
0.2345898449420929 0.91063296794891357 0.45654010772705078
0.87209951877593994 0.91358816623687744 0.52075457572937012
0.99901652336120605 0.87519580125808716 0.55546838045120239
0.0087267858907580376 0.31072184443473816 0.48729577660560608
0.035948164761066437 0.32230579853057861 0.50418341159820557
0.38160461187362671 0.35317134857177734 0.58681184053421021
0.78398758172988892 0.39128029346466064 0.61964404582977295
0.96597909927368164 0.43693608045578003 0.69120848178863525
0.013791551813483238 0.35798785090446472 0.49188655614852905
0.042720451951026917 0.36556252837181091 0.50644737482070923
0.15253524482250214 0.37298023700714111 0.60802710056304932
0.76919537782669067 0.40808457136154175 0.67333793640136719
0.97082644701004028 0.47839236259460449 0.75085270404815674
8.2936006947420537e-05 0.42560184001922607 0.51198500394821167
0.031246544793248177 0.44695872068405151 0.53832399845123291
0.05179532989859581 0.47524651885032654 0.6079181432723999
0.60378241539001465 0.47727027535438538 0.7742844820022583
0.97677767276763916 0.5347403883934021 0.78225916624069214
0 0.55697393417358398 0.5730774998664856
0.027719026431441307 0.57992208003997803 0.59481179714202881
0.038568176329135895 0.60558748245239258 0.64127629995346069
0.5383756160736084 0.67920529842376709 0.82609063386917114
0.95798081159591675 0.72002947330474854 0.83833193778991699
0 0.74660497903823853 0.65145963430404663
0.025990430265665054 0.75703763961791992 0.65798830986022949
0.038527306169271469 0.78797566890716553 0.68104356527328491
0.50668597221374512 0.88586026430130005 0.82215744256973267
0.97984236478805542 0.90905338525772095 0.83688521385192871
