assets/lut/abigailgonzalez cinema 04.cube
# Created by: G'MIC (https://gmic.eu)
TITLE "cinema_4"
# LUT size
LUT_3D_SIZE 5
# Data domain
DOMAIN_MIN 0.0 0.0 0.0
DOMAIN_MAX 1.0 1.0 1.0
# LUT data points
0.0060533410869538784 0.0065430435352027416 0.0051194732077419758
0.17325244843959808 0.017381750047206879 0.015211860649287701
0.42874181270599365 0.038078278303146362 0.038074091076850891
0.69985955953598022 0.042005859315395355 0.045774318277835846
0.94183623790740967 0.048818551003932953 0.056920744478702545
0.018134951591491699 0.1765633225440979 0.022433068603277206
0.18660458922386169 0.18359465897083282 0.02731139212846756
0.43450033664703369 0.17518702149391174 0.041753314435482025
0.71393442153930664 0.19409769773483276 0.06671607494354248
0.94233614206314087 0.20692451298236847 0.085423596203327179
0.048810411244630814 0.42762717604637146 0.043946810066699982
0.1876644641160965 0.4316401481628418 0.045609507709741592
0.43831086158752441 0.43401113152503967 0.05455741286277771
0.71553903818130493 0.4584905207157135 0.075968936085700989
0.94315308332443237 0.46008512377738953 0.10176150500774384
0.071731656789779663 0.70527893304824829 0.068337447941303253
0.20734560489654541 0.71236145496368408 0.083755746483802795
0.47093838453292847 0.71556049585342407 0.087425515055656433
0.73748737573623657 0.72484308481216431 0.093639880418777466
0.94575375318527222 0.69738054275512695 0.09914100170135498
0.088271692395210266 0.95837289094924927 0.071201160550117493
0.24261708557605743 0.95605599880218506 0.088275149464607239
0.48238149285316467 0.95431506633758545 0.097079046070575714
0.7112242579460144 0.94778597354888916 0.10446129739284515
0.9264833927154541 0.92676347494125366 0.099254444241523743
0.014420154504477978 0.0095943380147218704 0.13100776076316833
0.17477166652679443 0.017091443762183189 0.13672192394733429
0.43258774280548096 0.037550490349531174 0.13778439164161682
0.70397216081619263 0.063944481313228607 0.15767344832420349
0.95310354232788086 0.077666066586971283 0.17654842138290405
0.026212954893708229 0.18071945011615753 0.1455666571855545
0.19337573647499084 0.1949208527803421 0.15464527904987335
0.43815872073173523 0.20303596556186676 0.1655859649181366
0.71692425012588501 0.22046889364719391 0.19004154205322266
0.95294463634490967 0.23247712850570679 0.20224614441394806
0.045572094619274139 0.42604789137840271 0.15127840638160706
0.21022456884384155 0.4336402416229248 0.17055343091487885
0.44613653421401978 0.43640255928039551 0.18388514220714569
0.71920895576477051 0.46804407238960266 0.19978582859039307
0.96112746000289917 0.47866007685661316 0.2215302586555481
0.085037767887115479 0.70591163635253906 0.18095438182353973
0.24342064559459686 0.71519267559051514 0.20394866168498993
0.4827759861946106 0.71866202354431152 0.21408353745937347
0.73962861299514771 0.73200255632400513 0.21789553761482239
0.94869434833526611 0.71009653806686401 0.22757209837436676
0.10856617987155914 0.94954758882522583 0.19705124199390411
0.27247625589370728 0.95501810312271118 0.21654181182384491
0.49612930417060852 0.95126247406005859 0.22749006748199463
0.72455483675003052 0.95158791542053223 0.22531487047672272
0.94824188947677612 0.95120209455490112 0.23397204279899597
0.027363721281290054 0.025890873745083809 0.36013662815093994
0.1617276519536972 0.033936399966478348 0.36632588505744934
0.42583808302879333 0.037569321691989899 0.36078402400016785
0.70675325393676758 0.056610152125358582 0.38620308041572571
0.946155846118927 0.07298964262008667 0.39433157444000244
0.036627016961574554 0.16231092810630798 0.36392316222190857
0.19308918714523315 0.20018765330314636 0.36955615878105164
0.44065183401107788 0.21831220388412476 0.37969914078712463
0.71974688768386841 0.24044124782085419 0.41035011410713196
0.95756334066390991 0.24883493781089783 0.41835397481918335
0.047743074595928192 0.42164239287376404 0.3650662899017334
0.21970757842063904 0.43617409467697144 0.37960532307624817
0.46083265542984009 0.45326706767082214 0.39872035384178162
0.73337411880493164 0.4799712598323822 0.4232524037361145
0.97164064645767212 0.49276807904243469 0.43650290369987488
0.086895108222961426 0.71059077978134155 0.40456873178482056
0.25569099187850952 0.71920955181121826 0.41946488618850708
0.49320575594902039 0.72802603244781494 0.43133100867271423
0.74794644117355347 0.73974907398223877 0.42756539583206177
0.95991569757461548 0.71782201528549194 0.43337205052375793
0.1260809451341629 0.9566352367401123 0.41140025854110718
0.29116013646125793 0.96382516622543335 0.42886507511138916
0.50892895460128784 0.96544426679611206 0.43754163384437561
0.74614650011062622 0.97394692897796631 0.44154539704322815
0.95012086629867554 0.95587146282196045 0.44640764594078064
0.047176629304885864 0.044799879193305969 0.65562689304351807
0.19212934374809265 0.044049941003322601 0.66100609302520752
0.44736981391906738 0.047587946057319641 0.66037839651107788
0.72225075960159302 0.060583509504795074 0.67574155330657959
0.95443189144134521 0.074953474104404449 0.66240549087524414
0.05708993598818779 0.18031395971775055 0.66268140077590942
0.21833023428916931 0.22077953815460205 0.66708862781524658
0.46641257405281067 0.22692543268203735 0.67054909467697144
0.72875124216079712 0.2437717467546463 0.68820077180862427
0.95604270696640015 0.25352060794830322 0.67467731237411499
0.068337954580783844 0.44831830263137817 0.66953456401824951
0.24117083847522736 0.46582421660423279 0.67299896478652954
0.47986248135566711 0.47432389855384827 0.68888473510742188
0.75182503461837769 0.48872116208076477 0.70468020439147949
0.97520095109939575 0.50175267457962036 0.69692349433898926
0.094774045050144196 0.71712690591812134 0.68293339014053345
0.26368415355682373 0.72262012958526611 0.68913841247558594
0.50007843971252441 0.74302017688751221 0.70606213808059692
0.75793015956878662 0.74715429544448853 0.70866572856903076
0.97181218862533569 0.74654906988143921 0.70724308490753174
0.13094630837440491 0.95188266038894653 0.66135960817337036
0.28354492783546448 0.95428639650344849 0.67473894357681274
0.51381534337997437 0.96649742126464844 0.68461483716964722
0.76669371128082275 0.98370438814163208 0.71764791011810303
0.97336244583129883 0.97228103876113892 0.72769010066986084
0.067921973764896393 0.064728498458862305 0.88915979862213135
0.20511738955974579 0.060518465936183929 0.89205902814865112
0.45304805040359497 0.074457146227359772 0.9018358588218689
0.70317703485488892 0.064210124313831329 0.89867150783538818
0.94300746917724609 0.078542150557041168 0.89042001962661743
0.074525021016597748 0.18893270194530487 0.88931286334991455
0.23830698430538177 0.23370729386806488 0.89116716384887695
0.47319936752319336 0.25008219480514526 0.89889669418334961
0.71360039710998535 0.25026151537895203 0.90360009670257568
0.94832324981689453 0.26695007085800171 0.89817988872528076
0.085094675421714783 0.44160711765289307 0.89086639881134033
0.25472500920295715 0.46900737285614014 0.90161424875259399
0.49285098910331726 0.48985034227371216 0.9116327166557312
0.7377922534942627 0.49775740504264832 0.91651362180709839
0.95631146430969238 0.49803921580314636 0.90780770778656006
0.093369804322719574 0.68625378608703613 0.89397633075714111
0.26261597871780396 0.70368808507919312 0.89902180433273315
0.51183211803436279 0.71848487854003906 0.91343212127685547
0.75623327493667603 0.7477114200592041 0.92072969675064087
0.9824708104133606 0.76722663640975952 0.93202519416809082
0.12853541970252991 0.92105942964553833 0.87566816806793213
0.29496094584465027 0.93772006034851074 0.89040368795394897
0.52200031280517578 0.95341110229492188 0.90728271007537842
0.77338123321533203 0.9848601222038269 0.93811321258544922
0.98433190584182739 0.98926573991775513 0.9386252760887146
