assets/lut/abigailgonzalez caribe.cube
# Created by: G'MIC (https://gmic.eu)
TITLE "caribe"
# LUT size
LUT_3D_SIZE 5
# Data domain
DOMAIN_MIN 0.0 0.0 0.0
DOMAIN_MAX 1.0 1.0 1.0
# LUT data points
0.043249256908893585 0.039704956114292145 0.041487898677587509
0.16955232620239258 0.052170157432556152 0.035493049770593643
0.18281075358390808 0.046654600650072098 0.031446062028408051
0.22594465315341949 0.042824734002351761 0.036704491823911667
0.41645219922065735 0.045634102076292038 0.048019722104072571
0.055156946182250977 0.14322714507579803 0.053866084665060043
0.23083323240280151 0.19109280407428741 0.051000706851482391
0.44754061102867126 0.14886513352394104 0.046733975410461426
0.40326860547065735 0.061500132083892822 0.044419560581445694
0.4702400267124176 0.05248941108584404 0.049409769475460052
0.3990359902381897 0.38641801476478577 0.066510908305644989
0.34938821196556091 0.38281500339508057 0.069527827203273773
0.54074728488922119 0.41048836708068848 0.076485760509967804
0.73382735252380371 0.29665839672088623 0.072732783854007721
0.77638781070709229 0.25897681713104248 0.072139963507652283
0.85826766490936279 0.65287399291992188 0.1420055478811264
0.82192087173461914 0.63516813516616821 0.13307340443134308
0.68839919567108154 0.58925408124923706 0.11268793791532516
0.90690070390701294 0.61266839504241943 0.14551977813243866
0.95062792301177979 0.59913653135299683 0.1593339592218399
0.95655220746994019 0.77832651138305664 0.19686122238636017
0.95839893817901611 0.78302419185638428 0.19721147418022156
0.94877463579177856 0.76988798379898071 0.19173926115036011
0.95115005970001221 0.77736800909042358 0.22077354788780212
0.9609869122505188 0.77691948413848877 0.26610937714576721
0.030052842572331429 0.035865381360054016 0.098979741334915161
0.12572154402732849 0.042759466916322708 0.14175410568714142
0.18435487151145935 0.040278535336256027 0.12617373466491699
0.21166573464870453 0.043121501803398132 0.064621672034263611
0.37205865979194641 0.043137256056070328 0.035315569490194321
0.030144501477479935 0.15121275186538696 0.20141859352588654
0.18772995471954346 0.17382906377315521 0.16458500921726227
0.43724808096885681 0.14085802435874939 0.095874562859535217
0.4556504487991333 0.072557248175144196 0.053873263299465179
0.39968398213386536 0.046358205378055573 0.046568568795919418
0.22715505957603455 0.39848446846008301 0.1412501335144043
0.35885322093963623 0.41896182298660278 0.13838799297809601
0.65182125568389893 0.45456734299659729 0.098541185259819031
0.78238439559936523 0.32163462042808533 0.079160265624523163
0.740284264087677 0.22483570873737335 0.068024702370166779
0.75323581695556641 0.65518832206726074 0.13251481950283051
0.7667165994644165 0.64499449729919434 0.1374703049659729
0.82067418098449707 0.64277762174606323 0.13454364240169525
0.9412078857421875 0.64964288473129272 0.15333223342895508
0.94511705636978149 0.57033807039260864 0.1450299471616745
0.9593232274055481 0.78711408376693726 0.20225264132022858
0.9671826958656311 0.78756296634674072 0.19703970849514008
0.95627295970916748 0.76733630895614624 0.18312688171863556
0.95125550031661987 0.76967322826385498 0.19071163237094879
0.95928692817687988 0.75901085138320923 0.23142097890377045
0.031314205378293991 0.031372550874948502 0.13383024930953979
0.042376738041639328 0.033320110291242599 0.15169350802898407
0.11263910681009293 0.036445215344429016 0.17947286367416382
0.19401827454566956 0.035318352282047272 0.1756388247013092
0.44268807768821716 0.047620180994272232 0.095424443483352661
0.040736690163612366 0.12220526486635208 0.29900619387626648
0.070951826870441437 0.11347994208335876 0.27094361186027527
0.30782344937324524 0.090152248740196228 0.2601865828037262
0.35662198066711426 0.04218045249581337 0.19935455918312073
0.39580151438713074 0.037091393023729324 0.053096368908882141
0.054015964269638062 0.3976655900478363 0.47244623303413391
0.12527181208133698 0.41950508952140808 0.44448241591453552
0.46665605902671814 0.43977132439613342 0.40945687890052795
0.70353049039840698 0.33210313320159912 0.27868926525115967
0.65377974510192871 0.12995518743991852 0.069289065897464752
0.32338115572929382 0.62058234214782715 0.40715035796165466
0.3993813693523407 0.62410169839859009 0.36886334419250488
0.6248583197593689 0.66450101137161255 0.34784707427024841
0.9128115177154541 0.71565085649490356 0.31203466653823853
0.93918371200561523 0.57409703731536865 0.16984157264232635
0.88838011026382446 0.83800512552261353 0.45966434478759766
0.90803307294845581 0.82292622327804565 0.37616845965385437
0.9281383752822876 0.80964738130569458 0.28673186898231506
0.95656508207321167 0.79627954959869385 0.21831931173801422
0.95836347341537476 0.76609045267105103 0.18351294100284576
0.035294119268655777 0.034360893070697784 0.194806769490242
0.033521868288516998 0.034785386174917221 0.18894782662391663
0.052748467773199081 0.035294119268655777 0.22062705457210541
0.082677073776721954 0.038431622087955475 0.22784192860126495
0.50735127925872803 0.049980808049440384 0.34791749715805054
0.041138157248497009 0.069807387888431549 0.30852565169334412
0.035994108766317368 0.054605387151241302 0.28146427869796753
0.13261717557907104 0.044206716120243073 0.31663990020751953
0.1927838921546936 0.038950901478528976 0.29504412412643433
0.46036034822463989 0.048558611422777176 0.28283631801605225
0.050877410918474197 0.34164461493492126 0.57399982213973999
0.049520663917064667 0.3337896466255188 0.55607187747955322
0.17652663588523865 0.3495478630065918 0.5357096791267395
0.48911455273628235 0.2897622287273407 0.51052212715148926
0.63242429494857788 0.089218601584434509 0.34425228834152222
0.1192195788025856 0.59954816102981567 0.67514407634735107
0.14635984599590302 0.61856114864349365 0.66512417793273926
0.30899509787559509 0.65990835428237915 0.66268503665924072
0.73046809434890747 0.7115514874458313 0.68392729759216309
0.89173859357833862 0.61007463932037354 0.55627131462097168
0.63125371932983398 0.82485377788543701 0.73289030790328979
0.56247216463088989 0.79433012008666992 0.67475056648254395
0.6280483603477478 0.79878896474838257 0.64649319648742676
0.81221574544906616 0.82775753736495972 0.56253218650817871
0.9655681848526001 0.85016107559204102 0.52956879138946533
0.036276020109653473 0.036579012870788574 0.24565435945987701
0.036938343197107315 0.035294119268655777 0.25117653608322144
0.034927025437355042 0.03946227952837944 0.2782512903213501
0.10572237521409988 0.042376529425382614 0.32786864042282104
0.36928164958953857 0.047363955527544022 0.40362405776977539
0.042655449360609055 0.079960152506828308 0.36280104517936707
0.035795383155345917 0.038908116519451141 0.27180787920951843
0.052856042981147766 0.039695065468549728 0.3257841169834137
0.12702257931232452 0.041166134178638458 0.35555696487426758
0.45025065541267395 0.04495837539434433 0.42446845769882202
0.051313810050487518 0.35755124688148499 0.6149175763130188
0.05244261771440506 0.32079198956489563 0.58544427156448364
0.051081668585538864 0.25168275833129883 0.54272943735122681
0.2933259904384613 0.29330375790596008 0.56992757320404053
0.54774922132492065 0.20559507608413696 0.5572858452796936
0.08745276927947998 0.57672768831253052 0.73158186674118042
0.27218201756477356 0.69282287359237671 0.76394939422607422
0.41281083226203918 0.70377904176712036 0.76803427934646606
0.6134110689163208 0.69539338350296021 0.7630230188369751
0.77077615261077881 0.67444241046905518 0.75522828102111816
0.39373904466629028 0.79064333438873291 0.80468183755874634
0.49450892210006714 0.81239235401153564 0.81146502494812012
0.58266723155975342 0.82789158821105957 0.82401043176651001
0.70055735111236572 0.83891433477401733 0.83164066076278687
0.91506040096282959 0.88044583797454834 0.86442321538925171
