assets/lut/abigailgonzalez blue ice.cube
# Created by: G'MIC (https://gmic.eu)
TITLE "blue_ice"
# LUT size
LUT_3D_SIZE 7
# Data domain
DOMAIN_MIN 0.0 0.0 0.0
DOMAIN_MAX 1.0 1.0 1.0
# LUT data points
0.013335613533854485 0.03041585348546505 0.057031743228435516
0.14139798283576965 0.050475969910621643 0.051491230726242065
0.29766523838043213 0.063400089740753174 0.050905264914035797
0.45431420207023621 0.086734086275100708 0.090919479727745056
0.64088404178619385 0.11300093680620193 0.12952113151550293
0.82590728998184204 0.15458521246910095 0.16182723641395569
0.95346570014953613 0.20070843398571014 0.19757837057113647
0.011599401943385601 0.10851234197616577 0.054437465965747833
0.10884863138198853 0.12469783425331116 0.05811290442943573
0.30680942535400391 0.15053065121173859 0.044116195291280746
0.51472270488739014 0.17691971361637115 0.061141084879636765
0.72212940454483032 0.20967277884483337 0.089731864631175995
0.88146686553955078 0.25258693099021912 0.13195744156837463
0.97203302383422852 0.30234494805335999 0.17123429477214813
0.0050368066877126694 0.20896732807159424 0.076772354543209076
0.057659164071083069 0.22351604700088501 0.072289668023586273
0.26058286428451538 0.25990405678749084 0.077956244349479675
0.50137162208557129 0.29045844078063965 0.060630694031715393
0.75224882364273071 0.32143926620483398 0.042524959892034531
0.91730093955993652 0.37121006846427917 0.065300896763801575
0.9930691123008728 0.42950248718261719 0.12873846292495728
0 0.34359696507453918 0.10250610858201981
0.01997050829231739 0.35405084490776062 0.087665453553199768
0.1886313408613205 0.39214235544204712 0.085677295923233032
0.47547513246536255 0.43228226900100708 0.087677896022796631
0.72500836849212646 0.45983108878135681 0.066266767680644989
0.92221605777740479 0.51392734050750732 0.049237869679927826
0.9989820122718811 0.56856930255889893 0.10427169501781464
3.7339155824156478e-05 0.49964430928230286 0.12209363281726837
0.0037880092859268188 0.51405137777328491 0.10515750199556351
0.13389842212200165 0.54952526092529297 0.095009744167327881
0.44197171926498413 0.60055750608444214 0.10432356595993042
0.71945661306381226 0.63419824838638306 0.11561448127031326
0.91231626272201538 0.65902715921401978 0.10532738268375397
0.99732822179794312 0.69982314109802246 0.12981021404266357
0.010794082656502724 0.64651310443878174 0.15283431112766266
0.0032299414742738008 0.66029173135757446 0.12913854420185089
0.10473927855491638 0.6876673698425293 0.11305190622806549
0.41698044538497925 0.73415076732635498 0.12022027373313904
0.72333711385726929 0.77565115690231323 0.15051959455013275
0.90813994407653809 0.792339026927948 0.15307909250259399
0.99766969680786133 0.81383341550827026 0.16263210773468018
0.010739823803305626 0.74976992607116699 0.17968015372753143
0 0.76485186815261841 0.15108712017536163
0.070753328502178192 0.78376436233520508 0.13358131051063538
0.38196253776550293 0.81652945280075073 0.14752677083015442
0.70301562547683716 0.85308104753494263 0.17070749402046204
0.89825469255447388 0.87624281644821167 0.17705123126506805
0.99898719787597656 0.90125942230224609 0.19231843948364258
0.0074234609492123127 0.037657253444194794 0.20328684151172638
0.12816627323627472 0.040832802653312683 0.20955327153205872
0.3187008798122406 0.043126378208398819 0.19273890554904938
0.47644978761672974 0.064637906849384308 0.16911314427852631
0.65126413106918335 0.097242884337902069 0.18930882215499878
0.81775486469268799 0.13596639037132263 0.2178628146648407
0.93724316358566284 0.18159894645214081 0.2584632933139801
0.0030019273981451988 0.13274937868118286 0.20272839069366455
0.070571914315223694 0.13724072277545929 0.1988980770111084
0.2942817211151123 0.15419995784759521 0.18903593719005585
0.50836080312728882 0.18579405546188354 0.18785928189754486
0.72799551486968994 0.21902523934841156 0.19999223947525024
0.88682377338409424 0.26736271381378174 0.2483258843421936
0.96546250581741333 0.33168724179267883 0.30283492803573608
0.0069956313818693161 0.25266945362091064 0.2137971967458725
0.032300688326358795 0.25484827160835266 0.20385722815990448
0.21951240301132202 0.27312782406806946 0.20143628120422363
0.49893555045127869 0.3114154040813446 0.19750227034091949
0.77385216951370239 0.34980639815330505 0.1890990138053894
0.93635410070419312 0.39952996373176575 0.21852666139602661
0.98936682939529419 0.46395102143287659 0.28743717074394226
0.0070258048363029957 0.39074224233627319 0.23573689162731171
0.015813685953617096 0.38635396957397461 0.22003431618213654
0.15245531499385834 0.4031817615032196 0.21491853892803192
0.43495285511016846 0.44462627172470093 0.22630971670150757
0.73432666063308716 0.48661321401596069 0.20601780712604523
0.94478440284729004 0.53670859336853027 0.18174698948860168
0.99763768911361694 0.58967822790145874 0.25344640016555786
0.014342334121465683 0.53646469116210938 0.25031939148902893
0.0082003278657793999 0.54444307088851929 0.23556548357009888
0.092139102518558502 0.5617871880531311 0.22193214297294617
0.38260996341705322 0.61001849174499512 0.23490099608898163
0.69354784488677979 0.65080744028091431 0.24729201197624207
0.91725820302963257 0.67634660005569458 0.22901380062103271
0.99905771017074585 0.71917605400085449 0.2583807110786438
0.02664978988468647 0.66709619760513306 0.25741201639175415
0.010539649054408073 0.6833420991897583 0.23886622488498688
0.054398242384195328 0.70308965444564819 0.22692839801311493
0.34964272379875183 0.74491125345230103 0.23670981824398041
0.70316094160079956 0.78587526082992554 0.26806166768074036
0.91051864624023438 0.80381971597671509 0.27301305532455444
0.99896782636642456 0.82760965824127197 0.28566649556159973
0.014770103618502617 0.76502734422683716 0.26321589946746826
0.00024740182561799884 0.77904558181762695 0.24140432476997375
0.07583879679441452 0.79571259021759033 0.2274944931268692
0.3711668848991394 0.82739472389221191 0.23918083310127258
0.69900763034820557 0.86306416988372803 0.27450656890869141
0.90317577123641968 0.88427340984344482 0.29437011480331421
1 0.90985935926437378 0.31425830721855164
0.00055637734476476908 0.040715593844652176 0.35069742798805237
0.059955447912216187 0.043673750013113022 0.3602759838104248
0.27068406343460083 0.036468476057052612 0.38846859335899353
0.4973551332950592 0.042427197098731995 0.36440843343734741
0.67617803812026978 0.064239397644996643 0.33874338865280151
0.83012956380844116 0.094608068466186523 0.32240188121795654
0.93692284822463989 0.13561989367008209 0.33198845386505127
0.0011931326007470489 0.15091525018215179 0.36560723185539246
0.034410499036312103 0.15237589180469513 0.36629703640937805
0.22194851934909821 0.15008088946342468 0.37181511521339417
0.48480445146560669 0.16037334501743317 0.35612878203392029
0.6978638768196106 0.18510991334915161 0.32366764545440674
0.87424212694168091 0.23361165821552277 0.32332205772399902
0.95553457736968994 0.30139321088790894 0.37295737862586975
0.0024253546725958586 0.28846624493598938 0.37931835651397705
0.0052054761908948421 0.29104897379875183 0.3773590624332428
0.1380147784948349 0.29132500290870667 0.37325623631477356
0.46752661466598511 0.32000589370727539 0.36716601252555847
0.71678602695465088 0.35638901591300964 0.34935978055000305
0.91172033548355103 0.40425199270248413 0.36837282776832581
0.97603696584701538 0.47671175003051758 0.43112871050834656
0.0068534552119672298 0.4380737841129303 0.39420297741889954
0.0082144346088171005 0.44677034020423889 0.39105349779129028
0.082983545958995819 0.44012206792831421 0.38183778524398804
0.37976998090744019 0.46440222859382629 0.38629019260406494
0.71436399221420288 0.51332873106002808 0.38156363368034363
0.9517742395401001 0.56591171026229858 0.37410798668861389
0.9922826886177063 0.6297152042388916 0.44993692636489868
0.012853719294071198 0.57843887805938721 0.40559285879135132
0.0011958252871409059 0.59382152557373047 0.3959292471408844
0.015206190757453442 0.5929332971572876 0.37982648611068726
0.27344241738319397 0.61986237764358521 0.39025154709815979
0.65413326025009155 0.66346544027328491 0.41488161683082581
0.91263288259506226 0.70463711023330688 0.39493006467819214
0.99793922901153564 0.750404953956604 0.43018683791160583
0.015460624359548092 0.69539743661880493 0.39108124375343323
9.7536576504353434e-06 0.71176791191101074 0.37910598516464233
0.0031261069234460592 0.72241216897964478 0.36859986186027527
0.25939476490020752 0.75300538539886475 0.38530108332633972
0.67227458953857422 0.7941281795501709 0.42314592003822327
0.90165841579437256 0.81783181428909302 0.43105757236480713
0.99810928106307983 0.84482192993164062 0.44936275482177734
0.0078416559845209122 0.78361135721206665 0.3718617856502533
0 0.79592418670654297 0.35921961069107056
0.041766747832298279 0.80438691377639771 0.34434747695922852
0.33518326282501221 0.83140093088150024 0.35651952028274536
0.68967145681381226 0.86947911977767944 0.39999628067016602
0.89867544174194336 0.89532357454299927 0.43701624870300293
0.99912381172180176 0.92285215854644775 0.46637573838233948
0.0021037980914115906 0.041880395263433456 0.4937642514705658
0.037676312029361725 0.041022758930921555 0.50610208511352539
0.18767243623733521 0.034169215708971024 0.52869117259979248
0.43408533930778503 0.030920574441552162 0.5501781702041626
0.66967058181762695 0.036908019334077835 0.54763728380203247
0.85783392190933228 0.057962201535701752 0.51569122076034546
0.96143466234207153 0.10303986817598343 0.48749503493309021
0.0018784765852615237 0.16026623547077179 0.52197253704071045
0.014040823094546795 0.16012202203273773 0.52369314432144165
0.12860071659088135 0.14768645167350769 0.53797382116317749
0.41476669907569885 0.14670121669769287 0.55576735734939575
0.67859458923339844 0.16204723715782166 0.54722410440444946
0.88766545057296753 0.19134150445461273 0.50401681661605835
0.96764153242111206 0.25401672720909119 0.49263527989387512
0 0.31038093566894531 0.54072672128677368
0 0.31598097085952759 0.54436284303665161
0.039719868451356888 0.30431002378463745 0.55132853984832764
0.3557986319065094 0.30801272392272949 0.56415736675262451
0.67482024431228638 0.32881808280944824 0.53454005718231201
0.8894769549369812 0.3609788715839386 0.48884838819503784
0.97205871343612671 0.44695225358009338 0.54145747423171997
0.0064464644528925419 0.46612393856048584 0.55870902538299561
0.017909510061144829 0.48622438311576843 0.56271642446517944
0.0088354675099253654 0.4800284206867218 0.55951780080795288
0.23794470727443695 0.48484259843826294 0.55955642461776733
0.68175488710403442 0.52170252799987793 0.55208814144134521
0.90952503681182861 0.57858729362487793 0.54993528127670288
0.98108005523681641 0.65707194805145264 0.62103909254074097
0.0082804365083575249 0.61637586355209351 0.56856197118759155
0.013460705056786537 0.64273607730865479 0.56753236055374146
7.5904994446318597e-05 0.64282715320587158 0.55698156356811523
0.10332227498292923 0.65063178539276123 0.55494385957717896
0.59433174133300781 0.68926286697387695 0.57736527919769287
0.90807747840881348 0.737030029296875 0.57346487045288086
0.99476915597915649 0.78797858953475952 0.63410019874572754
0.0037673201877623796 0.73893427848815918 0.55813634395599365
0 0.75646227598190308 0.55148100852966309
2.0763920474564657e-05 0.75916558504104614 0.53901678323745728
0.13010603189468384 0.77455037832260132 0.54535514116287231
0.58022302389144897 0.81115758419036865 0.58678781986236572
0.87329626083374023 0.84538477659225464 0.60125553607940674
0.99386250972747803 0.86776626110076904 0.63023191690444946
0.0001973918842850253 0.82233321666717529 0.53520888090133667
0 0.82962751388549805 0.52430433034896851
0.0098236380144953728 0.82665485143661499 0.50170767307281494
0.23480603098869324 0.84182775020599365 0.50145506858825684
0.63421732187271118 0.87649798393249512 0.53425204753875732
0.88346374034881592 0.90869921445846558 0.58004164695739746
0.99826675653457642 0.93776637315750122 0.63153350353240967
0.0046363081783056259 0.045129124075174332 0.61817866563796997
0.031080238521099091 0.035940971225500107 0.64322930574417114
0.10431831330060959 0.04107704758644104 0.66198265552520752
0.33802837133407593 0.032992389053106308 0.6809154748916626
0.61846709251403809 0.023656269535422325 0.6949494481086731
0.83710169792175293 0.044854182749986649 0.6877637505531311
0.97458153963088989 0.089479513466358185 0.66782277822494507
0.0037248199805617332 0.15419508516788483 0.67205524444580078
0.013974477536976337 0.15202264487743378 0.67529326677322388
0.06010398268699646 0.14786174893379211 0.67938876152038574
0.30495432019233704 0.14240439236164093 0.69866484403610229
0.6185498833656311 0.14616455137729645 0.71904218196868896
0.8549531102180481 0.17780737578868866 0.71079832315444946
0.97556436061859131 0.22478851675987244 0.6906360387802124
0.0031340057030320168 0.31718546152114868 0.68739283084869385
0.017946310341358185 0.3247225284576416 0.69309318065643311
0.024893607944250107 0.31700003147125244 0.6991044282913208
0.23075765371322632 0.30264341831207275 0.72428089380264282
0.6117401123046875 0.3239017128944397 0.74005335569381714
0.8628075122833252 0.35410240292549133 0.71211344003677368
0.9779970645904541 0.40736928582191467 0.70316469669342041
0.0031607684213668108 0.47547444701194763 0.7036207914352417
0.02321757934987545 0.49513596296310425 0.71234387159347534
0.0038671605288982391 0.49529191851615906 0.71775037050247192
0.10200484097003937 0.48952239751815796 0.73259007930755615
0.56253564357757568 0.50874245166778564 0.74178099632263184
0.8773924708366394 0.5263817310333252 0.70434194803237915
0.97432178258895874 0.59584027528762817 0.71110403537750244
0.0049069724045693874 0.63913083076477051 0.71885865926742554
0.025414366275072098 0.67212826013565063 0.72327786684036255
0.014940612949430943 0.67577189207077026 0.72515279054641724
0.020708659663796425 0.68122869729995728 0.72655677795410156
0.44478443264961243 0.70701116323471069 0.74185949563980103
0.87906694412231445 0.73875659704208374 0.73770910501480103
0.9845740795135498 0.79108679294586182 0.76727110147476196
0.0032899745274335146 0.78065019845962524 0.72449374198913574
0.016190996393561363 0.79858452081680298 0.72363501787185669
0.034492954611778259 0.80191910266876221 0.7205498218536377
0.042469218373298645 0.80966126918792725 0.71527457237243652
0.38222387433052063 0.83301979303359985 0.73654747009277344
0.83150792121887207 0.86202436685562134 0.75869655609130859
0.99306571483612061 0.89595550298690796 0.78767609596252441
8.3295039075892419e-05 0.86331188678741455 0.71422481536865234
0.0041910954751074314 0.86810874938964844 0.70878320932388306
0.012630058452486992 0.86664140224456787 0.69250059127807617
0.064174339175224304 0.86939316987991333 0.67335736751556396
0.42979952692985535 0.88981848955154419 0.68697071075439453
0.84861922264099121 0.92089283466339111 0.72041463851928711
0.99040907621383667 0.95295268297195435 0.77615141868591309
0.015261362306773663 0.035922959446907043 0.73650884628295898
0.056113582104444504 0.030137021094560623 0.7598496675491333
0.13531094789505005 0.044076103717088699 0.7752576470375061
0.30342364311218262 0.041828949004411697 0.78268527984619141
0.56674361228942871 0.0304246935993433 0.79059034585952759
0.79801130294799805 0.049835383892059326 0.79681873321533203
0.96985602378845215 0.087311550974845886 0.79479861259460449
0.008903922513127327 0.14070767164230347 0.79064273834228516
0.023243250325322151 0.14026623964309692 0.78791838884353638
0.044589202851057053 0.1418863832950592 0.78516602516174316
0.23721091449260712 0.13807213306427002 0.79587858915328979
0.56886488199234009 0.13617387413978577 0.80714565515518188
0.80257284641265869 0.1623719185590744 0.8104400634765625
0.96393996477127075 0.20195870101451874 0.81157678365707397
0.0063043180853128433 0.30430722236633301 0.79319512844085693
0.019368862733244896 0.31241419911384583 0.79429835081100464
0.014299550093710423 0.3058723509311676 0.79478508234024048
0.16483026742935181 0.29168489575386047 0.81036210060119629
0.53145331144332886 0.29770252108573914 0.82426387071609497
0.80408215522766113 0.32949692010879517 0.82591521739959717
0.96946024894714355 0.37618273496627808 0.82795989513397217
0.0027624093927443027 0.46419596672058105 0.79965168237686157
0.021972132846713066 0.48060896992683411 0.80570966005325317
0.0051986095495522022 0.47839289903640747 0.81056725978851318
0.049218494445085526 0.46543967723846436 0.82460987567901611
0.46231511235237122 0.48109737038612366 0.84308004379272461
0.82332515716552734 0.50870311260223389 0.84593462944030762
0.96524500846862793 0.55482250452041626 0.83826977014541626
0.0036514282692223787 0.62522274255752563 0.810710608959198
0.02111390046775341 0.65359961986541748 0.81631141901016235
0.030950672924518585 0.66495990753173828 0.82335007190704346
0.010419270023703575 0.66744190454483032 0.83432340621948242
0.37015435099601746 0.69522517919540405 0.85331577062606812
0.81850129365921021 0.71898537874221802 0.8547055721282959
0.976787269115448 0.74849015474319458 0.85251498222351074
0.0048149707727134228 0.77629935741424561 0.82532066106796265
0.024036707356572151 0.79383003711700439 0.83056181669235229
0.039259113371372223 0.81008338928222656 0.83563375473022461
0.033572208136320114 0.82762068510055542 0.84261161088943481
0.408466637134552 0.85297787189483643 0.85572582483291626
0.83355498313903809 0.87482070922851562 0.86782938241958618
0.98373830318450928 0.89862561225891113 0.88355445861816406
0.0013410680694505572 0.8703911304473877 0.83029568195343018
0.020859977230429649 0.87956178188323975 0.83646875619888306
0.025300823152065277 0.88699424266815186 0.8357740044593811
0.047164604067802429 0.89871096611022949 0.83929109573364258
0.43088269233703613 0.9198230504989624 0.85184288024902344
0.8583257794380188 0.9446757435798645 0.87223094701766968
0.99540776014328003 0.97610962390899658 0.90530169010162354
0.016696736216545105 0.033761985599994659 0.82846206426620483
0.064198948442935944 0.038863986730575562 0.84133702516555786
0.13438299298286438 0.051440592855215073 0.84857994318008423
0.24942125380039215 0.057754456996917725 0.84883928298950195
0.46972984075546265 0.049012981355190277 0.85098469257354736
0.723052978515625 0.049708392471075058 0.85725688934326172
0.91912668943405151 0.072851665318012238 0.86171519756317139
0.0076154223643243313 0.14998428523540497 0.85614258050918579
0.025741277262568474 0.14949573576450348 0.85570937395095825
0.058501794934272766 0.14544610679149628 0.85392636060714722
0.19702036678791046 0.14463213086128235 0.85783553123474121
0.48021730780601501 0.13871730864048004 0.86114209890365601
0.74555695056915283 0.14788183569908142 0.86181181669235229
0.93479734659194946 0.18010038137435913 0.86672294139862061
0.0031185674015432596 0.30865088105201721 0.8510017991065979
0.010306339710950851 0.30711513757705688 0.85442626476287842
0.012248200364410877 0.29292446374893188 0.85714143514633179
0.11221594363451004 0.27823668718338013 0.86494523286819458
0.45023688673973083 0.27644333243370056 0.87189656496047974
0.75646519660949707 0.29606211185455322 0.87342298030853271
0.94978827238082886 0.33910328149795532 0.88028746843338013
0.0025767607148736715 0.46086239814758301 0.85425764322280884
0.016363974660634995 0.47118446230888367 0.85853004455566406
0.0093918293714523315 0.45998632907867432 0.86391746997833252
0.027971230447292328 0.43818113207817078 0.87248772382736206
0.37145659327507019 0.43860989809036255 0.88642400503158569
0.77279031276702881 0.47510790824890137 0.89571905136108398
0.95427823066711426 0.51406395435333252 0.9017978310585022
0.0029388726688921452 0.61108517646789551 0.85949259996414185
0.017644934356212616 0.62644344568252563 0.86572325229644775
0.039731509983539581 0.63991087675094604 0.8723444938659668
0.0049064634367823601 0.63350015878677368 0.88209384679794312
0.25982880592346191 0.65101754665374756 0.90248441696166992
0.7933964729309082 0.68823575973510742 0.91083049774169922
0.96671384572982788 0.70987451076507568 0.91807687282562256
0.0031337363179773092 0.75700086355209351 0.86942946910858154
0.018454428762197495 0.77203571796417236 0.87508893013000488
0.040789227932691574 0.78847074508666992 0.88203084468841553
0.022074785083532333 0.81569945812225342 0.89707797765731812
0.22301314771175385 0.83169388771057129 0.91265720129013062
0.81893253326416016 0.86214399337768555 0.92291378974914551
0.97739917039871216 0.88380253314971924 0.93994873762130737
8.1858917837962508e-05 0.86574327945709229 0.88251340389251709
0.017500588670372963 0.87677717208862305 0.88546419143676758
0.03780224546790123 0.88351881504058838 0.89169692993164062
0.005150484386831522 0.90435761213302612 0.9093940258026123
0.16849975287914276 0.92297452688217163 0.91642987728118896
0.78269386291503906 0.94933003187179565 0.93023240566253662
0.98916411399841309 0.98709946870803833 0.98199403285980225
