assets/lut/abigailgonzalez monochrome 02.cube
# Created by: G'MIC (https://gmic.eu)
TITLE "monochrome_2"
# LUT size
LUT_3D_SIZE 5
# Data domain
DOMAIN_MIN 0.0 0.0 0.0
DOMAIN_MAX 1.0 1.0 1.0
# LUT data points
0.026111781597137451 0.026111781597137451 0.026111781597137451
0.07084018737077713 0.07084018737077713 0.07084018737077713
0.14904330670833588 0.14904330670833588 0.14904330670833588
0.22349424660205841 0.22349424660205841 0.22349424660205841
0.25302368402481079 0.25302368402481079 0.25302368402481079
0.087078914046287537 0.087078914046287537 0.087078914046287537
0.12116450816392899 0.12116450816392899 0.12116450816392899
0.23168730735778809 0.23168730735778809 0.23168730735778809
0.34750965237617493 0.34750965237617493 0.34750965237617493
0.42545026540756226 0.42545026540756226 0.42545026540756226
0.1992214173078537 0.1992214173078537 0.1992214173078537
0.22473606467247009 0.22473606467247009 0.22473606467247009
0.34628787636756897 0.34628787636756897 0.34628787636756897
0.4843495786190033 0.4843495786190033 0.4843495786190033
0.56764203310012817 0.56764203310012817 0.56764203310012817
0.31533312797546387 0.31533312797546387 0.31533312797546387
0.33421826362609863 0.33421826362609863 0.33421826362609863
0.46846768260002136 0.46846768260002136 0.46846768260002136
0.59564787149429321 0.59564787149429321 0.59564787149429321
0.67618817090988159 0.67618817090988159 0.67618817090988159
0.40974357724189758 0.40974357724189758 0.40974357724189758
0.41756239533424377 0.41756239533424377 0.41756239533424377
0.55281281471252441 0.55281281471252441 0.55281281471252441
0.68180388212203979 0.68180388212203979 0.68180388212203979
0.75379455089569092 0.75379455089569092 0.75379455089569092
0.064008422195911407 0.064008422195911407 0.064008422195911407
0.11262160539627075 0.11262160539627075 0.11262160539627075
0.17816245555877686 0.17816245555877686 0.17816245555877686
0.24056600034236908 0.24056600034236908 0.24056600034236908
0.2679080069065094 0.2679080069065094 0.2679080069065094
0.11047162860631943 0.11047162860631943 0.11047162860631943
0.14450307190418243 0.14450307190418243 0.14450307190418243
0.24763768911361694 0.24763768911361694 0.24763768911361694
0.3337852954864502 0.3337852954864502 0.3337852954864502
0.37648966908454895 0.37648966908454895 0.37648966908454895
0.22780656814575195 0.22780656814575195 0.22780656814575195
0.24336817860603333 0.24336817860603333 0.24336817860603333
0.36294621229171753 0.36294621229171753 0.36294621229171753
0.4961698055267334 0.4961698055267334 0.4961698055267334
0.565338134765625 0.565338134765625 0.565338134765625
0.34633144736289978 0.34633144736289978 0.34633144736289978
0.35636675357818604 0.35636675357818604 0.35636675357818604
0.48254993557929993 0.48254993557929993 0.48254993557929993
0.62115693092346191 0.62115693092346191 0.62115693092346191
0.69374066591262817 0.69374066591262817 0.69374066591262817
0.43585401773452759 0.43585401773452759 0.43585401773452759
0.44252187013626099 0.44252187013626099 0.44252187013626099
0.5599018931388855 0.5599018931388855 0.5599018931388855
0.71028828620910645 0.71028828620910645 0.71028828620910645
0.78927278518676758 0.78927278518676758 0.78927278518676758
0.14023196697235107 0.14023196697235107 0.14023196697235107
0.20992480218410492 0.20992480218410492 0.20992480218410492
0.24878066778182983 0.24878066778182983 0.24878066778182983
0.27965956926345825 0.27965956926345825 0.27965956926345825
0.30099022388458252 0.30099022388458252 0.30099022388458252
0.17104668915271759 0.17104668915271759 0.17104668915271759
0.20580294728279114 0.20580294728279114 0.20580294728279114
0.29827120900154114 0.29827120900154114 0.29827120900154114
0.36480826139450073 0.36480826139450073 0.36480826139450073
0.41826280951499939 0.41826280951499939 0.41826280951499939
0.27494663000106812 0.27494663000106812 0.27494663000106812
0.28519684076309204 0.28519684076309204 0.28519684076309204
0.41772791743278503 0.41772791743278503 0.41772791743278503
0.53538811206817627 0.53538811206817627 0.53538811206817627
0.59326052665710449 0.59326052665710449 0.59326052665710449
0.39898446202278137 0.39898446202278137 0.39898446202278137
0.41794702410697937 0.41794702410697937 0.41794702410697937
0.52793878316879272 0.52793878316879272 0.52793878316879272
0.67122215032577515 0.67122215032577515 0.67122215032577515
0.74016660451889038 0.74016660451889038 0.74016660451889038
0.48508608341217041 0.48508608341217041 0.48508608341217041
0.49509268999099731 0.49509268999099731 0.49509268999099731
0.5711979866027832 0.5711979866027832 0.5711979866027832
0.75231045484542847 0.75231045484542847 0.75231045484542847
0.84348112344741821 0.84348112344741821 0.84348112344741821
0.23412387073040009 0.23412387073040009 0.23412387073040009
0.26667308807373047 0.26667308807373047 0.26667308807373047
0.29856798052787781 0.29856798052787781 0.29856798052787781
0.30174800753593445 0.30174800753593445 0.30174800753593445
0.33109322190284729 0.33109322190284729 0.33109322190284729
0.22756247222423553 0.22756247222423553 0.22756247222423553
0.26129168272018433 0.26129168272018433 0.26129168272018433
0.3290913999080658 0.3290913999080658 0.3290913999080658
0.37000179290771484 0.37000179290771484 0.37000179290771484
0.41258132457733154 0.41258132457733154 0.41258132457733154
0.33854243159294128 0.33854243159294128 0.33854243159294128
0.38724163174629211 0.38724163174629211 0.38724163174629211
0.47906163334846497 0.47906163334846497 0.47906163334846497
0.57156628370285034 0.57156628370285034 0.57156628370285034
0.61950027942657471 0.61950027942657471 0.61950027942657471
0.45266753435134888 0.45266753435134888 0.45266753435134888
0.46740859746932983 0.46740859746932983 0.46740859746932983
0.59990841150283813 0.59990841150283813 0.59990841150283813
0.72461944818496704 0.72461944818496704 0.72461944818496704
0.79069757461547852 0.79069757461547852 0.79069757461547852
0.52726477384567261 0.52726477384567261 0.52726477384567261
0.54578602313995361 0.54578602313995361 0.54578602313995361
0.6654474139213562 0.6654474139213562 0.6654474139213562
0.80435222387313843 0.80435222387313843 0.80435222387313843
0.89427846670150757 0.89427846670150757 0.89427846670150757
0.30164015293121338 0.30164015293121338 0.30164015293121338
0.30980378389358521 0.30980378389358521 0.30980378389358521
0.31464043259620667 0.31464043259620667 0.31464043259620667
0.33088463544845581 0.33088463544845581 0.33088463544845581
0.33402684330940247 0.33402684330940247 0.33402684330940247
0.34050324559211731 0.34050324559211731 0.34050324559211731
0.29590994119644165 0.29590994119644165 0.29590994119644165
0.32536932826042175 0.32536932826042175 0.32536932826042175
0.36067312955856323 0.36067312955856323 0.36067312955856323
0.38020247220993042 0.38020247220993042 0.38020247220993042
0.45158147811889648 0.45158147811889648 0.45158147811889648
0.47987350821495056 0.47987350821495056 0.47987350821495056
0.53252780437469482 0.53252780437469482 0.53252780437469482
0.58623427152633667 0.58623427152633667 0.58623427152633667
0.62676990032196045 0.62676990032196045 0.62676990032196045
0.49178174138069153 0.49178174138069153 0.49178174138069153
0.56972199678421021 0.56972199678421021 0.56972199678421021
0.67391657829284668 0.67391657829284668 0.67391657829284668
0.76675152778625488 0.76675152778625488 0.76675152778625488
0.8213493824005127 0.8213493824005127 0.8213493824005127
0.56200486421585083 0.56200486421585083 0.56200486421585083
0.60131847858428955 0.60131847858428955 0.60131847858428955
0.74255812168121338 0.74255812168121338 0.74255812168121338
0.85625952482223511 0.85625952482223511 0.85625952482223511
0.92913591861724854 0.92913591861724854 0.92913591861724854
