assets/lut/abigailgonzalez goldengate.cube
# Created by: G'MIC (https://gmic.eu)
TITLE "goldengate"
# LUT size
LUT_3D_SIZE 7
# Data domain
DOMAIN_MIN 0.0 0.0 0.0
DOMAIN_MAX 1.0 1.0 1.0
# LUT data points
0.03336060419678688 0.044167924672365189 0.052464399486780167
0.15895675122737885 0.043384343385696411 0.014872487634420395
0.31202861666679382 0.038851030170917511 0.0047723660245537758
0.43748602271080017 0.023644166067242622 0
0.52784883975982666 0.0089053437113761902 0
0.57532662153244019 0.0030683181248605251 0
0.59117060899734497 0.0010110294679179788 0
0.049861233681440353 0.11542714387178421 0.040623221546411514
0.17514050006866455 0.13099417090415955 0.016779223456978798
0.33121779561042786 0.14140999317169189 0.0073163947090506554
0.48073101043701172 0.12453237920999527 0.00014145794557407498
0.5886077880859375 0.10108211636543274 0
0.64263772964477539 0.090157240629196167 0
0.65853756666183472 0.088616028428077698 0
0.097307302057743073 0.18357615172863007 0.034760851413011551
0.21181419491767883 0.21070708334445953 0.019018899649381638
0.34624806046485901 0.23381981253623962 0.006345157977193594
0.50815987586975098 0.23182806372642517 0.0028213202022016048
0.63410091400146484 0.20815287530422211 0
0.69964975118637085 0.20601080358028412 0
0.72001880407333374 0.21536663174629211 0
0.16948272287845612 0.27158069610595703 0.022876979783177376
0.26665794849395752 0.30227124691009521 0.011331161484122276
0.36408287286758423 0.33015260100364685 0.004732857458293438
0.51658350229263306 0.3559296727180481 0.0020161946304142475
0.65762108564376831 0.34605675935745239 0
0.74591362476348877 0.35077649354934692 6.4954569097608328e-05
0.77485412359237671 0.36798050999641418 7.234461372718215e-05
0.25946906208992004 0.3668152391910553 0.010115335695445538
0.31486999988555908 0.39075586199760437 0.0038088331930339336
0.38874831795692444 0.42595669627189636 0.001973828999325633
0.53826433420181274 0.46803098917007446 0.00097466266015544534
0.67708784341812134 0.47889065742492676 0
0.77763170003890991 0.48891821503639221 0
0.81643986701965332 0.5049368143081665 0
0.25932073593139648 0.40832263231277466 0.0012422598665580153
0.32250607013702393 0.44213226437568665 5.0264246965525672e-05
0.40937045216560364 0.49497482180595398 0
0.56178170442581177 0.55017721652984619 0
0.69741928577423096 0.5341789722442627 0
0.79061603546142578 0.53664481639862061 0
0.82979679107666016 0.54273432493209839 0
0.28956565260887146 0.40744847059249878 0
0.32830852270126343 0.43157130479812622 0
0.42073088884353638 0.47493079304695129 0
0.57145094871520996 0.52132612466812134 0
0.72227281332015991 0.54624205827713013 0
0.80958515405654907 0.57055091857910156 0
0.85155218839645386 0.62462830543518066 0.001749883871525526
0.024530299007892609 0.056773614138364792 0.1628669947385788
0.13261424005031586 0.055949132889509201 0.11826511472463608
0.26604285836219788 0.052436139434576035 0.070755258202552795
0.40263178944587708 0.035135786980390549 0.029775341972708702
0.51320153474807739 0.018820594996213913 0.0035573174245655537
0.5737450122833252 0.012670195661485195 0
0.5874178409576416 0.010460034944117069 0
0.025362351909279823 0.12641735374927521 0.19483205676078796
0.12634158134460449 0.1393926590681076 0.14201734960079193
0.27007013559341431 0.14633822441101074 0.091284133493900299
0.43162766098976135 0.13367326557636261 0.042826410382986069
0.56812721490859985 0.11343210190534592 0.0086036231368780136
0.64122861623764038 0.1018286794424057 1.4959597137931269e-05
0.65827804803848267 0.10038638859987259 0
0.050788715481758118 0.20980043709278107 0.20154184103012085
0.14966066181659698 0.22565613687038422 0.14677941799163818
0.28195512294769287 0.23974896967411041 0.091104157269001007
0.45299175381660461 0.2414359450340271 0.046415500342845917
0.60918337106704712 0.22618384659290314 0.015272567048668861
0.69779771566390991 0.2215418666601181 0.0010289510246366262
0.72172468900680542 0.23036669194698334 0
0.097000941634178162 0.30284267663955688 0.16879084706306458
0.17977623641490936 0.31880629062652588 0.126084104180336
0.29681521654129028 0.33802810311317444 0.085136130452156067
0.469633549451828 0.36400178074836731 0.042612470686435699
0.6355278491973877 0.36815714836120605 0.010531451553106308
0.74568712711334229 0.37581685185432434 0.00060514564393088222
0.78182113170623779 0.39979907870292664 0
0.1579383909702301 0.39908772706985474 0.11169289797544479
0.22118230164051056 0.41132965683937073 0.080782778561115265
0.32852008938789368 0.4394700825214386 0.059831194579601288
0.49992826581001282 0.48277214169502258 0.03063557855784893
0.65683680772781372 0.50660568475723267 0.0067076440900564194
0.77712738513946533 0.51987999677658081 0
0.82547718286514282 0.54332447052001953 0
0.17544558644294739 0.451994389295578 0.064549148082733154
0.25825092196464539 0.47441193461418152 0.03613923117518425
0.36263415217399597 0.51488310098648071 0.024353131651878357
0.53024041652679443 0.57394123077392578 0.013543282635509968
0.67717832326889038 0.60272717475891113 0.002733956091105938
0.79133516550064087 0.60089939832687378 0
0.84595018625259399 0.64330470561981201 0.0013368194922804832
0.19574068486690521 0.46290534734725952 0.012809259817004204
0.2584691047668457 0.48448330163955688 0.0026969760656356812
0.37387275695800781 0.52785646915435791 0.00056972127640619874
0.55014920234680176 0.59715753793716431 0.0009144502691924572
0.71016710996627808 0.64858317375183105 0.00013224284339230508
0.81383836269378662 0.68027091026306152 0.0017986970487982035
0.86728137731552124 0.72150486707687378 0.020888010039925575
0.024344978854060173 0.080094464123249054 0.31074711680412292
0.12214347720146179 0.07688409835100174 0.26519200205802917
0.24314142763614655 0.071409575641155243 0.21319583058357239
0.37551113963127136 0.053939130157232285 0.15212444961071014
0.5055432915687561 0.035857751965522766 0.092593461275100708
0.59057843685150146 0.026913601905107498 0.053504496812820435
0.60382968187332153 0.019448298960924149 0.036036323755979538
0.019340366125106812 0.14483964443206787 0.3641698956489563
0.10730472952127457 0.15636017918586731 0.31597146391868591
0.23247240483760834 0.16256381571292877 0.25816220045089722
0.3949926495552063 0.1536775529384613 0.17970997095108032
0.55901515483856201 0.13566789031028748 0.10384208709001541
0.66157782077789307 0.11901156604290009 0.055976733565330505
0.68352419137954712 0.11385501176118851 0.033686261624097824
0.028770267963409424 0.22604618966579437 0.39894202351570129
0.1220332458615303 0.24412447214126587 0.3401084840297699
0.24910207092761993 0.25206062197685242 0.26948583126068115
0.41909047961235046 0.25776565074920654 0.18949958682060242
0.59999698400497437 0.2503541111946106 0.11234667897224426
0.7210162878036499 0.24320574104785919 0.056974045932292938
0.75305420160293579 0.24928952753543854 0.030296893790364265
0.055692218244075775 0.33030861616134644 0.39296755194664001
0.13767233490943909 0.34682995080947876 0.33883005380630493
0.25475576519966125 0.35870978236198425 0.27265000343322754
0.43757185339927673 0.37970945239067078 0.18690326809883118
0.62460494041442871 0.39193305373191833 0.10563670098781586
0.76412010192871094 0.40512287616729736 0.050179798156023026
0.8111909031867981 0.42923611402511597 0.018838949501514435
0.097909845411777496 0.432668536901474 0.32869142293930054
0.16162984073162079 0.44294887781143188 0.29114261269569397
0.27161991596221924 0.46373128890991211 0.24439398944377899
0.46088549494743347 0.50340324640274048 0.16715417802333832
0.64708971977233887 0.53408443927764893 0.093331083655357361
0.79379582405090332 0.56114459037780762 0.038433074951171875
0.84628534317016602 0.59636539220809937 0.012037524022161961
0.10084530711174011 0.48803460597991943 0.25877559185028076
0.1815238744020462 0.5059131383895874 0.20699158310890198
0.30163887143135071 0.53842002153396606 0.16997486352920532
0.49174204468727112 0.59751313924789429 0.12173773348331451
0.66752094030380249 0.64119458198547363 0.058284759521484375
0.80551344156265259 0.67170959711074829 0.023178279399871826
0.86731600761413574 0.73717468976974487 0.040413949638605118
0.093497663736343384 0.50566607713699341 0.17226094007492065
0.17807340621948242 0.53303402662277222 0.13339194655418396
0.32372012734413147 0.57895576953887939 0.097199425101280212
0.52235883474349976 0.65532910823822021 0.077353507280349731
0.7044142484664917 0.72400861978530884 0.049071531742811203
0.82956045866012573 0.77915817499160767 0.051922757178544998
0.88988620042800903 0.83264350891113281 0.11655509471893311
0.019663417711853981 0.10303793847560883 0.4645313024520874
0.099922060966491699 0.095336019992828369 0.42800092697143555
0.22379744052886963 0.091842174530029297 0.38252058625221252
0.362408846616745 0.083034887909889221 0.32442751526832581
0.49940600991249084 0.062308292835950851 0.24586430191993713
0.60134482383728027 0.043401472270488739 0.1796325296163559
0.62390989065170288 0.021867146715521812 0.13874179124832153
0.015525489114224911 0.15454907715320587 0.52486592531204224
0.087902337312698364 0.16508655250072479 0.49330577254295349
0.20425143837928772 0.17630760371685028 0.45027345418930054
0.36345630884170532 0.18070985376834869 0.38285514712333679
0.54736292362213135 0.16867153346538544 0.28964918851852417
0.68397969007492065 0.15000982582569122 0.20876345038414001
0.71567434072494507 0.13744759559631348 0.16094036400318146
0.017783131450414658 0.22994035482406616 0.58966755867004395
0.09668654203414917 0.2581121027469635 0.55196297168731689
0.21561850607395172 0.27390334010124207 0.49529978632926941
0.38657847046852112 0.28728890419006348 0.4165436327457428
0.59083855152130127 0.28968346118927002 0.31627166271209717
0.74901652336120605 0.28416138887405396 0.22702249884605408
0.79872643947601318 0.28772157430648804 0.17818571627140045
0.032547850161790848 0.35132858157157898 0.6461021900177002
0.10956854373216629 0.37823605537414551 0.60154491662979126
0.22903114557266235 0.39253735542297363 0.53191035985946655
0.41899937391281128 0.41634112596511841 0.43606504797935486
0.62423723936080933 0.43891727924346924 0.33126088976860046
0.79307466745376587 0.45140904188156128 0.23302900791168213
0.85722249746322632 0.46928584575653076 0.16513757407665253
0.04583447054028511 0.47132512927055359 0.64805096387863159
0.10230173170566559 0.48366829752922058 0.61137610673904419
0.22824689745903015 0.50632309913635254 0.54261618852615356
0.44168576598167419 0.54975336790084839 0.43687260150909424
0.64992916584014893 0.59059888124465942 0.33486637473106384
0.82417494058609009 0.61560046672821045 0.23539376258850098
0.8890615701675415 0.64744681119918823 0.15602484345436096
0.033964689821004868 0.52805179357528687 0.60380017757415771
0.10887955129146576 0.55398142337799072 0.53989434242248535
0.24482983350753784 0.58442419767379761 0.47623366117477417
0.46069550514221191 0.64376294612884521 0.38983312249183655
0.66932082176208496 0.70111167430877686 0.29586166143417358
0.8386462926864624 0.74797648191452026 0.2324938029050827
0.91163378953933716 0.79475307464599609 0.22858326137065887
0.027608385309576988 0.55156201124191284 0.49370089173316956
0.1202925443649292 0.60048949718475342 0.45845511555671692
0.31447941064834595 0.66044390201568604 0.38323721289634705
0.52628022432327271 0.73153090476989746 0.33017587661743164
0.72690033912658691 0.8005373477935791 0.28959593176841736
0.87494832277297974 0.85203438997268677 0.29352062940597534
0.92794907093048096 0.88625365495681763 0.36525276303291321
0.010798645205795765 0.10421344637870789 0.60665982961654663
0.073679067194461823 0.10679960250854492 0.59133607149124146
0.18657760322093964 0.10042316466569901 0.55039829015731812
0.3245106041431427 0.093910098075866699 0.49642255902290344
0.47135728597640991 0.08022124320268631 0.4147716760635376
0.59400951862335205 0.06214720755815506 0.33670845627784729
0.62742161750793457 0.026412693783640862 0.278554767370224
0.012425336986780167 0.16491560637950897 0.69945418834686279
0.069825097918510437 0.17155122756958008 0.67429697513580322
0.17402707040309906 0.18218795955181122 0.64555764198303223
0.32754087448120117 0.19200527667999268 0.59291315078735352
0.51642459630966187 0.19267448782920837 0.50102263689041138
0.67691808938980103 0.18266421556472778 0.40975180268287659
0.72796422243118286 0.15828987956047058 0.34558239579200745
0.0094455797225236893 0.22123172879219055 0.76573491096496582
0.072662949562072754 0.26017355918884277 0.75618541240692139
0.18568243086338043 0.28205487132072449 0.72064512968063354
0.35823932290077209 0.30428007245063782 0.65646296739578247
0.5675053596496582 0.32194334268569946 0.55818700790405273
0.7560151219367981 0.32666400074958801 0.46075105667114258
0.83015275001525879 0.32274025678634644 0.39840799570083618
0.015875812619924545 0.34474703669548035 0.85634100437164307
0.078829444944858551 0.38239723443984985 0.84121614694595337
0.20018260180950165 0.40837684273719788 0.78865700960159302
0.39750859141349792 0.44409424066543579 0.70362257957458496
0.61696511507034302 0.48445212841033936 0.60159486532211304
0.81164127588272095 0.50116211175918579 0.49769634008407593
0.90001547336578369 0.51590549945831299 0.4143388569355011
0.021255088970065117 0.4881623387336731 0.90353280305862427
0.070226289331912994 0.51140135526657104 0.88811796903610229
0.19944792985916138 0.53857713937759399 0.83441585302352905
0.4267202615737915 0.58880424499511719 0.73740702867507935
0.66253834962844849 0.64175665378570557 0.63140803575515747
0.8509480357170105 0.67132276296615601 0.53675049543380737
0.93859177827835083 0.7128717303276062 0.45195138454437256
0.010170252062380314 0.5545278787612915 0.91311383247375488
0.045436546206474304 0.58993071317672729 0.89134448766708374
0.19791154563426971 0.6318897008895874 0.83145064115524292
0.45290008187294006 0.7054559588432312 0.74894422292709351
0.69021999835968018 0.77405941486358643 0.6608460545539856
0.87353229522705078 0.82523179054260254 0.59766894578933716
0.96009021997451782 0.87246638536453247 0.56831669807434082
0.0065376432612538338 0.59206253290176392 0.86935561895370483
0.052700791507959366 0.65252947807312012 0.85710108280181885
0.28307861089706421 0.73187381029129028 0.78729212284088135
0.55293548107147217 0.80946552753448486 0.715870201587677
0.75348478555679321 0.87312638759613037 0.68718594312667847
0.91027665138244629 0.91720706224441528 0.68280494213104248
0.97792172431945801 0.94670146703720093 0.67865574359893799
0.0126240449026227 0.092563241720199585 0.69427531957626343
0.057796120643615723 0.091968938708305359 0.67970675230026245
0.13717661798000336 0.080505505204200745 0.66227066516876221
0.26797938346862793 0.077071428298950195 0.62869203090667725
0.43074032664299011 0.075919099152088165 0.55497312545776367
0.5780254602432251 0.063720077276229858 0.47864514589309692
0.63667976856231689 0.024830402806401253 0.41747906804084778
0.022927496582269669 0.18755680322647095 0.8544120192527771
0.066500917077064514 0.17552554607391357 0.81359577178955078
0.1665077805519104 0.18185637891292572 0.79871946573257446
0.3299364447593689 0.20301252603530884 0.76910388469696045
0.49365866184234619 0.20189736783504486 0.68609338998794556
0.65784299373626709 0.19435855746269226 0.59398013353347778
0.73521429300308228 0.16102272272109985 0.52128380537033081
0.0076765473932027817 0.22403602302074432 0.90814292430877686
0.062622725963592529 0.25820520520210266 0.91259711980819702
0.17857924103736877 0.27679586410522461 0.88559019565582275
0.36386561393737793 0.31591078639030457 0.85170912742614746
0.54257237911224365 0.32676178216934204 0.77168452739715576
0.72655326128005981 0.33397760987281799 0.68026649951934814
0.83286821842193604 0.32671454548835754 0.60596191883087158
0.0072664595209062099 0.34024333953857422 0.97100687026977539
0.055370435118675232 0.37857663631439209 0.98216539621353149
0.16812284290790558 0.40465635061264038 0.95553123950958252
0.36895987391471863 0.44940504431724548 0.90924924612045288
0.59063804149627686 0.49477174878120422 0.84216564893722534
0.79662603139877319 0.52568709850311279 0.75219190120697021
0.91424006223678589 0.55024468898773193 0.66832888126373291
0.012808706611394882 0.48565426468849182 0.99722051620483398
0.043337158858776093 0.5151481032371521 0.99966251850128174
0.16258175671100616 0.54694151878356934 0.99123239517211914
0.38887813687324524 0.60027259588241577 0.94509649276733398
0.63383251428604126 0.66337811946868896 0.88844960927963257
0.84303402900695801 0.71843284368515015 0.81075310707092285
0.95922714471817017 0.78164029121398926 0.74774807691574097
0.0082841906696557999 0.56731671094894409 1
0.028106838464736938 0.61552900075912476 1
0.18285699188709259 0.67217904329299927 0.99681377410888672
0.45257526636123657 0.74596303701400757 0.97413092851638794
0.70381444692611694 0.81982803344726562 0.92141985893249512
0.8859713077545166 0.88394033908843994 0.86922115087509155
0.98022598028182983 0.93316221237182617 0.84560012817382812
0.0041780509054660797 0.61921316385269165 0.98847126960754395
0.039500951766967773 0.69650417566299438 0.99866992235183716
0.2662055492401123 0.77934366464614868 0.98629117012023926
0.56782960891723633 0.85048890113830566 0.9675183892250061
0.7702820897102356 0.90844106674194336 0.94667899608612061
0.91250318288803101 0.9538114070892334 0.92762690782546997
0.99434226751327515 0.98546922206878662 0.884968101978302
0.01068007480353117 0.082492485642433167 0.73931074142456055
0.053311485797166824 0.075297772884368896 0.72166621685028076
0.13916578888893127 0.073137812316417694 0.72725445032119751
0.27570590376853943 0.07905520498752594 0.72539407014846802
0.41215306520462036 0.062273796647787094 0.65675663948059082
0.52127671241760254 0.021751014515757561 0.5825008749961853
0.60120820999145508 0.0027626038063317537 0.52861469984054565
0.010742546990513802 0.13495691120624542 0.8568493127822876
0.052667669951915741 0.15183871984481812 0.86443150043487549
0.20205353200435638 0.20090660452842712 0.89534991979598999
0.4495055079460144 0.28319132328033447 0.91790634393692017
0.54180443286895752 0.2272556871175766 0.83405894041061401
0.60847538709640503 0.14876317977905273 0.72103458642959595
0.69666850566864014 0.11625239253044128 0.65526086091995239
0.0032909319270402193 0.20849849283695221 0.94081848859786987
0.051433995366096497 0.25850698351860046 0.9697994589805603
0.17478074133396149 0.28325703740119934 0.97294890880584717
0.39770305156707764 0.33848690986633301 0.97561466693878174
0.55212569236755371 0.32184365391731262 0.92769181728363037
0.68398857116699219 0.29324659705162048 0.84222865104675293
0.79079228639602661 0.27554559707641602 0.77156102657318115
0.0027722974773496389 0.33075326681137085 0.98816382884979248
0.044650372117757797 0.37932023406028748 1
0.15279941260814667 0.40623527765274048 0.99994468688964844
0.35392600297927856 0.44934409856796265 0.99642735719680786
0.54430270195007324 0.44896391034126282 0.98167091608047485
0.74254000186920166 0.46961474418640137 0.92475396394729614
0.88769012689590454 0.54414409399032593 0.86002177000045776
0.0027224821969866753 0.45331460237503052 0.99382442235946655
0.024263089522719383 0.49920430779457092 0.9997485876083374
0.14247873425483704 0.54194289445877075 1
0.36601811647415161 0.59683138132095337 0.99970275163650513
0.60940343141555786 0.65704560279846191 0.99798226356506348
0.82647889852523804 0.72899454832077026 0.97277957201004028
0.96113365888595581 0.83709424734115601 0.93725520372390747
0.00029691809322685003 0.52655017375946045 0.99957406520843506
0.01536198053508997 0.60112744569778442 0.99817913770675659
0.18550065159797668 0.69053941965103149 0.99831700325012207
0.46113672852516174 0.77272325754165649 0.9999774694442749
0.71728038787841797 0.85308903455734253 0.9995233416557312
0.88795417547225952 0.91913801431655884 0.99743533134460449
0.98593354225158691 0.96058887243270874 0.98876374959945679
0.0033058763947337866 0.62683039903640747 0.99978005886077881
0.049111295491456985 0.71680998802185059 0.99563509225845337
0.28139856457710266 0.81738591194152832 0.99486982822418213
0.59502953290939331 0.88625574111938477 1
0.81128585338592529 0.9431489109992981 1
0.92306995391845703 0.98124808073043823 1
0.99576437473297119 0.99797189235687256 0.99515384435653687
