assets/lut/abigailgonzalez cinema 02.cube
# Created by: G'MIC (https://gmic.eu)
TITLE "cinema_2"
# LUT size
LUT_3D_SIZE 13
# Data domain
DOMAIN_MIN 0.0 0.0 0.0
DOMAIN_MAX 1.0 1.0 1.0
# LUT data points
0.02469908818602562 0.010704593732953072 0.0091777872294187546
0.080709122121334076 0.014029139652848244 0.010694107040762901
0.14185558259487152 0.01431458443403244 0.009532509371638298
0.21106927096843719 0.019608426839113235 0.013412490487098694
0.28872659802436829 0.033988352864980698 0.026652796193957329
0.37484261393547058 0.052599303424358368 0.047833941876888275
0.4655381441116333 0.070928297936916351 0.070481784641742706
0.55638539791107178 0.087569758296012878 0.088964022696018219
0.64409768581390381 0.10229040682315826 0.10092175006866455
0.72784602642059326 0.11602716147899628 0.10802502930164337
0.80843096971511841 0.1302037239074707 0.11335071921348572
0.88619250059127808 0.14513382315635681 0.11749470978975296
0.96220934391021729 0.15946999192237854 0.12148666381835938
0.02508881501853466 0.031305678188800812 0.010174051858484745
0.081028833985328674 0.031625065952539444 0.011177541688084602
0.14238095283508301 0.033201705664396286 0.011072719469666481
0.21165518462657928 0.047173488885164261 0.01536031998693943
0.29000759124755859 0.070413418114185333 0.028885142877697945
0.37635400891304016 0.096540980041027069 0.049443561583757401
0.46702700853347778 0.120522640645504 0.071262985467910767
0.55786752700805664 0.13926753401756287 0.08950641006231308
0.64508068561553955 0.15437448024749756 0.10120626538991928
0.72841298580169678 0.16812567412853241 0.10838411748409271
0.80861866474151611 0.18277722597122192 0.11469172686338425
0.88582682609558105 0.19911862909793854 0.11850422620773315
0.96124148368835449 0.21500398218631744 0.12120097875595093
0.028093211352825165 0.077148169279098511 0.014574357308447361
0.083206906914710999 0.075231157243251801 0.015398930758237839
0.14406874775886536 0.078744255006313324 0.015515032224357128
0.213631272315979 0.095298096537590027 0.018818186596035957
0.29331302642822266 0.12043634802103043 0.029835375025868416
0.38037130236625671 0.15086454153060913 0.04787801206111908
0.4713207483291626 0.17757542431354523 0.069395177066326141
0.56130790710449219 0.19619022309780121 0.088482081890106201
0.64725852012634277 0.21038572490215302 0.10001455247402191
0.72974163293838501 0.22343267500400543 0.10873024165630341
0.80939775705337524 0.23822320997714996 0.11559239029884338
0.88595092296600342 0.25598320364952087 0.11920137703418732
0.96078908443450928 0.27332121133804321 0.12113276124000549
0.033793043345212936 0.15835775434970856 0.02170296385884285
0.086458303034305573 0.15528972446918488 0.02212575264275074
0.14563201367855072 0.15950195491313934 0.021926222369074821
0.2166702002286911 0.16614519059658051 0.023768750950694084
0.29870587587356567 0.18329882621765137 0.032027795910835266
0.38783612847328186 0.21292862296104431 0.047762013971805573
0.47992596030235291 0.23987568914890289 0.069435194134712219
0.56887876987457275 0.25759336352348328 0.089118853211402893
0.65320014953613281 0.27058878540992737 0.1016366109251976
0.73390179872512817 0.28390282392501831 0.11004956066608429
0.81173527240753174 0.30007001757621765 0.11605134606361389
0.88766634464263916 0.31923201680183411 0.1184532642364502
0.96135848760604858 0.33777913451194763 0.11964131146669388
0.039973929524421692 0.24312645196914673 0.030054474249482155
0.091830126941204071 0.23961944878101349 0.030185550451278687
0.15043181180953979 0.24071073532104492 0.030525686219334602
0.22092372179031372 0.24370081722736359 0.032351400703191757
0.30436587333679199 0.25721797347068787 0.039369247853755951
0.3976074755191803 0.28075650334358215 0.053668931126594543
0.49219617247581482 0.30388566851615906 0.073653005063533783
0.58002197742462158 0.32022058963775635 0.092018380761146545
0.66164422035217285 0.33335027098655701 0.10408624261617661
0.73966580629348755 0.34916806221008301 0.11141476780176163
0.81609237194061279 0.36923235654830933 0.11573692411184311
0.89024978876113892 0.39007890224456787 0.11720149964094162
0.96291267871856689 0.40797123312950134 0.11746132373809814
0.046132884919643402 0.32341876626014709 0.04221077635884285
0.097968921065330505 0.32039958238601685 0.042531855404376984
0.15544183552265167 0.32355940341949463 0.043532159179449081
0.22409360110759735 0.33279493451118469 0.046288181096315384
0.30784398317337036 0.34688475728034973 0.052350286394357681
0.40486162900924683 0.35952183604240417 0.062800809741020203
0.50187242031097412 0.36985743045806885 0.077721782028675079
0.5887485146522522 0.38172316551208496 0.093214176595211029
0.66910368204116821 0.3966275155544281 0.10474512726068497
0.74541836977005005 0.41660761833190918 0.1107933521270752
0.81981134414672852 0.44017335772514343 0.11414553970098495
0.89287972450256348 0.46267944574356079 0.11556863039731979
0.96417111158370972 0.48011162877082825 0.11585412174463272
0.052459672093391418 0.40398839116096497 0.056682780385017395
0.10430041700601578 0.40197789669036865 0.057674795389175415
0.16041921079158783 0.40929606556892395 0.059537041932344437
0.22674201428890228 0.42550534009933472 0.062711454927921295
0.30854329466819763 0.4458501935005188 0.067761681973934174
0.40655776858329773 0.45347487926483154 0.073489457368850708
0.50481700897216797 0.44663816690444946 0.080466419458389282
0.59164547920227051 0.44947561621665955 0.091337554156780243
0.67201751470565796 0.46357721090316772 0.10168030858039856
0.74844729900360107 0.4843839704990387 0.10780984908342361
0.82155537605285645 0.51007449626922607 0.11130180954933167
0.89387476444244385 0.53346508741378784 0.11318875849246979
0.96445941925048828 0.55081695318222046 0.11416541039943695
0.058119725435972214 0.48926296830177307 0.070324495434761047
0.1105872243642807 0.48720991611480713 0.072237499058246613
0.16627626121044159 0.49419811367988586 0.074938438832759857
0.23076467216014862 0.51094001531600952 0.077465668320655823
0.31116494536399841 0.53537869453430176 0.080955579876899719
0.40811905264854431 0.55167531967163086 0.08472016453742981
0.50647789239883423 0.54350739717483521 0.087041638791561127
0.59436547756195068 0.53175771236419678 0.091087818145751953
0.67438971996307373 0.53566604852676392 0.097655683755874634
0.74943298101425171 0.5529903769493103 0.10381011664867401
0.82128024101257324 0.57897317409515381 0.10800004750490189
0.89287382364273071 0.60320407152175903 0.11071226745843887
0.96292996406555176 0.61990863084793091 0.11235494911670685
0.063719458878040314 0.57890719175338745 0.080957703292369843
0.11739718914031982 0.57635593414306641 0.083742938935756683
0.1742451936006546 0.58063364028930664 0.08686172217130661
0.23812155425548553 0.59302961826324463 0.088594876229763031
0.31670254468917847 0.61410939693450928 0.09108009934425354
0.41128328442573547 0.63414931297302246 0.094700455665588379
0.50945258140563965 0.63572317361831665 0.096816450357437134
0.60039693117141724 0.62241727113723755 0.097018145024776459
0.67970645427703857 0.61515301465988159 0.099030390381813049
0.75134515762329102 0.62376880645751953 0.10275232791900635
0.82095950841903687 0.64614444971084595 0.10613958537578583
0.89084213972091675 0.67034351825714111 0.10947189480066299
0.95992004871368408 0.68780869245529175 0.11197669804096222
0.069681175053119659 0.6725391149520874 0.088595762848854065
0.12526814639568329 0.671875 0.091199658811092377
0.18438823521137238 0.67313498258590698 0.09447053074836731
0.24995517730712891 0.68104743957519531 0.096649676561355591
0.32761374115943909 0.69576483964920044 0.099490776658058167
0.42031490802764893 0.71386748552322388 0.10379353165626526
0.5181158185005188 0.72411578893661499 0.10798946022987366
0.60884803533554077 0.71992319822311401 0.10998447239398956
0.68689745664596558 0.70651626586914062 0.10827793926000595
0.75599110126495361 0.70070040225982666 0.10674601793289185
0.82309681177139282 0.7134239673614502 0.10791729390621185
0.89093983173370361 0.73565173149108887 0.11102306842803955
0.95756644010543823 0.75449049472808838 0.11383592337369919
0.076427891850471497 0.76912039518356323 0.095755286514759064
0.13448774814605713 0.76960521936416626 0.097670279443264008
0.19723066687583923 0.77213025093078613 0.10034942626953125
0.26695150136947632 0.7771490216255188 0.10287956148386002
0.34693118929862976 0.78651219606399536 0.10640308260917664
0.43884104490280151 0.80014079809188843 0.11162927746772766
0.53433012962341309 0.81060171127319336 0.11724381148815155
0.62244385480880737 0.81065690517425537 0.12040707468986511
0.69964373111724854 0.79992008209228516 0.11936624348163605
0.76816725730895996 0.7899126410484314 0.1164412721991539
0.83276540040969849 0.79308986663818359 0.11560263484716415
0.89549672603607178 0.80719518661499023 0.1166815385222435
0.95773744583129883 0.82263648509979248 0.11835393309593201
0.083997376263141632 0.86759257316589355 0.10516082495450974
0.14516274631023407 0.86969572305679321 0.10590993613004684
0.21211577951908112 0.87296795845031738 0.10797798633575439
0.28669381141662598 0.87636160850524902 0.11017853766679764
0.37040218710899353 0.88238543272018433 0.11362037062644958
0.46235004067420959 0.89061295986175537 0.11903617531061172
0.55522024631500244 0.89742475748062134 0.12513689696788788
0.6407894492149353 0.89782059192657471 0.12934044003486633
0.71796125173568726 0.89139944314956665 0.13031810522079468
0.78761589527130127 0.88363724946975708 0.12901963293552399
0.84964936971664429 0.88110136985778809 0.12720696628093719
0.90489155054092407 0.88538068532943726 0.12625816464424133
0.96065938472747803 0.89416742324829102 0.12634995579719543
0.092537865042686462 0.96215546131134033 0.11790952831506729
0.1566280722618103 0.96531224250793457 0.1178799644112587
0.22705806791782379 0.96814334392547607 0.11898750066757202
0.30513879656791687 0.97043812274932861 0.12016251683235168
0.3909282386302948 0.97327017784118652 0.12300527095794678
0.48200076818466187 0.97691762447357178 0.12772855162620544
0.57269847393035889 0.97974038124084473 0.13343565165996552
0.65726584196090698 0.97943258285522461 0.1381487250328064
0.73522251844406128 0.97590023279190063 0.14066597819328308
0.80633264780044556 0.97092270851135254 0.14099548757076263
0.86687463521957397 0.96705639362335205 0.13971257209777832
0.91673910617828369 0.96522355079650879 0.13773208856582642
0.96731215715408325 0.96863281726837158 0.1364736407995224
0.024651441723108292 0.016014473512768745 0.031499225646257401
0.077335044741630554 0.014332969672977924 0.028028689324855804
0.13771407306194305 0.012840660288929939 0.028158091008663177
0.20477135479450226 0.020393207669258118 0.035489939153194427
0.28185880184173584 0.035237003117799759 0.055595967918634415
0.36859458684921265 0.053256060928106308 0.086221270263195038
0.46167066693305969 0.072759263217449188 0.11730627715587616
0.5555427074432373 0.089978672564029694 0.14185182750225067
0.64536583423614502 0.10461617261171341 0.15529234707355499
0.73072797060012817 0.11838856339454651 0.16280095279216766
0.81208854913711548 0.13274781405925751 0.16900411248207092
0.89018672704696655 0.14781521260738373 0.17467106878757477
0.96605145931243896 0.16224706172943115 0.18033953011035919
0.024752179160714149 0.042444881051778793 0.030908187851309776
0.079240970313549042 0.035149920731782913 0.027893815189599991
0.13960069417953491 0.033600691705942154 0.027858434244990349
0.20721158385276794 0.046425119042396545 0.036922812461853027
0.28468203544616699 0.069572344422340393 0.059303794056177139
0.37138423323631287 0.096795342862606049 0.089785389602184296
0.46407198905944824 0.12225873023271561 0.11993707716464996
0.55734360218048096 0.14100910723209381 0.14399389922618866
0.64662104845046997 0.15584276616573334 0.1565718799829483
0.73169678449630737 0.16931883990764618 0.16363400220870972
0.81202048063278198 0.18369323015213013 0.17005203664302826
0.88922083377838135 0.2002999484539032 0.17539562284946442
0.96434682607650757 0.21603816747665405 0.17911459505558014
0.025854896754026413 0.09367707371711731 0.036986615508794785
0.082586057484149933 0.080928906798362732 0.034330226480960846
0.14318078756332397 0.079613104462623596 0.033002950251102448
0.21112571656703949 0.094162993133068085 0.041705336421728134
0.28967702388763428 0.11906459927558899 0.061448428779840469
0.37676015496253967 0.15102775394916534 0.089173004031181335
0.46881359815597534 0.17953836917877197 0.11985437572002411
0.56057310104370117 0.19755178689956665 0.14513571560382843
0.64875465631484985 0.21064122021198273 0.15745705366134644
0.73231673240661621 0.22249262034893036 0.16454425454139709
0.81101620197296143 0.23636306822299957 0.17098578810691833
0.88808059692382812 0.25362619757652283 0.17462703585624695
0.96276819705963135 0.27230775356292725 0.17640809714794159
0.031244942918419838 0.16877579689025879 0.046087659895420074
0.085556849837303162 0.15816304087638855 0.044699322432279587
0.14555744826793671 0.15727536380290985 0.044446039944887161
0.21486192941665649 0.16432695090770721 0.05096295103430748
0.29535338282585144 0.18216949701309204 0.065408624708652496
0.38437369465827942 0.21232029795646667 0.089340835809707642
0.47680142521858215 0.2413313090801239 0.1194365993142128
0.56686043739318848 0.25900682806968689 0.14449603855609894
0.65264922380447388 0.27007129788398743 0.15750943124294281
0.73459810018539429 0.28183749318122864 0.16497094929218292
0.81315410137176514 0.2974570095539093 0.17073912918567657
0.88865476846694946 0.31712478399276733 0.17286117374897003
0.96283209323883057 0.33568066358566284 0.17303949594497681
0.038114361464977264 0.25025835633277893 0.060988482087850571
0.09000154584646225 0.24274733662605286 0.060123845934867859
0.14844177663326263 0.24043701589107513 0.061067018657922745
0.21749264001846313 0.2438213974237442 0.065195836126804352
0.29972296953201294 0.25614538788795471 0.075111061334609985
0.39293470978736877 0.27786874771118164 0.094410344958305359
0.48711171746253967 0.30303022265434265 0.1209234818816185
0.57504153251647949 0.3211536705493927 0.14370755851268768
0.65865170955657959 0.33292302489280701 0.157216876745224
0.73901361227035522 0.34828203916549683 0.16444328427314758
0.81664645671844482 0.36947363615036011 0.1686699241399765
0.89182347059249878 0.3910929262638092 0.17007553577423096
0.96424263715744019 0.40805822610855103 0.17009323835372925
0.045240037143230438 0.33108454942703247 0.082301333546638489
0.095968268811702728 0.32479065656661987 0.081126898527145386
0.15229931473731995 0.32531067728996277 0.081810355186462402
0.21923556923866272 0.33223283290863037 0.084963344037532806
0.30174058675765991 0.34405103325843811 0.091841287910938263
0.40032815933227539 0.35371303558349609 0.10420678555965424
0.49734455347061157 0.36675378680229187 0.12313923239707947
0.58286231756210327 0.38296744227409363 0.1425216943025589
0.66480135917663574 0.39738547801971436 0.15531982481479645
0.7437744140625 0.41689422726631165 0.16240851581096649
0.82013589143753052 0.44220536947250366 0.16625106334686279
0.89452046155929565 0.46615973114967346 0.16801570355892181
0.96624964475631714 0.48230081796646118 0.16870900988578796
0.052420418709516525 0.41211578249931335 0.10545957833528519
0.10317982733249664 0.4064880907535553 0.10438261181116104
0.15778474509716034 0.41078191995620728 0.10550198704004288
0.22271201014518738 0.4234391450881958 0.10764487832784653
0.30432295799255371 0.44030988216400146 0.11196679621934891
0.40371847152709961 0.44783827662467957 0.11869650334119797
0.50276327133178711 0.44709426164627075 0.12874273955821991
0.58873099088668823 0.45155540108680725 0.14146041870117188
0.66960066556930542 0.46340739727020264 0.15233650803565979
0.74694347381591797 0.48383656144142151 0.15943652391433716
0.82239729166030884 0.51062875986099243 0.16374094784259796
0.89502370357513428 0.53553450107574463 0.1662714034318924
0.96655523777008057 0.55286961793899536 0.16744817793369293
0.058487072587013245 0.49737170338630676 0.12490104138851166
0.11010941118001938 0.49129682779312134 0.12508989870548248
0.16496351361274719 0.49541750550270081 0.12661461532115936
0.2288922518491745 0.50940418243408203 0.12781475484371185
0.30886334180831909 0.53076291084289551 0.13024726510047913
0.40528672933578491 0.5474434494972229 0.13387228548526764
0.50366824865341187 0.54374086856842041 0.13787664473056793
0.59301143884658813 0.53200221061706543 0.14269450306892395
0.67368358373641968 0.53405076265335083 0.14997962117195129
0.7492605447769165 0.55090969800949097 0.15705209970474243
0.82189846038818359 0.57651221752166748 0.16153217852115631
0.89427900314331055 0.60202324390411377 0.1646842360496521
0.96515446901321411 0.62080436944961548 0.16613924503326416
0.063613161444664001 0.58548527956008911 0.13751596212387085
0.11680532991886139 0.57919919490814209 0.13872250914573669
0.17360770702362061 0.58066469430923462 0.14155635237693787
0.23678804934024811 0.59150654077529907 0.14194501936435699
0.3143925666809082 0.6112176775932312 0.14290376007556915
0.40771466493606567 0.63121652603149414 0.14562036097049713
0.50588089227676392 0.6343654990196228 0.1477302610874176
0.5972864031791687 0.62117683887481689 0.14875815808773041
0.67797106504440308 0.61405891180038452 0.15273198485374451
0.75088894367218018 0.62278366088867188 0.15783120691776276
0.82110309600830078 0.64335227012634277 0.16068850457668304
0.89218294620513916 0.66814309358596802 0.1633666604757309
0.96206921339035034 0.68904262781143188 0.16538450121879578
0.06871553510427475 0.67657142877578735 0.14545905590057373
0.12337230890989304 0.6722794771194458 0.14647628366947174
0.1820826530456543 0.67263710498809814 0.14895415306091309
0.24682365357875824 0.67919164896011353 0.14953017234802246
0.32276502251625061 0.69236773252487183 0.15068526566028595
0.4147891104221344 0.71110630035400391 0.15417169034481049
0.51260292530059814 0.7216307520866394 0.15813279151916504
0.60365885496139526 0.71703851222991943 0.16067855060100555
0.68374347686767578 0.7077794075012207 0.1620582789182663
0.7547650933265686 0.70580607652664185 0.16271290183067322
0.82320100069046021 0.71604377031326294 0.16302584111690521
0.8918488621711731 0.73666733503341675 0.16428139805793762
0.95968925952911377 0.7570304274559021 0.16574053466320038
0.073871269822120667 0.77209770679473877 0.15358744561672211
0.13052913546562195 0.77090787887573242 0.15336029231548309
0.19247269630432129 0.77259838581085205 0.15450330078601837
0.2613694965839386 0.7761186957359314 0.15479390323162079
0.34020441770553589 0.78444719314575195 0.15648052096366882
0.43149179220199585 0.7983475923538208 0.16113650798797607
0.52693849802017212 0.80979561805725098 0.16750876605510712
0.61605376005172729 0.8114393949508667 0.17238543927669525
0.69529914855957031 0.80548703670501709 0.17373412847518921
0.76593601703643799 0.79973649978637695 0.17228633165359497
0.83186990022659302 0.80015110969543457 0.16951969265937805
0.89587384462356567 0.81031268835067749 0.16797263920307159
0.95926201343536377 0.82497942447662354 0.16838955879211426
0.0796341672539711 0.86881107091903687 0.16600281000137329
0.1389494389295578 0.87179875373840332 0.16451390087604523
0.20481392741203308 0.87526208162307739 0.16391909122467041
0.27913865447044373 0.87765264511108398 0.16265922784805298
0.36244493722915649 0.88246136903762817 0.16376887261867523
0.45369225740432739 0.89070618152618408 0.16874466836452484
0.54647457599639893 0.89844852685928345 0.17610369622707367
0.63376212120056152 0.90069353580474854 0.18223325908184052
0.713081955909729 0.89810293912887573 0.18491297960281372
0.78409677743911743 0.89253956079483032 0.18364755809307098
0.84736895561218262 0.88674789667129517 0.17947946488857269
0.90474468469619751 0.88742637634277344 0.17541526257991791
0.96238166093826294 0.89460092782974243 0.17421054840087891
0.086326763033866882 0.96359944343566895 0.18228097259998322
0.14817045629024506 0.96697157621383667 0.17941869795322418
0.21721409261226654 0.97026020288467407 0.1773063987493515
0.29501569271087646 0.97194606065750122 0.17499551177024841
0.38110443949699402 0.97447282075881958 0.17506588995456696
0.472309410572052 0.97794932126998901 0.17906230688095093
0.56389182806015015 0.98078358173370361 0.18562158942222595
0.65084332227706909 0.98151236772537231 0.1918085515499115
0.73075288534164429 0.97986680269241333 0.19499869644641876
0.80239748954772949 0.97503864765167236 0.19468605518341064
0.86382746696472168 0.96931052207946777 0.19106879830360413
0.91672152280807495 0.96539288759231567 0.18653996288776398
0.9695427417755127 0.96735537052154541 0.18430259823799133
0.026547180488705635 0.024842161685228348 0.067932650446891785
0.077798061072826385 0.019687173888087273 0.062318585813045502
0.13523074984550476 0.015802167356014252 0.062655352056026459
0.19936589896678925 0.02248108759522438 0.069238685071468353
0.27415335178375244 0.036637160927057266 0.091187946498394012
0.35983654856681824 0.0539383664727211 0.12620934844017029
0.45277851819992065 0.074760392308235168 0.1627299040555954
0.54814326763153076 0.093216747045516968 0.1909806877374649
0.64116126298904419 0.10855410993099213 0.20587712526321411
0.73006939888000488 0.12227856367826462 0.21397699415683746
0.81392431259155273 0.13671272993087769 0.22196884453296661
0.89238905906677246 0.1521107405424118 0.23055645823478699
0.96897274255752563 0.1662600189447403 0.23854191601276398
0.02673543244600296 0.054571382701396942 0.065223589539527893
0.077402792870998383 0.044066261500120163 0.060415875166654587
0.13612766563892365 0.037487749010324478 0.059880275279283524
0.20209628343582153 0.048249159008264542 0.069699786603450775
0.27811560034751892 0.07041437178850174 0.094057001173496246
0.36379563808441162 0.098290026187896729 0.12909357249736786
0.45656523108482361 0.1252058744430542 0.16613546013832092
0.55152863264083862 0.14534038305282593 0.19444878399372101
0.64415860176086426 0.16025026142597198 0.20722897350788116
0.73183929920196533 0.17328272759914398 0.21387897431850433
0.8143731951713562 0.18743447959423065 0.22214892506599426
0.89173358678817749 0.20368966460227966 0.23035690188407898
0.96624988317489624 0.21844854950904846 0.23544669151306152
0.026602607220411301 0.10784714668989182 0.069803334772586823
0.078482672572135925 0.091814063489437103 0.065217785537242889
0.13833998143672943 0.082393422722816467 0.062960155308246613
0.20653004944324493 0.094408728182315826 0.074393332004547119
0.28423461318016052 0.11871755123138428 0.097747460007667542
0.37027472257614136 0.15335775911808014 0.13064019381999969
0.46226200461387634 0.18363580107688904 0.16823743283748627
0.55570310354232788 0.20189608633518219 0.19752603769302368
0.64653992652893066 0.21425586938858032 0.20914769172668457
0.73221606016159058 0.22532615065574646 0.21458275616168976
0.81295502185821533 0.23855224251747131 0.22145853936672211
0.88895058631896973 0.2547137439250946 0.22704100608825684
0.96348279714584351 0.27064952254295349 0.22979347407817841
0.029877427965402603 0.1814780980348587 0.07886137068271637
0.081351757049560547 0.16772450506687164 0.07783990353345871
0.14053244888782501 0.16132175922393799 0.077753804624080658
0.2100154310464859 0.16469268500804901 0.086357206106185913
0.28956079483032227 0.18028175830841064 0.10395091772079468
0.37747874855995178 0.21232303977012634 0.13300971686840057
0.46946999430656433 0.24459181725978851 0.16983203589916229
0.56082630157470703 0.26260358095169067 0.19774705171585083
0.64888858795166016 0.27165678143501282 0.21010512113571167
0.73288959264755249 0.28263497352600098 0.21589423716068268
0.8128211498260498 0.29761976003646851 0.22032696008682251
0.88852053880691528 0.3149946928024292 0.22236098349094391
0.96277624368667603 0.33099445700645447 0.22363109886646271
0.035768456757068634 0.26263868808746338 0.10063867270946503
0.085847221314907074 0.25187814235687256 0.099508635699748993
0.14303998649120331 0.24566221237182617 0.10019713640213013
0.21114495396614075 0.24482214450836182 0.10489922016859055
0.29163259267807007 0.25248423218727112 0.1153738871216774
