assets/lut/abigailgonzalez blue house.cube
# Created by: G'MIC (https://gmic.eu)
TITLE "blue_house"
# LUT size
LUT_3D_SIZE 7
# Data domain
DOMAIN_MIN 0.0 0.0 0.0
DOMAIN_MAX 1.0 1.0 1.0
# LUT data points
0.014077533967792988 0.023157695308327675 0.02442525140941143
0.12291668355464935 0.030621413141489029 0.026698138564825058
0.26546767354011536 0.039834745228290558 0.023168586194515228
0.43030509352684021 0.062272060662508011 0.028261087834835052
0.5963255763053894 0.095642894506454468 0.03818594291806221
0.73398894071578979 0.11935164779424667 0.043725691735744476
0.84957069158554077 0.13686801493167877 0.049515921622514725
0.018511110916733742 0.13022589683532715 0.037840601056814194
0.13028621673583984 0.131926029920578 0.031996306031942368
0.28222170472145081 0.13903103768825531 0.025147156789898872
0.44215571880340576 0.16080328822135925 0.033676806837320328
0.6027408242225647 0.19231319427490234 0.049370575696229935
0.74219816923141479 0.22355800867080688 0.062467716634273529
0.85885083675384521 0.25101000070571899 0.076605446636676788
0.033327605575323105 0.23953697085380554 0.051032092422246933
0.13849863409996033 0.24563424289226532 0.046031277626752853
0.30531293153762817 0.25190123915672302 0.034107882529497147
0.47839343547821045 0.26819649338722229 0.038033414632081985
0.63904702663421631 0.29490447044372559 0.052626859396696091
0.76966255903244019 0.33079469203948975 0.071962393820285797
0.87954539060592651 0.36416685581207275 0.095554888248443604
0.054129745811223984 0.35138282179832458 0.068673059344291687
0.14727336168289185 0.36792618036270142 0.067415736615657806
0.32783785462379456 0.38497278094291687 0.060999404639005661
0.53317928314208984 0.39525958895683289 0.061929948627948761
0.68346703052520752 0.41393536329269409 0.061431884765625
0.80133938789367676 0.44464972615242004 0.075071819126605988
0.90503436326980591 0.47032696008682251 0.10185669362545013
0.072597682476043701 0.47337278723716736 0.099937468767166138
0.15971846878528595 0.49466505646705627 0.10005804151296616
0.34853273630142212 0.52214276790618896 0.098244652152061462
0.56021559238433838 0.54369330406188965 0.090984910726547241
0.70573514699935913 0.54811549186706543 0.082681246101856232
0.82072889804840088 0.55939304828643799 0.091588743031024933
0.91941982507705688 0.57427340745925903 0.11020305752754211
0.10038702189922333 0.59839010238647461 0.13690300285816193
0.20142552256584167 0.62243574857711792 0.13569089770317078
0.3828682005405426 0.6552160382270813 0.12383194267749786
0.58247131109237671 0.67962074279785156 0.11676573008298874
0.70947521924972534 0.68956124782562256 0.11687710136175156
0.81925338506698608 0.68354398012161255 0.12149377167224884
0.91875946521759033 0.68598222732543945 0.12948182225227356
0.13699036836624146 0.71602678298950195 0.17261411249637604
0.24827837944030762 0.73928302526473999 0.1791892945766449
0.40911957621574402 0.76950395107269287 0.17315492033958435
0.58900761604309082 0.79455047845840454 0.1561933308839798
0.71181875467300415 0.80423551797866821 0.14667588472366333
0.81220608949661255 0.8012009859085083 0.14456769824028015
0.91316622495651245 0.79981768131256104 0.14610029757022858
0.020459208637475967 0.032538663595914841 0.12441872805356979
0.11697058379650116 0.032879024744033813 0.12510514259338379
0.27975738048553467 0.044012151658535004 0.11239252984523773
0.4474484920501709 0.063507571816444397 0.11044933646917343
0.60891497135162354 0.0959433913230896 0.11936687678098679
0.74306958913803101 0.12053046375513077 0.12220188230276108
0.85034489631652832 0.14024855196475983 0.13277362287044525
0.017067285254597664 0.13735933601856232 0.1476425975561142
0.096211977303028107 0.14293807744979858 0.15132559835910797
0.27670937776565552 0.14887958765029907 0.13218419253826141
0.45427826046943665 0.16864456236362457 0.13002176582813263
0.6164739727973938 0.19841781258583069 0.1322314441204071
0.75068742036819458 0.22954152524471283 0.13988299667835236
0.85510909557342529 0.26604953408241272 0.17023678123950958
0.024597316980361938 0.25078025460243225 0.16518688201904297
0.10518726706504822 0.25830861926078796 0.1676298975944519
0.29130429029464722 0.26412713527679443 0.13588102161884308
0.49672114849090576 0.28188690543174744 0.13178560137748718
0.65273308753967285 0.31438213586807251 0.13740736246109009
0.77469134330749512 0.35369905829429626 0.16211959719657898
0.87271618843078613 0.39126113057136536 0.20139820873737335
0.044968236237764359 0.36752372980117798 0.18809358775615692
0.12120868265628815 0.38198307156562805 0.18479621410369873
0.29008477926254272 0.40519878268241882 0.15874077379703522
0.54422003030776978 0.41465607285499573 0.14043620228767395
0.69724190235137939 0.43729463219642639 0.14767968654632568
0.80280828475952148 0.47124150395393372 0.17603686451911926
0.89980626106262207 0.49245274066925049 0.20380288362503052
0.071362480521202087 0.49441477656364441 0.21936599910259247
0.14548733830451965 0.506031334400177 0.21468327939510345
0.30512073636054993 0.53832072019577026 0.20440568029880524
0.55743813514709473 0.56555956602096558 0.17426927387714386
0.71452605724334717 0.57164293527603149 0.16924665868282318
0.82137244939804077 0.5812496542930603 0.19396917521953583
0.91571044921875 0.59497612714767456 0.21723759174346924
0.10443574190139771 0.61944317817687988 0.24897502362728119
0.18241910636425018 0.63154429197311401 0.24351827800273895
0.32891640067100525 0.65642291307449341 0.23920157551765442
0.57902395725250244 0.69121146202087402 0.21060276031494141
0.71502113342285156 0.70392227172851562 0.21002760529518127
0.81961560249328613 0.69876694679260254 0.22174398601055145
0.91583883762359619 0.70309275388717651 0.23499377071857452
0.14198930561542511 0.73139047622680664 0.27418744564056396
0.2370075136423111 0.74555039405822754 0.27279853820800781
0.38136094808578491 0.77205091714859009 0.27497372031211853
0.59371954202651978 0.80425029993057251 0.26019078493118286
0.7229042649269104 0.81900984048843384 0.2487717866897583
0.81346756219863892 0.81567060947418213 0.24576711654663086
0.90853512287139893 0.8143652081489563 0.24760615825653076
0.019929654896259308 0.050010472536087036 0.22754751145839691
0.091301232576370239 0.044380757957696915 0.23047338426113129
0.23255115747451782 0.050481833517551422 0.2221737802028656
0.43387439846992493 0.062736526131629944 0.2017376720905304
0.6127007007598877 0.093014001846313477 0.20248442888259888
0.74725759029388428 0.12111681699752808 0.20973552763462067
0.85218387842178345 0.14543621242046356 0.22669801115989685
0.017146151512861252 0.14573061466217041 0.25210249423980713
0.075396127998828888 0.15138311684131622 0.26218569278717041
0.22284254431724548 0.15928402543067932 0.25855493545532227
0.46445927023887634 0.18496505916118622 0.24043563008308411
0.63857275247573853 0.21333232522010803 0.23693320155143738
0.76226329803466797 0.24211494624614716 0.24574699997901917
0.85987383127212524 0.28099197149276733 0.27948296070098877
0.018502717837691307 0.25509452819824219 0.27861177921295166
0.073958605527877808 0.26408863067626953 0.29418483376502991
0.19693778455257416 0.28048118948936462 0.29866975545883179
0.47918412089347839 0.31740659475326538 0.28482195734977722
0.65025156736373901 0.35807919502258301 0.29756933450698853
0.77327877283096313 0.38802915811538696 0.31168222427368164
0.87382668256759644 0.419626384973526 0.33558684587478638
0.034230206161737442 0.38301956653594971 0.31724843382835388
0.09717869758605957 0.39532005786895752 0.32499617338180542
0.19962041079998016 0.41677096486091614 0.32787716388702393
0.51647853851318359 0.45053470134735107 0.28355476260185242
0.68351095914840698 0.48700454831123352 0.31698352098464966
0.78803873062133789 0.51432234048843384 0.35049471259117126
0.89136219024658203 0.5328487753868103 0.36326652765274048
0.069575287401676178 0.5275954008102417 0.35816770792007446
0.13447734713554382 0.53813982009887695 0.35723644495010376
0.23764187097549438 0.55480057001113892 0.35571584105491638
0.51204335689544678 0.59293085336685181 0.31864997744560242
0.71003198623657227 0.61058640480041504 0.3193107545375824
0.81108850240707397 0.61765760183334351 0.35087466239929199
0.90837979316711426 0.63587695360183716 0.37242850661277771
0.11274520307779312 0.65259361267089844 0.38167592883110046
0.18858174979686737 0.6557043194770813 0.36861249804496765
0.29234218597412109 0.66899698972702026 0.37853559851646423
0.53141093254089355 0.70590418577194214 0.36453032493591309
0.70672976970672607 0.72825783491134644 0.34882622957229614
0.81675398349761963 0.72496920824050903 0.3506895899772644
0.91807222366333008 0.73191100358963013 0.36386439204216003
0.14323557913303375 0.75414073467254639 0.39399820566177368
0.22492992877960205 0.75939738750457764 0.38806864619255066
0.33567851781845093 0.77523535490036011 0.39662960171699524
0.55226922035217285 0.81268930435180664 0.39234554767608643
0.71853166818618774 0.83757293224334717 0.37782120704650879
0.8167760968208313 0.83604961633682251 0.36486640572547913
0.91282886266708374 0.83517241477966309 0.36287230253219604
0.018592355772852898 0.072697624564170837 0.33159530162811279
0.087366707623004913 0.058315560221672058 0.33193725347518921
0.18478845059871674 0.058546822518110275 0.33080843091011047
0.36002695560455322 0.066616803407669067 0.31421723961830139
0.58431178331375122 0.1010463610291481 0.30416169762611389
0.74044322967529297 0.13328671455383301 0.31587895750999451
0.8538019061088562 0.16298364102840424 0.33873999118804932
0.014962110668420792 0.16556060314178467 0.35760277509689331
0.073265179991722107 0.16936998069286346 0.36783993244171143
0.15549588203430176 0.15999041497707367 0.37470433115959167
0.37652263045310974 0.18103361129760742 0.35928493738174438
0.62418383359909058 0.22830288112163544 0.35394895076751709
0.75895363092422485 0.26158800721168518 0.37206080555915833
0.86691921949386597 0.29552316665649414 0.39781302213668823
0.015959078446030617 0.26380529999732971 0.38894879817962646
0.075195431709289551 0.27530696988105774 0.39969465136528015
0.16252109408378601 0.28386518359184265 0.41624355316162109
0.3917577862739563 0.3212968111038208 0.42187267541885376
0.65464276075363159 0.38617792725563049 0.43782955408096313
0.77294933795928955 0.40819776058197021 0.45017498731613159
0.88337510824203491 0.43193203210830688 0.4608483612537384
0.031206423416733742 0.39393866062164307 0.43363752961158752
0.095326878130435944 0.40608543157577515 0.43902432918548584
0.17639581859111786 0.42655080556869507 0.45676621794700623
0.37230053544044495 0.46479147672653198 0.47805917263031006
0.66207021474838257 0.52415257692337036 0.49631348252296448
0.78283512592315674 0.54210573434829712 0.50654113292694092
0.89596462249755859 0.55819803476333618 0.50831663608551025
0.068209193646907806 0.5439445972442627 0.4829256534576416
0.13983097672462463 0.55746316909790039 0.48823416233062744
0.22512038052082062 0.57427871227264404 0.49632427096366882
0.42358556389808655 0.60229313373565674 0.4964735209941864
0.70394110679626465 0.638355553150177 0.48757630586624146
0.80888909101486206 0.65342706441879272 0.50705242156982422
0.91150945425033569 0.67205607891082764 0.52675127983093262
0.10882553458213806 0.67008531093597412 0.51116538047790527
0.18751513957977295 0.6763414740562439 0.51138228178024292
0.28435802459716797 0.68833088874816895 0.51441651582717896
0.50219428539276123 0.72196120023727417 0.51093477010726929
0.70606672763824463 0.75231450796127319 0.4948992133140564
0.82204777002334595 0.75644928216934204 0.49005699157714844
0.92705506086349487 0.7642514705657959 0.50499629974365234
0.13513810932636261 0.77238768339157104 0.52135586738586426
0.21426248550415039 0.77779829502105713 0.52010232210159302
0.31895208358764648 0.79106646776199341 0.52291679382324219
0.54898917675018311 0.83430081605911255 0.52632302045822144
0.72767400741577148 0.86038076877593994 0.51437926292419434
0.82497149705886841 0.85931646823883057 0.49298807978630066
0.92420119047164917 0.86041808128356934 0.48900926113128662
0.013623630627989769 0.081224985420703888 0.43705993890762329
0.092869885265827179 0.065083369612693787 0.43641623854637146
0.18154531717300415 0.067909270524978638 0.43774968385696411
0.28882932662963867 0.071342244744300842 0.43604278564453125
0.53725916147232056 0.1103835329413414 0.41615474224090576
0.74026238918304443 0.15207245945930481 0.42006823420524597
0.85159111022949219 0.18035681545734406 0.4482409656047821
0.012199850752949715 0.18415208160877228 0.4669792652130127
0.087243460118770599 0.18021966516971588 0.47345015406608582
0.1724182665348053 0.16884811222553253 0.47761902213096619
0.29752472043037415 0.17667114734649658 0.47571322321891785
0.56982171535491943 0.22786310315132141 0.46358177065849304
0.75804483890533447 0.27471655607223511 0.47713139653205872
0.86102455854415894 0.3059866726398468 0.5067441463470459
0.018715936690568924 0.29032370448112488 0.50025910139083862
0.092261128127574921 0.30258354544639587 0.51059317588806152
0.17119760811328888 0.30981165170669556 0.52604073286056519
0.28379258513450623 0.31206229329109192 0.53738188743591309
0.61364185810089111 0.38282090425491333 0.53872072696685791
0.77334302663803101 0.41880327463150024 0.55431842803955078
0.8815653920173645 0.44007861614227295 0.56918942928314209
0.032502133399248123 0.41426306962966919 0.54169857501983643
0.100322425365448 0.42707586288452148 0.54982829093933105
0.17287293076515198 0.44360363483428955 0.56746083498001099
0.31379115581512451 0.47069036960601807 0.59491133689880371
0.64880287647247314 0.53801792860031128 0.60709881782531738
0.7843095064163208 0.56284898519515991 0.61863267421722412
0.89879727363586426 0.57353812456130981 0.62494325637817383
0.058708071708679199 0.54718363285064697 0.58748364448547363
0.12720759212970734 0.55948132276535034 0.59696483612060547
0.20058144629001617 0.5767817497253418 0.61129999160766602
0.35359340906143188 0.60896152257919312 0.63367825746536255
0.66792547702789307 0.65949922800064087 0.63676989078521729
0.80916202068328857 0.68344795703887939 0.64248472452163696
0.9146275520324707 0.6938210129737854 0.65724450349807739
0.092703983187675476 0.66954237222671509 0.62007951736450195
0.17021878063678741 0.67970502376556396 0.62921512126922607
0.25967526435852051 0.69625747203826904 0.63665091991424561
0.42196500301361084 0.72742265462875366 0.64700990915298462
0.68965774774551392 0.77346092462539673 0.64695709943771362
0.82689195871353149 0.78768211603164673 0.63236653804779053
0.92777389287948608 0.79295969009399414 0.64643317461013794
0.1224832609295845 0.77886086702346802 0.63623416423797607
0.20753830671310425 0.78947526216506958 0.64208859205245972
0.32091525197029114 0.80979323387145996 0.64946222305297852
0.51982903480529785 0.85154968500137329 0.66149836778640747
0.72346305847167969 0.88383883237838745 0.65952110290527344
0.8350411057472229 0.88546675443649292 0.63240176439285278
0.92935860157012939 0.88563013076782227 0.622048020362854
0.012316176667809486 0.094672515988349915 0.54710644483566284
0.095840975642204285 0.089541837573051453 0.55020427703857422
0.18107663094997406 0.089175008237361908 0.55326336622238159
0.26525670289993286 0.085892453789710999 0.55660128593444824
0.47409719228744507 0.11538292467594147 0.54464131593704224
0.70676314830780029 0.16481086611747742 0.53869235515594482
0.84156686067581177 0.19389934837818146 0.55556410551071167
0.013215517625212669 0.20159405469894409 0.57723110914230347
0.092894099652767181 0.19864973425865173 0.58275014162063599
0.17377451062202454 0.19352832436561584 0.58702987432479858
0.26689356565475464 0.19398672878742218 0.59278148412704468
0.51462078094482422 0.23733629286289215 0.58890944719314575
0.74227732419967651 0.29074615240097046 0.59160548448562622
0.85167717933654785 0.31613972783088684 0.60889714956283569
0.02260977029800415 0.31761458516120911 0.6090206503868103
0.101596400141716 0.32783022522926331 0.62027198076248169
0.18116840720176697 0.33961120247840881 0.63649970293045044
0.27206096053123474 0.34141477942466736 0.65170514583587646
0.54192900657653809 0.3836541473865509 0.65633636713027954
0.76488709449768066 0.42863559722900391 0.6607058048248291
0.87407147884368896 0.44747579097747803 0.66872692108154297
0.033358674496412277 0.43889978528022766 0.64552903175354004
0.10504429787397385 0.45124655961990356 0.65833753347396851
0.18347634375095367 0.46940121054649353 0.6787983775138855
0.29216241836547852 0.48841628432273865 0.69996291399002075
0.59113597869873047 0.53760749101638794 0.71206510066986084
0.78254193067550659 0.57233202457427979 0.72240805625915527
0.89577299356460571 0.58422958850860596 0.72890335321426392
0.048278089612722397 0.55425333976745605 0.68433070182800293
0.11536093056201935 0.56394737958908081 0.69498264789581299
0.20508429408073425 0.5818408727645874 0.7111889123916626
0.34646907448768616 0.61415040493011475 0.73285698890686035
0.62980169057846069 0.66864633560180664 0.752796471118927
0.80783271789550781 0.70252841711044312 0.76434421539306641
0.91252142190933228 0.71056580543518066 0.7750515341758728
0.078051261603832245 0.66834729909896851 0.71612870693206787
0.15708814561367035 0.67962551116943359 0.72431290149688721
0.25360214710235596 0.69859784841537476 0.73490709066390991
0.38303962349891663 0.72957789897918701 0.7566949725151062
0.64186221361160278 0.78195220232009888 0.78253567218780518
0.82101953029632568 0.81181877851486206 0.78375768661499023
0.92739450931549072 0.81471383571624756 0.78596627712249756
0.11204729229211807 0.78178501129150391 0.73779833316802979
0.20074400305747986 0.79472702741622925 0.74571675062179565
0.30076870322227478 0.81413370370864868 0.75661885738372803
0.4362698495388031 0.84442412853240967 0.77530902624130249
0.65867012739181519 0.88524407148361206 0.79503291845321655
0.83807957172393799 0.90647274255752563 0.78744447231292725
0.94070225954055786 0.90783792734146118 0.76972514390945435
0.013632950372993946 0.11380592733621597 0.65531450510025024
0.099679984152317047 0.11516515910625458 0.66115099191665649
0.18946385383605957 0.11753848195075989 0.66571331024169922
0.29603546857833862 0.12284199148416519 0.66894972324371338
0.47100937366485596 0.14532876014709473 0.66605716943740845
0.68101251125335693 0.18240833282470703 0.65917092561721802
0.83117836713790894 0.20775613188743591 0.66479933261871338
0.01644967682659626 0.22460548579692841 0.68527328968048096
0.098315909504890442 0.22675491869449615 0.69198054075241089
0.18308471143245697 0.22946743667125702 0.69833332300186157
0.28790122270584106 0.23852667212486267 0.7087254524230957
0.47158521413803101 0.2624477744102478 0.71598607301712036
0.71644151210784912 0.30773457884788513 0.70835703611373901
0.84879690408706665 0.32915565371513367 0.71253925561904907
0.025367647409439087 0.34351259469985962 0.71508371829986572
0.10465280711650848 0.35290560126304626 0.72619116306304932
0.18841478228569031 0.36651802062988281 0.74014878273010254
0.29234087467193604 0.3787136971950531 0.75602895021438599
0.48714014887809753 0.39555907249450684 0.77176618576049805
0.72752994298934937 0.43275526165962219 0.7701343297958374
0.86342519521713257 0.45479017496109009 0.76876121759414673
0.034947026520967484 0.46076086163520813 0.74697107076644897
0.10902956873178482 0.47174686193466187 0.76003861427307129
0.18741987645626068 0.48822394013404846 0.7774462103843689
0.28726980090141296 0.50577366352081299 0.79637855291366577
0.5267292857170105 0.53765588998794556 0.81513649225234985
0.76050263643264771 0.57214605808258057 0.8251451849937439
0.8895190954208374 0.58941411972045898 0.82702332735061646
0.047822989523410797 0.56666618585586548 0.78023779392242432
0.12268999963998795 0.57823377847671509 0.7905849814414978
0.20589986443519592 0.59435188770294189 0.80446356534957886
0.32171255350112915 0.61985909938812256 0.82175266742706299
0.57018321752548218 0.66838514804840088 0.84689080715179443
0.79037082195281982 0.7070610523223877 0.86680477857589722
0.91062545776367188 0.71768665313720703 0.87143594026565552
0.074860364198684692 0.67484885454177856 0.80991232395172119
0.16088220477104187 0.68797141313552856 0.81766355037689209
0.24901743233203888 0.70521992444992065 0.82883685827255249
0.36572244763374329 0.73143011331558228 0.84762293100357056
0.59584718942642212 0.7794499397277832 0.87719500064849854
0.8008924126625061 0.8173334002494812 0.89532577991485596
0.92506194114685059 0.82712376117706299 0.89084029197692871
0.10764909535646439 0.78754109144210815 0.83422785997390747
0.19998034834861755 0.80152797698974609 0.84228026866912842
0.29447314143180847 0.81960207223892212 0.85387468338012695
0.41660374402999878 0.84502744674682617 0.87286996841430664
0.62843334674835205 0.88507080078125 0.89592981338500977
0.82507133483886719 0.91555726528167725 0.90421164035797119
0.94578832387924194 0.92485594749450684 0.89387810230255127
