assets/lut/abigailgonzalez eterna for flog.cube
# Created by: G'MIC (https://gmic.eu)
TITLE "eterna_for_flog"
# LUT size
LUT_3D_SIZE 13
# Data domain
DOMAIN_MIN 0.0 0.0 0.0
DOMAIN_MAX 1.0 1.0 1.0
# LUT data points
0.0085438145324587822 0.0077919755131006241 0.0076945587061345577
0.067429497838020325 0.0094640692695975304 0.0086101461201906204
0.18771576881408691 0.0090938340872526169 0.012131650000810623
0.33360782265663147 0.0077663795091211796 0.028121873736381531
0.51183217763900757 0.011474818922579288 0.055716183036565781
0.71037673950195312 0.020960459485650063 0.08848050981760025
0.89166843891143799 0.024957155808806419 0.11876755952835083
0.9858209490776062 0.02735137939453125 0.13655845820903778
0.99992817640304565 0.030796574428677559 0.14201045036315918
0.99985754489898682 0.03082294762134552 0.13910192251205444
0.99158787727355957 0.029235227033495903 0.13484068214893341
0.97842347621917725 0.02931111678481102 0.13322561979293823
0.97636306285858154 0.029769493266940117 0.13327012956142426
0.001943431212566793 0.034217566251754761 0.0042887520976364613
0.040536679327487946 0.032389156520366669 0.0051560495048761368
0.14380462467670441 0.020297884941101074 0.010934657417237759
0.27087116241455078 0.010123368352651596 0.02294597215950489
0.42387178540229797 0.0068087261170148849 0.041219614446163177
0.60701268911361694 0.01467418298125267 0.066856950521469116
0.7921862006187439 0.016149453818798065 0.10007692128419876
0.92683696746826172 0.022034259513020515 0.125395268201828
0.99013996124267578 0.030953859910368919 0.13545458018779755
0.99491935968399048 0.032978702336549759 0.13489460945129395
0.98003023862838745 0.033425305038690567 0.13193823397159576
0.97190064191818237 0.033941470086574554 0.13100157678127289
0.97282499074935913 0.032392926514148712 0.13217604160308838
4.5118144043954089e-05 0.10566408932209015 0.00054723699577152729
0.018490316346287727 0.10581669211387634 0.0019364301115274429
0.10682082921266556 0.089926041662693024 0.0039185169152915478
0.22711379826068878 0.068267151713371277 0.012177725322544575
0.36127066612243652 0.04447772353887558 0.026180895045399666
0.53024011850357056 0.032643396407365799 0.048928696662187576
0.71296006441116333 0.017657620832324028 0.083939932286739349
0.87585645914077759 0.018194848671555519 0.1159573569893837
0.97423738241195679 0.026917342096567154 0.13216677308082581
0.99072104692459106 0.027244044467806816 0.13476943969726562
0.97990149259567261 0.031747646629810333 0.13145186007022858
0.9748227596282959 0.035986851900815964 0.12985244393348694
0.97665494680404663 0.033279899507761002 0.12971222400665283
0 0.18344037234783173 0.00099349673837423325
0.0057861777022480965 0.19299013912677765 0.00075791304698213935
0.070504084229469299 0.18267159163951874 0.00030166027136147022
0.18740496039390564 0.16460937261581421 0.0021545409690588713
0.32530385255813599 0.14300091564655304 0.0097324149683117867
0.48520800471305847 0.11655276268720627 0.025808626785874367
0.65932708978652954 0.072280943393707275 0.061451766639947891
0.8325345516204834 0.042785421013832092 0.10267578065395355
0.9533010721206665 0.023682523518800735 0.13102874159812927
0.98978978395462036 0.013223251327872276 0.13989134132862091
0.98515945672988892 0.021980943158268929 0.13547810912132263
0.98084771633148193 0.032932519912719727 0.13080388307571411
0.98105138540267944 0.029741967096924782 0.1299290657043457
0.00043679031659848988 0.27549001574516296 0.0031421736348420382
0.00029829435516148806 0.29383790493011475 0.00069279392482712865
0.031325172632932663 0.28518256545066833 0.00015546013310085982
0.13811396062374115 0.27074185013771057 7.0010914896556642e-06
0.29158103466033936 0.25523126125335693 0.00064381619449704885
0.45747745037078857 0.24132534861564636 0.0045669856481254101
0.63153225183486938 0.20635361969470978 0.027029315009713173
0.8028905987739563 0.15299750864505768 0.069028742611408234
0.93430155515670776 0.082731671631336212 0.11121056973934174
0.98733395338058472 0.026771290227770805 0.13719940185546875
0.98906069993972778 0.013723230920732021 0.14046816527843475
0.98444461822509766 0.021142667159438133 0.13566266000270844
0.98392349481582642 0.01761290617287159 0.13374011218547821
0.0025688172318041325 0.39998963475227356 0.0014088499592617154
0 0.42775404453277588 1.2566061741381418e-05
0.0032340255565941334 0.41663861274719238 0
0.069793716073036194 0.39819532632827759 0
0.23755949735641479 0.38322815299034119 0.00036327884299680591
0.42809343338012695 0.37320160865783691 0.0012568903621286154
0.61365032196044922 0.35832610726356506 0.0042440528050065041
0.78602224588394165 0.32310187816619873 0.020763890817761421
0.92509585618972778 0.25665020942687988 0.058884952217340469
0.98776280879974365 0.15290053188800812 0.1017749235033989
0.99132335186004639 0.071236059069633484 0.12632352113723755
0.98592936992645264 0.033952195197343826 0.13501884043216705
0.98436146974563599 0.022045165300369263 0.13392210006713867
0.0012988969683647156 0.53988438844680786 4.434024594957009e-05
0 0.57705539464950562 0
0 0.57098037004470825 0
0.021061662584543228 0.55393075942993164 0
0.16812014579772949 0.54178786277770996 0.00033644132781773806
0.38378256559371948 0.5321885347366333 0.0014533099019899964
0.58655977249145508 0.52239406108856201 0.00035666671465151012
0.76030552387237549 0.50622111558914185 0.0007423251518048346
0.90483593940734863 0.46890351176261902 0.01391257531940937
0.97932714223861694 0.38114696741104126 0.041352320462465286
0.99336737394332886 0.25655731558799744 0.072656400501728058
0.99151140451431274 0.15385724604129791 0.10390729457139969
0.99020665884017944 0.13200920820236206 0.10724183917045593
0.0020512000191956758 0.6962810754776001 0.0011221193708479404
8.9757583054961287e-07 0.73003971576690674 0.00044787538354285061
0 0.72731882333755493 0
0.0052572810091078281 0.71413236856460571 0
0.10658112913370132 0.70284122228622437 3.1115963793126866e-05
0.31462535262107849 0.69206994771957397 0.0014733407879248261
0.53663033246994019 0.68391209840774536 0.00386784877628088
0.72299569845199585 0.6756749153137207 0.0014049455057829618
0.87099260091781616 0.65167683362960815 0.00042934043449349701
0.95881372690200806 0.59305381774902344 0.003816881449893117
0.98777371644973755 0.49034962058067322 0.013945052400231361
0.99366408586502075 0.36744102835655212 0.042679894715547562
0.99507158994674683 0.33772537112236023 0.050826773047447205
0.0019446727819740772 0.83261799812316895 0.00067541084717959166
1.4361213516167481e-06 0.85931664705276489 0.00041675943066366017
0 0.85796546936035156 0
0.00049804989248514175 0.8499111533164978 0
0.060718461871147156 0.84179574251174927 0
0.24009186029434204 0.83143669366836548 0.00063807168044149876
0.46863949298858643 0.82233411073684692 0.0040534972213208675
0.67831593751907349 0.81671690940856934 0.0029038372449576855
0.83642435073852539 0.80245488882064819 0
0.93233203887939453 0.76008713245391846 0
0.96780246496200562 0.68374347686767578 0.00025559967616572976
0.97768563032150269 0.58114749193191528 0.007817242294549942
0.98286139965057373 0.53243178129196167 0.013366055674850941
0.00093347887741401792 0.9300808310508728 7.0010914896556642e-06
0 0.94601911306381226 0.00045215382124297321
0 0.94503647089004517 0.00041539809899404645
0 0.94219225645065308 0.00015460743452422321
0.027474436908960342 0.94015789031982422 2.2170122974785045e-05
0.17076742649078369 0.93246287107467651 0.00046168308472260833
0.38695761561393738 0.92653989791870117 0.0016573139000684023
0.61751574277877808 0.9256933331489563 0.00089244468836113811
0.79679220914840698 0.91740715503692627 0
0.90101361274719238 0.88935941457748413 0
0.94441026449203491 0.83811068534851074 0
0.95735138654708862 0.76439213752746582 7.6877367973793298e-05
0.96292459964752197 0.70737528800964355 0.00070821726694703102
0.0021445031743496656 0.98282557725906372 0.0010929481359198689
0.00016838523151818663 0.98855489492416382 0.0046976576559245586
0 0.98471027612686157 0.0065798293799161911
0 0.98308646678924561 0.0040624882094562054
0.0082404790446162224 0.98542410135269165 0.0016448675887659192
0.09538663923740387 0.9839397668838501 0.0013848547823727131
0.27444040775299072 0.9837682843208313 0.0021681990474462509
0.51284271478652954 0.9870646595954895 0.0010878918692469597
0.7227662205696106 0.98491775989532471 0.00011901855759788305
0.85196661949157715 0.97257047891616821 3.5005457448278321e-06
0.91639262437820435 0.9477773904800415 0
0.93950802087783813 0.9002196192741394 0
0.94711285829544067 0.84978902339935303 0.00016569250146858394
0.0045491387136280537 0.99379676580429077 0.0036012837663292885
0.00094827392604202032 0.99621593952178955 0.01235492154955864
0.00011901855759788305 0.99121969938278198 0.014192543923854828
6.7677217884920537e-05 0.98811620473861694 0.0084572136402130127
0.00011979645205428824 0.99221944808959961 0.0028758926782757044
0.020046817138791084 0.99580645561218262 0.0017570795025676489
0.13645569980144501 0.99728739261627197 0.0034208111464977264
0.35905569791793823 0.99916988611221313 0.0047437478788197041
0.6013677716255188 0.99993926286697388 0.0026725470088422298
0.77442765235900879 0.99958431720733643 0.00068941304925829172
0.87910604476928711 0.99574613571166992 0
0.92299008369445801 0.97915476560592651 4.0645223634783179e-05
0.93388402462005615 0.94988572597503662 0.00032963472767733037
0.0012887693010270596 0.9885108470916748 0.0010379118612036109
4.487879323278321e-06 0.99034088850021362 0.0040391809307038784
0 0.98710852861404419 0.0038879993371665478
0 0.98534286022186279 0.0013819376472383738
0 0.98757481575012207 0.0001923355448525399
1.6335879990947433e-05 0.99003392457962036 1.6335879990947433e-05
0.02943756990134716 0.99036264419555664 0.00028607237618416548
0.20848634839057922 0.99193382263183594 0.0014222686877474189
0.45844471454620361 0.99718290567398071 0.0017529206816107035
0.66934263706207275 0.99995625019073486 0.00044729196815751493
0.82173603773117065 0.99999535083770752 0
0.89725184440612793 0.99967992305755615 3.5199933336116374e-05
0.91677910089492798 0.99628764390945435 8.8680491899140179e-05
0.0043293521739542484 0.0071370145305991173 0.036722384393215179
0.068728715181350708 0.008320782333612442 0.02979665994644165
0.18493570387363434 0.011632253415882587 0.018205724656581879
0.32484889030456543 0.0094150165095925331 0.024297811090946198
0.50031012296676636 0.011753232218325138 0.048257477581501007
0.69521111249923706 0.017343603074550629 0.083978675305843353
0.86358880996704102 0.02217540331184864 0.11527851969003677
0.96905434131622314 0.02788015641272068 0.13604655861854553
0.99933159351348877 0.03308398649096489 0.14361219108104706
0.99941015243530273 0.033548511564731598 0.13991802930831909
0.98388653993606567 0.030884178355336189 0.13369065523147583
0.97128355503082275 0.02995910681784153 0.13029232621192932
0.97171717882156372 0.030522499233484268 0.13028030097484589
0.001734370831400156 0.033119980245828629 0.040014229714870453
0.038217730820178986 0.03277607262134552 0.033138617873191833
0.13654966652393341 0.021632445976138115 0.023643972352147102
0.2582683265209198 0.013835517689585686 0.023170756176114082
0.41075220704078674 0.010422814637422562 0.033899854868650436
0.59547519683837891 0.011271083727478981 0.060402035713195801
0.77690863609313965 0.014136236160993576 0.09642530232667923
0.91499817371368408 0.023018302395939827 0.12572112679481506
0.98665046691894531 0.033402685075998306 0.13716195523738861
0.99565786123275757 0.037021622061729431 0.13564163446426392
0.97959238290786743 0.037390075623989105 0.13080668449401855
0.96985602378845215 0.036308035254478455 0.129411980509758
0.97124761343002319 0.033056281507015228 0.13077190518379211
0.00049513275735080242 0.10834544897079468 0.035879604518413544
0.015695802867412567 0.11002013087272644 0.028757147490978241
0.10235784202814102 0.094331733882427216 0.018643263727426529
0.21860995888710022 0.077740885317325592 0.018395651131868362
0.35222521424293518 0.054775014519691467 0.025853848084807396
0.51986527442932129 0.036114860326051712 0.043454743921756744
0.70338213443756104 0.023131322115659714 0.07840302586555481
0.86824709177017212 0.021193934604525566 0.11510723084211349
0.97145354747772217 0.028652220964431763 0.1325124055147171
0.99345260858535767 0.033163975924253464 0.1340935081243515
0.9818565845489502 0.038411233574151993 0.12986668944358826
0.97517728805541992 0.038612861186265945 0.12941177189350128
0.97746574878692627 0.033096104860305786 0.1302497535943985
4.1812072595348582e-05 0.18987405300140381 0.036319509148597717
0.0058591654524207115 0.20005242526531219 0.029468236491084099
0.068691417574882507 0.19049973785877228 0.021575987339019775
0.1814686506986618 0.17606344819068909 0.016113521531224251
0.31793925166130066 0.15427087247371674 0.013566185720264912
0.47793537378311157 0.12519888579845428 0.021763894706964493
0.65410494804382324 0.088762037456035614 0.053731191903352737
0.82770627737045288 0.050144657492637634 0.10060158371925354
0.95171076059341431 0.022754279896616936 0.13223837316036224
0.98863697052001953 0.021423937752842903 0.1369917243719101
0.98304939270019531 0.031855415552854538 0.13111740350723267
0.97985297441482544 0.033516634255647659 0.12950977683067322
0.98121756315231323 0.027608176693320274 0.13043925166130066
0.00027362597757019103 0.28305539488792419 0.037584118545055389
0.00065452727722004056 0.30141907930374146 0.027085158973932266
0.033475358039140701 0.29389914870262146 0.020391426980495453
0.12982811033725739 0.28143635392189026 0.012202318757772446
0.28152003884315491 0.26751312613487244 0.0048121432773768902
0.45363464951515198 0.24836498498916626 0.0042085237801074982
0.62603628635406494 0.2181176096200943 0.020998606458306313
0.79773730039596558 0.16220270097255707 0.064178347587585449
0.93370455503463745 0.08504919707775116 0.11112827807664871
0.9846498966217041 0.041281428188085556 0.13204135000705719
0.9847150444984436 0.025142833590507507 0.13488167524337769
0.98117583990097046 0.019866794347763062 0.13373486697673798
0.9815487265586853 0.016348281875252724 0.1334398090839386
0.0016353382961824536 0.40867573022842407 0.026221271604299545
0 0.43682527542114258 0.012698767706751823
0.0067948582582175732 0.42585065960884094 0.0081603853031992912
0.061137106269598007 0.41013830900192261 0.0052155889570713043
0.21731460094451904 0.39873221516609192 0.0031886680517345667
0.42381992936134338 0.38587206602096558 0.0013104308163747191
0.60886412858963013 0.36854338645935059 0.0013258840190246701
0.78061574697494507 0.3374004065990448 0.016967279836535454
0.9242013692855835 0.26935482025146484 0.055261004716157913
0.98670798540115356 0.17472697794437408 0.094260014593601227
0.99097365140914917 0.088820420205593109 0.11945521086454391
0.98498141765594482 0.033095970749855042 0.13244910538196564
0.98408377170562744 0.027879931032657623 0.13149909675121307
0.0029013690073043108 0.55535382032394409 0.010315584950149059
0 0.59112268686294556 0.0020684485789388418
0 0.58218920230865479 0.00060713523998856544
0.011392690241336823 0.56600666046142578 0.00030475691892206669
0.13457345962524414 0.55636435747146606 0.00063337438041344285
0.36579024791717529 0.54659813642501831 0.00027669270639307797
0.58032280206680298 0.5350499153137207 0
0.75392705202102661 0.51716727018356323 0.00083256140351295471
0.90666681528091431 0.47546637058258057 0.012637478299438953
0.9848896861076355 0.39646217226982117 0.036908302456140518
0.99628299474716187 0.27359086275100708 0.069761835038661957
0.99212980270385742 0.16022969782352448 0.098167553544044495
0.99041885137557983 0.14424479007720947 0.10167345404624939
0.0039385776035487652 0.70549613237380981 0.0013364455662667751
0.00012516694550868124 0.74101454019546509 1.8265667677042075e-05
0 0.7370486855506897 0
0.00046189251588657498 0.72377973794937134 0
0.061543483287096024 0.71531736850738525 0
0.27436810731887817 0.70500457286834717 0
0.52512127161026001 0.69380217790603638 0.00040398392593488097
0.71760261058807373 0.68271815776824951 0.00040833716047927737
0.87425500154495239 0.6563611626625061 0.00010482189827598631
0.96546298265457153 0.60117530822753906 0.0033031688071787357
0.98961198329925537 0.49714642763137817 0.01839662529528141
0.99362063407897949 0.37517616152763367 0.041394822299480438
0.9949755072593689 0.34699597954750061 0.047630563378334045
0.0038496728520840406 0.83544683456420898 0.00012835334928240627
0.00027163635240867734 0.86400371789932251 0
0 0.86314147710800171 0
0 0.85492908954620361 0
0.03538220003247261 0.84854030609130859 0
0.21014824509620667 0.83949238061904907 0
0.45652350783348083 0.82809615135192871 0.00014385148824658245
0.67411220073699951 0.82024204730987549 0.00023712457914371043
0.83627110719680786 0.80754971504211426 0
0.93418693542480469 0.7700728178024292 0
0.96834409236907959 0.69366168975830078 0.00045201918692328036
0.97803330421447754 0.58860021829605103 0.0070755155757069588
0.98292529582977295 0.53865259885787964 0.013799346052110195
0.003573054913431406 0.93071639537811279 0
0.00022095325402915478 0.94691002368927002 0
0 0.94553571939468384 0
0 0.94203239679336548 0
0.024751655757427216 0.93990117311477661 0
0.15841136872768402 0.93472176790237427 0
0.37548130750656128 0.92816245555877686 0
0.60678410530090332 0.92487448453903198 0
0.78979408740997314 0.91949373483657837 0
0.89986562728881836 0.8957783579826355 0
0.94500637054443359 0.84272640943527222 0
0.95770859718322754 0.76520305871963501 0.00025542016373947263
0.96193891763687134 0.71059221029281616 0.0043800803832709789
0.0042169308289885521 0.98084139823913574 0
0.0021590439137071371 0.98521417379379272 2.1272546291584149e-05
0.0003536299045663327 0.98089790344238281 2.9590082704089582e-05
1.8669577912078239e-05 0.97943311929702759 4.78707136153389e-07
0.0077735451050102711 0.98208779096603394 0
0.082272671163082123 0.98300337791442871 0
0.25113770365715027 0.98204135894775391 0
0.49203771352767944 0.98284620046615601 0
0.71301645040512085 0.98254352807998657 0
0.84962445497512817 0.97367709875106812 0
0.91487818956375122 0.94545102119445801 0
0.93739187717437744 0.89622044563293457 0.0009994057472795248
0.94330364465713501 0.85183519124984741 0.0058840285055339336
0.0058174734003841877 0.99104034900665283 2.3336972390097799e-06
0.0030819613020867109 0.98898255825042725 0.0024543313775211573
0.0017667284701019526 0.98380893468856812 0.0012610042467713356
0.00027770997257903218 0.98275673389434814 1.2551102372526657e-05
0 0.98779076337814331 0
0.0099257826805114746 0.9919394850730896 0
0.10858064889907837 0.99306702613830566 6.0287175074336119e-06
0.34445136785507202 0.99436676502227783 0.00028323003789409995
0.59912019968032837 0.99798744916915894 3.2985910365823656e-05
0.76804995536804199 0.99958431720733643 0
0.86994016170501709 0.99533504247665405 0
0.91651827096939087 0.98082685470581055 0.0013688629260286689
0.93138158321380615 0.95416474342346191 0.0045456979423761368
0.001628935569897294 0.98516851663589478 0
9.5143041107803583e-06 0.98239678144454956 0.00013463637151289731
0 0.97836613655090332 4.5447257434716448e-05
0 0.97798854112625122 0
0 0.98121356964111328 0
0 0.98431098461151123 0
0.024872319772839546 0.98516577482223511 0
0.20923984050750732 0.98675525188446045 5.0877588364528492e-05
0.45410856604576111 0.99287968873977661 2.8857062716269866e-05
0.65412795543670654 0.99944597482681274 0
0.80396318435668945 1 0
0.8903191089630127 0.99997001886367798 0.00029815972084179521
0.92250555753707886 0.99771511554718018 0.00027806899743154645
0.0075696907006204128 0.0094622448086738586 0.12049815058708191
0.05955728143453598 0.0093929963186383247 0.099822118878364563
0.17108280956745148 0.0060948841273784637 0.072861768305301666
0.31268855929374695 0.0071145449765026569 0.051870189607143402
0.48447930812835693 0.012414012104272842 0.047063551843166351
0.67814016342163086 0.016673937439918518 0.072612449526786804
0.84812599420547485 0.0218073520809412 0.11339696496725082
0.95948433876037598 0.028506170958280563 0.14101371169090271
0.99828219413757324 0.032646045088768005 0.14810790121555328
0.99944734573364258 0.03297855332493782 0.14261886477470398
0.98559051752090454 0.030713953077793121 0.13485413789749146
0.97308647632598877 0.029666228219866753 0.13081854581832886
0.97301709651947021 0.029632193967700005 0.13043737411499023
0.0045541650615632534 0.030109090730547905 0.12523205578327179
0.032413870096206665 0.030573707073926926 0.1091000884771347
0.12832434475421906 0.018049770966172218 0.088743485510349274
0.25164046883583069 0.015716118738055229 0.060919757932424545
0.39968714118003845 0.015055532567203045 0.043458826839923859
0.58303970098495483 0.012752397917211056 0.055511429905891418
0.76474583148956299 0.015336982905864716 0.093331187963485718
0.90513259172439575 0.023114895448088646 0.12752130627632141
0.98137432336807251 0.031502548605203629 0.1394280344247818
0.99549305438995361 0.035095695406198502 0.13752362132072449
0.98205256462097168 0.035751476883888245 0.13227997720241547
0.9728691577911377 0.034068163484334946 0.1298547238111496
0.97402894496917725 0.031486183404922485 0.13289846479892731
0.0015518038999289274 0.1028885617852211 0.12013796716928482
0.011532772332429886 0.10817527025938034 0.10509390383958817
0.093710757791996002 0.09287300705909729 0.09243137389421463
0.21346946060657501 0.076944164931774139 0.073526017367839813
0.34679535031318665 0.058312211185693741 0.054551158100366592
0.51288092136383057 0.03918125107884407 0.049521218985319138
0.69350498914718628 0.024932486936450005 0.076602712273597717
0.85581481456756592 0.018758198246359825 0.11438675224781036
0.96306180953979492 0.025573879480361938 0.13102792203426361
0.99180388450622559 0.031049376353621483 0.13363757729530334
0.98426109552383423 0.035461664199829102 0.13107007741928101
0.97869056463241577 0.03464241698384285 0.12993642687797546
0.98120319843292236 0.029826220124959946 0.13313610851764679
0.00019914215954486281 0.18584756553173065 0.11759761720895767
0.0025786454789340496 0.19771023094654083 0.10320567339658737
0.059070046991109848 0.1874864399433136 0.092515371739864349
0.17760245501995087 0.17451024055480957 0.07888484001159668
0.31534647941589355 0.15569311380386353 0.055224727839231491
0.47496387362480164 0.1277332603931427 0.039821356534957886
0.64844012260437012 0.092220231890678406 0.055931765586137772
0.81852918863296509 0.050241298973560333 0.098127447068691254
0.94526022672653198 0.025275615975260735 0.12855885922908783
0.98653841018676758 0.023149797692894936 0.13480788469314575
0.98454803228378296 0.026725724339485168 0.13273905217647552
0.98090475797653198 0.028054883703589439 0.13105125725269318
0.98402661085128784 0.024098804220557213 0.13323463499546051
0 0.27952113747596741 0.1168871745467186
6.8948786065448076e-05 0.29912254214286804 0.10013626515865326
0.024170130491256714 0.29207682609558105 0.090270757675170898
0.12003954499959946 0.28130245208740234 0.079269275069236755
0.27993494272232056 0.26904961466789246 0.057635392993688583
0.45418009161949158 0.25021317601203918 0.038552902638912201
0.62511211633682251 0.22298029065132141 0.029712647199630737
0.79691857099533081 0.16510955989360809 0.057906311005353928
0.93333762884140015 0.091645903885364532 0.10849104076623917
0.98337388038635254 0.043452784419059753 0.1313469260931015
0.98488563299179077 0.01972491666674614 0.13672821223735809
0.98131316900253296 0.014477135613560677 0.1353544294834137
0.98242580890655518 0.0137520432472229 0.13484977185726166
1.7891677998704836e-05 0.40575665235519409 0.1046467050909996
0 0.43817421793937683 0.083933554589748383
0.0025229658931493759 0.42964816093444824 0.073757529258728027
0.048006348311901093 0.4130001962184906 0.067439675331115723
0.20940281450748444 0.40172493457794189 0.055632185190916061
0.42115989327430725 0.39075097441673279 0.037953335791826248
0.607746422290802 0.37679776549339294 0.014315720647573471
0.77922600507736206 0.34088149666786194 0.01299101859331131
0.9247661828994751 0.27241295576095581 0.052579361945390701
0.987690269947052 0.17672336101531982 0.094428025186061859
