assets/lut/abigailgonzalez science fiction.cube
# Created by: G'MIC (https://gmic.eu)
TITLE "science_fiction"
# LUT size
LUT_3D_SIZE 7
# Data domain
DOMAIN_MIN 0.0 0.0 0.0
DOMAIN_MAX 1.0 1.0 1.0
# LUT data points
0.020390350371599197 0.02211393415927887 0.039695501327514648
0.13680762052536011 0.041742540895938873 0.041930194944143295
0.28228676319122314 0.064317561686038971 0.040200222283601761
0.45483925938606262 0.086039520800113678 0.091200478374958038
0.63152575492858887 0.10882933437824249 0.11891321092844009
0.80837935209274292 0.14568470418453217 0.16103188693523407
0.95476871728897095 0.19012570381164551 0.1937021017074585
0.0067947385832667351 0.10231176763772964 0.050088021904230118
0.10776800662279129 0.12037860602140427 0.051532506942749023
0.29941052198410034 0.14704762399196625 0.040304042398929596
0.50402843952178955 0.17794905602931976 0.053582418709993362
0.71574884653091431 0.20561982691287994 0.078244045376777649
0.88001543283462524 0.24932047724723816 0.12300020456314087
0.97849804162979126 0.31128802895545959 0.17544831335544586
0.00077329151099547744 0.20398256182670593 0.068344101309776306
0.055050898343324661 0.21975372731685638 0.062718331813812256
0.25776940584182739 0.25601890683174133 0.071258589625358582
0.49217939376831055 0.28813034296035767 0.060791149735450745
0.73940229415893555 0.32351204752922058 0.040123328566551208
0.91539591550827026 0.36505359411239624 0.065256811678409576
0.98789101839065552 0.42739522457122803 0.119070865213871
0.0006691876333206892 0.33519604802131653 0.097004622220993042
0.015254241414368153 0.352215975522995 0.080812655389308929
0.19764891266822815 0.39101687073707581 0.082939267158508301
0.47502058744430542 0.43466991186141968 0.086806982755661011
0.71617496013641357 0.45966514945030212 0.056563209742307663
0.91783690452575684 0.50744473934173584 0.046820711344480515
0.99578249454498291 0.56714189052581787 0.097656726837158203
0.0028533786535263062 0.49429985880851746 0.11828445643186569
0.0013744877651333809 0.51239192485809326 0.10067529231309891
0.12278749048709869 0.54714936017990112 0.090153604745864868
0.43933501839637756 0.59740298986434937 0.095493674278259277
0.71325939893722534 0.62802058458328247 0.097696997225284576
0.91303741931915283 0.65104150772094727 0.09218037873506546
0.99731200933456421 0.70031481981277466 0.1223871260881424
0.0058969832025468349 0.6395915150642395 0.14295461773872375
0 0.6574522852897644 0.12458121776580811
0.067925050854682922 0.68716096878051758 0.10876859724521637
0.41005158424377441 0.73412472009658813 0.11173029989004135
0.7270391583442688 0.77409523725509644 0.14443382620811462
0.91236835718154907 0.78750216960906982 0.15004247426986694
0.99808835983276367 0.81059789657592773 0.16016985476016998
0.0064608254469931126 0.7468104362487793 0.17456547915935516
0 0.7623404860496521 0.14564378559589386
0.067703157663345337 0.78278732299804688 0.12621791660785675
0.37364569306373596 0.81877404451370239 0.13534703850746155
0.70203781127929688 0.853515625 0.17041836678981781
0.90484833717346191 0.87073731422424316 0.18444223701953888
0.99778324365615845 0.89046335220336914 0.18956349790096283
0.012744514271616936 0.032448023557662964 0.2047404944896698
0.12834310531616211 0.034408107399940491 0.21904599666595459
0.32093176245689392 0.035773962736129761 0.20564165711402893
0.47552770376205444 0.055066172033548355 0.17928028106689453
0.63699221611022949 0.079015679657459259 0.19412259757518768
0.80602365732192993 0.11378547549247742 0.22377344965934753
0.93779391050338745 0.16185536980628967 0.25897300243377686
0.0021050996147096157 0.13657884299755096 0.2104334682226181
0.072955846786499023 0.13785316050052643 0.20583359897136688
0.30003580451011658 0.15243391692638397 0.19304998219013214
0.50627332925796509 0.18396961688995361 0.19376437366008759
0.73003602027893066 0.21735155582427979 0.20638512074947357
0.88486987352371216 0.26137807965278625 0.24951943755149841
0.96784335374832153 0.32739585638046265 0.30675899982452393
0.0056074252352118492 0.2525932788848877 0.22184717655181885
0.032110549509525299 0.25510114431381226 0.21375755965709686
0.22510610520839691 0.27409470081329346 0.21436446905136108
0.50099623203277588 0.31176811456680298 0.20740409195423126
0.78342741727828979 0.35088256001472473 0.19398526847362518
0.94088476896286011 0.39224204421043396 0.21897013485431671
0.98951965570449829 0.46686092019081116 0.30085349082946777
0.010528878308832645 0.38683006167411804 0.24164722859859467
0.0068219355307519436 0.38986340165138245 0.22754882276058197
0.13689804077148438 0.40042689442634583 0.22841933369636536
0.42915448546409607 0.44251424074172974 0.23864369094371796
0.72897434234619141 0.48471102118492126 0.2144312709569931
0.94673687219619751 0.53705698251724243 0.19125427305698395
0.99687814712524414 0.59255790710449219 0.26234981417655945
0.022715535014867783 0.53473234176635742 0.25627285242080688
0.00076961144804954529 0.54547983407974243 0.23895180225372314
0.072445996105670929 0.56091618537902832 0.23019444942474365
0.37209656834602356 0.60373592376708984 0.24232420325279236
0.69576495885848999 0.64606606960296631 0.25317227840423584
0.92155486345291138 0.67327779531478882 0.23438411951065063
0.99926471710205078 0.7218509316444397 0.2657981812953949
0.027336703613400459 0.66632181406021118 0.26379001140594482
0.00060928944731131196 0.68179857730865479 0.24484269320964813
0.036088638007640839 0.70176857709884644 0.23386065661907196
0.34368067979812622 0.74456548690795898 0.24997542798519135
0.7113158106803894 0.78815501928329468 0.27989310026168823
0.91402292251586914 0.80313968658447266 0.28192365169525146
0.99773621559143066 0.82657968997955322 0.29303151369094849
0.013007369823753834 0.76321732997894287 0.26903781294822693
0 0.77635592222213745 0.24558281898498535
0.069463275372982025 0.79299134016036987 0.2327904999256134
0.36804702877998352 0.82335013151168823 0.24515536427497864
0.70266079902648926 0.8566972017288208 0.27658310532569885
0.90223926305770874 0.88066381216049194 0.29853612184524536
0.99535328149795532 0.89885115623474121 0.31145340204238892
0.0006468829233199358 0.038146510720252991 0.36395198106765747
0.057251408696174622 0.039760664105415344 0.37309384346008301
0.26191437244415283 0.033904325217008591 0.40331152081489563
0.49427857995033264 0.035345442593097687 0.38459214568138123
0.67796796560287476 0.045796815305948257 0.35639491677284241
0.83022475242614746 0.072982236742973328 0.33346953988075256
0.93638259172439575 0.1179131418466568 0.33975839614868164
0.0065601575188338757 0.15529130399227142 0.37591078877449036
0.025310724973678589 0.15370890498161316 0.38272860646247864
0.2105286568403244 0.14801067113876343 0.39128634333610535
0.48355680704116821 0.15652023255825043 0.37218141555786133
0.69874781370162964 0.18320684134960175 0.34042501449584961
0.87131571769714355 0.22658200562000275 0.33411595225334167
0.95458102226257324 0.29677382111549377 0.38424569368362427
0.0095934104174375534 0.29207530617713928 0.39439606666564941
0.0017082064878195524 0.29428204894065857 0.39343136548995972
0.12514463067054749 0.29083701968193054 0.39205214381217957
0.46623420715332031 0.31615370512008667 0.38102617859840393
0.7151142954826355 0.35215598344802856 0.36369213461875916
0.90417492389678955 0.40651765465736389 0.38574984669685364
0.97501718997955322 0.48546835780143738 0.45657157897949219
0.015260703861713409 0.43621760606765747 0.40831288695335388
0.014184076339006424 0.44938516616821289 0.39895784854888916
0.07090352475643158 0.44232586026191711 0.39529561996459961
0.37440395355224609 0.46329447627067566 0.39915120601654053
0.70814692974090576 0.51365798711776733 0.39354860782623291
0.94834083318710327 0.56263840198516846 0.37827587127685547
0.98979192972183228 0.62857872247695923 0.46581682562828064
0.018845666199922562 0.57816839218139648 0.41382488608360291
0.0016567903803661466 0.59560078382492065 0.40065222978591919
0.011501835659146309 0.59707319736480713 0.38939660787582397
0.26171809434890747 0.6167219877243042 0.39783990383148193
0.64645093679428101 0.66502434015274048 0.42513146996498108
0.91716462373733521 0.7044680118560791 0.40891760587692261
0.99763363599777222 0.7483142614364624 0.45156893134117126
0.015876006335020065 0.69677829742431641 0.40397480130195618
0 0.71293056011199951 0.38860431313514709
0.0025299969129264355 0.72329992055892944 0.37873339653015137
0.24524658918380737 0.75352698564529419 0.40109062194824219
0.6603693962097168 0.79779899120330811 0.4437810480594635
0.89877140522003174 0.82054489850997925 0.44716542959213257
0.99870693683624268 0.84306085109710693 0.46570631861686707
0.008475838229060173 0.78268134593963623 0.38648122549057007
0 0.7950560450553894 0.370301753282547
0.036157466471195221 0.80363887548446655 0.35660466551780701
0.32262042164802551 0.83013522624969482 0.37773534655570984
0.68241077661514282 0.86786454916000366 0.4175337553024292
0.90032684803009033 0.89678573608398438 0.45087763667106628
0.99810761213302612 0.91583031415939331 0.47366291284561157
0.0013059878256171942 0.041093833744525909 0.49810260534286499
0.028020238503813744 0.045322522521018982 0.54029923677444458
0.16222947835922241 0.040653783828020096 0.55643069744110107
0.40921288728713989 0.035438299179077148 0.57177650928497314
0.66086256504058838 0.035769563168287277 0.56963270902633667
0.85682922601699829 0.053060360252857208 0.54319745302200317
0.96194601058959961 0.091923810541629791 0.51935911178588867
0.0034481273032724857 0.16112232208251953 0.53965777158737183
0.0023951660841703415 0.16216249763965607 0.55017435550689697
0.11146014183759689 0.15521599352359772 0.56141024827957153
0.39890697598457336 0.152544304728508 0.5794488787651062
0.66628032922744751 0.16279515624046326 0.56919270753860474
0.87507468461990356 0.19207669794559479 0.52718997001647949
0.96670818328857422 0.24738319218158722 0.51327776908874512
0.0033614514395594597 0.31043210625648499 0.56093883514404297
0.00048047234304249287 0.3177134096622467 0.56482577323913574
0.058258384466171265 0.31124088168144226 0.57443612813949585
0.34568455815315247 0.31086748838424683 0.58742445707321167
0.66279417276382446 0.32773756980895996 0.56731855869293213
0.88753145933151245 0.35167452692985535 0.51363915205001831
0.97094440460205078 0.42078283429145813 0.53141123056411743
0.0046233083121478558 0.46220698952674866 0.57803118228912354
0.025821251794695854 0.48578041791915894 0.58041214942932129
0.036849077790975571 0.48425763845443726 0.58456993103027344
0.23239313066005707 0.48430627584457397 0.58662635087966919
0.67043226957321167 0.51362460851669312 0.57416319847106934
0.9071810245513916 0.55810791254043579 0.55715227127075195
0.97680860757827759 0.64090782403945923 0.62098616361618042
0.0090883141383528709 0.6178964376449585 0.58610290288925171
0.015173264779150486 0.64727210998535156 0.58518558740615845
0.0020681943278759718 0.65003335475921631 0.57910645008087158
0.11529541015625 0.65172600746154785 0.58148419857025146
0.58145689964294434 0.69215792417526245 0.59888488054275513
0.90431219339370728 0.73854655027389526 0.5955805778503418
0.99426448345184326 0.79167240858078003 0.65883380174636841
0.0059828665107488632 0.74124926328659058 0.57910341024398804
1.3463637515087612e-05 0.76031714677810669 0.57124215364456177
0 0.76475995779037476 0.56091606616973877
0.093049652874469757 0.77773302793502808 0.56666022539138794
0.54976904392242432 0.81062108278274536 0.60674369335174561
0.86900252103805542 0.84289854764938354 0.62259036302566528
0.99802666902542114 0.87204784154891968 0.6503099799156189
0.0012115777935832739 0.82617831230163574 0.56269705295562744
0 0.83356726169586182 0.54668766260147095
0.0086301015689969063 0.83369511365890503 0.52742129564285278
0.20453475415706635 0.84767693281173706 0.53185397386550903
0.61912238597869873 0.87725222110748291 0.55945676565170288
0.87340837717056274 0.91112756729125977 0.59878873825073242
0.99447321891784668 0.93429780006408691 0.64299595355987549
0.010542955249547958 0.036004189401865005 0.62342715263366699
0.036216378211975098 0.039413962513208389 0.68898165225982666
0.11293547600507736 0.032392136752605438 0.68692350387573242
0.33278504014015198 0.033354919403791428 0.70039981603622437
0.58973807096481323 0.036818694323301315 0.71501517295837402
0.82736194133758545 0.046202536672353745 0.7226945161819458
0.96498477458953857 0.072242617607116699 0.70899176597595215
0.0042721466161310673 0.15232618153095245 0.69012743234634399
0.010708947665989399 0.1506023108959198 0.69910520315170288
0.046826321631669998 0.13876163959503174 0.70039039850234985
0.28715819120407104 0.13810542225837708 0.72293448448181152
0.60107940435409546 0.14031022787094116 0.73360812664031982
0.84861284494400024 0.17476242780685425 0.73477208614349365
0.97701239585876465 0.21787962317466736 0.7170720100402832
0.0042858049273490906 0.31571972370147705 0.70821201801300049
0.017432268708944321 0.32422614097595215 0.71080762147903442
0.033811278641223907 0.31447607278823853 0.71521294116973877
0.23854354023933411 0.30421924591064453 0.7384914755821228
0.59389442205429077 0.31573763489723206 0.75417673587799072
0.86053520441055298 0.3464752733707428 0.74696940183639526
0.98180913925170898 0.39191398024559021 0.72141796350479126
0.005392157007008791 0.47139304876327515 0.72012007236480713
0.026135209947824478 0.49141219258308411 0.72711783647537231
0.019873734563589096 0.4920879602432251 0.73547035455703735
0.10989697277545929 0.48516485095024109 0.75349527597427368
0.53970628976821899 0.5063406229019165 0.76710087060928345
0.86602956056594849 0.52873259782791138 0.74837148189544678
0.97760355472564697 0.58037847280502319 0.72919178009033203
0.0046043545007705688 0.63747483491897583 0.73446363210678101
0.020352248102426529 0.66716951131820679 0.74210834503173828
0.015140713192522526 0.67735958099365234 0.74760067462921143
0.027332546189427376 0.67997217178344727 0.75293803215026855
0.43381041288375854 0.70442873239517212 0.76479226350784302
0.86460775136947632 0.73219168186187744 0.75577270984649658
0.98229527473449707 0.77667438983917236 0.78251415491104126
0.0040442375466227531 0.77391326427459717 0.74095946550369263
0.016524087637662888 0.79315698146820068 0.74249398708343506
0.038214545696973801 0.80370056629180908 0.74559479951858521
0.020580470561981201 0.81401532888412476 0.74225586652755737
0.38155123591423035 0.83469748497009277 0.76155334711074829
0.82969492673873901 0.86281669139862061 0.78116327524185181
0.99099785089492798 0.89885914325714111 0.80699717998504639
0.00089970009867101908 0.86434715986251831 0.73902523517608643
0.0073959501460194588 0.86921614408493042 0.7308957576751709
0.016184309497475624 0.87371504306793213 0.72297507524490356
0.068634495139122009 0.88022798299789429 0.7142341136932373
0.40139895677566528 0.89212816953659058 0.71477657556533813
0.83272868394851685 0.92315071821212769 0.74909782409667969
0.98943722248077393 0.95480650663375854 0.8043634295463562
0.019861618056893349 0.028698835521936417 0.76873135566711426
0.06556122750043869 0.044800236821174622 0.79710239171981812
0.14551262557506561 0.042356096208095551 0.79402178525924683
0.30417576432228088 0.043241433799266815 0.79882240295410156
0.53655153512954712 0.04564361646771431 0.8075518012046814
0.78381061553955078 0.04718901589512825 0.81610381603240967
0.94682598114013672 0.061867523938417435 0.82349121570587158
0.0067792856134474277 0.14287954568862915 0.81046521663665771
0.024500289931893349 0.14756350219249725 0.80957138538360596
0.06632397323846817 0.14064222574234009 0.80572617053985596
0.25979799032211304 0.13780426979064941 0.81677758693695068
0.55365145206451416 0.14332415163516998 0.82107210159301758
0.80586230754852295 0.16333158314228058 0.82068526744842529
0.961203932762146 0.19759063422679901 0.83027362823486328
0.0059653935022652149 0.30522018671035767 0.80550062656402588
0.02034810371696949 0.3102867603302002 0.80857175588607788
0.032616365700960159 0.30140110850334167 0.81165462732315063
0.18325391411781311 0.28480374813079834 0.82697504758834839
0.52216392755508423 0.29580393433570862 0.83808332681655884
0.80078935623168945 0.32537150382995605 0.83778661489486694
0.96604722738265991 0.37151956558227539 0.84076440334320068
0.0049778358079493046 0.45829927921295166 0.81443566083908081
0.025549974292516708 0.47165271639823914 0.81820869445800781
0.023015189915895462 0.47139453887939453 0.82500290870666504
0.072111286222934723 0.45933547616004944 0.83451873064041138
0.44788038730621338 0.46837657690048218 0.85673457384109497
0.80715489387512207 0.50173622369766235 0.85649293661117554
0.96485376358032227 0.54544419050216675 0.85117435455322266
0.0028917500749230385 0.62301361560821533 0.82692974805831909
0.018786247819662094 0.63859754800796509 0.82994914054870605
0.034805208444595337 0.66036564111709595 0.83921974897384644
0.045614518225193024 0.65815848112106323 0.845569908618927
0.35872817039489746 0.67356210947036743 0.86435461044311523
0.81293237209320068 0.70749127864837646 0.87116003036499023
0.97147864103317261 0.73559486865997314 0.87609362602233887
0.0023607441689819098 0.76785397529602051 0.83108830451965332
0.018973706290125847 0.78047788143157959 0.83614742755889893
0.045551884919404984 0.80129498243331909 0.84694409370422363
0.038492284715175629 0.82162338495254517 0.85381853580474854
0.35874584317207336 0.84227043390274048 0.87092751264572144
0.83614552021026611 0.8695533275604248 0.88108152151107788
0.9829641580581665 0.89554142951965332 0.89922219514846802
0.0019188675796613097 0.86507749557495117 0.83996880054473877
0.021087093278765678 0.87402021884918213 0.84814780950546265
0.034669794142246246 0.88881021738052368 0.85779428482055664
0.04344278946518898 0.9034886360168457 0.86543571949005127
0.37970846891403198 0.92074108123779297 0.87093818187713623
0.8647383451461792 0.9481271505355835 0.89234238862991333
0.99381965398788452 0.98213499784469604 0.93508398532867432
0.013014954514801502 0.027855204418301582 0.85990285873413086
0.057465899735689163 0.03761272132396698 0.87874329090118408
0.13113752007484436 0.045080564916133881 0.88028734922409058
0.24510559439659119 0.048826329410076141 0.88102030754089355
0.47777208685874939 0.048922788351774216 0.88416880369186401
0.74484425783157349 0.046614374965429306 0.88693678379058838
0.92240822315216064 0.057572219520807266 0.89654302597045898
0.00095430260989814997 0.15040764212608337 0.87867814302444458
0.017928343266248703 0.14573684334754944 0.88690030574798584
0.069245658814907074 0.14402744174003601 0.88907378911972046
0.20572240650653839 0.13628152012825012 0.89279800653457642
0.47909373044967651 0.13796018064022064 0.89258462190628052
0.75151169300079346 0.14794626832008362 0.88354748487472534
0.93103277683258057 0.17753337323665619 0.89366847276687622
0.0019112082663923502 0.30752971768379211 0.87507230043411255
0.014341376721858978 0.30428203940391541 0.88203179836273193
0.030636431649327278 0.29099279642105103 0.89030200242996216
0.12587487697601318 0.27292677760124207 0.89981198310852051
0.45257431268692017 0.27569931745529175 0.90915566682815552
0.75939154624938965 0.29085597395896912 0.89502406120300293
0.93958789110183716 0.33396783471107483 0.8997003436088562
0.003068587277084589 0.45955881476402283 0.88831812143325806
0.02290668897330761 0.46622434258460999 0.89107489585876465
0.029146650806069374 0.45478257536888123 0.89879697561264038
0.020247125998139381 0.43885523080825806 0.90225315093994141
0.33076745271682739 0.43887543678283691 0.92239564657211304
0.76697629690170288 0.47112357616424561 0.91775298118591309
0.95246368646621704 0.51671493053436279 0.91869151592254639
0.0034472297411412001 0.61227881908416748 0.89856475591659546
0.020531881600618362 0.62762820720672607 0.90013200044631958
0.028657082468271255 0.64056819677352905 0.90708184242248535
0.002357677323743701 0.63353270292282104 0.91039788722991943
0.26088172197341919 0.64498275518417358 0.92986512184143066
0.77911925315856934 0.68141984939575195 0.93945598602294922
0.96236467361450195 0.71635305881500244 0.9449465274810791
0.0039769788272678852 0.74917900562286377 0.88993710279464722
0.020495247095823288 0.76766419410705566 0.895771324634552
0.040909815579652786 0.78720337152481079 0.90917003154754639
0.0094950804486870766 0.80795454978942871 0.92202103137969971
0.21926151216030121 0.837493896484375 0.94677853584289551
0.813789963722229 0.8614385724067688 0.95650798082351685
0.98629260063171387 0.88455992937088013 0.97416400909423828
0.0036148668732494116 0.85442692041397095 0.900032639503479
0.025271022692322731 0.8685879111289978 0.91066229343414307
0.042633190751075745 0.88095629215240479 0.92459094524383545
0.045368988066911697 0.90097141265869141 0.93942487239837646
0.25694113969802856 0.92446643114089966 0.95031309127807617
0.78522217273712158 0.94772624969482422 0.96496891975402832
0.99148786067962646 0.98666512966156006 0.99420863389968872
