assets/lut/alexjordan blue shadows 01.cube
# Created by: G'MIC (https://gmic.eu)
TITLE "blue_shadows_01"
# LUT size
LUT_3D_SIZE 7
# Data domain
DOMAIN_MIN 0.0 0.0 0.0
DOMAIN_MAX 1.0 1.0 1.0
# LUT data points
0.0037184921093285084 0.015538608655333519 0.087323971092700958
0.040824860334396362 0.080187283456325531 0.16307650506496429
0.23698461055755615 0.13352259993553162 0.19994373619556427
0.60503202676773071 0.10786547511816025 0.17897786200046539
0.89525669813156128 0.10511300712823868 0.16975052654743195
0.99100875854492188 0.11285044252872467 0.17648255825042725
1 0.12894561886787415 0.19725292921066284
0.13753931224346161 0.2551981508731842 0.24704429507255554
0.26968777179718018 0.30282649397850037 0.14334850013256073
0.48188111186027527 0.30648180842399597 0.095527023077011108
0.65185546875 0.31282678246498108 0.09310806542634964
0.80325382947921753 0.32429152727127075 0.10682289302349091
0.94296818971633911 0.32554137706756592 0.11081554740667343
0.99943041801452637 0.33228328824043274 0.1213366761803627
0.040260329842567444 0.52121144533157349 0.14217187464237213
0.2972777783870697 0.49625572562217712 0.096815519034862518
0.49384030699729919 0.49047401547431946 0.091985516250133514
0.65051990747451782 0.49142518639564514 0.10157443583011627
0.79509192705154419 0.49263167381286621 0.10752566158771515
0.92438483238220215 0.49560743570327759 0.10827253758907318
0.99923944473266602 0.49984586238861084 0.10813421756029129
0.059497173875570297 0.68119782209396362 0.13765725493431091
0.30516687035560608 0.64547187089920044 0.10805276781320572
0.50347447395324707 0.63661772012710571 0.098464220762252808
0.65819758176803589 0.63235467672348022 0.094771005213260651
0.79840505123138428 0.63049882650375366 0.11199259757995605
0.92105180025100708 0.63259279727935791 0.1223568469285965
0.99882388114929199 0.63343155384063721 0.099746063351631165
0.088049627840518951 0.81863969564437866 0.15399675071239471
0.32160332798957825 0.78625303506851196 0.1132766455411911
0.51217836141586304 0.77312761545181274 0.10421836376190186
0.66525107622146606 0.76669245958328247 0.1029779314994812
0.80730640888214111 0.76316577196121216 0.1104271411895752
0.93031668663024902 0.76307040452957153 0.11484395712614059
0.99624043703079224 0.76034694910049438 0.14275556802749634
0.096107035875320435 0.9397854208946228 0.16744500398635864
0.33326146006584167 0.90766900777816772 0.12167732417583466
0.52379113435745239 0.89383101463317871 0.11008740961551666
0.67615926265716553 0.88584768772125244 0.1047041043639183
0.81655728816986084 0.88068801164627075 0.11135447025299072
0.93803828954696655 0.87768679857254028 0.12262380123138428
0.99830925464630127 0.87678682804107666 0.13053575158119202
0.14878366887569427 0.99882906675338745 0.17210292816162109
0.34051975607872009 0.99744498729705811 0.12728507816791534
0.53380370140075684 0.99257522821426392 0.11709059029817581
0.6870008111000061 0.98028171062469482 0.16029077768325806
0.82844758033752441 0.98739445209503174 0.14117741584777832
0.94585335254669189 0.98146224021911621 0.17389462888240814
0.9988284707069397 0.98205322027206421 0.17265833914279938
0.011292999610304832 0.032773111015558243 0.11517427861690521
0.081382721662521362 0.11065483838319778 0.20660258829593658
0.35547554492950439 0.11948888748884201 0.32444551587104797
0.68956947326660156 0.087114103138446808 0.39406624436378479
0.88353055715560913 0.10046809911727905 0.41524410247802734
0.98621261119842529 0.1185758113861084 0.41716653108596802
0.99985009431838989 0.13857689499855042 0.43462333083152771
0.11620233207941055 0.28342908620834351 0.32481113076210022
0.27690640091896057 0.29805445671081543 0.33644235134124756
0.48580619692802429 0.30245766043663025 0.3367268443107605
0.64642429351806641 0.30469602346420288 0.34398767352104187
0.78628242015838623 0.31625765562057495 0.34715136885643005
0.92059469223022461 0.32163330912590027 0.36051926016807556
0.99320822954177856 0.34415167570114136 0.37386101484298706
0.046417638659477234 0.51460760831832886 0.37208345532417297
0.2929532527923584 0.48986569046974182 0.34805995225906372
0.48696193099021912 0.48408854007720947 0.33803609013557434
0.64054697751998901 0.48298409581184387 0.33809900283813477
0.77811199426651001 0.48601055145263672 0.34130588173866272
0.89866137504577637 0.49161636829376221 0.35467961430549622
0.99456250667572021 0.49886664748191833 0.34630784392356873
0.067795485258102417 0.6689261794090271 0.38177460432052612
0.30732467770576477 0.63805806636810303 0.35100433230400085
0.49763068556785583 0.63136351108551025 0.33665180206298828
0.65021121501922607 0.62647545337677002 0.34151613712310791
0.78704279661178589 0.62277430295944214 0.35053744912147522
0.90355521440505981 0.62640035152435303 0.35268610715866089
0.99284350872039795 0.62802904844284058 0.34946036338806152
0.068865865468978882 0.81468778848648071 0.3921770453453064
0.32219457626342773 0.77320295572280884 0.35103216767311096
0.50733870267868042 0.76229649782180786 0.34236595034599304
0.6600911021232605 0.75379824638366699 0.3401203453540802
0.79553776979446411 0.75121915340423584 0.3582121729850769
0.91405725479125977 0.75314664840698242 0.35520511865615845
0.99566441774368286 0.75321972370147705 0.35413208603858948
0.070416681468486786 0.93470662832260132 0.40570271015167236
0.32559815049171448 0.89970892667770386 0.35872948169708252
0.51656925678253174 0.88460659980773926 0.34560909867286682
0.67063742876052856 0.8740350604057312 0.34986093640327454
0.80875372886657715 0.86680370569229126 0.36615338921546936
0.92496085166931152 0.86766207218170166 0.38151589035987854
0.9971049427986145 0.86541050672531128 0.37775659561157227
0.10354343801736832 0.99660903215408325 0.42644241452217102
0.34049481153488159 0.99252855777740479 0.36552101373672485
0.52792453765869141 0.98836886882781982 0.35703390836715698
0.68360966444015503 0.9862789511680603 0.36719024181365967
0.82060974836349487 0.97652488946914673 0.37766650319099426
0.9366188645362854 0.96979802846908569 0.39809730648994446
0.99846971035003662 0.97344315052032471 0.41695895791053772
0.02722218818962574 0.060843359678983688 0.14638645946979523
0.13445332646369934 0.12826567888259888 0.27509015798568726
0.44608673453330994 0.1073269248008728 0.46048498153686523
0.72998595237731934 0.094014428555965424 0.54982566833496094
0.8736720085144043 0.11369887739419937 0.55280673503875732
0.9756966233253479 0.14793646335601807 0.55321753025054932
0.99717384576797485 0.14962761104106903 0.56713014841079712
0.09315808117389679 0.3078426718711853 0.41873756051063538
0.28074932098388672 0.30395561456680298 0.46998608112335205
0.48718258738517761 0.31103211641311646 0.48296234011650085
0.64204305410385132 0.312214195728302 0.48422735929489136
0.77490615844726562 0.32532700896263123 0.48787972331047058
0.90658813714981079 0.32789754867553711 0.49473127722740173
0.97902345657348633 0.3504643440246582 0.50169122219085693
0.04616343230009079 0.52037537097930908 0.51294463872909546
0.28706982731819153 0.49262046813964844 0.48731085658073425
0.48714587092399597 0.4853818416595459 0.48008796572685242
0.64191138744354248 0.48736417293548584 0.48129704594612122
0.77121460437774658 0.49143445491790771 0.4849092960357666
0.89109647274017334 0.49586701393127441 0.49006491899490356
0.99391072988510132 0.50340968370437622 0.49445465207099915
0.062245342880487442 0.67280364036560059 0.52664268016815186
0.30329656600952148 0.63911169767379761 0.49547260999679565
0.49494653940200806 0.62982833385467529 0.48350757360458374
0.65038073062896729 0.62482380867004395 0.48446789383888245
0.78256338834762573 0.62470811605453491 0.48787772655487061
0.89763563871383667 0.62901049852371216 0.4945138692855835
0.99397319555282593 0.62927711009979248 0.49017539620399475
0.066678471863269806 0.8138115406036377 0.53688681125640869
0.31688997149467468 0.77458220720291138 0.50123852491378784
0.50889813899993896 0.76163876056671143 0.4910244345664978
0.65973764657974243 0.75329786539077759 0.48534616827964783
0.79357439279556274 0.74954015016555786 0.49866405129432678
0.90784072875976562 0.7524300217628479 0.50483506917953491
0.99444633722305298 0.75362741947174072 0.49521425366401672
0.075109951198101044 0.93223303556442261 0.54648470878601074
0.32636591792106628 0.90176856517791748 0.50446009635925293
0.51319187879562378 0.88536745309829712 0.49054133892059326
0.67054241895675659 0.87079262733459473 0.49605217576026917
0.80781567096710205 0.86609876155853271 0.50466656684875488
0.92064589262008667 0.86512374877929688 0.5243726372718811
0.99605470895767212 0.86529421806335449 0.50824785232543945
0.12040919810533524 0.99881100654602051 0.56200826168060303
0.34698420763015747 0.99731385707855225 0.5093991756439209
0.52806812524795532 0.98989725112915039 0.50364381074905396
0.68572694063186646 0.97801297903060913 0.51128792762756348
0.82508420944213867 0.97365361452102661 0.52643406391143799
0.93920803070068359 0.96942448616027832 0.54425603151321411
0.99769914150238037 0.97347545623779297 0.54447829723358154
0.045690871775150299 0.090995803475379944 0.18049438297748566
0.19154933094978333 0.13414497673511505 0.37289887666702271
0.51541280746459961 0.097832836210727692 0.6012340784072876
0.73050308227539062 0.10694150626659393 0.65722715854644775
0.87206602096557617 0.11602389812469482 0.65923577547073364
0.97221547365188599 0.14092601835727692 0.66214686632156372
0.99780309200286865 0.1567734032869339 0.66885817050933838
0.085455022752285004 0.32662054896354675 0.51751708984375
0.29146015644073486 0.30806267261505127 0.58626848459243774
0.4940350353717804 0.31480187177658081 0.59548419713973999
0.64732295274734497 0.32413122057914734 0.59515625238418579
0.78504908084869385 0.32240408658981323 0.59619563817977905
0.90141743421554565 0.3356110155582428 0.59699380397796631
0.99010163545608521 0.35719141364097595 0.60262787342071533
0.058515124022960663 0.52266818284988403 0.61557161808013916
0.29874449968338013 0.49335107207298279 0.59775805473327637
0.49314641952514648 0.48836034536361694 0.59320837259292603
0.64235138893127441 0.4904053807258606 0.59032052755355835
0.77195566892623901 0.49421527981758118 0.59019297361373901
0.8891671895980835 0.50093507766723633 0.59308207035064697
0.9955630898475647 0.50629281997680664 0.59621858596801758
0.088555231690406799 0.67244195938110352 0.63319879770278931
0.31615963578224182 0.63901066780090332 0.60412073135375977
0.49783360958099365 0.62956267595291138 0.59563398361206055
0.64850682020187378 0.62448543310165405 0.59353888034820557
0.78082537651062012 0.62748253345489502 0.59461957216262817
0.89220333099365234 0.63278049230575562 0.59832203388214111
0.99312072992324829 0.63041442632675171 0.59559297561645508
0.076275750994682312 0.81290394067764282 0.64564412832260132
0.32670006155967712 0.77305948734283447 0.61186987161636353
0.51338857412338257 0.76026278734207153 0.60151445865631104
0.66003048419952393 0.75576114654541016 0.59666401147842407
0.79575759172439575 0.75300204753875732 0.60044980049133301
0.90615928173065186 0.75586426258087158 0.6095348596572876
0.99297225475311279 0.75302481651306152 0.60220277309417725
0.093097329139709473 0.93054592609405518 0.65422451496124268
0.33305844664573669 0.89777505397796631 0.61832350492477417
0.52044498920440674 0.88175690174102783 0.60456699132919312
0.67257410287857056 0.87077152729034424 0.60646778345108032
0.80614358186721802 0.8677636981010437 0.60534310340881348
0.92123013734817505 0.86509686708450317 0.62677854299545288
0.99746233224868774 0.86771321296691895 0.61429035663604736
0.12764258682727814 0.99589282274246216 0.66088896989822388
0.3408609926700592 0.99585884809494019 0.62215220928192139
0.52998512983322144 0.98265671730041504 0.61371535062789917
0.68625110387802124 0.9756016731262207 0.61951488256454468
0.82879287004470825 0.97073501348495483 0.6314697265625
0.9399796724319458 0.9653436541557312 0.64393371343612671
0.99887669086456299 0.96860808134078979 0.64821046590805054
0.06702384352684021 0.12127444893121719 0.22718904912471771
0.25770485401153564 0.13066001236438751 0.51896631717681885
0.56439012289047241 0.1029423251748085 0.74549520015716553
0.73435598611831665 0.11926724016666412 0.75970602035522461
0.86346340179443359 0.13638651371002197 0.75302988290786743
0.97100985050201416 0.15769334137439728 0.75502490997314453
0.99781531095504761 0.17050039768218994 0.7544291615486145
0.073645874857902527 0.33871269226074219 0.62888836860656738
0.29878953099250793 0.32388755679130554 0.69213265180587769
0.49445408582687378 0.32010301947593689 0.69678854942321777
0.64471530914306641 0.32550513744354248 0.69180452823638916
0.78412610292434692 0.32940340042114258 0.69156551361083984
0.89875614643096924 0.34239131212234497 0.6927875280380249
0.98522371053695679 0.35555019974708557 0.69604587554931641
0.058429177850484848 0.52694761753082275 0.71052223443984985
0.30107414722442627 0.4990793764591217 0.69933617115020752
0.49467527866363525 0.49185353517532349 0.69217485189437866
0.64208376407623291 0.49484714865684509 0.68371874094009399
0.77103167772293091 0.50060570240020752 0.67938786745071411
0.8836168646812439 0.50759172439575195 0.68192404508590698
0.99005341529846191 0.51038342714309692 0.69018644094467163
0.070137470960617065 0.67784988880157471 0.73176693916320801
0.32158112525939941 0.64180999994277954 0.70457553863525391
0.50466907024383545 0.63175296783447266 0.69763445854187012
0.65294754505157471 0.62934291362762451 0.69040000438690186
0.78244274854660034 0.63124740123748779 0.68709737062454224
0.89212411642074585 0.63676655292510986 0.68912923336029053
0.99253159761428833 0.63677775859832764 0.69204282760620117
0.075658835470676422 0.81199657917022705 0.741851806640625
0.33674201369285583 0.77558320760726929 0.71200376749038696
0.51566332578659058 0.76383399963378906 0.70204240083694458
0.66669780015945435 0.75647205114364624 0.6958966851234436
0.79717093706130981 0.7546766996383667 0.69676750898361206
0.90474838018417358 0.75700193643569946 0.69880080223083496
0.99160116910934448 0.75704598426818848 0.69797402620315552
0.098415911197662354 0.92936497926712036 0.75112015008926392
0.34488329291343689 0.89508718252182007 0.71761560440063477
0.53137111663818359 0.87910902500152588 0.70778638124465942
0.67864841222763062 0.87305593490600586 0.70555740594863892
0.81453126668930054 0.86854654550552368 0.70858514308929443
0.9236602783203125 0.86903268098831177 0.71194839477539062
0.99658864736557007 0.87117660045623779 0.70859944820404053
0.15104290843009949 0.99626058340072632 0.76097947359085083
0.34659203886985779 0.99543416500091553 0.72446525096893311
0.54473161697387695 0.98998105525970459 0.71800869703292847
0.7013552188873291 0.98089087009429932 0.71777176856994629
0.83562231063842773 0.97145825624465942 0.72425198554992676
0.94528114795684814 0.9700164794921875 0.73342692852020264
0.99925422668457031 0.97656399011611938 0.73254495859146118
0.089130416512489319 0.1464042067527771 0.30099144577980042
0.30866879224777222 0.12384077906608582 0.67042297124862671
0.5838618278503418 0.10806944966316223 0.85197371244430542
0.74120771884918213 0.11428385972976685 0.8500288724899292
0.84657841920852661 0.16457375884056091 0.82178777456283569
0.96948635578155518 0.16475479304790497 0.83225142955780029
0.99654465913772583 0.17976024746894836 0.83098870515823364
0.069520615041255951 0.35791540145874023 0.73697423934936523
0.30338010191917419 0.32485976815223694 0.78638213872909546
0.49793681502342224 0.32224941253662109 0.78153097629547119
0.64665710926055908 0.3302866518497467 0.77073550224304199
0.77315026521682739 0.341849684715271 0.76401352882385254
0.8940398097038269 0.35069006681442261 0.76994949579238892
0.98781478404998779 0.36582782864570618 0.77206355333328247
0.068865619599819183 0.52961200475692749 0.78785592317581177
0.30964049696922302 0.50401526689529419 0.7862967848777771
0.49562299251556396 0.49637064337730408 0.78123229742050171
0.64575827121734619 0.49922239780426025 0.77016139030456543
0.77495211362838745 0.50363868474960327 0.76408463716506958
0.88212752342224121 0.51353830099105835 0.75992423295974731
0.99511033296585083 0.51347726583480835 0.77458363771438599
0.07552790641784668 0.6775020956993103 0.81765639781951904
0.32246184349060059 0.64522165060043335 0.79242855310440063
0.5101088285446167 0.63551139831542969 0.78389763832092285
0.65429973602294922 0.63336873054504395 0.77537238597869873
0.78404837846755981 0.63596141338348389 0.76914244890213013
0.88872027397155762 0.64335328340530396 0.76553291082382202
0.99278146028518677 0.63773679733276367 0.77695238590240479
0.081884689629077911 0.81290131807327271 0.8323357105255127
0.34461173415184021 0.77735763788223267 0.79899764060974121
0.52447795867919922 0.7633245587348938 0.78770565986633301
0.66863930225372314 0.75995999574661255 0.7819945216178894
0.80154329538345337 0.75822985172271729 0.77818381786346436
0.90708106756210327 0.76393383741378784 0.77667546272277832
0.99009150266647339 0.760578453540802 0.78003263473510742
0.10537412762641907 0.93047606945037842 0.84006935358047485
0.35304418206214905 0.894645094871521 0.80737090110778809
0.53966689109802246 0.87881219387054443 0.79358553886413574
0.68221110105514526 0.87472593784332275 0.78991115093231201
0.81821119785308838 0.86932611465454102 0.78802132606506348
0.92577248811721802 0.87045514583587646 0.7902265191078186
0.99575471878051758 0.87337332963943481 0.79066359996795654
0.15926851332187653 0.99195677042007446 0.83719086647033691
0.36540168523788452 0.99166053533554077 0.81548178195953369
0.55718314647674561 0.98964530229568481 0.80386215448379517
0.71036702394485474 0.98208433389663696 0.80145156383514404
0.84564745426177979 0.9744112491607666 0.80375558137893677
0.94866764545440674 0.96804702281951904 0.80841070413589478
0.99992567300796509 0.97847294807434082 0.80911803245544434
0.11105638742446899 0.1631346195936203 0.41564300656318665
0.34142810106277466 0.12438972294330597 0.81680166721343994
0.59299767017364502 0.11481256037950516 0.9401363730430603
0.73927289247512817 0.12875670194625854 0.91995620727539062
0.84629631042480469 0.16716520488262177 0.88763350248336792
0.96902531385421753 0.17860953509807587 0.89814269542694092
0.99706053733825684 0.19460201263427734 0.89194750785827637
0.080721989274024963 0.3576626181602478 0.81076395511627197
0.3085181713104248 0.3390776515007019 0.87286067008972168
0.50313609838485718 0.33479142189025879 0.85974961519241333
0.64403605461120605 0.33938801288604736 0.84027469158172607
0.7765505313873291 0.3489648699760437 0.8380439281463623
0.89065998792648315 0.35982701182365417 0.83682090044021606
0.98531073331832886 0.36567297577857971 0.84606176614761353
0.074419610202312469 0.5361708402633667 0.85793435573577881
0.32195544242858887 0.50686216354370117 0.86635547876358032
0.50415432453155518 0.50184518098831177 0.85918182134628296
0.64521509408950806 0.50513309240341187 0.84111553430557251
0.76746577024459839 0.51444321870803833 0.82375681400299072
0.87775593996047974 0.52248001098632812 0.82410770654678345
0.99364793300628662 0.51479154825210571 0.85428547859191895
0.089284203946590424 0.67924374341964722 0.89871257543563843
0.32888615131378174 0.64623504877090454 0.87431985139846802
0.51655834913253784 0.63897526264190674 0.86745017766952515
0.66182488203048706 0.63621383905410767 0.85098612308502197
0.7844160795211792 0.64052218198776245 0.83733338117599487
0.8811759352684021 0.65208691358566284 0.82635438442230225
0.98641681671142578 0.64712870121002197 0.84825438261032104
0.089217975735664368 0.81500589847564697 0.91322392225265503
0.34801223874092102 0.77920448780059814 0.88923966884613037
0.532112717628479 0.76575720310211182 0.87071126699447632
0.67606014013290405 0.76115268468856812 0.85597318410873413
0.80541157722473145 0.76389527320861816 0.8485676646232605
0.90441691875457764 0.77129644155502319 0.83977925777435303
0.99405211210250854 0.76796960830688477 0.85821855068206787
0.11910922825336456 0.92988783121109009 0.91141831874847412
0.36832776665687561 0.89674925804138184 0.89071798324584961
0.55395466089248657 0.88098692893981934 0.87433326244354248
0.69597321748733521 0.87581151723861694 0.86590790748596191
0.82763892412185669 0.87156778573989868 0.85810643434524536
0.93040531873703003 0.87660336494445801 0.85758119821548462
0.9986681342124939 0.8789868950843811 0.86489444971084595
0.1765846312046051 0.99647617340087891 0.90431821346282959
0.38202431797981262 0.99061042070388794 0.89521306753158569
0.57892674207687378 0.9841570258140564 0.87714064121246338
0.73058962821960449 0.97129631042480469 0.86957252025604248
0.87389522790908813 0.97036755084991455 0.87513834238052368
0.96935898065567017 0.9723130464553833 0.88080775737762451
0.99859201908111572 0.97982549667358398 0.86362326145172119
