assets/lut/alexjordan green afternoon.cube
# Created by: G'MIC (https://gmic.eu)
TITLE "green_afternoon"
# LUT size
LUT_3D_SIZE 7
# Data domain
DOMAIN_MIN 0.0 0.0 0.0
DOMAIN_MAX 1.0 1.0 1.0
# LUT data points
0.010766422376036644 0.010530523955821991 0.0093609681352972984
0.043792575597763062 0.019380861893296242 0.015145604498684406
0.1003650575876236 0.023705786094069481 0.022877905517816544
0.18720132112503052 0.02001769095659256 0.022163510322570801
0.30475601553916931 0.0092391222715377808 0.011343712918460369
0.4887758195400238 0.0022284714505076408 0
0.70541656017303467 0.0025310739874839783 0.0020614324603229761
0.026165293529629707 0.066112816333770752 0.023366186767816544
0.07684490829706192 0.076092183589935303 0.017928509041666985
0.17114464938640594 0.07428412139415741 0.0093039721250534058
0.30246648192405701 0.071877285838127136 0.0040466906502842903
0.47224545478820801 0.059667773544788361 0.00064019596902653575
0.65926432609558105 0.050381064414978027 5.4931639169808477e-05
0.84758687019348145 0.053180094808340073 0
0.0043915393762290478 0.18088425695896149 0.0048693637363612652
0.072190321981906891 0.19332161545753479 0.00090858608018606901
0.20911122858524323 0.19509896636009216 0.00073840573895722628
0.37419441342353821 0.19299431145191193 0
0.56090980768203735 0.18520498275756836 0
0.73776924610137939 0.18147777020931244 0
0.90570759773254395 0.18522843718528748 0
0 0.34451460838317871 0
0.049379803240299225 0.35598942637443542 0
0.20189549028873444 0.35979989171028137 0.00027815875364467502
0.37350326776504517 0.35898053646087646 0
0.55686867237091064 0.35555383563041687 0
0.72633820772171021 0.35729867219924927 0
0.89712661504745483 0.35832363367080688 0
0 0.51907753944396973 0
0.038825899362564087 0.53003871440887451 0.00015468223136849701
0.19581221044063568 0.53121310472488403 0
0.37398481369018555 0.52986174821853638 0
0.56007486581802368 0.53041267395019531 0
0.73011910915374756 0.54456979036331177 0.0011747621465474367
0.91068899631500244 0.54928547143936157 0.0079416465014219284
0 0.69771003723144531 0.00057235418353229761
0.058125961571931839 0.70874708890914917 0.0040289335884153843
0.20816805958747864 0.71457159519195557 0.0026297625154256821
0.39469036459922791 0.7285759449005127 0.0032291936222463846
0.59025442600250244 0.73887860774993896 0.0055081387981772423
0.77904939651489258 0.77211856842041016 0.010201413184404373
0.96674448251724243 0.77767091989517212 0.021688543260097504
0.013369675725698471 0.89384591579437256 0.008283982053399086
0.10903287678956985 0.91458672285079956 0.011879969388246536
0.25943306088447571 0.94267421960830688 0.0094143291935324669
0.44902011752128601 0.97179073095321655 0.005122210830450058
0.63521558046340942 0.97352057695388794 0.0091037824749946594
0.80748164653778076 0.97830212116241455 0.0098810382187366486
0.97851616144180298 0.97820889949798584 0.0220986008644104
0.011725765652954578 0.012857997789978981 0.028959522023797035
0.047909200191497803 0.019849156960844994 0.043656248599290848
0.10419149696826935 0.020592857152223587 0.053269047290086746
0.19738131761550903 0.016613604500889778 0.060135919600725174
0.32526662945747375 0.0073185339570045471 0.058310206979513168
0.50255423784255981 0.00018561868637334555 0.048235427588224411
0.70823466777801514 0 0.051225818693637848
0.023623507469892502 0.067692682147026062 0.069520123302936554
0.082687109708786011 0.075159676373004913 0.074926294386386871
0.17799396812915802 0.076240256428718567 0.072565756738185883
0.31378433108329773 0.070143513381481171 0.068348586559295654
0.48667296767234802 0.05791085958480835 0.055440910160541534
0.66894853115081787 0.045603208243846893 0.048834137618541718
0.86855721473693848 0.036455504596233368 0.033378258347511292
0.0043097999878227711 0.18489547073841095 0.067766390740871429
0.075305193662643433 0.19702218472957611 0.0643019899725914
0.21519500017166138 0.19896930456161499 0.064184479415416718
0.37991955876350403 0.19740882515907288 0.052276056259870529
0.56778597831726074 0.19088976085186005 0.045919068157672882
0.73454874753952026 0.18750984966754913 0.043225575238466263
0.90703123807907104 0.18473787605762482 0.04038715735077858
0.00032674751128070056 0.34899410605430603 0.040687859058380127
0.055719785392284393 0.35846906900405884 0.045577403157949448
0.20493564009666443 0.36304688453674316 0.050631415098905563
0.3774300217628479 0.364705890417099 0.046374242752790451
0.55961871147155762 0.36221069097518921 0.043625235557556152
0.71904605627059937 0.36388009786605835 0.042820457369089127
0.9046783447265625 0.36666673421859741 0.054986618459224701
0.00046471989480778575 0.52222788333892822 0.035689603537321091
0.056480977684259415 0.53153133392333984 0.043013256043195724
0.20349268615245819 0.53608518838882446 0.037505265325307846
0.37910622358322144 0.53860831260681152 0.040136523544788361
0.56226730346679688 0.53997033834457397 0.042673956602811813
0.72329252958297729 0.54860621690750122 0.053779661655426025
0.93282866477966309 0.57022631168365479 0.086341947317123413
0.00018687528790906072 0.70200037956237793 0.045590434223413467
0.067287176847457886 0.71342819929122925 0.053324844688177109
0.21406853199005127 0.72160816192626953 0.05540752038359642
0.40164801478385925 0.73521590232849121 0.069642625749111176
0.60435020923614502 0.75515174865722656 0.08721306174993515
0.77547299861907959 0.77202337980270386 0.095461226999759674
0.98129284381866455 0.79729098081588745 0.12461431324481964
0.012724991887807846 0.90335404872894287 0.063415482640266418
0.10930872708559036 0.92861026525497437 0.081311047077178955
0.26379373669624329 0.9556581974029541 0.092864930629730225
0.45876920223236084 0.97814428806304932 0.1051303967833519
0.64700257778167725 0.98563718795776367 0.1193833127617836
0.80185520648956299 0.98433583974838257 0.12463519722223282
0.98187470436096191 0.98485422134399414 0.13481892645359039
0.01581166498363018 0.014505976811051369 0.058164827525615692
0.052655313163995743 0.022107368335127831 0.08529961109161377
0.11329933255910873 0.022526206448674202 0.10556010901927948
0.21440814435482025 0.015178904868662357 0.12372838705778122
0.34657010436058044 0.0047422968782484531 0.13567832112312317
0.51452195644378662 0.00012404497829265893 0.14579425752162933
0.73548215627670288 0 0.15920871496200562
0.023910433053970337 0.070902474224567413 0.13281752169132233
0.083102896809577942 0.078097447752952576 0.15375317633152008
0.1830364465713501 0.07802620530128479 0.16674935817718506
0.32614961266517639 0.068879164755344391 0.17805288732051849
0.50225287675857544 0.05618082731962204 0.17738780379295349
0.68614548444747925 0.045606948435306549 0.17698752880096436
0.86958593130111694 0.037344031035900116 0.17035755515098572
0.0035191404167562723 0.18899090588092804 0.1797156035900116
0.079025819897651672 0.19857281446456909 0.18819917738437653
0.21803408861160278 0.20202472805976868 0.19132125377655029
0.38435578346252441 0.19509100914001465 0.19128113985061646
0.56996577978134155 0.19065657258033752 0.1849990040063858
0.73575061559677124 0.18813477456569672 0.18387724459171295
0.90858626365661621 0.18337708711624146 0.18410111963748932
0.0010574789484962821 0.34968915581703186 0.17517271637916565
0.063343599438667297 0.35858646035194397 0.18358319997787476
0.20784682035446167 0.36392337083816528 0.18439817428588867
0.37923270463943481 0.36265254020690918 0.18241061270236969
0.56583613157272339 0.36062788963317871 0.18288606405258179
0.72980862855911255 0.36263912916183472 0.1836882084608078
0.91531878709793091 0.36389592289924622 0.19134490191936493
0.0015358120435848832 0.52397316694259644 0.15977159142494202
0.065211445093154907 0.53344893455505371 0.17095327377319336
0.20519194006919861 0.53798288106918335 0.1764754056930542
0.37848153710365295 0.53944617509841919 0.18056620657444
0.56877249479293823 0.54427248239517212 0.19202403724193573
0.7383122444152832 0.55761253833770752 0.20199254155158997
0.93963956832885742 0.57178193330764771 0.21859751641750336
0.001948682009242475 0.70792633295059204 0.16192926466464996
0.074362494051456451 0.71913278102874756 0.17768234014511108
0.22089125216007233 0.72602015733718872 0.19096936285495758
0.4118499755859375 0.74505048990249634 0.21327680349349976
0.61093318462371826 0.76077181100845337 0.23000383377075195
0.79471099376678467 0.79317772388458252 0.26008367538452148
0.98447948694229126 0.80378705263137817 0.27424076199531555
0.016272392123937607 0.91736483573913574 0.18417462706565857
0.11347758024930954 0.9492378830909729 0.22091390192508698
0.27320700883865356 0.96693164110183716 0.24373190104961395
0.4694371223449707 0.98199862241744995 0.26171049475669861
0.64888352155685425 0.98403209447860718 0.26155820488929749
0.81062614917755127 0.98603463172912598 0.26707106828689575
0.98305207490921021 0.98397278785705566 0.27152037620544434
0.01722685806453228 0.017584213986992836 0.099056512117385864
0.052634324878454208 0.020995002239942551 0.13214431703090668
0.12078294903039932 0.020578570663928986 0.16561150550842285
0.22239632904529572 0.01058038417249918 0.1996128261089325
0.36981657147407532 0.0019974950700998306 0.23187518119812012
0.56054008007049561 0.0010464238002896309 0.26493507623672485
0.77742749452590942 0 0.29342696070671082
0.018656248226761818 0.073488600552082062 0.2146969735622406
0.079122848808765411 0.078004099428653717 0.24632111191749573
0.18599800765514374 0.077450759708881378 0.2723027765750885
0.33536913990974426 0.06826966255903244 0.3046836256980896
0.51695626974105835 0.053919188678264618 0.31861895322799683
0.70126950740814209 0.04433891549706459 0.32869186997413635
0.89266252517700195 0.031155994161963463 0.32897296547889709
0.0012037538690492511 0.19070850312709808 0.31111425161361694
0.073653489351272583 0.19895464181900024 0.32983091473579407
0.21866710484027863 0.19994150102138519 0.33843788504600525
0.38864931464195251 0.19486694037914276 0.34892439842224121
0.57368999719619751 0.19008556008338928 0.34751096367835999
0.73542296886444092 0.1888703852891922 0.34774142503738403
0.91633611917495728 0.18120574951171875 0.34359535574913025
0 0.35134521126747131 0.33181831240653992
0.052882622927427292 0.36227875947952271 0.34018030762672424
0.20993828773498535 0.36412376165390015 0.3426361083984375
0.38406842947006226 0.36370113492012024 0.34046080708503723
0.56929939985275269 0.36296585202217102 0.33918169140815735
0.72499269247055054 0.36666196584701538 0.34544673562049866
0.91095417737960815 0.36260107159614563 0.34755361080169678
0 0.52663898468017578 0.3251349925994873
0.060660567134618759 0.53859865665435791 0.33534345030784607
0.20984315872192383 0.54427200555801392 0.34095528721809387
0.38322171568870544 0.54349976778030396 0.34230196475982666
0.5745384693145752 0.5492243766784668 0.35479691624641418
0.74528235197067261 0.56512224674224854 0.36521145701408386
0.92893892526626587 0.56150060892105103 0.36309608817100525
0.0017746271332725883 0.70961266756057739 0.32785642147064209
0.074921444058418274 0.72540688514709473 0.3469107449054718
0.2313254326581955 0.73793333768844604 0.36174526810646057
0.42179834842681885 0.75562584400177002 0.38024634122848511
0.62447768449783325 0.77225947380065918 0.39912760257720947
0.80908620357513428 0.79779988527297974 0.42229658365249634
0.97856491804122925 0.79605782032012939 0.4219917356967926
0.019441148266196251 0.92339760065078735 0.35285928845405579
0.1154252290725708 0.96126484870910645 0.39462786912918091
0.2821342945098877 0.97610437870025635 0.41379570960998535
0.47924518585205078 0.98769897222518921 0.42560282349586487
0.6539757251739502 0.98593592643737793 0.41943591833114624
0.80875730514526367 0.98517996072769165 0.42588755488395691
0.97954249382019043 0.98449081182479858 0.4284781813621521
0.020575713366270065 0.020852452144026756 0.15357975661754608
0.057570289820432663 0.02347881905734539 0.19845430552959442
0.12908990681171417 0.020497025921940804 0.24758854508399963
0.23363055288791656 0.010425343178212643 0.29815214872360229
0.37475502490997314 9.2091278929729015e-05 0.3306376039981842
0.56611430644989014 3.7339155824156478e-05 0.38496527075767517
0.79469132423400879 0 0.43144148588180542
0.021954899653792381 0.073921695351600647 0.30375000834465027
0.081498347222805023 0.078173287212848663 0.3548770546913147
0.18942184746265411 0.076925583183765411 0.38783228397369385
0.34269621968269348 0.067775115370750427 0.42887470126152039
0.52367758750915527 0.051171410828828812 0.44914013147354126
0.70104068517684937 0.043020524084568024 0.47343766689300537
0.89420437812805176 0.028925728052854538 0.48042625188827515
0.0050933687016367912 0.19238865375518799 0.45348352193832397
0.077724799513816833 0.19898456335067749 0.47767561674118042
0.21865671873092651 0.1991276741027832 0.48351529240608215
0.38957273960113525 0.19552843272686005 0.4923870861530304
0.57563614845275879 0.19162245094776154 0.49067118763923645
0.72921711206436157 0.19363029301166534 0.49843284487724304
0.90951055288314819 0.19049586355686188 0.48776543140411377
0.00048608219367451966 0.35313677787780762 0.47984257340431213
0.058988966047763824 0.36179283261299133 0.49142187833786011
0.21214044094085693 0.36319217085838318 0.48932686448097229
0.38468560576438904 0.3654443621635437 0.49392721056938171
0.56973141431808472 0.36686384677886963 0.48718023300170898
0.73388820886611938 0.36916327476501465 0.49999600648880005
0.91849499940872192 0.37223353981971741 0.50046372413635254
0.0015129987150430679 0.52547967433929443 0.4786832332611084
0.061788056045770645 0.53923887014389038 0.48628148436546326
0.21335689723491669 0.54591786861419678 0.48833289742469788
0.38828334212303162 0.54624831676483154 0.49684330821037292
0.57533502578735352 0.55179101228713989 0.50071412324905396
0.74487900733947754 0.56266385316848755 0.51175391674041748
0.94403606653213501 0.5753103494644165 0.52409708499908447
0.00097216438734903932 0.70544999837875366 0.48996594548225403
0.069274425506591797 0.72369170188903809 0.50223100185394287
0.23112183809280396 0.74015516042709351 0.51525574922561646
0.42377936840057373 0.75705420970916748 0.53235828876495361
0.63630884885787964 0.78913319110870361 0.56485646963119507
0.81088906526565552 0.80736064910888672 0.57532519102096558
0.98733413219451904 0.80303758382797241 0.5771484375
0.013250523246824741 0.92544102668762207 0.50999575853347778
0.1097773090004921 0.95899862051010132 0.5375053882598877
0.28236740827560425 0.97598963975906372 0.55655306577682495
0.46975690126419067 0.98429584503173828 0.55978459119796753
0.65312325954437256 0.98805397748947144 0.56180828809738159
0.81290292739868164 0.9893152117729187 0.56415402889251709
0.98071998357772827 0.98866909742355347 0.57210361957550049
0.02065856009721756 0.021078431978821754 0.2029498815536499
0.063261158764362335 0.022731078788638115 0.26270660758018494
0.13376054167747498 0.017362257465720177 0.31731083989143372
0.2485136091709137 0.0085108140483498573 0.39041784405708313
0.41324898600578308 0.0015329248271882534 0.46279981732368469
0.60823315382003784 6.4625462982803583e-05 0.52434366941452026
0.81179070472717285 0 0.57954961061477661
0.010804823599755764 0.075857065618038177 0.39955654740333557
0.074919037520885468 0.077220842242240906 0.47107470035552979
0.18548525869846344 0.072655513882637024 0.51356595754623413
0.34281408786773682 0.061922378838062286 0.55906385183334351
0.53323441743850708 0.050022318959236145 0.59865617752075195
0.70857018232345581 0.041266810148954391 0.61789959669113159
0.89436179399490356 0.034666877239942551 0.61832201480865479
0.0027572931721806526 0.19361519813537598 0.58947014808654785
0.070493586361408234 0.1999005526304245 0.62568390369415283
0.21463125944137573 0.20113454759120941 0.63760769367218018
0.39057311415672302 0.19615352153778076 0.64723753929138184
0.57225745916366577 0.19317136704921722 0.6443905234336853
0.7360575795173645 0.19022065401077271 0.64763736724853516
0.91274940967559814 0.19245105981826782 0.63644921779632568
0.0019856770522892475 0.35629579424858093 0.62866508960723877
0.059788018465042114 0.36565688252449036 0.63720542192459106
0.21286310255527496 0.36656343936920166 0.64190888404846191
0.38953563570976257 0.36738556623458862 0.6453481912612915
0.56937015056610107 0.36862146854400635 0.63596934080123901
0.7351229190826416 0.36889860033988953 0.64309287071228027
0.91837698221206665 0.37628909945487976 0.65508109331130981
0.0036557067651301622 0.52958232164382935 0.61629605293273926
0.063757322728633881 0.5428844690322876 0.6353563666343689
0.21685171127319336 0.54932612180709839 0.64071828126907349
0.39679768681526184 0.55230379104614258 0.64530485868453979
0.58495795726776123 0.55776792764663696 0.65034693479537964
0.74576765298843384 0.56493771076202393 0.66364920139312744
0.95589429140090942 0.59415560960769653 0.6883813738822937
0.00022924086079001427 0.71715456247329712 0.63810372352600098
0.06975681334733963 0.73779010772705078 0.66029053926467896
0.23917980492115021 0.74998742341995239 0.67411082983016968
0.44120687246322632 0.77180665731430054 0.69630002975463867
0.64820945262908936 0.79229909181594849 0.71911865472793579
0.8120955228805542 0.8090093731880188 0.73665750026702881
0.9882538914680481 0.81314605474472046 0.74167537689208984
0.0013202741974964738 0.95388913154602051 0.67922794818878174
0.11018730700016022 0.9728962779045105 0.70598030090332031
0.29614466428756714 0.98309564590454102 0.72300904989242554
0.47242707014083862 0.9860234260559082 0.72316360473632812
0.65768468379974365 0.98655807971954346 0.72553998231887817
0.82129430770874023 0.98810011148452759 0.7285582423210144
0.98471808433532715 0.98849636316299438 0.74349188804626465
0.022843290120363235 0.020823683589696884 0.31251835823059082
0.067923061549663544 0.022739246487617493 0.40362682938575745
0.13907156884670258 0.01441803015768528 0.4687201976776123
0.26511314511299133 0.0033898595720529556 0.57211136817932129
0.41816985607147217 0.00018059225112665445 0.64449149370193481
0.61961662769317627 0 0.73378294706344604
0.82532256841659546 0.0042798062786459923 0.79419863224029541
0.012260811403393745 0.069577142596244812 0.57477766275405884
0.074030905961990356 0.072391480207443237 0.66645699739456177
0.18694925308227539 0.066884182393550873 0.7303428053855896
0.35310882329940796 0.053727962076663971 0.80650776624679565
0.53392517566680908 0.041279632598161697 0.84454464912414551
0.71365857124328613 0.035256374627351761 0.8647763729095459
0.88517183065414429 0.05882098525762558 0.85370177030563354
0.0060971877537667751 0.18672412633895874 0.81607270240783691
0.073312990367412567 0.19185645878314972 0.87153524160385132
0.21247941255569458 0.19476042687892914 0.89414066076278687
0.39084741473197937 0.19026163220405579 0.91328072547912598
0.56278818845748901 0.19036059081554413 0.89872539043426514
0.72886735200881958 0.18602517247200012 0.89394336938858032
0.90648657083511353 0.19513027369976044 0.88691091537475586
0.0050546536222100258 0.34959796071052551 0.88360297679901123
0.064124897122383118 0.35938337445259094 0.89414083957672119
0.20721502602100372 0.36336806416511536 0.89563065767288208
0.38794848322868347 0.36273887753486633 0.90538591146469116
0.56256943941116333 0.36426681280136108 0.8975328803062439
0.72445327043533325 0.36285418272018433 0.89545649290084839
0.91046339273452759 0.3700408935546875 0.90078312158584595
0.0027375314384698868 0.52658486366271973 0.86982196569442749
0.055755645036697388 0.53548353910446167 0.88956320285797119
0.20924820005893707 0.54437261819839478 0.90412187576293945
0.39687347412109375 0.5516236424446106 0.9130968451499939
0.5714954137802124 0.55166023969650269 0.90561896562576294
0.74982410669326782 0.56494134664535522 0.9220353364944458
0.95742380619049072 0.58995038270950317 0.94293785095214844
0.0018654318992048502 0.70650935173034668 0.87797433137893677
0.061833713203668594 0.72954517602920532 0.91010147333145142
0.23958629369735718 0.75394600629806519 0.93433374166488647
0.44692382216453552 0.78006196022033691 0.95834672451019287
0.6353156566619873 0.78503978252410889 0.96175515651702881
0.80300503969192505 0.79712575674057007 0.97277230024337769
0.98582512140274048 0.8134649395942688 0.97759974002838135
0.01247005071491003 0.95219612121582031 0.925373375415802
0.1193295493721962 0.96729403734207153 0.95105218887329102
0.2942444384098053 0.98103916645050049 0.96511423587799072
0.48214554786682129 0.98891657590866089 0.97203230857849121
0.66105204820632935 0.98886233568191528 0.97324395179748535
0.81744557619094849 0.98850828409194946 0.97399640083312988
0.98527437448501587 0.98654830455780029 0.975780189037323
