assets/lut/alexjordan adventure 1453.cube
# Created by: G'MIC (https://gmic.eu)
TITLE "adventure_1453"
# LUT size
LUT_3D_SIZE 7
# Data domain
DOMAIN_MIN 0.0 0.0 0.0
DOMAIN_MAX 1.0 1.0 1.0
# LUT data points
0.0012613184517249465 0.0058512520045042038 0.020026411861181259
0.087356805801391602 0.010743174701929092 0.0232671108096838
0.26309481263160706 0.015504485927522182 0.025291532278060913
0.46288150548934937 0.01523666363209486 0.0225650854408741
0.6764068603515625 0.0086009455844759941 0.015361650846898556
0.90183627605438232 0.0052703260444104671 0.015598132275044918
1 0.026749869808554649 0.018805738538503647
0.0014899908564984798 0.14624230563640594 0.033580988645553589
0.11005593091249466 0.15011803805828094 0.036781895905733109
0.28902941942214966 0.15428796410560608 0.041228484362363815
0.48739698529243469 0.15034803748130798 0.034263208508491516
0.69921547174453735 0.13612906634807587 0.022299433127045631
0.92708510160446167 0.11154928803443909 0.023466072976589203
1 0.12687405943870544 0.026922412216663361
0.0074438806623220444 0.31523820757865906 0.045169036835432053
0.13097500801086426 0.31989499926567078 0.049940116703510284
0.30496132373809814 0.31848323345184326 0.051533732563257217
0.50211387872695923 0.31058037281036377 0.043490808457136154
0.71483117341995239 0.29619023203849792 0.03266061469912529
0.94062870740890503 0.27619817852973938 0.030778713524341583
1 0.2739463746547699 0.028924200683832169
0.014421231113374233 0.48515433073043823 0.052396990358829498
0.14960268139839172 0.48890259861946106 0.056895866990089417
0.31671622395515442 0.48697134852409363 0.055597297847270966
0.50831800699234009 0.478476881980896 0.047313600778579712
0.71850365400314331 0.46416929364204407 0.036544650793075562
0.9415816068649292 0.44682419300079346 0.030570400878787041
1 0.438150554895401 0.024667447432875633
0.021331233903765678 0.65534877777099609 0.054037190973758698
0.16283868253231049 0.65784192085266113 0.058249887079000473
0.32635000348091125 0.65535861253738403 0.056671604514122009
0.51175141334533691 0.64741945266723633 0.048434793949127197
0.71727979183197021 0.63440203666687012 0.035890288650989532
0.93789923191070557 0.61762446165084839 0.026064734905958176
1 0.60657918453216553 0.018110401928424835
0.026954995468258858 0.82609939575195312 0.050517555326223373
0.17328928411006927 0.82711023092269897 0.05544077605009079
0.33516734838485718 0.82412832975387573 0.054649442434310913
0.51568359136581421 0.81629341840744019 0.04865754023194313
0.71458899974822998 0.80388671159744263 0.039271321147680283
0.92952114343643188 0.78894168138504028 0.026697166264057159
1 0.77802485227584839 0.014113841578364372
0.031958591192960739 0.98786765336990356 0.041027441620826721
0.18218958377838135 0.98790460824966431 0.047332689166069031
0.34453687071800232 0.98605012893676758 0.04770355299115181
0.52287387847900391 0.98142075538635254 0.043090924620628357
0.71750104427337646 0.97269219160079956 0.03435434028506279
0.92549407482147217 0.96151387691497803 0.021156206727027893
1 0.95201772451400757 0.0088708316907286644
7.1985581598710269e-05 0.0081851435825228691 0.18021897971630096
0.087413221597671509 0.01077683363109827 0.18138569593429565
0.25780922174453735 0.010802339762449265 0.1880582720041275
0.45877793431282043 0.013621849939227104 0.18180672824382782
0.67441302537918091 0.0092539321631193161 0.16558679938316345
0.90279144048690796 0.0036002662964165211 0.14678770303726196
1 0.019579838961362839 0.14335149526596069
0.0024862103164196014 0.1460372656583786 0.20756645500659943
0.10889419913291931 0.14746332168579102 0.21020491421222687
0.28424030542373657 0.14798806607723236 0.21262796223163605
0.4841187596321106 0.14442376792430878 0.2007589191198349
0.69782400131225586 0.12782509624958038 0.18306681513786316
0.92635595798492432 0.10136891156435013 0.17698414623737335
1 0.11585234105587006 0.17287835478782654
0.0086978692561388016 0.31339007616043091 0.22102329134941101
0.13066960871219635 0.3180679976940155 0.22612045705318451
0.30052715539932251 0.31661009788513184 0.22527900338172913
0.49794882535934448 0.30694243311882019 0.21276991069316864
0.71163904666900635 0.29156649112701416 0.19726626574993134
0.93770337104797363 0.27530074119567871 0.18880049884319305
1 0.26977640390396118 0.18288601934909821
0.013480407185852528 0.48429611325263977 0.22768691182136536
0.14522673189640045 0.48866105079650879 0.23114456236362457
0.31013235449790955 0.48711344599723816 0.22818833589553833
0.50208818912506104 0.4778515100479126 0.21739853918552399
0.71384894847869873 0.46331769227981567 0.20329926908016205
0.93890249729156494 0.44676485657691956 0.1914488673210144
1 0.43530616164207458 0.18193966150283813
0.018637802451848984 0.65502619743347168 0.22994348406791687
0.15626141428947449 0.65809667110443115 0.23284241557121277
0.31781831383705139 0.65621060132980347 0.22909623384475708
0.50413721799850464 0.64812684059143066 0.2186083048582077
0.7134019136428833 0.63407301902770996 0.20305882394313812
0.94106936454772949 0.61618584394454956 0.18681618571281433
1 0.60334604978561401 0.17563584446907043
0.024435784667730331 0.82613486051559448 0.22805199027061462
0.16610449552536011 0.82765769958496094 0.23096641898155212
0.32559263706207275 0.82532072067260742 0.22755664587020874
0.50706630945205688 0.8175538182258606 0.21773837506771088
0.71056985855102539 0.80455023050308228 0.20243640244007111
0.93240213394165039 0.78819692134857178 0.18394993245601654
1 0.77468693256378174 0.16954179108142853
0.029482195153832436 0.98800551891326904 0.22078220546245575
0.17512223124504089 0.98896223306655884 0.22459855675697327
0.33473601937294006 0.98691534996032715 0.22186650335788727
0.51389229297637939 0.98215579986572266 0.21294717490673065
0.71381300687789917 0.97326397895812988 0.1977686733007431
0.93072223663330078 0.96037423610687256 0.17753824591636658
1 0.94860970973968506 0.16182646155357361
0 0.0074877571314573288 0.36213970184326172
0.092183098196983337 0.0082998834550380707 0.36480402946472168
0.25905975699424744 0.0097437091171741486 0.36519119143486023
0.45888254046440125 0.015966646373271942 0.3574182391166687
0.67605644464492798 0.019796274602413177 0.34552282094955444
0.90446823835372925 0.012421372346580029 0.33124843239784241
1 0.01509495172649622 0.31425482034683228
0.0012792251072824001 0.1460784375667572 0.38662281632423401
0.11072935163974762 0.14751692116260529 0.39009213447570801
0.28194645047187805 0.14730685949325562 0.38879495859146118
0.48223039507865906 0.14524225890636444 0.37813368439674377
0.69884622097015381 0.13318279385566711 0.36452573537826538
0.92674487829208374 0.11409391462802887 0.35496988892555237
1 0.11825209856033325 0.33982419967651367
0.0052435481920838356 0.31147801876068115 0.39935740828514099
0.1278960108757019 0.31573998928070068 0.40328362584114075
0.29698646068572998 0.31464472413063049 0.40084734559059143
0.49569875001907349 0.30476325750350952 0.39044332504272461
0.71228998899459839 0.28895294666290283 0.37630951404571533
0.93798810243606567 0.27359265089035034 0.3636290431022644
1 0.26823011040687561 0.35025131702423096
0.0093605490401387215 0.48200580477714539 0.40393832325935364
0.13926698267459869 0.48645827174186707 0.40732601284980774
0.30430659651756287 0.48564985394477844 0.40477043390274048
0.49912002682685852 0.47600224614143372 0.39552351832389832
0.71596544981002808 0.46075600385665894 0.38198530673980713
0.94227045774459839 0.4450690746307373 0.36727780103683472
1 0.43392696976661682 0.35252386331558228
0.014408620074391365 0.65320241451263428 0.4056859016418457
0.14883650839328766 0.65638744831085205 0.40870097279548645
0.31055921316146851 0.65479940176010132 0.40621429681777954
0.5000113844871521 0.64711254835128784 0.39637976884841919
0.71444028615951538 0.63357090950012207 0.38208672404289246
0.94270718097686768 0.61661672592163086 0.36560302972793579
1 0.60307455062866211 0.34975534677505493
0.021276826038956642 0.82509219646453857 0.40517166256904602
0.15822385251522064 0.82762604951858521 0.40744641423225403
0.31627267599105835 0.82559740543365479 0.40342885255813599
0.50021547079086304 0.81797116994857788 0.3928256630897522
0.71015763282775879 0.80506020784378052 0.37739041447639465
0.93535751104354858 0.78844702243804932 0.35973364114761353
1 0.77455234527587891 0.34402278065681458
0.027288295328617096 0.98786765336990356 0.39943817257881165
0.16736683249473572 0.9893994927406311 0.40203690528869629
0.32371288537979126 0.98753046989440918 0.39784568548202515
0.50420528650283813 0.98291206359863281 0.38688468933105469
0.70982247591018677 0.97396767139434814 0.37083309888839722
0.92820167541503906 0.96092301607131958 0.35280963778495789
1 0.94812726974487305 0.33740076422691345
0 0.0063569908961653709 0.54767030477523804
0.094493791460990906 0.0088021671399474144 0.54948490858078003
0.2640320360660553 0.013343781232833862 0.54577040672302246
0.46095803380012512 0.020180093124508858 0.53745740652084351
0.67668730020523071 0.023254992440342903 0.52786314487457275
0.90298110246658325 0.018469687551259995 0.51362210512161255
1 0.01787617988884449 0.49152928590774536
4.8110065108630806e-05 0.14596252143383026 0.56932419538497925
0.11140364408493042 0.14983281493186951 0.57157200574874878
0.28442594408988953 0.15015909075737 0.56883591413497925
0.48371490836143494 0.14845554530620575 0.56025934219360352
0.69833946228027344 0.13880304992198944 0.5472114086151123
0.92401796579360962 0.12597554922103882 0.5326734185218811
1 0.12532702088356018 0.51239585876464844
0.0019725125748664141 0.31020480394363403 0.57921946048736572
0.12387539446353912 0.31415650248527527 0.5816916823387146
0.29601144790649414 0.31246274709701538 0.58075851202011108
0.49604809284210205 0.30346584320068359 0.57408362627029419
0.71250385046005249 0.28859895467758179 0.56132739782333374
0.93722629547119141 0.27405270934104919 0.54499208927154541
1 0.26911765336990356 0.52438712120056152
0.0048446804285049438 0.47934529185295105 0.58052957057952881
0.13169342279434204 0.48333364725112915 0.5851438045501709
0.30021533370018005 0.48159053921699524 0.58615976572036743
0.49839663505554199 0.47305509448051453 0.57966136932373047
0.71786916255950928 0.4591059684753418 0.56852191686630249
0.94331008195877075 0.44405597448348999 0.55138200521469116
1 0.43342715501785278 0.52992445230484009
0.0093580512329936028 0.65053927898406982 0.58124363422393799
0.13930121064186096 0.65398430824279785 0.58629769086837769
0.3038230836391449 0.65213173627853394 0.58662599325180054
0.49797645211219788 0.6452820897102356 0.57813519239425659
0.71520495414733887 0.63255435228347778 0.56626707315444946
0.94153755903244019 0.61686831712722778 0.54950165748596191
1 0.60350292921066284 0.52942287921905518
0.017766525968909264 0.82310026884078979 0.58263939619064331
0.14881406724452972 0.82613873481750488 0.58528709411621094
0.30680668354034424 0.82531881332397461 0.58186477422714233
0.49471485614776611 0.81787598133087158 0.57185667753219604
0.70747148990631104 0.80474579334259033 0.55852866172790527
0.93240237236022949 0.78874307870864868 0.54200106859207153
1 0.77482563257217407 0.52453917264938354
0.026053005829453468 0.98734933137893677 0.57775866985321045
0.15831556916236877 0.98938709497451782 0.58021718263626099
0.31069064140319824 0.9878583550453186 0.57603496313095093
0.49344024062156677 0.98335444927215576 0.56573694944381714
0.70210868120193481 0.97420531511306763 0.55110853910446167
0.92943447828292847 0.96120369434356689 0.53597205877304077
1 0.94812726974487305 0.51961380243301392
0 0.0048018214292824268 0.73254841566085815
0.091484397649765015 0.0081527410075068474 0.73395544290542603
0.26430818438529968 0.015147938393056393 0.72749567031860352
0.46007037162780762 0.022916337475180626 0.71847701072692871
0.67497885227203369 0.02307555265724659 0.71499001979827881
0.90148639678955078 0.018657878041267395 0.69957637786865234
1 0.018430940806865692 0.66694444417953491
0 0.14413438737392426 0.75472235679626465
0.10842033475637436 0.14993438124656677 0.75604230165481567
0.28318732976913452 0.15395170450210571 0.75056219100952148
0.48119157552719116 0.15201495587825775 0.74403619766235352
0.69645476341247559 0.13973018527030945 0.73676055669784546
0.92355340719223022 0.12453969568014145 0.71984755992889404
1 0.12417023628950119 0.68697822093963623
0.00036028694012202322 0.30921754240989685 0.76402997970581055
0.11953411996364594 0.31430569291114807 0.76544666290283203
0.2941582202911377 0.313120037317276 0.76201140880584717
0.49357643723487854 0.30466872453689575 0.75802004337310791
0.71085089445114136 0.28984513878822327 0.75319856405258179
0.93670189380645752 0.27426356077194214 0.73284661769866943
1 0.26783278584480286 0.69899731874465942
0.0017919203964993358 0.47697454690933228 0.76190418004989624
0.12403706461191177 0.48149964213371277 0.76746100187301636
0.29589059948921204 0.48029622435569763 0.76527440547943115
0.49627646803855896 0.47251519560813904 0.76028060913085938
0.71689987182617188 0.45967796444892883 0.75796246528625488
0.9415966272354126 0.44600081443786621 0.73998814821243286
1 0.43417531251907349 0.70771586894989014
0.0046195685863494873 0.64772337675094604 0.7594185471534729
0.12728507816791534 0.65220218896865845 0.76540052890777588
0.29663541913032532 0.65146899223327637 0.76483583450317383
0.49602204561233521 0.64416390657424927 0.75731521844863892
0.71426969766616821 0.63165068626403809 0.75020533800125122
0.93947184085845947 0.61736929416656494 0.73326820135116577
1 0.60398644208908081 0.70920681953430176
0.014091910794377327 0.82067358493804932 0.76078176498413086
0.13784730434417725 0.82544827461242676 0.76495319604873657
0.298198401927948 0.82483303546905518 0.76224148273468018
0.49348694086074829 0.81703782081604004 0.75264996290206909
0.7057996392250061 0.80326491594314575 0.74039649963378906
0.92615443468093872 0.78739118576049805 0.72344356775283813
1 0.77363443374633789 0.70538991689682007
0.026461537927389145 0.98583805561065674 0.75416666269302368
0.14758720993995667 0.98813992738723755 0.75803989171981812
0.29531711339950562 0.98780107498168945 0.75626957416534424
0.48615455627441406 0.98315578699111938 0.7493930459022522
0.70220589637756348 0.97402405738830566 0.73467308282852173
0.93219321966171265 0.95963960886001587 0.71835428476333618
1 0.94629484415054321 0.7007717490196228
0 0.0026148178149014711 0.90944808721542358
0.08604392409324646 0.0056436574086546898 0.91166484355926514
0.26353394985198975 0.01321233157068491 0.90453487634658813
0.45976155996322632 0.021322796121239662 0.89930915832519531
0.67277711629867554 0.021982021629810333 0.90095943212509155
0.89821320772171021 0.018226772546768188 0.88172036409378052
1 0.018103325739502907 0.83127093315124512
0 0.14055430889129639 0.93407320976257324
0.10595245659351349 0.14740677177906036 0.93493366241455078
0.28206577897071838 0.1538638174533844 0.9241449236869812
0.47980433702468872 0.15323252975940704 0.91831040382385254
0.69656556844711304 0.14064885675907135 0.91988527774810791
0.92569774389266968 0.11918861418962479 0.89776933193206787
1 0.12017098069190979 0.84603166580200195
0 0.30758312344551086 0.94772005081176758
0.1215054988861084 0.31407135725021362 0.94811815023422241
0.29441234469413757 0.31328430771827698 0.93052506446838379
0.49183031916618347 0.30637979507446289 0.92129111289978027
0.70947861671447754 0.29200837016105652 0.93334591388702393
0.93660348653793335 0.2726251482963562 0.91125845909118652
1 0.26410692930221558 0.85734289884567261
0.00094191607786342502 0.47429850697517395 0.94892293214797974
0.12360141426324844 0.4790911078453064 0.95128953456878662
0.29627880454063416 0.47909697890281677 0.92939019203186035
0.4944852888584137 0.47250896692276001 0.9124147891998291
0.71246421337127686 0.46039944887161255 0.92631906270980835
0.93716025352478027 0.44559141993522644 0.91967469453811646
1 0.43257728219032288 0.87382447719573975
0.0022559671197086573 0.64445453882217407 0.94150590896606445
0.12271613627672195 0.64908301830291748 0.94459646940231323
0.29534259438514709 0.64873439073562622 0.93252813816070557
0.49441680312156677 0.64188516139984131 0.91795819997787476
0.71103942394256592 0.6296999454498291 0.92414402961730957
0.93985390663146973 0.61574780941009521 0.91780394315719604
1 0.60264497995376587 0.88455939292907715
0.0090826144441962242 0.81727868318557739 0.93356019258499146
0.13209083676338196 0.82163214683532715 0.93874442577362061
0.29505351185798645 0.82051235437393188 0.93936723470687866
0.49204954504966736 0.81223982572555542 0.93240618705749512
0.70681571960449219 0.79966253042221069 0.92101621627807617
0.93804240226745605 0.78504884243011475 0.91034644842147827
1 0.77175748348236084 0.89033275842666626
0.019085170701146126 0.98394584655761719 0.9205859899520874
0.14073877036571503 0.98621636629104614 0.92669486999511719
0.28975740075111389 0.98555070161819458 0.93036067485809326
0.48501482605934143 0.98041290044784546 0.92805749177932739
0.6993032693862915 0.97155666351318359 0.9151490330696106
0.92520374059677124 0.95951634645462036 0.90215504169464111
0.9973452091217041 0.94301789999008179 0.88928020000457764
0 0.0019958496559411287 1
0.08555959165096283 0.0042950198985636234 1
0.26641982793807983 0.010530614294111729 1
0.46344888210296631 0.017175262793898582 1
0.67425477504730225 0.020036764442920685 1
0.89621067047119141 0.019775599241256714 0.99940478801727295
1 0.019023176282644272 0.96650868654251099
0 0.13724806904792786 1
0.10555025190114975 0.14398275315761566 1
0.28469380736351013 0.15036709606647491 1
0.48275905847549438 0.15180806815624237 1
0.69861376285552979 0.14230293035507202 1
0.92459481954574585 0.12647312879562378 0.99853944778442383
1 0.12551027536392212 0.96725624799728394
0 0.30378508567810059 1
0.12237808853387833 0.30944344401359558 1
0.29808929562568665 0.31027179956436157 1
0.49474579095840454 0.30560997128486633 1
0.71045905351638794 0.29214504361152649 1
0.93457555770874023 0.27080526947975159 0.9995388388633728
1 0.26443153619766235 0.97622430324554443
0.00072021485539153218 0.47087359428405762 1
0.12853236496448517 0.47496360540390015 1
0.30254027247428894 0.47556588053703308 1
0.49786525964736938 0.47058320045471191 0.99894630908966064
0.71113854646682739 0.45853185653686523 0.99938756227493286
0.92937463521957397 0.44130539894104004 1
1 0.43012091517448425 0.99333137273788452
0.0021599265746772289 0.64049059152603149 1
0.13106080889701843 0.64375597238540649 1
0.30249670147895813 0.64362573623657227 1
0.49775809049606323 0.63802295923233032 1
0.71124601364135742 0.62665760517120361 1
0.92884761095046997 0.61270773410797119 1
1 0.60083836317062378 0.99918866157531738
0.0057012070901691914 0.81296360492706299 1
0.1367923766374588 0.81565409898757935 1
0.30299609899520874 0.81414979696273804 1
0.49562233686447144 0.80720633268356323 1
0.70792365074157715 0.79672074317932129 1
0.93305784463882446 0.78490579128265381 1
1 0.7714468240737915 1
0.01010576169937849 0.98153907060623169 1
0.14298403263092041 0.98284924030303955 1
0.3031957745552063 0.98147445917129517 1
0.49214610457420349 0.97656434774398804 1
0.69986504316329956 0.96862143278121948 1
0.92840540409088135 0.9570348858833313 0.99892336130142212
1 0.94203537702560425 1
