assets/lut/alexjordan cross process cp 04.cube
# Created by: G'MIC (https://gmic.eu)
TITLE "cross_process_cp_4"
# LUT size
LUT_3D_SIZE 7
# Data domain
DOMAIN_MIN 0.0 0.0 0.0
DOMAIN_MAX 1.0 1.0 1.0
# LUT data points
0.011088981293141842 0.016061505302786827 0.014895630069077015
0.039850827306509018 0.043880537152290344 0.044023431837558746
0.074952460825443268 0.073747433722019196 0.075519278645515442
0.10553410649299622 0.1050235703587532 0.10445813834667206
0.17471501231193542 0.12678170204162598 0.12345089018344879
0.35771992802619934 0.1287028044462204 0.12801654636859894
0.63844060897827148 0.099006295204162598 0.11738932132720947
0.11588863283395767 0.11478964239358902 0.11602829396724701
0.13861528038978577 0.15358228981494904 0.14290605485439301
0.18072734773159027 0.19258271157741547 0.15783001482486725
0.31944403052330017 0.21242406964302063 0.14844745397567749
0.56669718027114868 0.19808225333690643 0.12926720082759857
0.79207944869995117 0.19028493762016296 0.13918574154376984
0.97708672285079956 0.1895354837179184 0.15480321645736694
0.10813391953706741 0.29250699281692505 0.17898328602313995
0.11163364350795746 0.35242268443107605 0.17222157120704651
0.25041007995605469 0.36971104145050049 0.16969406604766846
0.48831361532211304 0.36125117540359497 0.1662013977766037
0.73369467258453369 0.35106495022773743 0.152960404753685
0.92772948741912842 0.35099714994430542 0.15765440464019775
1 0.36109477281570435 0.16809158027172089
0.0031014387495815754 0.53468120098114014 0.15846820175647736
0.092043951153755188 0.56048184633255005 0.18078814446926117
0.27948454022407532 0.56098395586013794 0.19197769463062286
0.51441359519958496 0.55368614196777344 0.17633941769599915
0.75513219833374023 0.54341703653335571 0.16039472818374634
0.95553421974182129 0.54113954305648804 0.16039332747459412
0.99997079372406006 0.54909986257553101 0.16498972475528717
0 0.73363018035888672 0.16996078193187714
0.098597794771194458 0.7529715895652771 0.18876300752162933
0.28434285521507263 0.75350093841552734 0.19444599747657776
0.51547813415527344 0.73832911252975464 0.18164026737213135
0.7462620735168457 0.72176259756088257 0.16741812229156494
0.9281693696975708 0.71625053882598877 0.16433823108673096
1 0.71627527475357056 0.16646546125411987
0 0.91417568922042847 0.17746874690055847
0.099721170961856842 0.93071115016937256 0.19194291532039642
0.28377494215965271 0.92854046821594238 0.19571077823638916
0.50919663906097412 0.90489751100540161 0.18621581792831421
0.73289936780929565 0.87850677967071533 0.17227461934089661
0.90486091375350952 0.86943066120147705 0.16523009538650513
0.99982964992523193 0.86697399616241455 0.16488665342330933
0 1 0.17743389308452606
0.10635688900947571 1 0.19026605784893036
0.28895747661590576 1 0.19330967962741852
0.50123411417007446 1 0.18509463965892792
0.71157312393188477 0.99903762340545654 0.1723385751247406
0.87748879194259644 0.99684697389602661 0.16442574560642242
0.99384826421737671 0.99543732404708862 0.16115681827068329
0.026788823306560516 0.028098447248339653 0.027265870943665504
0.05254758894443512 0.054951969534158707 0.054241463541984558
0.084521286189556122 0.08328719437122345 0.084059186279773712
0.1177559494972229 0.11376728862524033 0.11367416381835938
0.21620906889438629 0.13151726126670837 0.14363409578800201
0.43350446224212646 0.11947575211524963 0.17087577283382416
0.7058759331703186 0.090206936001777649 0.19387727975845337
0.1229642853140831 0.12659816443920135 0.12605780363082886
0.14627110958099365 0.16691619157791138 0.16151830554008484
0.19432079792022705 0.20866049826145172 0.19416831433773041
0.35345473885536194 0.21588972210884094 0.21382023394107819
0.60167360305786133 0.20004697144031525 0.22846277058124542
0.8406873345375061 0.18572093546390533 0.24568942189216614
0.98973727226257324 0.19003939628601074 0.26571127772331238
0.086790271103382111 0.31466957926750183 0.22962005436420441
0.114226333796978 0.3626093864440918 0.26002070307731628
0.26190999150276184 0.37580987811088562 0.28203460574150085
0.49761134386062622 0.36569055914878845 0.28583410382270813
0.74400454759597778 0.35519692301750183 0.27871027588844299
0.94709646701812744 0.35340797901153564 0.28046056628227234
1 0.35852733254432678 0.29074987769126892
0.00085766363190487027 0.5419384241104126 0.27844080328941345
0.090076357126235962 0.56763207912445068 0.3045879602432251
0.27806282043457031 0.57097792625427246 0.3122890293598175
0.51909035444259644 0.56140398979187012 0.29792678356170654
0.75889879465103149 0.55006521940231323 0.28244450688362122
0.95288664102554321 0.54677116870880127 0.28124630451202393
1 0.54796731472015381 0.28990346193313599
0 0.74183577299118042 0.29670068621635437
0.093080349266529083 0.76346218585968018 0.31187736988067627
0.2829166054725647 0.76329022645950317 0.31209295988082886
0.52057540416717529 0.74618685245513916 0.29828029870986938
0.75206887722015381 0.72998785972595215 0.28462812304496765
0.9352450966835022 0.72512096166610718 0.28328976035118103
1 0.72211724519729614 0.28792327642440796
0 0.92424076795578003 0.30141344666481018
0.09841214120388031 0.94029730558395386 0.31189700961112976
0.28792491555213928 0.93462538719177246 0.31172826886177063
0.51718783378601074 0.91093212366104126 0.30016657710075378
0.7395327091217041 0.88833904266357422 0.2863650918006897
0.91521918773651123 0.87989479303359985 0.28165179491043091
1 0.87555485963821411 0.28357967734336853
0 1 0.29969480633735657
0.1103283017873764 1 0.30953308939933777
0.29541906714439392 1 0.30918598175048828
0.50890982151031494 1 0.2988642156124115
0.71756976842880249 1 0.28590866923332214
0.88840526342391968 0.99889200925827026 0.27865749597549438
0.99913650751113892 0.99786233901977539 0.2761167585849762
0.03971182182431221 0.0335984006524086 0.034410916268825531
0.062398441135883331 0.063516683876514435 0.063103422522544861
0.092611066997051239 0.090639553964138031 0.089390777051448822
0.13727785646915436 0.12275552004575729 0.12931463122367859
0.25614821910858154 0.13521897792816162 0.17946328222751617
0.48761513829231262 0.116067074239254 0.23491440713405609
0.74582785367965698 0.089712552726268768 0.28247800469398499
0.12786346673965454 0.14213249087333679 0.14408087730407715
0.14516361057758331 0.18581555783748627 0.19515739381313324
0.19959889352321625 0.21906599402427673 0.25650891661643982
0.38048437237739563 0.21759665012359619 0.30273893475532532
0.62078857421875 0.20338210463523865 0.33607602119445801
0.86294007301330566 0.18715912103652954 0.36110153794288635
0.99772769212722778 0.18942831456661224 0.37967559695243835
0.067677684128284454 0.33412298560142517 0.30861720442771912
0.11366988718509674 0.37355032563209534 0.36633032560348511
0.26470044255256653 0.38369691371917725 0.40058043599128723
0.50957310199737549 0.37153834104537964 0.40749439597129822
0.75713944435119629 0.36044269800186157 0.40543985366821289
0.9561724066734314 0.35977131128311157 0.40519982576370239
1 0.36161762475967407 0.41384565830230713
0.00038057216443121433 0.54955399036407471 0.40149140357971191
0.090515807271003723 0.57483154535293579 0.43186891078948975
0.27858445048332214 0.57974529266357422 0.4337289035320282
0.52715575695037842 0.56664431095123291 0.42077881097793579
0.76786243915557861 0.55460071563720703 0.40942022204399109
0.95738422870635986 0.55167311429977417 0.40668323636054993
1 0.54923480749130249 0.41507107019424438
0 0.74795281887054443 0.42412814497947693
0.092938393354415894 0.76849156618118286 0.43539959192276001
0.28353524208068848 0.76759666204452515 0.43312287330627441
0.52373033761978149 0.74972450733184814 0.41919660568237305
0.7559199333190918 0.73366600275039673 0.40617191791534424
0.94028788805007935 0.72716218233108521 0.40410450100898743
1 0.72251111268997192 0.40922856330871582
0 0.92794156074523926 0.42696353793144226
0.10312676429748535 0.94148123264312744 0.43480837345123291
0.29097595810890198 0.93376994132995605 0.43254482746124268
0.51820987462997437 0.91157776117324829 0.41854360699653625
0.7391090989112854 0.89197593927383423 0.40328085422515869
0.91731280088424683 0.88323324918746948 0.39798691868782043
1 0.87755012512207031 0.39992585778236389
0 1 0.42202854156494141
0.11685764044523239 1 0.42920523881912231
0.30047786235809326 1 0.42612120509147644
0.51108217239379883 1 0.4136955738067627
0.71663278341293335 1 0.39896032214164734
0.88892257213592529 0.99952894449234009 0.39110997319221497
0.99955195188522339 0.99838006496429443 0.38974651694297791
0.042535249143838882 0.040413830429315567 0.042609062045812607
0.073576875030994415 0.073674954473972321 0.072994723916053772
0.10437358915805817 0.1052292138338089 0.10437719523906708
0.1578218936920166 0.13169673085212708 0.15537096560001373
0.30857476592063904 0.13211855292320251 0.23481802642345428
0.554973304271698 0.10721293091773987 0.31670203804969788
0.7909780740737915 0.087996132671833038 0.38283571600914001
0.13559077680110931 0.1569816917181015 0.16758914291858673
0.14474847912788391 0.20096668601036072 0.24095895886421204
0.21281695365905762 0.22543652355670929 0.33776754140853882
0.40598884224891663 0.21857196092605591 0.40812689065933228
0.656105637550354 0.20005154609680176 0.45765697956085205
0.884685218334198 0.18801620602607727 0.48396608233451843
0.99969106912612915 0.19268368184566498 0.50325196981430054
0.059305228292942047 0.34755659103393555 0.40339508652687073
0.10775777697563171 0.38237902522087097 0.48669421672821045
0.26812475919723511 0.39096873998641968 0.5266912579536438
0.51798421144485474 0.37671896815299988 0.53285300731658936
0.76769649982452393 0.36444857716560364 0.53609353303909302
0.95992612838745117 0.36573678255081177 0.53470253944396973
1 0.36597162485122681 0.54151338338851929
0.0015698152128607035 0.55570077896118164 0.52982383966445923
0.09881998598575592 0.58014613389968872 0.55461597442626953
0.28534486889839172 0.58469933271408081 0.55809164047241211
0.53367078304290771 0.57099366188049316 0.54565882682800293
0.77344381809234619 0.5586513876914978 0.53697997331619263
0.95833426713943481 0.55672043561935425 0.53302818536758423
1 0.55272358655929565 0.53964173793792725
0.0001179414612124674 0.75097811222076416 0.55009239912033081
0.10321719944477081 0.77056431770324707 0.55606210231781006
0.28838628530502319 0.76941609382629395 0.55549699068069458
0.52601492404937744 0.75201290845870972 0.54113256931304932
0.75788450241088867 0.73570150136947632 0.52705997228622437
0.94175541400909424 0.72903680801391602 0.52300047874450684
1 0.72374248504638672 0.52818399667739868
0.00040947410161606967 0.92867195606231689 0.55006581544876099
0.11214740574359894 0.9400373101234436 0.55528455972671509
0.29488953948020935 0.93210643529891968 0.55196928977966309
0.51849138736724854 0.90980124473571777 0.53549909591674805
0.73875385522842407 0.88994479179382324 0.51784604787826538
0.91647088527679443 0.88173240423202515 0.51125973463058472
1 0.87722575664520264 0.51380938291549683
0.0015476002590730786 1 0.54175823926925659
0.12512414157390594 1 0.5466313362121582
0.30521076917648315 1 0.54102820158004761
0.51325529813766479 1 0.52558225393295288
0.71701109409332275 1 0.50894981622695923
0.88651227951049805 0.99911552667617798 0.50082719326019287
0.999103844165802 0.99820035696029663 0.50031083822250366
0.049175485968589783 0.052497893571853638 0.055697526782751083
0.086936801671981812 0.086210392415523529 0.083121433854103088
0.11827807128429413 0.11679007112979889 0.12233756482601166
0.18688797950744629 0.13722343742847443 0.19902040064334869
0.35818415880203247 0.12952446937561035 0.30579349398612976
0.62625056505203247 0.09596620500087738 0.41911673545837402
0.85196596384048462 0.081356316804885864 0.49933364987373352
0.13166524469852448 0.17170697450637817 0.20546999573707581
0.14416876435279846 0.21168993413448334 0.30690166354179382
0.2287396639585495 0.23201076686382294 0.43267852067947388
0.43317785859107971 0.22044399380683899 0.52748787403106689
0.68732476234436035 0.2002054899930954 0.58111190795898438
0.90853577852249146 0.19184017181396484 0.60992705821990967
0.99999713897705078 0.19651782512664795 0.63487130403518677
0.047015588730573654 0.35853192210197449 0.51999717950820923
0.10623973608016968 0.39095136523246765 0.60787802934646606
0.27760529518127441 0.39708599448204041 0.65155470371246338
0.52611970901489258 0.38298943638801575 0.66026848554611206
0.77738302946090698 0.36988753080368042 0.66114449501037598
0.96761184930801392 0.36873236298561096 0.66335147619247437
1 0.37110325694084167 0.67026859521865845
0.0039451899938285351 0.56301259994506836 0.66067558526992798
0.10727521032094955 0.58779770135879517 0.67850655317306519
0.29176989197731018 0.59186458587646484 0.68340355157852173
0.53789788484573364 0.57686084508895874 0.67338705062866211
0.77786022424697876 0.56368887424468994 0.66034495830535889
0.9578249454498291 0.55941373109817505 0.65698915719985962
1 0.55666029453277588 0.66261392831802368
0.00352629111148417 0.75497621297836304 0.67494183778762817
0.11150407791137695 0.77492928504943848 0.68277972936630249
0.29118585586547852 0.77407634258270264 0.68197494745254517
0.52949917316436768 0.75533419847488403 0.66279065608978271
0.76182889938354492 0.73824352025985718 0.64530837535858154
0.94189614057540894 0.7308695912361145 0.63981223106384277
1 0.72628670930862427 0.64472132921218872
0.0047777513973414898 0.92939227819442749 0.66903030872344971
0.12180516868829727 0.94070965051651001 0.67423981428146362
0.29905137419700623 0.93323874473571777 0.66869467496871948
0.52254164218902588 0.90871095657348633 0.64894759654998779
0.74307435750961304 0.88635027408599854 0.62944674491882324
0.91639113426208496 0.87948256731033325 0.62248867750167847
1 0.87650752067565918 0.62511366605758667
0.005198759026825428 1 0.65728819370269775
0.13277201354503632 1 0.66077709197998047
0.30897390842437744 1 0.65272349119186401
0.51691216230392456 1 0.63440585136413574
0.72075140476226807 0.99929541349411011 0.61628842353820801
0.88440179824829102 0.99811941385269165 0.60856926441192627
0.99710440635681152 0.99768441915512085 0.60873866081237793
0.058821912854909897 0.059399489313364029 0.059390708804130554
0.095625005662441254 0.094438381493091583 0.0956154465675354
0.1289040744304657 0.12815548479557037 0.15032115578651428
0.21621957421302795 0.14288429915904999 0.25877514481544495
0.42820227146148682 0.11862172186374664 0.41043776273727417
0.66796815395355225 0.093375220894813538 0.52300870418548584
0.87697285413742065 0.076502300798892975 0.61169886589050293
0.12975038588047028 0.18671828508377075 0.25472673773765564
0.13989777863025665 0.22485823929309845 0.40022632479667664
0.23649100959300995 0.23581206798553467 0.54851865768432617
0.44629505276679993 0.22403091192245483 0.64665669202804565
0.71253365278244019 0.20463241636753082 0.70347303152084351
0.92808991670608521 0.19822405278682709 0.73376321792602539
1 0.20202811062335968 0.76220691204071045
0.017560606822371483 0.3732357919216156 0.66403710842132568
0.1020418182015419 0.39846819639205933 0.75060439109802246
0.29255202412605286 0.40035384893417358 0.77515113353729248
0.53237223625183105 0.38962313532829285 0.78672188520431519
0.78460156917572021 0.3793787956237793 0.77943843603134155
0.96684843301773071 0.37587672472000122 0.78397643566131592
1 0.38139700889587402 0.79018706083297729
0.0037785698659718037 0.57069021463394165 0.78551757335662842
0.11526781320571899 0.59223908185958862 0.80794757604598999
0.30325803160667419 0.59405976533889771 0.8143240213394165
0.54344552755355835 0.5823974609375 0.79784697294235229
0.78156453371047974 0.57091879844665527 0.77825099229812622
0.95162087678909302 0.5656161904335022 0.77427607774734497
1 0.56307768821716309 0.77923756837844849
0.01177139300853014 0.76003634929656982 0.79310059547424316
0.12467678636312485 0.77799862623214722 0.80366849899291992
0.3012441098690033 0.77696830034255981 0.80434322357177734
0.53524374961853027 0.75956577062606812 0.78350412845611572
0.76562988758087158 0.74298334121704102 0.76239383220672607
0.93879097700119019 0.73461174964904785 0.75418180227279663
1 0.7298811674118042 0.75752776861190796
0.013779898174107075 0.93130171298980713 0.78378188610076904
0.12939317524433136 0.94400972127914429 0.79092556238174438
0.30177825689315796 0.93636786937713623 0.7853274941444397
0.5262836217880249 0.91156435012817383 0.76361638307571411
0.746040940284729 0.88875323534011841 0.74210304021835327
0.91774189472198486 0.87890660762786865 0.73300445079803467
1 0.87660437822341919 0.73430895805358887
0.0089671565219759941 1 0.76956069469451904
0.13474053144454956 1 0.77401459217071533
0.3082844614982605 1 0.76457637548446655
0.51736515760421753 1 0.74436032772064209
0.72157913446426392 0.99935030937194824 0.72566848993301392
0.8863949179649353 0.99715644121170044 0.71733540296554565
0.99573850631713867 0.99526011943817139 0.71683835983276367
0.069382563233375549 0.072487741708755493 0.072092778980731964
0.10696927458047867 0.1080470085144043 0.11348589509725571
0.14472182095050812 0.13565145432949066 0.18812762200832367
0.24670077860355377 0.14237099885940552 0.34234139323234558
0.46469643712043762 0.11887337267398834 0.50161397457122803
0.70918995141983032 0.090789631009101868 0.63061463832855225
0.89482325315475464 0.07299535721540451 0.71835756301879883
0.12503775954246521 0.20083475112915039 0.32406449317932129
0.13632659614086151 0.2342907041311264 0.51232641935348511
0.24366717040538788 0.24079753458499908 0.68066287040710449
0.46626079082489014 0.22415348887443542 0.7920229434967041
0.71940141916275024 0.21264311671257019 0.8257448673248291
0.93359249830245972 0.20488655567169189 0.85895222425460815
1 0.20403185486793518 0.8857041597366333
0.01387685164809227 0.37836551666259766 0.79049646854400635
0.10905600339174271 0.4028039276599884 0.88103944063186646
0.297477126121521 0.40339350700378418 0.9232068657875061
0.54111915826797485 0.3929038941860199 0.92644751071929932
0.79305374622344971 0.38525360822677612 0.91056555509567261
0.9687039852142334 0.38214153051376343 0.90627199411392212
1 0.38461825251579285 0.90934997797012329
0.0062086367979645729 0.57402610778808594 0.89713340997695923
0.12665213644504547 0.59384447336196899 0.92658019065856934
0.31692534685134888 0.59341418743133545 0.94324064254760742
0.55100458860397339 0.5833016037940979 0.92683976888656616
0.78642719984054565 0.57379841804504395 0.90213096141815186
0.95346897840499878 0.56833052635192871 0.89261317253112793
1 0.56420600414276123 0.89405739307403564
0.019206058233976364 0.76348084211349487 0.90747290849685669
0.13734687864780426 0.77771461009979248 0.92212581634521484
0.31544998288154602 0.77446949481964111 0.92434370517730713
0.5424303412437439 0.75951480865478516 0.90557456016540527
0.76680892705917358 0.74449002742767334 0.88320577144622803
0.93377822637557983 0.73482412099838257 0.87002825736999512
1 0.73061579465866089 0.86937147378921509
0.016134614124894142 0.93372052907943726 0.89801448583602905
0.1308508962392807 0.94587928056716919 0.90816783905029297
0.30567300319671631 0.93657296895980835 0.90118128061294556
0.52881580591201782 0.9122999906539917 0.87974900007247925
0.74315327405929565 0.89045101404190063 0.85715341567993164
0.91580843925476074 0.87958812713623047 0.84497994184494019
0.99877047538757324 0.88030862808227539 0.84298247098922729
0.0095968209207057953 1 0.87686651945114136
0.13353237509727478 1 0.88531464338302612
0.30679658055305481 1 0.87621241807937622
0.51575696468353271 1 0.85545694828033447
0.71704244613647461 0.99960935115814209 0.83711957931518555
0.88369816541671753 0.99599993228912354 0.82794946432113647
0.99275100231170654 0.99201023578643799 0.82504814863204956
