assets/lut/alexjordan harsh day.cube
# Created by: G'MIC (https://gmic.eu)
TITLE "harsh_day"
# LUT size
LUT_3D_SIZE 5
# Data domain
DOMAIN_MIN 0.0 0.0 0.0
DOMAIN_MAX 1.0 1.0 1.0
# LUT data points
0.0070012412033975124 0.0047255121171474457 0.0056978710927069187
0.026208106428384781 0.0022671569604426622 0.0027873767539858818
0.073205314576625824 0.00073529413202777505 0.00040624281973578036
0.15086574852466583 0.00074175663758069277 0.00020554487127810717
0.25567144155502319 0.007579803466796875 0.0070617226883769035
0.011140023358166218 0.05844898521900177 0.0076569500379264355
0.080795228481292725 0.069526717066764832 0.0069852941669523716
0.17270189523696899 0.081452883780002594 0.0045955884270370007
0.294939786195755 0.088159598410129547 0.0041261413134634495
0.44768372178077698 0.09581834077835083 0.0091555574908852577
0.012134253047406673 0.18360826373100281 0.0087597565725445747
0.12792840600013733 0.20847481489181519 0.006536431610584259
0.27019059658050537 0.23607657849788666 0.006359743420034647
0.44120031595230103 0.25415793061256409 0.0070929136127233505
0.63621038198471069 0.27509850263595581 0.013116545043885708
0.025099631398916245 0.40205559134483337 0.017656693235039711
0.17637476325035095 0.43725234270095825 0.0089271245524287224
0.36505034565925598 0.47731468081474304 0.0091709811240434647
0.58612149953842163 0.50552457571029663 0.012316176667809486
0.82253408432006836 0.53315544128417969 0.015730749815702438
0.066945306956768036 0.70857131481170654 0.041568007320165634
0.24391333758831024 0.7451285719871521 0.022468551993370056
0.46908089518547058 0.78967589139938354 0.017334192991256714
0.73027491569519043 0.82885837554931641 0.017489908263087273
0.98595333099365234 0.87346822023391724 0.019309263676404953
0.00043658088543452322 0.00073529413202777505 0.014162056148052216
0.029956294223666191 0.00074983487138524652 0.019552642479538918
0.087633170187473297 0.0020680148154497147 0.028076456859707832
0.17508836090564728 0.0023513494525104761 0.035504687577486038
0.28850534558296204 0.0087395757436752319 0.049940716475248337
0.011397656984627247 0.063589267432689667 0.048387713730335236
0.086016573011875153 0.073218569159507751 0.054628275334835052
0.18665324151515961 0.0869583860039711 0.064861610531806946
0.31595697999000549 0.097390271723270416 0.070384398102760315
0.46970370411872864 0.11120970547199249 0.083568930625915527
0.011654483154416084 0.19865930080413818 0.08193652331829071
0.1328243613243103 0.2217576652765274 0.088523164391517639
0.28491345047950745 0.24623507261276245 0.098746761679649353
0.46150627732276917 0.26790770888328552 0.1043451800942421
0.66002905368804932 0.28883475065231323 0.11635935306549072
0.016234319657087326 0.42173939943313599 0.11880560219287872
0.18114039301872253 0.45484086871147156 0.12130490690469742
0.38234713673591614 0.49395889043807983 0.13108813762664795
0.60861128568649292 0.52580922842025757 0.13920462131500244
0.84751743078231812 0.55609685182571411 0.14739081263542175
0.048102747648954391 0.72530215978622437 0.16508553922176361
0.24586324393749237 0.76579898595809937 0.16262184083461761
0.4858950674533844 0.81462728977203369 0.16779869794845581
0.75025826692581177 0.8564378023147583 0.17295283079147339
0.99467331171035767 0.89928460121154785 0.18153998255729675
0.0019736795220524073 0.00073529413202777505 0.02940744161605835
0.039840098470449448 0.0022671569604426622 0.047146517783403397
0.09978339821100235 0.0032976637594401836 0.064562417566776276
0.19047363102436066 0.0029410568531602621 0.083106860518455505
0.31074947118759155 0.011872115544974804 0.10413148254156113
0.015169271267950535 0.068220771849155426 0.096849523484706879
0.093823798000812531 0.081634148955345154 0.11510801315307617
0.19888480007648468 0.092972606420516968 0.13389292359352112
0.33329093456268311 0.10507016628980637 0.14909492433071136
0.49199694395065308 0.12368565052747726 0.16794602572917938
0.013641851022839546 0.21428658068180084 0.16367152333259583
0.1429809033870697 0.23705144226551056 0.17993369698524475
0.30037963390350342 0.25971832871437073 0.1990303099155426
0.48300036787986755 0.28216263651847839 0.21387834846973419
0.68706357479095459 0.3051859438419342 0.23186860978603363
0.015642488375306129 0.44685432314872742 0.23298205435276031
0.19408440589904785 0.47537192702293396 0.24724087119102478
0.40379071235656738 0.5118175745010376 0.26476475596427917
0.63313931226730347 0.54549282789230347 0.27946826815605164
0.87979257106781006 0.57481962442398071 0.29572778940200806
0.038526002317667007 0.75201505422592163 0.30621424317359924
0.2550712525844574 0.7915840744972229 0.31886285543441772
0.50723457336425781 0.84007853269577026 0.33465865254402161
0.77642929553985596 0.88338404893875122 0.34708982706069946
0.99963897466659546 0.92440247535705566 0.36148059368133545
0.0033842497505247593 0.00073529413202777505 0.051496230065822601
0.045469723641872406 0.0022671569604426622 0.081581994891166687
0.10754112154245377 0.0020967968739569187 0.10933435708284378
0.20108021795749664 0.0014359867200255394 0.13548398017883301
0.32875135540962219 0.0092605743557214737 0.16448932886123657
0.015908515080809593 0.0744185671210289 0.15301936864852905
0.098629415035247803 0.089218661189079285 0.18172226846218109
0.20715019106864929 0.099797271192073822 0.2081751823425293
0.34655547142028809 0.10723992437124252 0.23243345320224762
0.51404529809951782 0.12573827803134918 0.26007828116416931
0.019015727564692497 0.22859987616539001 0.25374388694763184
0.15423831343650818 0.25294792652130127 0.27862733602523804
0.31322291493415833 0.27247852087020874 0.30648910999298096
0.49828809499740601 0.29308447241783142 0.32953694462776184
0.71072053909301758 0.31717798113822937 0.35670676827430725
0.019493058323860168 0.46556159853935242 0.35782679915428162
0.2055383175611496 0.49573418498039246 0.38077434897422791
0.41755300760269165 0.52798014879226685 0.40600383281707764
0.64617764949798584 0.56099212169647217 0.42861151695251465
0.90423917770385742 0.59432804584503174 0.45250231027603149
0.040036730468273163 0.77175086736679077 0.46146479249000549
0.26406514644622803 0.81647944450378418 0.48331296443939209
0.52162164449691772 0.86375528573989868 0.50686138868331909
0.79802268743515015 0.90693205595016479 0.52939498424530029
1 0.94758838415145874 0.54954415559768677
0.0099652009084820747 0.0080381808802485466 0.08917776495218277
0.053807619959115982 0.0078357169404625893 0.12611499428749084
0.12355203181505203 0.004388472530990839 0.16649015247821808
0.22457268834114075 0.0023021623492240906 0.20243178308010101
0.35672679543495178 0.012914021499454975 0.23697593808174133
0.019684959203004837 0.088404320180416107 0.22030696272850037
0.10624614357948303 0.096438281238079071 0.25637325644493103
0.22304277122020721 0.11045363545417786 0.29042622447013855
0.37062624096870422 0.11493935436010361 0.32579925656318665
0.54616260528564453 0.13381052017211914 0.36293837428092957
0.028654614463448524 0.24084460735321045 0.35123306512832642
0.16665560007095337 0.26559287309646606 0.3842417299747467
0.32953804731369019 0.28966370224952698 0.41890791058540344
0.52199608087539673 0.30948051810264587 0.45224109292030334
0.73923557996749878 0.3361470103263855 0.4877135157585144
0.029852848500013351 0.48840665817260742 0.48586076498031616
0.21871660649776459 0.51604962348937988 0.51746678352355957
0.43275037407875061 0.54909974336624146 0.55096256732940674
0.67049062252044678 0.5841251015663147 0.57943713665008545
0.9265977144241333 0.6196485161781311 0.61053478717803955
0.049815621227025986 0.79811471700668335 0.61514186859130859
0.27942296862602234 0.84255623817443848 0.6434217095375061
0.53881824016571045 0.88915419578552246 0.67499583959579468
0.81709808111190796 0.93281316757202148 0.70925503969192505
1 0.97043603658676147 0.73734474182128906
