assets/lut/alexjordan subtle green.cube
# Created by: G'MIC (https://gmic.eu)
TITLE "subtle_green"
# LUT size
LUT_3D_SIZE 13
# Data domain
DOMAIN_MIN 0.0 0.0 0.0
DOMAIN_MAX 1.0 1.0 1.0
# LUT data points
0.017282867804169655 0.019645152613520622 0.024916375055909157
0.024806452915072441 0.025209793820977211 0.026304701343178749
0.033777859061956406 0.029939403757452965 0.029394486919045448
0.044821988791227341 0.033304762095212936 0.034169979393482208
0.057123716920614243 0.036478947848081589 0.038973670452833176
0.071784466505050659 0.040062505751848221 0.042568504810333252
0.090488433837890625 0.044046394526958466 0.045030243694782257
0.11771368980407715 0.048328295350074768 0.048051483929157257
0.15658248960971832 0.052699580788612366 0.052155319601297379
0.20294088125228882 0.055551089346408844 0.054410297423601151
0.25588804483413696 0.056928746402263641 0.054981082677841187
0.31951668858528137 0.058457124978303909 0.056664068251848221
0.39722746610641479 0.063331827521324158 0.064156010746955872
0.029743943363428116 0.038863357156515121 0.034725591540336609
0.039122950285673141 0.043556615710258484 0.036873925477266312
0.051125962287187576 0.047338716685771942 0.040551219135522842
0.064921662211418152 0.051170617341995239 0.045212943106889725
0.080526091158390045 0.054957594722509384 0.050553970038890839
0.097626872360706329 0.058654338121414185 0.055379651486873627
0.11877702921628952 0.062173027545213699 0.058187119662761688
0.14844541251659393 0.064760930836200714 0.060667328536510468
0.18912401795387268 0.067072898149490356 0.064029708504676819
0.23705920577049255 0.068364128470420837 0.065589785575866699
0.28922340273857117 0.067500218749046326 0.064483359456062317
0.34805884957313538 0.065835215151309967 0.064083412289619446
0.42323154211044312 0.069918401539325714 0.069498367607593536
0.04013347253203392 0.063486166298389435 0.043078672140836716
0.052058186382055283 0.067427553236484528 0.046329978853464127
0.068955697119235992 0.071066148579120636 0.050342004746198654
0.089787743985652924 0.075366929173469543 0.053516775369644165
0.11367422342300415 0.079028859734535217 0.058667603880167007
0.13663375377655029 0.083695568144321442 0.065167807042598724
0.16263735294342041 0.088295087218284607 0.070352338254451752
0.19807776808738708 0.090767726302146912 0.07321515679359436
0.2426837831735611 0.09250970184803009 0.076395757496356964
0.29292100667953491 0.092819422483444214 0.077359892427921295
0.34741711616516113 0.091104902327060699 0.074438177049160004
0.40914931893348694 0.089649304747581482 0.071282617747783661
0.48408353328704834 0.093336157500743866 0.07525903731584549
0.046189699321985245 0.095917358994483948 0.047707337886095047
0.059220660477876663 0.10095819085836411 0.050399318337440491
0.080368474125862122 0.10668163001537323 0.052299231290817261
0.1105368509888649 0.11194055527448654 0.052054163068532944
0.14844720065593719 0.11325441300868988 0.05544159933924675
0.18497087061405182 0.11725460737943649 0.061475850641727448
0.22142109274864197 0.12188790738582611 0.068021006882190704
0.26343253254890442 0.1259281188249588 0.074464298784732819
0.31172263622283936 0.12862946093082428 0.08227992057800293
0.36518070101737976 0.13000841438770294 0.085727974772453308
0.4234444797039032 0.13027824461460114 0.082283690571784973
0.49047935009002686 0.13030286133289337 0.078569911420345306
0.56679892539978027 0.13430152833461761 0.082492083311080933
0.044637162238359451 0.13911376893520355 0.044509004801511765
0.057579968124628067 0.14685247838497162 0.044475436210632324
0.080843411386013031 0.15567737817764282 0.042664561420679092
0.11749868839979172 0.16242744028568268 0.039841402322053909
0.16613394021987915 0.16519033908843994 0.039735201746225357
0.2206895649433136 0.16648310422897339 0.042606249451637268
0.27853873372077942 0.16740542650222778 0.048912018537521362
0.33226224780082703 0.17085999250411987 0.059159357100725174
0.38698837161064148 0.17532549798488617 0.073448255658149719
0.44458356499671936 0.17924180626869202 0.083335325121879578
0.50325620174407959 0.18272556364536285 0.084831953048706055
0.57060450315475464 0.18464572727680206 0.087421983480453491
0.64515286684036255 0.18844841420650482 0.096741542220115662
0.033703252673149109 0.19689935445785522 0.031327340751886368
0.045177683234214783 0.20774804055690765 0.028220068663358688
0.07009723037481308 0.21882247924804688 0.025387033820152283
0.11109427362680435 0.22715814411640167 0.022809362038969994
0.16537858545780182 0.23192913830280304 0.021271679550409317
0.23282679915428162 0.23256585001945496 0.022356370463967323
0.31054538488388062 0.2304227203130722 0.026613662019371986
0.3838970959186554 0.23083341121673584 0.034900754690170288
0.45269334316253662 0.23389820754528046 0.049552962183952332
0.51724576950073242 0.23870401084423065 0.066761836409568787
0.58129531145095825 0.24385881423950195 0.080491460859775543
0.64938551187515259 0.24717614054679871 0.09400157630443573
0.72027206420898438 0.25176322460174561 0.11233659833669662
0.016297986730933189 0.27007362246513367 0.0105298962444067
0.026383329182863235 0.28259223699569702 0.0084684630855917931
0.052694912999868393 0.29493343830108643 0.0076182945631444454
0.098203815519809723 0.30394735932350159 0.0086450763046741486
0.15806283056735992 0.30973151326179504 0.010267489589750767
0.23073691129684448 0.31207960844039917 0.012123497202992439
0.31415265798568726 0.31143638491630554 0.014155877754092216
0.40577661991119385 0.30954238772392273 0.017261505126953125
0.49562516808509827 0.30908119678497314 0.027577942237257957
0.57669538259506226 0.31174468994140625 0.047844652086496353
0.65606850385665894 0.31492787599563599 0.069030940532684326
0.73605358600616455 0.31752306222915649 0.090456180274486542
0.81079697608947754 0.32345843315124512 0.11320158839225769
0.0038093866314738989 0.35296577215194702 0.00013904945808462799
0.012914769351482391 0.36669617891311646 0
0.039334136992692947 0.38078930974006653 0.0001465591776650399
0.086319342255592346 0.39105704426765442 0.0019492055289447308
0.14861354231834412 0.39806202054023743 0.0066908891312777996
0.22253893315792084 0.40251106023788452 0.011142476461827755
0.30810022354125977 0.40494930744171143 0.012658482417464256
0.40807166695594788 0.40397679805755615 0.012597865425050259
0.51282435655593872 0.40261739492416382 0.018502224236726761
0.61483019590377808 0.40249431133270264 0.03274168074131012
0.71846741437911987 0.40258097648620605 0.050132166594266891
0.82225871086120605 0.40249121189117432 0.071702294051647186
0.90798103809356689 0.40834334492683411 0.09581737220287323
0.00055580888874828815 0.44406187534332275 0
0.0086855869740247726 0.45925411581993103 0
0.033432994037866592 0.47527524828910828 0
0.077729545533657074 0.48826736211776733 0.00093335920246317983
0.13898313045501709 0.49738296866416931 0.0069810757413506508
0.21421937644481659 0.50365382432937622 0.013448557816445827
0.30297636985778809 0.50800246000289917 0.015112977474927902
0.40471762418746948 0.51071470975875854 0.012357988394796848
0.5156397819519043 0.51175546646118164 0.013616285286843777
0.63314497470855713 0.51156961917877197 0.020483324304223061
0.76056796312332153 0.50950890779495239 0.029150225222110748
0.89299565553665161 0.50667917728424072 0.041353922337293625
0.98334866762161255 0.5114743709564209 0.061319790780544281
2.1003274014219642e-05 0.54903346300125122 0.00050699571147561073
0.0057035707868635654 0.564594566822052 5.9314803365850821e-05
0.027426013723015785 0.58281314373016357 0
0.067193455994129181 0.59866571426391602 0.00030912511283531785
0.12516222894191742 0.61083316802978516 0.0032405927777290344
0.20015767216682434 0.61918777227401733 0.0081650083884596825
0.29091820120811462 0.6256711483001709 0.0091719981282949448
0.39509528875350952 0.63125628232955933 0.0066378125920891762
0.50828808546066284 0.63624417781829834 0.0043421275913715363
0.63556486368179321 0.63729989528656006 0.0065214568749070168
0.78081327676773071 0.63439172506332397 0.0072554345242679119
0.93287783861160278 0.62925034761428833 0.0081439297646284103
0.99980485439300537 0.63358861207962036 0.020730575546622276
0 0.66845101118087769 0.00385896279476583
0.0018656114116311073 0.68456965684890747 0.0018152274424210191
0.017851617187261581 0.70465987920761108 1.6724829038139433e-05
0.051013603806495667 0.72420549392700195 0
0.10250189155340195 0.74084627628326416 0
0.17348396778106689 0.75365620851516724 0
0.26504665613174438 0.76291275024414062 5.7444853155175224e-05
0.3724820613861084 0.77041232585906982 8.2576974818948656e-05
0.49200177192687988 0.7758757472038269 0
0.62827479839324951 0.77656394243240356 0.0007718403940089047
0.7802814245223999 0.77526253461837769 0.00074971519643440843
0.93520677089691162 0.77016633749008179 0.0076704435050487518
0.99943578243255615 0.77244675159454346 0.045742258429527283
1.2446384971553925e-05 0.7978518009185791 0.01459090318530798
0.00060948391910642385 0.81588798761367798 0.0083900447934865952
0.010760602541267872 0.83758538961410522 0.0022085900418460369
0.036731258034706116 0.86052030324935913 0.00014041077520232648
0.080582275986671448 0.88158971071243286 7.7789906072212034e-07
0.14953741431236267 0.89798104763031006 6.6121419877163135e-06
0.2449602484703064 0.90816259384155273 0.00018264172831550241
0.35844972729682922 0.91540253162384033 0.0029433604795485735
0.49480697512626648 0.91408270597457886 0.027662314474582672
0.64020425081253052 0.91034871339797974 0.078882776200771332
0.78288257122039795 0.90932321548461914 0.12534782290458679
0.91960829496383667 0.90479481220245361 0.22103896737098694
0.99379116296768188 0.90703094005584717 0.37700587511062622
0.007709757424890995 0.93045759201049805 0.048146266490221024
0.010431432165205479 0.94871383905410767 0.039096217602491379
0.021539067849516869 0.96654844284057617 0.032101813703775406
0.046159930527210236 0.98122179508209229 0.026748642325401306
0.091189727187156677 0.99104887247085571 0.027527512982487679
0.16632732748985291 0.99610531330108643 0.041463963687419891
0.27495601773262024 0.99759232997894287 0.076786771416664124
0.40809279680252075 0.99818634986877441 0.14089776575565338
0.56554347276687622 0.99656343460083008 0.25914499163627625
0.72312122583389282 0.99324744939804077 0.41542398929595947
0.86516183614730835 0.9904099702835083 0.60429799556732178
0.96450191736221313 0.98760569095611572 0.8022875189781189
0.99797499179840088 0.99205249547958374 0.92805135250091553
0.022215690463781357 0.020964827388525009 0.02922159805893898
0.029747636988759041 0.025864813476800919 0.032223481684923172
0.038390185683965683 0.031309090554714203 0.035555280745029449
0.048395238816738129 0.035963695496320724 0.039435159415006638
0.060469429939985275 0.039359237998723984 0.043315678834915161
0.075539156794548035 0.042529415339231491 0.046190764755010605
0.094844043254852295 0.04646817222237587 0.04875614121556282
0.12256772071123123 0.052150711417198181 0.05384419858455658
0.16197171807289124 0.057922318577766418 0.05992768332362175
0.20743706822395325 0.061534266918897629 0.062294051051139832
0.26087477803230286 0.063354939222335815 0.062879614531993866
0.32580667734146118 0.06374194473028183 0.063227921724319458
0.40320181846618652 0.064581297338008881 0.068190135061740875
0.033898670226335526 0.039606474339962006 0.040452621877193451
0.04303925484418869 0.04360014945268631 0.044023342430591583
0.054444450885057449 0.048181377351284027 0.047453563660383224
0.066396184265613556 0.053492527455091476 0.051408432424068451
0.080964855849742889 0.057822030037641525 0.056162141263484955
0.10059052705764771 0.060556989163160324 0.060316663235425949
0.12405017018318176 0.062935382127761841 0.06303241103887558
0.15176104009151459 0.066252253949642181 0.066491164267063141
0.19227644801139832 0.07034747302532196 0.072004370391368866
0.24188098311424255 0.072868138551712036 0.07459365576505661
0.29748773574829102 0.07298935204744339 0.073570072650909424
0.36192908883094788 0.071576543152332306 0.071441769599914551
0.43909597396850586 0.073115147650241852 0.074293665587902069
0.044033531099557877 0.063923150300979614 0.05034312978386879
0.054875809699296951 0.068601228296756744 0.054285790771245956
0.072117045521736145 0.071817897260189056 0.059340398758649826
0.090961486101150513 0.077127657830715179 0.063689440488815308
0.11265484988689423 0.082094140350818634 0.068914242088794708
0.1375531405210495 0.085969902575016022 0.075633063912391663
0.1656557023525238 0.089801877737045288 0.080603413283824921
0.1996314525604248 0.092827558517456055 0.083566121757030487
0.24371083080768585 0.095046788454055786 0.087235212326049805
0.29675662517547607 0.096364669501781464 0.088738821446895599
0.35623392462730408 0.095537610352039337 0.085712864995002747
0.42379727959632874 0.093544721603393555 0.0812850221991539
0.50075763463973999 0.095616735517978668 0.082275539636611938
0.049595419317483902 0.097239278256893158 0.056798823177814484
0.061360139399766922 0.10378766804933548 0.059339158236980438
0.082094796001911163 0.10961269587278366 0.062998615205287933
0.11189204454421997 0.11431840062141418 0.065595276653766632
0.1486857533454895 0.11671525239944458 0.070254504680633545
0.18479454517364502 0.12064159661531448 0.078015752136707306
0.22047172486782074 0.12566040456295013 0.085802830755710602
0.26045796275138855 0.1300375908613205 0.090850755572319031
0.30925413966178894 0.13274724781513214 0.096846230328083038
0.36626121401786804 0.1341034322977066 0.099737472832202911
0.42913961410522461 0.13451606035232544 0.097150541841983795
0.50038117170333862 0.1338990181684494 0.092398233711719513
0.5775795578956604 0.13629992306232452 0.093570783734321594
0.046279817819595337 0.14203669130802155 0.054673496633768082
0.058142315596342087 0.1510474681854248 0.055330745875835419
0.081979848444461823 0.15999044477939606 0.055049296468496323
0.12002511322498322 0.16625270247459412 0.053850568830966949
0.16918826103210449 0.1692279577255249 0.05434730276465416
0.22478599846363068 0.17064875364303589 0.060505062341690063
0.27841284871101379 0.17248870432376862 0.070586681365966797
0.32786738872528076 0.17654469609260559 0.081052593886852264
0.38286316394805908 0.18018563091754913 0.092394933104515076
0.44269827008247375 0.18373802304267883 0.10120441019535065
0.50546658039093018 0.18711517751216888 0.10437770187854767
0.5756421685218811 0.18917851150035858 0.10576973855495453
0.65082830190658569 0.19211602210998535 0.11201296001672745
0.03129272535443306 0.20204687118530273 0.040159694850444794
0.044172264635562897 0.21300290524959564 0.040332149714231491
0.070140451192855835 0.22371329367160797 0.039395816624164581
0.11336695402860641 0.23182965815067291 0.037559013813734055
0.16985578835010529 0.2367141991853714 0.037395700812339783
0.23861117660999298 0.23779873549938202 0.041407506912946701
0.31204116344451904 0.23638215661048889 0.049997396767139435
0.38242062926292419 0.23648177087306976 0.060020238161087036
0.45160815119743347 0.2385517954826355 0.073961667716503143
0.51735967397689819 0.24305707216262817 0.090957671403884888
0.58256447315216064 0.24881638586521149 0.10475374013185501
0.6508975625038147 0.25336161255836487 0.11727335304021835
0.72191393375396729 0.25818958878517151 0.13192549347877502
0.011353107169270515 0.27631679177284241 0.017402304336428642
0.022815076634287834 0.28851497173309326 0.018804438412189484
0.051872625946998596 0.30048739910125732 0.021567774936556816
0.099646545946598053 0.30945184826850891 0.023920381441712379
0.16157707571983337 0.31552338600158691 0.027206331491470337
0.23534651100635529 0.3180755078792572 0.031179420650005341
0.31902390718460083 0.31738433241844177 0.035962902009487152
0.40989959239959717 0.31489741802215576 0.041090544313192368
0.49989321827888489 0.31367784738540649 0.052272886037826538
0.58114016056060791 0.31585597991943359 0.072935111820697784
0.65882378816604614 0.32012394070625305 0.094755671918392181
0.73598390817642212 0.32484251260757446 0.11648289114236832
0.8088342547416687 0.33189621567726135 0.13839361071586609
0.00046868418576195836 0.35926344990730286 0.0027955896221101284
0.0093535631895065308 0.37296673655509949 0.005099576897919178
0.038037244230508804 0.38654634356498718 0.0091150021180510521
0.087326720356941223 0.39699816703796387 0.015770198777318001
0.15130814909934998 0.40432432293891907 0.023422839120030403
0.22708117961883545 0.40915748476982117 0.029239894822239876
0.31439155340194702 0.41113251447677612 0.031784925609827042
0.41471198201179504 0.41009646654129028 0.033014126121997833
0.52060425281524658 0.40793505311012268 0.040517948567867279
0.62328445911407471 0.40779846906661987 0.054123252630233765
0.7243351936340332 0.40873846411705017 0.071872502565383911
0.82373934984207153 0.40990236401557922 0.096113286912441254
0.90731906890869141 0.41599118709564209 0.12327618896961212
0 0.45009180903434753 0.00038950302405282855
0.0054261898621916771 0.46531286835670471 0.001801030826754868
0.032462116330862045 0.4813896119594574 0.0050311516970396042
0.078842088580131531 0.49458068609237671 0.012244818732142448
0.1419190913438797 0.50391495227813721 0.022914333269000053
0.2183898389339447 0.510814368724823 0.030101552605628967
0.30781033635139465 0.51564615964889526 0.031752925366163254
0.41058436036109924 0.5182727575302124 0.031309030950069427
0.52382045984268188 0.5182654857635498 0.03530414029955864
0.64279639720916748 0.51778638362884521 0.040029950439929962
0.76846283674240112 0.51624965667724609 0.044045962393283844
0.89523732662200928 0.51344746351242065 0.058019585907459259
0.98352169990539551 0.51756197214126587 0.083567492663860321
0 0.55428445339202881 1.7772001228877343e-05
0.0040369220077991486 0.57003247737884521 0.0011408039135858417
0.026584910228848457 0.58841663599014282 0.0036358553916215897
0.068946331739425659 0.60448503494262695 0.0087900646030902863
0.12915787100791931 0.61678242683410645 0.016950121149420738
0.20410062372684479 0.62668758630752563 0.02185618132352829
0.29610773921012878 0.63358491659164429 0.025430148467421532
0.40273690223693848 0.63808655738830566 0.027604855597019196
0.51657843589782715 0.64301830530166626 0.023913634940981865
0.64316815137863159 0.64489889144897461 0.021494621410965919
0.789264976978302 0.64222431182861328 0.016225537285208702
0.93664765357971191 0.63627266883850098 0.018797885626554489
0.99979317188262939 0.63965862989425659 0.037157423794269562
0 0.67356449365615845 0
0.00095138547476381063 0.69019186496734619 6.0885558923473582e-05
0.015682654455304146 0.71087169647216797 0.00032324696076102555
0.051513224840164185 0.73015809059143066 0.0011663100449368358
0.10736649483442307 0.74643141031265259 0.0027353474870324135
0.17784677445888519 0.760917067527771 0.0020054536871612072
0.27102038264274597 0.77057206630706787 0.002722317585721612
0.38232642412185669 0.7764851450920105 0.0047134100459516048
0.49948495626449585 0.78309261798858643 0.0023228214122354984
0.62902867794036865 0.78699779510498047 0.0012885747710242867
0.78204214572906494 0.78554040193557739 0.0033744513057172298
0.93667370080947876 0.77811986207962036 0.026497559621930122
0.99938499927520752 0.77931386232376099 0.080816440284252167
0 0.80464708805084229 0.00045035866787657142
0 0.82351160049438477 3.6157347494736314e-05
0.0054050520993769169 0.84621977806091309 4.4878791527480644e-07
0.032526697963476181 0.86891567707061768 0
0.082010231912136078 0.88893157243728638 0
0.1545608788728714 0.90511000156402588 5.8043237913807388e-06
0.25183433294296265 0.91579997539520264 0.00046282002585940063
0.37129756808280945 0.92102563381195068 0.0068808314390480518
0.51009339094161987 0.91812807321548462 0.038173526525497437
0.64371347427368164 0.91937613487243652 0.077830955386161804
0.78424304723739624 0.91885536909103394 0.14871607720851898
0.92182087898254395 0.91211450099945068 0.27313998341560364
0.99180668592453003 0.9174918532371521 0.44994771480560303
0.0033346586860716343 0.93943297863006592 0.016849726438522339
0.004340482410043478 0.95720618963241577 0.012328548356890678
0.013231389224529266 0.97348648309707642 0.011489120312035084
0.039076413959264755 0.98618787527084351 0.012770962901413441
0.090415298938751221 0.99403554201126099 0.020123664289712906
0.17281243205070496 0.99743348360061646 0.040144678205251694
0.28723815083503723 0.99892306327819824 0.081124007701873779
0.43226078152656555 0.99886709451675415 0.16013215482234955
0.60531795024871826 0.99563634395599365 0.30004966259002686
0.75939929485321045 0.9932141900062561 0.46192044019699097
0.88609558343887329 0.9917902946472168 0.65524947643280029
0.97163969278335571 0.98855096101760864 0.83138197660446167
0.99727553129196167 0.99546140432357788 0.95244312286376953
0.025411119684576988 0.022389177232980728 0.035460870712995529
0.033316757529973984 0.027391036972403526 0.039761651307344437
0.043302394449710846 0.032896451652050018 0.04416230320930481
0.054775163531303406 0.037815872579813004 0.04806232824921608
0.067347340285778046 0.040795180946588516 0.050469700247049332
0.082508087158203125 0.044071212410926819 0.052566185593605042
0.10122723877429962 0.048024464398622513 0.055573288351297379
0.13079868257045746 0.054659944027662277 0.062225341796875
0.17057619988918304 0.061399243772029877 0.069027543067932129
0.21561869978904724 0.065570935606956482 0.072040632367134094
0.2693939208984375 0.067989632487297058 0.073402345180511475
0.33484059572219849 0.067657813429832458 0.074377678334712982
0.41250640153884888 0.064886443316936493 0.07789350301027298
0.035627372562885284 0.04092082753777504 0.048728734254837036
0.044236544519662857 0.045247666537761688 0.053186647593975067
0.056816518306732178 0.049997232854366302 0.057055514305830002
0.070232763886451721 0.055312421172857285 0.061094846576452255
0.086038403213024139 0.05938783660531044 0.064367882907390594
0.10603040456771851 0.06227448582649231 0.067692160606384277
0.12881441414356232 0.06426500529050827 0.070925302803516388
0.15847350656986237 0.067814245820045471 0.076098375022411346
0.20098432898521423 0.072018720209598541 0.082677550613880157
0.25146070122718811 0.075910069048404694 0.086253583431243896
0.30936527252197266 0.077471725642681122 0.086139976978302002
0.37690082192420959 0.075673408806324005 0.084456421434879303
0.45463463664054871 0.074996620416641235 0.085684098303318024
0.04593740776181221 0.064557291567325592 0.062877476215362549
0.055467464029788971 0.070347145199775696 0.067430399358272552
0.07281600683927536 0.074144534766674042 0.073687702417373657
0.092382214963436127 0.079366348683834076 0.079211980104446411
0.11267036199569702 0.085517361760139465 0.082847908139228821
0.13869944214820862 0.089428737759590149 0.08794771134853363
0.16855421662330627 0.092940717935562134 0.092445239424705505
0.20408722758293152 0.095456190407276154 0.096284963190555573
0.24980734288692474 0.097401216626167297 0.10098090022802353
0.30509808659553528 0.099458716809749603 0.10404627025127411
0.36819559335708618 0.099781841039657593 0.10168395936489105
0.43860885500907898 0.097579613327980042 0.097815811634063721
0.51575565338134766 0.097591400146484375 0.097681649029254913
0.051882695406675339 0.09818345308303833 0.073909193277359009
0.062225520610809326 0.10603835433721542 0.077940858900547028
0.083429105579853058 0.1117086187005043 0.083356268703937531
0.112809918820858 0.1167786717414856 0.088377438485622406
0.14698074758052826 0.12041627615690231 0.095158293843269348
0.18226778507232666 0.12499051541090012 0.1007983461022377
0.21892586350440979 0.13075783848762512 0.10606755316257477
0.25980895757675171 0.13465723395347595 0.11139601469039917
0.30964869260787964 0.13678142428398132 0.11694350838661194
0.36908581852912903 0.1383705735206604 0.12024540454149246
0.4357205331325531 0.13888832926750183 0.11902263760566711
0.50801920890808105 0.13785199820995331 0.1150931715965271
0.58383268117904663 0.13905481994152069 0.11531415581703186
0.047196704894304276 0.14474959671497345 0.075601272284984589
0.05906251072883606 0.15404003858566284 0.078247979283332825
0.084076918661594391 0.16257978975772858 0.080086715519428253
