assets/lut/alexjordan green action.cube
# Created by: G'MIC (https://gmic.eu)
TITLE "green_action"
# LUT size
LUT_3D_SIZE 7
# Data domain
DOMAIN_MIN 0.0 0.0 0.0
DOMAIN_MAX 1.0 1.0 1.0
# LUT data points
0 0 0
0 0 0
0.0031953251454979181 0.0010530359577387571 0.00088034238433465362
0.039693482220172882 0.012794659473001957 0.012328398413956165
0.15248572826385498 0.034586094319820404 0.031490251421928406
0.29138535261154175 0.04777095839381218 0.048188827931880951
0.43875196576118469 0.051606360822916031 0.047413110733032227
0.03212299570441246 0.049726255238056183 0.030513733625411987
0.081724785268306732 0.080267764627933502 0.032282270491123199
0.15472039580345154 0.099426329135894775 0.040649909526109695
0.27233925461769104 0.12161371856927872 0.038593605160713196
0.42664766311645508 0.13393223285675049 0.025828268378973007
0.60420304536819458 0.13415004312992096 0.017273278906941414
0.77291268110275269 0.12530654668807983 0.0052992729470133781
0.035297125577926636 0.21452336013317108 0.024197326973080635
0.12425007671117783 0.23678365349769592 0.010910737328231335
0.24351426959037781 0.25084996223449707 0.014659282751381397
0.39000603556632996 0.2612450122833252 0.0013089198619127274
0.55053120851516724 0.26307547092437744 0
0.73538458347320557 0.26576641201972961 0.00020376467728056014
0.90623199939727783 0.25599238276481628 0.00083707919111475348
0.0082771750167012215 0.41667953133583069 0.0061279446817934513
0.08676021546125412 0.40481919050216675 0.0042293025180697441
0.236159548163414 0.41542321443557739 0.00060960359405726194
0.39360278844833374 0.4078318178653717 0
0.56466680765151978 0.40905871987342834 0
0.74291986227035522 0.40776553750038147 0
0.90442800521850586 0.39632537961006165 0.00068007822846993804
0.00012076882558176294 0.58797699213027954 0.00017580518033355474
0.04245535284280777 0.58544814586639404 0.00013924392987973988
0.19489680230617523 0.57679063081741333 0
0.36229228973388672 0.5663381814956665 0
0.53667199611663818 0.56435167789459229 0.00010618322266964242
0.71605813503265381 0.56359767913818359 0
0.88075911998748779 0.55677300691604614 0
0 0.75800991058349609 0
0.0070508322678506374 0.74141532182693481 0.0027076720725744963
0.15725715458393097 0.73826092481613159 0.001075056497938931
0.32652491331100464 0.72411119937896729 0
0.50468540191650391 0.72190618515014648 0
0.67760443687438965 0.7162671685218811 0
0.83609426021575928 0.70484769344329834 0
0 0.917091965675354 0
0.0053533664904534817 0.89469456672668457 0
0.12428298592567444 0.8846813440322876 7.9345700214616954e-05
0.29012033343315125 0.87684005498886108 0
0.46783643960952759 0.87465947866439819 0
0.638904869556427 0.86941349506378174 0
0.7977982759475708 0.8608856201171875 0
0 0 0
0 0 0
0.0089558018371462822 0.0042217480950057507 0.0066799386404454708
0.065554313361644745 0.021478869020938873 0.039157912135124207
0.17965380847454071 0.042725909501314163 0.077250942587852478
0.33071660995483398 0.051633588969707489 0.1095181331038475
0.49259495735168457 0.045418772846460342 0.13016955554485321
0.029684282839298248 0.05740782618522644 0.059231478720903397
0.085421331226825714 0.08589433878660202 0.084126956760883331
0.17395356297492981 0.11062221229076385 0.10990654677152634
0.30039921402931213 0.12616086006164551 0.12928420305252075
0.45426741242408752 0.13531985878944397 0.13539201021194458
0.63583290576934814 0.13259384036064148 0.13336516916751862
0.81148320436477661 0.12599129974842072 0.12037039548158646
0.027344362810254097 0.22690123319625854 0.12263457477092743
0.12144237011671066 0.24131077527999878 0.12560811638832092
0.24922364950180054 0.25370109081268311 0.11826189607381821
0.40138110518455505 0.260968416929245 0.10385087132453918
0.56474524736404419 0.26209050416946411 0.091845296323299408
0.73944568634033203 0.25802505016326904 0.07747013121843338
0.91178154945373535 0.24994929134845734 0.065513789653778076
0.0063887503929436207 0.416748046875 0.10585421323776245
0.084735095500946045 0.41482087969779968 0.084548696875572205
0.23494997620582581 0.41915526986122131 0.064934916794300079
0.4024406373500824 0.41810804605484009 0.039804480969905853
0.57251912355422974 0.41178745031356812 0.046287938952445984
0.74650013446807861 0.4106895923614502 0.041700880974531174
0.91447156667709351 0.40199115872383118 0.037396300584077835
0 0.59230911731719971 0.048450306057929993
0.038184475153684616 0.5794636607170105 0.029767608270049095
0.19004565477371216 0.57748830318450928 0.026678645983338356
0.36298844218254089 0.57136064767837524 0.021124178543686867
0.54014784097671509 0.56701493263244629 0.028607342392206192
0.7143481969833374 0.56512421369552612 0.019958421587944031
0.87578266859054565 0.55468809604644775 0.0054174088872969151
4.4729196815751493e-05 0.76325970888137817 0.0081303464248776436
0.0069386051036417484 0.73601698875427246 0.005125382449477911
0.14394389092922211 0.7346045970916748 0.0033667918760329485
0.32148849964141846 0.72678643465042114 0.015038329176604748
0.50402486324310303 0.72420114278793335 0.018646974116563797
0.67388427257537842 0.71700024604797363 0.006808980368077755
0.83310776948928833 0.70508337020874023 0.00076638016616925597
0 0.92039573192596436 0.02873280830681324
0.0012293796753510833 0.89330005645751953 0.021457957103848457
0.10952913016080856 0.88429129123687744 0.017423084005713463
0.28298872709274292 0.87910014390945435 0.018302123993635178
0.4666324257850647 0.87723350524902344 0.014937651343643665
0.6390717625617981 0.87131553888320923 0.0055944407358765602
0.80147230625152588 0.86323028802871704 0.0032877004705369473
0 0 0
0.00056852452689781785 0.00013355928240343928 0.00060622271848842502
0.018874015659093857 0.0074482187628746033 0.018395189195871353
0.092265650629997253 0.027747120708227158 0.071893192827701569
0.21235717833042145 0.04690488800406456 0.13118870556354523
0.3736845850944519 0.05059388279914856 0.18574745953083038
0.53059893846511841 0.045478478074073792 0.21418651938438416
0.028730699792504311 0.06968747079372406 0.09995231032371521
0.09337945282459259 0.094417735934257507 0.14258749783039093
0.18880036473274231 0.11529818922281265 0.18411049246788025
0.31594538688659668 0.13032388687133789 0.2209017425775528
0.47143200039863586 0.13855195045471191 0.24942749738693237
0.65415513515472412 0.13017997145652771 0.26588127017021179
0.83028435707092285 0.1196267381310463 0.2667507529258728
0.02483438141644001 0.23505252599716187 0.22568918764591217
0.11894999444484711 0.24574916064739227 0.240493044257164
0.25046628713607788 0.25585290789604187 0.24504557251930237
0.40652340650558472 0.26280432939529419 0.25278416275978088
0.57601159811019897 0.26611921191215515 0.25642886757850647
0.74453699588775635 0.25508770346641541 0.24461683630943298
0.9141850471496582 0.24183879792690277 0.22987787425518036
0.0014724432257935405 0.41830793023109436 0.24812681972980499
0.077397063374519348 0.41745567321777344 0.23213285207748413
0.23012718558311462 0.41906449198722839 0.2234877347946167
0.40219414234161377 0.41891875863075256 0.21453273296356201
0.57710349559783936 0.41568627953529358 0.2134387195110321
0.74593228101730347 0.40886774659156799 0.20506124198436737
0.90567034482955933 0.39260044693946838 0.18440675735473633
1.8190870832768269e-05 0.59476715326309204 0.21286824345588684
0.043400291353464127 0.58273583650588989 0.18451617658138275
0.18664012849330902 0.57986950874328613 0.17528676986694336
0.36453989148139954 0.57444268465042114 0.17046627402305603
0.53820288181304932 0.56690442562103271 0.16653551161289215
0.70438677072525024 0.55793231725692749 0.15441899001598358
0.86564046144485474 0.54452139139175415 0.13728514313697815
5.834242983837612e-05 0.75951850414276123 0.16918741166591644
0.0084808049723505974 0.72876143455505371 0.13729563355445862
0.13563556969165802 0.72547644376754761 0.12295309454202652
0.31607085466384888 0.72058743238449097 0.12741553783416748
0.49245741963386536 0.71410226821899414 0.1254621148109436
0.65923696756362915 0.70590800046920776 0.1127815842628479
0.82565474510192871 0.69840914011001587 0.10331865400075912
0 0.91854530572891235 0.15462887287139893
0.00015887092740740627 0.89185380935668945 0.1294836550951004
0.097044266760349274 0.88172847032546997 0.11526664346456528
0.27457898855209351 0.87513935565948486 0.10860954970121384
0.45993492007255554 0.87100392580032349 0.10141316056251526
0.63250935077667236 0.86635744571685791 0.093399167060852051
0.80085617303848267 0.86278808116912842 0.087110705673694611
0 0 0
0.0022759831044822931 0.0009981043403968215 0.0026804008521139622
0.033319897949695587 0.013661044649779797 0.040266312658786774
0.11528559774160385 0.03592001274228096 0.11425431072711945
0.23929689824581146 0.050956964492797852 0.19065147638320923
0.40505245327949524 0.051745366305112839 0.26358672976493835
0.56799620389938354 0.042538512498140335 0.31027239561080933
0.038378890603780746 0.077066905796527863 0.14431741833686829
0.10356463491916656 0.10515055805444717 0.20830178260803223
0.20117306709289551 0.12289182096719742 0.26630508899688721
0.32956379652023315 0.13394132256507874 0.31860873103141785
0.48514515161514282 0.14021477103233337 0.35998561978340149
0.67114287614822388 0.13146732747554779 0.39471858739852905
0.84187692403793335 0.11790487170219421 0.40833711624145508
0.024671725928783417 0.24001702666282654 0.32681018114089966
0.11618540436029434 0.25154516100883484 0.36017602682113647
0.25635829567909241 0.26028150320053101 0.37872812151908875
0.41239112615585327 0.26303696632385254 0.39636021852493286
0.57987719774246216 0.26512137055397034 0.40714487433433533
0.75152820348739624 0.25483053922653198 0.40659084916114807
0.91900444030761719 0.23887065052986145 0.39815202355384827
0 0.42521163821220398 0.39148280024528503
0.066788271069526672 0.42081767320632935 0.3917405903339386
0.22949083149433136 0.41920676827430725 0.38960888981819153
0.40127098560333252 0.41601660847663879 0.38607561588287354
0.5759468674659729 0.41460797190666199 0.38535693287849426
0.74726331233978271 0.40879631042480469 0.37871897220611572
0.90591287612915039 0.39000198245048523 0.35845685005187988
0 0.60122978687286377 0.38420462608337402
0.040463615208864212 0.58819282054901123 0.36704123020172119
0.1842375248670578 0.57862526178359985 0.35553446412086487
0.36411258578300476 0.57082641124725342 0.34745782613754272
0.53476107120513916 0.56325215101242065 0.33980083465576172
0.70082622766494751 0.55583381652832031 0.33088734745979309
0.86464828252792358 0.54288935661315918 0.31954249739646912
0 0.75538796186447144 0.34446164965629578
0.011895827017724514 0.73374736309051514 0.31843549013137817
0.13619376718997955 0.72279375791549683 0.30631610751152039
0.31922644376754761 0.71722316741943359 0.29899123311042786
0.48579758405685425 0.70661234855651855 0.28875783085823059
0.65174055099487305 0.70095044374465942 0.28223398327827454
0.82416510581970215 0.6970670223236084 0.28082141280174255
0 0.91387224197387695 0.31453511118888855
0.00021407182794064283 0.89025688171386719 0.28655558824539185
0.093352057039737701 0.87897986173629761 0.27129960060119629
0.26986688375473022 0.86931914091110229 0.25878334045410156
0.45018541812896729 0.86290568113327026 0.25089973211288452
0.6279224157333374 0.86217927932739258 0.25311610102653503
0.80603915452957153 0.86556178331375122 0.26186373829841614
0 0 0
0.0047731436789035797 0.0030562756583094597 0.0096374815329909325
0.051610611379146576 0.021424490958452225 0.075257077813148499
0.14398758113384247 0.042631201446056366 0.17295604944229126
0.28101664781570435 0.052015043795108795 0.27186256647109985
0.45374417304992676 0.048719309270381927 0.36054542660713196
0.62737315893173218 0.031220918521285057 0.42306607961654663
0.036699961870908737 0.087536036968231201 0.20337453484535217
0.11208846420049667 0.11248127371072769 0.28821799159049988
0.21620629727840424 0.13073998689651489 0.36497947573661804
0.35199052095413208 0.13654211163520813 0.43729498982429504
0.50710821151733398 0.13667811453342438 0.48961180448532104
0.69164115190505981 0.12756513059139252 0.53425407409667969
0.86577802896499634 0.11122523248195648 0.55512261390686035
0.027874233201146126 0.24807770550251007 0.43908894062042236
0.11835608631372452 0.25780916213989258 0.4872775673866272
0.25947096943855286 0.26413291692733765 0.51958179473876953
0.41237804293632507 0.26125505566596985 0.53973996639251709
0.57847779989242554 0.25805568695068359 0.55776208639144897
0.75283551216125488 0.24953995645046234 0.56519776582717896
0.92536789178848267 0.23714423179626465 0.5637778639793396
0.0014095680089667439 0.42984247207641602 0.54185962677001953
0.073059797286987305 0.42142292857170105 0.54703199863433838
0.22569496929645538 0.41639649868011475 0.54650837182998657
0.39521709084510803 0.41128528118133545 0.54440921545028687
0.56989550590515137 0.40908873081207275 0.5471152663230896
0.74302810430526733 0.40450969338417053 0.54164063930511475
0.90738373994827271 0.39085203409194946 0.52692419290542603
0.0001395431172568351 0.60198718309402466 0.54498732089996338
0.041671633720397949 0.58607077598571777 0.53041768074035645
0.18087762594223022 0.57595229148864746 0.52053296566009521
0.36042088270187378 0.56591415405273438 0.51162475347518921
0.53275203704833984 0.56151109933853149 0.50726944208145142
0.70290130376815796 0.55883806943893433 0.50028097629547119
0.86769223213195801 0.54881995916366577 0.48761442303657532
0 0.75086885690689087 0.50471466779708862
0.013246738351881504 0.72844290733337402 0.47874194383621216
0.13442303240299225 0.7235410213470459 0.47510656714439392
0.31924206018447876 0.71729344129562378 0.4686184823513031
0.48348915576934814 0.70263540744781494 0.45486491918563843
0.6561809778213501 0.70280724763870239 0.45361161231994629
0.82787042856216431 0.7021515965461731 0.45121926069259644
0 0.91150015592575073 0.47620433568954468
0.0037761612329632044 0.88529026508331299 0.44504162669181824
0.099872782826423645 0.87508279085159302 0.43321418762207031
0.26744475960731506 0.86538636684417725 0.42239010334014893
0.44447308778762817 0.85718518495559692 0.41524630784988403
0.62358289957046509 0.85740518569946289 0.41882610321044922
0.80099868774414062 0.86174637079238892 0.42668259143829346
4.3083641685370822e-06 0 9.2629823484458029e-05
0.012051047757267952 0.007677803747355938 0.028953028842806816
0.074070796370506287 0.028671639040112495 0.12368835508823395
0.17688211798667908 0.044134356081485748 0.24466454982757568
0.31416606903076172 0.049800064414739609 0.35936948657035828
0.4742262065410614 0.048515021800994873 0.45280250906944275
0.65898269414901733 0.027710305526852608 0.53702825307846069
0.03968627005815506 0.09639594703912735 0.27709022164344788
0.11562784016132355 0.11966279149055481 0.37140005826950073
0.22915676236152649 0.13459570705890656 0.46873021125793457
0.36488747596740723 0.13386134803295135 0.55278944969177246
0.52521592378616333 0.12921567261219025 0.61933565139770508
0.70795100927352905 0.12241619080305099 0.67686551809310913
0.87066555023193359 0.11186252534389496 0.69643700122833252
0.025421472266316414 0.25651100277900696 0.57487332820892334
0.11705208569765091 0.26289752125740051 0.62371957302093506
0.26347553730010986 0.26729211211204529 0.6648450493812561
0.4174751341342926 0.2616955041885376 0.68969625234603882
0.58448535203933716 0.2546142041683197 0.71389353275299072
0.75488680601119995 0.24556779861450195 0.72071510553359985
0.92489445209503174 0.23911428451538086 0.72238850593566895
0.0029088486917316914 0.43443778157234192 0.70111280679702759
0.068666793406009674 0.42276695370674133 0.70532482862472534
0.22453632950782776 0.41585880517959595 0.70447546243667603
0.39921566843986511 0.41423916816711426 0.70757603645324707
0.57175624370574951 0.41092908382415771 0.70929676294326782
0.74461168050765991 0.40673375129699707 0.70532709360122681
0.90693706274032593 0.39505437016487122 0.69101566076278687
0 0.59811830520629883 0.70621812343597412
0.030093846842646599 0.5825156569480896 0.68937873840332031
0.17990663647651672 0.57554644346237183 0.68013483285903931
0.3587973415851593 0.56279909610748291 0.66976785659790039
0.5346260666847229 0.56528252363204956 0.67058587074279785
0.70618528127670288 0.55991512537002563 0.66521954536437988
0.86886441707611084 0.54998159408569336 0.65109419822692871
0 0.75446242094039917 0.67341321706771851
0.0035298664588481188 0.72703808546066284 0.64215469360351562
0.13517212867736816 0.72523325681686401 0.64052540063858032
0.31823623180389404 0.71535253524780273 0.62792164087295532
0.48010677099227905 0.69834470748901367 0.61194300651550293
0.66372185945510864 0.70548397302627563 0.62032210826873779
0.82854372262954712 0.70275843143463135 0.61119961738586426
0 0.91639870405197144 0.64374738931655884
0.0088425884023308754 0.88364207744598389 0.60701268911361694
0.10308799147605896 0.87654709815979004 0.59804970026016235
0.26953470706939697 0.86527556180953979 0.58546966314315796
0.44625777006149292 0.85712534189224243 0.57920795679092407
0.62092471122741699 0.85434460639953613 0.5781596302986145
0.79448670148849487 0.85861146450042725 0.58126354217529297
0.0015431123320013285 0.0011135325767099857 0.004690222442150116
0.021846815943717957 0.013719386421144009 0.062626995146274567
0.090313687920570374 0.035535387694835663 0.18049913644790649
0.20172044634819031 0.047354947775602341 0.32356417179107666
0.34683865308761597 0.046785719692707062 0.46050179004669189
0.51980161666870117 0.038125131279230118 0.57824188470840454
0.7003898024559021 0.022053288295865059 0.66873389482498169
0.041838672012090683 0.11306475102901459 0.36106011271476746
0.11593592166900635 0.12838074564933777 0.45610889792442322
0.23306773602962494 0.13683502376079559 0.5636172890663147
0.3777654767036438 0.13570396602153778 0.6754765510559082
0.53483301401138306 0.13388748466968536 0.74691581726074219
0.71545183658599854 0.12278801202774048 0.80991226434707642
0.88632357120513916 0.1147887110710144 0.84451425075531006
0.013512225821614265 0.27144351601600647 0.71684807538986206
0.10300960391759872 0.26546680927276611 0.74114120006561279
0.25740373134613037 0.26372739672660828 0.78451323509216309
0.41726523637771606 0.25844436883926392 0.82784199714660645
0.59988033771514893 0.26600086688995361 0.87665426731109619
0.76269721984863281 0.25397354364395142 0.87886369228363037
0.92996937036514282 0.25016507506370544 0.88270366191864014
0 0.43964189291000366 0.85134154558181763
0.052975643426179886 0.42697203159332275 0.85439765453338623
0.2274777889251709 0.4184739887714386 0.85952812433242798
0.40920981764793396 0.42503681778907776 0.87572240829467773
0.57968151569366455 0.41586944460868835 0.87066417932510376
0.76206463575363159 0.42334794998168945 0.88132387399673462
0.91797000169754028 0.40765061974525452 0.86773574352264404
0.00046693391050212085 0.60688269138336182 0.86869561672210693
0.023160208016633987 0.58371490240097046 0.84891194105148315
0.19087894260883331 0.58348119258880615 0.84996145963668823
0.36271956562995911 0.57203429937362671 0.83736860752105713
0.54174071550369263 0.57226330041885376 0.83775287866592407
0.70362395048141479 0.56012767553329468 0.82259917259216309
0.87008178234100342 0.55325865745544434 0.81774580478668213
0.0012006871402263641 0.77395093441009521 0.84933006763458252
0.0088214650750160217 0.72814726829528809 0.80189025402069092
0.15689590573310852 0.74204063415527344 0.8188779354095459
0.33242475986480713 0.73370689153671265 0.80718314647674561
0.50496268272399902 0.72295701503753662 0.79852300882339478
0.66926062107086182 0.71517753601074219 0.79002088308334351
0.8236466646194458 0.7020418643951416 0.77145987749099731
0.002722063334658742 0.93189996480941772 0.81519269943237305
0.025135429576039314 0.89089292287826538 0.77359640598297119
0.12674304842948914 0.88522803783416748 0.76699626445770264
0.28940096497535706 0.8787071704864502 0.75960463285446167
0.46601921319961548 0.87486404180526733 0.75845873355865479
0.63066619634628296 0.86639350652694702 0.75044924020767212
0.79571008682250977 0.86512929201126099 0.74547660350799561
