assets/lut/alexjordan green g 09.cube
# Created by: G'MIC (https://gmic.eu)
TITLE "green_g_09"
# LUT size
LUT_3D_SIZE 7
# Data domain
DOMAIN_MIN 0.0 0.0 0.0
DOMAIN_MAX 1.0 1.0 1.0
# LUT data points
0 0 0
0 0 0
0.0049041747115552425 0.0027723724488168955 0.0043782251887023449
0.053698714822530746 0.014517002739012241 0.038286697119474411
0.17833271622657776 0.038450069725513458 0.1125841960310936
0.362682044506073 0.042073015123605728 0.21339893341064453
0.60258549451828003 0.032132796943187714 0.3174501359462738
0.02089303731918335 0.057733945548534393 0.023467613384127617
0.06618005782365799 0.10445113480091095 0.04111417755484581
0.1751936674118042 0.13628606498241425 0.081992477178573608
0.34688383340835571 0.15019088983535767 0.15034997463226318
0.51095592975616455 0.16194112598896027 0.23964735865592957
0.70876854658126831 0.15764431655406952 0.3256375789642334
0.87293165922164917 0.15778617560863495 0.40760019421577454
0.080051258206367493 0.26707392930984497 0.043756432831287384
0.17191554605960846 0.30705609917640686 0.075911231338977814
0.29582279920578003 0.32871848344802856 0.098034650087356567
0.46805688738822937 0.33383458852767944 0.13963967561721802
0.66105949878692627 0.32481318712234497 0.22556522488594055
0.84757137298583984 0.31043791770935059 0.31137102842330933
0.99368101358413696 0.29596701264381409 0.39830771088600159
0.18155397474765778 0.4389723539352417 0.090449824929237366
0.2767585813999176 0.47122082114219666 0.10637015849351883
0.382245272397995 0.49240553379058838 0.096989996731281281
0.54154509305953979 0.490488201379776 0.12112245708703995
0.73566693067550659 0.47352701425552368 0.18169437348842621
0.93270528316497803 0.45361202955245972 0.26021197438240051
1 0.4335939884185791 0.34891033172607422
0.26826086640357971 0.5878177285194397 0.10583055019378662
0.35925540328025818 0.61327356100082397 0.11444790661334991
0.46129867434501648 0.63170695304870605 0.097777649760246277
0.61144232749938965 0.6332353949546814 0.098852552473545074
0.80433320999145508 0.61933362483978271 0.13975779712200165
0.98981034755706787 0.59557676315307617 0.21121317148208618
1 0.57259476184844971 0.29257389903068542
0.34506919980049133 0.7292056679725647 0.095312394201755524
0.43404540419578552 0.75195527076721191 0.10374455153942108
0.53635716438293457 0.77114695310592651 0.083339467644691467
0.68163394927978516 0.77756398916244507 0.066238567233085632
0.87028747797012329 0.76471519470214844 0.089193783700466156
0.99998205900192261 0.73972862958908081 0.15279076993465424
1 0.71580159664154053 0.22740726172924042
0.41922417283058167 0.87078022956848145 0.055798877030611038
0.50715267658233643 0.89498740434646606 0.064214415848255157
0.60811781883239746 0.9158443808555603 0.043890349566936493
0.75011724233627319 0.92298662662506104 0.023450110107660294
0.93321973085403442 0.91085350513458252 0.036217276006937027
1 0.88702672719955444 0.090999975800514221
1 0.86236065626144409 0.16070428490638733
0 0 0
0 0 1.7951517293113284e-05
0.0056315106339752674 0.0066489423625171185 0.01766650564968586
0.054384075105190277 0.031666789203882217 0.079154118895530701
0.17142783105373383 0.057086825370788574 0.18475137650966644
0.31577306985855103 0.07339911162853241 0.29802593588829041
0.49694818258285522 0.080780327320098877 0.39704516530036926
0.008061487227678299 0.077595517039299011 0.059371452778577805
0.052430726587772369 0.12889252603054047 0.11629953980445862
0.1344665139913559 0.16810120642185211 0.18799211084842682
0.24818836152553558 0.1933053582906723 0.26307192444801331
0.38599464297294617 0.21201902627944946 0.34168428182601929
0.54440772533416748 0.22085313498973846 0.42006325721740723
0.70026135444641113 0.22524988651275635 0.49310392141342163
0.055015068501234055 0.29090052843093872 0.1463361531496048
0.14539232850074768 0.32438626885414124 0.20526282489299774
0.26008877158164978 0.34953927993774414 0.27120906114578247
0.38987931609153748 0.36737579107284546 0.30722078680992126
0.56715327501296997 0.36149033904075623 0.3832651674747467
0.7292473316192627 0.35135135054588318 0.45596829056739807
0.88263398408889771 0.34517374634742737 0.52829784154891968
0.15253527462482452 0.46398720145225525 0.2035800963640213
0.25265508890151978 0.48593944311141968 0.25023159384727478
0.35215961933135986 0.50362211465835571 0.28697347640991211
0.47275274991989136 0.51456141471862793 0.29662758111953735
0.65276157855987549 0.50166571140289307 0.33188557624816895
0.85000789165496826 0.48025673627853394 0.41634565591812134
0.9954603910446167 0.46670666337013245 0.49802616238594055
0.24457909166812897 0.6058349609375 0.23291455209255219
0.33819010853767395 0.62283837795257568 0.26868936419487
0.43024283647537231 0.63819736242294312 0.28700724244117737
0.54965412616729736 0.65237689018249512 0.27539673447608948
0.72443526983261108 0.64610588550567627 0.28614130616188049
0.93116796016693115 0.62223964929580688 0.35530585050582886
1 0.59959292411804199 0.43885105848312378
0.32197770476341248 0.74345380067825317 0.23437307775020599
0.4138241708278656 0.75797605514526367 0.26605823636054993
0.50852727890014648 0.77692908048629761 0.26327598094940186
0.6301579475402832 0.79167312383651733 0.23981055617332458
0.79508620500564575 0.78863358497619629 0.23828969895839691
0.98413580656051636 0.76617598533630371 0.29027935862541199
1 0.74128133058547974 0.36759182810783386
0.39371001720428467 0.88525080680847168 0.20087270438671112
0.48345160484313965 0.90371644496917725 0.22512762248516083
0.58163964748382568 0.92253202199935913 0.21705394983291626
0.70505058765411377 0.93603980541229248 0.1865120530128479
0.8666999340057373 0.93235141038894653 0.18264733254909515
0.99988001585006714 0.91106522083282471 0.23012517392635345
1 0.88758003711700439 0.29894876480102539
0 0 0
0 0.00058503990294411778 0.0026440788060426712
0.010512662120163441 0.01910603791475296 0.050448697060346603
0.067071042954921722 0.049619473516941071 0.14283597469329834
0.16636665165424347 0.077953934669494629 0.26034241914749146
0.30675861239433289 0.091667219996452332 0.38178500533103943
0.45892971754074097 0.10615669935941696 0.48001694679260254
3.9852366171544418e-05 0.10996458679437637 0.11320687085390091
0.025298204272985458 0.1552567183971405 0.19267185032367706
0.10752754658460617 0.19236727058887482 0.27168399095535278
0.22058093547821045 0.21939656138420105 0.35074856877326965
0.3384653627872467 0.24465686082839966 0.42188113927841187
0.46576368808746338 0.26215845346450806 0.49044355750083923
0.60406315326690674 0.27176213264465332 0.5592883825302124
0.02312469482421875 0.32418501377105713 0.23086954653263092
0.1108115091919899 0.35068884491920471 0.29372319579124451
0.22687290608882904 0.37314268946647644 0.35306248068809509
0.34374114871025085 0.38851252198219299 0.41509795188903809
0.46453315019607544 0.40084463357925415 0.47563967108726501
0.61358177661895752 0.39836528897285461 0.53862303495407104
0.75002032518386841 0.39701998233795166 0.60377305746078491
0.1249859556555748 0.48803931474685669 0.28477847576141357
0.22691574692726135 0.50668346881866455 0.33932116627693176
0.33073535561561584 0.52005469799041748 0.39481374621391296
0.43814048171043396 0.52637499570846558 0.44399821758270264
0.57571476697921753 0.52808016538619995 0.47168746590614319
0.75714313983917236 0.51463609933853149 0.5439109206199646
0.9201207160949707 0.50547224283218384 0.61460083723068237
0.21287095546722412 0.62445569038391113 0.31045478582382202
0.31477370858192444 0.63890331983566284 0.36421099305152893
0.41428247094154358 0.65110749006271362 0.41340690851211548
0.52139830589294434 0.6636841893196106 0.44054889678955078
0.65799981355667114 0.6690179705619812 0.43556177616119385
0.85686486959457397 0.64855045080184937 0.49261015653610229
0.99975138902664185 0.626567542552948 0.57381629943847656
0.29251068830490112 0.75928342342376709 0.32500442862510681
0.39141839742660522 0.77188313007354736 0.37376010417938232
0.49398618936538696 0.78492426872253418 0.41029945015907288
0.60380899906158447 0.79815882444381714 0.42002168297767639
0.73240035772323608 0.80794054269790649 0.39190411567687988
0.9290848970413208 0.79217195510864258 0.42472556233406067
1 0.76641750335693359 0.50193524360656738
0.36893928050994873 0.89961808919906616 0.31226861476898193
0.46492105722427368 0.91382771730422974 0.35474228858947754
0.56802278757095337 0.92726188898086548 0.38044339418411255
0.6813586950302124 0.93971437215805054 0.37898930907249451
0.81815755367279053 0.94610923528671265 0.35625910758972168
0.98820167779922485 0.93444198369979858 0.37373059988021851
1 0.91224533319473267 0.43367260694503784
0 0 0
0 0.0049683963879942894 0.014532066881656647
0.012437139637768269 0.037237878888845444 0.09466080367565155
0.062984496355056763 0.072224713861942291 0.2192857563495636
0.15761247277259827 0.097229406237602234 0.35330978035926819
0.28981253504753113 0.11395230889320374 0.47393059730529785
0.43586984276771545 0.13051256537437439 0.56316781044006348
3.7728103052359074e-05 0.13285531103610992 0.18144765496253967
0.0019723032601177692 0.18480771780014038 0.27477535605430603
0.074083276093006134 0.21820570528507233 0.36011782288551331
0.18698364496231079 0.24627870321273804 0.44075638055801392
0.30912309885025024 0.26663294434547424 0.50907176733016968
0.43405130505561829 0.28162604570388794 0.57653319835662842
0.56491243839263916 0.29485002160072327 0.64022469520568848
0.012743662111461163 0.347757488489151 0.31351706385612488
0.071466811001300812 0.37806004285812378 0.38465595245361328
0.18351967632770538 0.39438310265541077 0.44282010197639465
0.31103843450546265 0.40971997380256653 0.49483463168144226
0.43013721704483032 0.42050516605377197 0.55229276418685913
0.5486646294593811 0.42644321918487549 0.60949748754501343
0.67447882890701294 0.43106037378311157 0.67120504379272461
0.099987104535102844 0.51060038805007935 0.36580252647399902
0.19016040861606598 0.52818435430526733 0.42125123739242554
0.29812747240066528 0.53814995288848877 0.47071191668510437
0.41226363182067871 0.54577916860580444 0.52381998300552368
0.52397888898849487 0.55163407325744629 0.58200973272323608
0.65505695343017578 0.55217033624649048 0.63684624433517456
0.80496931076049805 0.54883205890655518 0.69999319314956665
0.18306709825992584 0.64626264572143555 0.38778531551361084
0.28343680500984192 0.65912693738937378 0.44032630324363708
0.38948091864585876 0.66830730438232422 0.49317345023155212
0.50177830457687378 0.67599880695343018 0.55028098821640015
0.61874866485595703 0.68322217464447021 0.58866733312606812
0.78220117092132568 0.67498159408569336 0.62569952011108398
0.96979010105133057 0.65855830907821655 0.7025178074836731
0.26296299695968628 0.77889502048492432 0.40139377117156982
0.36548596620559692 0.79100489616394043 0.45328587293624878
0.47553372383117676 0.80017024278640747 0.50722002983093262
0.58585363626480103 0.80778074264526367 0.55830425024032593
0.69817626476287842 0.82031375169754028 0.55780941247940063
0.86212575435638428 0.819072425365448 0.56004250049591064
0.99998921155929565 0.79253315925598145 0.6356995701789856
0.34365978837013245 0.91664230823516846 0.40157276391983032
0.44446536898612976 0.92887163162231445 0.45468923449516296
0.5535895824432373 0.93791669607162476 0.50733596086502075
0.66596943140029907 0.94571769237518311 0.54496508836746216
0.78433716297149658 0.95749175548553467 0.52973371744155884
0.94393694400787354 0.95878905057907104 0.51489776372909546
1 0.9377937912940979 0.56289708614349365
0 0.00016892376879695803 0.0018127441871911287
0 0.014212515205144882 0.040815494954586029
0.0014992807991802692 0.054669026285409927 0.16532507538795471
0.048886094242334366 0.092632904648780823 0.30231988430023193
0.14273509383201599 0.11798425018787384 0.44895264506340027
0.26990482211112976 0.13748151063919067 0.56950521469116211
0.40894165635108948 0.15816794335842133 0.64116394519805908
0 0.16171590983867645 0.25544431805610657
3.1415154808200896e-05 0.20955225825309753 0.35596683621406555
0.043468520045280457 0.24603725969791412 0.45684146881103516
0.15696828067302704 0.27195268869400024 0.52590131759643555
0.28391262888908386 0.29127565026283264 0.59470885992050171
0.41144078969955444 0.30652454495429993 0.65861189365386963
0.54032152891159058 0.32097148895263672 0.71869951486587524
0.0067382063716650009 0.37398359179496765 0.3999210000038147
0.044264893978834152 0.40200158953666687 0.46860811114311218
0.14906579256057739 0.41782611608505249 0.52727490663528442
0.28034785389900208 0.43207627534866333 0.57600694894790649
0.40168517827987671 0.44291788339614868 0.630046546459198
0.52157700061798096 0.44855406880378723 0.68714356422424316
0.64210224151611328 0.45563805103302002 0.7472037672996521
0.069700725376605988 0.5338360071182251 0.44872036576271057
0.14924599230289459 0.54889369010925293 0.50232046842575073
0.26385465264320374 0.55691111087799072 0.55198132991790771
0.38064759969711304 0.56544816493988037 0.60247784852981567
0.49361512064933777 0.57074922323226929 0.65744441747665405
0.6163870096206665 0.57338118553161621 0.71139585971832275
0.73739099502563477 0.58020603656768799 0.7719273567199707
0.14991490542888641 0.66792064905166626 0.46891385316848755
0.24566558003425598 0.67853963375091553 0.51862859725952148
0.35879990458488464 0.68541866540908813 0.5705755352973938
0.47207736968994141 0.69561827182769775 0.62336564064025879
0.58868956565856934 0.70021921396255493 0.67625093460083008
0.71442294120788574 0.70251643657684326 0.73512619733810425
0.86546677350997925 0.6984633207321167 0.79620891809463501
0.23276446759700775 0.79981392621994019 0.47959151864051819
0.33442255854606628 0.8113100528717041 0.53022187948226929
0.44830814003944397 0.81923604011535645 0.58491021394729614
0.56324785947799683 0.82508605718612671 0.64617472887039185
0.68192929029464722 0.83070296049118042 0.69642627239227295
0.8086274266242981 0.83795082569122314 0.7131953239440918
0.99120938777923584 0.81753528118133545 0.77096569538116455
0.31785455346107483 0.93608170747756958 0.48382812738418579
0.41973906755447388 0.94793969392776489 0.5391508936882019
0.53171038627624512 0.95595020055770874 0.5969235897064209
0.64682084321975708 0.96058434247970581 0.65319490432739258
0.76497155427932739 0.96653091907501221 0.68566697835922241
0.89472407102584839 0.97731125354766846 0.66805750131607056
1 0.96405601501464844 0.69174659252166748
0 0.0034120746422559023 0.012562157586216927
0 0.033681415021419525 0.099884524941444397
0 0.078700363636016846 0.24521240592002869
0.023557431995868683 0.11356270313262939 0.42008772492408752
0.11693679541349411 0.14163738489151001 0.56998908519744873
0.23883262276649475 0.16276536881923676 0.66415947675704956
0.37399512529373169 0.17778867483139038 0.71836191415786743
7.3900409915950149e-06 0.19275850057601929 0.34692084789276123
0 0.2418806403875351 0.46480011940002441
0.02477550134062767 0.27521499991416931 0.54917865991592407
0.12622757256031036 0.30020782351493835 0.62188529968261719
0.24706754088401794 0.3185846209526062 0.69135326147079468
0.37135517597198486 0.33069866895675659 0.75148361921310425
0.49962154030799866 0.33831989765167236 0.80155014991760254
0.0034565345849841833 0.40335950255393982 0.49683651328086853
0.030405141413211823 0.42749351263046265 0.55909627676010132
0.12860701978206635 0.44301062822341919 0.60990548133850098
0.24955934286117554 0.45720037817955017 0.65925055742263794
0.36612683534622192 0.46807178854942322 0.71737486124038696
0.48510518670082092 0.47301760315895081 0.77650600671768188
0.60737556219100952 0.47672015428543091 0.83268970251083374
0.04443277046084404 0.55483859777450562 0.53558248281478882
0.11422306299209595 0.56712299585342407 0.58482146263122559
0.22967715561389923 0.57751142978668213 0.63478845357894897
0.34709319472312927 0.5871996283531189 0.68601524829864502
0.46040767431259155 0.59442269802093506 0.7418476939201355
0.5828322172164917 0.59751278162002563 0.79627060890197754
0.70483118295669556 0.60238045454025269 0.85357099771499634
0.11683877557516098 0.68763893842697144 0.55255794525146484
0.20488786697387695 0.69798582792282104 0.60081768035888672
0.31969043612480164 0.70643669366836548 0.65151894092559814
0.43696799874305725 0.71429383754730225 0.70555579662322998
0.55558836460113525 0.72016400098800659 0.76083827018737793
0.68159037828445435 0.72281777858734131 0.81711268424987793
0.80451548099517822 0.72803634405136108 0.87535816431045532
0.20357018709182739 0.82102560997009277 0.56264090538024902
0.29948541522026062 0.83222270011901855 0.6129879355430603
0.41270405054092407 0.84045135974884033 0.66508585214614868
0.5306738018989563 0.84603035449981689 0.72191882133483887
0.652637779712677 0.85180908441543579 0.7743908166885376
0.77707076072692871 0.85218209028244019 0.83226460218429565
0.9151531457901001 0.85443973541259766 0.88970023393630981
0.29349991679191589 0.95677095651626587 0.56683051586151123
0.39174222946166992 0.96854281425476074 0.62246227264404297
0.50281298160552979 0.97598206996917725 0.67829984426498413
0.61949414014816284 0.97972720861434937 0.73480576276779175
0.73913198709487915 0.98326689004898071 0.78300982713699341
0.86421138048171997 0.98463469743728638 0.827106773853302
0.99319684505462646 0.98603790998458862 0.83555954694747925
0 0.013339652679860592 0.046293865889310837
0.00081869389396160841 0.051486566662788391 0.16359573602676392
2.956016396638006e-05 0.1047348752617836 0.34743911027908325
0.011775356717407703 0.14181140065193176 0.52701348066329956
0.085897095501422882 0.16565985977649689 0.67562961578369141
0.20477056503295898 0.18090955913066864 0.74938476085662842
0.33832138776779175 0.18973574042320251 0.78857344388961792
0.00046540802577510476 0.22699263691902161 0.45729866623878479
0 0.27377858757972717 0.57490503787994385
0.0054500354453921318 0.30230367183685303 0.65526330471038818
0.086507804691791534 0.32489186525344849 0.71972990036010742
0.19650623202323914 0.33830788731575012 0.79276514053344727
0.32159879803657532 0.3451811671257019 0.8496936559677124
0.45428264141082764 0.34862178564071655 0.8836514949798584
5.4572610679315403e-05 0.42561802268028259 0.58909541368484497
0.008184799924492836 0.45194163918495178 0.6449771523475647
0.080698557198047638 0.46436965465545654 0.6981847882270813
0.19879895448684692 0.47593814134597778 0.7582518458366394
0.31554257869720459 0.48611235618591309 0.81860977411270142
0.43788567185401917 0.48986241221427917 0.87491881847381592
0.5662732720375061 0.49077481031417847 0.92031025886535645
0.026974381878972054 0.57247060537338257 0.62167686223983765
0.08163045346736908 0.58796793222427368 0.67070943117141724
0.18288174271583557 0.59858202934265137 0.72279959917068481
0.30024576187133789 0.60761582851409912 0.77680331468582153
0.41827070713043213 0.61497944593429565 0.83360511064529419
0.54248178005218506 0.61839210987091064 0.88905251026153564
0.66972112655639648 0.62081128358840942 0.94006311893463135
0.094495601952075958 0.70716339349746704 0.63724362850189209
0.17107528448104858 0.71942758560180664 0.68844592571258545
0.27770581841468811 0.72868388891220093 0.73978477716445923
0.39484488964080811 0.73536020517349243 0.79401445388793945
0.51661455631256104 0.74010586738586426 0.85143458843231201
0.6432613730430603 0.74421453475952148 0.9059632420539856
0.76789987087249756 0.74901103973388672 0.96148395538330078
0.18084855377674103 0.84160971641540527 0.64636248350143433
0.26825082302093506 0.85346448421478271 0.70079100131988525
0.37535589933395386 0.86163431406021118 0.75401413440704346
0.49223849177360535 0.86706352233886719 0.80989044904708862
0.61437296867370605 0.87102252244949341 0.8668866753578186
0.73931276798248291 0.87504225969314575 0.92002040147781372
0.862079918384552 0.87820792198181152 0.98015409708023071
0.27319011092185974 0.97592556476593018 0.6484254002571106
0.36548161506652832 0.98526829481124878 0.70744073390960693
0.4721253514289856 0.99002808332443237 0.76367765665054321
0.58754450082778931 0.99275213479995728 0.8188633918762207
0.70807206630706787 0.99433499574661255 0.87153607606887817
0.83372676372528076 0.99476677179336548 0.92828541994094849
0.96445578336715698 0.99501705169677734 0.97513836622238159
