assets/lut/alexjordan dark green 02.cube
# Created by: G'MIC (https://gmic.eu)
TITLE "dark_green_02"
# LUT size
LUT_3D_SIZE 7
# Data domain
DOMAIN_MIN 0.0 0.0 0.0
DOMAIN_MAX 1.0 1.0 1.0
# LUT data points
0 0 0
0 4.6673943870700896e-05 0
0.079876631498336792 0.002074133139103651 0.00035413855221122503
0.19992721080780029 0.0010435516014695168 0.00074133777525275946
0.33253970742225647 0.0037243713159114122 0.00034169215359725058
0.50058597326278687 0.00026269053341820836 0
0.69916379451751709 0 0
0 0 0
0 0 0
0.054713081568479538 0 0
0.18247997760772705 9.918212890625e-05 0.0038256775587797165
0.33197411894798279 0.0081266667693853378 0
0.50924146175384521 0.013573052361607552 0
0.7151448130607605 2.154182038793806e-05 0
0 0.063307411968708038 0
0.0028678744565695524 0.071400463581085205 0.0001011268759611994
0.067977234721183777 0.095366701483726501 0
0.2055598646402359 0.10587047785520554 0
0.37045103311538696 0.11707832664251328 0
0.55487579107284546 0.13232900202274323 5.8880974393105134e-05
0.76269274950027466 0.11910482496023178 0.00011213713878532872
0 0.23921994864940643 0
0.0047109713777899742 0.25713068246841431 1.077091019396903e-05
0.092623919248580933 0.28565603494644165 0.00062632840126752853
0.24463294446468353 0.3077942430973053 0.00042545094038359821
0.41978883743286133 0.32547852396965027 0.0030865687876939774
0.6140332818031311 0.34217825531959534 0.0084631973877549171
0.828014075756073 0.35149583220481873 0.01474284753203392
0 0.46068689227104187 0
0.014377608895301819 0.48300454020500183 0.0023810293059796095
0.12934456765651703 0.51632380485534668 0.0075721591711044312
0.29445132613182068 0.54494631290435791 0.0073128943331539631
0.47709265351295471 0.56810754537582397 0.021136250346899033
0.67849421501159668 0.58971703052520752 0.03086559846997261
0.90213370323181152 0.61483430862426758 0.042421095073223114
0 0.71398580074310303 0
0.046326085925102234 0.74900603294372559 0.0034645530395209789
0.17645159363746643 0.78212755918502808 0.016259405761957169
0.34769898653030396 0.80511802434921265 0.029768386855721474
0.54007422924041748 0.82915675640106201 0.050382066518068314
0.74906456470489502 0.86529302597045898 0.058823142200708389
0.97237116098403931 0.89542490243911743 0.069745846092700958
0.0016882354393601418 0.96634179353713989 0.0036741818767040968
0.088307023048400879 0.99014806747436523 0.011660736985504627
0.22734536230564117 0.99906331300735474 0.026237187907099724
0.40607813000679016 0.99992531538009644 0.053914356976747513
0.60645079612731934 1 0.080475829541683197
0.82409119606018066 1 0.099343381822109222
0.99943703413009644 1 0.11867015808820724
0 0 0.0013494155136868358
0.00046479469165205956 0.0010952819138765335 0.0065885209478437901
0.078880250453948975 0.0053027584217488766 0.0088267307728528976
0.19399125874042511 0.0067317290231585503 0.0137748122215271
0.33762931823730469 0.0051619736477732658 0.014791182242333889
0.50922268629074097 0.00043484556954354048 0.0029698989819735289
0.70712441205978394 0 0
0 0 0
0 0 6.5223845012951642e-05
0.052350558340549469 0 3.1415154808200896e-05
0.17579382658004761 0.00049327773740515113 0.00056762696476653218
0.32905998826026917 0.0096772583201527596 0.0024802263360470533
0.5116686224937439 0.0096584390848875046 0.0044965557754039764
0.72115594148635864 0.0043347678147256374 0.0014881957322359085
0 0.063832677900791168 0.00018101112800650299
4.6973134885774925e-05 0.079105138778686523 0.0064695021137595177
0.071761593222618103 0.10099831223487854 0.0071885650977492332
0.21120220422744751 0.11429394036531448 0.010851242579519749
0.37261882424354553 0.12868861854076385 0.013440540060400963
0.55866318941116333 0.13414770364761353 0.021989187225699425
0.77022212743759155 0.13529618084430695 0.018487114459276199
0 0.24160319566726685 0.00020240334561094642
0.0096084596589207649 0.2653745710849762 0.016747627407312393
0.099380448460578918 0.29609382152557373 0.035917829722166061
0.2539680004119873 0.3187621533870697 0.048225492238998413
0.42911922931671143 0.33771058917045593 0.061889186501502991
0.62326526641845703 0.35077697038650513 0.070072993636131287
0.83972668647766113 0.36130118370056152 0.078078299760818481
0 0.46061611175537109 0.003351608058437705
0.03444945439696312 0.4905560314655304 0.037143722176551819
0.14287345111370087 0.52561163902282715 0.069819025695323944
0.30491533875465393 0.55514734983444214 0.087806731462478638
0.48946887254714966 0.58211374282836914 0.10952614992856979
0.69539409875869751 0.60636031627655029 0.12444060295820236
0.92323839664459229 0.62229520082473755 0.13946586847305298
0 0.7157779335975647 0.039997804909944534
0.05870431661605835 0.75582045316696167 0.073131322860717773
0.19187918305397034 0.78917533159255981 0.10808327049016953
0.36088013648986816 0.81785959005355835 0.12965455651283264
0.55305171012878418 0.85305440425872803 0.15572503209114075
0.76864969730377197 0.88983947038650513 0.1732279509305954
0.98534137010574341 0.8945963978767395 0.19094496965408325
0.0017049153102561831 0.97364360094070435 0.086455307900905609
0.094276368618011475 0.99465584754943848 0.1106414794921875
0.24102850258350372 0.99993413686752319 0.1411575973033905
0.41905489563941956 1 0.16987387835979462
0.61794781684875488 1 0.19773226976394653
0.83298379182815552 1 0.22035075724124908
0.99973881244659424 1 0.24230220913887024
0.00052974926074966788 0 0.082407288253307343
0.0010446585947647691 6.6899316152557731e-05 0.095819376409053802
0.078361034393310547 0.0031692653428763151 0.097843274474143982
0.2042972594499588 0.0018667931435629725 0.091708540916442871
0.34945020079612732 4.356234785518609e-05 0.08381875604391098
0.51584255695343018 0.00034188662539236248 0.071019567549228668
0.71211093664169312 0 0.048743363469839096
0 0.00010190477769356221 0.072710536420345306
0 0 0.065672017633914948
0.052902117371559143 0.00016320920258294791 0.068873539566993713
0.18377126753330231 0.0013470519334077835 0.076582752168178558
0.33078444004058838 0.011298101395368576 0.072603620588779449
0.51502829790115356 0.0064184600487351418 0.082491077482700348
0.72670906782150269 0.0060602673329412937 0.085354208946228027
0 0.071123875677585602 0.062335353344678879
0.00040121638448908925 0.086045838892459869 0.079307988286018372
0.081922091543674469 0.11103375256061554 0.099466629326343536
0.21856813132762909 0.12523418664932251 0.11237915605306625
0.37808814644813538 0.13809619843959808 0.11636152118444443
0.56533259153366089 0.13990995287895203 0.12294871360063553
0.7786247730255127 0.14760670065879822 0.12885485589504242
0 0.24841052293777466 0.081780165433883667
0.012636236846446991 0.27290961146354675 0.10663499683141708
0.11003635078668594 0.30571144819259644 0.13366882503032684
0.26566749811172485 0.32920941710472107 0.15439595282077789
0.43787467479705811 0.35293203592300415 0.17156153917312622
0.63156807422637939 0.3665764331817627 0.18147757649421692
0.84948933124542236 0.38053685426712036 0.1912229061126709
0 0.46596232056617737 0.10228999704122543
0.042120255529880524 0.49984166026115417 0.13753288984298706
0.15528891980648041 0.53782099485397339 0.17577394843101501
0.31747528910636902 0.56851273775100708 0.20256271958351135
0.5015559196472168 0.59653830528259277 0.22599610686302185
0.70718592405319214 0.61944580078125 0.24276116490364075
0.93710851669311523 0.6379355788230896 0.25756138563156128
0 0.71853357553482056 0.14910411834716797
0.065983414649963379 0.7644355297088623 0.1847287118434906
0.20526836812496185 0.8043169379234314 0.22426043450832367
0.37550061941146851 0.83426898717880249 0.25240376591682434
0.56905555725097656 0.86847800016403198 0.27914434671401978
0.78571397066116333 0.90689545869827271 0.29935261607170105
0.98923641443252563 0.9262164831161499 0.31820374727249146
0.002524461830034852 0.978324294090271 0.20418979227542877
0.10164391249418259 0.99785584211349487 0.23473054170608521
0.25465533137321472 1 0.27097651362419128
0.43535974621772766 1 0.30238628387451172
0.63718485832214355 1 0.33065921068191528
0.85633641481399536 1 0.35540148615837097
0.99993538856506348 1 0.38007864356040955
0 0 0.21861700713634491
0.0065111946314573288 0.0032348483800888062 0.22861246764659882
0.075259067118167877 0.0084925629198551178 0.23148861527442932
0.20968352258205414 5.9509278798941523e-05 0.22862233221530914
0.34833657741546631 0 0.21010518074035645
0.51549965143203735 0 0.19582682847976685
0.70756882429122925 0 0.17994990944862366
0 0.0019765517208725214 0.19852061569690704
0.00050186458975076675 0.0045371260493993759 0.19368363916873932
0.058850862085819244 0.0068047316744923592 0.20479479432106018
0.19239114224910736 0.0011967677855864167 0.21399447321891785
0.3430618941783905 0.0058582532219588757 0.2109483927488327
0.52444624900817871 0.015227882191538811 0.21327321231365204
0.7328452467918396 0.029018806293606758 0.21551510691642761
0 0.083365224301815033 0.19643294811248779
0.0025114321615546942 0.096336588263511658 0.20899350941181183
0.082299657166004181 0.11657878011465073 0.22898885607719421
0.22606196999549866 0.13468438386917114 0.24397720396518707
0.39052647352218628 0.14705167710781097 0.25623157620429993
0.57884269952774048 0.1549098789691925 0.26485860347747803
0.7912527322769165 0.16633515059947968 0.27269837260246277
0 0.25761383771896362 0.21592959761619568
0.014532126486301422 0.28302696347236633 0.24272435903549194
0.11638403683900833 0.3139401376247406 0.2689826488494873
0.27609825134277344 0.34171709418296814 0.29053965210914612
0.44954103231430054 0.36629495024681091 0.30917319655418396
0.64364790916442871 0.38065281510353088 0.32383573055267334
0.86070197820663452 0.39588576555252075 0.33567380905151367
0 0.47698551416397095 0.24588334560394287
0.043122190982103348 0.5122191309928894 0.28012570738792419
0.16301959753036499 0.55078208446502686 0.31584540009498596
0.32901915907859802 0.58176559209823608 0.34317848086357117
0.51123249530792236 0.61029040813446045 0.36478725075721741
0.7122795581817627 0.63155460357666016 0.38318398594856262
0.94088160991668701 0.65715068578720093 0.39972507953643799
2.0823759768973105e-05 0.73011469841003418 0.29058718681335449
0.073832526803016663 0.77503901720046997 0.32751256227493286
0.21706570684909821 0.81772005558013916 0.36853912472724915
0.38939076662063599 0.84974807500839233 0.3988707959651947
0.58060348033905029 0.88477343320846558 0.42195087671279907
0.79926866292953491 0.91527473926544189 0.44411909580230713
0.9943777322769165 0.93056637048721313 0.46213585138320923
0.0050564035773277283 0.98256838321685791 0.34588831663131714
0.11121726036071777 0.99830073118209839 0.37985724210739136
0.26777994632720947 1 0.41865447163581848
0.45135590434074402 1 0.45182177424430847
0.65576505661010742 1 0.479257732629776
0.87897074222564697 1 0.50523704290390015
1 1 0.5291823148727417
0 0 0.36246296763420105
0.0027173210401087999 0 0.37190833687782288
0.066208019852638245 0.00034550685086287558 0.36039531230926514
0.19366505742073059 0 0.3533136248588562
0.3443697988986969 0 0.34820345044136047
0.51333779096603394 0 0.33597865700721741
0.70187491178512573 0 0.32619082927703857
0 0 0.34028458595275879
9.9930111900903285e-05 0.0017140108393505216 0.34066992998123169
0.057473290711641312 0.010365849360823631 0.34092292189598083
0.19103893637657166 0.0034312380012124777 0.35129094123840332
0.35127413272857666 0.0018573536071926355 0.36059018969535828
0.53403514623641968 0.011483151465654373 0.36193081736564636
0.73683488368988037 0.041149526834487915 0.36346074938774109
0 0.079904370009899139 0.33974331617355347
0.0018961438909173012 0.10059163719415665 0.35044395923614502
0.080890685319900513 0.12363327294588089 0.36765569448471069
0.23250068724155426 0.14223961532115936 0.38734534382820129
0.40052756667137146 0.15196684002876282 0.40427839756011963
0.59244149923324585 0.16095104813575745 0.41582846641540527
0.80394858121871948 0.17236168682575226 0.42490720748901367
0 0.26104980707168579 0.3608609139919281
0.014154666103422642 0.28962036967277527 0.3869536817073822
0.11890774965286255 0.32408446073532104 0.4137575626373291
0.28328612446784973 0.353433758020401 0.43714356422424316
0.46390745043754578 0.37532070279121399 0.4584808349609375
0.66188114881515503 0.38794872164726257 0.47555708885192871
0.87656325101852417 0.40110480785369873 0.48932406306266785
3.0876610253471881e-05 0.48668608069419861 0.39782103896141052
0.04591674730181694 0.52402299642562866 0.43180882930755615
0.16872388124465942 0.56461614370346069 0.46569544076919556
0.34017446637153625 0.59461426734924316 0.49279269576072693
0.52623695135116577 0.6238551139831543 0.51497066020965576
0.73217713832855225 0.64697778224945068 0.5357738733291626
0.95195305347442627 0.6699872612953186 0.55524152517318726
0.001058421446941793 0.74321848154067993 0.44633564352989197
0.079841136932373047 0.7878527045249939 0.48285171389579773
0.22336365282535553 0.83254456520080566 0.52084314823150635
0.40212821960449219 0.86408209800720215 0.55236637592315674
0.59414243698120117 0.90465056896209717 0.57579183578491211
0.81945270299911499 0.92130535840988159 0.59913992881774902
0.99432897567749023 0.94376188516616821 0.62417352199554443
0.0080071091651916504 0.98800861835479736 0.50275760889053345
0.11806562542915344 0.9994581937789917 0.53788787126541138
0.27760684490203857 1 0.57630336284637451
0.46670469641685486 1 0.61098182201385498
0.67495465278625488 1 0.64028733968734741
0.89445233345031738 1 0.66681063175201416
0.99998277425765991 1 0.69133526086807251
0 0 0.50995552539825439
0.0065472773276269436 0 0.51052588224411011
0.073576785624027252 0 0.50365716218948364
0.19407512247562408 0 0.49914070963859558
0.34548705816268921 0 0.49713408946990967
0.51612067222595215 0 0.49119848012924194
0.70319074392318726 0 0.48869866132736206
0 0 0.49492499232292175
0.00062375538982450962 0 0.4944072961807251
0.064673252403736115 0.0014206082560122013 0.4973127543926239
0.19685591757297516 0.0046685310080647469 0.5076061487197876
0.35912811756134033 0.0030698888003826141 0.51758480072021484
0.541797935962677 0.0087421787902712822 0.52175527811050415
0.73978453874588013 0.027856579050421715 0.52565199136734009
0 0.077125459909439087 0.49857276678085327
0.0033237084280699492 0.097511172294616699 0.50774258375167847
0.085447706282138824 0.12321525812149048 0.52562433481216431
0.23362050950527191 0.14586523175239563 0.54617172479629517
0.40658849477767944 0.15697294473648071 0.56323897838592529
0.60070919990539551 0.17352177202701569 0.57590281963348389
0.80882531404495239 0.18529431521892548 0.58590912818908691
1.6156365745700896e-05 0.26558715105056763 0.52295470237731934
0.025161892175674438 0.29803088307380676 0.54573673009872437
0.12730520963668823 0.33235305547714233 0.57350331544876099
0.2878117561340332 0.36124467849731445 0.59798389673233032
0.47047758102416992 0.38273069262504578 0.61959600448608398
0.67371660470962524 0.39816349744796753 0.63761097192764282
0.89098870754241943 0.41111156344413757 0.65271377563476562
0.0040233987383544445 0.49546673893928528 0.56242918968200684
0.055666185915470123 0.53635305166244507 0.59487485885620117
0.17857402563095093 0.57771986722946167 0.62841665744781494
0.34953749179840088 0.60787379741668701 0.6559678316116333
0.53582930564880371 0.6341126561164856 0.67956578731536865
0.74392592906951904 0.65476495027542114 0.7012515664100647
0.96878856420516968 0.67445063591003418 0.72023648023605347
0.0030519224237650633 0.75239300727844238 0.61376440525054932
0.084259182214736938 0.79996204376220703 0.64977473020553589
0.23160019516944885 0.84830182790756226 0.68702930212020874
0.41313591599464417 0.88352608680725098 0.71919149160385132
0.6042102575302124 0.91854381561279297 0.74714785814285278
0.82649630308151245 0.93782418966293335 0.77013921737670898
0.99862825870513916 0.95951741933822632 0.79197138547897339
0.0097522810101509094 0.99385315179824829 0.6708911657333374
0.12264542281627655 0.99999642372131348 0.70652425289154053
0.28678178787231445 1 0.74538469314575195
0.47984772920608521 1 0.78176891803741455
0.69162017107009888 1 0.81580764055252075
0.92012041807174683 1 0.84360963106155396
1 1 0.86357581615447998
0 0 0.66955769062042236
0.024312561377882957 0 0.6678241491317749
0.098544009029865265 0 0.66559368371963501
0.21509841084480286 0 0.66451084613800049
0.36298814415931702 0 0.66389864683151245
0.53156548738479614 0 0.6629338264465332
0.71583843231201172 0 0.66682142019271851
0 0 0.66381055116653442
0.01659076102077961 0 0.66599094867706299
0.092869415879249573 0.0014440797967836261 0.67257308959960938
0.21908475458621979 0.0056754020042717457 0.68185782432556152
0.37803572416305542 0.0069471322931349277 0.69002670049667358
0.55735516548156738 0.0077785714529454708 0.69541269540786743
0.74960082769393921 0.011824050918221474 0.70268666744232178
0 0.09183020144701004 0.6747550368309021
0.024934969842433929 0.10678253322839737 0.68574845790863037
0.11051560938358307 0.13173188269138336 0.70412814617156982
0.2492319792509079 0.15428890287876129 0.72298896312713623
0.420806884765625 0.16849754750728607 0.73755228519439697
0.61338132619857788 0.17890182137489319 0.74941426515579224
0.81690728664398193 0.19074319303035736 0.76104676723480225
0.0017459794180467725 0.27753686904907227 0.7033427357673645
0.047945719212293625 0.30664211511611938 0.7247617244720459
0.14872826635837555 0.34080126881599426 0.75227397680282593
0.29961943626403809 0.3698679506778717 0.77749925851821899
0.4798235297203064 0.39249357581138611 0.79741448163986206
0.68367904424667358 0.41120263934135437 0.81485205888748169
0.90181094408035278 0.42579272389411926 0.82997608184814453
0.0093281762674450874 0.50239092111587524 0.74496513605117798
0.075097270309925079 0.54511719942092896 0.77442252635955811
0.19643415510654449 0.58507382869720459 0.80855846405029297
0.35982656478881836 0.6190599799156189 0.83845621347427368
0.54613602161407471 0.64505428075790405 0.86360150575637817
0.75633227825164795 0.67043173313140869 0.88463324308395386
0.98012024164199829 0.68821430206298828 0.90199309587478638
0.012946529313921928 0.76563012599945068 0.79298245906829834
0.10164826363325119 0.80843979120254517 0.82910460233688354
0.24703408777713776 0.85047602653503418 0.8683897852897644
0.42198258638381958 0.89643222093582153 0.90213936567306519
0.61676806211471558 0.92960929870605469 0.93060779571533203
0.83988195657730103 0.9493793249130249 0.95397073030471802
0.99854415655136108 0.97258627414703369 0.97401565313339233
0.016853077337145805 0.99821919202804565 0.84984016418457031
0.13655318319797516 1 0.88577508926391602
0.30026891827583313 1 0.92557775974273682
0.4901408851146698 1 0.96231043338775635
0.70326769351959229 1 0.98657238483428955
0.93062806129455566 0.99997663497924805 0.99696940183639526
1 1 0.99938768148422241
