assets/lut/alexjordan contrasty afternoon.cube
# Created by: G'MIC (https://gmic.eu)
TITLE "contrasty_afternoon"
# LUT size
LUT_3D_SIZE 7
# Data domain
DOMAIN_MIN 0.0 0.0 0.0
DOMAIN_MAX 1.0 1.0 1.0
# LUT data points
0 0 0
0.0014358221087604761 0.00088466570014134049 0
0.14817337691783905 0.0013488769764080644 0
0.32343670725822449 0 0
0.49409151077270508 0 0
0.65678828954696655 4.6673944780195598e-06 0
0.80746555328369141 0.00096906773978844285 0
7.5845156970899552e-05 0.011118451133370399 0
0.010450969450175762 0.012382088229060173 0.0013422648189589381
0.17671643197536469 0.01539312582463026 6.1035157159494702e-06
0.35041719675064087 0.014039657078683376 0
0.52156060934066772 0.028463535010814667 0.0018273746827617288
0.6852574348449707 0.052596837282180786 0.00036028694012202322
0.83398991823196411 0.072819732129573822 0
0.00023900948872324079 0.19300562143325806 0.0002910539333242923
0.037909965962171555 0.19071996212005615 0
0.19880114495754242 0.19026410579681396 0
0.37795892357826233 0.18446874618530273 0
0.55154949426651001 0.19319647550582886 0.0019371630623936653
0.71652013063430786 0.20527571439743042 7.180606644396903e-06
0.86234587430953979 0.2236093133687973 6.7677217884920537e-05
0.0058368309400975704 0.37245208024978638 0.011241628788411617
0.081700436770915985 0.37214827537536621 0.0011872384930029511
0.23386864364147186 0.36998927593231201 0
0.40822339057922363 0.37338107824325562 0.00083627138519659638
0.58041906356811523 0.3834235668182373 0.011755640618503094
0.74391824007034302 0.39325723052024841 0.0066404007375240326
0.89014679193496704 0.40864557027816772 0.0072875679470598698
0.016795722767710686 0.55128675699234009 0.028015285730361938
0.11292251944541931 0.55157381296157837 0.0081154471263289452
0.26195600628852844 0.55259913206100464 0.0015675263712182641
0.43412181735038757 0.55775517225265503 0.0037056568544358015
0.60772019624710083 0.56480956077575684 0.014050368219614029
0.77264666557312012 0.57315200567245483 0.020586125552654266
0.92231041193008423 0.58900314569473267 0.027604136615991592
0.04106488823890686 0.73689228296279907 0.048625346273183823
0.14762738347053528 0.73700368404388428 0.023421013727784157
0.29303103685379028 0.74007445573806763 0.0098029496148228645
0.46110028028488159 0.74477320909500122 0.0085360659286379814
0.63411766290664673 0.74915921688079834 0.019780835136771202
0.79997718334197998 0.75684279203414917 0.03564930334687233
0.95349377393722534 0.77241748571395874 0.051651149988174438
0.077713161706924438 0.92610293626785278 0.073927871882915497
0.19098053872585297 0.92610293626785278 0.050043247640132904
0.33375033736228943 0.92859923839569092 0.032731134444475174
0.49625924229621887 0.93261587619781494 0.029034020379185677
0.66471219062805176 0.9373970627784729 0.040623534470796585
0.82918083667755127 0.9459758996963501 0.058665405958890915
0.98184734582901001 0.96117502450942993 0.076958931982517242
0 0 0.037893034517765045
0.0015372481429949403 3.1115963793126866e-05 0.02377026155591011
0.15088054537773132 0.0028198841027915478 0.038834694772958755
0.32785847783088684 0.00088174856500700116 0.029190167784690857
0.49824833869934082 0.0026147281751036644 0.044187027961015701
0.66002219915390015 0.00035059312358498573 0.040773205459117889
0.80754637718200684 0 0.052428629249334335
0.00043037266004830599 0.013648523017764091 0.054206173866987228
0.011725272051990032 0.014406660571694374 0.050248149782419205
0.17986483871936798 0.013831254094839096 0.057082455605268478
0.35469913482666016 0.018750928342342377 0.062757261097431183
0.52529716491699219 0.044195078313350677 0.07288583368062973
0.68688440322875977 0.049067165702581406 0.07764783501625061
0.83365315198898315 0.036958403885364532 0.088396228849887848
0 0.1940457820892334 0.0852188840508461
0.028085716068744659 0.19369798898696899 0.077055908739566803
0.20368832349777222 0.19318662583827972 0.073130525648593903
0.38158431649208069 0.19068305194377899 0.077274441719055176
0.55261397361755371 0.2009611576795578 0.089220590889453888
0.71596789360046387 0.2011130154132843 0.091353021562099457
0.86113941669464111 0.20402830839157104 0.1056673526763916
0 0.36946409940719604 0.12255392968654633
0.059945873916149139 0.3728664219379425 0.1067848801612854
0.22438704967498779 0.37626644968986511 0.099210597574710846
0.40680798888206482 0.37746411561965942 0.11270837485790253
0.58102214336395264 0.38532894849777222 0.12707023322582245
0.74539971351623535 0.39064991474151611 0.12796176970005035
0.88873225450515747 0.40171808004379272 0.13686878979206085
0.00032961976830847561 0.55189257860183716 0.15355628728866577
0.079081259667873383 0.5538705587387085 0.13453924655914307
0.24267606437206268 0.55702835321426392 0.1230630949139595
0.4277549684047699 0.56167209148406982 0.13103304803371429
0.60690736770629883 0.56807619333267212 0.14770381152629852
0.77202701568603516 0.57579851150512695 0.15966413915157318
0.91769123077392578 0.5891185998916626 0.17242002487182617
0.012342325411736965 0.73702317476272583 0.18156838417053223
0.11735641211271286 0.7386285662651062 0.16137345135211945
0.27324405312538147 0.74201256036758423 0.14795975387096405
0.45256814360618591 0.74650031328201294 0.14936515688896179
0.63118350505828857 0.75134581327438354 0.16497395932674408
0.79679971933364868 0.75941431522369385 0.18363967537879944
0.94695627689361572 0.77339529991149902 0.20170474052429199
0.050582181662321091 0.92610293626785278 0.21141299605369568
0.1656048446893692 0.92610293626785278 0.19167426228523254
0.31580156087875366 0.92879402637481689 0.17883297801017761
0.48668169975280762 0.93217694759368896 0.17817176878452301
0.66065353155136108 0.93660318851470947 0.19073043763637543
0.82622754573822021 0.94452458620071411 0.20923824608325958
0.9783821702003479 0.95900481939315796 0.22838450968265533
0 0 0.20498573780059814
0.0037571776192635298 0 0.20122356712818146
0.1505843847990036 0 0.20000000298023224
0.32985040545463562 0 0.19944518804550171
0.49917921423912048 0.0001895680179586634 0.20593415200710297
0.65927016735076904 0 0.21041333675384521
0.80791813135147095 0 0.22586259245872498
0 0.023293992504477501 0.23011012375354767
0.012267393060028553 0.019064165651798248 0.22587139904499054
0.17935390770435333 0.015520207583904266 0.22519461810588837
0.35863405466079712 0.02591400220990181 0.23034451901912689
0.52802133560180664 0.053238499909639359 0.23266364634037018
0.68724805116653442 0.054186083376407623 0.24171748757362366
0.83479076623916626 0.040899612009525299 0.25944679975509644
0 0.19098539650440216 0.25544512271881104
0.029389878734946251 0.18933910131454468 0.25366911292076111
0.20160418748855591 0.19338607788085938 0.253589928150177
0.38573408126831055 0.19217070937156677 0.25601652264595032
0.55520570278167725 0.20005349814891815 0.26057380437850952
0.71685254573822021 0.19990438222885132 0.26731783151626587
0.86387336254119873 0.19822415709495544 0.27909210324287415
0 0.37032106518745422 0.28166940808296204
0.051649414002895355 0.37309160828590393 0.27779084444046021
0.22070948779582977 0.37831532955169678 0.27906623482704163
0.40854370594024658 0.37978869676589966 0.28573262691497803
0.58296924829483032 0.38528016209602356 0.29103010892868042
0.74840909242630005 0.38759693503379822 0.2964387834072113
0.8926461935043335 0.39388379454612732 0.30562940239906311
0 0.55433773994445801 0.30994859337806702
0.061822358518838882 0.55684655904769897 0.30242165923118591
0.23462226986885071 0.56027644872665405 0.29897782206535339
0.42678371071815491 0.56447106599807739 0.30432876944541931
0.60758888721466064 0.57039415836334229 0.31371921300888062
0.77236729860305786 0.5778471827507019 0.32475119829177856
0.91582143306732178 0.58928775787353516 0.33845865726470947
0.0027638901956379414 0.73939186334609985 0.33745452761650085
0.10171543061733246 0.74116379022598267 0.32605326175689697
0.26537677645683289 0.7441747784614563 0.32026061415672302
0.45137444138526917 0.74826979637145996 0.32343593239784241
0.632041335105896 0.7533147931098938 0.33452871441841125
0.79671216011047363 0.76132750511169434 0.35041156411170959
0.94321656227111816 0.77507942914962769 0.36760374903678894
0.03297017514705658 0.92610293626785278 0.36680930852890015
0.15047769248485565 0.92669153213500977 0.35365918278694153
0.30747821927070618 0.92968225479125977 0.34693506360054016
0.48505592346191406 0.93265730142593384 0.34874242544174194
0.66219085454940796 0.93625819683074951 0.35934150218963623
0.82816720008850098 0.94317662715911865 0.37578389048576355
0.97725272178649902 0.95770740509033203 0.39261534810066223
2.6927275030175224e-05 0 0.37834781408309937
0.032915495336055756 0 0.37574243545532227
0.16062834858894348 0 0.37353259325027466
0.33153480291366577 0 0.37434887886047363
0.50135183334350586 0 0.37951162457466125
0.65946716070175171 0.0010435516014695168 0.38902023434638977
0.8081246018409729 0.002621878869831562 0.40303272008895874
0.0023686876520514488 0.01500046718865633 0.40204906463623047
0.039414528757333755 0.018515791743993759 0.39976516366004944
0.18142586946487427 0.016083316877484322 0.39838594198226929
0.36040639877319336 0.036359615623950958 0.40151333808898926
0.53171002864837646 0.062771379947662354 0.40748095512390137
0.68931490182876587 0.071562103927135468 0.41742601990699768
0.83566939830780029 0.072515211999416351 0.43140193819999695
0.0021532394457608461 0.19346550107002258 0.42359483242034912
0.05071747675538063 0.18698182702064514 0.42407712340354919
0.20417386293411255 0.18581534922122955 0.42476364970207214
0.38918560743331909 0.19512487947940826 0.42828595638275146
0.56090092658996582 0.20686846971511841 0.43343666195869446
0.72042912244796753 0.21040743589401245 0.44144678115844727
0.86674267053604126 0.2103983610868454 0.45332616567611694
0 0.37693485617637634 0.4494268000125885
0.062540464103221893 0.37539786100387573 0.45030245184898376
0.22686849534511566 0.37561041116714478 0.45414447784423828
0.41426673531532288 0.38078469038009644 0.45749899744987488
0.58739519119262695 0.38828352093696594 0.46035119891166687
0.75120389461517334 0.39420020580291748 0.46554115414619446
0.89718985557556152 0.39772039651870728 0.47673618793487549
0 0.55928307771682739 0.47692731022834778
0.075404658913612366 0.55977052450180054 0.47540032863616943
0.24338674545288086 0.56130576133728027 0.47783288359642029
0.43285191059112549 0.56596678495407104 0.48155823349952698
0.60911601781845093 0.5732799768447876 0.48576503992080688
0.77408689260482788 0.58062744140625 0.49322989583015442
0.92053639888763428 0.58895081281661987 0.50634753704071045
0.0024933458771556616 0.74250251054763794 0.50415927171707153
0.10406425595283508 0.74309855699539185 0.49936053156852722
0.2705356776714325 0.74574655294418335 0.49943375587463379
0.45785373449325562 0.74992150068283081 0.50305652618408203
0.63558292388916016 0.75474506616592407 0.50924146175384521
0.80038309097290039 0.76104581356048584 0.52027732133865356
0.94619715213775635 0.7738116979598999 0.53501588106155396
0.024439014494419098 0.92727196216583252 0.53270578384399414
0.14434653520584106 0.92783790826797485 0.52530419826507568
0.30760335922241211 0.93059778213500977 0.5236089825630188
0.48988962173461914 0.93406462669372559 0.526478111743927
0.6667296290397644 0.93698316812515259 0.53381830453872681
0.83164763450622559 0.94264024496078491 0.54669654369354248
0.97721230983734131 0.95743864774703979 0.56108015775680542
0.0065316441468894482 0 0.54695808887481689
0.056046534329652786 0 0.54519981145858765
0.1715492308139801 0 0.54484105110168457
0.33447244763374329 0 0.54694610834121704
0.5042651891708374 0 0.55296891927719116
0.6606602668762207 0.00061896827537566423 0.56351745128631592
0.80936378240585327 0.0025294285733252764 0.57597231864929199
0.0080713313072919846 0.017524510622024536 0.57052099704742432
0.052636299282312393 0.020114868879318237 0.56980711221694946
0.18300053477287292 0.026544233784079552 0.57007825374603271
0.3595585823059082 0.047261286526918411 0.57345783710479736
0.53390216827392578 0.069749705493450165 0.58021694421768188
0.69024151563644409 0.077486194670200348 0.59061121940612793
0.83568763732910156 0.080097153782844543 0.60299414396286011
1.5079273907758761e-05 0.19338582456111908 0.59506899118423462
0.048164144158363342 0.19004601240158081 0.59416800737380981
0.20325843989849091 0.19092404842376709 0.5958172082901001
0.38893181085586548 0.20110443234443665 0.60024392604827881
0.56288021802902222 0.21274496614933014 0.60633760690689087
0.72103303670883179 0.21533851325511932 0.61484748125076294
0.86624628305435181 0.21399112045764923 0.62649816274642944
0 0.37993180751800537 0.61933833360671997
0.059799104928970337 0.37772119045257568 0.61948639154434204
0.22805929183959961 0.37744948267936707 0.6237221360206604
0.41632378101348877 0.3821176290512085 0.62840807437896729
0.59005230665206909 0.38947939872741699 0.63252639770507812
0.75157493352890015 0.3941434919834137 0.63873296976089478
0.89798438549041748 0.39761501550674438 0.65037119388580322
0.00019244026043452322 0.56316345930099487 0.6466367244720459
0.084731116890907288 0.56182444095611572 0.64652889966964722
0.25198763608932495 0.5619502067565918 0.6509242057800293
0.44048365950584412 0.56599515676498413 0.65576595067977905
0.61201071739196777 0.57350295782089233 0.65838724374771118
0.77673947811126709 0.57881170511245728 0.66489326953887939
0.92395633459091187 0.58665043115615845 0.67800295352935791
0.0032701380550861359 0.74442523717880249 0.67430156469345093
0.10649717599153519 0.74322360754013062 0.67240291833877563
0.27732077240943909 0.7458338737487793 0.67571735382080078
0.46704521775245667 0.75012445449829102 0.68001598119735718
0.63953834772109985 0.75558805465698242 0.68236488103866577
0.80354887247085571 0.75984030961990356 0.69033253192901611
0.94758594036102295 0.77347284555435181 0.70537817478179932
0.019365288317203522 0.92803424596786499 0.70284420251846313
0.13751165568828583 0.92719393968582153 0.69826167821884155
0.30806645750999451 0.93081569671630859 0.69977211952209473
0.49624323844909668 0.93564224243164062 0.70325237512588501
0.66949015855789185 0.9391445517539978 0.70700716972351074
0.83018738031387329 0.94535189867019653 0.71732646226882935
0.97436493635177612 0.96023106575012207 0.73185938596725464
0.0031107135582715273 0 0.71690303087234497
0.056644439697265625 0 0.71568191051483154
0.17189735174179077 0 0.71674299240112305
0.3321300745010376 0 0.71986645460128784
0.5017324686050415 0 0.72629475593566895
0.65991640090942383 0 0.73627609014511108
0.81089669466018677 0.00034071979462169111 0.74753481149673462
0.0001822078920667991 0.017295029014348984 0.73931795358657837
0.038572154939174652 0.019943177700042725 0.73946535587310791
0.17581512033939362 0.027865855023264885 0.7411687970161438
0.35397511720657349 0.048941038548946381 0.74538695812225342
0.52938580513000488 0.069253169000148773 0.75278371572494507
0.68821430206298828 0.076984435319900513 0.76288634538650513
0.83695846796035767 0.08281148225069046 0.77426004409790039
0 0.19312755763530731 0.76443248987197876
0.03315378725528717 0.19388292729854584 0.76358449459075928
0.2042662650346756 0.19696274399757385 0.76554816961288452
0.38709601759910583 0.20608952641487122 0.77143752574920654
0.55975604057312012 0.21604926884174347 0.77917367219924927
0.71854192018508911 0.21862074732780457 0.78878772258758545
0.86633127927780151 0.22092193365097046 0.79990690946578979
0.00012431424693204463 0.38217064738273621 0.79058682918548584
0.066687837243080139 0.38018056750297546 0.78923404216766357
0.23560628294944763 0.38082277774810791 0.79259669780731201
0.41809844970703125 0.38497191667556763 0.79881346225738525
0.58941084146499634 0.39102494716644287 0.80579245090484619
0.74832159280776978 0.39392799139022827 0.81484824419021606
0.89588463306427002 0.39888998866081238 0.82662343978881836
0.0060283886268734932 0.56595665216445923 0.81797844171524048
0.096991188824176788 0.56299543380737305 0.81685888767242432
0.25791445374488831 0.56288391351699829 0.82078319787979126
0.44237059354782104 0.56671720743179321 0.82629555463790894
0.61458861827850342 0.57326561212539673 0.83129847049713135
0.7748529314994812 0.5791134238243103 0.84075158834457397
0.92201989889144897 0.58869463205337524 0.85471141338348389
0.0052947397343814373 0.74515879154205322 0.84529906511306763
0.10634933412075043 0.74222952127456665 0.84314852952957153
0.27665376663208008 0.74452096223831177 0.84682035446166992
0.46619164943695068 0.74972391128540039 0.85120552778244019
0.64019966125488281 0.75617110729217529 0.85426539182662964
0.80120772123336792 0.76305747032165527 0.86491841077804565
0.94663059711456299 0.77579742670059204 0.88235867023468018
0.016206061467528343 0.92772078514099121 0.87399387359619141
0.12739896774291992 0.92504948377609253 0.869468092918396
0.30252343416213989 0.92887258529663086 0.87154805660247803
0.49256369471549988 0.9345405101776123 0.87484049797058105
0.66892445087432861 0.93967247009277344 0.87809062004089355
0.8318367600440979 0.94651710987091064 0.88917654752731323
0.97403490543365479 0.96143037080764771 0.90560680627822876
5.834242983837612e-05 0 0.89158123731613159
0.05467967689037323 0 0.89005148410797119
0.1716039776802063 0 0.89114171266555786
0.32882589101791382 0 0.8946765661239624
0.49594047665596008 0 0.90105533599853516
0.65738898515701294 0 0.9100111722946167
0.81274223327636719 0.00014935662329662591 0.92022144794464111
0 0.019721684977412224 0.9138762354850769
0.037587873637676239 0.016584165394306183 0.91307812929153442
0.17235288023948669 0.022270023822784424 0.91493839025497437
0.34698712825775146 0.044073667377233505 0.91926151514053345
0.52096378803253174 0.065196886658668518 0.92651146650314331
0.68395960330963135 0.07851843535900116 0.93574482202529907
0.83808892965316772 0.090993635356426239 0.94621318578720093
0 0.19196546077728271 0.93829810619354248
0.049518287181854248 0.18958060443401337 0.93699735403060913
0.20388118922710419 0.19331163167953491 0.93869614601135254
0.38048410415649414 0.20553655922412872 0.94438654184341431
0.55234962701797485 0.21796689927577972 0.95262622833251953
0.71394342184066772 0.22471274435520172 0.96202647686004639
0.86692827939987183 0.23329490423202515 0.97097682952880859
0.0061180265620350838 0.38037192821502686 0.96416008472442627
0.089935123920440674 0.37778183817863464 0.96227717399597168
0.24103093147277832 0.37882140278816223 0.96419095993041992
0.41407755017280579 0.3848382830619812 0.96949917078018188
0.5837516188621521 0.39276432991027832 0.97606104612350464
0.74329584836959839 0.39819318056106567 0.98292249441146851
0.8939242959022522 0.40721985697746277 0.98934304714202881
0.021576525643467903 0.56523311138153076 0.98429328203201294
0.11624932289123535 0.56165069341659546 0.98295360803604126
0.26473701000213623 0.56179988384246826 0.98441994190216064
0.43926906585693359 0.56650424003601074 0.98751401901245117
0.61071676015853882 0.57373762130737305 0.99097448587417603
0.77071619033813477 0.58208340406417847 0.99522674083709717
0.91939473152160645 0.59500658512115479 0.99852222204208374
0.018583111464977264 0.74548202753067017 0.99629580974578857
0.12369449436664581 0.74223488569259644 0.99540537595748901
0.28160369396209717 0.74348992109298706 0.9961245059967041
0.46219304203987122 0.74880689382553101 0.99724537134170532
0.63771951198577881 0.75562828779220581 0.99827289581298828
0.80007737874984741 0.76480752229690552 0.99981707334518433
0.94605720043182373 0.77988278865814209 1
0.030083360150456429 0.9291616678237915 1
0.14248467981815338 0.92598158121109009 1
0.30593660473823547 0.92818355560302734 1
0.4886573851108551 0.93332076072692871 1
0.6675904393196106 0.93924522399902344 1
0.83391624689102173 0.94726467132568359 1
0.97343355417251587 0.96460837125778198 1
