assets/lut/alexjordan faded retro 01.cube
# Created by: G'MIC (https://gmic.eu)
TITLE "faded_retro_01"
# LUT size
LUT_3D_SIZE 7
# Data domain
DOMAIN_MIN 0.0 0.0 0.0
DOMAIN_MAX 1.0 1.0 1.0
# LUT data points
0.11739808320999146 0.12122358381748199 0.17239533364772797
0.18175381422042847 0.1183542013168335 0.16721269488334656
0.3188227117061615 0.088070809841156006 0.14278887212276459
0.48094439506530762 0.060070712119340897 0.12198152393102646
0.61427098512649536 0.044389389455318451 0.11737751960754395
0.70020627975463867 0.053131476044654846 0.13051387667655945
0.7488667368888855 0.0744142085313797 0.15122310817241669
0.11838901042938232 0.17734122276306152 0.17077705264091492
0.18534085154533386 0.18024654686450958 0.17254087328910828
0.33424592018127441 0.17099687457084656 0.16332554817199707
0.51894497871398926 0.16325992345809937 0.15503183007240295
0.66725969314575195 0.16360379755496979 0.1619773656129837
0.75933384895324707 0.19204080104827881 0.18033967912197113
0.81034231185913086 0.2232728898525238 0.20990104973316193
0.094803512096405029 0.31411093473434448 0.14794407784938812
0.17731593549251556 0.32753661274909973 0.1602044403553009
0.33299294114112854 0.33303666114807129 0.16461677849292755
0.53087913990020752 0.33204758167266846 0.16458334028720856
0.68361485004425049 0.34376716613769531 0.17067360877990723
0.77985191345214844 0.37513169646263123 0.19003450870513916
0.83054840564727783 0.40747427940368652 0.2145417183637619
0.091394953429698944 0.49500694870948792 0.14443902671337128
0.18284019827842712 0.51925086975097656 0.15970602631568909
0.33686903119087219 0.53148877620697021 0.16927774250507355
0.52699738740921021 0.53019028902053833 0.16495400667190552
0.67982053756713867 0.53720551729202271 0.1666320264339447
0.77349239587783813 0.56212830543518066 0.18308430910110474
0.8217204213142395 0.58728909492492676 0.20508402585983276
0.12120839953422546 0.66548967361450195 0.17076112329959869
0.2212083637714386 0.69294881820678711 0.18428400158882141
0.36930987238883972 0.70565897226333618 0.19113464653491974
0.54357689619064331 0.6946793794631958 0.17883174121379852
0.68615996837615967 0.68889379501342773 0.17370688915252686
0.76932042837142944 0.70504343509674072 0.18590964376926422
0.80925887823104858 0.72500061988830566 0.20744192600250244
0.17121937870979309 0.79679751396179199 0.21936184167861938
0.27172002196311951 0.8180849552154541 0.22972120344638824
0.41229209303855896 0.81831419467926025 0.22571952641010284
0.57680982351303101 0.79515296220779419 0.20536361634731293
0.71108788251876831 0.77703672647476196 0.19290812313556671
0.78233706951141357 0.78207343816757202 0.19422474503517151
0.81359809637069702 0.79260218143463135 0.20556893944740295
0.2259964793920517 0.8880765438079834 0.27356812357902527
0.32291993498802185 0.8980332612991333 0.28082826733589172
0.45457082986831665 0.88387727737426758 0.26681861281394958
0.6110113263130188 0.84965425729751587 0.23811642825603485
0.73956799507141113 0.82179945707321167 0.22016163170337677
0.79921025037765503 0.81977498531341553 0.20815151929855347
0.82417100667953491 0.82419902086257935 0.20744949579238892
0.12236437201499939 0.1283804327249527 0.22790390253067017
0.18159401416778564 0.12218552827835083 0.22064493596553802
0.32100912928581238 0.098781988024711609 0.20120938122272491
0.48670709133148193 0.072660736739635468 0.17969025671482086
0.62134456634521484 0.056939698755741119 0.1714150607585907
0.70106798410415649 0.065981082618236542 0.18763042986392975
0.74168407917022705 0.091990530490875244 0.20652030408382416
0.11919860541820526 0.18008758127689362 0.22187195718288422
0.18634065985679626 0.19017952680587769 0.22347377240657806
0.33819761872291565 0.18236716091632843 0.22150722146034241
0.52479904890060425 0.17718395590782166 0.21535934507846832
0.67699211835861206 0.17935380339622498 0.22216622531414032
0.76812434196472168 0.20513227581977844 0.24409987032413483
0.81079769134521484 0.24319741129875183 0.2701871395111084
0.094407342374324799 0.31728416681289673 0.1995837390422821
0.18432070314884186 0.33952337503433228 0.21697075664997101
0.34494677186012268 0.34785786271095276 0.22485099732875824
0.54002600908279419 0.34787878394126892 0.22560875117778778
0.69749349355697632 0.35714995861053467 0.23603640496730804
0.79459011554718018 0.38746330142021179 0.26011529564857483
0.83891391754150391 0.42553567886352539 0.28520998358726501
0.092511989176273346 0.50581568479537964 0.20104488730430603
0.19278478622436523 0.53038656711578369 0.21957477927207947
0.35383188724517822 0.54185670614242554 0.23160691559314728
0.54253333806991577 0.54235070943832397 0.22761201858520508
0.69466626644134521 0.54952764511108398 0.23106883466243744
0.78588962554931641 0.57348120212554932 0.25085589289665222
0.82874029874801636 0.60077536106109619 0.2713380753993988
0.12534153461456299 0.68304240703582764 0.23011817038059235
0.22876955568790436 0.70448940992355347 0.24558334052562714
0.38199076056480408 0.70961052179336548 0.25128453969955444
0.55860203504562378 0.70086824893951416 0.23745132982730865
0.69838708639144897 0.6970105767250061 0.23519270122051239
0.77609717845916748 0.70984673500061035 0.2492971271276474
0.81243348121643066 0.72621673345565796 0.27016666531562805
0.18404173851013184 0.81167316436767578 0.2879963219165802
0.28211051225662231 0.82610470056533813 0.29332444071769714
0.42242926359176636 0.81899416446685791 0.28323632478713989
0.58575010299682617 0.79626858234405518 0.26050487160682678
0.7160106897354126 0.77923619747161865 0.24996817111968994
0.78214108943939209 0.78026688098907471 0.25367310643196106
0.80846500396728516 0.78728115558624268 0.26759541034698486
0.24668087065219879 0.89814239740371704 0.34784266352653503
0.33806011080741882 0.90148311853408813 0.34629663825035095
0.46433404088020325 0.88093453645706177 0.32140907645225525
0.61406457424163818 0.84701859951019287 0.28970658779144287
0.73682999610900879 0.82043218612670898 0.27351689338684082
0.79398459196090698 0.81200754642486572 0.26571208238601685
0.81304836273193359 0.81262028217315674 0.26745837926864624
0.11835607141256332 0.11858679354190826 0.35418221354484558
0.18440118432044983 0.11255144327878952 0.34432625770568848
0.31123071908950806 0.088550806045532227 0.3237612247467041
0.47390967607498169 0.069490425288677216 0.3008982241153717
0.61008554697036743 0.06046588346362114 0.29352062940597534
0.69179469347000122 0.071971550583839417 0.307373046875
0.73337417840957642 0.10009103268384933 0.32608586549758911
0.11614377051591873 0.17537006735801697 0.34613311290740967
0.18963722884654999 0.18754781782627106 0.35044288635253906
0.33447650074958801 0.18393343687057495 0.34744441509246826
0.51982539892196655 0.18222647905349731 0.34044578671455383
0.67240899801254272 0.18707287311553955 0.34637519717216492
0.76558029651641846 0.21025629341602325 0.36846601963043213
0.80617392063140869 0.25240004062652588 0.38969895243644714
0.098499849438667297 0.31630188226699829 0.32931295037269592
0.19124732911586761 0.33963713049888611 0.34547305107116699
0.35311311483383179 0.35015091300010681 0.35639229416847229
0.54699623584747314 0.35159662365913391 0.3596528172492981
0.70175826549530029 0.36179092526435852 0.36967858672142029
0.79898297786712646 0.38916859030723572 0.39429506659507751
0.84060186147689819 0.42932355403900146 0.41647979617118835
0.098742693662643433 0.50886672735214233 0.32908180356025696
0.20107215642929077 0.53279852867126465 0.34807321429252625
0.36352556943893433 0.54405498504638672 0.36185967922210693
0.54999977350234985 0.54577869176864624 0.36276215314865112
0.69947165250778198 0.55161154270172119 0.3670617938041687
0.78854352235794067 0.57371658086776733 0.38527858257293701
0.82973295450210571 0.60074174404144287 0.40660640597343445
0.13146671652793884 0.6871408224105835 0.3558647632598877
0.23367996513843536 0.70557636022567749 0.37064036726951599
0.38702559471130371 0.70797383785247803 0.37698286771774292
0.56032919883728027 0.70018380880355835 0.36902728676795959
0.69715934991836548 0.6960909366607666 0.36367964744567871
0.7723117470741272 0.70707732439041138 0.37391799688339233
0.80639404058456421 0.72197669744491577 0.3914492130279541
0.19144617021083832 0.81464123725891113 0.40780350565910339
0.28386875987052917 0.82400631904602051 0.41370916366577148
0.422800213098526 0.81291025876998901 0.40470880270004272
0.58324301242828369 0.79116338491439819 0.38452613353729248
0.70882052183151245 0.77472704648971558 0.36990121006965637
0.77178394794464111 0.77270513772964478 0.36921656131744385
0.79696285724639893 0.77731794118881226 0.3796861469745636
0.25852563977241516 0.89810967445373535 0.46068462729454041
0.33878037333488464 0.89633512496948242 0.46157145500183105
0.4626542329788208 0.87309533357620239 0.43977656960487366
0.60935229063034058 0.83986359834671021 0.40912362933158875
0.72554862499237061 0.81333929300308228 0.38559055328369141
0.7798883318901062 0.80108344554901123 0.37512028217315674
0.79839843511581421 0.79912537336349487 0.37433257699012756
0.11493789404630661 0.11252807825803757 0.50581610202789307
0.18042206764221191 0.10147248953580856 0.49631750583648682
0.30200180411338806 0.077749423682689667 0.47389262914657593
0.46191185712814331 0.060662154108285904 0.45102223753929138
0.59972995519638062 0.056380327790975571 0.44636893272399902
0.68660986423492432 0.070405088365077972 0.4644266664981842
0.73325169086456299 0.099246039986610413 0.48726743459701538
0.11167047172784805 0.17767176032066345 0.50299155712127686
0.18902365863323212 0.18426273763179779 0.509552001953125
0.33240389823913574 0.18000562489032745 0.50553709268569946
0.51455986499786377 0.17991802096366882 0.49672937393188477
0.66676551103591919 0.18905068933963776 0.50121790170669556
0.76178759336471558 0.2150910347700119 0.5239301323890686
0.807608962059021 0.25580522418022156 0.5446586012840271
0.10006622970104218 0.31705376505851746 0.49207493662834167
0.19061611592769623 0.34108728170394897 0.50925940275192261
0.35058498382568359 0.35131925344467163 0.51838624477386475
0.54399198293685913 0.35401439666748047 0.51906150579452515
0.69976174831390381 0.36523261666297913 0.52767825126647949
0.79844540357589722 0.39360398054122925 0.55246371030807495
0.84552204608917236 0.43256032466888428 0.57526147365570068
0.10171490907669067 0.51086819171905518 0.49186083674430847
0.19888404011726379 0.53684908151626587 0.51101744174957275
0.35925865173339844 0.54850596189498901 0.52187079191207886
0.54775553941726685 0.54847133159637451 0.52230644226074219
0.698283851146698 0.55225098133087158 0.52645647525787354
0.78860354423522949 0.57351398468017578 0.54450494050979614
0.83231157064437866 0.60029345750808716 0.56461411714553833
0.13175725936889648 0.68952912092208862 0.51755094528198242
0.22930766642093658 0.70697522163391113 0.52986639738082886
0.38122344017028809 0.70859938859939575 0.53335511684417725
0.55508548021316528 0.70048344135284424 0.52727985382080078
0.69178396463394165 0.69333863258361816 0.5202067494392395
0.76675444841384888 0.70328330993652344 0.52652591466903687
0.8010636568069458 0.7183765172958374 0.53967881202697754
0.18626482784748077 0.81409370899200439 0.56177049875259399
0.27161848545074463 0.82116591930389404 0.56906658411026001
0.41246038675308228 0.80846744775772095 0.56047904491424561
0.57636791467666626 0.78530555963516235 0.54138481616973877
0.69984245300292969 0.76796203851699829 0.52308815717697144
0.76165693998336792 0.76537191867828369 0.51844328641891479
0.78670483827590942 0.77073711156845093 0.52432560920715332
0.24662397801876068 0.89278095960617065 0.60669291019439697
0.31698736548423767 0.8897671103477478 0.61110401153564453
0.44782602787017822 0.86503154039382935 0.59200960397720337
0.60206162929534912 0.83052784204483032 0.56362533569335938
0.71390575170516968 0.80371689796447754 0.53503763675689697
0.76772689819335938 0.79086816310882568 0.52093029022216797
0.7881203293800354 0.78960198163986206 0.51855051517486572
0.10687249898910522 0.10372785478830338 0.6178128719329834
0.17163796722888947 0.10345353931188583 0.61618298292160034
0.29915553331375122 0.080559901893138885 0.59392619132995605
0.46102216839790344 0.05803845077753067 0.57119917869567871
0.60300052165985107 0.053644053637981415 0.56837403774261475
0.69662702083587646 0.069520033895969391 0.58931010961532593
0.74846750497817993 0.10061344504356384 0.61179548501968384
0.11135593801736832 0.1719231903553009 0.62300962209701538
0.19072169065475464 0.18940255045890808 0.63399267196655273
0.34130707383155823 0.18659250438213348 0.63142162561416626
0.52160674333572388 0.18186721205711365 0.62204033136367798
0.67319709062576294 0.19066779315471649 0.62674409151077271
0.77175730466842651 0.21841001510620117 0.65039700269699097
0.82125025987625122 0.26028034090995789 0.66901481151580811
0.10158701986074448 0.32315787672996521 0.61618167161941528
0.19154821336269379 0.35013940930366516 0.63600116968154907
0.35679280757904053 0.35860919952392578 0.64407563209533691
0.5496600866317749 0.35883057117462158 0.64366573095321655
0.70634573698043823 0.36934292316436768 0.65265142917633057
0.80604970455169678 0.39810469746589661 0.67685353755950928
0.85503262281417847 0.4370233416557312 0.69551801681518555
0.10441739112138748 0.51979440450668335 0.61831825971603394
0.19847321510314941 0.5469323992729187 0.63716071844100952
0.35914692282676697 0.55610364675521851 0.6437496542930603
0.54891633987426758 0.55257236957550049 0.64231675863265991
0.70101219415664673 0.55508023500442505 0.6472434401512146
0.79303556680679321 0.57523733377456665 0.66536414623260498
0.83834648132324219 0.60096031427383423 0.68248027563095093
0.13292275369167328 0.69615375995635986 0.64355850219726562
0.22667789459228516 0.71406912803649902 0.65483903884887695
0.37626415491104126 0.71315205097198486 0.65323764085769653
0.55176001787185669 0.70062190294265747 0.64366686344146729
0.69012963771820068 0.69248193502426147 0.637370765209198
0.76694780588150024 0.70130187273025513 0.64445006847381592
0.80115389823913574 0.71587777137756348 0.65593284368515015
0.18408212065696716 0.81510192155838013 0.68707156181335449
0.26555240154266357 0.82272094488143921 0.69219332933425903
0.40396931767463684 0.80795025825500488 0.67934703826904297
0.56970208883285522 0.78200662136077881 0.65895593166351318
0.69675981998443604 0.76271605491638184 0.64152032136917114
0.75765901803970337 0.76004725694656372 0.63794702291488647
0.78109633922576904 0.76641476154327393 0.64272391796112061
0.24374829232692719 0.88715505599975586 0.73041611909866333
0.3088344931602478 0.88475632667541504 0.72948634624481201
0.4378143846988678 0.85957378149032593 0.70648086071014404
0.59241926670074463 0.8234594464302063 0.67811274528503418
0.70938265323638916 0.7950635552406311 0.65384292602539062
0.76257616281509399 0.78280305862426758 0.64210587739944458
0.7805977463722229 0.78085172176361084 0.64129585027694702
0.10478997230529785 0.099464699625968933 0.6725965142250061
0.17202082276344299 0.1013340950012207 0.67283803224563599
0.29867565631866455 0.080920770764350891 0.65274995565414429
0.46529287099838257 0.060059923678636551 0.63284063339233398
0.61514520645141602 0.056653473526239395 0.63144409656524658
0.71690523624420166 0.075775161385536194 0.65418428182601929
0.77504497766494751 0.10827825218439102 0.67693901062011719
0.11499850451946259 0.17157615721225739 0.68289053440093994
0.19579087197780609 0.19490151107311249 0.69293534755706787
0.34535589814186096 0.19678510725498199 0.69045758247375488
0.52939671277999878 0.19195866584777832 0.68481957912445068
0.68668842315673828 0.20006310939788818 0.69241666793823242
0.78944724798202515 0.22857898473739624 0.71817398071289062
0.84202641248703003 0.27045819163322449 0.737529456615448
0.10934855043888092 0.33156409859657288 0.68088364601135254
0.19887952506542206 0.36298114061355591 0.69838136434555054
0.36686694622039795 0.3714231550693512 0.70625597238540649
0.56327402591705322 0.37001323699951172 0.70874470472335815
0.72116494178771973 0.3800751268863678 0.71945464611053467
0.81947016716003418 0.40960142016410828 0.74383854866027832
0.868796706199646 0.44688975811004639 0.76198494434356689
0.11389041692018509 0.53246831893920898 0.68339532613754272
0.20675346255302429 0.56057846546173096 0.70119446516036987
0.36793020367622375 0.56745749711990356 0.70666778087615967
0.56036162376403809 0.5612143874168396 0.70624399185180664
0.71211320161819458 0.56360161304473877 0.71034812927246094
0.80058509111404419 0.58427649736404419 0.72654932737350464
0.844154953956604 0.60808873176574707 0.74232053756713867
0.13995775580406189 0.70712006092071533 0.70475846529006958
0.22926615178585052 0.72693765163421631 0.71762621402740479
0.37772873044013977 0.72330391407012939 0.71504640579223633
0.55666184425354004 0.70694547891616821 0.70283365249633789
0.69725346565246582 0.69734781980514526 0.69497227668762207
0.77101427316665649 0.70482033491134644 0.70044058561325073
0.80308395624160767 0.71719425916671753 0.71048861742019653
0.18490868806838989 0.8219948410987854 0.74796116352081299
0.26658636331558228 0.83048862218856812 0.75118207931518555
0.40280428528785706 0.81264591217041016 0.73585516214370728
0.56833600997924805 0.78421396017074585 0.71323496103286743
0.69992756843566895 0.76303499937057495 0.69631218910217285
0.76133400201797485 0.76015996932983398 0.69306391477584839
0.78213423490524292 0.76662200689315796 0.69711804389953613
0.23911820352077484 0.88868260383605957 0.78882467746734619
0.31516700983047485 0.88411802053451538 0.7829592227935791
0.43633219599723816 0.85640400648117065 0.75836044549942017
0.58479875326156616 0.8219483494758606 0.73067671060562134
0.70563399791717529 0.79459625482559204 0.70982104539871216
0.76247143745422363 0.78457677364349365 0.70061856508255005
0.7815290093421936 0.78632283210754395 0.6982581615447998
0.11421356350183487 0.1071598157286644 0.69035166501998901
0.18769265711307526 0.097616009414196014 0.68462562561035156
0.30493625998497009 0.079865865409374237 0.66610860824584961
0.46940013766288757 0.068347901105880737 0.65261387825012207
0.62184518575668335 0.069115132093429565 0.65115493535995483
0.72664374113082886 0.090188927948474884 0.67835819721221924
0.78836441040039062 0.11967223137617111 0.70544534921646118
0.12687967717647552 0.18039765954017639 0.70026761293411255
0.21228557825088501 0.20265525579452515 0.7060236930847168
0.35196000337600708 0.2087084949016571 0.70219177007675171
0.53240835666656494 0.20925477147102356 0.70083624124526978
0.68969893455505371 0.22064812481403351 0.71119332313537598
0.7936750054359436 0.24942730367183685 0.73884135484695435
0.85099285840988159 0.28372454643249512 0.76378309726715088
0.12803445756435394 0.34286397695541382 0.70445340871810913
0.22410799562931061 0.37107309699058533 0.71699780225753784
0.38133934140205383 0.38374632596969604 0.72340577840805054
0.57481426000595093 0.38505381345748901 0.72849977016448975
0.72736364603042603 0.39779371023178101 0.74096989631652832
0.82235938310623169 0.42714071273803711 0.76596915721893311
0.87670242786407471 0.45810848474502563 0.79009509086608887
0.13331986963748932 0.54186558723449707 0.70796835422515869
0.22785201668739319 0.5683295726776123 0.72320473194122314
0.38179177045822144 0.57650744915008545 0.72996187210083008
0.57216948270797729 0.57002067565917969 0.72980082035064697
0.72021752595901489 0.57339823246002197 0.73399502038955688
0.80306112766265869 0.59369027614593506 0.74815386533737183
0.84544664621353149 0.61401534080505371 0.76412111520767212
0.15355710685253143 0.71505218744277954 0.72463464736938477
0.2412404865026474 0.73399478197097778 0.73878973722457886
0.38556775450706482 0.72983038425445557 0.73721683025360107
0.56510353088378906 0.71325504779815674 0.724254310131073
0.70453113317489624 0.70304036140441895 0.7159876823425293
0.77309894561767578 0.70847934484481812 0.7188413143157959
0.80151665210723877 0.7188149094581604 0.72706073522567749
0.18705575168132782 0.82525181770324707 0.76620757579803467
0.27118253707885742 0.83584070205688477 0.7690284252166748
0.40653952956199646 0.8160368800163269 0.75398135185241699
0.57017254829406738 0.78745138645172119 0.73113876581192017
0.70333403348922729 0.76540833711624146 0.71285772323608398
0.76358181238174438 0.76254290342330933 0.70864427089691162
0.78189462423324585 0.76867121458053589 0.71267861127853394
0.23184683918952942 0.88950157165527344 0.80466669797897339
0.31669679284095764 0.88475531339645386 0.79779243469238281
0.43616926670074463 0.85590994358062744 0.7739870548248291
0.57939749956130981 0.82441854476928711 0.74860650300979614
0.7001151442527771 0.79960685968399048 0.72790777683258057
0.76015591621398926 0.7918885350227356 0.71967917680740356
0.78299403190612793 0.7947160005569458 0.71951401233673096
