assets/lut/alexjordan faded retro 01.cube
# Created by: G'MIC (https://gmic.eu)
TITLE "faded_retro_01"
# LUT size
LUT_3D_SIZE 13
# Data domain
DOMAIN_MIN 0.0 0.0 0.0
DOMAIN_MAX 1.0 1.0 1.0
# LUT data points
0.11739808320999146 0.12122358381748199 0.17239533364772797
0.14278946816921234 0.12380076199769974 0.17264643311500549
0.18175381422042847 0.1183542013168335 0.16721269488334656
0.24246086180210114 0.10362058132886887 0.15587857365608215
0.3188227117061615 0.088070809841156006 0.14278887212276459
0.4009263813495636 0.073471680283546448 0.13062694668769836
0.48094439506530762 0.060070712119340897 0.12198152393102646
0.55318957567214966 0.049376901239156723 0.11711035668849945
0.61427098512649536 0.044389389455318451 0.11737751960754395
0.66279751062393188 0.046100467443466187 0.12206884473562241
0.70020627975463867 0.053131476044654846 0.13051387667655945
0.72819811105728149 0.062859416007995605 0.14085519313812256
0.7488667368888855 0.0744142085313797 0.15122310817241669
0.1226031705737114 0.14476710557937622 0.17631031572818756
0.14547416567802429 0.14719939231872559 0.17677707970142365
0.18345329165458679 0.144095778465271 0.17346234619617462
0.24627164006233215 0.1332341730594635 0.16544920206069946
0.32781228423118591 0.12259102612733841 0.15554684400558472
0.41619107127189636 0.11371155083179474 0.14631685614585876
0.50248199701309204 0.10500528663396835 0.14099383354187012
0.57981568574905396 0.098329849541187286 0.14015056192874908
0.64453834295272827 0.09757455438375473 0.14237309992313385
0.69514238834381104 0.10497964918613434 0.14884664118289948
0.73372906446456909 0.11695647984743118 0.1591058075428009
0.76276159286499023 0.13042797148227692 0.17236880958080292
0.78376978635787964 0.14453932642936707 0.18487051129341125
0.11838901042938232 0.17734122276306152 0.17077705264091492
0.14513657987117767 0.17900720238685608 0.17267595231533051
0.18534085154533386 0.18024654686450958 0.17254087328910828
0.24989920854568481 0.17519932985305786 0.16930359601974487
0.33424592018127441 0.17099687457084656 0.16332554817199707
0.42777088284492493 0.16735079884529114 0.15771199762821198
0.51894497871398926 0.16325992345809937 0.15503183007240295
0.60018789768218994 0.16032560169696808 0.15689472854137421
0.66725969314575195 0.16360379755496979 0.1619773656129837
0.71938425302505493 0.1759473979473114 0.16908763349056244
0.75933384895324707 0.19204080104827881 0.18033967912197113
0.78932267427444458 0.20801334083080292 0.1955496072769165
0.81034231185913086 0.2232728898525238 0.20990104973316193
0.10663565993309021 0.2359088808298111 0.15904915332794189
0.13829626142978668 0.23872414231300354 0.16314424574375153
0.18276174366474152 0.24289862811565399 0.16665266454219818
0.24922932684421539 0.24363252520561218 0.16775253415107727
0.33611792325973511 0.24251948297023773 0.16543319821357727
0.43389090895652771 0.24107484519481659 0.16359241306781769
0.52924901247024536 0.23956458270549774 0.16291138529777527
0.61185812950134277 0.24087963998317719 0.16493263840675354
0.6798088550567627 0.24773021042346954 0.17035987973213196
0.73354154825210571 0.26176881790161133 0.17848016321659088
0.7746046781539917 0.27961209416389465 0.18996419012546539
0.80472499132156372 0.29719248414039612 0.20407165586948395
0.8253139853477478 0.31293976306915283 0.21748553216457367
0.094803512096405029 0.31411093473434448 0.14794407784938812
0.12980599701404572 0.3203963041305542 0.15394666790962219
0.17731593549251556 0.32753661274909973 0.1602044403553009
0.24436438083648682 0.33199653029441833 0.16425113379955292
0.33299294114112854 0.33303666114807129 0.16461677849292755
0.43346533179283142 0.33223655819892883 0.16458334028720856
0.53087913990020752 0.33204758167266846 0.16458334028720856
0.61462002992630005 0.33534416556358337 0.16534264385700226
0.68361485004425049 0.34376716613769531 0.17067360877990723
0.73829585313796997 0.35769006609916687 0.17910890281200409
0.77985191345214844 0.37513169646263123 0.19003450870513916
0.81001424789428711 0.39276900887489319 0.2023485004901886
0.83054840564727783 0.40747427940368652 0.2145417183637619
0.0886826291680336 0.40301898121833801 0.14256206154823303
0.12578070163726807 0.41277608275413513 0.14915138483047485
0.17507603764533997 0.4226849377155304 0.1571640819311142
0.24193263053894043 0.42986983060836792 0.16324238479137421
0.33082833886146545 0.43253037333488464 0.16481514275074005
0.43067458271980286 0.43200120329856873 0.16460783779621124
0.52739876508712769 0.43205907940864563 0.16436848044395447
0.61212360858917236 0.43510943651199341 0.1642124354839325
0.68196803331375122 0.44278684258460999 0.1679164320230484
0.73698621988296509 0.45541197061538696 0.17599835991859436
0.77821254730224609 0.47140878438949585 0.18611744046211243
0.80776309967041016 0.48774886131286621 0.19740329682826996
0.82818412780761719 0.50048565864562988 0.20896026492118835
0.091394953429698944 0.49500694870948792 0.14443902671337128
0.13130219280719757 0.50761020183563232 0.15118470788002014
0.18284019827842712 0.51925086975097656 0.15970602631568909
0.25084143877029419 0.52777433395385742 0.16641755402088165
0.33686903119087219 0.53148877620697021 0.16927774250507355
0.4329923689365387 0.53123295307159424 0.16754813492298126
0.52699738740921021 0.53019028902053833 0.16495400667190552
0.61075705289840698 0.53148442506790161 0.16421173512935638
0.67982053756713867 0.53720551729202271 0.1666320264339447
0.7336883544921875 0.54788172245025635 0.1736685037612915
0.77349239587783813 0.56212830543518066 0.18308430910110474
0.80173170566558838 0.57663661241531372 0.19369547069072723
0.8217204213142395 0.58728909492492676 0.20508402585983276
0.10291775315999985 0.58402854204177856 0.15383292734622955
0.14519095420837402 0.59834408760070801 0.16042168438434601
0.19980457425117493 0.61088484525680542 0.16887457668781281
0.2682589590549469 0.61996906995773315 0.17535173892974854
0.35087123513221741 0.62413352727890015 0.17739571630954742
0.44206741452217102 0.62280493974685669 0.17477753758430481
0.53232342004776001 0.61932551860809326 0.16989390552043915
0.613575279712677 0.61781865358352661 0.16687515377998352
0.68062102794647217 0.6206125020980835 0.16854977607727051
0.73231309652328491 0.62894523143768311 0.17444011569023132
0.76966112852096558 0.64139837026596069 0.18323332071304321
0.79557979106903076 0.65463298559188843 0.19374251365661621
0.81428426504135132 0.66365671157836914 0.20505949854850769
0.12120839953422546 0.66548967361450195 0.17076112329959869
0.16572973132133484 0.68046671152114868 0.17671413719654083
0.2212083637714386 0.69294881820678711 0.18428400158882141
0.28941226005554199 0.70203471183776855 0.18996883928775787
0.36930987238883972 0.70565897226333618 0.19113464653491974
0.45660820603370667 0.70208913087844849 0.18619073927402496
0.54357689619064331 0.6946793794631958 0.17883174121379852
0.62190699577331543 0.68932032585144043 0.17378725111484528
0.68615996837615967 0.68889379501342773 0.17370688915252686
0.73503708839416504 0.69463890790939331 0.17810338735580444
0.76932042837142944 0.70504343509674072 0.18590964376926422
0.79237461090087891 0.71691685914993286 0.1962427943944931
0.80925887823104858 0.72500061988830566 0.20744192600250244
0.14471638202667236 0.73663103580474854 0.19309493899345398
0.19040027260780334 0.75102609395980835 0.19886037707328796
0.24592034518718719 0.76200771331787109 0.20526272058486938
0.31288087368011475 0.76928436756134033 0.2087395042181015
0.3902536928653717 0.7703930139541626 0.20773744583129883
0.47467046976089478 0.76389282941818237 0.20054736733436584
0.55879205465316772 0.75309401750564575 0.19103655219078064
0.63481462001800537 0.74426513910293579 0.18423111736774445
0.69671076536178589 0.74062377214431763 0.18202066421508789
0.74260729551315308 0.74340265989303589 0.18411645293235779
0.7738802433013916 0.75115764141082764 0.18965013325214386
0.79450279474258423 0.76056194305419922 0.1979563981294632
0.80952036380767822 0.76644998788833618 0.20730423927307129
0.17121937870979309 0.79679751396179199 0.21936184167861938
0.21712012588977814 0.80930709838867188 0.22490401566028595
0.27172002196311951 0.8180849552154541 0.22972120344638824
0.33681795001029968 0.8214648962020874 0.23070444166660309
0.41229209303855896 0.81831419467926025 0.22571952641010284
0.49437704682350159 0.80848664045333862 0.21614034473896027
0.57680982351303101 0.79515296220779419 0.20536361634731293
0.65119671821594238 0.78349560499191284 0.19728182256221771
0.71108788251876831 0.77703672647476196 0.19290812313556671
0.75415849685668945 0.77706301212310791 0.1918865293264389
0.78233706951141357 0.78207343816757202 0.19422474503517151
0.80055367946624756 0.78855842351913452 0.19894622266292572
0.81359809637069702 0.79260218143463135 0.20556893944740295
0.19887465238571167 0.84676575660705566 0.24698212742805481
0.2445296049118042 0.85693341493606567 0.2521546483039856
0.29727235436439514 0.86245232820510864 0.2559654712677002
0.36006486415863037 0.86212760210037231 0.25478285551071167
0.43352478742599487 0.8548620343208313 0.24620744585990906
0.51423883438110352 0.84156352281570435 0.23335602879524231
0.59514462947845459 0.82559841871261597 0.22120638191699982
0.66868984699249268 0.81086277961730957 0.21224242448806763
0.72705847024917603 0.8018186092376709 0.20594720542430878
0.7668306827545166 0.80038189888000488 0.20174413919448853
0.79181909561157227 0.80299937725067139 0.20032781362533569
0.8078039288520813 0.80728453397750854 0.20142452418804169
0.81896907091140747 0.81022864580154419 0.20500458776950836
0.2259964793920517 0.8880765438079834 0.27356812357902527
0.27149170637130737 0.89552277326583862 0.27802255749702454
0.32291993498802185 0.8980332612991333 0.28082826733589172
0.38313531875610352 0.89450693130493164 0.27818682789802551
0.45457082986831665 0.88387727737426758 0.26681861281394958
0.53269296884536743 0.86768275499343872 0.25134691596031189
0.6110113263130188 0.84965425729751587 0.23811642825603485
0.68290066719055176 0.83306425809860229 0.22819215059280396
0.73956799507141113 0.82179945707321167 0.22016163170337677
0.77642256021499634 0.81939530372619629 0.21294878423213959
0.79921025037765503 0.81977498531341553 0.20815151929855347
0.81381005048751831 0.82224434614181519 0.20628480613231659
0.82417100667953491 0.82419902086257935 0.20744949579238892
0.12214771658182144 0.12705643475055695 0.19334731996059418
0.14434957504272461 0.12744966149330139 0.19220377504825592
0.18110795319080353 0.12086328119039536 0.18682937324047089
0.24229885637760162 0.10822532325983047 0.17765858769416809
0.3209722638130188 0.094542756676673889 0.16561716794967651
0.40522676706314087 0.080939844250679016 0.15370699763298035
0.48637104034423828 0.066967502236366272 0.14452464878559113
0.55951035022735596 0.055886689573526382 0.13890841603279114
0.62050759792327881 0.050570126622915268 0.13883759081363678
0.66796338558197021 0.0520186647772789 0.14459523558616638
0.70335239171981812 0.059435315430164337 0.15393815934658051
0.72868567705154419 0.070507079362869263 0.16424599289894104
0.74770981073379517 0.083220161497592926 0.17543621361255646
0.1253666877746582 0.14843174815177917 0.19562423229217529
0.14578016102313995 0.14954590797424316 0.19406586885452271
0.18190865218639374 0.14626628160476685 0.1907237321138382
0.246430903673172 0.13642022013664246 0.18539883196353912
0.33010432124137878 0.12695953249931335 0.1776808500289917
0.42024356126785278 0.11914841830730438 0.16929987072944641
0.5077177882194519 0.11121500283479691 0.16358573734760284
0.58625918626785278 0.10486327856779099 0.16201302409172058
0.65141767263412476 0.10415541380643845 0.16489015519618988
0.7015080451965332 0.11104972660541534 0.17247393727302551
0.73848658800125122 0.12331360578536987 0.18362420797348022
0.76510298252105713 0.13826510310173035 0.19672329723834991
0.78381586074829102 0.15392261743545532 0.20971500873565674
0.12031684070825577 0.17978009581565857 0.19031783938407898
0.1448252946138382 0.1828828752040863 0.19099107384681702
0.18489542603492737 0.18453790247440338 0.19139321148395538
0.2512243390083313 0.17933200299739838 0.18973091244697571
0.33741685748100281 0.17445072531700134 0.18583139777183533
0.43167832493782043 0.17253854870796204 0.18101473152637482
0.52397733926773071 0.16952350735664368 0.17868207395076752
0.60644668340682983 0.16749845445156097 0.18044424057006836
0.67465174198150635 0.17074728012084961 0.18583004176616669
0.72716224193572998 0.18225473165512085 0.19453203678131104
0.76619011163711548 0.19871997833251953 0.20674611628055573
0.7939763069152832 0.21648289263248444 0.22147718071937561
0.81270188093185425 0.23367738723754883 0.23587372899055481
0.10727742314338684 0.23673789203166962 0.17886984348297119
0.13830189406871796 0.24254494905471802 0.18268859386444092
0.18382067978382111 0.2487948089838028 0.18692949414253235
0.2518312931060791 0.24979488551616669 0.18917900323867798
0.34005782008171082 0.24827264249324799 0.18833178281784058
0.43787968158721924 0.24773246049880981 0.18638308346271515
0.5336068868637085 0.24699366092681885 0.18618008494377136
0.61821269989013672 0.24823968112468719 0.18913114070892334
0.68801212310791016 0.25476428866386414 0.19576187431812286
0.74254333972930908 0.268217533826828 0.2053963840007782
0.78301161527633667 0.28667148947715759 0.21761868894100189
0.81152504682540894 0.30610522627830505 0.23173977434635162
0.83022254705429077 0.32360759377479553 0.24572798609733582
0.094415344297885895 0.31587404012680054 0.16715683043003082
0.13016216456890106 0.32449162006378174 0.17376162111759186
0.18000534176826477 0.33360752463340759 0.18143235146999359
0.24953210353851318 0.33882829546928406 0.18651401996612549
0.33884665369987488 0.34012940526008606 0.18803639709949493
0.43860125541687012 0.33982089161872864 0.18687829375267029
0.53598940372467041 0.33983775973320007 0.1869870126247406
0.62165594100952148 0.3430209755897522 0.18948626518249512
0.69238793849945068 0.35086467862129211 0.19589963555335999
0.74780172109603882 0.36454758048057556 0.20610181987285614
0.78902024030685425 0.38288941979408264 0.21793732047080994
0.81778246164321899 0.40226384997367859 0.23043382167816162
0.83647066354751587 0.41848769783973694 0.24396146833896637
0.087973572313785553 0.40678629279136658 0.16243797540664673
0.12674017250537872 0.41790196299552917 0.16960522532463074
0.17918938398361206 0.42870014905929565 0.17909926176071167
0.24962235987186432 0.43611553311347961 0.18624432384967804
0.33866998553276062 0.43938940763473511 0.18903133273124695
0.437803715467453 0.43975943326950073 0.18818625807762146
0.53475570678710938 0.43997275829315186 0.18667754530906677
0.6202082633972168 0.4431157112121582 0.18690557777881622
0.69089245796203613 0.45059087872505188 0.19242405891418457
0.74623990058898926 0.4628925621509552 0.20244137942790985
0.78692686557769775 0.47962000966072083 0.21347488462924957
0.81520789861679077 0.49715229868888855 0.22475259006023407
0.83388084173202515 0.51088005304336548 0.23749680817127228
0.090991407632827759 0.50118106603622437 0.16573770344257355
0.1323019415140152 0.51422262191772461 0.17287853360176086
0.18674167990684509 0.52592426538467407 0.1824231892824173
0.25766816735267639 0.53412067890167236 0.19007067382335663
0.34486058354377747 0.53777074813842773 0.19293557107448578
0.44107833504676819 0.53792482614517212 0.19140401482582092
0.53541481494903564 0.53732538223266602 0.1880078911781311
0.619392991065979 0.53912931680679321 0.18666945397853851
0.68865007162094116 0.54477596282958984 0.19077803194522858
0.74233460426330566 0.55526882410049438 0.19946146011352539
0.78117507696151733 0.56971371173858643 0.20945543050765991
0.80794292688369751 0.58490073680877686 0.21962805092334747
0.82637649774551392 0.59630757570266724 0.23145844042301178
0.10345276445150375 0.59262323379516602 0.17639937996864319
0.1464860737323761 0.60675048828125 0.18301710486412048
0.20255459845066071 0.61838620901107788 0.19221504032611847
0.27366793155670166 0.62621009349822998 0.19928613305091858
0.35793966054916382 0.62966698408126831 0.20147518813610077
0.45013684034347534 0.62851744890213013 0.1980748176574707
0.54131478071212769 0.62558960914611816 0.1925542801618576
0.62261736392974854 0.6244012713432312 0.18971690535545349
0.68916910886764526 0.62737065553665161 0.19230856001377106
0.74006623029708862 0.63552272319793701 0.1994582861661911
0.77598732709884644 0.64771157503128052 0.20882275700569153
0.80058282613754272 0.66093474626541138 0.21881984174251556
0.81800729036331177 0.66993552446365356 0.23058100044727325
0.12310939282178879 0.67540937662124634 0.19461996853351593
0.16770727932453156 0.68963527679443359 0.20046402513980865
0.22435182332992554 0.7005382776260376 0.20856805145740509
0.2940133810043335 0.70746403932571411 0.2140929251909256
0.37563955783843994 0.70963245630264282 0.21418368816375732
0.46434128284454346 0.70567220449447632 0.20854675769805908
0.55218601226806641 0.69943994283676147 0.2004343718290329
0.6306917667388916 0.69467246532440186 0.19574907422065735
0.69405019283294678 0.69442987442016602 0.19680991768836975
0.74145829677581787 0.69977718591690063 0.2025672048330307
0.77449166774749756 0.70939791202545166 0.21083629131317139
0.79645007848739624 0.72048979997634888 0.22106954455375671
0.81199461221694946 0.72757822275161743 0.2326333075761795
0.14849141240119934 0.74642050266265869 0.21955862641334534
0.1938333660364151 0.75994062423706055 0.2245611846446991
0.249754399061203 0.76918047666549683 0.23046420514583588
0.31758075952529907 0.77420490980148315 0.2332913726568222
0.39619505405426025 0.77320444583892822 0.23021407425403595
0.48161950707435608 0.76624065637588501 0.22194980084896088
0.5664249062538147 0.7564052939414978 0.21213448047637939
0.64235615730285645 0.74811422824859619 0.20557898283004761
0.70314639806747437 0.7446102499961853 0.20459975302219391
0.74755918979644775 0.74698978662490845 0.20797243714332581
0.77727603912353516 0.75375133752822876 0.21434575319290161
0.79671716690063477 0.76199549436569214 0.22275345027446747
0.81032657623291016 0.76725858449935913 0.23320609331130981
0.17729732394218445 0.80576461553573608 0.24860522150993347
0.22256702184677124 0.8173251748085022 0.25268131494522095
0.27681973576545715 0.82414460182189941 0.25598904490470886
0.34211143851280212 0.82531416416168213 0.25525888800621033
0.41784182190895081 0.82039779424667358 0.24841594696044922
0.5003511905670166 0.81003624200820923 0.23725982010364532
0.58261245489120483 0.79717725515365601 0.22603374719619751
0.65662276744842529 0.78576153516769409 0.21825805306434631
0.71556591987609863 0.77926164865493774 0.21500219404697418
0.757221519947052 0.77884256839752197 0.21516689658164978
0.78396672010421753 0.78264313936233521 0.21825908124446869
0.8005639910697937 0.78813719749450684 0.22389312088489532
0.81234121322631836 0.79202347993850708 0.23184217512607574
0.20739223062992096 0.85457897186279297 0.27852723002433777
0.25182679295539856 0.8635898232460022 0.2816588282585144
0.30411002039909363 0.86731326580047607 0.2830655574798584
0.36649805307388306 0.86495059728622437 0.27891895174980164
0.43946552276611328 0.85596555471420288 0.26788842678070068
0.51907110214233398 0.8421061635017395 0.25365367531776428
0.59946024417877197 0.82635939121246338 0.24119409918785095
0.67187386751174927 0.81212550401687622 0.23262162506580353
0.72921609878540039 0.8027653694152832 0.22722207009792328
0.7684139609336853 0.80035436153411865 0.22434788942337036
0.79206174612045288 0.80169349908828735 0.22382861375808716
0.80624604225158691 0.80499422550201416 0.22601856291294098
0.81603562831878662 0.80752712488174438 0.23117153346538544
0.23618724942207336 0.89483934640884399 0.30708211660385132
0.2804381251335144 0.90071099996566772 0.30952084064483643
0.33090382814407349 0.90140467882156372 0.30894410610198975
0.39069488644599915 0.8957332968711853 0.30245661735534668
0.46046993136405945 0.8838573694229126 0.28845998644828796
0.53715592622756958 0.86728793382644653 0.27184867858886719
0.61421585083007812 0.84914839267730713 0.25833696126937866
0.68448662757873535 0.83318465948104858 0.2488618791103363
0.73981213569641113 0.82222867012023926 0.24156014621257782
0.77678054571151733 0.81709617376327515 0.23597364127635956
0.79854905605316162 0.81657063961029053 0.23232130706310272
0.81145340204238892 0.81817948818206787 0.23141327500343323
0.82027959823608398 0.81976521015167236 0.23366837203502655
0.12236437201499939 0.1283804327249527 0.22790390253067017
0.1448468416929245 0.12879000604152679 0.22587989270687103
0.18159401416778564 0.12218552827835083 0.22064493596553802
0.24265916645526886 0.11078289151191711 0.21255688369274139
0.32100912928581238 0.098781988024711609 0.20120938122272491
0.4055507481098175 0.086413286626338959 0.18936727941036224
0.48670709133148193 0.072660736739635468 0.17969025671482086
0.56033170223236084 0.061928257346153259 0.1724478006362915
0.62134456634521484 0.056939698755741119 0.1714150607585907
0.66802090406417847 0.058322504162788391 0.1784110814332962
0.70106798410415649 0.065981082618236542 0.18763042986392975
0.72416746616363525 0.078211523592472076 0.19630347192287445
0.74168407917022705 0.091990530490875244 0.20652030408382416
0.12511639297008514 0.14870850741863251 0.22661492228507996
0.1459709107875824 0.15092222392559052 0.22568288445472717
0.18261568248271942 0.14873836934566498 0.22264093160629272
0.24682310223579407 0.14090727269649506 0.21925832331180573
0.33019816875457764 0.13250651955604553 0.21289312839508057
0.42028966546058655 0.12522207200527191 0.20522734522819519
0.50806283950805664 0.11787531524896622 0.19936175644397736
0.58717316389083862 0.11218107491731644 0.19668526947498322
0.65251898765563965 0.11173496395349503 0.19936893880367279
0.70254147052764893 0.11792882531881332 0.20791745185852051
0.73819410800933838 0.13018706440925598 0.21853376924991608
0.7625311017036438 0.1463419497013092 0.22995266318321228
0.77962809801101685 0.16327877342700958 0.24185940623283386
0.11919860541820526 0.18008758127689362 0.22187195718288422
0.14493338763713837 0.18633721768856049 0.22272835671901703
0.18634065985679626 0.19017952680587769 0.22347377240657806
0.25251039862632751 0.18690042197704315 0.22383807599544525
0.33819761872291565 0.18236716091632843 0.22150722146034241
0.43229475617408752 0.17975147068500519 0.21757513284683228
0.52479904890060425 0.17718395590782166 0.21535934507846832
0.60816437005996704 0.17589576542377472 0.21661661565303802
0.67699211835861206 0.17935380339622498 0.22216622531414032
0.72983843088150024 0.18918004631996155 0.23195244371891022
0.76812434196472168 0.20513227581977844 0.24409987032413483
0.79390329122543335 0.22440779209136963 0.25698021054267883
0.81079769134521484 0.24319741129875183 0.2701871395111084
0.10705066472291946 0.23759612441062927 0.21134769916534424
0.13899219036102295 0.24688751995563507 0.21580393612384796
0.18624183535575867 0.25596612691879272 0.22114579379558563
0.25534740090370178 0.25790926814079285 0.22441785037517548
0.34304645657539368 0.25662297010421753 0.22449113428592682
0.44011387228965759 0.2557867169380188 0.22351847589015961
0.53551787137985229 0.25492212176322937 0.22374138236045837
0.62084031105041504 0.25626292824745178 0.22711277008056641
0.69184410572052002 0.26208436489105225 0.23442023992538452
0.74710524082183838 0.27421113848686218 0.24531003832817078
0.78731822967529297 0.29208871722221375 0.25780448317527771
0.81404107809066772 0.31305164098739624 0.27079671621322632
0.83112889528274536 0.33208006620407104 0.2840273380279541
0.094407342374324799 0.31728416681289673 0.1995837390422821
0.13200977444648743 0.32842227816581726 0.20778472721576691
0.18432070314884186 0.33952337503433228 0.21697075664997101
0.25592532753944397 0.34552100300788879 0.22328570485115051
0.34494677186012268 0.34785786271095276 0.22485099732875824
0.44341197609901428 0.34814855456352234 0.22475473582744598
0.54002600908279419 0.34787878394126892 0.22560875117778778
0.62591612339019775 0.35025706887245178 0.22858476638793945
0.69749349355697632 0.35714995861053467 0.23603640496730804
