assets/lut/alexjordan dark green 01.cube
# Created by: G'MIC (https://gmic.eu)
TITLE "dark_green_1"
# LUT size
LUT_3D_SIZE 7
# Data domain
DOMAIN_MIN 0.0 0.0 0.0
DOMAIN_MAX 1.0 1.0 1.0
# LUT data points
0.0089109530672430992 0.011641558259725571 0.016129827126860619
0.044770453125238419 0.014622228220105171 0.016324495896697044
0.083986498415470123 0.015189735218882561 0.017437266185879707
0.1297602504491806 0.014624981209635735 0.021087346598505974
0.17828470468521118 0.015856649726629257 0.025328243151307106
0.22871336340904236 0.018615035340189934 0.030361460521817207
0.2816462516784668 0.022873403504490852 0.036844216287136078
0.014960823580622673 0.062574319541454315 0.024290705099701881
0.055831190198659897 0.068657591938972473 0.028013775125145912
0.099601343274116516 0.07284710556268692 0.032925639301538467
0.14724336564540863 0.076213762164115906 0.038934055715799332
0.19643250107765198 0.081982135772705078 0.04396120086312294
0.24792966246604919 0.087725378572940826 0.050134800374507904
0.30206987261772156 0.093567699193954468 0.057963233441114426
0.023540915921330452 0.11951599270105362 0.032836824655532837
0.068799890577793121 0.12804403901100159 0.039516910910606384
0.11650653928518295 0.13618606328964233 0.047581914812326431
0.16583940386772156 0.14393454790115356 0.055451277643442154
0.21638266742229462 0.15286284685134888 0.062319483608007431
0.26920613646507263 0.16032178699970245 0.07055383175611496
0.32443267107009888 0.16715209186077118 0.080257833003997803
0.040176451206207275 0.1907220333814621 0.045721180737018585
0.086887255311012268 0.19856968522071838 0.053883031010627747
0.13596425950527191 0.20839866995811462 0.063761569559574127
0.1866828054189682 0.21825546026229858 0.07337622344493866
0.23896382749080658 0.22864453494548798 0.082881450653076172
0.2934262752532959 0.23725153505802155 0.092988662421703339
0.34977450966835022 0.24546676874160767 0.10400769114494324
0.060645323246717453 0.26912301778793335 0.063231825828552246
0.10857035219669342 0.27678292989730835 0.072487987577915192
0.15860231220722198 0.28660121560096741 0.083688683807849884
0.21052873134613037 0.29738706350326538 0.095171958208084106
0.26452732086181641 0.30799135565757751 0.10678260773420334
0.32017633318901062 0.31821182370185852 0.11848259717226028
0.37732261419296265 0.3280276358127594 0.13024798035621643
0.083023011684417725 0.35072982311248779 0.085441246628761292
0.13229610025882721 0.35881969332695007 0.095405682921409607
0.18318541347980499 0.36863595247268677 0.10707210749387741
0.23637466132640839 0.37961077690124512 0.11993627995252609
0.29139560461044312 0.39095070958137512 0.13298526406288147
0.34789943695068359 0.40223342180252075 0.14638803899288177
0.40555611252784729 0.41323727369308472 0.15936282277107239
0.10667480528354645 0.43509677052497864 0.11091570556163788
0.1572265625 0.44345507025718689 0.1212550476193428
0.20926488935947418 0.45338597893714905 0.13342730700969696
0.26323568820953369 0.46445575356483459 0.1469779908657074
0.31879532337188721 0.47614553570747375 0.16114109754562378
0.37580403685569763 0.48810172080993652 0.17573980987071991
0.43370670080184937 0.49995177984237671 0.18983522057533264
0.0059852898120880127 0.010219169780611992 0.063260234892368317
0.044509079307317734 0.014029080048203468 0.064522810280323029
0.086409881711006165 0.014705882407724857 0.066323161125183105
0.13252896070480347 0.015872610732913017 0.070138461887836456
0.18064107000827789 0.01798197440803051 0.07505141943693161
0.23073594272136688 0.021638577803969383 0.08105507493019104
0.28344956040382385 0.026086112484335899 0.088225796818733215
0.013508874922990799 0.065034963190555573 0.072154134511947632
0.055472578853368759 0.07054486870765686 0.075403608381748199
0.10160094499588013 0.074612155556678772 0.080223709344863892
0.15045440196990967 0.078868001699447632 0.086188361048698425
0.19949319958686829 0.085230760276317596 0.092438355088233948
0.25075152516365051 0.091281205415725708 0.099817968904972076
0.30469366908073425 0.097046948969364166 0.10856547951698303
0.024699820205569267 0.12455415725708008 0.081659324467182159
0.069246985018253326 0.13202425837516785 0.087448000907897949
0.11817657202482224 0.13957609236240387 0.095131456851959229
0.16868259012699127 0.14789627492427826 0.10302719473838806
0.21902871131896973 0.15749721229076385 0.11035183072090149
0.27245944738388062 0.16462567448616028 0.11967176198959351
0.32813391089439392 0.17128466069698334 0.13012620806694031
0.041809156537055969 0.19481921195983887 0.095105625689029694
0.088055506348609924 0.20262174308300018 0.10300924628973007
0.13758039474487305 0.21227926015853882 0.1129891648888588
0.18903490900993347 0.22256499528884888 0.12288683652877808
0.2418498694896698 0.23308281600475311 0.13217689096927643
0.29724565148353577 0.24122191965579987 0.14251242578029633
0.3540591299533844 0.24931713938713074 0.15342976152896881
0.06252569705247879 0.2723335325717926 0.11368828266859055
0.1101435199379921 0.28010833263397217 0.12301800400018692
0.16026812791824341 0.29025915265083313 0.13442355394363403
0.21286901831626892 0.30115032196044922 0.14598675072193146
0.26764947175979614 0.31161919236183167 0.1573755294084549
0.32406836748123169 0.32163125276565552 0.16866759955883026
0.38153263926506042 0.33128911256790161 0.18026678264141083
0.084876507520675659 0.35291945934295654 0.13758461177349091
0.13401319086551666 0.36142164468765259 0.14735463261604309
0.18527546525001526 0.37172725796699524 0.15923279523849487
0.23870311677455902 0.38286295533180237 0.17203032970428467
0.29427465796470642 0.39406782388687134 0.1849178820848465
0.3513830304145813 0.40506181120872498 0.1977265477180481
0.40912353992462158 0.41593185067176819 0.21039220690727234
0.10842916369438171 0.4367644190788269 0.16465157270431519
0.1589205265045166 0.44555845856666565 0.17467936873435974
0.21128059923648834 0.45588868856430054 0.18684250116348267
0.26542642712593079 0.46726027131080627 0.20015914738178253
0.32144075632095337 0.47893321514129639 0.21403354406356812
0.37874224781990051 0.49063888192176819 0.22806729376316071
0.43676751852035522 0.50212693214416504 0.24168162047863007
0.0040366677567362785 0.0087038381025195122 0.11175253242254257
0.044258013367652893 0.012216605246067047 0.11384091526269913
0.08839600533246994 0.014852321706712246 0.11696075648069382
0.13529756665229797 0.017138522118330002 0.12151391804218292
0.18344831466674805 0.020649868994951248 0.12702126801013947
0.23357006907463074 0.02480531670153141 0.13357150554656982
0.28593537211418152 0.029599865898489952 0.14138272404670715
0.013258974999189377 0.066355593502521515 0.12160740047693253
0.055572256445884705 0.072264470160007477 0.12503378093242645
0.10364197194576263 0.07678820937871933 0.1306118369102478
0.15365053713321686 0.081718429923057556 0.137375608086586
0.2031354159116745 0.088139645755290985 0.14471383392810822
0.25453928112983704 0.094381146132946014 0.15267187356948853
0.30835890769958496 0.10078678280115128 0.16162753105163574
0.026417959481477737 0.12844356894493103 0.13297174870967865
0.070702463388442993 0.1359284520149231 0.13857610523700714
0.1204107403755188 0.14376559853553772 0.14668934047222137
0.17210482060909271 0.1517874151468277 0.15553979575634003
0.22389250993728638 0.15995855629444122 0.16443493962287903
0.27760842442512512 0.16724410653114319 0.17341576516628265
0.33288609981536865 0.17503723502159119 0.18329012393951416
0.044280108064413071 0.19797201454639435 0.14813882112503052
0.090404808521270752 0.20648176968097687 0.15590961277484894
0.13998076319694519 0.21694254875183105 0.1661486029624939
0.19239431619644165 0.22702082991600037 0.17703376710414886
0.24709449708461761 0.23539434373378754 0.1875089704990387
0.30298277735710144 0.2439953088760376 0.19664311408996582
0.35950276255607605 0.25293564796447754 0.20634843409061432
0.06505604088306427 0.27450773119926453 0.16835220158100128
0.11266325414180756 0.28331539034843445 0.17729651927947998
0.16289296746253967 0.29438102245330811 0.18879906833171844
0.21617290377616882 0.30538079142570496 0.20077544450759888
0.27198517322540283 0.315023273229599 0.21220405399799347
0.3291078507900238 0.32471635937690735 0.22239430248737335
0.38661432266235352 0.33470848202705383 0.23270022869110107
0.087315335869789124 0.35523658990859985 0.19320821762084961
0.13651974499225616 0.36431866884231567 0.20265576243400574
0.18781884014606476 0.37526637315750122 0.21437148749828339
0.2417595237493515 0.38667598366737366 0.22698037326335907
0.29792037606239319 0.39764958620071411 0.23939543962478638
0.3554074764251709 0.40843337774276733 0.25127741694450378
0.41331714391708374 0.41890221834182739 0.26335582137107849
0.11076648533344269 0.43899714946746826 0.22106334567070007
0.16135115921497345 0.44814476370811462 0.23076413571834564
0.2137904167175293 0.45900827646255493 0.24263677000999451
0.26820731163024902 0.470571368932724 0.25554484128952026
0.32451406121253967 0.48229670524597168 0.26875951886177063
0.38203400373458862 0.49363157153129578 0.28198453783988953
0.44002023339271545 0.50475263595581055 0.29524847865104675
0.0044973636977374554 0.0077089047990739346 0.16448718309402466
0.045699026435613632 0.011372016742825508 0.1674056351184845
0.090384297072887421 0.014932639896869659 0.17149703204631805
0.13726052641868591 0.018511977046728134 0.17663432657718658
0.18561559915542603 0.022796062752604485 0.18266522884368896
0.23588089644908905 0.027703080326318741 0.18912269175052643
0.28825369477272034 0.03319588303565979 0.19695530831813812
0.015657776966691017 0.066598691046237946 0.17576548457145691
0.058888841420412064 0.072909802198410034 0.18003875017166138
0.10581339150667191 0.078814521431922913 0.18644404411315918
0.1552496999502182 0.084664620459079742 0.19393941760063171
0.20576192438602448 0.09088655561208725 0.20153282582759857
0.25784218311309814 0.097342640161514282 0.20936115086078644
0.31150570511817932 0.10428469628095627 0.21808880567550659
0.030071737244725227 0.12934257090091705 0.18882353603839874
0.074588894844055176 0.13747335970401764 0.19500379264354706
0.12289735674858093 0.1468321830034256 0.20374320447444916
0.17430292069911957 0.15537048876285553 0.21352893114089966
0.2275957465171814 0.16235674917697906 0.22294080257415771
0.28188946843147278 0.16985777020454407 0.23153029382228851
0.33690980076789856 0.17835140228271484 0.24050699174404144
0.047942817211151123 0.19887982308864594 0.20575326681137085
0.093943022191524506 0.20873026549816132 0.21356922388076782
0.1429007351398468 0.2203906774520874 0.22416560351848602
0.19538785517215729 0.23105037212371826 0.2357015460729599
0.25127676129341125 0.23847547173500061 0.24653759598731995
0.30745780467987061 0.24665650725364685 0.25531402230262756
0.36362111568450928 0.25629648566246033 0.2643904983997345
0.068243138492107391 0.27578428387641907 0.22725066542625427
0.11583627760410309 0.28581705689430237 0.23600596189498901
0.16593354940414429 0.29780277609825134 0.24730841815471649
0.21938371658325195 0.30939465761184692 0.25927740335464478
0.27573111653327942 0.31886854767799377 0.27062961459159851
0.33311757445335388 0.32829651236534119 0.28055915236473083
0.39039209485054016 0.33802956342697144 0.29093921184539795
0.090244963765144348 0.357137531042099 0.2525944709777832
0.13953867554664612 0.36698046326637268 0.26170995831489563
0.19090498983860016 0.37855079770088196 0.27311080694198608
0.2448919266462326 0.39058178663253784 0.28530463576316833
0.30128425359725952 0.40169122815132141 0.29724347591400146
0.35881870985031128 0.41205659508705139 0.30876994132995605
0.41670313477516174 0.42220845818519592 0.32061108946800232
0.11371272802352905 0.44145190715789795 0.28087076544761658
0.16428413987159729 0.45101660490036011 0.29015269875526428
0.21671712398529053 0.46221727132797241 0.30148133635520935
0.27120140194892883 0.47418418526649475 0.3138066828250885
0.32759773731231689 0.48577126860618591 0.32652860879898071
0.38516473770141602 0.49704140424728394 0.339133620262146
0.44318544864654541 0.50775980949401855 0.35223710536956787
0.00624847412109375 0.0079772798344492912 0.2217714935541153
0.048595547676086426 0.011515717953443527 0.22548961639404297
0.092755682766437531 0.015869738534092903 0.23003211617469788
0.13892914354801178 0.020358171314001083 0.23545284569263458
0.18726253509521484 0.025282885879278183 0.24118493497371674
0.23765997588634491 0.030897820368409157 0.24746835231781006
0.29000356793403625 0.036987543106079102 0.25528424978256226
0.019517112523317337 0.067485108971595764 0.23469015955924988
0.063051067292690277 0.073553957045078278 0.23995685577392578
0.10862052440643311 0.080075055360794067 0.24678847193717957
0.15691840648651123 0.086790166795253754 0.25416016578674316
0.20753836631774902 0.093474172055721283 0.26152271032333374
0.25993019342422485 0.1004340648651123 0.26901927590370178
0.31380787491798401 0.10779973864555359 0.27747851610183716
0.034675329923629761 0.13008052110671997 0.2491900771856308
0.07910437136888504 0.13845163583755493 0.2562706470489502
0.12604238092899323 0.14816597104072571 0.26540312170982361
0.17644909024238586 0.15723970532417297 0.27488505840301514
0.22960834205150604 0.16536256670951843 0.2839224636554718
0.28428918123245239 0.1731257289648056 0.29237127304077148
0.33964231610298157 0.18133009970188141 0.30130496621131897
0.052167359739542007 0.19994285702705383 0.26724842190742493
0.097982533276081085 0.20978212356567383 0.27573415637016296
0.14627127349376678 0.22169117629528046 0.28630980849266052
0.19823016226291656 0.23316219449043274 0.29723677039146423
0.25347548723220825 0.24228069186210632 0.30739399790763855
0.30981755256652832 0.25075146555900574 0.31659814715385437
0.36631336808204651 0.25947535037994385 0.32637786865234375
0.071928776800632477 0.27782917022705078 0.28983083367347717
0.11948271840810776 0.287477046251297 0.29856675863265991
0.16938795149326324 0.29981228709220886 0.30962693691253662
0.22240184247493744 0.31238678097724915 0.3209272027015686
0.27843001484870911 0.32355409860610962 0.33167198300361633
0.33563646674156189 0.33272317051887512 0.34199890494346619
0.39298301935195923 0.34143555164337158 0.3529725968837738
0.093687348067760468 0.35988977551460266 0.31558570265769958
0.14287532866001129 0.36954411864280701 0.32441148161888123
0.19413580000400543 0.38150987029075623 0.33533996343612671
0.24804215133190155 0.39420211315155029 0.34690248966217041
0.30421090126037598 0.40600478649139404 0.35829314589500427
0.36166870594024658 0.41621309518814087 0.36976373195648193
0.41947498917579651 0.42556518316268921 0.38178101181983948
0.11685670167207718 0.44474822282791138 0.34378141164779663
0.16746880114078522 0.45422840118408203 0.35271355509757996
0.21987654268741608 0.46566501259803772 0.36339893937110901
0.27431896328926086 0.4777807891368866 0.37515076994895935
0.33052560687065125 0.48964235186576843 0.38736134767532349
0.38790792226791382 0.5006181001663208 0.39971265196800232
0.44593736529350281 0.51093137264251709 0.41273629665374756
0.0090998178347945213 0.010172884911298752 0.28313228487968445
0.051912795752286911 0.013319576159119606 0.28734785318374634
0.095394924283027649 0.017262836918234825 0.29215902090072632
0.14097206294536591 0.021894821897149086 0.29732760787010193
0.18888586759567261 0.027740957215428352 0.3027321994304657
0.23905256390571594 0.034236550331115723 0.30853644013404846
0.29138898849487305 0.041044659912586212 0.31596571207046509
0.023478548973798752 0.070999249815940857 0.29804587364196777
0.066928267478942871 0.075983993709087372 0.30367371439933777
0.1115826889872551 0.081826277077198029 0.31064429879188538
0.15899556875228882 0.088410183787345886 0.31754323840141296
0.20923984050750732 0.095785968005657196 0.32437825202941895
0.26172581315040588 0.10346221923828125 0.33134561777114868
0.31573337316513062 0.11121528595685959 0.33971229195594788
0.03883139044046402 0.13455665111541748 0.31419980525970459
0.083156391978263855 0.14134077727794647 0.32154139876365662
0.12910319864749908 0.14941683411598206 0.33045399188995361
0.17858913540840149 0.15837940573692322 0.33940985798835754
0.23141112923622131 0.16750279068946838 0.34745949506759644
0.28626638650894165 0.17575915157794952 0.35570159554481506
0.34205770492553711 0.18395686149597168 0.3648664653301239
0.05612780898809433 0.20470844209194183 0.33344012498855591
0.10195153951644897 0.21294857561588287 0.3418194055557251
0.1495705246925354 0.22302231192588806 0.35184398293495178
0.20075495541095734 0.23410427570343018 0.36187067627906799
0.25543826818466187 0.24494087696075439 0.37110733985900879
0.31191542744636536 0.2536410391330719 0.38066276907920837
0.36882060766220093 0.26169905066490173 0.39081987738609314
0.075713604688644409 0.28213173151016235 0.35614413022994995
0.12326257675886154 0.29096096754074097 0.3645179271697998
0.17273519933223724 0.30226248502731323 0.37497270107269287
0.2253400981426239 0.31472590565681458 0.38551786541938782
0.28085222840309143 0.32684171199798584 0.39569208025932312
0.33789154887199402 0.33609449863433838 0.40623593330383301
0.39539149403572083 0.3442113995552063 0.41747760772705078
0.09728550910949707 0.36427652835845947 0.38160926103591919
0.14653460681438446 0.37329819798469543 0.39018550515174866
0.1976282000541687 0.38468280434608459 0.40035432577133179
0.25115188956260681 0.39726349711418152 0.4113362729549408
0.30690538883209229 0.40942761301994324 0.42234125733375549
0.36420252919197083 0.41962629556655884 0.43381303548812866
0.42196574807167053 0.42865386605262756 0.4458809494972229
0.12026640772819519 0.44922128319740295 0.40956413745880127
0.17100615799427032 0.45834699273109436 0.41835638880729675
0.22326058149337769 0.46929284930229187 0.4282989501953125
0.27745658159255981 0.48129996657371521 0.43951648473739624
0.33348247408866882 0.49314212799072266 0.45116925239562988
0.39080607891082764 0.5040317177772522 0.46334651112556458
0.44864228367805481 0.51412111520767212 0.47617250680923462
0.011765439063310623 0.013314610347151756 0.34756013751029968
0.054801613092422485 0.016394462436437607 0.35182029008865356
0.098247930407524109 0.019590804353356361 0.356719970703125
0.14363227784633636 0.024366671219468117 0.36177283525466919
0.19142428040504456 0.030301397666335106 0.36678844690322876
0.24130979180335999 0.037548050284385681 0.37232798337936401
0.29350411891937256 0.045114420354366302 0.37939006090164185
0.026722956448793411 0.076234109699726105 0.36412861943244934
0.070464007556438446 0.080108389258384705 0.36996868252754211
0.11474522948265076 0.084634728729724884 0.37668094038963318
0.16175097227096558 0.090859629213809967 0.38324418663978577
0.21176934242248535 0.098555877804756165 0.3895057737827301
0.26423710584640503 0.1065797358751297 0.39617639780044556
0.31833556294441223 0.11474887281656265 0.40429699420928955
0.042303767055273056 0.14142324030399323 0.38197022676467896
0.086917489767074585 0.14638248085975647 0.38925829529762268
0.13243162631988525 0.15237323939800262 0.39787453413009644
0.18126875162124634 0.16039420664310455 0.40611422061920166
0.23407250642776489 0.16980873048305511 0.41345304250717163
0.28885191679000854 0.17843927443027496 0.42156568169593811
0.34493336081504822 0.18684013187885284 0.4308164119720459
0.059833690524101257 0.21214529871940613 0.40222123265266418
0.10580775141716003 0.21833555400371552 0.41025647521018982
0.15306378901004791 0.22626928985118866 0.41973733901977539
0.20378971099853516 0.23622740805149078 0.42904239892959595
0.25814789533615112 0.24669079482555389 0.43776124715805054
0.31451135873794556 0.25578153133392334 0.44704627990722656
0.37164211273193359 0.26424956321716309 0.45745575428009033
0.079479753971099854 0.28896453976631165 0.42493981122970581
0.12717817723751068 0.29629072546958923 0.43317008018493652
0.17647866904735565 0.30592444539070129 0.44283339381217957
0.22871458530426025 0.31706541776657104 0.45280277729034424
0.28370431065559387 0.32840421795845032 0.46259018778800964
0.34058636426925659 0.33802103996276855 0.47297129034996033
0.39800512790679932 0.34685835242271423 0.48413768410682678
0.10096456855535507 0.37050354480743408 0.45014315843582153
0.15034966170787811 0.37856099009513855 0.45840579271316528
0.20135648548603058 0.388721764087677 0.46807435154914856
0.25455969572067261 0.40024426579475403 0.47842031717300415
0.30998387932777405 0.41181424260139465 0.48902702331542969
0.36693194508552551 0.42203822731971741 0.5002892017364502
0.4245937168598175 0.43162050843238831 0.51236063241958618
0.1240353137254715 0.45510834455490112 0.47765296697616577
0.17479126155376434 0.46346703171730042 0.48593831062316895
0.22693225741386414 0.47369900345802307 0.49556297063827515
0.28095361590385437 0.48500040173530579 0.50621908903121948
0.33662587404251099 0.49636581540107727 0.5175546407699585
0.39367848634719849 0.50715374946594238 0.5294266939163208
0.45138362050056458 0.51749783754348755 0.54206061363220215
