assets/lut/alexjordan bleech bypass green.cube
# Created by: G'MIC (https://gmic.eu)
TITLE "bleech_bypass_green"
# LUT size
LUT_3D_SIZE 5
# Data domain
DOMAIN_MIN 0.0 0.0 0.0
DOMAIN_MAX 1.0 1.0 1.0
# LUT data points
0.008114788681268692 0.0080101462081074715 0.006762815173715353
0.045959159731864929 0.010549387894570827 0.004965419415384531
0.15026244521141052 0.01427250262349844 0.0097543010488152504
0.59145098924636841 0.013010631315410137 0.0074508818797767162
0.9829554557800293 0.021571185439825058 0.016572242602705956
0.010986717417836189 0.11112625896930695 0.0075713661499321461
0.11950284242630005 0.14124876260757446 0.01189213152974844
0.29993721842765808 0.16930733621120453 0.014790419489145279
0.66987764835357666 0.19666467607021332 0.015906106680631638
0.98373252153396606 0.23265956342220306 0.024712266400456429
0.021498436108231544 0.39032688736915588 0.01777922734618187
0.21065859496593475 0.4408072829246521 0.021715052425861359
0.46979275345802307 0.49251049757003784 0.02374776266515255
0.75206077098846436 0.53977209329605103 0.024866126477718353
0.98400098085403442 0.57971274852752686 0.026841390877962112
0.030552240088582039 0.78144282102584839 0.026574872434139252
0.30652225017547607 0.80296027660369873 0.028118746355175972
0.63011568784713745 0.82113468647003174 0.02787385880947113
0.83880817890167236 0.84963935613632202 0.032336920499801636
0.99705123901367188 0.87090343236923218 0.050776224583387375
0.086997479200363159 0.99245226383209229 0.060122322291135788
0.44008764624595642 0.9975929856300354 0.056175500154495239
0.80597257614135742 0.9947018027305603 0.042009748518466949
0.94006335735321045 0.99925714731216431 0.059171862900257111
1 1 0.11057434231042862
0.0052345725707709789 0.0060094050131738186 0.02310708723962307
0.052590958774089813 0.012038885615766048 0.043519772589206696
0.16855511069297791 0.016909176483750343 0.06934724748134613
0.60918551683425903 0.0184148158878088 0.098201915621757507
0.97902125120162964 0.019465412944555283 0.1150168776512146
0.01100285816937685 0.12598903477191925 0.093292891979217529
0.1349189430475235 0.15719281136989594 0.12060576677322388
0.3366750180721283 0.18488295376300812 0.14528372883796692
0.68417352437973022 0.2088351845741272 0.1674664318561554
0.98411303758621216 0.24239775538444519 0.20121563971042633
0.022997433319687843 0.41027000546455383 0.17647750675678253
0.22474870085716248 0.46802189946174622 0.20560044050216675
0.48936983942985535 0.51310282945632935 0.23180995881557465
0.7644355297088623 0.55997103452682495 0.25624740123748779
0.98876261711120605 0.60687220096588135 0.28112667798995972
0.025045791640877724 0.78950142860412598 0.26594772934913635
0.32082238793373108 0.81955796480178833 0.29271939396858215
0.65690511465072632 0.84034943580627441 0.3282773494720459
0.85337156057357788 0.86191999912261963 0.34904652833938599
0.99552243947982788 0.88454490900039673 0.37552514672279358
0.04426511749625206 0.99135571718215942 0.36102446913719177
0.42944163084030151 0.99785035848617554 0.39935824275016785
0.8174329400062561 0.99700778722763062 0.41388222575187683
0.94416511058807373 0.9992598295211792 0.44389450550079346
1 0.99979156255722046 0.48125219345092773
0.0059510772116482258 0.0077205882407724857 0.081999339163303375
0.064700782299041748 0.013736769556999207 0.13338303565979004
0.19782714545726776 0.017278470098972321 0.17397674918174744
0.61129933595657349 0.022044386714696884 0.2221059650182724
0.98329323530197144 0.024907086044549942 0.25817283987998962
0.013662420213222504 0.13812838494777679 0.2270694226026535
0.15092252194881439 0.16841626167297363 0.28326752781867981
0.34698560833930969 0.19857993721961975 0.32214388251304626
0.69532781839370728 0.22365683317184448 0.37283873558044434
0.98606193065643311 0.24851730465888977 0.42790326476097107
0.024376004934310913 0.43548160791397095 0.38879171013832092
0.23837785422801971 0.48449936509132385 0.44085785746574402
0.50948655605316162 0.53021442890167236 0.4893171489238739
0.77427011728286743 0.57961833477020264 0.53880482912063599
0.98850327730178833 0.61811292171478271 0.58546346426010132
0.02829793281853199 0.80125457048416138 0.55276995897293091
0.32648313045501709 0.82744956016540527 0.61173677444458008
0.68002802133560181 0.84799838066101074 0.66653388738632202
0.86449587345123291 0.87102663516998291 0.71069788932800293
0.99477583169937134 0.8974573016166687 0.76342922449111938
0.049295805394649506 0.99177414178848267 0.71735626459121704
0.42746049165725708 0.9969908595085144 0.77897363901138306
0.85352730751037598 0.99580472707748413 0.84333509206771851
0.9516063928604126 0.99824708700180054 0.87837761640548706
0.99739688634872437 0.99773281812667847 0.94201648235321045
0.00029023113893344998 0.0036980274599045515 0.51046693325042725
0.050715666264295578 0.0080159204080700874 0.54540520906448364
0.23123061656951904 0.015470437705516815 0.58479171991348267
0.62712818384170532 0.01733449287712574 0.60617554187774658
0.98407447338104248 0.021013028919696808 0.62458395957946777
0.014274747110903263 0.15034574270248413 0.60973834991455078
0.15541756153106689 0.1805434376001358 0.6381189227104187
0.38052380084991455 0.20846477150917053 0.66652315855026245
0.70684713125228882 0.23317153751850128 0.6845659613609314
0.98606199026107788 0.26129299402236938 0.71224832534790039
0.025961887091398239 0.45220223069190979 0.69214403629302979
0.25083714723587036 0.51120495796203613 0.72009766101837158
0.52918750047683716 0.5556333065032959 0.7501060962677002
0.78679883480072021 0.59941607713699341 0.77386784553527832
0.98781031370162964 0.64185637235641479 0.79979217052459717
0.032037623226642609 0.8074411153793335 0.78309202194213867
0.34161481261253357 0.84013837575912476 0.81625676155090332
0.70015090703964233 0.85868328809738159 0.84241354465484619
0.87284493446350098 0.87966346740722656 0.8670346736907959
0.99320906400680542 0.90107709169387817 0.89105916023254395
0.052423965185880661 0.99597311019897461 0.86985915899276733
0.4397924542427063 0.99603623151779175 0.90599805116653442
0.86950695514678955 0.99627506732940674 0.92999225854873657
0.95902478694915771 0.99772799015045166 0.96022975444793701
0.99927622079849243 0.99907857179641724 0.98247212171554565
0 0.00031522862263955176 0.89860856533050537
0.024548264220356941 0.0061261644586920738 0.95093733072280884
0.22305315732955933 0.022829916328191757 0.98354333639144897
0.63148206472396851 0.022204186767339706 0.98221158981323242
0.98436397314071655 0.024579500779509544 0.98358148336410522
0.0046767890453338623 0.15951685607433319 0.96456152200698853
0.15088075399398804 0.18863935768604279 0.97846043109893799
0.38746404647827148 0.22079254686832428 0.98365813493728638
0.70686596632003784 0.24535471200942993 0.98383051156997681
0.98328149318695068 0.27989950776100159 0.98407036066055298
0.027518253773450851 0.47448316216468811 0.98333865404129028
0.26240801811218262 0.52254301309585571 0.984874427318573
0.55243194103240967 0.57369184494018555 0.98603934049606323
0.79664778709411621 0.61133688688278198 0.98662465810775757
0.98985213041305542 0.66746020317077637 0.98885434865951538
0.035928059369325638 0.81352263689041138 0.98855036497116089
0.3569084107875824 0.8421022891998291 0.99247366189956665
0.70689851045608521 0.86697900295257568 0.99227637052536011
0.88600760698318481 0.89140218496322632 0.99264901876449585
0.99547266960144043 0.9160764217376709 0.99520808458328247
0.04951915517449379 0.9944034218788147 0.99433386325836182
0.46871224045753479 0.99852240085601807 0.99951654672622681
0.89199960231781006 0.99655449390411377 0.9967694878578186
0.97253167629241943 0.99922323226928711 0.99983412027359009
0.99805057048797607 0.99773281812667847 0.9984666109085083
