assets/lut/alexjordan colorful 0209.cube
# Created by: G'MIC (https://gmic.eu)
TITLE "colorful_0209"
# LUT size
LUT_3D_SIZE 5
# Data domain
DOMAIN_MIN 0.0 0.0 0.0
DOMAIN_MAX 1.0 1.0 1.0
# LUT data points
0.041660547256469727 0.035721063613891602 0.047608528286218643
0.43564268946647644 0.014793381094932556 0.015730705112218857
0.50625753402709961 0.034644495695829391 0.036803629249334335
0.70506167411804199 0.048299241811037064 0.050591070204973221
0.94369637966156006 0.044789168983697891 0.043461307883262634
0 0.33255895972251892 0.00018382353300694376
0.28474777936935425 0.29244625568389893 0
0.56771630048751831 0.26972535252571106 0.0023020277731120586
0.71364152431488037 0.28933358192443848 0.074783310294151306
0.95060592889785767 0.29099816083908081 0.069570921361446381
0.050419706851243973 0.51859432458877563 0.041728883981704712
0.24616201221942902 0.53592735528945923 0.00037159639759920537
0.5222737193107605 0.52033907175064087 0.051570262759923935
0.73803818225860596 0.52659064531326294 0.095232374966144562
0.96720945835113525 0.52941179275512695 0.091365143656730652
0.090656772255897522 0.74947714805603027 0.087881825864315033
0.31932300329208374 0.74978810548782349 0.10381964594125748
0.53844398260116577 0.75564086437225342 0.11937417089939117
0.765461266040802 0.76101720333099365 0.11745138466358185
0.98345261812210083 0.7672002911567688 0.1102331131696701
0.097662985324859619 0.98231464624404907 0.100530706346035
0.33014178276062012 0.98427629470825195 0.11193329840898514
0.55485808849334717 0.98860293626785278 0.11686322093009949
0.78685373067855835 0.98997551202774048 0.13534334301948547
0.99369543790817261 0.99246323108673096 0.12778449058532715
0.026564400643110275 0.027884000912308693 0.46097347140312195
0.40866896510124207 0.0055799297988414764 0.4106699526309967
0.56572645902633667 0.014458361081779003 0.28642228245735168
0.69399672746658325 0.048203174024820328 0.26145204901695251
0.92940455675125122 0.050680138170719147 0.26721799373626709
0 0.31624439358711243 0.31076061725616455
0.26959481835365295 0.27222076058387756 0.27305299043655396
0.66803795099258423 0.23237782716751099 0.22223201394081116
0.76187050342559814 0.27295622229576111 0.26920753717422485
0.94981080293655396 0.28992530703544617 0.28384211659431458
0.00051817053463310003 0.54021650552749634 0.25184434652328491
0.13285920023918152 0.5741264820098877 0.12925140559673309
0.53238475322723389 0.53380531072616577 0.094393983483314514
0.80119061470031738 0.51338297128677368 0.22260378301143646
0.94772529602050781 0.52926814556121826 0.32082495093345642
0.10638295859098434 0.73948931694030762 0.31443849205970764
0.27835178375244141 0.76262944936752319 0.27683806419372559
0.4897792637348175 0.78086590766906738 0.2006993442773819
0.76142364740371704 0.761635422706604 0.28942766785621643
0.98008674383163452 0.76484096050262451 0.32951635122299194
0.10544349998235703 0.98006844520568848 0.3252556324005127
0.34326234459877014 0.9815603494644165 0.33771026134490967
0.56672090291976929 0.9824596643447876 0.3593878448009491
0.7886430025100708 0.98715215921401978 0.36653566360473633
0.99216902256011963 0.99246323108673096 0.35146576166152954
0.027513107284903526 0.02863628976047039 0.49455991387367249
0.30346262454986572 0.01070245448499918 0.5836341381072998
0.50719749927520752 0.024588087573647499 0.50788813829421997
0.67688518762588501 0.052802786231040955 0.47108301520347595
0.92453813552856445 0.049507904797792435 0.48759141564369202
0.0070891436189413071 0.27226454019546509 0.56253063678741455
0.24337346851825714 0.25473436713218689 0.69214463233947754
0.65728664398193359 0.21076348423957825 0.65336531400680542
0.81641089916229248 0.24969407916069031 0.53409230709075928
0.937366783618927 0.28711417317390442 0.50478863716125488
0.027912439778447151 0.51658082008361816 0.50905925035476685
0.12345156073570251 0.55342739820480347 0.55154144763946533
0.5173957347869873 0.51516783237457275 0.50628519058227539
0.92060369253158569 0.47185474634170532 0.46654084324836731
0.99293619394302368 0.51421147584915161 0.51390069723129272
0.080471530556678772 0.74404942989349365 0.52336078882217407
0.21222171187400818 0.77785718441009521 0.50084871053695679
0.37507331371307373 0.81735509634017944 0.37275430560112
0.77041792869567871 0.77531027793884277 0.32337146997451782
0.99997955560684204 0.75126677751541138 0.46000772714614868
0.10090457648038864 0.9784926176071167 0.546497642993927
0.34195742011070251 0.97944504022598267 0.55935472249984741
0.52859711647033691 0.99280405044555664 0.52478426694869995
0.73355221748352051 0.99721956253051758 0.44329032301902771
0.98766255378723145 0.98954969644546509 0.53370380401611328
0.022410374134778976 0.023228244855999947 0.65428674221038818
0.2452605664730072 0.027814304456114769 0.68236052989959717
0.4547063410282135 0.041038855910301208 0.66273540258407593
0.69126617908477783 0.041712399572134018 0.6933785080909729
0.92203038930892944 0.042873755097389221 0.70275884866714478
0.048407595604658127 0.26298147439956665 0.69371575117111206
0.26152476668357849 0.26482978463172913 0.7504001259803772
0.53395587205886841 0.24635359644889832 0.81869280338287354
0.75032830238342285 0.26272451877593994 0.75671148300170898
0.93338578939437866 0.28799936175346375 0.71739292144775391
0.09389948844909668 0.49463433027267456 0.7050163745880127
0.22252586483955383 0.51621592044830322 0.81271481513977051
0.49028861522674561 0.49488741159439087 0.93916487693786621
0.90012747049331665 0.44902345538139343 0.90045994520187378
1 0.48728817701339722 0.77611839771270752
0.086739771068096161 0.73934441804885864 0.73592489957809448
0.2616850733757019 0.75688272714614868 0.75640702247619629
0.36364138126373291 0.79627132415771484 0.79915928840637207
0.75530564785003662 0.75517499446868896 0.7517276406288147
1 0.71574783325195312 0.71417391300201416
0.088936105370521545 0.97848564386367798 0.75915038585662842
0.35240280628204346 0.97505879402160645 0.76459735631942749
0.45544338226318359 0.99825674295425415 0.72974681854248047
0.62811100482940674 1 0.61405575275421143
0.98583614826202393 0.99117887020111084 0.57867980003356934
0.0093245264142751694 0.014886668883264065 0.88730418682098389
0.2300298660993576 0.021074198186397552 0.89989858865737915
0.45404410362243652 0.029313031584024429 0.89267522096633911
0.68917191028594971 0.030348116531968117 0.91214793920516968
0.91730993986129761 0.028774814680218697 0.91476833820343018
0.036479741334915161 0.25518381595611572 0.91920387744903564
0.2655487060546875 0.26229122281074524 0.9233391284942627
0.48787447810173035 0.27118125557899475 0.91487383842468262
0.71126085519790649 0.27602583169937134 0.93161022663116455
0.93621683120727539 0.27658003568649292 0.92371916770935059
0.07101789116859436 0.49574005603790283 0.92922759056091309
0.29536592960357666 0.49887377023696899 0.92294883728027344
0.50606268644332886 0.50700134038925171 0.97400516271591187
0.77187883853912354 0.4940306544303894 0.99851304292678833
0.99749386310577393 0.48893743753433228 0.9672541618347168
0.073330134153366089 0.73675394058227539 0.9579615592956543
0.31720826029777527 0.73745536804199219 0.94536781311035156
0.45760813355445862 0.75871437788009644 0.999927818775177
0.73382163047790527 0.73698407411575317 1
1 0.69306981563568115 1
0.066804222762584686 0.97530210018157959 0.97608113288879395
0.31768953800201416 0.9784926176071167 0.97532641887664795
0.48003816604614258 0.99149000644683838 0.98828744888305664
0.5953066349029541 0.99737995862960815 0.99374181032180786
0.9797249436378479 0.98389661312103271 0.97574913501739502
