assets/lut/alexjordan subtle blue.cube
# Created by: G'MIC (https://gmic.eu)
TITLE "subtle_blue"
# LUT size
LUT_3D_SIZE 13
# Data domain
DOMAIN_MIN 0.0 0.0 0.0
DOMAIN_MAX 1.0 1.0 1.0
# LUT data points
0.0042799259535968304 0.026610953733325005 0.046320479363203049
0.04764142632484436 0.022018656134605408 0.045140795409679413
0.12657032907009125 0.020398233085870743 0.047887898981571198
0.19888626039028168 0.025398477911949158 0.05073712021112442
0.26674661040306091 0.03061644546687603 0.054253969341516495
0.33221715688705444 0.035731986165046692 0.058517605066299438
0.39616018533706665 0.04056181013584137 0.063366025686264038
0.45905622839927673 0.044961381703615189 0.068848900496959686
0.5208936333656311 0.049373790621757507 0.074411146342754364
0.58187711238861084 0.053772196173667908 0.080178894102573395
0.64141064882278442 0.058072004467248917 0.085972987115383148
0.70040357112884521 0.062196005135774612 0.091114476323127747
0.7591177225112915 0.065456926822662354 0.095165744423866272
0.0143369035795331 0.094134971499443054 0.061746485531330109
0.06741650402545929 0.091450996696949005 0.061935320496559143
0.14192509651184082 0.092186659574508667 0.064539097249507904
0.21541707217693329 0.096859723329544067 0.067569181323051453
0.28428152203559875 0.10208095610141754 0.070889413356781006
0.35022187232971191 0.10730258375406265 0.074881173670291901
0.41454467177391052 0.11216571182012558 0.079632356762886047
0.47779101133346558 0.1168287992477417 0.084876999258995056
0.5400661826133728 0.12121973931789398 0.090278998017311096
0.60146933794021606 0.12568198144435883 0.095814742147922516
0.66097211837768555 0.13011227548122406 0.10142894089221954
0.72051948308944702 0.13444767892360687 0.10643916577100754
0.77920079231262207 0.13813410699367523 0.11052796244621277
0.017621343955397606 0.16606277227401733 0.075451388955116272
0.078544020652770996 0.16553701460361481 0.077028192579746246
0.15366801619529724 0.16636712849140167 0.080129049718379974
0.2289639413356781 0.16933867335319519 0.083458036184310913
0.2990230917930603 0.17401883006095886 0.08687920868396759
0.36584869027137756 0.17910158634185791 0.090844906866550446
0.43115857243537903 0.18384814262390137 0.095476485788822174
0.49538838863372803 0.18829107284545898 0.10048853605985641
0.55843836069107056 0.19257034361362457 0.10565599799156189
0.62034392356872559 0.19668789207935333 0.11084796488285065
0.68029850721359253 0.20103999972343445 0.11612891405820847
0.74029600620269775 0.20564007759094238 0.12094763666391373
0.79878520965576172 0.20984479784965515 0.12503449618816376
0.026780730113387108 0.23915441334247589 0.090313032269477844
0.09154142439365387 0.23913253843784332 0.092555329203605652
0.1659475564956665 0.24021439254283905 0.095639459788799286
0.24072332680225372 0.24283984303474426 0.099112749099731445
0.31179448962211609 0.24685727059841156 0.10272508859634399
0.37997108697891235 0.25136992335319519 0.10673104226589203
0.4466974139213562 0.2557404637336731 0.1111873984336853
0.51189553737640381 0.25985124707221985 0.11605612188577652
0.57581710815429688 0.26377299427986145 0.12097465991973877
0.63842862844467163 0.26773402094841003 0.12598837912082672
0.69924461841583252 0.27172356843948364 0.13074977695941925
0.75870978832244873 0.27639058232307434 0.13538719713687897
0.81658035516738892 0.28128817677497864 0.13958439230918884
0.041813239455223083 0.31354200839996338 0.10571686923503876
0.10758068412542343 0.31404551863670349 0.1085202693939209
0.17953920364379883 0.31526580452919006 0.11153138428926468
0.25294682383537292 0.3169369101524353 0.11499109864234924
0.32466328144073486 0.32040685415267944 0.11871818453073502
0.39406958222389221 0.32412809133529663 0.12287887930870056
0.46177062392234802 0.32798510789871216 0.1273486465215683
0.52779531478881836 0.33180242776870728 0.13202659785747528
0.59249669313430786 0.33543169498443604 0.13667157292366028
0.65561288595199585 0.33904460072517395 0.14125880599021912
0.71753257513046265 0.34296369552612305 0.14583320915699005
0.7764279842376709 0.34755992889404297 0.15033411979675293
0.83423280715942383 0.35323336720466614 0.15476517379283905
0.059203412383794785 0.38790664076805115 0.12093012034893036
0.12522511184215546 0.38859468698501587 0.12437112629413605
0.19583722949028015 0.38942641019821167 0.1278194934129715
0.26775091886520386 0.3911401629447937 0.13133436441421509
0.3391106128692627 0.39390960335731506 0.13524094223976135
0.40887263417243958 0.39715784788131714 0.13936266303062439
0.4770209789276123 0.40059185028076172 0.14367999136447906
0.54346394538879395 0.40420010685920715 0.14814373850822449
0.60832172632217407 0.40779280662536621 0.15278328955173492
0.67172467708587646 0.41148450970649719 0.15733735263347626
0.73350358009338379 0.41537106037139893 0.16182564198970795
0.79328149557113647 0.42034009099006653 0.16628853976726532
0.84989559650421143 0.42667755484580994 0.17078296840190887
0.077227376401424408 0.46204882860183716 0.13584096729755402
0.1438385397195816 0.46260282397270203 0.13987201452255249
0.21331292390823364 0.46331483125686646 0.14367064833641052
0.28442478179931641 0.46522781252861023 0.14758248627185822
0.35511845350265503 0.46745568513870239 0.15165786445140839
0.42468973994255066 0.47038054466247559 0.1558501273393631
0.49270862340927124 0.47366541624069214 0.16017386317253113
0.55905675888061523 0.47716549038887024 0.16458606719970703
0.62366181612014771 0.48085212707519531 0.16920018196105957
0.68671000003814697 0.48498624563217163 0.17380355298519135
0.747780442237854 0.48947921395301819 0.17850179970264435
0.80637252330780029 0.49530172348022461 0.18319366872310638
0.86340564489364624 0.50189167261123657 0.18759635090827942
0.095532558858394623 0.53595352172851562 0.1501963883638382
0.162497878074646 0.53631806373596191 0.15481941401958466
0.23183196783065796 0.53744316101074219 0.15917347371578217
0.30190175771713257 0.53915870189666748 0.16362342238426208
0.37212836742401123 0.54106616973876953 0.1678670197725296
0.44124475121498108 0.54378688335418701 0.17220981419086456
0.50894922018051147 0.54690945148468018 0.17657004296779633
0.57498681545257568 0.55048412084579468 0.18104870617389679
0.63924515247344971 0.55459660291671753 0.18548266589641571
0.70147842168807983 0.55914342403411865 0.19021531939506531
0.76168739795684814 0.5646597146987915 0.19510555267333984
0.81959670782089233 0.57111042737960815 0.20006337761878967
0.87591385841369629 0.57793796062469482 0.2043246328830719
0.11393996328115463 0.60971057415008545 0.16416378319263458
0.18109560012817383 0.61050987243652344 0.16937074065208435
0.25025644898414612 0.61168897151947021 0.17427647113800049
0.32009226083755493 0.61303871870040894 0.17905895411968231
0.38971099257469177 0.61472976207733154 0.18368275463581085
0.45848411321640015 0.61725294589996338 0.18822173774242401
0.52589988708496094 0.62031453847885132 0.19258859753608704
0.59148991107940674 0.62396866083145142 0.19703100621700287
0.65531015396118164 0.62824481725692749 0.20143291354179382
0.71715205907821655 0.63332974910736084 0.20607286691665649
0.7765386700630188 0.63919973373413086 0.21084174513816833
0.83399945497512817 0.6461445689201355 0.2157115638256073
0.89047688245773315 0.65321850776672363 0.21983048319816589
0.13149590790271759 0.68428504467010498 0.17757178843021393
0.19961424171924591 0.68525665998458862 0.18327441811561584
0.2686341404914856 0.68622744083404541 0.18869517743587494
0.33819353580474854 0.68679666519165039 0.1939670741558075
0.40756002068519592 0.68868714570999146 0.19898001849651337
0.47614237666130066 0.69092470407485962 0.20370583236217499
0.5432400107383728 0.69386941194534302 0.20812474191188812
0.60859972238540649 0.69754940271377563 0.21250058710575104
0.67221629619598389 0.70187854766845703 0.21659949421882629
0.73375016450881958 0.70707887411117554 0.22093431651592255
0.79331487417221069 0.71306902170181274 0.22529789805412292
0.85065871477127075 0.71986430883407593 0.22952251136302948
0.90733903646469116 0.72685033082962036 0.23315340280532837
0.14920307695865631 0.75970065593719482 0.19038850069046021
0.21754524111747742 0.75980395078659058 0.19647344946861267
0.28656768798828125 0.7599482536315918 0.20246483385562897
0.3560640811920166 0.76121962070465088 0.20805051922798157
0.42533582448959351 0.76321995258331299 0.2133735716342926
0.49370172619819641 0.76477611064910889 0.218428835272789
0.56072151660919189 0.76765298843383789 0.22301396727561951
0.62601733207702637 0.77139288187026978 0.22709420323371887
0.68937873840332031 0.77575063705444336 0.23102879524230957
0.75097024440765381 0.78086960315704346 0.23488986492156982
0.81066751480102539 0.78664910793304443 0.23862317204475403
0.86880451440811157 0.79318481683731079 0.24230532348155975
0.9262269139289856 0.80001473426818848 0.24529066681861877
0.16609537601470947 0.83337503671646118 0.20232683420181274
0.23464660346508026 0.83433687686920166 0.20899355411529541
0.30402922630310059 0.83573836088180542 0.21543575823307037
0.37347522377967834 0.83696663379669189 0.22137600183486938
0.44260773062705994 0.83723098039627075 0.22695893049240112
0.51098102331161499 0.83965957164764404 0.23213556408882141
0.57787114381790161 0.84209197759628296 0.23677045106887817
0.64282375574111938 0.84572893381118774 0.2408650815486908
0.70615559816360474 0.85039347410202026 0.24450251460075378
0.76770341396331787 0.85513204336166382 0.24787020683288574
0.82767695188522339 0.8609623908996582 0.25117239356040955
0.88615512847900391 0.86702889204025269 0.25425958633422852
0.9436076283454895 0.87382775545120239 0.25680464506149292
0.18216140568256378 0.91029411554336548 0.21364517509937286
0.25119668245315552 0.91029411554336548 0.22068937122821808
0.32045948505401611 0.91029411554336548 0.2273775041103363
0.38988411426544189 0.91117072105407715 0.23357774317264557
0.4588896632194519 0.91395431756973267 0.23946535587310791
0.52711665630340576 0.91441357135772705 0.24480858445167542
0.59393525123596191 0.91781711578369141 0.24945221841335297
0.65865898132324219 0.92108380794525146 0.25342860817909241
0.72190350294113159 0.92526227235794067 0.25695714354515076
0.78353726863861084 0.93048310279846191 0.26008367538452148
0.84368413686752319 0.93591630458831787 0.2629663348197937
0.90253716707229614 0.94211870431900024 0.26558297872543335
0.96032470464706421 0.94811487197875977 0.2676292359828949
0.0044805640354752541 0.025345506146550179 0.11012852936983109
0.050520233809947968 0.024320011958479881 0.10861960053443909
0.12922020256519318 0.02469901368021965 0.1100504994392395
0.20284496247768402 0.029046989977359772 0.11299559473991394
0.27050378918647766 0.033990748226642609 0.11677771061658859
0.33545145392417908 0.038597136735916138 0.12130894511938095
0.39922994375228882 0.043055754154920578 0.12647183239459991
0.4619109034538269 0.04742635041475296 0.1319737583398819
0.52375441789627075 0.05165393278002739 0.13771958649158478
0.58429843187332153 0.055859465152025223 0.14356629550457001
0.64469218254089355 0.060018859803676605 0.14931643009185791
0.703125 0.063902102410793304 0.15459759533405304
0.76141446828842163 0.066932573914527893 0.1589341014623642
0.010685954242944717 0.093105554580688477 0.12498647719621658
0.067646071314811707 0.092041149735450745 0.1244083046913147
0.14626099169254303 0.093548595905303955 0.12636369466781616
0.21979700028896332 0.09868602454662323 0.1292160302400589
0.28766545653343201 0.1045086607336998 0.13290888071060181
0.35296151041984558 0.10979758203029633 0.13714082539081573
0.41718822717666626 0.11460494995117188 0.14215785264968872
0.48049083352088928 0.11916924268007278 0.14753103256225586
0.54258275032043457 0.12346181273460388 0.1531522125005722
0.6034044623374939 0.1278085857629776 0.15879510343074799
0.66407668590545654 0.13208603858947754 0.16439822316169739
0.72242647409439087 0.13624736666679382 0.16946637630462646
0.78039079904556274 0.13997562229633331 0.17408828437328339
0.0099672358483076096 0.16577929258346558 0.13816240429878235
0.076016657054424286 0.16553598642349243 0.13933625817298889
0.15697887539863586 0.16639259457588196 0.14204835891723633
0.23163585364818573 0.17067497968673706 0.14510080218315125
0.30087387561798096 0.17619273066520691 0.14844943583011627
0.36774194240570068 0.18145613372325897 0.15287584066390991
0.43337050080299377 0.18614397943019867 0.1578485369682312
0.49746331572532654 0.19047664105892181 0.16300022602081299
0.56049013137817383 0.19478704035282135 0.16831237077713013
0.6220279335975647 0.1989174485206604 0.17349344491958618
0.68304294347763062 0.20318478345870972 0.17887201905250549
0.74172794818878174 0.20763316750526428 0.18387122452259064
0.79963237047195435 0.21187949180603027 0.18840304017066956
0.019831398501992226 0.23973375558853149 0.15408900380134583
0.08813418447971344 0.23924726247787476 0.15570718050003052
0.1660531759262085 0.24088789522647858 0.15815721452236176
0.24129141867160797 0.24430117011070251 0.16096788644790649
0.31219834089279175 0.24901844561100006 0.16450010240077972
0.38136938214302063 0.25361979007720947 0.16889519989490509
0.4484371542930603 0.25787585973739624 0.17368307709693909
0.51377397775650024 0.26205277442932129 0.17860345542430878
0.57760685682296753 0.26607239246368408 0.18355342745780945
0.63993078470230103 0.27007237076759338 0.18851834535598755
0.70036143064498901 0.27425363659858704 0.19337235391139984
0.7608717679977417 0.27869653701782227 0.19828544557094574
0.81875079870223999 0.2836056649684906 0.20298269391059875
0.036145303398370743 0.31452080607414246 0.17037579417228699
0.1045909970998764 0.31493327021598816 0.17228204011917114
0.17906565964221954 0.315998375415802 0.17494687438011169
0.25334551930427551 0.31837707757949829 0.17773251235485077
0.3253319263458252 0.32212403416633606 0.18130128085613251
0.39537346363067627 0.3260255753993988 0.18541853129863739
0.46335619688034058 0.3300468921661377 0.18997026979923248
0.52938622236251831 0.33391183614730835 0.19465160369873047
0.59379291534423828 0.33773207664489746 0.19935497641563416
0.65661752223968506 0.34158110618591309 0.20391206443309784
0.71798527240753174 0.34574043750762939 0.2086203396320343
0.77665543556213379 0.35048356652259827 0.21338716149330139
0.83454781770706177 0.35587295889854431 0.21817027032375336
0.055005509406328201 0.38883605599403381 0.18610937893390656
0.12325466424226761 0.38926893472671509 0.18891085684299469
0.19521918892860413 0.38994386792182922 0.1917438805103302
0.26836487650871277 0.39238524436950684 0.19489246606826782
0.34031251072883606 0.3952883780002594 0.19844567775726318
0.41044396162033081 0.39883393049240112 0.20241774618625641
0.47856184840202332 0.40255099534988403 0.20672550797462463
0.54486948251724243 0.40632349252700806 0.21116338670253754
0.60946124792098999 0.41015970706939697 0.21570876240730286
0.67247235774993896 0.41405463218688965 0.22026838362216949
0.73380947113037109 0.41835230588912964 0.22501340508460999
0.79289716482162476 0.42348369956016541 0.2298567146062851
0.85031992197036743 0.42950445413589478 0.23463010787963867
0.074216358363628387 0.462645024061203 0.20146791636943817
0.142288938164711 0.46297410130500793 0.20496919751167297
0.21313497424125671 0.46417087316513062 0.20824883878231049
0.28532379865646362 0.46613284945487976 0.21176041662693024
0.35639393329620361 0.46861839294433594 0.21551452577114105
0.4262358546257019 0.47181475162506104 0.21951386332511902
0.49415841698646545 0.47537094354629517 0.22366450726985931
0.56039214134216309 0.47919103503227234 0.22797034680843353
0.62484735250473022 0.48326307535171509 0.23232074081897736
0.68755906820297241 0.48744848370552063 0.2370864599943161
0.74817144870758057 0.49233481287956238 0.24198257923126221
0.8066943883895874 0.49813345074653625 0.24715864658355713
0.8638232946395874 0.50442659854888916 0.25192129611968994
0.093326464295387268 0.53635340929031372 0.21618077158927917
0.16155950725078583 0.53708857297897339 0.2203495055437088
0.231843501329422 0.53829807043075562 0.22437763214111328
0.30263432860374451 0.53986155986785889 0.22830288112163544
0.37345042824745178 0.54205590486526489 0.23226955533027649
0.44282856583595276 0.54502475261688232 0.23629787564277649
0.51049333810806274 0.54845148324966431 0.24051178991794586
0.57649201154708862 0.55229157209396362 0.24478617310523987
0.64051610231399536 0.55650913715362549 0.24915096163749695
0.70285320281982422 0.5612296462059021 0.25388076901435852
0.76284313201904297 0.5666964054107666 0.25900065898895264
0.82058334350585938 0.5733182430267334 0.26433691382408142
0.8772088885307312 0.58026957511901855 0.26911637187004089
0.11181042343378067 0.61044669151306152 0.23056434094905853
0.18039397895336151 0.61126112937927246 0.23535940051078796
0.25044208765029907 0.61248612403869629 0.23987910151481628
0.32084852457046509 0.61356091499328613 0.24431057274341583
0.39098840951919556 0.61564791202545166 0.24859364330768585
0.46013247966766357 0.61827021837234497 0.25285553932189941
0.52760416269302368 0.62157183885574341 0.25704494118690491
0.59326130151748657 0.62545877695083618 0.26125329732894897
0.65722775459289551 0.62974637746810913 0.2655780017375946
0.7190825343132019 0.63472241163253784 0.27007332444190979
0.77912145853042603 0.64062756299972534 0.27505755424499512
0.83622181415557861 0.64753013849258423 0.28031691908836365
0.89241635799407959 0.6549115777015686 0.28508174419403076
0.13062116503715515 0.68522125482559204 0.24429985880851746
0.1990831196308136 0.68599188327789307 0.24955655634403229
0.26890096068382263 0.68649005889892578 0.25472760200500488
0.33918547630310059 0.68740248680114746 0.25961890816688538
0.40899571776390076 0.68944931030273438 0.26426529884338379
0.47790396213531494 0.69166070222854614 0.26884463429450989
0.54531866312026978 0.69478714466094971 0.2731095552444458
0.61092960834503174 0.69857990741729736 0.27720242738723755
0.67466199398040771 0.7028496265411377 0.28129222989082336
0.73673433065414429 0.7078099250793457 0.28535783290863037
0.79652905464172363 0.71356761455535889 0.28993195295333862
0.85439157485961914 0.72039210796356201 0.29440024495124817
0.91088539361953735 0.72750228643417358 0.29857158660888672
0.1485121101140976 0.75980353355407715 0.25745591521263123
0.21732023358345032 0.75982201099395752 0.26335576176643372
0.28704354166984558 0.76042896509170532 0.26884400844573975
0.35722410678863525 0.76190012693405151 0.27432721853256226
0.42701315879821777 0.76352620124816895 0.27943322062492371
0.49590471386909485 0.76534372568130493 0.28413936495780945
0.56320232152938843 0.76828151941299438 0.28846225142478943
0.62868434190750122 0.77190291881561279 0.29246610403060913
0.69243788719177246 0.77619713544845581 0.29616028070449829
0.7545090913772583 0.78111499547958374 0.29986444115638733
0.81472408771514893 0.78664660453796387 0.30367767810821533
0.87311321496963501 0.7930912971496582 0.30754154920578003
0.92969781160354614 0.80009055137634277 0.31110742688179016
0.16565139591693878 0.8343651294708252 0.27001875638961792
0.23494784533977509 0.835307776927948 0.27639621496200562
0.30475401878356934 0.83654218912124634 0.28241896629333496
0.37476265430450439 0.83700525760650635 0.28808733820915222
0.44444569945335388 0.83745944499969482 0.29359033703804016
0.51332563161849976 0.83993780612945557 0.29857248067855835
0.58071082830429077 0.84224379062652588 0.30310723185539246
0.64602327346801758 0.84595024585723877 0.30680122971534729
0.70956659317016602 0.85039478540420532 0.31024655699729919
0.77158141136169434 0.85512697696685791 0.31359186768531799
0.83183521032333374 0.86070448160171509 0.31685611605644226
0.89036434888839722 0.86688768863677979 0.32012322545051575
0.94750332832336426 0.87368333339691162 0.32315447926521301
0.18225240707397461 0.91029411554336548 0.28181853890419006
0.25174394249916077 0.91029411554336548 0.28856799006462097
0.32153224945068359 0.91036289930343628 0.29493790864944458
0.3914552628993988 0.91187483072280884 0.30085054039955139
0.46104267239570618 0.91408514976501465 0.30652382969856262
0.52976369857788086 0.91445422172546387 0.31179141998291016
0.59693485498428345 0.91779202222824097 0.31636855006217957
0.66207212209701538 0.92105072736740112 0.32018837332725525
0.72552782297134399 0.92521840333938599 0.32344484329223633
0.78744405508041382 0.93024194240570068 0.32651984691619873
0.84776473045349121 0.93581265211105347 0.32945379614830017
0.90639746189117432 0.94190376996994019 0.33228537440299988
0.96402066946029663 0.94817048311233521 0.33479505777359009
0.0078249312937259674 0.02560080774128437 0.17325179278850555
0.058864519000053406 0.026798967272043228 0.17203068733215332
0.13099625706672668 0.02922382764518261 0.17277425527572632
0.20397272706031799 0.03308270126581192 0.17537853121757507
0.27213236689567566 0.037094924598932266 0.179213747382164
0.33737346529960632 0.041292630136013031 0.1837829053401947
0.40125849843025208 0.045402631163597107 0.18898805975914001
0.46426832675933838 0.049472764134407043 0.19450131058692932
0.52599155902862549 0.053492601960897446 0.20026394724845886
0.58713585138320923 0.057454366236925125 0.20599357783794403
0.64664930105209351 0.061289381235837936 0.21161945164203644
0.7064635157585144 0.064835794270038605 0.21684730052947998
0.76489841938018799 0.06779760867357254 0.22118636965751648
0.012565852142870426 0.094063609838485718 0.18830129504203796
0.073014430701732635 0.094917044043540955 0.18746836483478546
0.14856830239295959 0.09731706976890564 0.1887117326259613
0.22083376348018646 0.10222241282463074 0.19129131734371185
0.28859820961952209 0.10751544684171677 0.19485192000865936
0.35449510812759399 0.11236072331666946 0.1993701308965683
0.41910845041275024 0.11690624803304672 0.20440901815891266
0.48240053653717041 0.12120857834815979 0.209818035364151
0.54464602470397949 0.12539315223693848 0.21531014144420624
0.60600024461746216 0.12952648103237152 0.22081787884235382
0.66535824537277222 0.13362616300582886 0.22627727687358856
0.72526073455810547 0.1374773234128952 0.23148021101951599
0.78400135040283203 0.14111319184303284 0.23621198534965515
0.013140270486474037 0.16663922369480133 0.20250774919986725
0.080676183104515076 0.16678909957408905 0.20288737118244171
0.15973576903343201 0.16877897083759308 0.20463947951793671
0.23252385854721069 0.17365975677967072 0.20708507299423218
0.30173113942146301 0.17893362045288086 0.21048076450824738
0.36919111013412476 0.18390144407749176 0.2150176465511322
0.4351295530796051 0.18838727474212646 0.2199275940656662
0.49957132339477539 0.19266140460968018 0.22506394982337952
0.56237000226974487 0.19687803089618683 0.23023071885108948
0.62383699417114258 0.20099069178104401 0.23540925979614258
0.68387281894683838 0.20505732297897339 0.24044634401798248
0.74271070957183838 0.2092377096414566 0.24543756246566772
0.80148828029632568 0.21341072022914886 0.25043943524360657
0.021106449887156487 0.24160362780094147 0.2187093198299408
0.090931251645088196 0.24147918820381165 0.21939605474472046
0.1686084121465683 0.24302659928798676 0.22122183442115784
0.24266552925109863 0.24678389728069305 0.22338266670703888
0.31352770328521729 0.25155681371688843 0.22668914496898651
0.38306537270545959 0.25586971640586853 0.23103922605514526
0.45028352737426758 0.26010584831237793 0.2358098030090332
0.5154920220375061 0.26428535580635071 0.24065111577510834
0.57902199029922485 0.26833760738372803 0.24547858536243439
0.64099550247192383 0.27237597107887268 0.25020915269851685
0.70182961225509644 0.27654233574867249 0.25491800904273987
0.76102942228317261 0.28093180060386658 0.25972139835357666
0.8189513087272644 0.2855316698551178 0.26486271619796753
0.0362827368080616 0.3158562183380127 0.23503434658050537
0.10649798810482025 0.31605064868927002 0.23654823005199432
0.18153291940689087 0.31700310111045837 0.23832879960536957
0.25572291016578674 0.32019159197807312 0.24088861048221588
0.32771071791648865 0.32406860589981079 0.24394100904464722
0.39752015471458435 0.32804986834526062 0.24797409772872925
0.46532726287841797 0.3321387767791748 0.2522771954536438
