assets/lut/alexjordan green afternoon.cube
# Created by: G'MIC (https://gmic.eu)
TITLE "green_afternoon"
# LUT size
LUT_3D_SIZE 13
# Data domain
DOMAIN_MIN 0.0 0.0 0.0
DOMAIN_MAX 1.0 1.0 1.0
# LUT data points
0.010766422376036644 0.010530523955821991 0.0093609681352972984
0.024932427331805229 0.015380889177322388 0.011904862709343433
0.043792575597763062 0.019380861893296242 0.015145604498684406
0.069223739206790924 0.021464074030518532 0.019569067284464836
0.1003650575876236 0.023705786094069481 0.022877905517816544
0.13926512002944946 0.022792622447013855 0.023445384576916695
0.18720132112503052 0.02001769095659256 0.022163510322570801
0.24312341213226318 0.016466028988361359 0.018575675785541534
0.30475601553916931 0.0092391222715377808 0.011343712918460369
0.39278697967529297 0.0037919885944575071 0.0020050497259944677
0.4887758195400238 0.0022284714505076408 0
0.58723950386047363 0.0020752253476530313 0.00042123234015889466
0.70541656017303467 0.0025310739874839783 0.0020614324603229761
0.021319340914487839 0.034233316779136658 0.019065003842115402
0.039496269077062607 0.03853137418627739 0.020093416795134544
0.062862664461135864 0.041453283280134201 0.020433537662029266
0.094613946974277496 0.041275907307863235 0.020455693826079369
0.13416412472724915 0.041722182184457779 0.018856348469853401
0.18151520192623138 0.041220258921384811 0.016483621671795845
0.23681114614009857 0.037287812680006027 0.014939835295081139
0.30113315582275391 0.03208121657371521 0.011925311759114265
0.37381681799888611 0.024718161672353745 0.0076113683171570301
0.46692594885826111 0.019115837290883064 0.0029931161552667618
0.56329876184463501 0.017238572239875793 0.00019944134692195803
0.66060107946395874 0.017111670225858688 0
0.77436339855194092 0.018590649589896202 0
0.026165293529629707 0.066112816333770752 0.023366186767816544
0.046832438558340073 0.072090655565261841 0.021463042125105858
0.07684490829706192 0.076092183589935303 0.017928509041666985
0.11858577281236649 0.074293576180934906 0.01437561959028244
0.17114464938640594 0.07428412139415741 0.0093039721250534058
0.23268866539001465 0.07573719322681427 0.0044316458515822887
0.30246648192405701 0.071877285838127136 0.0040466906502842903
0.38260814547538757 0.066168628633022308 0.0023641998413950205
0.47224545478820801 0.059667773544788361 0.00064019596902653575
0.56933104991912842 0.053298469632863998 0.00087672215886414051
0.65926432609558105 0.050381064414978027 5.4931639169808477e-05
0.7476842999458313 0.050684895366430283 0
0.84758687019348145 0.053180094808340073 0
0.018882974982261658 0.11350513249635696 0.018114799633622169
0.042446181178092957 0.12138421833515167 0.013171506114304066
0.080411054193973541 0.12655995786190033 0.0088174259290099144
0.13379338383674622 0.12684160470962524 0.0051621082238852978
0.19855333864688873 0.12691177427768707 0.0019105798564851284
0.27155950665473938 0.12723785638809204 0.00030719532514922321
0.35298237204551697 0.12399453669786453 0.00015581915795337409
0.44288748502731323 0.11845381557941437 1.077091019396903e-05
0.53850018978118896 0.11367723345756531 0
0.63530617952346802 0.10904859751462936 0
0.72127443552017212 0.10679279267787933 0
0.80332732200622559 0.10733229666948318 0
0.89266502857208252 0.11021704226732254 0
0.0043915393762290478 0.18088425695896149 0.0048693637363612652
0.027641536667943001 0.18812526762485504 0.0018088696524500847
0.072190321981906891 0.19332161545753479 0.00090858608018606901
0.13529206812381744 0.19484536349773407 0.00087043910752981901
0.20911122858524323 0.19509896636009216 0.00073840573895722628
0.28874149918556213 0.19520920515060425 0.00024647431564517319
0.37419441342353821 0.19299431145191193 0
0.46585705876350403 0.18885715305805206 0
0.56090980768203735 0.18520498275756836 0
0.653339684009552 0.18275204300880432 0
0.73776924610137939 0.18147777020931244 0
0.81906610727310181 0.18275412917137146 0
0.90570759773254395 0.18522843718528748 0
2.3336971935350448e-05 0.25991815328598022 6.5343519963789731e-05
0.011789553798735142 0.26699620485305786 0
0.058958586305379868 0.27182018756866455 0
0.12779706716537476 0.27413898706436157 8.2756494521163404e-05
0.20758669078350067 0.27543795108795166 0.00106048583984375
0.29071918129920959 0.27531141042709351 0.00082795385969802737
0.37639835476875305 0.2738071084022522 0
0.46690660715103149 0.2710307240486145 0
0.56005734205245972 0.26806381344795227 0
0.64969688653945923 0.26664513349533081 0
0.73264622688293457 0.26714006066322327 0
0.81405150890350342 0.26818186044692993 0
0.90250527858734131 0.26954397559165955 0
0 0.34451460838317871 0
0.0051555857062339783 0.35136762261390686 0
0.049379803240299225 0.35598942637443542 0
0.11965306848287582 0.35846215486526489 0
0.20189549028873444 0.35979989171028137 0.00027815875364467502
0.2870858907699585 0.35981115698814392 0.00030293184681795537
0.37350326776504517 0.35898053646087646 0
0.46382284164428711 0.35734432935714722 0
0.55686867237091064 0.35555383563041687 0
0.64605838060379028 0.3557741641998291 0
0.72633820772171021 0.35729867219924927 0
0.80620211362838745 0.35789614915847778 0
0.89712661504745483 0.35832363367080688 0
0 0.43130049109458923 0
0.0027778027579188347 0.43800288438796997 0
0.043292582035064697 0.44233837723731995 0
0.11363763362169266 0.44445693492889404 0
0.19732376933097839 0.44533064961433411 0
0.28421881794929504 0.44499433040618896 0
0.37242776155471802 0.44418942928314209 0
0.46390518546104431 0.44332227110862732 0
0.55755007266998291 0.44307231903076172 0
0.6473347544670105 0.44554582238197327 0
0.72544562816619873 0.44931480288505554 0.00025874120183289051
0.80393368005752563 0.45117887854576111 0.0011698404559865594
0.89772313833236694 0.45092037320137024 0.001791531452909112
0 0.51907753944396973 0
0.0012798234820365906 0.52608233690261841 5.2238912758184597e-05
0.038825899362564087 0.53003871440887451 0.00015468223136849701
0.11064767092466354 0.53093749284744263 0
0.19581221044063568 0.53121310472488403 0
0.28428971767425537 0.53064781427383423 0
0.37398481369018555 0.52986174821853638 0
0.46665823459625244 0.5296517014503479 0
0.56007486581802368 0.53041267395019531 0
0.64896947145462036 0.53519457578659058 0
0.73011910915374756 0.54456979036331177 0.0011747621465474367
0.81360030174255371 0.55011844635009766 0.0059104622341692448
0.91068899631500244 0.54928547143936157 0.0079416465014219284
0 0.60742497444152832 3.4466913348296657e-05
0.0024585649371147156 0.61417430639266968 0.0010952968150377274
0.042598947882652283 0.61777353286743164 0.0019426234066486359
0.11385679244995117 0.61841046810150146 0.00039761111838743091
0.19806762039661407 0.6190829873085022 1.6156365745700896e-05
0.28756821155548096 0.62028241157531738 3.7698184769396903e-06
0.37960457801818848 0.62181532382965088 0.00018238740449305624
0.47435513138771057 0.62316340208053589 0.00064263434614986181
0.56969904899597168 0.62550318241119385 0.00020796831813640893
0.66113746166229248 0.63385200500488281 9.6758674771990627e-05
0.74997317790985107 0.65086120367050171 0.0031016629654914141
0.84193134307861328 0.66135984659194946 0.010582569055259228
0.9392397403717041 0.66017687320709229 0.014965864829719067
0 0.69771003723144531 0.00057235418353229761
0.010589689016342163 0.70424199104309082 0.0025112377479672432
0.058125961571931839 0.70874708890914917 0.0040289335884153843
0.1262805312871933 0.71132475137710571 0.003546037944033742
0.20816805958747864 0.71457159519195557 0.0026297625154256821
0.29947063326835632 0.72173798084259033 0.0016674415674060583
0.39469036459922791 0.7285759449005127 0.0032291936222463846
0.49181309342384338 0.73259669542312622 0.0064835194498300552
0.59025442600250244 0.73887860774993896 0.0055081387981772423
0.68522065877914429 0.75141191482543945 0.0044475928880274296
0.77904939651489258 0.77211856842041016 0.010201413184404373
0.87318408489227295 0.78112775087356567 0.017254279926419258
0.96674448251724243 0.77767091989517212 0.021688543260097504
0.0016101313522085547 0.79276669025421143 0.0028681138064712286
0.029587972909212112 0.80034494400024414 0.0051593557000160217
0.081514380872249603 0.80761200189590454 0.00701141357421875
0.14865685999393463 0.8147437572479248 0.0076323417015373707
0.23029065132141113 0.82441693544387817 0.0069201001897454262
0.32341352105140686 0.83945536613464355 0.0042717130854725838
0.42126336693763733 0.85271662473678589 0.004662487655878067
0.5190090537071228 0.85783195495605469 0.0093961525708436966
0.61557400226593018 0.86216902732849121 0.01060924120247364
0.70835494995117188 0.87075299024581909 0.0092634465545415878
0.79928302764892578 0.885550856590271 0.013694494031369686
0.88921910524368286 0.89043527841567993 0.019362011924386024
0.97653913497924805 0.88517838716506958 0.023798311129212379
0.013369675725698471 0.89384591579437256 0.008283982053399086
0.054747160524129868 0.90361976623535156 0.010149577632546425
0.10903287678956985 0.91458672285079956 0.011879969388246536
0.17753244936466217 0.92687928676605225 0.01194184273481369
0.25943306088447571 0.94267421960830688 0.0094143291935324669
0.3521668016910553 0.95997804403305054 0.0058290218003094196
0.44902011752128601 0.97179073095321655 0.005122210830450058
0.54388535022735596 0.974223792552948 0.0083191217854619026
0.63521558046340942 0.97352057695388794 0.0091037824749946594
0.72264832258224487 0.97380203008651733 0.0073220795020461082
0.80748164653778076 0.97830212116241455 0.0098810382187366486
0.89358603954315186 0.98060989379882812 0.016134120523929596
0.97851616144180298 0.97820889949798584 0.0220986008644104
0.011140591464936733 0.011928603053092957 0.018086181953549385
0.025818394497036934 0.01654287613928318 0.022420156747102737
0.0455336794257164 0.019769033417105675 0.027185717597603798
0.071848928928375244 0.021159138530492783 0.032348364591598511
0.10235761851072311 0.021388813853263855 0.036067500710487366
0.13926760852336884 0.019852163270115852 0.037669897079467773
0.18680238723754883 0.016682060435414314 0.037259060889482498
0.24816800653934479 0.014143222011625767 0.033786728978157043
0.31635740399360657 0.0082556633278727531 0.027026951313018799
0.40134429931640625 0.0024868685286492109 0.017196940258145332
0.48860687017440796 0.00084997439989820123 0.012548020109534264
0.57682377099990845 9.3168368039187044e-05 0.014410011470317841
0.70019686222076416 1.1488970812933985e-05 0.017760228365659714
0.021827114745974541 0.034968819469213486 0.033514209091663361
0.04057515412569046 0.038791194558143616 0.036505710333585739
0.065432228147983551 0.041151262819766998 0.038293171674013138
0.097889259457588196 0.041702929884195328 0.038759477436542511
0.13706810772418976 0.040731869637966156 0.037577114999294281
0.18327701091766357 0.038876120001077652 0.035827204585075378
0.23934045433998108 0.034409452229738235 0.033742509782314301
0.30899915099143982 0.02978229895234108 0.028666462749242783
0.38554322719573975 0.022965360432863235 0.023319050669670105
0.47233769297599792 0.016358977183699608 0.019047277048230171
0.56097203493118286 0.012814974412322044 0.013524642214179039
0.65476745367050171 0.0096544455736875534 0.0080319568514823914
0.77827948331832886 0.0074942642822861671 0.0056885811500251293
0.025063009932637215 0.067080132663249969 0.043111421167850494
0.047863095998764038 0.072112634778022766 0.043440874665975571
0.080041848123073578 0.075578965246677399 0.041199389845132828
0.12314306199550629 0.075534403324127197 0.036765184253454208
0.17530179023742676 0.075276739895343781 0.031971007585525513
0.23617586493492126 0.075097121298313141 0.027443425729870796
0.30735903978347778 0.071094080805778503 0.024029705673456192
0.39076191186904907 0.065777629613876343 0.017678594216704369
0.48099052906036377 0.059458266943693161 0.01276499405503273
0.57118326425552368 0.05224946141242981 0.013876252807676792
0.65943413972854614 0.046955931931734085 0.010168172419071198
0.75354665517807007 0.042655572295188904 0.0036199381574988365
0.86335629224777222 0.04044404998421669 0.00088650570251047611
0.016787121072411537 0.11560767889022827 0.041117168962955475
0.041920695453882217 0.12243547290563583 0.037570130079984665
0.082413285970687866 0.1271517425775528 0.033664867281913757
0.13840998709201813 0.12761479616165161 0.02888805978000164
0.20354157686233521 0.12781630456447601 0.023982793092727661
0.27581691741943359 0.12798580527305603 0.01932259276509285
0.35720831155776978 0.12560731172561646 0.014744418673217297
0.44889411330223083 0.12090238928794861 0.01019731443375349
0.54477542638778687 0.11551905423402786 0.0086575672030448914
0.63706278800964355 0.11028925329446793 0.0090050939470529556
0.72215616703033447 0.1063968762755394 0.0066711273975670338
0.8084837794303894 0.10316029191017151 0.0024794633500277996
0.90397965908050537 0.10273823142051697 0.0008757647592574358
0.0037816665135324001 0.18285541236400604 0.027296612039208412
0.024863658472895622 0.19047600030899048 0.021180875599384308
0.071015991270542145 0.19532124698162079 0.019806880503892899
0.13765861093997955 0.19714954495429993 0.020656570792198181
0.21291586756706238 0.19790349900722504 0.019701864570379257
0.2921193540096283 0.19818843901157379 0.0155958142131567
0.37686091661453247 0.19592373073101044 0.0082617662847042084
0.46941021084785461 0.19271013140678406 0.0052433689124882221
0.56562662124633789 0.18867222964763641 0.0071914973668754101
0.65568369626998901 0.18557886779308319 0.0080236252397298813
0.7377699613571167 0.18419945240020752 0.0052995719015598297
0.8193545937538147 0.18356439471244812 0.0026482376269996166
0.90939444303512573 0.18350446224212646 0.0015890382928773761
0 0.26267832517623901 0.010990441776812077
0.008192937821149826 0.27064177393913269 0.0058308918960392475
0.0560135617852211 0.27494287490844727 0.008194897323846817
0.12801127135753632 0.27671802043914795 0.014166603796184063
0.2092883437871933 0.27757489681243896 0.017307775095105171
0.29285967350006104 0.27797660231590271 0.014820652082562447
0.37868306040763855 0.2772926390171051 0.0084891673177480698
0.47013908624649048 0.27509850263595581 0.0061557996086776257
0.56389760971069336 0.27230271697044373 0.0080523025244474411
0.6513485312461853 0.27091944217681885 0.0081389183178544044
0.7303733229637146 0.27125394344329834 0.0048488541506230831
0.81119918823242188 0.27212423086166382 0.0030589832458645105
0.90368002653121948 0.27219441533088684 0.0038596657104790211
0 0.34753149747848511 0.0038116006180644035
0.0051493328064680099 0.35467219352722168 0.0028336169198155403
0.049104172736406326 0.35884445905685425 0.0052757863886654377
0.12017642706632614 0.36101886630058289 0.0097297364845871925
0.20340292155742645 0.36259323358535767 0.012410945259034634
0.28932130336761475 0.36324983835220337 0.011616530828177929
0.37660756707191467 0.36298829317092896 0.0089779719710350037
0.46747845411300659 0.36195880174636841 0.0078428378328680992
0.55970269441604614 0.36030927300453186 0.0082892170175909996
0.64596027135848999 0.36017704010009766 0.0084507064893841743
0.72277867794036865 0.36188396811485291 0.0066534006036818027
0.80397236347198486 0.36332276463508606 0.006888415664434433
0.89994961023330688 0.36309891939163208 0.010893533937633038
0 0.43402978777885437 0.0028151269070804119
0.0057384418323636055 0.44066920876502991 0.0037988850381225348
0.047217097133398056 0.44473692774772644 0.0060464297421276569
0.11676938086748123 0.44737118482589722 0.0067296344786882401
0.20094944536685944 0.449066162109375 0.0059549370780587196
0.28798741102218628 0.44931533932685852 0.0053190193139016628
0.3762219250202179 0.44947546720504761 0.0051028532907366753
0.46756568551063538 0.44965174794197083 0.0043444912880659103
0.55950325727462769 0.44840985536575317 0.0051328171975910664
0.64571183919906616 0.44915646314620972 0.0078235547989606857
0.7230190634727478 0.45292860269546509 0.011336741968989372
0.80565869808197021 0.45676323771476746 0.016965335234999657
0.90495777130126953 0.45815730094909668 0.024504762142896652
0 0.52123641967773438 0.0049923169426620007
0.0050538606010377407 0.52788132429122925 0.0083279628306627274
0.04601655900478363 0.53187447786331177 0.010049468837678432
0.11620492488145828 0.53422451019287109 0.0066026127897202969
0.20192854106426239 0.5358043909072876 0.0028090234845876694
0.2894555926322937 0.53577083349227905 0.0028411266393959522
0.3783513605594635 0.53595441579818726 0.004195493645966053
0.47095465660095215 0.53720426559448242 0.0040288888849318027
0.5625496506690979 0.53611463308334351 0.0047434042207896709
0.64710652828216553 0.53763282299041748 0.0075154025107622147
0.72794127464294434 0.5467759370803833 0.015446486882865429
0.81949269771575928 0.55693387985229492 0.027661567553877831
0.92364907264709473 0.56128346920013428 0.03892555832862854
0 0.60917741060256958 0.0098187318071722984
0.0060928943566977978 0.61583501100540161 0.01442133542150259
0.049287550151348114 0.61970096826553345 0.015726290643215179
0.1187005415558815 0.62164807319641113 0.011366870254278183
0.2030525803565979 0.62346166372299194 0.0068827159702777863
0.29212185740470886 0.62510323524475098 0.0073880213312804699
0.38455086946487427 0.62758815288543701 0.011490990407764912
0.48065304756164551 0.63103681802749634 0.014868133701384068
0.57433927059173584 0.63161975145339966 0.014573863707482815
0.66041034460067749 0.63555252552032471 0.014695904217660427
0.74701821804046631 0.6515120267868042 0.02402343787252903
0.84865140914916992 0.66890370845794678 0.039725825190544128
0.9558866024017334 0.67492771148681641 0.053240906447172165
0 0.69977414608001709 0.014996263198554516
0.013757249340415001 0.70664972066879272 0.019337881356477737
0.061390101909637451 0.71160364151000977 0.021424597129225731
0.12900400161743164 0.71506220102310181 0.020064694806933403
0.21168652176856995 0.7199891209602356 0.018804527819156647
0.3028961718082428 0.72698295116424561 0.019937777891755104
0.4005705714225769 0.73551684617996216 0.026064001023769379
0.50217354297637939 0.74381554126739502 0.034573931246995926
0.59930187463760376 0.74860537052154541 0.036825604736804962
0.6873633861541748 0.75397998094558716 0.035324335098266602
0.77715069055557251 0.77069741487503052 0.04224790632724762
0.88022160530090332 0.78666400909423828 0.05505148321390152
0.97901386022567749 0.79025119543075562 0.065901108086109161
0.0018645043019205332 0.79570150375366211 0.02135314978659153
0.03066680021584034 0.80411416292190552 0.025616096332669258
0.081985533237457275 0.81203663349151611 0.029064163565635681
0.14980626106262207 0.8202584981918335 0.030546270310878754
0.23280459642410278 0.83143699169158936 0.03088347427546978
0.32745218276977539 0.84663480520248413 0.031264916062355042
0.42832663655281067 0.86155718564987183 0.036805830895900726
0.53084862232208252 0.8713870644569397 0.048804011195898056
0.62705463171005249 0.87571752071380615 0.05456230416893959
0.71191459894180298 0.87667953968048096 0.051971346139907837
0.79690057039260864 0.88589787483215332 0.056425310671329498
0.89128619432449341 0.89464282989501953 0.065553911030292511
0.98245072364807129 0.89400607347488403 0.072832457721233368
0.012724991887807846 0.89805299043655396 0.030891688540577888
0.053477238863706589 0.90914422273635864 0.035414077341556549
0.10801227390766144 0.92106515169143677 0.0398063063621521
0.17770366370677948 0.93457311391830444 0.042132914066314697
0.26149195432662964 0.95067942142486572 0.042595971375703812
0.35639366507530212 0.9668431282043457 0.041496980935335159
0.45598539710044861 0.97805070877075195 0.044262800365686417
0.55320346355438232 0.98177742958068848 0.053070247173309326
0.64364826679229736 0.98136311769485474 0.057398375123739243
0.72523730993270874 0.97893869876861572 0.054569859057664871
0.80520802736282349 0.98082798719406128 0.059145908802747726
0.8928825855255127 0.9835236668586731 0.067285202443599701
0.98128592967987061 0.98248982429504395 0.074203968048095703
0.011725765652954578 0.012857997789978981 0.028959522023797035
0.027557028457522392 0.017017005011439323 0.036400560289621353
0.047909200191497803 0.019849156960844994 0.043656248599290848
0.073808275163173676 0.021046927198767662 0.049327954649925232
0.10419149696826935 0.020592857152223587 0.053269047290086746
0.14375968277454376 0.018835419788956642 0.05716584250330925
0.19738131761550903 0.016613604500889778 0.060135919600725174
0.26129803061485291 0.014401065185666084 0.060219693928956985
0.32526662945747375 0.0073185339570045471 0.058310206979513168
0.40624833106994629 0.00088794186012819409 0.052772730588912964
0.50255423784255981 0.00018561868637334555 0.048235427588224411
0.59198868274688721 0 0.048473715782165527
0.70823466777801514 0 0.051225818693637848
0.022007975727319717 0.035155817866325378 0.051418110728263855
0.041696526110172272 0.038864988833665848 0.057806394994258881
0.067877374589443207 0.040961261838674545 0.062458578497171402
0.10032238066196442 0.041727941483259201 0.06431637704372406
0.13893428444862366 0.040772218257188797 0.065946124494075775
0.18818014860153198 0.037802617996931076 0.068126872181892395
0.24990366399288177 0.034019500017166138 0.067599020898342133
0.320852130651474 0.029256230220198631 0.064241625368595123
0.39404875040054321 0.020792733877897263 0.060995094478130341
0.4805462658405304 0.013407180085778236 0.057297293096780777
0.57440650463104248 0.010652100667357445 0.051511518657207489
0.66821467876434326 0.0069054844789206982 0.045123860239982605
0.78624790906906128 0.0035163131542503834 0.041085232049226761
0.023623507469892502 0.067692682147026062 0.069520123302936554
0.048259075731039047 0.072174131870269775 0.073246151208877563
0.082687109708786011 0.075159676373004913 0.074926294386386871
0.12604519724845886 0.077473178505897522 0.073014982044696808
0.17799396812915802 0.076240256428718567 0.072565756738185883
0.23920916020870209 0.073783859610557556 0.072926297783851624
0.31378433108329773 0.070143513381481171 0.068348586559295654
0.39846256375312805 0.065057419240474701 0.061232414096593857
0.48667296767234802 0.05791085958480835 0.055440910160541534
0.57901972532272339 0.050877455621957779 0.052587412297725677
0.66894853115081787 0.045603208243846893 0.048834137618541718
0.76019614934921265 0.04091155156493187 0.040840566158294678
0.86855721473693848 0.036455504596233368 0.033378258347511292
0.0161768589168787 0.11701509356498718 0.075747467577457428
0.042715843766927719 0.12345591187477112 0.075164467096328735
0.085322588682174683 0.12810838222503662 0.07395470142364502
0.14173048734664917 0.13065564632415771 0.07228522002696991
0.20596574246883392 0.13047011196613312 0.070127286016941071
0.278228759765625 0.12821637094020844 0.067207366228103638
0.36154580116271973 0.12564951181411743 0.061273567378520966
0.45421889424324036 0.12158706039190292 0.054585698992013931
0.54859703779220581 0.11655019223690033 0.049613654613494873
0.63975459337234497 0.11184097081422806 0.04681745171546936
0.72308832406997681 0.10823504626750946 0.045264884829521179
0.80624961853027344 0.10464956611394882 0.040607452392578125
0.90330928564071655 0.10193200409412384 0.035573352128267288
0.0043097999878227711 0.18489547073841095 0.067766390740871429
0.028074152767658234 0.19211688637733459 0.064329437911510468
0.075305193662643433 0.19702218472957611 0.0643019899725914
0.14142273366451263 0.19904766976833344 0.065536960959434509
0.21519500017166138 0.19896930456161499 0.064184479415416718
0.29448321461677551 0.19859619438648224 0.059665873646736145
0.37991955876350403 0.19740882515907288 0.052276056259870529
0.47294682264328003 0.19435799121856689 0.046901330351829529
0.56778597831726074 0.19088976085186005 0.045919068157672882
0.65590965747833252 0.18827028572559357 0.04522208496928215
0.73454874753952026 0.18750984966754913 0.043225575238466263
0.81358629465103149 0.18680967390537262 0.041770007461309433
0.90703123807907104 0.18473787605762482 0.04038715735077858
0.00019893272838089615 0.26448538899421692 0.053455278277397156
0.014803403988480568 0.27135980129241943 0.049503624439239502
0.061656292527914047 0.27544113993644714 0.052324183285236359
0.13140769302845001 0.27741819620132446 0.057106286287307739
