assets/lut/alexjordan contrasty green.cube
# Created by: G'MIC (https://gmic.eu)
TITLE "contrasty_green"
# LUT size
LUT_3D_SIZE 7
# Data domain
DOMAIN_MIN 0.0 0.0 0.0
DOMAIN_MAX 1.0 1.0 1.0
# LUT data points
3.0338062060764059e-05 0 0.0034245061688125134
0.06143501028418541 0.0008595784311182797 3.5005457903025672e-05
0.25865095853805542 0 0
0.59505605697631836 0.00026312435511499643 0
0.99019253253936768 0.00018202837964054197 0
1 0 0
1 0 0
0 0.018016470596194267 0
0.034667655825614929 0.023792864754796028 0
0.25862449407577515 0.0078836623579263687 0
0.65435439348220825 0.0024674658197909594 0
0.99999427795410156 0.0014224931364879012 0
1 0 0
1 0 0
0.00011824065586552024 0.19549490511417389 0
0.065187014639377594 0.23299622535705566 0
0.34444800019264221 0.24391642212867737 0
0.79876548051834106 0.22123295068740845 0
1 0.16821153461933136 0
1 0.12974083423614502 0
0.99950569868087769 0.14379198849201202 0.001695042010396719
0.0039237975142896175 0.54162418842315674 0
0.10258889198303223 0.60577577352523804 0
0.41515651345252991 0.61067742109298706 0
0.90011954307556152 0.59741246700286865 0
1 0.53767406940460205 1.9836425053654239e-05
1 0.48658967018127441 0.00045545989996753633
0.9989626407623291 0.54472881555557251 0.00089886237401515245
0.0086194658651947975 0.95554459095001221 0
0.13286632299423218 0.97559976577758789 0.0031102348584681749
0.50265806913375854 0.98764866590499878 0.0048756171017885208
0.98020833730697632 0.97435963153839111 0.00040301153785549104
0.99486857652664185 0.94763237237930298 5.2418428822420537e-05
0.99795436859130859 0.91410374641418457 0.00027440389385446906
0.99854832887649536 0.96287256479263306 0.00086580164497718215
0.00086128385737538338 1 0.00064664357341825962
0.17509287595748901 1 0.008340529166162014
0.63050979375839233 0.99990129470825195 0.012897745706140995
0.99993813037872314 0.99975621700286865 0.0039055468514561653
1 1 0.0081709465011954308
1 1 0.0085754841566085815
1 1 0.022898325696587563
0.00033371869358234107 1 0.0044510932639241219
0.2071540355682373 1 0.0092543205246329308
0.7076951265335083 0.99127197265625 0.015702670440077782
1 0.99991708993911743 0.022600838914513588
1 1 0.03606516495347023
1 1 0.043227117508649826
1 1 0.066926129162311554
0.0001446892274543643 0 0.024393927305936813
0.055632468312978745 0.00138154870364815 0.0081445733085274696
0.2576805055141449 0 0
0.60812914371490479 0.0015182645292952657 0
0.99436944723129272 0 0.00032839307095855474
1 0 0
1 0 0
0 0.026391332969069481 0.0018055485561490059
0.04352295771241188 0.028293116018176079 0.0059334100224077702
0.28081434965133667 0.011687364429235458 0.00036066092434339225
0.67323952913284302 0.015973888337612152 0
0.99998253583908081 0.0067919711582362652 0
1 0 0
1 0 0
0 0.21087408065795898 0.00011488970631035045
0.067695066332817078 0.250284343957901 0.013091996312141418
0.3653925359249115 0.2666175365447998 0.018182059749960899
0.83212625980377197 0.24619428813457489 0.0052426354959607124
1 0.19365058839321136 0
1 0.12930095195770264 0
0.99560719728469849 0.15416689217090607 0.00066724291536957026
0 0.57569140195846558 0.0003874236426781863
0.08316802978515625 0.63647633790969849 0.021976262331008911
0.42894881963729858 0.63979321718215942 0.040936414152383804
0.92242413759231567 0.62823230028152466 0.037598911672830582
1 0.56638848781585693 0.0087669221684336662
1 0.50173521041870117 8.9757586465566419e-06
0.99477952718734741 0.57308375835418701 0.005036582238972187
0 0.97010016441345215 0.0088729709386825562
0.098899751901626587 0.98848730325698853 0.042025160044431686
0.51590991020202637 0.98855173587799072 0.077283464372158051
0.98059296607971191 0.98956930637359619 0.080552071332931519
0.99941974878311157 0.97343730926513672 0.042228385806083679
1 0.94655632972717285 0.014571141451597214
0.99990040063858032 0.98262137174606323 0.02769928053021431
0 1 0.03561420738697052
0.16777774691581726 1 0.07001350075006485
0.65264791250228882 1 0.11237362027168274
1 0.99821537733078003 0.11434426158666611
1 1 0.090586990118026733
0.99956327676773071 1 0.069121159613132477
0.99789512157440186 1 0.086348481476306915
0 1 0.058886013925075531
0.22261485457420349 1 0.079302646219730377
0.73875600099563599 0.99981975555419922 0.10950236767530441
1 0.99505895376205444 0.13371065258979797
0.99863195419311523 0.99579936265945435 0.1379382312297821
1 0.99825561046600342 0.12667779624462128
0.99947434663772583 0.9962921142578125 0.1463080495595932
0.00014002183161210269 0 0.065913379192352295
0.059461779892444611 0 0.036042321473360062
0.26897954940795898 0.0015279882354661822 0.00030806299764662981
0.63434135913848877 0.0086112972348928452 6.9233014073688537e-05
0.99828106164932251 0 0
1 0 0
1 0 0
0 0.03202839195728302 0.03207772970199585
0.04881451278924942 0.035233933478593826 0.036530036479234695
0.30418804287910461 0.02124989777803421 0.021162623539566994
0.72758334875106812 0.021284949034452438 0.001478292397223413
1 0.0044080545194447041 0
1 0 0
1 5.6397682783426717e-05 0
0 0.23392544686794281 0.027477338910102844
0.079324014484882355 0.27572488784790039 0.062241185456514359
0.38982081413269043 0.28511014580726624 0.07638123631477356
0.85858339071273804 0.26156914234161377 0.05133858323097229
1 0.20797814428806305 0.014109203591942787
0.99968510866165161 0.14133457839488983 3.7578509363811463e-05
0.99980688095092773 0.19302649796009064 0.0031069437973201275
0.0013541725929826498 0.6071782112121582 0.037216875702142715
0.10675329715013504 0.67402946949005127 0.091076977550983429
0.46004268527030945 0.66944652795791626 0.12155523896217346
0.93930953741073608 0.66067761182785034 0.11438209563493729
1 0.59740358591079712 0.06794758141040802
0.99995929002761841 0.5444563627243042 0.022350326180458069
0.99729478359222412 0.59547168016433716 0.047993902117013931
0.00012799430987797678 0.97737103700637817 0.078397326171398163
0.1388460099697113 0.99531596899032593 0.13547949492931366
0.56307840347290039 0.99044859409332275 0.17226199805736542
0.9875112771987915 0.9918750524520874 0.17157720029354095
0.99820184707641602 0.98174816370010376 0.13980306684970856
0.99525320529937744 0.96523427963256836 0.10651571303606033
1 0.9908861517906189 0.13609310984611511
0 1 0.12593092024326324
0.1934124231338501 1 0.17509979009628296
0.68414223194122314 0.99921911954879761 0.2155788242816925
0.9999847412109375 0.99939757585525513 0.22674228250980377
1 1 0.20379446446895599
0.99607223272323608 1 0.18682710826396942
0.99627721309661865 1 0.21460989117622375
0 1 0.15523293614387512
0.23838846385478973 1 0.18653351068496704
0.76767706871032715 0.99681603908538818 0.22167159616947174
1 0.99554330110549927 0.24906657636165619
0.99994188547134399 0.99343538284301758 0.24448618292808533
0.99532175064086914 0.98879361152648926 0.24495021998882294
0.99613833427429199 0.99058562517166138 0.27898925542831421
0.00013535443576984107 0 0.14005228877067566
0.056105326861143112 2.0225375919835642e-05 0.10046558827161789
0.26914769411087036 0.0016131681622937322 0.041567828506231308
0.63456588983535767 0.0043689203448593616 0.0079191168770194054
0.99913567304611206 0 0
1 0 0
1 0 0
0 0.033833179622888565 0.10229155421257019
0.059922792017459869 0.041022565215826035 0.11198552697896957
0.32498416304588318 0.030595965683460236 0.094123914837837219
0.77597010135650635 0.02018401212990284 0.052193585783243179
1 0.0028516582679003477 0.012467343360185623
1 0 0.00078323960769921541
1 0.0036739723291248083 0.0075595630332827568
0 0.25180017948150635 0.11602542549371719
0.086808301508426666 0.29908335208892822 0.15858203172683716
0.4114031195640564 0.31063267588615417 0.17415539920330048
0.89210999011993408 0.29058656096458435 0.15400543808937073
0.99901831150054932 0.21994344890117645 0.10117463022470474
0.99773931503295898 0.16130906343460083 0.049189008772373199
1 0.22508940100669861 0.065903700888156891
0.0031535278540104628 0.63265955448150635 0.14970463514328003
0.11852777749300003 0.70451444387435913 0.20779497921466827
0.48348513245582581 0.70302939414978027 0.23221567273139954
0.96068835258483887 0.68633192777633667 0.224980428814888
0.99999785423278809 0.62548589706420898 0.17711807787418365
0.99977296590805054 0.57000827789306641 0.12552578747272491
1 0.62789750099182129 0.15425653755664825
0.0054898727685213089 0.99344807863235474 0.20506703853607178
0.16500931978225708 0.99875068664550781 0.27156993746757507
0.58360034227371216 0.99793636798858643 0.30277559161186218
0.99322307109832764 0.99886429309844971 0.29521432518959045
0.9997900128364563 0.99214327335357666 0.25969868898391724
0.99861645698547363 0.97500932216644287 0.23002709448337555
1 0.99595606327056885 0.26611560583114624
0 1 0.26739639043807983
0.21701084077358246 0.99998331069946289 0.32994812726974487
0.72336453199386597 0.99798977375030518 0.36363837122917175
1 0.99895775318145752 0.36766329407691956
1 1 0.34400102496147156
0.99844062328338623 1 0.33264815807342529
1 1 0.36833095550537109
0 1 0.29474392533302307
0.26294627785682678 0.99601346254348755 0.34110459685325623
0.81446641683578491 0.9956931471824646 0.38204771280288696
1 0.99669438600540161 0.40220782160758972
1 0.99709975719451904 0.39238300919532776
0.99536275863647461 0.98617315292358398 0.39940911531448364
0.99986809492111206 0.98747068643569946 0.43791869282722473
0.00018902946612797678 0 0.2326655238866806
0.054265968501567841 0 0.19568943977355957
0.27176070213317871 0 0.12938693165779114
0.64956265687942505 0.0014507817104458809 0.051474165171384811
0.99988484382629395 0 0.00094151217490434647
1 0 0
1 0 0.00010735006799222901
0 0.038653593510389328 0.19872887432575226
0.065954111516475677 0.043119676411151886 0.21772390604019165
0.33788350224494934 0.032239172607660294 0.20810474455356598
0.78495585918426514 0.014543630182743073 0.17257529497146606
1 0.017987120896577835 0.098465085029602051
1 0.00068081123754382133 0.04925619438290596
1 0.010400285944342613 0.091000482439994812
0 0.26964190602302551 0.24090652167797089
0.083256632089614868 0.3155924379825592 0.2884003221988678
0.42454731464385986 0.32597160339355469 0.30578720569610596
0.91384404897689819 0.3062705397605896 0.28933665156364441
0.99957835674285889 0.24057283997535706 0.22595438361167908
0.99811214208602905 0.18751278519630432 0.16782937943935394
0.99987268447875977 0.24834296107292175 0.2004675567150116
0 0.65048432350158691 0.29914623498916626
0.1104276180267334 0.72312301397323608 0.35782542824745178
0.49798294901847839 0.72112709283828735 0.37535616755485535
0.9686959981918335 0.70143723487854004 0.36408039927482605
0.99485599994659424 0.6454010009765625 0.31550776958465576
0.9962162971496582 0.59296393394470215 0.26637321710586548
1 0.6596718430519104 0.30700868368148804
0.0007539637153968215 0.98251992464065552 0.36531099677085876
0.16577845811843872 0.99999183416366577 0.43206360936164856
0.60175246000289917 0.99975121021270752 0.46023929119110107
0.99813747406005859 0.99987888336181641 0.4537016749382019
0.99795359373092651 0.99616926908493042 0.41409680247306824
0.99999761581420898 0.98687452077865601 0.37889879941940308
1 0.99972891807556152 0.42701193690299988
0 1 0.43843251466751099
0.21966330707073212 1 0.50894200801849365
0.73839998245239258 0.99915564060211182 0.54448843002319336
1 0.99707883596420288 0.54787075519561768
0.99867981672286987 1 0.51949936151504517
0.998077392578125 1 0.49585151672363281
1 1 0.53592002391815186
0.00073589250678196549 1 0.46582958102226257
0.25998380780220032 0.9971458911895752 0.5280996561050415
0.81047052145004272 1 0.57334864139556885
1 0.99723166227340698 0.59481912851333618
0.99931979179382324 0.99443733692169189 0.58633798360824585
0.99944776296615601 0.99816495180130005 0.58388376235961914
1 1 0.62139981985092163
0 0 0.34924483299255371
0.05473264679312706 3.9283902879105881e-05 0.32459059357643127
0.27288246154785156 0 0.24653422832489014
0.6618274450302124 0.0010766122722998261 0.16635251045227051
0.99995452165603638 0.00026328890817239881 0.073097348213195801
0.99888122081756592 0 0.0032163732685148716
0.99999570846557617 0 0.031706493347883224
0 0.03490283340215683 0.33770057559013367
0.070319995284080505 0.049008432775735855 0.35455477237701416
0.35553929209709167 0.038749337196350098 0.34837451577186584
0.81962698698043823 0.023656673729419708 0.31974276900291443
1 0.025940734893083572 0.23838089406490326
0.9883081316947937 8.8261622295249254e-05 0.17383642494678497
0.99161785840988159 0.014976950362324715 0.23999443650245667
0 0.29178640246391296 0.40089020133018494
0.091963581740856171 0.33597251772880554 0.44232213497161865
0.44568878412246704 0.3431861400604248 0.45876803994178772
0.93974119424819946 0.33240345120429993 0.44482538104057312
1 0.25589373707771301 0.37601250410079956
0.99971604347229004 0.18931485712528229 0.31660929322242737
0.99750113487243652 0.26134443283081055 0.37170073390007019
0 0.68310034275054932 0.47242498397827148
0.12497230619192123 0.73913359642028809 0.52695673704147339
0.52739524841308594 0.7523084282875061 0.54358363151550293
0.98236310482025146 0.72641223669052124 0.52892965078353882
0.99799013137817383 0.66000127792358398 0.47602325677871704
0.99596071243286133 0.61671870946884155 0.42576459050178528
1 0.68833476305007935 0.4818274974822998
0.0035649018827825785 0.99641287326812744 0.5513840913772583
0.18255175650119781 0.99974966049194336 0.61405724287033081
0.63013416528701782 1 0.63996940851211548
0.99984729290008545 0.99998348951339722 0.63188034296035767
0.99597430229187012 0.99916046857833862 0.5918312668800354
0.99821573495864868 0.99412244558334351 0.55497997999191284
1 1 0.61963754892349243
0.00075827207183465362 0.99996393918991089 0.63628143072128296
0.24866195023059845 0.99999010562896729 0.71154212951660156
0.76298922300338745 0.99916726350784302 0.74359035491943359
1 0.9994814395904541 0.74589294195175171
1 1 0.71212393045425415
1 1 0.68948447704315186
1 1 0.75048267841339111
0.016135003417730331 0.99775838851928711 0.6746641993522644
0.29289472103118896 0.99538201093673706 0.76162958145141602
0.84126394987106323 1 0.8018723726272583
0.99926435947418213 1 0.81213819980621338
0.99533170461654663 0.99727052450180054 0.7997734546661377
1 0.99713099002838135 0.7991519570350647
1 1 0.85333931446075439
0 0 0.58075141906738281
0.035983037203550339 0.00090800266480073333 0.55902427434921265
0.28461644053459167 9.3347889560391195e-06 0.47014123201370239
0.68006747961044312 4.434024594957009e-05 0.41204345226287842
0.99995404481887817 9.3347889560391195e-06 0.28554987907409668
0.99816215038299561 0.00074075435986742377 0.18609675765037537
0.99797123670578003 0.00096070533618330956 0.29710155725479126
0.00044865327072329819 0.031164940446615219 0.57829779386520386
0.079871624708175659 0.049760181456804276 0.59337478876113892
0.3753332793712616 0.046470209956169128 0.58279013633728027
0.85304605960845947 0.023676853626966476 0.55329877138137817
1 0.026943415403366089 0.45971545577049255
0.99592858552932739 0.014107528142631054 0.40641576051712036
0.99838203191757202 0.043218947947025299 0.52264171838760376
0 0.30822628736495972 0.64286965131759644
0.11523196846246719 0.35024091601371765 0.67581671476364136
0.47009244561195374 0.36148825287818909 0.68752115964889526
0.9465022087097168 0.34062513709068298 0.66605079174041748
1 0.2746850848197937 0.59141522645950317
0.99933934211730957 0.22816586494445801 0.53710442781448364
0.99968957901000977 0.29445871710777283 0.61671382188796997
0.0012969521339982748 0.69290798902511597 0.71682929992675781
0.14816898107528687 0.7546011209487915 0.76270139217376709
0.54328197240829468 0.76009631156921387 0.77503597736358643
0.97577357292175293 0.73689419031143188 0.75616258382797241
0.99981486797332764 0.67766588926315308 0.69598674774169922
0.99944072961807251 0.63557153940200806 0.64776283502578735
1 0.70379525423049927 0.72368121147155762
0.0094133717939257622 0.99958151578903198 0.82853740453720093
0.20063570141792297 1 0.88056755065917969
0.63896387815475464 1 0.89671850204467773
0.99998277425765991 1 0.8868291974067688
0.99977940320968628 0.99998182058334351 0.83486974239349365
0.99965327978134155 0.99618732929229736 0.7967953085899353
1 1 0.88114094734191895
0.0089156655594706535 1 0.95458769798278809
0.26987621188163757 0.9977152943611145 0.98149371147155762
0.77898520231246948 0.99735677242279053 0.99160552024841309
0.99878197908401489 0.99624091386795044 0.99060511589050293
1 0.99966418743133545 0.97464853525161743
1 1 0.96067279577255249
1 0.99947786331176758 0.99403351545333862
0.03499520942568779 1 0.98017036914825439
0.30979236960411072 1 0.99801832437515259
0.84244781732559204 1 0.99871671199798584
1 1 1
1 1 0.99996340274810791
1 1 0.99959933757781982
1 1 1
