assets/lut/alexjordan operation yellow.cube
# Created by: G'MIC (https://gmic.eu)
TITLE "operation_yellow"
# LUT size
LUT_3D_SIZE 5
# Data domain
DOMAIN_MIN 0.0 0.0 0.0
DOMAIN_MAX 1.0 1.0 1.0
# LUT data points
0.031494557857513428 0.031494949012994766 0.027344124391674995
0.16755005717277527 0.060777269303798676 0.051744617521762848
0.35041457414627075 0.076289847493171692 0.06091797724366188
0.56964915990829468 0.085462741553783417 0.057348933070898056
0.82048153877258301 0.081985294818878174 0.047075308859348297
0.087133966386318207 0.2521263062953949 0.061456043273210526
0.33916613459587097 0.24948447942733765 0.034211400896310806
0.57453697919845581 0.2547929584980011 0.007558770477771759
0.77207982540130615 0.270192950963974 0.0093225967139005661
0.98520678281784058 0.27693158388137817 0.009939560666680336
0.090701654553413391 0.49383059144020081 0.036891862750053406
0.40522593259811401 0.47107496857643127 0.01788228377699852
0.64909017086029053 0.47167313098907471 0.0068896724842488766
0.84322816133499146 0.48794016242027283 0.01149456575512886
0.99968242645263672 0.5013958215713501 0.023805206641554832
0.1819147914648056 0.70462656021118164 0.076541617512702942
0.50206798315048218 0.68034309148788452 0.054732423275709152
0.73424088954925537 0.68282210826873779 0.052386712282896042
0.92913335561752319 0.69813239574432373 0.064719676971435547
1 0.71118694543838501 0.081357471644878387
0.27207911014556885 0.91163986921310425 0.13455283641815186
0.60200268030166626 0.88473808765411377 0.11471692472696304
0.8317335844039917 0.88737040758132935 0.11705143004655838
0.9924578070640564 0.90255022048950195 0.13023380935192108
0.99993431568145752 0.91904175281524658 0.14508341252803802
0.043072495609521866 0.050611652433872223 0.076961904764175415
0.20070740580558777 0.069557145237922668 0.11575088649988174
0.41283580660820007 0.075060538947582245 0.14611917734146118
0.64333707094192505 0.078081093728542328 0.16324058175086975
0.87909185886383057 0.079361632466316223 0.16635270416736603
0.087100476026535034 0.26872703433036804 0.17272689938545227
0.3550724983215332 0.26077389717102051 0.15448012948036194
0.58548671007156372 0.26460105180740356 0.14349111914634705
0.79084229469299316 0.27523505687713623 0.1475842148065567
0.98781716823577881 0.28670501708984375 0.15135775506496429
0.084975376725196838 0.50638866424560547 0.1918099969625473
0.41174620389938354 0.48067322373390198 0.16377899050712585
0.6501421332359314 0.48329037427902222 0.15582509338855743
0.84888368844985962 0.49663007259368896 0.16596530377864838
0.9999687671661377 0.50937759876251221 0.17679904401302338
0.17764189839363098 0.71509480476379395 0.23571684956550598
0.5052868127822876 0.68754309415817261 0.21324598789215088
0.73600590229034424 0.69087380170822144 0.21476979553699493
0.93629366159439087 0.70526367425918579 0.22895658016204834
1 0.71879184246063232 0.23925182223320007
0.28393095731735229 0.91739416122436523 0.2957746684551239
0.60675477981567383 0.8926118016242981 0.27762928605079651
0.83761894702911377 0.89493381977081299 0.28100910782814026
0.99943894147872925 0.90884566307067871 0.29261156916618347
1 0.9262201189994812 0.30139398574829102
0.06317552924156189 0.065621361136436462 0.12597310543060303
0.22941160202026367 0.079739391803741455 0.19033727049827576
0.44585505127906799 0.080276459455490112 0.23940496146678925
0.67593091726303101 0.081013455986976624 0.27361509203910828
0.8935578465461731 0.085604347288608551 0.29109892249107361
0.091885663568973541 0.27757766842842102 0.29544493556022644
0.36921140551567078 0.26739567518234253 0.28364774584770203
0.60209983587265015 0.26956182718276978 0.28491050004959106
0.80870926380157471 0.28049463033676147 0.29215747117996216
0.99003267288208008 0.29374071955680847 0.30169722437858582
0.099989376962184906 0.51183068752288818 0.34062805771827698
0.42616826295852661 0.48723533749580383 0.31150588393211365
0.66019809246063232 0.49292832612991333 0.30839419364929199
0.86334973573684692 0.50458276271820068 0.31686031818389893
0.99999356269836426 0.51617199182510376 0.32848939299583435
0.18703533709049225 0.72084712982177734 0.39118349552154541
0.51305299997329712 0.69489556550979614 0.36704060435295105
0.74791955947875977 0.69834071397781372 0.36482676863670349
0.94567781686782837 0.71324294805526733 0.37721547484397888
1 0.72793304920196533 0.38685768842697144
0.29131495952606201 0.92360067367553711 0.45114436745643616
0.61495864391326904 0.89991360902786255 0.43058013916015625
0.85285621881484985 0.9022098183631897 0.43018442392349243
0.99988692998886108 0.91781151294708252 0.44154670834541321
1 0.9349396824836731 0.44863781332969666
0.069799505174160004 0.081369243562221527 0.19591350853443146
0.2634836733341217 0.086251921951770782 0.27377563714981079
0.47828960418701172 0.088188707828521729 0.33568137884140015
0.70522403717041016 0.089935824275016785 0.38567253947257996
0.91752618551254272 0.094879105687141418 0.41620627045631409
0.081795185804367065 0.29520586133003235 0.40835079550743103
0.38025718927383423 0.27733549475669861 0.40441057085990906
0.61854857206344604 0.27940797805786133 0.41210129857063293
0.81333047151565552 0.29435268044471741 0.42232832312583923
0.98558288812637329 0.30849966406822205 0.43438410758972168
0.10954950004816055 0.52278047800064087 0.46998631954193115
0.43457868695259094 0.49850741028785706 0.44181278347969055
0.67349815368652344 0.50006735324859619 0.43840289115905762
0.86727088689804077 0.51460731029510498 0.44782370328903198
0.99617469310760498 0.52863723039627075 0.45918893814086914
0.20881882309913635 0.7282102108001709 0.52335023880004883
0.53076106309890747 0.70338577032089233 0.49896696209907532
0.76413875818252563 0.70682024955749512 0.49363246560096741
0.95499700307846069 0.72243607044219971 0.5047067403793335
1 0.73767983913421631 0.51693761348724365
0.30927670001983643 0.93214058876037598 0.58381301164627075
0.62655234336853027 0.91088837385177612 0.56353563070297241
0.85893863439559937 0.91405338048934937 0.56107711791992188
0.9998965859413147 0.92871838808059692 0.57192486524581909
1 0.94477331638336182 0.58150500059127808
0.091408886015415192 0.09305533766746521 0.27242273092269897
0.29303246736526489 0.094609640538692474 0.36724331974983215
0.52127921581268311 0.087709240615367889 0.44404688477516174
0.75823688507080078 0.085850507020950317 0.50224083662033081
0.96564775705337524 0.094966232776641846 0.53724175691604614
0.088460735976696014 0.30758798122406006 0.53170108795166016
0.39672109484672546 0.28661313652992249 0.52873241901397705
0.63994312286376953 0.28374263644218445 0.54190510511398315
0.84662479162216187 0.29535847902297974 0.55351972579956055
0.99889165163040161 0.31571373343467712 0.55487567186355591
0.12099029123783112 0.53248637914657593 0.59058237075805664
0.44588318467140198 0.50743061304092407 0.57140332460403442
0.68465971946716309 0.51065069437026978 0.56578314304351807
0.8884042501449585 0.52027392387390137 0.57663208246231079
1 0.53457969427108765 0.58524805307388306
0.22446614503860474 0.73669999837875366 0.64287114143371582
0.54430693387985229 0.71391218900680542 0.62308341264724731
0.78365260362625122 0.71717417240142822 0.61875337362289429
0.96327519416809082 0.73033124208450317 0.62926214933395386
1 0.74448543787002563 0.64221811294555664
0.31546476483345032 0.9420960545539856 0.70462203025817871
0.64032679796218872 0.91986954212188721 0.68197309970855713
0.86659592390060425 0.92516660690307617 0.6835370659828186
1 0.93773913383483887 0.69448113441467285
0.99953991174697876 0.95308464765548706 0.70644074678421021
