assets/lut/alexjordan cross process cp 16.cube
# Created by: G'MIC (https://gmic.eu)
TITLE "cross_process_cp_16"
# LUT size
LUT_3D_SIZE 5
# Data domain
DOMAIN_MIN 0.0 0.0 0.0
DOMAIN_MAX 1.0 1.0 1.0
# LUT data points
0 0 0
0 0 0
0.028595583513379097 0.004775357898324728 0.014259607531130314
0.1623765230178833 0.023865299299359322 0.056130159646272659
0.36140602827072144 0.043332252651453018 0.095860831439495087
0.034757263958454132 0.087718620896339417 0.077889971435070038
0.14015506207942963 0.13606643676757812 0.11358130723237991
0.30530300736427307 0.16327977180480957 0.13366766273975372
0.53890764713287354 0.17905548214912415 0.13855686783790588
0.81294512748718262 0.18308207392692566 0.13076023757457733
0.024237599223852158 0.36356574296951294 0.15450207889080048
0.21027456223964691 0.39035525918006897 0.14414338767528534
0.44474270939826965 0.40848711133003235 0.14094489812850952
0.71072691679000854 0.42014297842979431 0.13984337449073792
0.97125536203384399 0.41654664278030396 0.13413187861442566
0.02249361015856266 0.66355991363525391 0.14344041049480438
0.23273757100105286 0.6729273796081543 0.15097393095493317
0.47283560037612915 0.66318798065185547 0.1405138373374939
0.71860110759735107 0.65495896339416504 0.13328935205936432
0.94258314371109009 0.62830048799514771 0.10803887993097305
0.0093402937054634094 0.880973219871521 0.12030931562185287
0.20347389578819275 0.86082971096038818 0.11327767372131348
0.40746310353279114 0.81189149618148804 0.074051231145858765
0.61962610483169556 0.77559638023376465 0.040138587355613708
0.8416907787322998 0.75799548625946045 0.02111237496137619
0 0 0
0.00022583008103538305 0 0.00041539809899404645
0.056671157479286194 0.0089057320728898048 0.045480988919734955
0.20731014013290405 0.034782245755195618 0.10352439433336258
0.42247626185417175 0.047395355999469757 0.14974838495254517
0.045242771506309509 0.10958962887525558 0.12491404265165329
0.15916240215301514 0.15315428376197815 0.1748739629983902
0.33085653185844421 0.17572945356369019 0.20438094437122345
0.56741619110107422 0.18970051407814026 0.22678500413894653
0.8461495041847229 0.19308741390705109 0.23803210258483887
0.023484935984015465 0.38311916589736938 0.24077937006950378
0.21552331745624542 0.40576198697090149 0.24770331382751465
0.45470163226127625 0.41778582334518433 0.24603454768657684
0.71587914228439331 0.43050974607467651 0.24698247015476227
0.98198217153549194 0.42847135663032532 0.2519986629486084
0.011102639138698578 0.67704051733016968 0.26919934153556824
0.22659961879253387 0.67756390571594238 0.26323056221008301
0.48100802302360535 0.66965949535369873 0.25613173842430115
0.7181360125541687 0.6535152792930603 0.23882433772087097
0.94443792104721069 0.62095600366592407 0.20990543067455292
0.0063191582448780537 0.89305830001831055 0.25047415494918823
0.19494348764419556 0.85571426153182983 0.22054170072078705
0.4083157479763031 0.80840909481048584 0.17955751717090607
0.61887985467910767 0.76975321769714355 0.1427043080329895
0.84046518802642822 0.74665254354476929 0.12218829989433289
0 0 0
0.0047950143925845623 0.0020953458733856678 0.010587684810161591
0.094665363430976868 0.021518528461456299 0.086367636919021606
0.2571767270565033 0.042754542082548141 0.15862452983856201
0.47742971777915955 0.053814113140106201 0.21657155454158783
0.048180658370256424 0.13233460485935211 0.18508265912532806
0.17652498185634613 0.16717128455638885 0.24646641314029694
0.35928869247436523 0.18809330463409424 0.28727319836616516
0.59706509113311768 0.1991732120513916 0.31533533334732056
0.8671608567237854 0.20630766451358795 0.34347686171531677
0.030688686296343803 0.40349367260932922 0.35205987095832825
0.23644500970840454 0.42234990000724792 0.36650267243385315
0.47763705253601074 0.43144974112510681 0.36744922399520874
0.73373091220855713 0.43970963358879089 0.36919921636581421
0.98482584953308105 0.44060060381889343 0.37495934963226318
0.021847609430551529 0.69121557474136353 0.39601191878318787
0.24531581997871399 0.68606400489807129 0.38855749368667603
0.4935421347618103 0.67471837997436523 0.37266442179679871
0.71847021579742432 0.65094411373138428 0.34847700595855713
0.94204258918762207 0.62472331523895264 0.32433709502220154
0.0090953605249524117 0.89158254861831665 0.36202943325042725
0.195078045129776 0.84598350524902344 0.32318884134292603
0.40981444716453552 0.80602866411209106 0.28404077887535095
0.62098771333694458 0.77128046751022339 0.25260627269744873
0.84820955991744995 0.7579495906829834 0.24576251208782196
0 0 0.0005283131031319499
0.021631950512528419 0.0080469921231269836 0.038684606552124023
0.1270730048418045 0.035379640758037567 0.13207739591598511
0.30407217144966125 0.051093380898237228 0.22308053076267242
0.53738713264465332 0.057131942361593246 0.29580956697463989
0.052435033023357391 0.14788208901882172 0.25034910440444946
0.19203655421733856 0.18353401124477386 0.32812798023223877
0.38733616471290588 0.20209972560405731 0.38834503293037415
0.63797491788864136 0.20665732026100159 0.42541331052780151
0.91993016004562378 0.20739471912384033 0.45929780602455139
0.022846955806016922 0.42075225710868835 0.45062819123268127
0.23891496658325195 0.43556961417198181 0.47277435660362244
0.48633736371994019 0.44429385662078857 0.48278793692588806
0.74934107065200806 0.45054453611373901 0.49207445979118347
0.99031615257263184 0.45564365386962891 0.49578571319580078
0.019551999866962433 0.70131325721740723 0.51065629720687866
0.24169264733791351 0.68855631351470947 0.4971214234828949
0.49049749970436096 0.67547756433486938 0.48131439089775085
0.72110968828201294 0.65161824226379395 0.46169742941856384
0.93832623958587646 0.62447601556777954 0.43307670950889587
0.013604332692921162 0.88707464933395386 0.46961209177970886
0.19516077637672424 0.84194660186767578 0.42932572960853577
0.40372267365455627 0.8014715313911438 0.38784307241439819
0.6169363260269165 0.76520222425460815 0.35386168956756592
0.83814436197280884 0.74297028779983521 0.33491671085357666
0.0021248012781143188 0.0010528863640502095 0.017427721992135048
0.036583289504051208 0.014875883236527443 0.079473130404949188
0.15411701798439026 0.044317640364170074 0.18263061344623566
0.34970629215240479 0.060256794095039368 0.2881830632686615
0.59425723552703857 0.061752259731292725 0.38211393356323242
0.06578807532787323 0.16891317069530487 0.33321371674537659
0.20962901413440704 0.19871143996715546 0.42113861441612244
0.40483576059341431 0.21766665577888489 0.48403584957122803
0.66090434789657593 0.22413679957389832 0.52446645498275757
0.94656562805175781 0.21721114218235016 0.57397127151489258
0.030440730974078178 0.43779882788658142 0.5727611780166626
0.25744166970252991 0.45248681306838989 0.59635204076766968
0.50642913579940796 0.45817625522613525 0.60476136207580566
0.76143783330917358 0.45706936717033386 0.60564392805099487
0.99270999431610107 0.44852271676063538 0.5997995138168335
0.025399571284651756 0.7126392126083374 0.63292330503463745
0.26029658317565918 0.70027583837509155 0.62136143445968628
0.50832432508468628 0.68552350997924805 0.60179060697555542
0.72259396314620972 0.65090614557266235 0.56770139932632446
0.93692177534103394 0.61897224187850952 0.53567725419998169
0.023258792236447334 0.87790578603744507 0.57189619541168213
0.2031710147857666 0.84286212921142578 0.54039740562438965
0.40301769971847534 0.80069363117218018 0.49586644768714905
0.62114334106445312 0.76894354820251465 0.46276557445526123
0.83839201927185059 0.74321502447128296 0.43571460247039795
