assets/lut/alexjordan adventure 1453.cube
# Created by: G'MIC (https://gmic.eu)
TITLE "adventure_1453"
# LUT size
LUT_3D_SIZE 13
# Data domain
DOMAIN_MIN 0.0 0.0 0.0
DOMAIN_MAX 1.0 1.0 1.0
# LUT data points
0.0012613184517249465 0.0058512520045042038 0.020026411861181259
0.022554809227585793 0.0095639694482088089 0.02011006698012352
0.087356805801391602 0.010743174701929092 0.0232671108096838
0.17110602557659149 0.013930675573647022 0.024577062577009201
0.26309481263160706 0.015504485927522182 0.025291532278060913
0.3609517514705658 0.016069300472736359 0.025024473667144775
0.46288150548934937 0.01523666363209486 0.0225650854408741
0.56808823347091675 0.01288503035902977 0.01881827600300312
0.6764068603515625 0.0086009455844759941 0.015361650846898556
0.78764885663986206 0.0044789933599531651 0.013754811137914658
0.90183627605438232 0.0052703260444104671 0.015598132275044918
0.99257129430770874 0.014703249558806419 0.020023569464683533
1 0.026749869808554649 0.018805738538503647
0.0031201380770653486 0.062906883656978607 0.030260393396019936
0.034825239330530167 0.064651131629943848 0.029859356582164764
0.1022757887840271 0.07004421204328537 0.030432248488068581
0.18550881743431091 0.077007904648780823 0.032062888145446777
0.27734425663948059 0.079528078436851501 0.033616669476032257
0.37460353970527649 0.079505831003189087 0.032328497618436813
0.47571030259132385 0.077672459185123444 0.028286280110478401
0.58008277416229248 0.072785243391990662 0.023099428042769432
0.68794476985931396 0.062966875731945038 0.018281659111380577
0.79933923482894897 0.050018850713968277 0.015754459425806999
0.91400933265686035 0.045517414808273315 0.018122939392924309
0.9965706467628479 0.056189022958278656 0.022807028144598007
1 0.070886723697185516 0.023479880765080452
0.0014899908564984798 0.14624230563640594 0.033580988645553589
0.038181036710739136 0.14686189591884613 0.034464787691831589
0.11005593091249466 0.15011803805828094 0.036781895905733109
0.19555619359016418 0.15408831834793091 0.039375290274620056
0.28902941942214966 0.15428796410560608 0.041228484362363815
0.38694104552268982 0.15261732041835785 0.039719060063362122
0.48739698529243469 0.15034803748130798 0.034263208508491516
0.59128987789154053 0.14543949067592621 0.027613785117864609
0.69921547174453735 0.13612906634807587 0.022299433127045631
0.81163835525512695 0.12107042968273163 0.020920174196362495
0.92708510160446167 0.11154928803443909 0.023466072976589203
0.99878996610641479 0.11504235118627548 0.026815677061676979
1 0.12687405943870544 0.026922412216663361
0.0038704667240381241 0.23054353892803192 0.039572697132825851
0.048971317708492279 0.23263005912303925 0.041403453797101974
0.12001680582761765 0.23506133258342743 0.043823510408401489
0.20451743900775909 0.2366165816783905 0.046246219426393509
0.29768747091293335 0.23511980473995209 0.047360513359308243
0.39577007293701172 0.23218426108360291 0.045150935649871826
0.49623006582260132 0.2287953644990921 0.039545528590679169
0.60029345750808716 0.22371950745582581 0.032552082091569901
0.70863717794418335 0.21505531668663025 0.027651423588395119
0.8212440013885498 0.20188198983669281 0.026462061330676079
0.93609327077865601 0.19129696488380432 0.02812640555202961
0.99998128414154053 0.18974681198596954 0.029804768040776253
1 0.19618301093578339 0.028844272717833519
0.0074438806623220444 0.31523820757865906 0.045169036835432053
0.060163222253322601 0.31788831949234009 0.047672241926193237
0.13097500801086426 0.31989499926567078 0.049940116703510284
0.21356692910194397 0.32056733965873718 0.051657523959875107
0.30496132373809814 0.31848323345184326 0.051533732563257217
0.40167510509490967 0.3150140643119812 0.048769693821668625
0.50211387872695923 0.31058037281036377 0.043490808457136154
0.60638827085494995 0.30471491813659668 0.037418767809867859
0.71483117341995239 0.29619023203849792 0.03266061469912529
0.82696527242660522 0.28547480702400208 0.030614785850048065
0.94062870740890503 0.27619817852973938 0.030778713524341583
1 0.27213379740715027 0.030880197882652283
1 0.2739463746547699 0.028924200683832169
0.011145842261612415 0.40016466379165649 0.049613010138273239
0.069451004266738892 0.40276962518692017 0.05219699814915657
0.14109444618225098 0.40435206890106201 0.054176777601242065
0.22208082675933838 0.40442928671836853 0.054998479783535004
0.31104317307472229 0.40264156460762024 0.054032150655984879
0.40606895089149475 0.39910367131233215 0.051034275442361832
0.50577932596206665 0.39427053928375244 0.046081032603979111
0.60978007316589355 0.38778683543205261 0.040526475757360458
0.71777278184890747 0.37958219647407532 0.035820364952087402
0.82942599058151245 0.37001156806945801 0.033569738268852234
0.94184130430221558 0.36148622632026672 0.030882352963089943
1 0.35638695955276489 0.030384093523025513
1 0.35527464747428894 0.02730967290699482
0.014421231113374233 0.48515433073043823 0.052396990358829498
0.077241502702236176 0.48756131529808044 0.055044945329427719
0.14960268139839172 0.48890259861946106 0.056895866990089417
0.22951170802116394 0.48877570033073425 0.057206440716981888
0.31671622395515442 0.48697134852409363 0.055597297847270966
0.40979021787643433 0.48342028260231018 0.052240964025259018
0.50831800699234009 0.478476881980896 0.047313600778579712
0.61123627424240112 0.47201493382453918 0.041669987142086029
0.71850365400314331 0.46416929364204407 0.036544650793075562
0.82923388481140137 0.45518171787261963 0.033092886209487915
0.9415816068649292 0.44682419300079346 0.030570400878787041
1 0.44084048271179199 0.028001492843031883
1 0.438150554895401 0.024667447432875633
0.01798502542078495 0.57014304399490356 0.053891919553279877
0.083650641143321991 0.57222938537597656 0.056637678295373917
0.1566622257232666 0.5732734203338623 0.057843826711177826
0.23611399531364441 0.57300812005996704 0.057858023792505264
0.32170408964157104 0.57114517688751221 0.056408483535051346
0.41324612498283386 0.56779968738555908 0.052933830767869949
0.51008123159408569 0.56302726268768311 0.047899793833494186
0.61188787221908569 0.55687659978866577 0.042057305574417114
0.71804624795913696 0.54939216375350952 0.036022171378135681
0.82800787687301636 0.54086679220199585 0.031204372644424438
0.94018197059631348 0.53219664096832275 0.027960654348134995
1 0.52566742897033691 0.02482166700065136
1 0.52197873592376709 0.021215550601482391
0.021331233903765678 0.65534877777099609 0.054037190973758698
0.089159600436687469 0.65698528289794922 0.056907996535301208
0.16283868253231049 0.65784192085266113 0.058249887079000473
0.2417847067117691 0.65722161531448364 0.05808652937412262
0.32635000348091125 0.65535861253738403 0.056671604514122009
0.41637146472930908 0.6521000862121582 0.05307871475815773
0.51175141334533691 0.64741945266723633 0.048434793949127197
0.61218744516372681 0.64161485433578491 0.042416337877511978
0.71727979183197021 0.63440203666687012 0.035890288650989532
0.82668894529342651 0.62601578235626221 0.030141688883304596
0.93789923191070557 0.61762446165084839 0.026064734905958176
1 0.61082565784454346 0.02206910029053688
1 0.60657918453216553 0.018110401928424835
0.024324558675289154 0.74069744348526001 0.052917018532752991
0.094130545854568481 0.7418561577796936 0.055876024067401886
0.16829247772693634 0.74229311943054199 0.057401292026042938
0.24710270762443542 0.74160641431808472 0.057470642030239105
0.33088487386703491 0.73963338136672974 0.056017182767391205
0.41965290904045105 0.73639285564422607 0.053068991750478745
0.5135377049446106 0.73182934522628784 0.048799552023410797
0.61225694417953491 0.72592425346374512 0.043458197265863419
0.71587240695953369 0.71905702352523804 0.037575230002403259
0.82382428646087646 0.71105033159255981 0.031443368643522263
0.93422245979309082 0.70309257507324219 0.025915361940860748
0.99948066473007202 0.69644111394882202 0.020286664366722107
1 0.69200199842453003 0.016037136316299438
0.026954995468258858 0.82609939575195312 0.050517555326223373
0.098472163081169128 0.82704532146453857 0.053693000227212906
0.17328928411006927 0.82711023092269897 0.05544077605009079
0.25211954116821289 0.82621490955352783 0.055796932429075241
0.33516734838485718 0.82412832975387573 0.054649442434310913
0.42307990789413452 0.82083666324615479 0.052194781601428986
0.51568359136581421 0.81629341840744019 0.04865754023194313
0.61294066905975342 0.81059420108795166 0.044289816170930862
0.71458899974822998 0.80388671159744263 0.039271321147680283
0.82061624526977539 0.79631286859512329 0.033348545432090759
0.92952114343643188 0.78894168138504028 0.026697166264057159
0.99856477975845337 0.78246325254440308 0.019346514716744423
1 0.77802485227584839 0.014113841578364372
0.029407471418380737 0.91197913885116577 0.046699464321136475
0.10242117941379547 0.91253119707107544 0.050139885395765305
0.17789632081985474 0.91230332851409912 0.052275624126195908
0.25698429346084595 0.91108518838882446 0.052745278924703598
0.33993428945541382 0.90886765718460083 0.051987949758768082
0.4271661639213562 0.90549200773239136 0.049966759979724884
0.51875680685043335 0.90097147226333618 0.046860024333000183
0.61483865976333618 0.89550554752349854 0.043069757521152496
0.71501106023788452 0.88901162147521973 0.038634654134511948
0.81892269849777222 0.88185602426528931 0.032954346388578415
0.92650949954986572 0.87493139505386353 0.025393197312951088
0.9979097843170166 0.86903673410415649 0.017512617632746696
1 0.86467146873474121 0.011720605194568634
0.031958591192960739 0.98786765336990356 0.041027441620826721
0.10589710623025894 0.98824137449264526 0.045117799192667007
0.18218958377838135 0.98790460824966431 0.047332689166069031
0.26151087880134583 0.98749518394470215 0.048167567700147629
0.34453687071800232 0.98605012893676758 0.04770355299115181
0.43156266212463379 0.98407334089279175 0.045882191509008408
0.52287387847900391 0.98142075538635254 0.043090924620628357
0.61811226606369019 0.97772163152694702 0.039270889014005661
0.71750104427337646 0.97269219160079956 0.03435434028506279
0.82056975364685059 0.96755397319793701 0.028498571366071701
0.92549407482147217 0.96151387691497803 0.021156206727027893
0.99743247032165527 0.95606863498687744 0.014241357333958149
1 0.95201772451400757 0.0088708316907286644
0.0013181648682802916 0.0075272354297339916 0.094215571880340576
0.025996040552854538 0.011558831669390202 0.091148152947425842
0.086770884692668915 0.01193389855325222 0.095309466123580933
0.1681031733751297 0.012775331735610962 0.10076063871383667
0.2600054144859314 0.013284197077155113 0.10380534827709198
0.35816961526870728 0.01376947108656168 0.10322895646095276
0.46042609214782715 0.013806511647999287 0.098924972116947174
0.56585603952407837 0.011675396934151649 0.092123590409755707
0.67445671558380127 0.0071171033196151257 0.083880417048931122
0.78617936372756958 0.0024545108899474144 0.07595379650592804
0.90087223052978516 0.0023585900198668242 0.071089878678321838
0.99241781234741211 0.011958656832575798 0.071200288832187653
1 0.02367369644343853 0.074587814509868622
0.0018449671333655715 0.066828466951847076 0.10984474420547485
0.032133184373378754 0.067312575876712799 0.10776512324810028
0.099232092499732971 0.070787332952022552 0.10885681211948395
0.18197135627269745 0.07435666024684906 0.1129356250166893
0.27439233660697937 0.075505591928958893 0.1152305006980896
0.372557133436203 0.075628422200679779 0.11366279423236847
0.47377139329910278 0.074246242642402649 0.10760759562253952
0.57815492153167725 0.069540880620479584 0.099075570702552795
0.68609213829040527 0.058558773249387741 0.09012807160615921
0.79761433601379395 0.042546425014734268 0.08309173583984375
0.91259622573852539 0.036059241741895676 0.081122182309627533
0.99633806943893433 0.048111874610185623 0.084487482905387878
1 0.064378716051578522 0.086792290210723877
0.003103592898696661 0.14609108865261078 0.11911555379629135
0.041611421853303909 0.14524708688259125 0.11983644217252731
0.10982773452997208 0.14804248511791229 0.1209881529211998
0.19381515681743622 0.15089994668960571 0.12387751787900925
0.28747615218162537 0.15042921900749207 0.12606410682201385
0.38592126965522766 0.14860863983631134 0.12322022765874863
0.48612284660339355 0.14644728600978851 0.11581788957118988
0.58987677097320557 0.14150620996952057 0.10628791898488998
0.69760584831237793 0.13084800541400909 0.097579985857009888
0.8100656270980835 0.11409755051136017 0.093297980725765228
0.92548888921737671 0.10333899408578873 0.093810737133026123
0.9985012412071228 0.10736876726150513 0.096412062644958496
1 0.12004338949918747 0.096528194844722748
0.0060291066765785217 0.22937476634979248 0.12630210816860199
0.052762184292078018 0.23070958256721497 0.12829799950122833
0.12103591859340668 0.23298756778240204 0.13055466115474701
0.20381550490856171 0.2343071848154068 0.13288295269012451
0.29676976799964905 0.23247671127319336 0.13337372243404388
0.3945927619934082 0.22908599674701691 0.12984871864318848
0.49490195512771606 0.22559389472007751 0.12237104773521423
0.5987168550491333 0.2202618271112442 0.1132253035902977
0.70691627264022827 0.21101886034011841 0.10574581474065781
0.81969588994979858 0.19755522906780243 0.10242891311645508
0.93451482057571411 0.18716293573379517 0.10254202783107758
0.99986141920089722 0.18558259308338165 0.10333890467882156
1 0.19113963842391968 0.10224516689777374
0.0088102305307984352 0.31441622972488403 0.13242426514625549
0.06186981126666069 0.31683900952339172 0.1348709762096405
0.1311182975769043 0.31891784071922302 0.1371789276599884
0.21241848170757294 0.31946751475334167 0.13857914507389069
0.30311349034309387 0.31734314560890198 0.13785132765769958
0.39960324764251709 0.31342092156410217 0.13373482227325439
0.50004005432128906 0.30873394012451172 0.12686362862586975
0.60435599088668823 0.30257520079612732 0.1189979687333107
0.71280306577682495 0.29387941956520081 0.11263171583414078
0.8251228928565979 0.28331917524337769 0.10884785652160645
0.93876296281814575 0.27487289905548096 0.1075928807258606
1 0.27055108547210693 0.10699518024921417
1 0.27098479866981506 0.10416301339864731
0.011639179661870003 0.39972087740898132 0.13686889410018921
0.069518536329269409 0.40235775709152222 0.13941217958927155
0.14007943868637085 0.40417426824569702 0.14122818410396576
0.2199820876121521 0.40436100959777832 0.14176762104034424
0.3084772527217865 0.40239885449409485 0.14003008604049683
0.40332701802253723 0.39851367473602295 0.13590602576732635
0.50304555892944336 0.39328765869140625 0.12973107397556305
0.60705983638763428 0.38669562339782715 0.12282167375087738
0.71526414155960083 0.37857133150100708 0.11677790433168411
0.82659947872161865 0.36948361992835999 0.11259548366069794
0.94068706035614014 0.36107230186462402 0.10931508988142014
1 0.35532885789871216 0.10749880969524384
1 0.35300141572952271 0.10368899255990982
0.014246203936636448 0.48498475551605225 0.13981544971466064
0.076086707413196564 0.48750248551368713 0.14228428900241852
0.14755904674530029 0.48904705047607422 0.14357084035873413
0.22671552002429962 0.48911437392234802 0.14345221221446991
0.31325539946556091 0.48719912767410278 0.14136959612369537
0.40647459030151367 0.48343566060066223 0.13715276122093201
0.50485467910766602 0.47831952571868896 0.13129578530788422
0.60801535844802856 0.47164252400398254 0.1245565339922905
0.7154650092124939 0.46387121081352234 0.11820486932992935
0.82629740238189697 0.45509576797485352 0.11325845122337341
0.93978750705718994 0.44673341512680054 0.10904400050640106
1 0.43985626101493835 0.10530304163694382
1 0.43628185987472534 0.10133636742830276
0.017171388491988182 0.57010453939437866 0.14145076274871826
0.081818342208862305 0.572418212890625 0.14371487498283386
0.15392635762691498 0.57349121570587158 0.14444342255592346
0.23258081078529358 0.573383629322052 0.14400981366634369
0.31768840551376343 0.57176297903060913 0.14201192557811737
0.40918359160423279 0.56822580099105835 0.13780993223190308
0.50626397132873535 0.56326949596405029 0.13217146694660187
0.60837447643280029 0.55687487125396729 0.12530359625816345
0.71506011486053467 0.54911428689956665 0.11802627146244049
0.82595169544219971 0.54061007499694824 0.11197825521230698
0.93930941820144653 0.53172153234481812 0.10654299706220627
1 0.52446818351745605 0.10177703201770782
1 0.51987940073013306 0.097568050026893616
0.020119102671742439 0.65533673763275146 0.14195115864276886
0.086922787129878998 0.65721029043197632 0.14406843483448029
0.15962599217891693 0.65817058086395264 0.14580868184566498
0.23786325752735138 0.65785133838653564 0.14420793950557709
0.3218529224395752 0.65597003698348999 0.14236138761043549
0.41189116239547729 0.65266942977905273 0.13830137252807617
0.50752472877502441 0.64799648523330688 0.1325862854719162
0.60859382152557373 0.64181149005889893 0.12576834857463837
0.71465760469436646 0.63430094718933105 0.11814454197883606
0.82582426071166992 0.62551134824752808 0.11085294932126999
0.93916547298431396 0.6165015697479248 0.10377408564090729
1 0.60905015468597412 0.098186671733856201
1 0.60433435440063477 0.093655049800872803
0.023015189915895462 0.74070256948471069 0.14125959575176239
0.091608799993991852 0.74223029613494873 0.14364223182201385
0.16476921737194061 0.74268561601638794 0.14424358308315277
0.24279308319091797 0.74223500490188599 0.14394313097000122
0.32601490616798401 0.74037855863571167 0.14194095134735107
0.41474789381027222 0.7371751070022583 0.13827142119407654
0.50902891159057617 0.73243123292922974 0.13303248584270477
0.60869276523590088 0.72648340463638306 0.12654580175876617
0.71337980031967163 0.71928650140762329 0.11906186491250992
0.82331252098083496 0.71068376302719116 0.11109734326601028
0.93585550785064697 0.70185822248458862 0.10327477753162384
0.99985289573669434 0.69474321603775024 0.09621015191078186
1 0.68975436687469482 0.090475998818874359
0.025806067511439323 0.82628905773162842 0.13942469656467438
0.095897480845451355 0.82739925384521484 0.14211162924766541
0.16971161961555481 0.82757163047790527 0.143173947930336
0.24769023060798645 0.82687264680862427 0.14288212358951569
0.33035996556282043 0.82484203577041626 0.14082859456539154
0.41811341047286987 0.82158964872360229 0.13743425905704498
0.51096975803375244 0.81699073314666748 0.13270425796508789
0.60909593105316162 0.81107246875762939 0.12693062424659729
0.71202355623245239 0.80421978235244751 0.11985290795564651
0.81979477405548096 0.79605895280838013 0.11191928386688232
0.93100184202194214 0.78813499212265015 0.10322956740856171
0.99899470806121826 0.78105050325393677 0.094692736864089966
1 0.77594602108001709 0.087345153093338013
0.028250211849808693 0.91209417581558228 0.13600373268127441
0.099883556365966797 0.91256129741668701 0.13903827965259552
0.17438270151615143 0.91254091262817383 0.14037181437015533
0.25253474712371826 0.91174507141113281 0.1401447057723999
0.3348793089389801 0.90953487157821655 0.13851724565029144
0.42205810546875 0.90627646446228027 0.1354057788848877
0.5141606330871582 0.9016801118850708 0.13109396398067474
0.61111158132553101 0.89596092700958252 0.12558808922767639
0.71253520250320435 0.88935995101928711 0.11889896541833878
0.81865900754928589 0.88192665576934814 0.11080911755561829
0.92839574813842773 0.87420153617858887 0.10127995908260345
0.99849778413772583 0.86747837066650391 0.091791041195392609
1 0.86261236667633057 0.083614051342010498
0.030773267149925232 0.98800337314605713 0.13115531206130981
0.10355374217033386 0.98863059282302856 0.13442711532115936
0.17871104180812836 0.98835968971252441 0.13610000908374786
0.25727367401123047 0.98772025108337402 0.13620211184024811
0.3396487832069397 0.98648792505264282 0.1346898227930069
0.42664167284965515 0.98447060585021973 0.1319432258605957
0.51837605237960815 0.98176246881484985 0.12773793935775757
0.61455690860748291 0.97809833288192749 0.12236136943101883
0.71551179885864258 0.97286921739578247 0.11546135693788528
0.82072633504867554 0.96730619668960571 0.10694371908903122
0.9283750057220459 0.96067065000534058 0.096979565918445587
0.99814724922180176 0.95443534851074219 0.087260425090789795
1 0.94983834028244019 0.078788354992866516
7.1985581598710269e-05 0.0081851435825228691 0.18021897971630096
0.025658387690782547 0.010131416842341423 0.17907774448394775
0.087413221597671509 0.01077683363109827 0.18138569593429565
0.16675564646720886 0.010399268940091133 0.18563380837440491
0.25780922174453735 0.010802339762449265 0.1880582720041275
0.35605135560035706 0.011986871249973774 0.18669354915618896
0.45877793431282043 0.013621849939227104 0.18180672824382782
0.56505703926086426 0.012536755762994289 0.1742403507232666
0.67441302537918091 0.0092539321631193161 0.16558679938316345
0.78719347715377808 0.0048450995236635208 0.15602865815162659
0.90279144048690796 0.0036002662964165211 0.14678770303726196
0.99315094947814941 0.010087166912853718 0.14157646894454956
1 0.019579838961362839 0.14335149526596069
0.00021775189088657498 0.069152936339378357 0.19611406326293945
0.030269742012023926 0.069695942103862762 0.19593974947929382
0.096942335367202759 0.070633530616760254 0.19669716060161591
0.17905126512050629 0.071518994867801666 0.19961443543434143
0.27121257781982422 0.072158128023147583 0.20087170600891113
0.36991721391677856 0.072820357978343964 0.19841289520263672
0.4720032811164856 0.072492547333240509 0.19195157289505005
0.57735598087310791 0.069110840559005737 0.1829456090927124
0.68639248609542847 0.059550430625677109 0.174014613032341
0.79942178726196289 0.04552600160241127 0.16711488366127014
0.91525506973266602 0.036872595548629761 0.16347473859786987
0.99680274724960327 0.043726034462451935 0.16164638102054596
1 0.059442557394504547 0.16011326014995575
0.0024862103164196014 0.1460372656583786 0.20756645500659943
0.041670810431241989 0.14612585306167603 0.20884031057357788
0.10889419913291931 0.14746332168579102 0.21020491421222687
0.1913340836763382 0.14874419569969177 0.21224522590637207
0.28424030542373657 0.14798806607723236 0.21262796223163605
0.38286110758781433 0.14618611335754395 0.20879068970680237
0.4841187596321106 0.14442376792430878 0.2007589191198349
0.58862602710723877 0.13884581625461578 0.19141218066215515
0.69782400131225586 0.12782509624958038 0.18306681513786316
0.81061774492263794 0.11248240619897842 0.17807357013225555
0.92635595798492432 0.10136891156435013 0.17698414623737335
0.99863505363464355 0.10376486927270889 0.17601200938224792
1 0.11585234105587006 0.17287835478782654
0.0058922111056745052 0.22841522097587585 0.21539808809757233
0.053416412323713303 0.22975084185600281 0.21779339015483856
0.12075404822826385 0.2319820374250412 0.22010263800621033
0.20188653469085693 0.23351144790649414 0.2218618243932724
0.29389452934265137 0.23110491037368774 0.22094950079917908
0.39190340042114258 0.22747771441936493 0.21610645949840546
0.49292260408401489 0.22330541908740997 0.20804838836193085
0.59745210409164429 0.21708601713180542 0.19879662990570068
0.7063567042350769 0.20729854702949524 0.19106237590312958
0.81944805383682251 0.1952802985906601 0.18627449870109558
0.93367570638656616 0.18651106953620911 0.18428663909435272
0.99983149766921997 0.18478436768054962 0.18279846012592316
1 0.18888765573501587 0.17995046079158783
0.0086978692561388016 0.31339007616043091 0.22102329134941101
0.061932850629091263 0.31569015979766846 0.22384275496006012
0.13066960871219635 0.3180679976940155 0.22612045705318451
0.21060386300086975 0.31876596808433533 0.22709283232688904
0.30052715539932251 0.31661009788513184 0.22527900338172913
0.39712467789649963 0.31224513053894043 0.22021596133708954
0.49794882535934448 0.30694243311882019 0.21276991069316864
0.60284292697906494 0.30012816190719604 0.2044864296913147
0.71163904666900635 0.29156649112701416 0.19726626574993134
0.82422071695327759 0.28246155381202698 0.1921379417181015
0.93770337104797363 0.27530074119567871 0.18880049884319305
1 0.27099770307540894 0.1862872987985611
1 0.26977640390396118 0.18288601934909821
0.011179217137396336 0.39883190393447876 0.22515468299388885
0.06867663562297821 0.4015878438949585 0.22758306562900543
