assets/lut/alexjordan bleech bypass green.cube
# Created by: G'MIC (https://gmic.eu)
TITLE "bleech_bypass_green"
# LUT size
LUT_3D_SIZE 7
# Data domain
DOMAIN_MIN 0.0 0.0 0.0
DOMAIN_MAX 1.0 1.0 1.0
# LUT data points
0.008114788681268692 0.0080101462081074715 0.006762815173715353
0.030345708131790161 0.010169743560254574 0.0045166313648223877
0.064705252647399902 0.010210298933088779 0.0062980051152408123
0.15026244521141052 0.01427250262349844 0.0097543010488152504
0.44337606430053711 0.012878657318651676 0.0069424798712134361
0.73336762189865112 0.014305862598121166 0.0095661533996462822
0.9829554557800293 0.021571185439825058 0.016572242602705956
0.01117814052850008 0.059696093201637268 0.0085006263107061386
0.06348814070224762 0.07656676322221756 0.0095390770584344864
0.13114990293979645 0.084754690527915955 0.010652818717062473
0.25265371799468994 0.0983567014336586 0.012415507808327675
0.51594382524490356 0.11116255074739456 0.012741073966026306
0.76606565713882446 0.12756328284740448 0.014992134645581245
0.98384809494018555 0.14994886517524719 0.023167001083493233
0.012873211875557899 0.18346145749092102 0.0091273291036486626
0.097420848906040192 0.20960251986980438 0.012667622417211533
0.20309124886989594 0.23274798691272736 0.015998316928744316
0.35869494080543518 0.25762298703193665 0.017260922119021416
0.58665460348129272 0.28150543570518494 0.018128832802176476
0.80038398504257202 0.30630618333816528 0.020202428102493286
0.98316198587417603 0.33225247263908386 0.025119347497820854
0.021498436108231544 0.39032688736915588 0.01777922734618187
0.13926346600055695 0.43045270442962646 0.02070961706340313
0.28985732793807983 0.45491883158683777 0.022380275651812553
0.46979275345802307 0.49251049757003784 0.02374776266515255
0.66311836242675781 0.52299731969833374 0.025005953386425972
0.83470308780670166 0.55431926250457764 0.024206483736634254
0.98400098085403442 0.57971274852752686 0.026841390877962112
0.026352228596806526 0.66754722595214844 0.021569928154349327
0.18208511173725128 0.69179588556289673 0.024867009371519089
0.37456271052360535 0.70465379953384399 0.026161851361393929
0.57712662220001221 0.7285277247428894 0.027788050472736359
0.74047422409057617 0.75394833087921143 0.031053056940436363
0.87434291839599609 0.77629327774047852 0.031565677374601364
0.9914085865020752 0.79589825868606567 0.039046760648488998
0.04186350479722023 0.87022948265075684 0.034337691962718964
0.23533105850219727 0.88577866554260254 0.033354859799146652
0.45636579394340515 0.89045286178588867 0.031981270760297775
0.68315869569778442 0.89531064033508301 0.028535850346088409
0.8171125054359436 0.90887969732284546 0.03013642318546772
0.91979575157165527 0.92255973815917969 0.039973001927137375
0.99980521202087402 0.93093013763427734 0.065359659492969513
0.086997479200363159 0.99245226383209229 0.060122322291135788
0.31378921866416931 0.99741679430007935 0.05883624404668808
0.57175940275192261 0.99681788682937622 0.051638435572385788
0.80597257614135742 0.9947018027305603 0.042009748518466949
0.90404021739959717 0.99804490804672241 0.049339741468429565
0.9789201021194458 0.99997663497924805 0.072961233556270599
1 1 0.11057434231042862
0.0039789089933037758 0.0062104915268719196 0.01374531164765358
0.028009586036205292 0.011031460948288441 0.023909879848361015
0.074188098311424255 0.014059627428650856 0.033822033554315567
0.16153712570667267 0.016456229612231255 0.044520821422338486
0.46125748753547668 0.016806928440928459 0.058311209082603455
0.7382814884185791 0.016448734328150749 0.071203656494617462
0.98010212182998657 0.020132850855588913 0.082183361053466797
0.010746076703071594 0.066524341702461243 0.045785568654537201
0.066038809716701508 0.082830123603343964 0.057434562593698502
0.14394982159137726 0.093667514622211456 0.068321049213409424
0.27131813764572144 0.10747272521257401 0.079568974673748016
0.52739274501800537 0.12017364799976349 0.09000638872385025
0.76771634817123413 0.13204643130302429 0.099463008344173431
0.98320060968399048 0.15178398787975311 0.11973092705011368
0.012992380186915398 0.19584943354129791 0.076752953231334686
0.10236655175685883 0.2204606682062149 0.091088540852069855
0.21849799156188965 0.24677619338035583 0.10502137988805771
0.37444037199020386 0.27030482888221741 0.11425504833459854
0.59817445278167725 0.29225847125053406 0.1239200085401535
0.80644434690475464 0.31540808081626892 0.13731507956981659
0.98481673002243042 0.34891781210899353 0.1536865234375
0.022455014288425446 0.40301370620727539 0.11818502098321915
0.14577558636665344 0.43926075100898743 0.13283030688762665
0.30049940943717957 0.47739365696907043 0.14376150071620941
0.48300355672836304 0.50445163249969482 0.15423962473869324
0.67287522554397583 0.53630518913269043 0.16530992090702057
0.84397441148757935 0.56764024496078491 0.1758764237165451
0.98757082223892212 0.60218995809555054 0.18728174269199371
0.025620734319090843 0.67886370420455933 0.15445663034915924
0.18783886730670929 0.70248997211456299 0.16971474885940552
0.38953569531440735 0.72425383329391479 0.18218792974948883
0.60003316402435303 0.74344193935394287 0.19754484295845032
0.75456827878952026 0.76524847745895386 0.20987695455551147
0.88426071405410767 0.78421235084533691 0.21801969408988953
0.99380272626876831 0.80503755807876587 0.23381239175796509
0.028811242431402206 0.87623721361160278 0.19865453243255615
0.23094560205936432 0.89430052042007446 0.20991341769695282
0.470621258020401 0.9028247594833374 0.21969977021217346
0.69937396049499512 0.90847474336624146 0.23452180624008179
0.82579630613327026 0.91840451955795288 0.24819985032081604
0.91997188329696655 0.92752063274383545 0.2534089982509613
0.9985884428024292 0.93727093935012817 0.27874347567558289
0.054821822792291641 0.99333482980728149 0.24896858632564545
0.29512956738471985 0.99816644191741943 0.26587614417076111
0.56880789995193481 0.99852943420410156 0.27343794703483582
0.80267316102981567 0.99778622388839722 0.27893245220184326
0.90872526168823242 0.99901878833770752 0.29434695839881897
0.97003853321075439 0.99971705675125122 0.30981382727622986
1 1 0.34404450654983521
0.0062289666384458542 0.0071095484308898449 0.034959621727466583
0.03458404541015625 0.0089963730424642563 0.050729312002658844
0.083977237343788147 0.01118736993521452 0.069641426205635071
0.17549411952495575 0.016147224232554436 0.094843126833438873
0.46883931756019592 0.019683299586176872 0.11731721460819244
0.74139010906219482 0.019948488101363182 0.1347748339176178
0.97954040765762329 0.019485637545585632 0.14893312752246857
0.0092582553625106812 0.071706525981426239 0.097277730703353882
0.072561196982860565 0.086582854390144348 0.11917923390865326
0.15899977087974548 0.1008763462305069 0.14074425399303436
0.2869914174079895 0.1135481595993042 0.16200901567935944
0.5417027473449707 0.1265755295753479 0.18257345259189606
0.77972793579101562 0.13710904121398926 0.20462040603160858
0.98377120494842529 0.15066002309322357 0.23286890983581543
0.015021949075162411 0.20685210824012756 0.16482396423816681
0.11183881759643555 0.23245462775230408 0.18713432550430298
0.2337358295917511 0.25931864976882935 0.21295362710952759
0.39212557673454285 0.28084400296211243 0.23517376184463501
0.60840499401092529 0.30335962772369385 0.25516980886459351
0.81297588348388672 0.32696783542633057 0.28031903505325317
0.98563110828399658 0.35435482859611511 0.30765986442565918
0.023334458470344543 0.42231738567352295 0.2376684844493866
0.15356695652008057 0.45605483651161194 0.26492074131965637
0.3135407567024231 0.49242836236953735 0.29094734787940979
0.49756920337677002 0.51894152164459229 0.31550359725952148
0.68151062726974487 0.552013099193573 0.33600124716758728
0.84792846441268921 0.58451199531555176 0.36011961102485657
0.98853498697280884 0.61216902732849121 0.38210970163345337
0.024966908618807793 0.68545794486999512 0.32098287343978882
0.1943553239107132 0.71029645204544067 0.34870791435241699
0.39872580766677856 0.7338443398475647 0.37568536400794983
0.60819870233535767 0.75342226028442383 0.40506795048713684
0.76458066701889038 0.77553468942642212 0.42769443988800049
0.88983744382858276 0.798240065574646 0.44257831573486328
0.99348485469818115 0.81947201490402222 0.46940600872039795
0.026404032483696938 0.87525814771652222 0.40588003396987915
0.23719723522663116 0.89303457736968994 0.43008443713188171
0.47844824194908142 0.90571701526641846 0.44932371377944946
0.71581131219863892 0.91239732503890991 0.48594599962234497
0.8424256443977356 0.92217922210693359 0.51408368349075317
0.92587786912918091 0.93231934309005737 0.52032816410064697
0.99569857120513916 0.94519293308258057 0.54476112127304077
0.042740315198898315 0.99015176296234131 0.48888418078422546
0.28879597783088684 0.99551475048065186 0.52896380424499512
0.57115018367767334 0.99702787399291992 0.54638499021530151
0.83781278133392334 0.99588054418563843 0.5615764856338501
0.92522203922271729 0.99847733974456787 0.59097230434417725
0.96799772977828979 0.99802184104919434 0.61328154802322388
0.99965983629226685 0.99889862537384033 0.64086312055587769
0.0059510772116482258 0.0077205882407724857 0.081999339163303375
0.039439525455236435 0.012683524750173092 0.11348655819892883
0.092711128294467926 0.014617201872169971 0.14024354517459869
0.19782714545726776 0.017278470098972321 0.17397674918174744
0.47334405779838562 0.020458923652768135 0.21020828187465668
0.7436676025390625 0.02242647111415863 0.23003388941287994
0.98329323530197144 0.024907086044549942 0.25817283987998962
0.010070157237350941 0.076632663607597351 0.17669488489627838
0.077038362622261047 0.091972604393959045 0.21047861874103546
0.16828551888465881 0.10612214356660843 0.24497129023075104
0.29903611540794373 0.12079004198312759 0.26992017030715942
0.54754984378814697 0.13429716229438782 0.30471038818359375
0.78562319278717041 0.14462023973464966 0.34047588706016541
0.98620915412902832 0.15639553964138031 0.37466734647750854
0.016262488439679146 0.21798877418041229 0.28177329897880554
0.11823480576276779 0.24127568304538727 0.31443420052528381
0.24583768844604492 0.27042895555496216 0.34495639801025391
0.402395099401474 0.29216983914375305 0.37811830639839172
0.61624038219451904 0.31357687711715698 0.41182783246040344
0.81682151556015015 0.33894944190979004 0.44519901275634766
0.98560386896133423 0.35945838689804077 0.47856736183166504
0.024376004934310913 0.43548160791397095 0.38879171013832092
0.15952777862548828 0.46865934133529663 0.42391344904899597
0.32399812340736389 0.50116968154907227 0.45763087272644043
0.50948655605316162 0.53021442890167236 0.4893171489238739
0.69137823581695557 0.56341248750686646 0.51878994703292847
0.85231912136077881 0.5965161919593811 0.55526053905487061
0.98850327730178833 0.61811292171478271 0.58546346426010132
0.027882624417543411 0.69950419664382935 0.49847897887229919
0.19835430383682251 0.72108709812164307 0.53704977035522461
0.40509924292564392 0.74061036109924316 0.57447677850723267
0.6203618049621582 0.76143968105316162 0.60599863529205322
0.77330130338668823 0.78411024808883667 0.63595819473266602
0.89397943019866943 0.8062140941619873 0.6659705638885498
0.99339479207992554 0.82628786563873291 0.7035750150680542
0.030610822141170502 0.88200682401657104 0.60925883054733276
0.23934578895568848 0.89883661270141602 0.64712870121002197
0.48560786247253418 0.90848809480667114 0.68183004856109619
0.73551821708679199 0.91540610790252686 0.72214740514755249
0.84722203016281128 0.92617911100387573 0.75817060470581055
0.93161749839782715 0.93766319751739502 0.77782726287841797
0.99552911520004272 0.94908171892166138 0.82885104417800903
0.049295805394649506 0.99177414178848267 0.71735626459121704
0.29347226023674011 0.99596339464187622 0.76578330993652344
0.56942790746688843 0.99587529897689819 0.80856549739837646
0.85352730751037598 0.99580472707748413 0.84333509206771851
0.92286109924316406 0.99765670299530029 0.86885416507720947
0.97372877597808838 0.99769681692123413 0.90987706184387207
0.99739688634872437 0.99773281812667847 0.94201648235321045
0.0047394847497344017 0.0065703894942998886 0.36786523461341858
0.036546729505062103 0.0081219393759965897 0.38349243998527527
0.08911711722612381 0.011426005512475967 0.41234129667282104
0.21688799560070038 0.015473159961402416 0.44206076860427856
0.4843953549861908 0.017839094623923302 0.45938906073570251
0.75206607580184937 0.018410926684737206 0.48698028922080994
0.98336094617843628 0.022529467940330505 0.49443855881690979
0.012238476425409317 0.082606688141822815 0.45044344663619995
0.081396199762821198 0.09667205810546875 0.46760374307632446
0.17428441345691681 0.10996370762586594 0.49728107452392578
0.31865060329437256 0.12462406605482101 0.51437282562255859
0.55750519037246704 0.13712850213050842 0.53091299533843994
0.79114645719528198 0.14779630303382874 0.55449169874191284
0.98668426275253296 0.16247878968715668 0.57400453090667725
0.018743762746453285 0.22749994695186615 0.51783889532089233
0.12409664690494537 0.25345781445503235 0.53667312860488892
0.25605487823486328 0.28072062134742737 0.56233644485473633
0.42335668206214905 0.3033193051815033 0.5859224796295166
0.62876123189926147 0.32481318712234497 0.60677748918533325
0.82205522060394287 0.3507026731967926 0.62824881076812744
0.98564046621322632 0.37114664912223816 0.65438497066497803
0.025544289499521255 0.4472295343875885 0.59134721755981445
0.16598904132843018 0.48639026284217834 0.61375421285629272
0.33376973867416382 0.51925313472747803 0.63952052593231201
0.52169167995452881 0.54717451333999634 0.66599398851394653
0.70268750190734863 0.57698583602905273 0.6869397759437561
0.85798466205596924 0.60754299163818359 0.70783287286758423
0.9877123236656189 0.63413286209106445 0.73227250576019287
0.02964407205581665 0.70400798320770264 0.66989046335220337
0.20533247292041779 0.73374980688095093 0.69846802949905396
0.4154013991355896 0.75542598962783813 0.72291731834411621
0.62848496437072754 0.77383506298065186 0.74803769588470459
0.78084510564804077 0.7937161922454834 0.77048826217651367
0.8980366587638855 0.81192576885223389 0.79078257083892822
0.99185073375701904 0.83494222164154053 0.8152087926864624
0.034246020019054413 0.8894081711769104 0.7507551908493042
0.24397195875644684 0.90451133251190186 0.78192323446273804
0.49233877658843994 0.91505640745162964 0.80482012033462524
0.74056941270828247 0.92197233438491821 0.82595860958099365
0.85411727428436279 0.93257790803909302 0.8503527045249939
0.93452584743499756 0.93976837396621704 0.86872315406799316
0.99485123157501221 0.95007902383804321 0.88975000381469727
0.054253119975328445 0.99544268846511841 0.82847952842712402
0.29829728603363037 0.99546569585800171 0.85984593629837036
0.58941036462783813 0.99698430299758911 0.88569003343582153
0.86451137065887451 0.99657106399536133 0.90199679136276245
0.9385104775428772 0.99842333793640137 0.93351197242736816
0.97548770904541016 0.99774837493896484 0.95205229520797729
0.99922311305999756 0.99898982048034668 0.96866744756698608
0 0.0015963685000315309 0.64594078063964844
0.013223924674093723 0.0044441972859203815 0.67248833179473877
0.079637415707111359 0.0098003912717103958 0.70433259010314941
0.23354801535606384 0.016608534380793571 0.72733181715011597
0.49350348114967346 0.018164182081818581 0.73338991403579712
0.76095074415206909 0.015793086960911751 0.74481409788131714
0.98531413078308105 0.0201124157756567 0.75299787521362305
0.0036496331449598074 0.086673066020011902 0.70926576852798462
0.070545285940170288 0.10054425895214081 0.72798162698745728
0.16800597310066223 0.11462936550378799 0.75236880779266357
0.3313136100769043 0.12918305397033691 0.76547372341156006
0.56450098752975464 0.14082643389701843 0.76751941442489624
0.79528295993804932 0.14850729703903198 0.77795982360839844
0.98684746026992798 0.16632223129272461 0.78923839330673218
0.019260182976722717 0.23623292148113251 0.75502967834472656
0.12676064670085907 0.26464042067527771 0.76626622676849365
0.26278164982795715 0.2909502387046814 0.78387987613677979
0.43760380148887634 0.31623139977455139 0.79650402069091797
0.63783234357833862 0.33717831969261169 0.80405694246292114
0.82685387134552002 0.35995373129844666 0.8135676383972168
0.98626589775085449 0.38849973678588867 0.82656389474868774
0.027018692344427109 0.45874509215354919 0.79362291097640991
0.17149686813354492 0.49857023358345032 0.80672270059585571
0.3470960259437561 0.53236287832260132 0.81970763206481934
0.53898674249649048 0.56291103363037109 0.83258503675460815
0.71260577440261841 0.59168416261672974 0.84292066097259521
0.86279082298278809 0.62056815624237061 0.8532482385635376
0.9883568286895752 0.6498720645904541 0.86586576700210571
0.031472913920879364 0.70744806528091431 0.83414018154144287
0.21217547357082367 0.73817771673202515 0.84985601902008057
0.43376225233078003 0.76111942529678345 0.86204904317855835
0.65202885866165161 0.78038245439529419 0.87485545873641968
0.78939568996429443 0.80200910568237305 0.88463675975799561
0.90291100740432739 0.8210219144821167 0.89713895320892334
0.99244022369384766 0.84108453989028931 0.90892386436462402
0.036241121590137482 0.89018911123275757 0.87390196323394775
0.25407087802886963 0.90558207035064697 0.89472436904907227
0.51394927501678467 0.91665995121002197 0.90442627668380737
0.76612019538879395 0.92273128032684326 0.91468292474746704
0.86610323190689087 0.93410176038742065 0.92470747232437134
0.94037973880767822 0.94114094972610474 0.93702000379562378
0.99457365274429321 0.95115572214126587 0.94895488023757935
0.050270408391952515 0.99598085880279541 0.91171729564666748
0.3024914562702179 0.99699753522872925 0.9344334602355957
0.60038816928863525 0.99700832366943359 0.94772833585739136
0.88189226388931274 0.99620097875595093 0.95777636766433716
0.94035500288009644 0.99698436260223389 0.97078752517700195
0.98078995943069458 0.99745047092437744 0.98062628507614136
0.99913042783737183 0.99884140491485596 0.99300938844680786
0 0.00031522862263955176 0.89860856533050537
0.0016384199261665344 0.0030828886665403843 0.93366074562072754
0.068855315446853638 0.010704818181693554 0.9662022590637207
0.22305315732955933 0.022829916328191757 0.98354333639144897
0.49366942048072815 0.024898244068026543 0.98316037654876709
0.76072400808334351 0.020146807655692101 0.98247158527374268
0.98436397314071655 0.024579500779509544 0.98358148336410522
8.9757581008598208e-05 0.089949287474155426 0.94786125421524048
0.057827968150377274 0.10439257323741913 0.96666443347930908
0.16356706619262695 0.12042378634214401 0.97942930459976196
0.33019492030143738 0.13620962202548981 0.98440998792648315
0.56042754650115967 0.15086854994297028 0.98412162065505981
0.79053682088851929 0.15736620128154755 0.98341488838195801
0.98313361406326294 0.17370860278606415 0.98402214050292969
0.015999931842088699 0.24457176029682159 0.97615605592727661
0.1266799122095108 0.27174484729766846 0.97968226671218872
0.26862367987632751 0.29694083333015442 0.98314708471298218
0.44451218843460083 0.32733902335166931 0.98400735855102539
0.64047616720199585 0.34755152463912964 0.98416930437088013
0.82693719863891602 0.3703453540802002 0.98410254716873169
0.98518389463424683 0.40638637542724609 0.98534893989562988
0.027518253773450851 0.47448316216468811 0.98333865404129028
0.17424015700817108 0.50831788778305054 0.98436683416366577
0.35829102993011475 0.53862327337265015 0.98545277118682861
0.55243194103240967 0.57369184494018555 0.98603934049606323
0.72138684988021851 0.59684973955154419 0.98647415637969971
0.86650747060775757 0.63098514080047607 0.98682224750518799
0.98985213041305542 0.66746020317077637 0.98885434865951538
0.033167552202939987 0.71871113777160645 0.98671251535415649
0.21583075821399689 0.74193596839904785 0.9889826774597168
0.44065037369728088 0.7634473443031311 0.98987960815429688
0.65718370676040649 0.78566437959671021 0.99057519435882568
0.79975205659866333 0.80670714378356934 0.99016064405441284
0.9076923131942749 0.8316991925239563 0.99145793914794922
0.99430769681930542 0.85166835784912109 0.99378341436386108
0.0378279909491539 0.88869792222976685 0.98974663019180298
0.2649085521697998 0.90569967031478882 0.99470174312591553
0.52514678239822388 0.91966593265533447 0.99453115463256836
0.75810188055038452 0.92984217405319214 0.99313724040985107
0.87497895956039429 0.94003129005432129 0.99360752105712891
0.94641107320785522 0.94902068376541138 0.9948309063911438
0.99560648202896118 0.95979225635528564 0.99561077356338501
0.04951915517449379 0.9944034218788147 0.99433386325836182
0.31928500533103943 0.99791133403778076 0.99922055006027222
0.62757915258407593 0.99823522567749023 0.99921226501464844
0.89199960231781006 0.99655449390411377 0.9967694878578186
0.95409947633743286 0.99924749135971069 0.99960219860076904
0.98560953140258789 0.99870520830154419 0.99961042404174805
0.99805057048797607 0.99773281812667847 0.9984666109085083
