assets/lut/alexjordan low key 01.cube
# Created by: G'MIC (https://gmic.eu)
TITLE "low_key_01"
# LUT size
LUT_3D_SIZE 5
# Data domain
DOMAIN_MIN 0.0 0.0 0.0
DOMAIN_MAX 1.0 1.0 1.0
# LUT data points
0.00010986327833961695 0.00039708754047751427 0
0.033284746110439301 0.018252190202474594 0.0076593435369431973
0.12030734121799469 0.042129144072532654 0.036898668855428696
0.25905904173851013 0.05219351127743721 0.052812181413173676
0.41029268503189087 0.057411015033721924 0.081048168241977692
0.066527031362056732 0.12913466989994049 0.045734122395515442
0.15753291547298431 0.15301316976547241 0.046099375933408737
0.29027116298675537 0.16194318234920502 0.053839530795812607
0.44765722751617432 0.16852959990501404 0.065587140619754791
0.62259960174560547 0.16897726058959961 0.085384160280227661
0.079611681401729584 0.30127939581871033 0.054255977272987366
0.20409685373306274 0.3183041512966156 0.053875479847192764
0.35035973787307739 0.32804811000823975 0.056968435645103455
0.50409495830535889 0.33678644895553589 0.069370940327644348
0.66269439458847046 0.34273186326026917 0.095520630478858948
0.10215340554714203 0.47572973370552063 0.075285457074642181
0.2414286732673645 0.49015712738037109 0.081651903688907623
0.38694971799850464 0.50309735536575317 0.085586071014404297
0.52994406223297119 0.51693356037139893 0.094862096011638641
0.68186736106872559 0.52569347620010376 0.1174604669213295
0.13242779672145844 0.65151429176330566 0.1039968729019165
0.27717795968055725 0.66537636518478394 0.11601707339286804
0.42264044284820557 0.67932438850402832 0.12306661903858185
0.56629067659378052 0.69374305009841919 0.13172076642513275
0.71470493078231812 0.70513880252838135 0.14951199293136597
0.003193096024915576 0.0046662874519824982 0.0033615112770348787
0.052928626537322998 0.031732372939586639 0.037769198417663574
0.14133062958717346 0.053192723542451859 0.072962984442710876
0.2720147967338562 0.062768183648586273 0.11279141157865524
0.43296030163764954 0.062621355056762695 0.153800368309021
0.066733613610267639 0.14010457694530487 0.10808295756578445
0.16246522963047028 0.1619429886341095 0.1267562210559845
0.29824298620223999 0.16949689388275146 0.15132355690002441
0.45209604501724243 0.17452618479728699 0.1786545068025589
0.60545772314071655 0.18280801177024841 0.20689034461975098
0.067126147449016571 0.31216531991958618 0.15297006070613861
0.20000691711902618 0.32671502232551575 0.16062763333320618
0.35062417387962341 0.33651155233383179 0.17234539985656738
0.50530445575714111 0.34300649166107178 0.19749538600444794
0.65802496671676636 0.35052430629730225 0.22898310422897339
0.09846699982881546 0.48369637131690979 0.19164302945137024
0.24301543831825256 0.49561017751693726 0.20200499892234802
0.39000818133354187 0.50811171531677246 0.20840847492218018
0.53455305099487305 0.52111059427261353 0.22099213302135468
0.68934327363967896 0.52936369180679321 0.24603070318698883
0.13758228719234467 0.65734827518463135 0.23063980042934418
0.28274610638618469 0.66997605562210083 0.24242565035820007
0.42836567759513855 0.68335813283920288 0.24947187304496765
0.57061421871185303 0.69928652048110962 0.25677728652954102
0.71895909309387207 0.71175837516784668 0.27428504824638367
0.013471326790750027 0.013439343310892582 0.017466945573687553
0.067858032882213593 0.040756076574325562 0.073713652789592743
0.1733262836933136 0.056791897863149643 0.13387753069400787
0.30573087930679321 0.063573114573955536 0.18633687496185303
0.46028858423233032 0.063386417925357819 0.23146362602710724
0.068922467529773712 0.14859506487846375 0.19347721338272095
0.16924262046813965 0.16591252386569977 0.22983807325363159
0.30120265483856201 0.18056987226009369 0.25566640496253967
0.45039993524551392 0.18664412200450897 0.28858637809753418
0.61056232452392578 0.18927121162414551 0.32104352116584778
0.073546707630157471 0.31565466523170471 0.28012418746948242
0.2055610865354538 0.33076190948486328 0.29140481352806091
0.35434889793395996 0.34211191534996033 0.30543205142021179
0.50188630819320679 0.35125786066055298 0.32957899570465088
0.65871989727020264 0.35631990432739258 0.35809734463691711
0.1045815572142601 0.48832783102989197 0.32125231623649597
0.24563899636268616 0.50131338834762573 0.33101952075958252
0.39332684874534607 0.5129578709602356 0.34099671244621277
0.54007965326309204 0.52436310052871704 0.35805705189704895
0.69334203004837036 0.53353554010391235 0.38146865367889404
0.14487327635288239 0.66200906038284302 0.36310237646102905
0.28871423006057739 0.67447918653488159 0.37499013543128967
0.43503460288047791 0.68603098392486572 0.38435426354408264
0.57695853710174561 0.70213896036148071 0.39292338490486145
0.72430062294006348 0.71590739488601685 0.41056373715400696
0.018645163625478745 0.025490853935480118 0.053939387202262878
0.087052755057811737 0.048959515988826752 0.13524174690246582
0.19756633043289185 0.060149714350700378 0.21727126836776733
0.33340165019035339 0.064677581191062927 0.28481835126876831
0.47024625539779663 0.070343136787414551 0.32580146193504333
0.071342319250106812 0.1574653834104538 0.29905053973197937
0.17587341368198395 0.17361579835414886 0.34784141182899475
0.30866789817810059 0.18468570709228516 0.38484510779380798
0.45550274848937988 0.193362757563591 0.41312229633331299
0.59615731239318848 0.2043919712305069 0.42962396144866943
0.080860093235969543 0.32210570573806763 0.408547043800354
0.2120860368013382 0.3362794816493988 0.42679896950721741
0.3571527898311615 0.34773918986320496 0.44146603345870972
0.5005645751953125 0.36114916205406189 0.45488232374191284
0.64753866195678711 0.37059196829795837 0.47279921174049377
0.11270231008529663 0.49476543068885803 0.45255520939826965
0.25144302845001221 0.50789868831634521 0.46640270948410034
0.39964985847473145 0.51780730485916138 0.48058411478996277
0.54312962293624878 0.53193539381027222 0.49323225021362305
0.69518876075744629 0.54017055034637451 0.52048385143280029
0.15217028558254242 0.66794371604919434 0.49926906824111938
0.29406395554542542 0.68120479583740234 0.51214349269866943
0.43935033679008484 0.69305425882339478 0.52253401279449463
0.58331286907196045 0.70632070302963257 0.53478407859802246
0.732696533203125 0.71752041578292847 0.55675005912780762
0.034557566046714783 0.034887604415416718 0.099165387451648712
0.098554544150829315 0.057654391974210739 0.20437552034854889
0.20485030114650726 0.068530261516571045 0.30175447463989258
0.3548026978969574 0.066218540072441101 0.39148539304733276
0.4972916841506958 0.068223752081394196 0.44821304082870483
0.069661848247051239 0.16546599566936493 0.41855400800704956
0.1811663806438446 0.1786767989397049 0.47665596008300781
0.31673267483711243 0.18599890172481537 0.52477025985717773
0.46628758311271667 0.19504924118518829 0.54625141620635986
0.59792435169219971 0.21092332899570465 0.55470436811447144
0.074176788330078125 0.32934805750846863 0.55922591686248779
0.21688196063041687 0.33981001377105713 0.58066052198410034
0.36352652311325073 0.35112974047660828 0.58956897258758545
0.5099940299987793 0.36371147632598877 0.59646952152252197
0.6502002477645874 0.37690573930740356 0.60559898614883423
0.11346153169870377 0.50052261352539062 0.59830182790756226
0.25472316145896912 0.51410484313964844 0.61626482009887695
0.40263888239860535 0.52530586719512939 0.62473315000534058
0.54924148321151733 0.53590530157089233 0.63762950897216797
0.69429117441177368 0.54794222116470337 0.65136128664016724
0.15508578717708588 0.67351925373077393 0.63935196399688721
0.29704189300537109 0.68835407495498657 0.65474313497543335
0.44232505559921265 0.70061010122299194 0.66434383392333984
0.58750277757644653 0.71140539646148682 0.67691594362258911
0.73357081413269043 0.72310429811477661 0.69096529483795166
