assets/lut/alexjordan green day 02.cube
# Created by: G'MIC (https://gmic.eu)
TITLE "green_day_02"
# LUT size
LUT_3D_SIZE 7
# Data domain
DOMAIN_MIN 0.0 0.0 0.0
DOMAIN_MAX 1.0 1.0 1.0
# LUT data points
0 0 0
0 0 0
0 0 0
0 0 0
0 0 0
0 0 0
0.012244849465787411 0 0
0.00079948577331379056 0 0.0012537788134068251
0 0 0
0 0 0
0.0091337915509939194 0.0024704728275537491 0.00057754514273256063
0.072391510009765625 0.013525420799851418 0.0018449072958901525
0.22491003572940826 0.017612772062420845 0.001918104593642056
0.44720053672790527 0.0090799964964389801 0
0.0084089841693639755 0.013506152667105198 0.005655371118336916
0.024791643023490906 0.043463658541440964 0.0013663647696375847
0.084266185760498047 0.080065540969371796 0.0022308498155325651
0.19155566394329071 0.10480692237615585 0.0032434351742267609
0.34720057249069214 0.12089107930660248 0.0045749889686703682
0.54829549789428711 0.12594257295131683 0
0.77305722236633301 0.13007228076457977 0.0017951217014342546
0.0095727657899260521 0.19539180397987366 0
0.058654066175222397 0.23077844083309174 0
0.1433684229850769 0.26920497417449951 0
0.27663341164588928 0.30072230100631714 0
0.44224980473518372 0.32369714975357056 0.0022021722979843616
0.62767672538757324 0.34092694520950317 0.0021520277950912714
0.83552008867263794 0.3571726381778717 0.010357082821428776
0.0047050178982317448 0.43534880876541138 0
0.067826531827449799 0.4655575156211853 0
0.1713295578956604 0.50447869300842285 0.00098947260994464159
0.31672123074531555 0.53813004493713379 0.0078574987128376961
0.49030220508575439 0.56560873985290527 0.010984682478010654
0.68545347452163696 0.59096664190292358 0.011442117393016815
0.90503549575805664 0.61960458755493164 0.030081266537308693
0.0039527742192149162 0.68257814645767212 0
0.086638294160366058 0.72177755832672119 0.00026550292386673391
0.21026098728179932 0.76678204536437988 0.011097672395408154
0.36697214841842651 0.80537599325180054 0.025307882577180862
0.5507473349571228 0.83572894334793091 0.033936087042093277
0.75695258378982544 0.86680066585540771 0.043457269668579102
0.97490006685256958 0.89611655473709106 0.06548367440700531
0.026459921151399612 0.95188069343566895 0
0.130620077252388 0.97880226373672485 0.0039968602359294891
0.26576107740402222 0.99612188339233398 0.024712147191166878
0.42789450287818909 1 0.041712474077939987
0.61609214544296265 1 0.062693305313587189
0.82442426681518555 1 0.090957880020141602
0.99867141246795654 1 0.11889556050300598
0 0 0
0 0 0
0 0 0
0 0 0
0 0 0
0 8.2576980275916867e-06 0
0.025263527408242226 0 0.002245929092168808
0 0 0
0 0 0
0.00068694469518959522 7.8089098678901792e-05 0.00035065296106040478
0.022288648411631584 0.0057575302198529243 0.0061591803096234798
0.1078212633728981 0.019011164084076881 0.017978817224502563
0.27376267313957214 0.021396651864051819 0.022075338289141655
0.50130105018615723 0.011249796487390995 0.016933217644691467
0.0045810174196958542 0.021482909098267555 0.010170596651732922
0.035401947796344757 0.055789198726415634 0.021977219730615616
0.10040293633937836 0.091181814670562744 0.031234173104166985
0.21032889187335968 0.11561382561922073 0.03389802947640419
0.36543706059455872 0.12980915606021881 0.03713652491569519
0.56578701734542847 0.13506019115447998 0.029982354491949081
0.78231132030487061 0.14082701504230499 0.036739781498908997
0.0080830594524741173 0.2110925018787384 0.015268856659531593
0.054526623338460922 0.2484876960515976 0.022615514695644379
0.14199253916740417 0.28867554664611816 0.019227016717195511
0.2826867401599884 0.31567880511283875 0.038145687431097031
0.45328447222709656 0.33415833115577698 0.056832857429981232
0.6345144510269165 0.35227081179618835 0.060554862022399902
0.84268969297409058 0.36910727620124817 0.075011022388935089
0.0020472956821322441 0.44553136825561523 0.014713511802256107
0.061568751931190491 0.48383155465126038 0.031432673335075378
0.17017444968223572 0.52480298280715942 0.05052674189209938
0.3238716721534729 0.55416417121887207 0.077767208218574524
0.50295072793960571 0.57880765199661255 0.099541142582893372
0.70047235488891602 0.60455423593521118 0.10930395871400833
0.92214000225067139 0.62609410285949707 0.12835709750652313
0.0022282919380813837 0.69240349531173706 0.025999495759606361
0.08438543975353241 0.74088156223297119 0.05834776908159256
0.21449252963066101 0.78564882278442383 0.094450213015079498
0.37924954295158386 0.81514638662338257 0.12681145966053009
0.56770861148834229 0.84445333480834961 0.1528601348400116
0.77359992265701294 0.88468015193939209 0.16894777119159698
0.98333752155303955 0.90489786863327026 0.18833824992179871
0.018089892342686653 0.96479171514511108 0.043194565922021866
0.1284467875957489 0.98930376768112183 0.089766755700111389
0.27129536867141724 0.99925035238265991 0.1322174072265625
0.44139805436134338 1 0.1640697717666626
0.63343840837478638 1 0.19475063681602478
0.83808964490890503 1 0.2238723486661911
0.99940204620361328 1 0.248467817902565
0 0 0
0 0 0
0 0 0
0 0 0
0 0 0
0.00078160903649404645 0 0.00021541820024140179
0.05371011421084404 0 0.010386149398982525
0 0 0
0 0 0
0.0035421035718172789 0.0011916965013369918 0.0035764058120548725
0.040023744106292725 0.011214566417038441 0.024900324642658234
0.1362316906452179 0.024133883416652679 0.053265664726495743
0.31944733858108521 0.023128988221287727 0.080786943435668945
0.55674314498901367 0.0085214199498295784 0.089948348701000214
0.0073871240019798279 0.034401733428239822 0.030191758647561073
0.040874000638723373 0.07000463455915451 0.064432956278324127
0.10981138795614243 0.10214649140834808 0.094741478562355042
0.22132554650306702 0.12497548013925552 0.1143757551908493
0.37501806020736694 0.14067600667476654 0.12661831080913544
0.57277160882949829 0.14830601215362549 0.13322515785694122
0.79432898759841919 0.15209567546844482 0.14247381687164307
0.0079762628301978111 0.22464190423488617 0.07874666154384613
0.051567886024713516 0.26559928059577942 0.10432074964046478
0.14794088900089264 0.30101767182350159 0.12640918791294098
0.29334539175033569 0.32653814554214478 0.14863070845603943
0.46030262112617493 0.34785228967666626 0.16537563502788544
0.64208447933197021 0.36597949266433716 0.17594698071479797
0.85572314262390137 0.38260042667388916 0.19366723299026489
0.0075857276096940041 0.45887839794158936 0.093819640576839447
0.068569839000701904 0.501617431640625 0.12694098055362701
0.18044683337211609 0.54000866413116455 0.15993443131446838
0.33752477169036865 0.56808215379714966 0.19194324314594269
0.51510423421859741 0.59333854913711548 0.21778093278408051
0.71064728498458862 0.61475425958633423 0.23519375920295715
0.93489772081375122 0.63919448852539062 0.25552013516426086
0.012237982824444771 0.70673507452011108 0.13365162909030914
0.099593475461006165 0.76108241081237793 0.17074446380138397
0.22980833053588867 0.80189722776412964 0.2120453417301178
0.39554950594902039 0.82751715183258057 0.24838200211524963
0.58263063430786133 0.85705214738845825 0.27864331007003784
0.78612792491912842 0.89688706398010254 0.29923143982887268
0.98417109251022339 0.92941045761108398 0.32114383578300476
0.021302750334143639 0.97575491666793823 0.16905577480792999
0.13804478943347931 0.99586468935012817 0.21779355406761169
0.2858130931854248 1 0.26316684484481812
0.46011689305305481 1 0.29974657297134399
0.65522724390029907 1 0.33279898762702942
0.86023509502410889 1 0.3606829047203064
0.99984276294708252 1 0.38702914118766785
0 0 0
0 0 0
0 0 0
0 0 0
0 0 0
0.0072722639888525009 9.0834670118056238e-05 0.0039782803505659103
0.099535755813121796 0 0.035218361765146255
0 0 0
8.9757586465566419e-06 0 0
0.008229394443333149 0.0043559353798627853 0.012382627464830875
0.060147903859615326 0.017643842846155167 0.054721474647521973
0.18149577081203461 0.025139708071947098 0.1127018928527832
0.36207738518714905 0.021208759397268295 0.16014695167541504
0.60924303531646729 0.0055067175999283791 0.19946371018886566
0.014020359143614769 0.050160262733697891 0.081274338066577911
0.046371985226869583 0.082484915852546692 0.13367123901844025
0.11522753536701202 0.11095055937767029 0.18115384876728058
0.23334936797618866 0.13206474483013153 0.21815142035484314
0.40051233768463135 0.14423996210098267 0.24911107122898102
0.59030306339263916 0.15494202077388763 0.26418629288673401
0.8253515362739563 0.15440048277378082 0.28222781419754028
0.0054601184092462063 0.23406301438808441 0.2007737010717392
0.05584494024515152 0.27584779262542725 0.23244455456733704
0.15520384907722473 0.3091881275177002 0.26100394129753113
0.30143773555755615 0.33595478534698486 0.28427249193191528
0.46767297387123108 0.35992327332496643 0.30161577463150024
0.65187281370162964 0.37716886401176453 0.31726774573326111
0.87377738952636719 0.39265310764312744 0.33710610866546631
0.0070932423695921898 0.46652704477310181 0.23527328670024872
0.074988313019275665 0.51085269451141357 0.26741892099380493
0.19337143003940582 0.54682964086532593 0.30276140570640564
0.35192698240280151 0.57731831073760986 0.33337384462356567
0.52721041440963745 0.60608303546905518 0.35761898756027222
0.72190898656845093 0.63174152374267578 0.37976807355880737
0.94516223669052124 0.66032379865646362 0.40163600444793701
0.015176570974290371 0.7214006781578064 0.27710345387458801
0.10904087871313095 0.77038776874542236 0.31191131472587585
0.24469591677188873 0.80939620733261108 0.35312575101852417
0.41230809688568115 0.84015113115310669 0.38937026262283325
0.59901434183120728 0.87079298496246338 0.41950210928916931
0.80028080940246582 0.92559599876403809 0.44510293006896973
0.99362516403198242 0.93492811918258667 0.46857711672782898
0.020878465846180916 0.98373317718505859 0.32197174429893494
0.14358121156692505 0.9970855712890625 0.36307767033576965
0.29754772782325745 1 0.40688532590866089
0.4765360951423645 1 0.44518738985061646
0.67556548118591309 1 0.47882765531539917
0.88598954677581787 1 0.50873076915740967
1 1 0.53690880537033081
0 0 0
0 0 0
0 0 0
0 0 0
2.8722427032334963e-06 0 1.5079273907758761e-05
0.022466517984867096 7.7191521995700896e-05 0.016756139695644379
0.15215468406677246 0 0.082649245858192444
0 0 0
0.00075949874008074403 0.0006078084115870297 0.0013873530551791191
0.017452718690037727 0.0095955496653914452 0.036262001842260361
0.087936848402023315 0.021526051685214043 0.11924070119857788
0.21506337821483612 0.025728069245815277 0.20431962609291077
0.39701229333877563 0.019663283601403236 0.26634982228279114
0.63580840826034546 0.0092812180519104004 0.32454487681388855
0.013728616759181023 0.059687115252017975 0.14131227135658264
0.047562737017869949 0.092459417879581451 0.2301885187625885
0.12463356554508209 0.11876983940601349 0.3040015697479248
0.25078463554382324 0.13656386733055115 0.35542386770248413
0.41687363386154175 0.14770917594432831 0.39302900433540344
0.6050683856010437 0.15690016746520996 0.41162055730819702
0.81159085035324097 0.17094948887825012 0.42341709136962891
0.0032575121149420738 0.24783653020858765 0.34097081422805786
0.053700316697359085 0.28482341766357422 0.37913230061531067
0.16151696443557739 0.31746119260787964 0.41585317254066467
0.31092920899391174 0.34567427635192871 0.43311893939971924
0.47739601135253906 0.36794951558113098 0.44998714327812195
0.66284382343292236 0.38481542468070984 0.46759709715843201
0.87153053283691406 0.40800276398658752 0.48357114195823669
0.0052711185999214649 0.47898340225219727 0.3855786919593811
0.077043287456035614 0.51905959844589233 0.41887229681015015
0.2028459757566452 0.55545079708099365 0.45850959420204163
0.36470595002174377 0.59165483713150024 0.48675394058227539
0.54241472482681274 0.62369811534881592 0.51068282127380371
0.73300832509994507 0.64501309394836426 0.53201049566268921
0.95139223337173462 0.67308628559112549 0.55309569835662842
0.015165680088102818 0.73616141080856323 0.43186283111572266
0.11455707997083664 0.77909654378890991 0.46662285923957825
0.25646895170211792 0.82065749168395996 0.50925707817077637
0.4241960346698761 0.86766481399536133 0.54383707046508789
0.61181819438934326 0.903614342212677 0.5729982852935791
0.8161504864692688 0.93782210350036621 0.60027968883514404
0.99230605363845825 0.94808429479598999 0.62566632032394409
0.024841457605361938 0.98861956596374512 0.48191913962364197
0.15028136968612671 0.99842298030853271 0.52153992652893066
0.30753904581069946 1 0.56473958492279053
0.48660463094711304 1 0.60249084234237671
0.6881212592124939 1 0.63539868593215942
0.90205568075180054 1 0.66615074872970581
1 1 0.6962428092956543
0 0 0
0 0 0
0 0 0
0 0 0
0.0020490458700805902 0 0.0029756135772913694
0.055987056344747543 0.00011007271677954122 0.053067766129970551
0.21240811049938202 0 0.15792959928512573
0 0 0
0.0032510645687580109 0.003148755757138133 0.013197850435972214
0.028457820415496826 0.015433621592819691 0.083234034478664398
0.10722615569829941 0.024846544489264488 0.19340695440769196
0.24128204584121704 0.025225665420293808 0.31135791540145874
0.43474000692367554 0.014684265479445457 0.40708792209625244
0.68451839685440063 0.0088466424494981766 0.48609277606010437
0.013444204814732075 0.069611102342605591 0.23181240260601044
0.047640334814786911 0.098554976284503937 0.35248038172721863
0.13039408624172211 0.12367565929889679 0.44768926501274109
0.25968024134635925 0.14192971587181091 0.5070260763168335
0.42772263288497925 0.14886531233787537 0.55885410308837891
0.61982202529907227 0.15562516450881958 0.58685308694839478
0.81384754180908203 0.18014392256736755 0.58596032857894897
0.0021280476357787848 0.25141602754592896 0.49944940209388733
0.054650086909532547 0.28659176826477051 0.54032284021377563
0.16718946397304535 0.32280540466308594 0.58258265256881714
0.31733733415603638 0.35481908917427063 0.5936509370803833
0.49412548542022705 0.37038952112197876 0.62632280588150024
0.68043559789657593 0.38911405205726624 0.64403575658798218
0.87692195177078247 0.41901221871376038 0.65125304460525513
0.0073958453722298145 0.48748511075973511 0.5575486421585083
0.080687157809734344 0.52565449476242065 0.58407986164093018
0.20922215282917023 0.56336826086044312 0.62299066781997681
0.37235760688781738 0.59933203458786011 0.64896738529205322
0.5559963583946228 0.62995237112045288 0.67883485555648804
0.74633705615997314 0.65485602617263794 0.69972443580627441
0.9553564190864563 0.68381845951080322 0.71986687183380127
0.019602382555603981 0.75234973430633545 0.59936344623565674
0.12266279011964798 0.78831678628921509 0.63567435741424561
0.26624825596809387 0.82933253049850464 0.67864525318145752
0.43293750286102295 0.87633222341537476 0.71290820837020874
0.61950004100799561 0.91052711009979248 0.74249947071075439
0.82879924774169922 0.94286990165710449 0.76965975761413574
0.99739545583724976 0.9634782075881958 0.79639279842376709
0.036217335611581802 0.99279576539993286 0.65147924423217773
0.16334547102451324 0.99942934513092041 0.69318282604217529
0.31956493854522705 1 0.73695260286331177
0.49504441022872925 1 0.77497416734695435
0.68956822156906128 1 0.80653661489486694
0.91014063358306885 0.99947607517242432 0.83625918626785278
1 1 0.86562991142272949
0 0 0
0 0 0
0 0 0
0 0 0
0.010789160616695881 0 0.022081382572650909
0.098192699253559113 0 0.12089501321315765
0.27921119332313538 0.00035394408041611314 0.26031434535980225
6.8215762439649552e-05 0 0.00077012006659060717
0.006083799060434103 0.0055146161466836929 0.042555324733257294
0.046046670526266098 0.017865812405943871 0.16625817120075226
0.13335904479026794 0.026745440438389778 0.31352227926254272
0.26922738552093506 0.025001734495162964 0.43892747163772583
0.4794183075428009 0.0077692968770861626 0.58617943525314331
0.71791666746139526 0.0075685838237404823 0.66719251871109009
0.01787719689309597 0.081932380795478821 0.35467660427093506
0.050508029758930206 0.10598817467689514 0.5046265721321106
0.14372415840625763 0.12772221863269806 0.612396240234375
0.27912041544914246 0.14453093707561493 0.68845337629318237
0.44743078947067261 0.1512550413608551 0.73498111963272095
0.64826864004135132 0.15241096913814545 0.78139221668243408
0.83889216184616089 0.17524069547653198 0.78355222940444946
0.0076730465516448021 0.26291096210479736 0.68490713834762573
0.066158115863800049 0.2957453727722168 0.71609628200531006
0.18127751350402832 0.32986283302307129 0.75898170471191406
0.33350390195846558 0.3596949577331543 0.77516412734985352
0.51617223024368286 0.37362048029899597 0.81725829839706421
0.70712709426879883 0.39446517825126648 0.83940494060516357
0.89873874187469482 0.42656859755516052 0.84512233734130859
0.015745364129543304 0.50010842084884644 0.75208902359008789
0.096033461391925812 0.53557199239730835 0.76925349235534668
0.22381201386451721 0.57292330265045166 0.80350100994110107
0.38559749722480774 0.60624402761459351 0.8295862078666687
0.57030647993087769 0.63443773984909058 0.86396867036819458
0.76252692937850952 0.66709297895431519 0.88554584980010986
0.96673649549484253 0.69962191581726074 0.90563315153121948
0.0367099829018116 0.76043111085891724 0.78697425127029419
0.1407664567232132 0.79582184553146362 0.82204699516296387
0.28006818890571594 0.83785790205001831 0.86015170812606812
0.44659113883972168 0.88691562414169312 0.89647805690765381
0.6320948600769043 0.92629802227020264 0.92626631259918213
0.84010499715805054 0.95157915353775024 0.95384138822555542
0.99919557571411133 0.97462195158004761 0.97640985250473022
0.064358606934547424 0.99194413423538208 0.83119183778762817
0.18747721612453461 0.99945265054702759 0.87499266862869263
0.33894294500350952 1 0.9182625412940979
0.51201492547988892 1 0.957497239112854
0.70486903190612793 1 0.98279422521591187
0.92208200693130493 1 0.99642771482467651
1 0.99920558929443359 0.99986428022384644
