assets/lut/alexjordan magenta day.cube
# Created by: G'MIC (https://gmic.eu)
TITLE "magenta_day"
# LUT size
LUT_3D_SIZE 5
# Data domain
DOMAIN_MIN 0.0 0.0 0.0
DOMAIN_MAX 1.0 1.0 1.0
# LUT data points
0.0014715456636622548 0.0014363457448780537 0.0007263332954607904
0.071295611560344696 0.00034502815105952322 0.0016428779345005751
0.19324374198913574 4.0929458918981254e-05 0.00057444855337962508
0.33810597658157349 0.0012973560951650143 0.00052310718456283212
0.49653655290603638 0.0062361476011574268 0.0031475143041461706
0.024080926552414894 0.10093093663454056 0.024513259530067444
0.12793336808681488 0.11898622661828995 0.044321667402982712
0.26371011137962341 0.1329764723777771 0.056420359760522842
0.41917139291763306 0.14969563484191895 0.068595170974731445
0.58632177114486694 0.1647050529718399 0.092255763709545135
0.068792305886745453 0.28251180052757263 0.069321967661380768
0.19265584647655487 0.30546259880065918 0.099335901439189911
0.33836627006530762 0.32879084348678589 0.12540274858474731
0.50198888778686523 0.35107859969139099 0.14687784016132355
0.67667460441589355 0.37244701385498047 0.1735687255859375
0.12991569936275482 0.50287234783172607 0.12393441051244736
0.26205575466156006 0.52936601638793945 0.16000856459140778
0.40957677364349365 0.55856108665466309 0.19577169418334961
0.57704341411590576 0.58425796031951904 0.22552087903022766
0.75913649797439575 0.60919606685638428 0.25595396757125854
0.19375832378864288 0.74776244163513184 0.18435922265052795
0.32847633957862854 0.7775302529335022 0.2209450751543045
0.47472470998764038 0.81184893846511841 0.26301005482673645
0.64329099655151367 0.84297966957092285 0.29843571782112122
0.82856273651123047 0.87266147136688232 0.3308386504650116
0.0008329503471031785 0.00013786765339318663 0.045940984040498734
0.08130364865064621 0.0037656149361282587 0.054432693868875504
0.20102939009666443 0.0028508056420832872 0.059735797345638275
0.34364804625511169 0.0073611689731478691 0.059413880109786987
0.50047719478607178 0.021103428676724434 0.064221277832984924
0.032850887626409531 0.11039303243160248 0.091557294130325317
0.13914962112903595 0.127439945936203 0.11337661743164062
0.27551484107971191 0.1413729339838028 0.13144578039646149
0.42996308207511902 0.16084061563014984 0.1441013514995575
0.59519517421722412 0.18361611664295197 0.16101141273975372
0.079013615846633911 0.29058137536048889 0.14986521005630493
0.20232281088829041 0.31523951888084412 0.18003258109092712
0.3508850634098053 0.33950823545455933 0.2062305361032486
0.51590591669082642 0.36257684230804443 0.22595758736133575
0.68952286243438721 0.38807293772697449 0.24778535962104797
0.13898353278636932 0.50877475738525391 0.20776280760765076
0.27157402038574219 0.53838390111923218 0.24285392463207245
0.42229512333869934 0.5711248517036438 0.27640044689178467
0.59237784147262573 0.59983533620834351 0.30458816885948181
0.77370262145996094 0.6275022029876709 0.33493244647979736
0.20339407026767731 0.75433462858200073 0.2656647264957428
0.33896836638450623 0.78764212131500244 0.30218195915222168
0.48892116546630859 0.82555073499679565 0.34287175536155701
0.65912455320358276 0.86093032360076904 0.37719067931175232
0.84271955490112305 0.89360445737838745 0.41130191087722778
0.00025114172603935003 0.00035615809611044824 0.14588397741317749
0.083116479218006134 0.010857316665351391 0.15674488246440887
0.20847474038600922 0.0087522473186254501 0.16543681919574738
0.35384175181388855 0.013315911404788494 0.17146559059619904
0.51210141181945801 0.027467047795653343 0.18584886193275452
0.039827607572078705 0.11770223081111908 0.20054832100868225
0.14852859079837799 0.13604485988616943 0.2247331440448761
0.28885170817375183 0.15291136503219604 0.24143876135349274
0.44468644261360168 0.17046734690666199 0.25636130571365356
0.60899263620376587 0.19538968801498413 0.27487349510192871
0.089699327945709229 0.30163130164146423 0.2636469304561615
0.21516378223896027 0.32746624946594238 0.29198718070983887
0.36665526032447815 0.35258275270462036 0.31717854738235474
0.53287416696548462 0.37435555458068848 0.33898890018463135
0.70572859048843384 0.4013742208480835 0.36371985077857971
0.1501859575510025 0.5184360146522522 0.32444080710411072
0.2839219868183136 0.54999667406082153 0.35649996995925903
0.43769007921218872 0.5854945182800293 0.38603216409683228
0.61023932695388794 0.61553561687469482 0.41578555107116699
0.79168164730072021 0.64299821853637695 0.45193085074424744
0.21512158215045929 0.76527392864227295 0.37641516327857971
0.35218843817710876 0.80062198638916016 0.41334649920463562
0.50486695766448975 0.84157150983810425 0.45103469491004944
0.67683547735214233 0.87922793626785278 0.48611754179000854
0.85938340425491333 0.9125673770904541 0.52538818120956421
0.00013786765339318663 4.7392004489665851e-05 0.28516882658004761
0.08431948721408844 0.0086169224232435226 0.29683777689933777
0.21180978417396545 0.012927276082336903 0.30724307894706726
0.36177542805671692 0.01763916015625 0.31935161352157593
0.523051917552948 0.031824823468923569 0.34104397892951965
0.047406423836946487 0.12181351333856583 0.34527507424354553
0.15885387361049652 0.14397819340229034 0.36776643991470337
0.29911389946937561 0.16460627317428589 0.38337546586990356
0.45592993497848511 0.18281662464141846 0.40033820271492004
0.62052428722381592 0.20735651254653931 0.42343881726264954
0.1009540781378746 0.30984258651733398 0.41505011916160583
0.22867968678474426 0.33730858564376831 0.4377017617225647
0.37953460216522217 0.3630463182926178 0.46402755379676819
0.54525232315063477 0.38640016317367554 0.48805058002471924
0.71655076742172241 0.41480693221092224 0.51265978813171387
0.15955670177936554 0.53159165382385254 0.47945320606231689
0.29581424593925476 0.56350612640380859 0.50805842876434326
0.45107990503311157 0.59740489721298218 0.53985106945037842
0.62342613935470581 0.6277848482131958 0.5702785849571228
0.80204147100448608 0.65713143348693848 0.60345149040222168
0.22465193271636963 0.77865159511566162 0.53987705707550049
0.36432898044586182 0.81421053409576416 0.57002848386764526
0.51862192153930664 0.85562562942504883 0.60358434915542603
0.69156509637832642 0.8928292989730835 0.63988935947418213
0.87408310174942017 0.9249194860458374 0.68308305740356445
0.00013786765339318663 0 0.45886930823326111
0.085748292505741119 0.0022518681362271309 0.46947410702705383
0.21172128617763519 0.010088946670293808 0.4818938672542572
0.36661630868911743 0.01921711303293705 0.49801447987556458
0.53152632713317871 0.036335844546556473 0.52296793460845947
0.051468793302774429 0.12218684703111649 0.52956670522689819
0.1650669276714325 0.14920483529567719 0.54611271619796753
0.30178681015968323 0.17208418250083923 0.56325328350067139
0.46033182740211487 0.19125223159790039 0.58296424150466919
0.62784087657928467 0.21545501053333282 0.60908764600753784
0.10759803652763367 0.31895351409912109 0.60211861133575439
0.23497281968593597 0.34588676691055298 0.62689739465713501
0.38576576113700867 0.37144589424133301 0.65183472633361816
0.55131042003631592 0.39389234781265259 0.67710220813751221
0.72318428754806519 0.41922172904014587 0.70549464225769043
0.16683892905712128 0.54616403579711914 0.66833275556564331
0.30435582995414734 0.5750918984413147 0.69903069734573364
0.46172675490379333 0.60497474670410156 0.73435217142105103
0.63266873359680176 0.63428372144699097 0.76325058937072754
0.80886942148208618 0.6651923656463623 0.79209041595458984
0.23423284292221069 0.79427540302276611 0.73192781209945679
0.37704229354858398 0.82665711641311646 0.76152700185775757
0.53457450866699219 0.86333376169204712 0.79665237665176392
0.70636665821075439 0.89984887838363647 0.83160680532455444
0.88579881191253662 0.93595772981643677 0.86959272623062134
