assets/lut/alexjordan green day 02.cube
# Created by: G'MIC (https://gmic.eu)
TITLE "green_day_02"
# LUT size
LUT_3D_SIZE 13
# Data domain
DOMAIN_MIN 0.0 0.0 0.0
DOMAIN_MAX 1.0 1.0 1.0
# LUT data points
0 0 0
0 0 0
0 0 0
0 0 0
0 0 0
0 0 0
0 0 0
0 0 0
0 0 0
0 0 0
0 0 0
4.5955883251735941e-05 0 0
0.012244849465787411 0 0
0 0 0
0 0 0
0 0 0
0 0 0
0 0 0
0 0 0
0 0 0
0 0 0
0.00013427734666038305 8.556889952160418e-06 0
0.0075466381385922432 0.00082077324623242021 0
0.035136714577674866 0.002257238607853651 0.00033008350874297321
0.09048856794834137 0.0010355182457715273 0.00029456941410899162
0.16528141498565674 0.00011629590881057084 0
0.00079948577331379056 0 0.0012537788134068251
0 0 0.00017211015801876783
0 0 0
0 0 0
0 0 0
0.0010038189357146621 0.00038296569255180657 1.2566061741381418e-05
0.0091337915509939194 0.0024704728275537491 0.00057754514273256063
0.031268909573554993 0.0072872387245297432 0.0015384749276563525
0.072391510009765625 0.013525420799851418 0.0018449072958901525
0.13814406096935272 0.017987299710512161 0.0017465329729020596
0.22491003572940826 0.017612772062420845 0.001918104593642056
0.33343690633773804 0.012246898375451565 0.00036294973688200116
0.44720053672790527 0.0090799964964389801 0
0.0074183144606649876 0 0.0075355828739702702
0.0022095025051385164 7.5531002948991954e-05 0.0027525958139449358
0.0019224877469241619 0.00219114706851542 6.9562127464450896e-05
0.0080252699553966522 0.0090931607410311699 0.00056640023831278086
0.024781545624136925 0.01903851144015789 0.0011818979401141405
0.055736720561981201 0.028940223157405853 0.0027544957119971514
0.098949477076530457 0.038926545530557632 0.0053779301233589649
0.15525029599666595 0.048088777810335159 0.0066441255621612072
0.22609458863735199 0.055032975971698761 0.0053281746804714203
0.31621652841567993 0.057024549692869186 0.0022961185313761234
0.42260941863059998 0.055515319108963013 0.00041903328383341432
0.54781287908554077 0.050432614982128143 0
0.67091488838195801 0.049444429576396942 0.00041442571091465652
0.0084089841693639755 0.013506152667105198 0.005655371118336916
0.014458884485065937 0.025253551080822945 0.0030946021433919668
0.024791643023490906 0.043463658541440964 0.0013663647696375847
0.048323597759008408 0.062824279069900513 0.0021423639263957739
0.084266185760498047 0.080065540969371796 0.0022308498155325651
0.13223978877067566 0.093568034470081329 0.0019460341427475214
0.19155566394329071 0.10480692237615585 0.0032434351742267609
0.26429316401481628 0.11392461508512497 0.005350030492991209
0.34720057249069214 0.12089107930660248 0.0045749889686703682
0.44294258952140808 0.12529861927032471 0.0013769561192020774
0.54829549789428711 0.12594257295131683 0
0.66270285844802856 0.12601599097251892 2.2439395252149552e-05
0.77305722236633301 0.13007228076457977 0.0017951217014342546
0.0078266970813274384 0.084476053714752197 0.00033282110234722495
0.025678222998976707 0.10613690316677094 0.00093919341452419758
0.047265760600566864 0.12612693011760712 0.00050337548600509763
0.078387275338172913 0.14637476205825806 0.00021399703109636903
0.1225978210568428 0.16556462645530701 2.6927275030175224e-05
0.17906607687473297 0.18160106241703033 0
0.24829907715320587 0.19436857104301453 0.00010320625733584166
0.32929179072380066 0.20422151684761047 0.0014122308930382133
0.41331648826599121 0.21356089413166046 0.0026207717601209879
0.50238937139511108 0.22134554386138916 0.0014799080090597272
0.60210156440734863 0.22555646300315857 0.00045614803093485534
0.70684731006622314 0.22932372987270355 0.00080047309165820479
0.8105165958404541 0.23677226901054382 0.0047714384272694588
0.0095727657899260521 0.19539180397987366 0
0.031272649765014648 0.21295759081840515 0
0.058654066175222397 0.23077844083309174 0
0.095261171460151672 0.24989844858646393 0
0.1433684229850769 0.26920497417449951 0
0.20403273403644562 0.28636148571968079 0
0.27663341164588928 0.30072230100631714 0
0.35873210430145264 0.31236493587493896 0.00049670349108055234
0.44224980473518372 0.32369714975357056 0.0022021722979843616
0.52912825345993042 0.33421504497528076 0.0024950513616204262
0.62767672538757324 0.34092694520950317 0.0021520277950912714
0.73110657930374146 0.34763878583908081 0.003638039343059063
0.83552008867263794 0.3571726381778717 0.010357082821428776
0.0089287851005792618 0.31696540117263794 0
0.032579578459262848 0.32955950498580933 0
0.063922613859176636 0.34561359882354736 0
0.10525199770927429 0.36413931846618652 0
0.15749399363994598 0.38303843140602112 0
0.22155675292015076 0.40048003196716309 5.9045531088486314e-05
0.2963213324546814 0.41575628519058228 0.00077196006895974278
0.37912425398826599 0.42909881472587585 0.0028126735705882311
0.46475687623023987 0.44144764542579651 0.0045281206257641315
0.55483889579772949 0.45289117097854614 0.0051040947437286377
0.65396404266357422 0.46300512552261353 0.0055197323672473431
0.75971078872680664 0.47349855303764343 0.0089477235451340675
0.86765569448471069 0.48534530401229858 0.018444599583745003
0.0047050178982317448 0.43534880876541138 0
0.030821885913610458 0.44832533597946167 0
0.067826531827449799 0.4655575156211853 0
0.11447206139564514 0.48527520895004272 3.6800607631448656e-05
0.1713295578956604 0.50447869300842285 0.00098947260994464159
0.23888832330703735 0.52197414636611938 0.0043203164823353291
0.31672123074531555 0.53813004493713379 0.0078574987128376961
0.40166875720024109 0.55241894721984863 0.010349872522056103
0.49030220508575439 0.56560873985290527 0.010984682478010654
0.58384060859680176 0.57801127433776855 0.0104356799274683
0.68545347452163696 0.59096664190292358 0.011442117393016815
0.7946590781211853 0.60551124811172485 0.017885260283946991
0.90503549575805664 0.61960458755493164 0.030081266537308693
0.0024526407942175865 0.55494183301925659 0
0.030636027455329895 0.57025682926177979 0
0.074262119829654694 0.59060198068618774 5.385455096984515e-06
0.12672512233257294 0.61235147714614868 0.0011872235918417573
0.18853797018527985 0.63284027576446533 0.0060785929672420025
0.2596341073513031 0.65136229991912842 0.013483414426445961
0.34048199653625488 0.66860777139663696 0.01845315657556057
0.42814570665359497 0.68337470293045044 0.021192947402596474
0.51965737342834473 0.69745880365371704 0.02156963013112545
0.61568522453308105 0.71119433641433716 0.020677439868450165
0.72017312049865723 0.72640693187713623 0.023181900382041931
0.83245062828063965 0.74358570575714111 0.031948432326316833
0.94392025470733643 0.75821894407272339 0.045537851750850677
0.0039527742192149162 0.68257814645767212 0
0.037851594388484955 0.69942992925643921 0
0.086638294160366058 0.72177755832672119 0.00026550292386673391
0.14440251886844635 0.74498975276947021 0.0038209953345358372
0.21026098728179932 0.76678204536437988 0.011097672395408154
0.28448018431663513 0.78695017099380493 0.019339123740792274
0.36697214841842651 0.80537599325180054 0.025307882577180862
0.45646697282791138 0.82146066427230835 0.029641933739185333
0.5507473349571228 0.83572894334793091 0.033936087042093277
0.65021181106567383 0.85063421726226807 0.037750571966171265
0.75695258378982544 0.86680066585540771 0.043457269668579102
0.86964482069015503 0.88308238983154297 0.052611872553825378
0.97490006685256958 0.89611655473709106 0.06548367440700531
0.01115098875015974 0.81734514236450195 0
0.053476728498935699 0.83524274826049805 0
0.10587748885154724 0.85690242052078247 0.0011695711873471737
0.16726277768611908 0.87988549470901489 0.0073656868189573288
0.23610694706439972 0.90182745456695557 0.016395298764109612
0.31227004528045654 0.92269933223724365 0.024800589308142662
0.39568722248077393 0.94190698862075806 0.030825281515717506
0.48575213551521301 0.95703279972076416 0.036654677242040634
0.58262491226196289 0.96738773584365845 0.046134334057569504
0.68445378541946411 0.97582381963729858 0.056676346808671951
0.79176294803619385 0.98419475555419922 0.066939003765583038
0.90268558263778687 0.99029088020324707 0.077426448464393616
0.991676926612854 0.99429070949554443 0.090486891567707062
0.026459921151399612 0.95188069343566895 0
0.074358470737934113 0.96584206819534302 0.00013302073057275265
0.130620077252388 0.97880226373672485 0.0039968602359294891
0.19460971653461456 0.98921018838882446 0.013405429199337959
0.26576107740402222 0.99612188339233398 0.024712147191166878
0.34359639883041382 0.99954903125762939 0.034350614994764328
0.42789450287818909 1 0.041712474077939987
0.5186271071434021 1 0.050138689577579498
0.61609214544296265 1 0.062693305313587189
0.71854203939437866 1 0.077077202498912811
0.82442426681518555 1 0.090957880020141602
0.93160456418991089 1 0.10417702049016953
0.99867141246795654 1 0.11889556050300598
0 0 0
0 0 0
0 0 0
0 0 0
0 0 0
0 0 0
0 0 0
0 0 0
0 0 0
0 0 0
0 0 0
0.0003509521484375 0 0.00017466825374867767
0.01468817051500082 0 0.0011127546895295382
0 0 0
0 0 0
0 0 0
0 0 0
0 0 0
0 0 0
0 0 0
0 0 0
0.0013408735394477844 4.7885670937830582e-05 3.9328780985670164e-05
0.01609770767390728 0.0010186887811869383 0.00070275698089972138
0.052611872553825378 0.0025788401253521442 0.0027929868083447218
0.11253898590803146 0.0021396263036876917 0.0046848822385072708
0.20286090672016144 0 0.0022997688502073288
1.9447477370704291e-06 0 0
0 0 0
0 0 0
0 0 0
4.1886873077601194e-05 0 0
0.0028780768625438213 0.00071089499397203326 0.00033077163971029222
0.014969231560826302 0.003406778909265995 0.0020495844073593616
0.041926544159650803 0.0086471112444996834 0.0048612854443490505
0.092147350311279297 0.01484502200037241 0.0069216112606227398
0.16412828862667084 0.018490660935640335 0.0076081221923232079
0.25171849131584167 0.018387230113148689 0.007905907928943634
0.35908162593841553 0.013525974005460739 0.0053642122074961662
0.47815093398094177 0.0091084949672222137 0.0017690770328044891
0.0017309450777247548 0 0.0018350639147683978
0.0017382004298269749 0.00038586783921346068 0.0015280181542038918
0.0034599155187606812 0.0030772490426898003 0.0016948924167081714
0.012155001983046532 0.010344486683607101 0.004883994348347187
0.032221715897321701 0.021101184189319611 0.0072580971755087376
0.066128209233283997 0.03208821639418602 0.0091583402827382088
0.11182014644145966 0.042186692357063293 0.012058692052960396
0.16926887631416321 0.050975918769836426 0.014466903172433376
0.24360260367393494 0.056662227958440781 0.013484476134181023
0.33688390254974365 0.058058060705661774 0.0099533526226878166
0.44303572177886963 0.056829266250133514 0.0068822372704744339
0.56302523612976074 0.052955057471990585 0.0050975726917386055
0.68142181634902954 0.05230364203453064 0.0058875437825918198
0.0065629845485091209 0.017357036471366882 0.0074106701649725437
0.017334373667836189 0.03274047002196312 0.0092349033802747726
0.029943937435746193 0.049480244517326355 0.010298560373485088
0.055235274136066437 0.067541278898715973 0.013825360685586929
0.092330485582351685 0.084890089929103851 0.013912709429860115
0.14036017656326294 0.098846673965454102 0.01149450521916151
0.20081189274787903 0.10976623743772507 0.012767014093697071
0.27290913462638855 0.11841816455125809 0.015881167724728584
0.3580423891544342 0.12438112497329712 0.015224785543978214
0.45606231689453125 0.12733609974384308 0.010974884033203125
0.56020760536193848 0.12899337708950043 0.007229494396597147
0.6703447699546814 0.13016617298126221 0.0070110396482050419
0.78063791990280151 0.13358092308044434 0.012582008726894855
0.0055873049423098564 0.094318374991416931 0.004415175411850214
0.024679878726601601 0.11366564035415649 0.0077307159081101418
0.048595041036605835 0.133599653840065 0.0088595375418663025
0.081007905304431915 0.1541515588760376 0.0069571551866829395
0.12517806887626648 0.17355670034885406 0.0038224463351070881
0.18236473202705383 0.18932455778121948 0.0031283211428672075
0.25209081172943115 0.20132729411125183 0.0070060580037534237
0.3324095606803894 0.21037611365318298 0.013663183897733688
0.41936570405960083 0.21793930232524872 0.01688385009765625
0.51142209768295288 0.22453349828720093 0.015627019107341766
0.60795634984970093 0.22990383207798004 0.013113508000969887
0.7088654637336731 0.23523238301277161 0.01421330776065588
0.81623703241348267 0.24139547348022461 0.022394457831978798
0.0069715012796223164 0.20370805263519287 0.0031333174556493759
0.027861980721354485 0.22052766382694244 0.0039283004589378834
0.055727399885654449 0.23896008729934692 0.0035000820644199848
0.092507034540176392 0.25918981432914734 0.0013334236573427916
0.14095103740692139 0.27919721603393555 5.0024893425870687e-05
0.20309022068977356 0.29569894075393677 0.00091901293490082026
0.27725374698638916 0.30895045399665833 0.0061894138343632221
0.36066809296607971 0.31914177536964417 0.01561844814568758
0.44743281602859497 0.32862755656242371 0.022324850782752037
0.53647136688232422 0.33796626329421997 0.023999711498618126
0.63156485557556152 0.34575477242469788 0.023877745494246483
0.73277360200881958 0.35328972339630127 0.027075912803411484
0.84123700857162476 0.36169666051864624 0.036687381565570831
0.0056476369500160217 0.32314950227737427 0.0028260473627597094
0.027621280401945114 0.33694872260093689 0.0027354222256690264
0.058959063142538071 0.35411658883094788 0.0026172413490712643
0.10054536908864975 0.37383228540420532 0.0025358013808727264
0.15377607941627502 0.39338889718055725 0.0030751994345337152
0.21993619203567505 0.41009187698364258 0.0077107897959649563
0.29694452881813049 0.4240366518497467 0.017126135528087616
0.38155141472816467 0.4357883632183075 0.027170488610863686
0.46935060620307922 0.44695165753364563 0.033627811819314957
0.56068307161331177 0.45802527666091919 0.036201685667037964
0.65903764963150024 0.46834567189216614 0.038311079144477844
0.76430821418762207 0.4783802330493927 0.043670937418937683
0.87451547384262085 0.48880746960639954 0.054625105112791061
0.0019973753951489925 0.43934950232505798 0.0010065415408462286
0.024891214445233345 0.45438721776008606 0.0027014340739697218
0.062228377908468246 0.47365596890449524 0.0056521245278418064
0.10997429490089417 0.49455249309539795 0.010055213235318661
0.1688421219587326 0.51417022943496704 0.017164940014481544
0.2384493350982666 0.53118163347244263 0.026754805818200111
0.31872424483299255 0.54555308818817139 0.03731841966509819
0.40557190775871277 0.55848675966262817 0.046042200177907944
0.49589326977729797 0.57133358716964722 0.051121026277542114
0.5903821587562561 0.58466821908950806 0.053102083504199982
0.69261449575424194 0.5978933572769165 0.055952604860067368
0.80209821462631226 0.61064553260803223 0.063014611601829529
0.9137764573097229 0.62260967493057251 0.075173579156398773
0.00034125833190046251 0.55673927068710327 0.00067690678406506777
0.023605601862072945 0.57453441619873047 0.0039566340856254101
0.068731509149074554 0.59795272350311279 0.011253236792981625
0.1232270747423172 0.62131184339523315 0.022003592923283577
0.18723359704017639 0.64202892780303955 0.034067701548337936
0.26095783710479736 0.65969628095626831 0.04654344916343689
0.34418126940727234 0.67443257570266724 0.057895150035619736
0.43413761258125305 0.68754249811172485 0.067415066063404083
0.52707231044769287 0.70229572057723999 0.072500564157962799
0.62395131587982178 0.71868979930877686 0.074342049658298492
0.72905343770980835 0.73512446880340576 0.078152872622013092
0.84124648571014404 0.74994421005249023 0.086206264793872833
0.95261585712432861 0.76152157783508301 0.098374851047992706
0.0013110591098666191 0.68513596057891846 0.0010464687366038561
0.031299963593482971 0.70462167263031006 0.0065151588059961796
0.081644795835018158 0.72946500778198242 0.018680093809962273
0.14156800508499146 0.75410640239715576 0.033659406006336212
0.20994359254837036 0.77531671524047852 0.048368655145168304
0.2868906557559967 0.79378986358642578 0.061684101819992065
0.37209457159042358 0.80922240018844604 0.073800332844257355
0.46419966220855713 0.82279974222183228 0.084767013788223267
0.55924695730209351 0.83868175745010376 0.09273364394903183
0.65829038619995117 0.85738444328308105 0.098193228244781494
0.7645835280418396 0.87565070390701294 0.10494685173034668
0.87709188461303711 0.89039069414138794 0.11308182030916214
0.9795348048210144 0.89967459440231323 0.12449604272842407
0.0068525425158441067 0.82244229316711426 0.0020907681901007891
0.047663189470767975 0.84233939647674561 0.01076832227408886
0.10190384835004807 0.86603319644927979 0.027426611632108688
0.16554468870162964 0.88930082321166992 0.045380283147096634
0.23670434951782227 0.9102281928062439 0.061055038124322891
0.3154137134552002 0.92818129062652588 0.074301749467849731
0.40136328339576721 0.94369721412658691 0.085938997566699982
0.49383538961410522 0.95632684230804443 0.09744744747877121
0.59067344665527344 0.96772640943527222 0.10935148596763611
0.69166392087936401 0.97859698534011841 0.12088087201118469
0.79774671792984009 0.98765474557876587 0.13225556910037994
0.9079512357711792 0.9927515983581543 0.14156021177768707
0.99322807788848877 0.99548614025115967 0.15247619152069092
0.019934350624680519 0.95760774612426758 0.0057740006595849991
0.068761266767978668 0.9716373085975647 0.019161926582455635
0.12683482468128204 0.98394781351089478 0.039027705788612366
0.19287098944187164 0.99275898933410645 0.058141730725765228
0.26649048924446106 0.99763756990432739 0.074516400694847107
0.34645748138427734 0.99990719556808472 0.08820941299200058
0.43317368626594543 1 0.10022032260894775
0.52581536769866943 1 0.11278685182332993
0.6236301064491272 1 0.12692210078239441
0.72536498308181763 1 0.14216026663780212
0.83025425672531128 1 0.1562921404838562
0.9361724853515625 1 0.16850447654724121
0.99913382530212402 1 0.18178896605968475
0 0 0
0 0 0
0 0 0
0 0 0
0 0 0
0 0 0
0 0 0
0 0 0
0 0 0
0 0 0
0 8.2576980275916867e-06 0
0.001803858089260757 0.00021344353444874287 0.00063657574355602264
0.025263527408242226 0 0.002245929092168808
0 0 0
0 0 0
0 0 0
0 0 0
0 0 0
0 0 0
0 0 0
0 0 4.0316113881999627e-05
0.0037353516090661287 0.00046449550427496433 0.0010349947260692716
0.025473097339272499 0.0022300120908766985 0.0037896847352385521
0.067254535853862762 0.0049705356359481812 0.0093074720352888107
0.13573376834392548 0.004088712390512228 0.013401105999946594
0.23398356139659882 0.00012242933735251427 0.012831085361540318
0 0 0
0 0 0
0 0 0
0 0 0
0.00068694469518959522 7.8089098678901792e-05 0.00035065296106040478
0.0065151737071573734 0.0016026964876800776 0.0020565406884998083
0.022288648411631584 0.0057575302198529243 0.0061591803096234798
0.053219471126794815 0.0125324921682477 0.012637628242373466
0.1078212633728981 0.019011164084076881 0.017978817224502563
0.18460673093795776 0.02181517705321312 0.019758680835366249
0.27376267313957214 0.021396651864051819 0.022075338289141655
0.38216698169708252 0.016338378190994263 0.020643765106797218
0.50130105018615723 0.011249796487390995 0.016933217644691467
0 0 1.7233456674148329e-05
0.00085377413779497147 0.00068395276321098208 0.0004741594020742923
0.006804238073527813 0.0044009191915392876 0.0045032873749732971
0.019649282097816467 0.012876098975539207 0.011818395927548409
0.043363280594348907 0.024907356128096581 0.017711475491523743
0.078728817403316498 0.036819338798522949 0.02142353355884552
0.12432252615690231 0.047447863966226578 0.025911832228302956
0.18088622391223907 0.05636182427406311 0.03012554720044136
0.25634461641311646 0.06154237687587738 0.030269863083958626
0.35272523760795593 0.062153279781341553 0.026742778718471527
0.45880955457687378 0.060977622866630554 0.024983260780572891
0.57597559690475464 0.057751912623643875 0.02427876740694046
0.69403845071792603 0.056400928646326065 0.024337992072105408
0.0045810174196958542 0.021482909098267555 0.010170596651732922
0.014965775422751904 0.037911899387836456 0.013343332335352898
0.035401947796344757 0.055789198726415634 0.021977219730615616
0.062664225697517395 0.074187017977237701 0.029030580073595047
0.10040293633937836 0.091181814670562744 0.031234173104166985
0.14973020553588867 0.1048794761300087 0.03148733451962471
0.21032889187335968 0.11561382561922073 0.03389802947640419
0.28027412295341492 0.12441752105951309 0.037567451596260071
0.36543706059455872 0.12980915606021881 0.03713652491569519
0.46475881338119507 0.13225294649600983 0.032497406005859375
0.56578701734542847 0.13506019115447998 0.029982354491949081
0.67102015018463135 0.13794991374015808 0.030935639515519142
0.78231132030487061 0.14082701504230499 0.036739781498908997
0.0092033986002206802 0.10175219923257828 0.018110416829586029
0.025951191782951355 0.12149288505315781 0.02143523283302784
0.050363369286060333 0.14240814745426178 0.025912968441843987
0.084000363945960999 0.16292473673820496 0.027382016181945801
0.12930913269519806 0.18161597847938538 0.025390265509486198
0.18811145424842834 0.19646607339382172 0.027188574895262718
0.25834786891937256 0.20763042569160461 0.034415435045957565
0.33713880181312561 0.21660183370113373 0.041688703000545502
0.42409840226173401 0.22363108396530151 0.044840496033430099
0.5165703296661377 0.23004969954490662 0.043610755354166031
0.60891157388687134 0.2371363490819931 0.042098954319953918
0.70403790473937988 0.24485503137111664 0.043820220977067947
0.81414353847503662 0.2501768171787262 0.053310766816139221
0.0080830594524741173 0.2110925018787384 0.015268856659531593
0.027608415111899376 0.22862620651721954 0.019471695646643639
0.054526623338460922 0.2484876960515976 0.022615514695644379
0.091790594160556793 0.26929998397827148 0.021722113713622093
0.14199253916740417 0.28867554664611816 0.019227016717195511
0.20666296780109406 0.30396175384521484 0.025479754433035851
0.2826867401599884 0.31567880511283875 0.038145687431097031
0.36584541201591492 0.32541042566299438 0.049600608646869659
0.45328447222709656 0.33415833115577698 0.056832857429981232
0.54279917478561401 0.34309691190719604 0.05960286408662796
0.6345144510269165 0.35227081179618835 0.060554862022399902
0.73222547769546509 0.36149165034294128 0.064273595809936523
0.84268969297409058 0.36910727620124817 0.075011022388935089
0.0049443561583757401 0.32925078272819519 0.012990899384021759
0.026566479355096817 0.34542539715766907 0.018321916460990906
0.056951485574245453 0.36419194936752319 0.023375103250145912
0.099270656704902649 0.38453087210655212 0.026454268023371696
0.15415020287036896 0.40354827046394348 0.030009610578417778
0.22273145616054535 0.41929253935813904 0.039602797478437424
0.30179601907730103 0.43176212906837463 0.053474828600883484
0.38718429207801819 0.44278794527053833 0.066438250243663788
0.47598055005073547 0.45338103175163269 0.075211562216281891
0.56757235527038574 0.46402063965797424 0.07973981648683548
0.66456872224807739 0.47440594434738159 0.083305492997169495
0.76888328790664673 0.48450231552124023 0.089514486491680145
0.88026684522628784 0.49411043524742126 0.10075589269399643
0.0020472956821322441 0.44553136825561523 0.014713511802256107
0.024915134534239769 0.46302509307861328 0.022394755855202675
0.061568751931190491 0.48383155465126038 0.031432673335075378
0.10973218828439713 0.50539058446884155 0.040435265749692917
0.17017444968223572 0.52480298280715942 0.05052674189209938
0.24236655235290527 0.54089683294296265 0.063399791717529297
0.3238716721534729 0.55416417121887207 0.077767208218574524
0.41174590587615967 0.56627142429351807 0.090669237077236176
0.50295072793960571 0.57880765199661255 0.099541142582893372
0.59826380014419556 0.59193730354309082 0.10459105670452118
0.70047235488891602 0.60455423593521118 0.10930395871400833
0.81007677316665649 0.6156383752822876 0.11687541007995605
0.92214000225067139 0.62609410285949707 0.12835709750652313
0.0010435815202072263 0.5639156699180603 0.019961008802056313
0.025846218690276146 0.58394306898117065 0.030435390770435333
0.070094779133796692 0.60851883888244629 0.043955486267805099
0.12489992380142212 0.63235175609588623 0.058354217559099197
0.19028356671333313 0.65270787477493286 0.073236800730228424
0.26569002866744995 0.66887027025222778 0.088703438639640808
0.35032674670219421 0.68239712715148926 0.10400430858135223
0.44095945358276367 0.69523113965988159 0.11777438223361969
