assets/lut/alexjordan film high contrast.cube
# Created by: G'MIC (https://gmic.eu)
TITLE "film_high_contrast"
# LUT size
LUT_3D_SIZE 5
# Data domain
DOMAIN_MIN 0.0 0.0 0.0
DOMAIN_MAX 1.0 1.0 1.0
# LUT data points
0.0084070991724729538 0.0070541379973292351 0.075146496295928955
0.10999036580324173 0 0.052384752780199051
0.22089876234531403 0 0.03290272131562233
0.33441224694252014 0 0.019713189452886581
0.45905366539955139 0 0.016481228172779083
0 0.086162030696868896 0.025771750137209892
0.081920206546783447 0.080929793417453766 0.024722648784518242
0.22092550992965698 0.089962124824523926 0.033379454165697098
0.36797851324081421 0.10924715548753738 0.049404952675104141
0.55074435472488403 0.15932205319404602 0.10487806797027588
0.0065212324261665344 0.25258076190948486 0.064092136919498444
0.16713021695613861 0.29854542016983032 0.11083497852087021
0.37429308891296387 0.37474837899208069 0.18717165291309357
0.57398504018783569 0.4473111629486084 0.25796982645988464
0.76927745342254639 0.51140099763870239 0.3221791684627533
0.21554483473300934 0.60419249534606934 0.28534591197967529
0.41424158215522766 0.6723177433013916 0.35380968451499939
0.59169465303421021 0.72143131494522095 0.40285864472389221
0.76238000392913818 0.76495736837387085 0.44656160473823547
0.91544753313064575 0.78927505016326904 0.47014680504798889
0.38388934731483459 0.91036689281463623 0.4547819197177887
0.55149322748184204 0.94252419471740723 0.49283596873283386
0.69424152374267578 0.95252281427383423 0.50720864534378052
0.85319274663925171 0.9815942645072937 0.5378042459487915
0.99671584367752075 0.99656975269317627 0.56210362911224365
0.0077104903757572174 0.0028313281945884228 0.17149147391319275
0.11219891160726547 0 0.15510787069797516
0.22478045523166656 0 0.13904488086700439
0.34170910716056824 0 0.13079634308815002
0.4723832905292511 0.0014259787276387215 0.13175788521766663
0 0.084755584597587585 0.13169059157371521
0.081707894802093506 0.086976088583469391 0.1291547417640686
0.22184523940086365 0.089861743152141571 0.13578139245510101
0.3777720034122467 0.11804227530956268 0.1648218184709549
0.5620911717414856 0.17047382891178131 0.21950006484985352
0.041914395987987518 0.27776724100112915 0.19304834306240082
0.19392058253288269 0.32278639078140259 0.24034874141216278
0.39970961213111877 0.4006064236164093 0.31515175104141235
0.60501617193222046 0.47841343283653259 0.39104050397872925
0.80055266618728638 0.54251384735107422 0.45389577746391296
0.23741091787815094 0.62048923969268799 0.40485537052154541
0.43365788459777832 0.6923946738243103 0.47806736826896667
0.60898131132125854 0.7382006049156189 0.52514249086380005
0.77452093362808228 0.77544498443603516 0.56279927492141724
0.93619060516357422 0.80791550874710083 0.59313309192657471
0.39632648229598999 0.91809666156768799 0.56956398487091064
0.55764490365982056 0.9463341236114502 0.60280197858810425
0.70367920398712158 0.96008831262588501 0.62132042646408081
0.8597254753112793 0.98406445980072021 0.64921754598617554
0.99889147281646729 0.99807471036911011 0.67541211843490601
0.0079924790188670158 0.0059320186264812946 0.27583801746368408
0.11353888362646103 0 0.25920295715332031
0.22485661506652832 0 0.24276484549045563
0.34035542607307434 0 0.23052357137203217
0.47991722822189331 0.0027986564673483372 0.23991374671459198
0 0.084679439663887024 0.23135286569595337
0.086163662374019623 0.090062052011489868 0.23623700439929962
0.23709593713283539 0.10510847717523575 0.25326398015022278
0.39645788073539734 0.13895921409130096 0.28424292802810669
0.5971187949180603 0.20220254361629486 0.35631868243217468
0.039029680192470551 0.28623741865158081 0.3036365807056427
0.2224293053150177 0.35092303156852722 0.37086945772171021
0.42753589153289795 0.42603737115859985 0.44293433427810669
0.62943392992019653 0.50373876094818115 0.51695758104324341
0.82322746515274048 0.56579291820526123 0.58081185817718506
0.26528233289718628 0.65336328744888306 0.54032701253890991
0.45658040046691895 0.71453529596328735 0.6028439998626709
0.62914741039276123 0.75763249397277832 0.64677649736404419
0.79135739803314209 0.79049676656723022 0.68077844381332397
0.94795292615890503 0.81704908609390259 0.707194983959198
0.41130921244621277 0.93171602487564087 0.68818855285644531
0.56236892938613892 0.94960933923721313 0.71073085069656372
0.71741342544555664 0.97320115566253662 0.73751741647720337
0.86793226003646851 0.98836666345596313 0.75933277606964111
0.99918264150619507 0.99800992012023926 0.77983063459396362
0.0039125480689108372 0.0005433026235550642 0.36441746354103088
0.10590241104364395 0 0.35491907596588135
0.21941635012626648 0 0.34029415249824524
0.34224772453308105 0.00033030789927579463 0.33321753144264221
0.48675590753555298 0.01229388639330864 0.34783121943473816
0.0017935510259121656 0.091001339256763458 0.34033659100532532
0.097230203449726105 0.096150338649749756 0.34511199593544006
0.24971145391464233 0.11959999054670334 0.3721611499786377
0.42381185293197632 0.16268329322338104 0.41655859351158142
0.60947722196578979 0.21629583835601807 0.47282224893569946
0.055432084947824478 0.30915576219558716 0.42950063943862915
0.25375825166702271 0.38300961256027222 0.50332093238830566
0.45762118697166443 0.45697128772735596 0.57691431045532227
0.66050267219543457 0.5316702127456665 0.65264523029327393
0.84506922960281372 0.58763313293457031 0.70739984512329102
0.29156938195228577 0.68022412061691284 0.67155998945236206
0.47342172265052795 0.73116481304168701 0.72441399097442627
0.64675778150558472 0.77509564161300659 0.76671695709228516
0.80408787727355957 0.80176734924316406 0.79547202587127686
0.95508688688278198 0.82391828298568726 0.81777799129486084
0.42560657858848572 0.94628632068634033 0.80722898244857788
0.57240819931030273 0.95974278450012207 0.82575052976608276
0.72913014888763428 0.98338371515274048 0.85204958915710449
0.87162154912948608 0.99112272262573242 0.8649783730506897
0.99898898601531982 0.99783128499984741 0.87995177507400513
0 0 0.45323637127876282
0.10553310811519623 4.2006548028439283e-05 0.4565274715423584
0.23242262005805969 0.004589080810546875 0.45551630854606628
0.34736952185630798 7.0010914896556642e-06 0.44189783930778503
0.49530106782913208 0.016001876443624496 0.46042391657829285
0.00090807746164500713 0.10117574781179428 0.45644113421440125
0.12502133846282959 0.12362053245306015 0.47878926992416382
0.29348737001419067 0.1573227196931839 0.5181693434715271
0.46615040302276611 0.19570501148700714 0.56146007776260376
0.64270311594009399 0.25335693359375 0.60786926746368408
0.078748367726802826 0.33665812015533447 0.56091654300689697
0.287432461977005 0.4156489372253418 0.63952833414077759
0.48711216449737549 0.48176327347755432 0.70933371782302856
0.67738264799118042 0.54275727272033691 0.77156609296798706
0.86250162124633789 0.6065678596496582 0.82749515771865845
0.31680256128311157 0.70353835821151733 0.79625844955444336
0.48740002512931824 0.74497836828231812 0.83923667669296265
0.65670454502105713 0.78417545557022095 0.87908685207366943
0.8125728964805603 0.80997836589813232 0.90600693225860596
0.96354097127914429 0.83516508340835571 0.92815107107162476
0.44407904148101807 0.96835100650787354 0.92968142032623291
0.59499847888946533 0.98267477750778198 0.95107674598693848
0.74184679985046387 0.992786705493927 0.96788889169692993
0.87574571371078491 0.99502122402191162 0.97286534309387207
0.9990193247795105 0.99904733896255493 0.98235291242599487
