assets/lut/alexjordan yellow 55b.cube
# Created by: G'MIC (https://gmic.eu)
TITLE "yellow_55b"
# LUT size
LUT_3D_SIZE 13
# Data domain
DOMAIN_MIN 0.0 0.0 0.0
DOMAIN_MAX 1.0 1.0 1.0
# LUT data points
0.00039708754047751427 0.00071698357351124287 0.016573004424571991
0.018103774636983871 0.0034199284855276346 0.022401966154575348
0.051266148686408997 0.0044828080572187901 0.02588634192943573
0.089917980134487152 0.0030812581535428762 0.02531350776553154
0.13478827476501465 0.0016186434077098966 0.022780504077672958
0.18561767041683197 0.0014705882640555501 0.019815482199192047
0.24157744646072388 0.0014705882640555501 0.016965365037322044
0.30218589305877686 0.0014705882640555501 0.014775100164115429
0.36674943566322327 0.0015203737420961261 0.013454168103635311
0.43522828817367554 0.0022123148664832115 0.013114300556480885
0.50749659538269043 0.0036532084923237562 0.013114884495735168
0.58273029327392578 0.0064277499914169312 0.013497027568519115
0.66175782680511475 0.010007611475884914 0.013896867632865906
0.0054090013727545738 0.023791952058672905 0.028152165934443474
0.031152807176113129 0.03203023225069046 0.034782692790031433
0.06358782947063446 0.034920502454042435 0.039246086031198502
0.10209774225950241 0.033402014523744583 0.03975227102637291
0.14764159917831421 0.03136933222413063 0.037653423845767975
0.19981366395950317 0.031529638916254044 0.034787196666002274
0.25712615251541138 0.031985294073820114 0.032005339860916138
0.31944188475608826 0.032174907624721527 0.029930593445897102
0.3856261670589447 0.032757163047790527 0.028730819001793861
0.45624861121177673 0.033646691590547562 0.027929462492465973
0.53006553649902344 0.035377487540245056 0.027793331071734428
0.60727441310882568 0.038007203489542007 0.027795469388365746
0.68792498111724854 0.042038306593894958 0.027868397533893585
0.014893296174705029 0.06105702742934227 0.03763854131102562
0.041507452726364136 0.06861259788274765 0.044089104980230331
0.074119731783866882 0.07241617888212204 0.049249686300754547
0.11356935650110245 0.073510773479938507 0.051696494221687317
0.16055342555046082 0.074781633913516998 0.051282696425914764
0.2141689658164978 0.076723180711269379 0.049197733402252197
0.2733922004699707 0.077934980392456055 0.047029875218868256
0.33734226226806641 0.078762665390968323 0.045507900416851044
0.40561175346374512 0.078426435589790344 0.044520478695631027
0.47767230868339539 0.077334292232990265 0.043847057968378067
0.55385404825210571 0.075923487544059753 0.043343666940927505
0.63349467515945435 0.075237512588500977 0.042786825448274612
0.71571868658065796 0.077494196593761444 0.042584184557199478
0.024025516584515572 0.10463279485702515 0.045299068093299866
0.051160849630832672 0.11213540285825729 0.05183786153793335
0.084530636668205261 0.11698345094919205 0.057862032204866409
0.1252700537443161 0.12036780267953873 0.062172383069992065
0.17362751066684723 0.12407440692186356 0.063596703112125397
0.22873412072658539 0.12798662483692169 0.063046462833881378
0.28954359889030457 0.13036356866359711 0.062186911702156067
0.3549492359161377 0.13064613938331604 0.0614914670586586
0.42524042725563049 0.13034623861312866 0.060929629951715469
0.49985864758491516 0.12812727689743042 0.060458030551671982
0.57785117626190186 0.12465163320302963 0.059938676655292511
0.65952277183532715 0.12104372680187225 0.059617269784212112
0.74355208873748779 0.12160412967205048 0.059622328728437424
0.031975824385881424 0.15595416724681854 0.051727835088968277
0.061761848628520966 0.16329580545425415 0.059110887348651886
0.0966368168592453 0.16972728073596954 0.066065303981304169
0.1383034884929657 0.17539466917514801 0.071792483329772949
0.18747365474700928 0.18113048374652863 0.075205996632575989
0.24371170997619629 0.18614023923873901 0.076758980751037598
0.30577769875526428 0.18947657942771912 0.077503681182861328
0.37276813387870789 0.19089378416538239 0.078016377985477448
0.4442887008190155 0.19053360819816589 0.07836468517780304
0.52051961421966553 0.18839803338050842 0.078485645353794098
0.6007387638092041 0.18486621975898743 0.078492648899555206
0.68406087160110474 0.18144473433494568 0.078492648899555206
0.7693600058555603 0.18181081116199493 0.078690819442272186
0.04068775475025177 0.21396520733833313 0.058196917176246643
0.072891727089881897 0.22203662991523743 0.066382311284542084
0.10926305502653122 0.23014713823795319 0.074466079473495483
0.15217047929763794 0.23793917894363403 0.081470996141433716
0.20198042690753937 0.24506470561027527 0.086879745125770569
0.2588125467300415 0.2512938380241394 0.090590819716453552
0.32165959477424622 0.25580236315727234 0.09313780814409256
0.39024809002876282 0.25841215252876282 0.095020473003387451
0.46287044882774353 0.25914460420608521 0.0963258296251297
0.54065185785293579 0.25852814316749573 0.09703332930803299
0.62254375219345093 0.25663301348686218 0.097955711185932159
0.7068437933921814 0.25628116726875305 0.098730035126209259
0.79320788383483887 0.25810012221336365 0.099548965692520142
0.04939187690615654 0.27837464213371277 0.065400294959545135
0.083838909864425659 0.2874312698841095 0.074640102684497833
0.12190966308116913 0.29734903573989868 0.083795703947544098
0.16575063765048981 0.30699998140335083 0.092279233038425446
0.21637046337127686 0.3157494068145752 0.099266007542610168
0.27369791269302368 0.32320186495780945 0.10491005331277847
0.33749651908874512 0.32897156476974487 0.10916537046432495
0.40700849890708923 0.33296293020248413 0.11230991035699844
0.48186275362968445 0.33541542291641235 0.11498042196035385
0.56069016456604004 0.33680963516235352 0.1165124773979187
0.64346933364868164 0.33788278698921204 0.11853539198637009
0.72907423973083496 0.33940297365188599 0.11960829049348831
0.8165428638458252 0.34296533465385437 0.12120355665683746
0.058134894818067551 0.34905683994293213 0.074069619178771973
0.09427247941493988 0.35986039042472839 0.084002509713172913
0.13380931317806244 0.3714173436164856 0.094341769814491272
0.17875871062278748 0.38262617588043213 0.10397212952375412
0.23027968406677246 0.39268326759338379 0.11258048564195633
0.28853362798690796 0.40154430270195007 0.11983165144920349
0.35309529304504395 0.40856519341468811 0.12556685507297516
0.42402642965316772 0.41404077410697937 0.13020765781402588
0.50051659345626831 0.41806244850158691 0.13375519216060638
0.58040881156921387 0.42125177383422852 0.13655540347099304
0.66457909345626831 0.42426955699920654 0.13887430727481842
0.75158441066741943 0.42758572101593018 0.14098447561264038
0.84024351835250854 0.43215116858482361 0.14315813779830933
0.066807731986045837 0.42811241745948792 0.084515638649463654
0.10477941483259201 0.43956664204597473 0.095344483852386475
0.1452319473028183 0.45232829451560974 0.10640067607164383
0.19138845801353455 0.46451225876808167 0.1172216534614563
0.24379822611808777 0.47573003172874451 0.12699350714683533
0.30296283960342407 0.48563402891159058 0.13545976579189301
0.36851182579994202 0.49383270740509033 0.14269682765007019
0.44019815325737 0.50054800510406494 0.14844375848770142
0.51774793863296509 0.50591152906417847 0.15283627808094025
0.60006487369537354 0.51040160655975342 0.15661072731018066
0.68597179651260376 0.51457542181015015 0.15966640412807465
0.77430731058120728 0.519023597240448 0.16242901980876923
0.864402174949646 0.52447468042373657 0.16520798206329346
0.07574811577796936 0.51424199342727661 0.097016036510467529
0.11466415971517563 0.52606070041656494 0.10822002589702606
0.15692897140979767 0.53927421569824219 0.12006734311580658
0.20431703329086304 0.55218392610549927 0.1316274106502533
0.25762903690338135 0.56411904096603394 0.14250896871089935
0.31757631897926331 0.57493555545806885 0.15218824148178101
0.38410615921020508 0.5841326117515564 0.16041599214076996
0.45769223570823669 0.59183806180953979 0.16731815040111542
0.53637015819549561 0.59825038909912109 0.17244648933410645
0.619975745677948 0.60361778736114502 0.17685745656490326
0.70743584632873535 0.60847550630569458 0.18053677678108215
0.79730671644210815 0.61368900537490845 0.18389588594436646
0.8886263370513916 0.61960333585739136 0.18731258809566498
0.086488671600818634 0.60540127754211426 0.11096812039613724
0.12669102847576141 0.61752223968505859 0.12244690209627151
0.17006957530975342 0.63084423542022705 0.13481171429157257
0.2184474766254425 0.6441076397895813 0.14705704152584076
0.27243509888648987 0.65668433904647827 0.15884281694889069
0.33315226435661316 0.66820484399795532 0.16953398287296295
0.40055587887763977 0.67847806215286255 0.17865833640098572
0.47411489486694336 0.68699860572814941 0.1865064948797226
0.5554814338684082 0.69418632984161377 0.192178875207901
0.64051228761672974 0.70037811994552612 0.19716222584247589
0.72934019565582275 0.7060164213180542 0.20144174993038177
0.82045120000839233 0.71160417795181274 0.20544953644275665
0.91281336545944214 0.71826893091201782 0.20943371951580048
0.099875852465629578 0.70027828216552734 0.12589704990386963
0.14120568335056305 0.71260595321655273 0.13789080083370209
0.18599635362625122 0.7258450984954834 0.15046077966690063
0.23498904705047607 0.73932093381881714 0.16327360272407532
0.29050245881080627 0.75252640247344971 0.17584012448787689
0.3506254255771637 0.76489365100860596 0.18748673796653748
0.41828650236129761 0.77588933706283569 0.19742590188980103
0.49360954761505127 0.78523910045623779 0.20572242140769958
0.57580691576004028 0.79310905933380127 0.21216621994972229
0.66207647323608398 0.80008167028427124 0.21749728918075562
0.75179964303970337 0.80632394552230835 0.22248078882694244
0.84381616115570068 0.81267988681793213 0.22712121903896332
0.93701654672622681 0.81980091333389282 0.23161822557449341
0.11587867140769958 0.79761743545532227 0.14212021231651306
0.15848562121391296 0.809947669506073 0.15405115485191345
0.20493321120738983 0.82325756549835205 0.16692431271076202
0.25501540303230286 0.83707553148269653 0.18016497790813446
0.31027007102966309 0.85065943002700806 0.19317102432250977
0.3715793788433075 0.86371386051177979 0.20554263889789581
0.43983998894691467 0.87542778253555298 0.21627463400363922
0.51615935564041138 0.88531100749969482 0.2247558981180191
0.59867501258850098 0.89393645524978638 0.23181775212287903
0.68546539545059204 0.90172064304351807 0.23795090615749359
0.77563774585723877 0.90894591808319092 0.24338677525520325
0.86799204349517822 0.91612625122070312 0.24869202077388763
0.96102195978164673 0.92392933368682861 0.25385335087776184
0.00088032742496579885 0.0019851236138492823 0.041334517300128937
0.019785428419709206 0.0077045666985213757 0.045430712401866913
0.051681846380233765 0.0088989110663533211 0.047792471945285797
0.089757241308689117 0.0047258264385163784 0.047638162970542908
0.13434973359107971 0.0025218289811164141 0.04597168043255806
0.18513751029968262 0.0014911576872691512 0.043537680059671402
0.24112977087497711 0.0014447380090132356 0.04080117866396904
0.30211740732192993 0.00095914950361475348 0.038607802242040634
0.3673529326915741 0.00089613971067592502 0.037300799041986465
0.43674197793006897 0.0010244930163025856 0.036378435790538788
0.50945138931274414 0.0012623057700693607 0.035657443106174469
0.58590453863143921 0.0020046457648277283 0.034960053861141205
0.66568446159362793 0.0030947069171816111 0.034490786492824554
0.0079027209430932999 0.027605572715401649 0.052086908370256424
0.033509168773889542 0.037271492183208466 0.057426437735557556
0.064723193645477295 0.039697937667369843 0.061151064932346344
0.10289106518030167 0.03642730787396431 0.062134087085723877
0.14811119437217712 0.034104038029909134 0.060804929584264755
0.20001271367073059 0.032794158905744553 0.058404181152582169
0.25729185342788696 0.032147664576768875 0.055933918803930283
0.31995317339897156 0.031734198331832886 0.053993359208106995
0.3865867555141449 0.030799895524978638 0.052748780697584152
0.45753514766693115 0.030067024752497673 0.051912553608417511
0.53214293718338013 0.029943563044071198 0.050881598144769669
0.61022329330444336 0.031018005684018135 0.049723681062459946
0.69146358966827393 0.033209707587957382 0.049282222986221313
0.016918137669563293 0.064463309943675995 0.060885544866323471
0.042353179305791855 0.072371475398540497 0.066817909479141235
0.075234852731227875 0.075695842504501343 0.072097375988960266
0.11498291790485382 0.076329581439495087 0.075041845440864563
0.16162057220935822 0.077522620558738708 0.074899248778820038
0.21532423794269562 0.079038076102733612 0.073163978755474091
0.27444607019424438 0.07984083890914917 0.071461863815784454
0.33815354108810425 0.079053603112697601 0.070265829563140869
0.40655320882797241 0.077795997262001038 0.069468386471271515
0.47943377494812012 0.075731180608272552 0.068370014429092407
0.5560842752456665 0.073411978781223297 0.067407377064228058
0.63598740100860596 0.072112932801246643 0.066293604671955109
0.71870774030685425 0.073433205485343933 0.065511219203472137
0.023794570937752724 0.10869506001472473 0.068844720721244812
0.049845289438962936 0.11618637293577194 0.075172856450080872
0.084724098443984985 0.12032987177371979 0.081814408302307129
0.12629696726799011 0.12391137331724167 0.08643689751625061
0.17476770281791687 0.1278090626001358 0.088125504553318024
0.23035216331481934 0.13126957416534424 0.087979137897491455
0.29096534848213196 0.13320647180080414 0.087526567280292511
0.35651010274887085 0.13333268463611603 0.087292812764644623
0.42665830254554749 0.13105489313602448 0.086907528340816498
0.50123786926269531 0.12863971292972565 0.086399301886558533
0.57988542318344116 0.12492744624614716 0.085765615105628967
0.66165816783905029 0.12202073633670807 0.084630496799945831
0.74571889638900757 0.1225595697760582 0.084393054246902466
0.032275944948196411 0.1601933091878891 0.076450690627098083
0.061378926038742065 0.167713463306427 0.083692990243434906
0.096528999507427216 0.17402884364128113 0.091146700084209442
0.13878192007541656 0.17980939149856567 0.097243182361125946
0.18845970928668976 0.18531167507171631 0.1010999009013176
0.24490845203399658 0.19001549482345581 0.10308618098497391
0.3070867657661438 0.19291992485523224 0.10420874506235123
0.37430465221405029 0.19393086433410645 0.10496434569358826
0.44645509123802185 0.19293446838855743 0.10524944216012955
0.52256208658218384 0.19054080545902252 0.10553959757089615
0.60278463363647461 0.18739974498748779 0.10530272871255875
0.68608725070953369 0.18460577726364136 0.10501622408628464
0.77142989635467529 0.18557152152061462 0.10550949722528458
0.041500616818666458 0.21862673759460449 0.084184758365154266
0.073252521455287933 0.22684906423091888 0.092297032475471497
0.10947348177433014 0.23486432433128357 0.10087534785270691
0.15256702899932861 0.24261435866355896 0.1082736924290657
0.20267581939697266 0.24973031878471375 0.11409012973308563
0.25978478789329529 0.25551885366439819 0.11831124871969223
0.32308819890022278 0.25977718830108643 0.1211865171790123
0.39168420433998108 0.26196381449699402 0.12331487983465195
0.46548029780387878 0.262574702501297 0.12435987591743469
0.54330301284790039 0.26190418004989624 0.1261495053768158
0.62466907501220703 0.26106107234954834 0.12649296224117279
0.70915335416793823 0.2602197527885437 0.12702924013137817
0.79572492837905884 0.26205301284790039 0.12793602049350739
0.050789747387170792 0.2834019660949707 0.09207463264465332
0.084618575870990753 0.29284793138504028 0.10121331363916397
0.12252123653888702 0.30250117182731628 0.11083371192216873
0.16633079946041107 0.3119443953037262 0.11989210546016693
0.217041015625 0.3205181360244751 0.12756101787090302
0.27478212118148804 0.32782551646232605 0.13356034457683563
0.33895421028137207 0.33336198329925537 0.13825282454490662
0.40888580679893494 0.33716666698455811 0.14171290397644043
0.48380047082901001 0.33952653408050537 0.14440351724624634
0.56320160627365112 0.34098696708679199 0.14641059935092926
0.64615440368652344 0.34256041049957275 0.14801476895809174
0.73189938068389893 0.34466522932052612 0.14958773553371429
0.81963652372360229 0.34725114703178406 0.15126794576644897
0.059641506522893906 0.35458475351333618 0.10134853422641754
0.095292679965496063 0.36536267399787903 0.11177080869674683
0.1345997154712677 0.37671443819999695 0.12244413793087006
0.17956419289112091 0.38771942257881165 0.1325601190328598
0.23117481172084808 0.39764595031738281 0.14165343344211578
0.28951254487037659 0.40628772974014282 0.14937551319599152
0.35463559627532959 0.4132084846496582 0.15557532012462616
0.42567533254623413 0.41862469911575317 0.16049368679523468
0.50201481580734253 0.42263004183769226 0.1642930805683136
0.58323198556900024 0.42584323883056641 0.16726197302341461
0.66770052909851074 0.42904254794120789 0.16980138421058655
0.75489622354507446 0.43248194456100464 0.17207671701908112
0.84395128488540649 0.43611821532249451 0.17439205944538116
0.068234525620937347 0.43315562605857849 0.11312068998813629
0.10535595566034317 0.4448096752166748 0.12376099824905396
0.14595398306846619 0.45752805471420288 0.13517506420612335
0.19210246205329895 0.46961691975593567 0.14641766250133514
0.24465039372444153 0.4807744026184082 0.15674926340579987
0.30399858951568604 0.49056041240692139 0.16574352979660034
0.37004345655441284 0.49877426028251648 0.1733306497335434
0.44259563088417053 0.5054362416267395 0.17938071489334106
0.52053302526473999 0.51077663898468018 0.18434101343154907
0.60321372747421265 0.51513707637786865 0.18819628655910492
0.68958032131195068 0.51914650201797485 0.19145826995372772
0.77855730056762695 0.52305853366851807 0.19443823397159576
0.86903268098831177 0.52750301361083984 0.19738122820854187
0.077306903898715973 0.51845914125442505 0.12583550810813904
0.11555783450603485 0.53083509206771851 0.13720187544822693
0.15746480226516724 0.54418283700942993 0.14940614998340607
0.20488303899765015 0.55715376138687134 0.16142557561397552
0.25840744376182556 0.56922125816345215 0.17271532118320465
0.31865647435188293 0.5800091028213501 0.18287378549575806
0.38569843769073486 0.58923214673995972 0.19157275557518005
0.45930019021034241 0.59704065322875977 0.1983788013458252
0.53885406255722046 0.60335159301757812 0.20443719625473022
0.62330275774002075 0.60867643356323242 0.20910961925983429
0.7113795280456543 0.61294162273406982 0.21305906772613525
0.80218124389648438 0.61724817752838135 0.21667376160621643
0.89400410652160645 0.62226754426956177 0.22017349302768707
0.087889142334461212 0.60896021127700806 0.14011715352535248
0.12731778621673584 0.62186944484710693 0.15188544988632202
0.17043264210224152 0.63567823171615601 0.16460889577865601
0.21895474195480347 0.64916813373565674 0.17732194066047668
0.27326491475105286 0.66184258460998535 0.18954858183860779
0.33432257175445557 0.67348200082778931 0.20081751048564911
0.40219840407371521 0.68375921249389648 0.21048937737941742
0.47699448466300964 0.69247603416442871 0.21852093935012817
0.55778318643569946 0.699726402759552 0.22487050294876099
0.643699049949646 0.70576488971710205 0.23012520372867584
0.73339653015136719 0.71073079109191895 0.23470358550548553
0.82548707723617554 0.71545106172561646 0.23887878656387329
0.91859894990921021 0.7208210825920105 0.24315011501312256
0.10043937712907791 0.7034459114074707 0.15553152561187744
0.14163637161254883 0.71628069877624512 0.16751757264137268
0.18616849184036255 0.7304261326789856 0.18060919642448425
0.23540566861629486 0.74418741464614868 0.19392122328281403
0.29052549600601196 0.75768238306045532 0.20700232684612274
0.35184943675994873 0.77013230323791504 0.21908029913902283
0.42033818364143372 0.78132355213165283 0.22978158295154572
0.49610164761543274 0.79094886779785156 0.23819537460803986
0.5780487060546875 0.79894030094146729 0.24517664313316345
0.66505694389343262 0.80577653646469116 0.25104448199272156
0.75556236505508423 0.81169337034225464 0.25628286600112915
0.84847646951675415 0.81710517406463623 0.26116621494293213
0.94231945276260376 0.82308691740036011 0.26602622866630554
0.1162932887673378 0.80074453353881836 0.17222271859645844
0.15874305367469788 0.81375306844711304 0.18439792096614838
0.20503897964954376 0.82765656709671021 0.19753400981426239
0.25522592663764954 0.84179103374481201 0.21116110682487488
0.31077498197555542 0.85567581653594971 0.2248077392578125
0.37275415658950806 0.86894053220748901 0.23752281069755554
0.44165635108947754 0.88081061840057373 0.2487545907497406
0.5181349515914917 0.89119899272918701 0.25786828994750977
0.60079324245452881 0.90009152889251709 0.26558700203895569
0.68801915645599365 0.9079819917678833 0.27207300066947937
0.77876549959182739 0.91464900970458984 0.27792078256607056
0.87205767631530762 0.92114794254302979 0.28346270322799683
0.96504789590835571 0.9278261661529541 0.28899136185646057
0.0017964680446311831 0.0023807003162801266 0.06856951117515564
0.022561885416507721 0.0090937148779630661 0.0716065913438797
0.053662765771150589 0.011045986786484718 0.07322133332490921
0.091036401689052582 0.0064441156573593616 0.073209665715694427
0.13508716225624084 0.0035282957833260298 0.071855343878269196
0.18543817102909088 0.002085008891299367 0.069497235119342804
0.24126726388931274 0.0014016544446349144 0.066617287695407867
0.30321905016899109 0.00073529413202777505 0.064182758331298828
0.36898323893547058 0.0006324319401755929 0.062707282602787018
0.43911761045455933 0.00025401395396329463 0.061405811458826065
0.51308941841125488 0.00017233456310350448 0.05944061279296875
0.59080106019973755 0.00017233456310350448 0.056948702782392502
0.67159372568130493 0.00025168026331812143 0.055473897606134415
0.012518265284597874 0.028332339599728584 0.078471101820468903
0.038051813840866089 0.038920070976018906 0.083289384841918945
0.068199068307876587 0.041632529348134995 0.086510784924030304
0.10540476441383362 0.039106123149394989 0.087658435106277466
0.14984087646007538 0.03677704930305481 0.086817525327205658
0.2013029009103775 0.035090502351522446 0.084657005965709686
0.25896725058555603 0.033219475299119949 0.082046166062355042
0.32124030590057373 0.031214380636811256 0.080025963485240936
0.38861492276191711 0.029366541653871536 0.078719042241573334
0.46025076508522034 0.027524327859282494 0.077471457421779633
0.53576850891113281 0.025488534942269325 0.075359970331192017
0.61488431692123413 0.024123622104525566 0.072563454508781433
0.69664210081100464 0.024670274928212166 0.070697754621505737
0.022815898060798645 0.065871536731719971 0.087359137833118439
0.047879014164209366 0.074491836130619049 0.093091376125812531
0.079725511372089386 0.077238284051418304 0.09839196503162384
0.11817764490842819 0.078885383903980255 0.10123060643672943
0.16396638751029968 0.080608248710632324 0.10149841010570526
0.21736273169517517 0.081828519701957703 0.10002780705690384
0.27620631456375122 0.081764489412307739 0.098449215292930603
0.34020474553108215 0.080499105155467987 0.097208522260189056
0.40900453925132751 0.078208118677139282 0.096168294548988342
0.48217862844467163 0.075450316071510315 0.095131739974021912
0.55935579538345337 0.072487771511077881 0.092930935323238373
0.63989657163619995 0.070232182741165161 0.090561479330062866
0.72281116247177124 0.070681840181350708 0.089432075619697571
0.028349019587039948 0.11129829287528992 0.095560662448406219
0.055188540369272232 0.118802510201931 0.10208521783351898
0.089013822376728058 0.12343581020832062 0.10895759612321854
0.12927350401878357 0.12788937985897064 0.11353927105665207
0.17722845077514648 0.13199900090694427 0.11556166410446167
0.23262348771095276 0.13503912091255188 0.11570726335048676
0.29325029253959656 0.13632391393184662 0.11553848534822464
0.35884276032447815 0.13538080453872681 0.11509569734334946
0.42924487590789795 0.13372364640235901 0.11465582996606827
0.50421243906021118 0.13054923713207245 0.11440658569335938
0.58294999599456787 0.12714123725891113 0.11242321133613586
0.66485816240310669 0.12452702224254608 0.11098196357488632
0.7490847110748291 0.12523463368415833 0.11051376909017563
0.035542178899049759 0.16432821750640869 0.1039130687713623
0.064909182488918304 0.17202220857143402 0.11122040450572968
