assets/lut/alexjordan bleech bypass green.cube
# Created by: G'MIC (https://gmic.eu)
TITLE "bleech_bypass_green"
# LUT size
LUT_3D_SIZE 13
# Data domain
DOMAIN_MIN 0.0 0.0 0.0
DOMAIN_MAX 1.0 1.0 1.0
# LUT data points
0.008114788681268692 0.0080101462081074715 0.006762815173715353
0.018889572471380234 0.0098471548408269882 0.0057301539927721024
0.030345708131790161 0.010169743560254574 0.0045166313648223877
0.045959159731864929 0.010549387894570827 0.004965419415384531
0.064705252647399902 0.010210298933088779 0.0062980051152408123
0.085706494748592377 0.010870002210140228 0.0083880256861448288
0.15026244521141052 0.01427250262349844 0.0097543010488152504
0.28959429264068604 0.014672821387648582 0.0075813294388353825
0.44337606430053711 0.012878657318651676 0.0069424798712134361
0.59145098924636841 0.013010631315410137 0.0074508818797767162
0.73336762189865112 0.014305862598121166 0.0095661533996462822
0.86921226978302002 0.017096934840083122 0.013264644891023636
0.9829554557800293 0.021571185439825058 0.016572242602705956
0.011569991707801819 0.029142178595066071 0.0099091921001672745
0.02937336266040802 0.033996924757957458 0.009939919225871563
0.048527467995882034 0.037769556045532227 0.0093917995691299438
0.071333520114421844 0.039435263723134995 0.0090371975675225258
0.099140897393226624 0.039292100816965103 0.0087252147495746613
0.13538134098052979 0.041359260678291321 0.0097588486969470978
0.20647929608821869 0.047286417335271835 0.011395053938031197
0.33473742008209229 0.051417872309684753 0.011249287985265255
0.4808279275894165 0.054759606719017029 0.010637665167450905
0.61881542205810547 0.05932597815990448 0.011042606085538864
0.75074732303619385 0.064639069139957428 0.0130207734182477
0.87786036729812622 0.071629181504249573 0.017326055094599724
0.98406863212585449 0.080790996551513672 0.021025264635682106
0.01117814052850008 0.059696093201637268 0.0085006263107061386
0.036366868764162064 0.069096356630325317 0.0083893872797489166
0.06348814070224762 0.07656676322221756 0.0095390770584344864
0.094694472849369049 0.081218942999839783 0.010494575835764408
0.13114990293979645 0.084754690527915955 0.010652818717062473
0.17687880992889404 0.089978374540805817 0.011008633300662041
0.25265371799468994 0.0983567014336586 0.012415507808327675
0.37768569588661194 0.10470566153526306 0.013015477918088436
0.51594382524490356 0.11116255074739456 0.012741073966026306
0.64457130432128906 0.11920987069606781 0.012610821053385735
0.76606565713882446 0.12756328284740448 0.014992134645581245
0.88369095325469971 0.13729891180992126 0.018946180120110512
0.98384809494018555 0.14994886517524719 0.023167001083493233
0.010986717417836189 0.11112625896930695 0.0075713661499321461
0.043019536882638931 0.12268643826246262 0.0081405937671661377
0.0794554203748703 0.13292397558689117 0.00997950229793787
0.11950284242630005 0.14124876260757446 0.01189213152974844
0.16433241963386536 0.1491619199514389 0.013283927924931049
0.21855266392230988 0.15888643264770508 0.014137403108179569
0.29993721842765808 0.16930733621120453 0.014790419489145279
0.4199984073638916 0.17747099697589874 0.015366752631962299
0.54921483993530273 0.18650819361209869 0.015575453639030457
0.66987764835357666 0.19666467607021332 0.015906106680631638
0.78285247087478638 0.2067095935344696 0.017450982704758644
0.89032661914825439 0.21790975332260132 0.020787900313735008
0.98373252153396606 0.23265956342220306 0.024712266400456429
0.012873211875557899 0.18346145749092102 0.0091273291036486626
0.052748691290616989 0.19685626029968262 0.010514562018215656
0.097420848906040192 0.20960251986980438 0.012667622417211533
0.14721356332302094 0.22084911167621613 0.014849210157990456
0.20309124886989594 0.23274798691272736 0.015998316928744316
0.27008596062660217 0.24585933983325958 0.016682179644703865
0.35869494080543518 0.25762298703193665 0.017260922119021416
0.470195472240448 0.26819393038749695 0.017801845446228981
0.58665460348129272 0.28150543570518494 0.018128832802176476
0.69705826044082642 0.29501828551292419 0.01875234954059124
0.80038398504257202 0.30630618333816528 0.020202428102493286
0.89758449792861938 0.31770122051239014 0.022590084001421928
0.98316198587417603 0.33225247263908386 0.025119347497820854
0.016964707523584366 0.27400055527687073 0.013710500672459602
0.064650565385818481 0.2924920916557312 0.015248361974954605
0.11785529553890228 0.30838412046432495 0.01683807373046875
0.17851248383522034 0.32063934206962585 0.018113020807504654
0.24616792798042297 0.33495825529098511 0.019210681319236755
0.32401591539382935 0.35196599364280701 0.01994507759809494
0.41671591997146606 0.36658498644828796 0.020749978721141815
0.52111124992370605 0.37962737679481506 0.021363889798521996
0.62543296813964844 0.39599910378456116 0.021645385771989822
0.72452408075332642 0.41266292333602905 0.021612115204334259
0.81733471155166626 0.42614752054214478 0.022111555561423302
0.90442037582397461 0.43817263841629028 0.023065993562340736
0.98297828435897827 0.45072835683822632 0.025358850136399269
0.021498436108231544 0.39032688736915588 0.01777922734618187
0.077092878520488739 0.41348558664321899 0.019466085359454155
0.13926346600055695 0.43045270442962646 0.02070961706340313
0.21065859496593475 0.4408072829246521 0.021715052425861359
0.28985732793807983 0.45491883158683777 0.022380275651812553
0.37581917643547058 0.47482731938362122 0.023012856021523476
0.46979275345802307 0.49251049757003784 0.02374776266515255
0.56806570291519165 0.50689256191253662 0.024461274966597557
0.66311836242675781 0.52299731969833374 0.025005953386425972
0.75206077098846436 0.53977209329605103 0.024866126477718353
0.83470308780670166 0.55431926250457764 0.024206483736634254
0.91247636079788208 0.56756597757339478 0.023978931829333305
0.98400098085403442 0.57971274852752686 0.026841390877962112
0.023957047611474991 0.53126382827758789 0.019218893721699715
0.088010199368000031 0.55182713270187378 0.021719031035900116
0.15981689095497131 0.56565356254577637 0.023187480866909027
0.24232681095600128 0.5728381872177124 0.02371298149228096
0.33246999979019165 0.58405220508575439 0.024205960333347321
0.42704403400421143 0.60124212503433228 0.025228641927242279
0.52275246381759644 0.61798262596130371 0.026425829157233238
0.61565995216369629 0.63177967071533203 0.027706265449523926
0.70134276151657104 0.64651548862457275 0.029035994783043861
0.78029996156692505 0.66119760274887085 0.028822267428040504
0.85365897417068481 0.67443782091140747 0.027716483920812607
0.9228253960609436 0.68792641162872314 0.027696272358298302
0.9862828254699707 0.69913017749786377 0.030980337411165237
0.026352228596806526 0.66754722595214844 0.021569928154349327
0.099855966866016388 0.6828504204750061 0.023679561913013458
0.18208511173725128 0.69179588556289673 0.024867009371519089
0.27422720193862915 0.69711154699325562 0.025580925866961479
0.37456271052360535 0.70465379953384399 0.026161851361393929
0.47833466529846191 0.71604430675506592 0.027061792090535164
0.57712662220001221 0.7285277247428894 0.027788050472736359
0.66455286741256714 0.74094974994659424 0.029025761410593987
0.74047422409057617 0.75394833087921143 0.031053056940436363
0.80960536003112793 0.76580309867858887 0.031558211892843246
0.87434291839599609 0.77629327774047852 0.031565677374601364
0.93679362535476685 0.78725016117095947 0.033188898116350174
0.9914085865020752 0.79589825868606567 0.039046760648488998
0.030552240088582039 0.78144282102584839 0.026574872434139252
0.11423203349113464 0.79303210973739624 0.027182769030332565
0.20630431175231934 0.79915767908096313 0.027618408203125
0.30652225017547607 0.80296027660369873 0.028118746355175972
0.41480454802513123 0.80741363763809204 0.028277616947889328
0.52721303701400757 0.81340253353118896 0.028032384812831879
0.63011568784713745 0.82113468647003174 0.02787385880947113
0.71264582872390747 0.8304520845413208 0.028874760493636131
0.77911728620529175 0.840484619140625 0.030489230528473854
0.83880817890167236 0.84963935613632202 0.032336920499801636
0.89672398567199707 0.85793387889862061 0.03477681428194046
0.95369809865951538 0.86562454700469971 0.040327064692974091
0.99705123901367188 0.87090343236923218 0.050776224583387375
0.04186350479722023 0.87022948265075684 0.034337691962718964
0.13474114239215851 0.88067996501922607 0.033891282975673676
0.23533105850219727 0.88577866554260254 0.033354859799146652
0.34256544709205627 0.88856673240661621 0.033017579466104507
0.45636579394340515 0.89045286178588867 0.031981270760297775
0.57663285732269287 0.8922843337059021 0.029989788308739662
0.68315869569778442 0.89531064033508301 0.028535850346088409
0.76044595241546631 0.90130496025085449 0.029125573113560677
0.8171125054359436 0.90887969732284546 0.03013642318546772
0.86806029081344604 0.91606152057647705 0.033882666379213333
0.91979575157165527 0.92255973815917969 0.039973001927137375
0.97195398807525635 0.92792946100234985 0.050420723855495453
0.99980521202087402 0.93093013763427734 0.065359659492969513
0.06119396910071373 0.94038468599319458 0.045040532946586609
0.16189619898796082 0.94963228702545166 0.044203545898199081
0.2717500627040863 0.95405346155166626 0.043213758617639542
0.38807889819145203 0.95561796426773071 0.041670408099889755
0.51051288843154907 0.95492154359817505 0.038490280508995056
0.63721680641174316 0.95358103513717651 0.034271568059921265
0.7443612813949585 0.95341378450393677 0.031525120139122009
0.812610924243927 0.95720666646957397 0.031779959797859192
0.85731679201126099 0.9630705714225769 0.034380055963993073
0.90071874856948853 0.96902155876159668 0.040781941264867783
0.94706648588180542 0.97423231601715088 0.051576845347881317
0.99027639627456665 0.97819274663925171 0.066333353519439697
1 0.97997152805328369 0.084549322724342346
0.086997479200363159 0.99245226383209229 0.060122322291135788
0.19553160667419434 0.99606877565383911 0.059688806533813477
0.31378921866416931 0.99741679430007935 0.05883624404668808
0.44008764624595642 0.9975929856300354 0.056175500154495239
0.57175940275192261 0.99681788682937622 0.051638435572385788
0.7015642523765564 0.99545717239379883 0.045515425503253937
0.80597257614135742 0.9947018027305603 0.042009748518466949
0.8664853572845459 0.99601459503173828 0.043812800198793411
0.90404021739959717 0.99804490804672241 0.049339741468429565
0.94006335735321045 0.99925714731216431 0.059171862900257111
0.9789201021194458 0.99997663497924805 0.072961233556270599
0.99950689077377319 1 0.089895211160182953
1 1 0.11057434231042862
0.0049400180578231812 0.0073888292536139488 0.01021468173712492
0.014872666448354721 0.0093270996585488319 0.011735220439732075
0.02736644446849823 0.011357206851243973 0.013681463897228241
0.046030126512050629 0.012742480263113976 0.016560198739171028
0.068592041730880737 0.012398962862789631 0.018961768597364426
0.095773018896579742 0.011377536691725254 0.020871451124548912
0.15747706592082977 0.014486409723758698 0.02425963431596756
0.29597550630569458 0.016367055475711823 0.02740681916475296
0.45143565535545349 0.015338419005274773 0.030868425965309143
0.59770703315734863 0.014570019207894802 0.034754704684019089
0.73619323968887329 0.015004326589405537 0.039238546043634415
0.8690677285194397 0.01697247102856636 0.044879555702209473
0.98184990882873535 0.020778311416506767 0.049829490482807159
0.010676350444555283 0.029948575422167778 0.020345889031887054
0.02748057059943676 0.035072851926088333 0.02231547050178051
0.047249678522348404 0.039193890988826752 0.024573545902967453
0.072979331016540527 0.041351962834596634 0.027198268100619316
0.10349131375551224 0.041866645216941833 0.028807142749428749
0.14067934453487396 0.043277155607938766 0.030324330553412437
0.2094448059797287 0.0492527075111866 0.034003030508756638
0.33758571743965149 0.054770391434431076 0.037948593497276306
0.48481038212776184 0.058050401508808136 0.040832147002220154
0.62210404872894287 0.061459019780158997 0.043265800923109055
0.75144010782241821 0.065766550600528717 0.04745832085609436
0.8772202730178833 0.07149091362953186 0.054457046091556549
0.98394572734832764 0.080027878284454346 0.061209585517644882
0.010460333898663521 0.063919275999069214 0.025983413681387901
0.034985128790140152 0.07257283478975296 0.027759881690144539
0.063662782311439514 0.079337552189826965 0.031707704067230225
0.097440727055072784 0.084190666675567627 0.035249792039394379
0.13507358729839325 0.088033117353916168 0.037896174937486649
0.17948445677757263 0.093626148998737335 0.040156032890081406
0.25496774911880493 0.1018824577331543 0.043247133493423462
0.38140073418617249 0.10913971811532974 0.046529822051525116
0.51921659708023071 0.1152324303984642 0.048727985471487045
0.6460644006729126 0.12196224182844162 0.050132915377616882
0.76536691188812256 0.12936206161975861 0.054102953523397446
0.88283818960189819 0.1384875625371933 0.062077123671770096
0.98360031843185425 0.15093816816806793 0.070203520357608795
0.010034373961389065 0.117636539041996 0.030723482370376587
0.042071472853422165 0.12821894884109497 0.03341490775346756
0.079795971512794495 0.13725414872169495 0.038914009928703308
0.12258327752351761 0.14527735114097595 0.043921526521444321
0.17011196911334991 0.15343828499317169 0.047553852200508118
0.22619116306304932 0.16273793578147888 0.050445511937141418
0.30923888087272644 0.17282301187515259 0.053038414567708969
0.42841792106628418 0.18190324306488037 0.055480461567640305
0.55510944128036499 0.19079172611236572 0.057586506009101868
0.67274528741836548 0.20004326105117798 0.05987880751490593
0.78353804349899292 0.20983578264713287 0.064169727265834808
0.89058083295822144 0.22167064249515533 0.071137823164463043
0.98382353782653809 0.23694828152656555 0.078654266893863678
0.012199745513498783 0.19168360531330109 0.039321016520261765
0.052252586930990219 0.20313701033592224 0.043553013354539871
0.09864477813243866 0.21469160914421082 0.049292784184217453
0.15070481598377228 0.2262774258852005 0.054380856454372406
0.20889060199260712 0.23849639296531677 0.058299314230680466
0.27706128358840942 0.25088769197463989 0.060982916504144669
0.36563783884048462 0.26215711236000061 0.062956087291240692
0.47638913989067078 0.27308988571166992 0.065195389091968536
0.59177136421203613 0.28611934185028076 0.067905664443969727
0.70082676410675049 0.29922512173652649 0.071238316595554352
0.8028562068939209 0.31141722202301025 0.075347393751144409
0.89927685260772705 0.32518991827964783 0.080408252775669098
0.98402935266494751 0.3419133722782135 0.086456954479217529
0.016658604145050049 0.28279736638069153 0.052199121564626694
0.065137557685375214 0.29821836948394775 0.056867770850658417
0.11972544342279434 0.31356361508369446 0.061934825032949448
0.18148735165596008 0.32808730006217957 0.066027380526065826
0.25050359964370728 0.34343597292900085 0.069268397986888885
0.32896023988723755 0.35864162445068359 0.071809969842433929
0.42135992646217346 0.37133908271789551 0.073668338358402252
0.52519601583480835 0.38451135158538818 0.076016925275325775
0.62991654872894287 0.4015815258026123 0.079136520624160767
0.72894018888473511 0.41846206784248352 0.082282230257987976
0.8213774561882019 0.43314152956008911 0.085463441908359528
0.90773987770080566 0.44843873381614685 0.0885649174451828
0.98437517881393433 0.46508499979972839 0.093610607087612152
0.021779647096991539 0.40021553635597229 0.064507625997066498
0.078151345252990723 0.4182543158531189 0.069393530488014221
0.14156834781169891 0.43519836664199829 0.073979094624519348
0.21376840770244598 0.44990712404251099 0.077305950224399567
0.29417738318443298 0.46580642461776733 0.080122925341129303
0.3819223940372467 0.482492595911026 0.082851007580757141
0.47645431756973267 0.49734005331993103 0.085485510528087616
0.57412862777709961 0.5118899941444397 0.08834366500377655
0.66842573881149292 0.52924555540084839 0.091456800699234009
0.75714415311813354 0.54700601100921631 0.093969978392124176
0.83943682909011841 0.56231695413589478 0.095859885215759277
0.91659045219421387 0.57821577787399292 0.097791455686092377
0.98568499088287354 0.59359180927276611 0.10240376740694046
0.024963991716504097 0.54173797369003296 0.072849661111831665
0.089942485094070435 0.55722355842590332 0.078997306525707245
0.16292190551757812 0.57027667760848999 0.083948113024234772
0.24621680378913879 0.58179712295532227 0.087350256741046906
0.33845081925392151 0.59501588344573975 0.090385183691978455
0.43585574626922607 0.60983699560165405 0.093654200434684753
0.53286212682723999 0.62402933835983276 0.097332432866096497
0.62427055835723877 0.63795989751815796 0.10110602527856827
0.70826041698455811 0.65304583311080933 0.10431411117315292
0.78613066673278809 0.66777104139328003 0.10649702697992325
0.85893583297729492 0.68120163679122925 0.1080024242401123
0.92747217416763306 0.6952589750289917 0.1101374477148056
0.98832690715789795 0.7077363133430481 0.11559593677520752
0.026233449578285217 0.67732048034667969 0.083023518323898315
0.10026440769433975 0.68999403715133667 0.088570825755596161
0.18371319770812988 0.69878542423248291 0.093249425292015076
0.27793896198272705 0.70634990930557251 0.096836358308792114
0.38155743479728699 0.71537965536117554 0.099924735724925995
0.48979160189628601 0.72578930854797363 0.10352110117673874
0.5908273458480835 0.73657053709030151 0.10775504261255264
0.67531269788742065 0.74823427200317383 0.11186277866363525
0.74806332588195801 0.76024681329727173 0.11527391523122787
0.81510341167449951 0.7712782621383667 0.11755198985338211
0.87915730476379395 0.78099691867828369 0.11985955387353897
0.94026964902877808 0.79146790504455566 0.12407814711332321
0.99260193109512329 0.8011438250541687 0.13167713582515717
0.027830086648464203 0.78852492570877075 0.096499167382717133
0.11139201372861862 0.80036759376525879 0.1000334769487381
0.20548160374164581 0.80701178312301636 0.10368537157773972
0.30865216255187988 0.81195569038391113 0.10699706524610519
0.4211580753326416 0.81727617979049683 0.10981670022010803
0.53893959522247314 0.82298809289932251 0.11273462325334549
0.64426165819168091 0.82957875728607178 0.11649319529533386
0.72289890050888062 0.83787405490875244 0.12048672139644623
0.78537601232528687 0.84687501192092896 0.12362807244062424
0.84250271320343018 0.85500818490982056 0.12616835534572601
0.89855176210403442 0.86190956830978394 0.12989167869091034
0.9534916877746582 0.86919218301773071 0.13681930303573608
0.9965478777885437 0.87561005353927612 0.14835305511951447
0.0336429663002491 0.87598890066146851 0.11162923276424408
0.12723757326602936 0.88693833351135254 0.11391647905111313
0.23051972687244415 0.89268070459365845 0.11672449856996536
0.34165975451469421 0.89621239900588989 0.1192924976348877
0.46000838279724121 0.89883023500442505 0.12138881534337997
0.58365917205810547 0.90053719282150269 0.12258658558130264
0.69112598896026611 0.90337228775024414 0.12451765686273575
0.76601344347000122 0.90842258930206299 0.12813742458820343
0.82003307342529297 0.91475331783294678 0.13129878044128418
0.86901682615280151 0.92074114084243774 0.1347234696149826
0.91865605115890503 0.92588990926742554 0.14064821600914001
0.9678802490234375 0.93111211061477661 0.15096543729305267
0.99939215183258057 0.93496334552764893 0.16664189100265503
0.047430075705051422 0.9449654221534729 0.12897829711437225
0.15014758706092834 0.95399153232574463 0.13098485767841339
0.26329657435417175 0.95883762836456299 0.13396267592906952
0.38378176093101501 0.96122586727142334 0.13576492667198181
0.50973188877105713 0.96132189035415649 0.13579562306404114
0.63723456859588623 0.96009159088134766 0.13479353487491608
0.74388927221298218 0.96006792783737183 0.13547280430793762
0.81323146820068359 0.96295845508575439 0.13856311142444611
0.85774451494216919 0.96751785278320312 0.14247201383113861
0.89915943145751953 0.97197085618972778 0.14846833050251007
0.94269102811813354 0.97596055269241333 0.15764577686786652
0.98535847663879395 0.97959601879119873 0.17115983366966248
1 0.98178589344024658 0.19030103087425232
0.069917462766170502 0.99416524171829224 0.14991001784801483
0.18068760633468628 0.99723184108734131 0.15282995998859406
0.30301335453987122 0.99850177764892578 0.15641234815120697
0.43330353498458862 0.99852943420410156 0.15792049467563629
0.56735813617706299 0.99845176935195923 0.15676158666610718
0.6970335841178894 0.99747347831726074 0.15440043807029724
0.7999190092086792 0.99686515331268311 0.15440924465656281
0.86430388689041138 0.99776339530944824 0.15799012780189514
0.90311986207962036 0.99880731105804443 0.16396243870258331
0.93696945905685425 0.99947887659072876 0.17270132899284363
0.97310233116149902 1 0.18446528911590576
0.99821901321411133 1 0.20043380558490753
1 1 0.22143945097923279
0.0039789089933037758 0.0062104915268719196 0.01374531164765358
0.013897974044084549 0.0085519375279545784 0.018896829336881638
0.028009586036205292 0.011031460948288441 0.023909879848361015
0.048603475093841553 0.013140958733856678 0.028893819078803062
0.074188098311424255 0.014059627428650856 0.033822033554315567
0.10280083864927292 0.014419196173548698 0.039150912314653397
0.16153712570667267 0.016456229612231255 0.044520821422338486
0.30406266450881958 0.017485719174146652 0.050941139459609985
0.46125748753547668 0.016806928440928459 0.058311209082603455
0.60413920879364014 0.016418278217315674 0.065304264426231384
0.7382814884185791 0.016448734328150749 0.071203656494617462
0.86768847703933716 0.01742870919406414 0.076391048729419708
0.98010212182998657 0.020132850855588913 0.082183361053466797
0.010104998014867306 0.030183544382452965 0.031367957592010498
0.027229892089962959 0.035670246928930283 0.036871861666440964
0.048431396484375 0.04031747579574585 0.04256013035774231
0.076379306614398956 0.043719332665205002 0.04744885116815567
0.10903791338205338 0.045988433063030243 0.051692362874746323
0.14693821966648102 0.048735734075307846 0.056464340537786484
0.21754379570484161 0.053677741438150406 0.062953874468803406
0.34643551707267761 0.058460444211959839 0.069613531231880188
0.49306803941726685 0.061743777245283127 0.075445212423801422
0.62759262323379517 0.064431272447109222 0.080316387116909027
0.7536318302154541 0.067733302712440491 0.086162909865379333
0.87644273042678833 0.071932576596736908 0.093754082918167114
0.9821321964263916 0.079258725047111511 0.10187352448701859
0.010746076703071594 0.066524341702461243 0.045785568654537201
0.035976797342300415 0.075425900518894196 0.050754085183143616
0.066038809716701508 0.082830123603343964 0.057434562593698502
0.10240943729877472 0.088607847690582275 0.06343396008014679
0.14394982159137726 0.093667514622211456 0.068321049213409424
0.19279739260673523 0.099787242710590363 0.073708631098270416
0.27131813764572144 0.10747272521257401 0.079568974673748016
0.39402556419372559 0.11459837108850479 0.085342302918434143
0.52739274501800537 0.12017364799976349 0.09000638872385025
0.65094411373138428 0.12576486170291901 0.093541793525218964
0.76771634817123413 0.13204643130302429 0.099463008344173431
0.88318973779678345 0.14015355706214905 0.10955666750669479
0.98320060968399048 0.15178398787975311 0.11973092705011368
0.010968197137117386 0.1218210831284523 0.059738997370004654
0.043981753289699554 0.13260254263877869 0.065082699060440063
0.083195537328720093 0.14231047034263611 0.072657808661460876
0.12884505093097687 0.15132024884223938 0.079805396497249603
0.18174132704734802 0.16020084917545319 0.085995003581047058
0.24218699336051941 0.16944907605648041 0.091788046061992645
0.32547366619110107 0.17963691055774689 0.096571512520313263
0.44192153215408325 0.18861202895641327 0.10114523023366928
0.56345456838607788 0.19647642970085144 0.10576414316892624
0.67770880460739136 0.20461203157901764 0.11035479605197906
0.7863541841506958 0.2134651243686676 0.1173410639166832
0.89185082912445068 0.22514647245407104 0.12696285545825958
0.98384684324264526 0.2407219409942627 0.13715840876102448
0.012992380186915398 0.19584943354129791 0.076752953231334686
0.054503392428159714 0.20788051187992096 0.083139248192310333
0.10236655175685883 0.2204606682062149 0.091088540852069855
