assets/lut/alexjordan orange dark 04.cube
# Created by: G'MIC (https://gmic.eu)
TITLE "orange_dark_4"
# LUT size
LUT_3D_SIZE 7
# Data domain
DOMAIN_MIN 0.0 0.0 0.0
DOMAIN_MAX 1.0 1.0 1.0
# LUT data points
0.010663365013897419 0.0071007972583174706 0.0070288563147187233
0.024419672787189484 0.0092977182939648628 0.012923865579068661
0.067619338631629944 0.012874259613454342 0.024397442117333412
0.13280284404754639 0.018872398883104324 0.031288895756006241
0.21918877959251404 0.026335114613175392 0.031821306794881821
0.33897414803504944 0.027399608865380287 0.028619714081287384
0.47828364372253418 0.02297687903046608 0.027167031541466713
0.037816859781742096 0.060781307518482208 0.040957402437925339
0.089331731200218201 0.073913395404815674 0.042939502745866776
0.18688592314720154 0.080056391656398773 0.044319048523902893
0.30553743243217468 0.083081655204296112 0.039981856942176819
0.43944272398948669 0.084866032004356384 0.034845657646656036
0.60576164722442627 0.08030865341424942 0.023685993626713753
0.77682489156723022 0.073451384902000427 0.016624286770820618
0.034621309489011765 0.17565900087356567 0.048726100474596024
0.1346585601568222 0.18498654663562775 0.040833462029695511
0.28378665447235107 0.18595878779888153 0.023739024996757507
0.44160261750221252 0.18489471077919006 0.010683126747608185
0.59725576639175415 0.18569381535053253 0.0084797125309705734
0.77985286712646484 0.18053275346755981 0.0028106539975851774
0.96448326110839844 0.17286558449268341 0.00030421835253946483
0.009415091946721077 0.33371731638908386 0.031904228031635284
0.1389237642288208 0.33487805724143982 0.014716578647494316
0.32835295796394348 0.32704281806945801 0.0005858477670699358
0.51175838708877563 0.3231360912322998 0
0.67292571067810059 0.32721090316772461 0
0.84118348360061646 0.32968822121620178 0
0.99594360589981079 0.32705122232437134 0
0.0026714997366070747 0.50406652688980103 0.020097516477108002
0.14430084824562073 0.49837735295295715 0.0027806300204247236
0.36607944965362549 0.48182737827301025 0
0.56119370460510254 0.47741979360580444 0
0.72024762630462646 0.48494982719421387 1.220703143189894e-05
0.87837111949920654 0.49238955974578857 0.0013346055056899786
1 0.4924875795841217 0.00056831509573385119
0.021139886230230331 0.67078602313995361 0.032595884054899216
0.19682002067565918 0.65953189134597778 0.018175985664129257
0.42287340760231018 0.64216089248657227 0.014075051061809063
0.62010288238525391 0.63880723714828491 0.012184890918433666
0.78458422422409058 0.64616388082504272 0.013277660124003887
0.9423823356628418 0.65310209989547729 0.012968220748007298
1 0.65782195329666138 0.017901880666613579
0.078891217708587646 0.83638679981231689 0.068101711571216583
0.26929891109466553 0.82340961694717407 0.055400863289833069
0.48230129480361938 0.81101995706558228 0.050989728420972824
0.68073111772537231 0.80816870927810669 0.051208123564720154
0.85506713390350342 0.81400936841964722 0.053140290081501007
0.99527853727340698 0.82159876823425293 0.055858582258224487
1 0.82879185676574707 0.063608579337596893
0.0017735649598762393 0.0031387628987431526 0.003339430782943964
0.028668422251939774 0.011701381765305996 0.01546033937484026
0.077966578304767609 0.019870234653353691 0.030381370335817337
0.14744792878627777 0.025419991463422775 0.041047625243663788
0.24344365298748016 0.029164062812924385 0.047094084322452545
0.37094435095787048 0.027436289936304092 0.046333957463502884
0.52342420816421509 0.019562305882573128 0.044629145413637161
0.039513081312179565 0.068470925092697144 0.055240150541067123
0.099443726241588593 0.083844847977161407 0.062987968325614929
0.20486237108707428 0.088519856333732605 0.065435849130153656
0.32833161950111389 0.089057028293609619 0.062348250299692154
0.47036713361740112 0.08805510401725769 0.057112287729978561
0.64113408327102661 0.079669669270515442 0.044476766139268875
0.82204461097717285 0.069239810109138489 0.034906394779682159
0.040063627064228058 0.18498586118221283 0.077899888157844543
0.1445453017950058 0.19564256072044373 0.074044123291969299
0.29897990822792053 0.19493371248245239 0.058541137725114822
0.45912128686904907 0.19223178923130035 0.042484823614358902
0.61931759119033813 0.19138343632221222 0.033051375299692154
0.79633432626724243 0.18699894845485687 0.020165596157312393
0.97151046991348267 0.18132612109184265 0.014261028729379177
0.014084490947425365 0.34178966283798218 0.068296946585178375
0.14967198669910431 0.3447907567024231 0.051622755825519562
0.34305569529533386 0.33657321333885193 0.029353810474276543
0.52446466684341431 0.3328917920589447 0.013589627109467983
0.68339735269546509 0.3373788595199585 0.0088128037750720978
0.84623187780380249 0.3410528302192688 0.0058345571160316467
0.99475902318954468 0.33995091915130615 0.0052685756236314774
0.011817139573395252 0.50927793979644775 0.058789093047380447
0.16896359622478485 0.50442790985107422 0.040864534676074982
0.3822765052318573 0.49119943380355835 0.024092117324471474
0.57350116968154907 0.48796707391738892 0.018019342795014381
0.73232805728912354 0.49572566151618958 0.022464467212557793
0.88964033126831055 0.50274205207824707 0.027098428457975388
1 0.50350689888000488 0.031376440078020096
0.038034342229366302 0.67456948757171631 0.077181480824947357
0.22030463814735413 0.6642950177192688 0.062047772109508514
0.43857601284980774 0.65064436197280884 0.053979102522134781
0.63377505540847778 0.64861690998077393 0.055035773664712906
0.7979271411895752 0.65675246715545654 0.061317577958106995
0.95472902059555054 0.66395038366317749 0.065457619726657867
1 0.66779041290283203 0.07271314412355423
0.092143997550010681 0.83963567018508911 0.12035272270441055
0.28795343637466431 0.82729721069335938 0.10677068680524826
0.50482368469238281 0.81561851501464844 0.100566565990448
0.7007020115852356 0.81471163034439087 0.10416498780250549
0.87024801969528198 0.82241839170455933 0.11151137948036194
0.99819386005401611 0.83028048276901245 0.11722971498966217
1 0.83677738904953003 0.12628741562366486
0.0034930210094898939 0.0045916088856756687 0.010840755887329578
0.032214459031820297 0.016260948032140732 0.027680130675435066
0.087432041764259338 0.026044344529509544 0.044797681272029877
0.1670939028263092 0.030468136072158813 0.060522731393575668
0.27141228318214417 0.031476188451051712 0.07438582181930542
0.39776906371116638 0.030847601592540741 0.078925654292106628
0.54790502786636353 0.023727476596832275 0.07983195036649704
0.047532085329294205 0.077419400215148926 0.080866843461990356
0.10982374101877213 0.09142620861530304 0.09414374828338623
0.21888048946857452 0.095316961407661438 0.099889717996120453
0.35114043951034546 0.094111077487468719 0.1015593409538269
0.49929490685462952 0.089622721076011658 0.10319073498249054
0.66133987903594971 0.084207557141780853 0.093680977821350098
0.82707256078720093 0.078630246222019196 0.083611279726028442
0.042788531631231308 0.19664326310157776 0.12199467420578003
0.14910191297531128 0.20539206266403198 0.12331626564264297
0.31179773807525635 0.20187409222126007 0.11227388679981232
0.47670787572860718 0.19828014075756073 0.099660374224185944
0.6396491527557373 0.19604657590389252 0.091136962175369263
0.80628341436386108 0.19409032166004181 0.078236915171146393
0.96737021207809448 0.19261455535888672 0.071880951523780823
0.014265501871705055 0.35321709513664246 0.12594777345657349
0.14951394498348236 0.3574594259262085 0.11449695378541946
0.35429295897483826 0.34593087434768677 0.094468198716640472
0.53746163845062256 0.34103506803512573 0.080249950289726257
0.69947570562362671 0.34378302097320557 0.073169976472854614
0.85948902368545532 0.3472040593624115 0.068220682442188263
0.99653846025466919 0.34849262237548828 0.069955430924892426
0.021387377753853798 0.51740568876266479 0.12242615967988968
0.18186256289482117 0.51381605863571167 0.11098493635654449
0.39112022519111633 0.50154238939285278 0.097625195980072021
0.58308911323547363 0.49732780456542969 0.09115494042634964
0.74704927206039429 0.50336772203445435 0.092673555016517639
0.90615218877792358 0.50956207513809204 0.095748454332351685
1 0.51226961612701416 0.10198768228292465
0.052491866052150726 0.68072587251663208 0.147923544049263
0.23555539548397064 0.67167288064956665 0.13702565431594849
0.44993132352828979 0.6596333384513855 0.13003154098987579
0.64307016134262085 0.65838402509689331 0.13300605118274689
0.80901187658309937 0.6666485071182251 0.14095292985439301
0.96791177988052368 0.67313200235366821 0.1461770087480545
1 0.67743206024169922 0.15286946296691895
0.10040158778429031 0.84567481279373169 0.19675374031066895
0.29805165529251099 0.83441919088363647 0.1855274885892868
0.51916748285293579 0.82298463582992554 0.17854104936122894
0.7136911153793335 0.82359898090362549 0.18427212536334991
0.88193875551223755 0.83243227005004883 0.19424617290496826
0.99954390525817871 0.84037411212921143 0.20141874253749847
1 0.84666222333908081 0.2093779444694519
0.0067486632615327835 0.010205257683992386 0.026875544339418411
0.041175752878189087 0.022558609023690224 0.048155181109905243
0.10202080011367798 0.030215349048376083 0.069816812872886658
0.18864335119724274 0.033393964171409607 0.090592406690120697
0.2988152801990509 0.032497122883796692 0.11126119643449783
0.43193429708480835 0.029249019920825958 0.1251194179058075
0.57974928617477417 0.024654403328895569 0.13066940009593964
0.050871517509222031 0.086996041238307953 0.11789245903491974
0.11748544871807098 0.1004098653793335 0.13656660914421082
0.23095303773880005 0.10182823985815048 0.14663645625114441
0.36662688851356506 0.099591366946697235 0.15381494164466858
0.51783990859985352 0.093593508005142212 0.1634853184223175
0.67913001775741577 0.087417706847190857 0.16547532379627228
0.83156859874725342 0.086410626769065857 0.15882326662540436
0.046199485659599304 0.20326253771781921 0.18256823718547821
0.15461502969264984 0.21332010626792908 0.18875138461589813
0.31923544406890869 0.20848169922828674 0.18317505717277527
0.4868043065071106 0.2041870504617691 0.17535853385925293
0.65171867609024048 0.201368048787117 0.17216697335243225
0.81412839889526367 0.20016740262508392 0.16654734313488007
0.96372920274734497 0.20226350426673889 0.16109433770179749
0.018025565892457962 0.35983946919441223 0.20536091923713684
0.15785886347293854 0.36398345232009888 0.19937258958816528
0.35922345519065857 0.35247418284416199 0.18499551713466644
0.54694521427154541 0.34545215964317322 0.17395742237567902
0.71240842342376709 0.3478941023349762 0.16958765685558319
0.86851263046264648 0.35261055827140808 0.16657981276512146
0.99643111228942871 0.35688647627830505 0.16704277694225311
0.02286783792078495 0.52369076013565063 0.21692773699760437
0.18842746317386627 0.52063971757888794 0.20744398236274719
0.39871978759765625 0.50807434320449829 0.19682109355926514
0.59264606237411499 0.50277286767959595 0.19150373339653015
0.75773829221725464 0.50814741849899292 0.19247159361839294
0.9172675609588623 0.51544451713562012 0.19637832045555115
1 0.52054154872894287 0.20032556354999542
0.055238492786884308 0.68708187341690063 0.24613022804260254
0.24000383913516998 0.67902392148971558 0.23814612627029419
0.45754340291023254 0.6665990948677063 0.23253700137138367
0.65382325649261475 0.66368132829666138 0.23403386771678925
0.81779193878173828 0.67263638973236084 0.23936642706394196
0.97660732269287109 0.68058180809020996 0.24675291776657104
1 0.6864856481552124 0.25141170620918274
0.10199228674173355 0.8529168963432312 0.29318082332611084
0.29757001996040344 0.84329164028167725 0.28693714737892151
0.52197957038879395 0.83216440677642822 0.28037753701210022
0.72263211011886597 0.83171260356903076 0.28329899907112122
0.89345955848693848 0.84110516309738159 0.29140922427177429
0.99998921155929565 0.85034120082855225 0.29909765720367432
1 0.85694563388824463 0.30562308430671692
0.0088118007406592369 0.017068406566977501 0.044782795011997223
0.050926610827445984 0.027858315035700798 0.070636063814163208
0.11711439490318298 0.033913690596818924 0.098839715123176575
0.20614452660083771 0.036884739995002747 0.1250549852848053
0.31750890612602234 0.036619119346141815 0.15011307597160339
0.45964756608009338 0.03023713082075119 0.17479321360588074
0.62236577272415161 0.020464206114411354 0.19183731079101562
0.052335880696773529 0.096372969448566437 0.15976794064044952
0.12843303382396698 0.10671717673540115 0.18327957391738892
0.24449385702610016 0.10688821971416473 0.20073831081390381
0.38059365749359131 0.10433885455131531 0.21379964053630829
0.5333370566368103 0.098364062607288361 0.22826701402664185
0.70609104633331299 0.088477551937103271 0.24024513363838196
0.87613123655319214 0.081351242959499359 0.24534504115581512
0.048955939710140228 0.21249634027481079 0.248798668384552
0.16354335844516754 0.22080445289611816 0.26070770621299744
0.32799935340881348 0.21505200862884521 0.25970706343650818
0.49546438455581665 0.20956258475780487 0.25762319564819336
0.66247177124023438 0.20629893243312836 0.26062664389610291
0.83005934953689575 0.20376391708850861 0.26187068223953247
0.97805911302566528 0.20551519095897675 0.2597963809967041
0.019525550305843353 0.3670346736907959 0.29304033517837524
0.16474194824695587 0.37138977646827698 0.28894606232643127
0.36816626787185669 0.35863471031188965 0.27623319625854492
0.55225288867950439 0.35201558470726013 0.26829108595848083
0.71806275844573975 0.35433882474899292 0.26897642016410828
0.87246298789978027 0.36031144857406616 0.26948285102844238
0.99392133951187134 0.36701443791389465 0.26858186721801758
0.022089116275310516 0.52983486652374268 0.31871062517166138
0.19446972012519836 0.52643424272537231 0.3092631995677948
0.40679058432579041 0.51375395059585571 0.29671338200569153
0.59819191694259644 0.50869214534759521 0.29063642024993896
0.76328796148300171 0.51549243927001953 0.29322648048400879
0.91906291246414185 0.52487057447433472 0.29902112483978271
1 0.5305364727973938 0.30306631326675415
0.057040389627218246 0.69309717416763306 0.35065269470214844
0.24803468585014343 0.68483144044876099 0.34295552968978882
0.4668196439743042 0.67267060279846191 0.33574709296226501
0.66195881366729736 0.66982537508010864 0.33465942740440369
0.82356435060501099 0.67956691980361938 0.33870267868041992
0.97595798969268799 0.68958693742752075 0.3462471067905426
1 0.69645220041275024 0.35203272104263306
0.11145893484354019 0.85923832654953003 0.39320185780525208
0.31220102310180664 0.84944701194763184 0.38795173168182373
0.53444874286651611 0.83941376209259033 0.38258576393127441
0.73332136869430542 0.83902478218078613 0.38361847400665283
0.89763939380645752 0.84912115335464478 0.39021816849708557
0.99983125925064087 0.85962611436843872 0.39804375171661377
1 0.86738312244415283 0.40483379364013672
0.012661579065024853 0.021157342940568924 0.065651342272758484
0.058262530714273453 0.031780213117599487 0.096179351210594177
0.13140343129634857 0.037061847746372223 0.13242962956428528
0.2261844277381897 0.03940894827246666 0.16618968546390533
0.34156146645545959 0.038687776774168015 0.19957344233989716
0.4885374903678894 0.030315279960632324 0.23218123614788055
0.66403818130493164 0.015924461185932159 0.25807249546051025
0.049782563000917435 0.10478569567203522 0.20507913827896118
0.13697108626365662 0.1109064444899559 0.23386488854885101
0.26131466031074524 0.10910231620073318 0.26310178637504578
0.40230068564414978 0.10485543310642242 0.28487560153007507
0.55959701538085938 0.098668403923511505 0.30466300249099731
0.74221169948577881 0.086645103991031647 0.32155826687812805
0.92293292284011841 0.075788296759128571 0.33227363228797913
0.041256610304117203 0.22306400537490845 0.32031908631324768
0.16582940518856049 0.22747878730297089 0.33574151992797852
0.33681395649909973 0.21951855719089508 0.34282851219177246
0.50912082195281982 0.21260438859462738 0.34730562567710876
0.68142837285995483 0.20832420885562897 0.35480481386184692
0.86079615354537964 0.2032669335603714 0.36019712686538696
0.99792629480361938 0.20242764055728912 0.36127123236656189
0.012885643169283867 0.3764616847038269 0.38239479064941406
0.163020059466362 0.37862807512283325 0.37995392084121704
0.37134325504302979 0.36476919054985046 0.3691023588180542
0.55491441488265991 0.35916262865066528 0.36227202415466309
0.72396469116210938 0.36169958114624023 0.36520683765411377
0.88789039850234985 0.36483302712440491 0.37009513378143311
0.99964094161987305 0.36795413494110107 0.37434986233711243
0.017624005675315857 0.53858596086502075 0.4169522225856781
0.19470585882663727 0.53335142135620117 0.40789911150932312
0.41167336702346802 0.52063190937042236 0.39334675669670105
0.6023026704788208 0.51653236150741577 0.3850189745426178
0.77295362949371338 0.52351003885269165 0.38862273097038269
0.9321407675743103 0.53157621622085571 0.39649572968482971
1 0.53637385368347168 0.40496844053268433
0.061244532465934753 0.70053046941757202 0.45009654760360718
0.25759866833686829 0.69142168760299683 0.44246834516525269
0.47703585028648376 0.67989897727966309 0.43233299255371094
0.67075276374816895 0.67789977788925171 0.42912578582763672
0.838051438331604 0.68740344047546387 0.43430733680725098
0.98685628175735474 0.69721359014511108 0.44220530986785889
1 0.70490866899490356 0.45096015930175781
0.12482250481843948 0.86639285087585449 0.48961374163627625
0.3306770920753479 0.85601520538330078 0.48439449071884155
0.55366849899291992 0.84640359878540039 0.47848773002624512
0.75030624866485596 0.847098708152771 0.47926849126815796
0.90996235609054565 0.85797816514968872 0.48640909790992737
0.99993538856506348 0.86904621124267578 0.49486881494522095
1 0.87770575284957886 0.5033268928527832
0.025774937123060226 0.028875254094600677 0.10000310838222504
0.064910978078842163 0.038830388337373734 0.13361407816410065
0.14609406888484955 0.041414372622966766 0.17526520788669586
0.2480609118938446 0.042618170380592346 0.21421840786933899
0.36781704425811768 0.041213225573301315 0.25364488363265991
0.52226465940475464 0.030908621847629547 0.29166519641876221
0.68029063940048218 0.021677592769265175 0.31859257817268372
0.054334122687578201 0.11498972773551941 0.25802257657051086
0.14622174203395844 0.11765012890100479 0.28898340463638306
0.2793700098991394 0.11144766956567764 0.3293948769569397
0.42396020889282227 0.10681457817554474 0.35712632536888123
0.58361327648162842 0.10064510256052017 0.38209265470504761
0.75698012113571167 0.092868924140930176 0.39763206243515015
0.91243100166320801 0.090528048574924469 0.40422779321670532
0.044722538441419601 0.23001274466514587 0.39411410689353943
0.17446567118167877 0.23270429670810699 0.40680724382400513
0.34781327843666077 0.22389192879199982 0.42323753237724304
0.52284210920333862 0.21698053181171417 0.43471771478652954
0.69625449180603027 0.21304930746555328 0.44524165987968445
0.87468743324279785 0.20863431692123413 0.45089176297187805
0.9997183084487915 0.20912599563598633 0.45207884907722473
0.01574891060590744 0.38363897800445557 0.46658191084861755
0.17442381381988525 0.38167878985404968 0.4665464460849762
0.37837883830070496 0.37031972408294678 0.46197772026062012
0.56525146961212158 0.36539569497108459 0.4585672914981842
0.7275770902633667 0.37002959847450256 0.45853015780448914
0.8933519721031189 0.37149962782859802 0.4648568332195282
1 0.37135088443756104 0.47442597150802612
0.018837632611393929 0.54815506935119629 0.50683307647705078
0.20248304307460785 0.54000073671340942 0.50140130519866943
0.42128881812095642 0.52729243040084839 0.48934650421142578
0.61401712894439697 0.5232730507850647 0.48188263177871704
0.78029990196228027 0.53081917762756348 0.48376792669296265
0.93243354558944702 0.53789913654327393 0.49210566282272339
1 0.54219716787338257 0.5042273998260498
0.070138998329639435 0.71025800704956055 0.54198354482650757
0.26760220527648926 0.70004469156265259 0.53662788867950439
0.485472172498703 0.68904215097427368 0.52765440940856934
0.68137717247009277 0.68587100505828857 0.52417898178100586
0.85694712400436401 0.69443583488464355 0.52864235639572144
0.98590928316116333 0.70520997047424316 0.53745156526565552
1 0.71382683515548706 0.54847425222396851
0.13602980971336365 0.87687379121780396 0.58147352933883667
0.34074068069458008 0.86615610122680664 0.57781106233596802
0.55910831689834595 0.85753190517425537 0.57323861122131348
0.76013696193695068 0.85782939195632935 0.57375884056091309
0.93496036529541016 0.867972731590271 0.58045458793640137
1 0.87943375110626221 0.58977252244949341
0.99944889545440674 0.88935339450836182 0.5999637246131897
