assets/lut/alexjordan blue dark.cube
# Created by: G'MIC (https://gmic.eu)
TITLE "blue_dark"
# LUT size
LUT_3D_SIZE 7
# Data domain
DOMAIN_MIN 0.0 0.0 0.0
DOMAIN_MAX 1.0 1.0 1.0
# LUT data points
0.0060597886331379414 0.0077205882407724857 0.010821457952260971
0.027992472052574158 0.0077205882407724857 0.0087484018877148628
0.053383231163024902 0.0068853190168738365 0.0081409532576799393
0.086850233376026154 0.0055282744579017162 0.0098835965618491173
0.12649931013584137 0.0067194919101893902 0.014031309634447098
0.17215618491172791 0.012090046890079975 0.021861221641302109
0.22500957548618317 0.024283735081553459 0.036857247352600098
0.013566065579652786 0.04394899308681488 0.031371831893920898
0.041509035974740982 0.05110849067568779 0.037778906524181366
0.073363780975341797 0.056609194725751877 0.045834530144929886
0.11215097457170486 0.060746479779481888 0.055500015616416931
0.15646257996559143 0.068434759974479675 0.064818359911441803
0.20606085658073425 0.0779586061835289 0.077305123209953308
0.26175215840339661 0.091117918491363525 0.096491873264312744
0.027441421523690224 0.092890754342079163 0.057779096066951752
0.060769639909267426 0.10718780010938644 0.072415642440319061
0.099448829889297485 0.12116720527410507 0.089290454983711243
0.14356136322021484 0.13358968496322632 0.10570080578327179
0.19322663545608521 0.14686015248298645 0.12058952450752258
0.24676170945167542 0.15928889811038971 0.13751249015331268
0.30542925000190735 0.17261959612369537 0.16156509518623352
0.057101920247077942 0.17111991345882416 0.10290151834487915
0.091421566903591156 0.18638671934604645 0.12141351401805878
0.13464203476905823 0.20472240447998047 0.14374621212482452
0.18331466615200043 0.22287310659885406 0.16533049941062927
0.23715515434741974 0.23979116976261139 0.18537996709346771
0.29394969344139099 0.25491011142730713 0.20627400279045105
0.35491758584976196 0.27000415325164795 0.23314458131790161
0.098590925335884094 0.26893573999404907 0.16526348888874054
0.13549162447452545 0.28415226936340332 0.18623907864093781
0.17948862910270691 0.30371108651161194 0.21201080083847046
0.23063521087169647 0.32421216368675232 0.23773650825023651
0.28748911619186401 0.3436247706413269 0.26141950488090515
0.34790554642677307 0.36164090037345886 0.28602391481399536
0.41187283396720886 0.38126197457313538 0.31495511531829834
0.14770615100860596 0.37861520051956177 0.24113741517066956
0.18681551516056061 0.39485654234886169 0.26385077834129333
0.23225176334381104 0.41529163718223572 0.29173329472541809
0.28490617871284485 0.43735846877098083 0.31989410519599915
0.34474316239356995 0.45934334397315979 0.34597790241241455
0.40848299860954285 0.48117354512214661 0.37326353788375854
0.47531276941299438 0.50502026081085205 0.40427011251449585
0.20408144593238831 0.49759784340858459 0.32690674066543579
0.245534747838974 0.51489001512527466 0.34997031092643738
0.29310789704322815 0.53652918338775635 0.37809225916862488
0.34770411252975464 0.56018650531768799 0.4073912501335144
0.40914791822433472 0.58458065986633301 0.4359799325466156
0.47473791241645813 0.60953819751739502 0.465789794921875
0.54363709688186646 0.63631325960159302 0.498850017786026
0.002943375613540411 0.0056782141327857971 0.039065580815076828
0.02678731270134449 0.0080385096371173859 0.040984313935041428
0.054218485951423645 0.008807881735265255 0.042279411107301712
0.088679216802120209 0.0085309343412518501 0.046225752681493759
0.12885338068008423 0.010526679456233978 0.050055321305990219
0.17509323358535767 0.016662029549479485 0.056701630353927612
0.22807058691978455 0.027937870472669601 0.071001283824443817
0.013785687275230885 0.044489827007055283 0.062995284795761108
0.04203483834862709 0.053594820201396942 0.071235686540603638
0.075733572244644165 0.0596744604408741 0.080819644033908844
0.11560112237930298 0.065524548292160034 0.090532340109348297
0.16017845273017883 0.074704565107822418 0.10035807639360428
0.2098250687122345 0.084637373685836792 0.11240667849779129
0.26533696055412292 0.09779009222984314 0.13144589960575104
0.030304703861474991 0.0971098393201828 0.0924391970038414
0.062518097460269928 0.11257471144199371 0.10735937207937241
0.10224117338657379 0.12670609354972839 0.12485587596893311
0.14810746908187866 0.14077998697757721 0.14103485643863678
0.19848281145095825 0.15442515909671783 0.15750463306903839
0.25188389420509338 0.16681811213493347 0.17520010471343994
0.30959758162498474 0.18099458515644073 0.19879038631916046
0.060449950397014618 0.17498883605003357 0.13702550530433655
0.095352113246917725 0.1921350508928299 0.1574738621711731
0.13871416449546814 0.21141442656517029 0.18139603734016418
0.18907082080841064 0.23034904897212982 0.20402602851390839
0.24418048560619354 0.24776691198348999 0.22548279166221619
0.30083990097045898 0.26294088363647461 0.24720557034015656
0.36082795262336731 0.27906590700149536 0.27412629127502441
0.10129216313362122 0.2717394232749939 0.2000184953212738
0.13935564458370209 0.28939047455787659 0.22340227663516998
0.18470583856105804 0.31055635213851929 0.25130164623260498
0.23734302818775177 0.33218440413475037 0.27841892838478088
0.29526156187057495 0.35247319936752319 0.30351117253303528
0.35573616623878479 0.37098208069801331 0.32889318466186523
0.41909539699554443 0.39089903235435486 0.3583502471446991
0.14984673261642456 0.38097277283668518 0.27845311164855957
0.19062577188014984 0.40001842379570007 0.30273687839508057
0.23814254999160767 0.42283570766448975 0.33219543099403381
0.29269137978553772 0.44662681221961975 0.3616662323474884
0.35300910472869873 0.46963244676589966 0.38940218091011047
0.4169866144657135 0.49189075827598572 0.41786262392997742
0.48339280486106873 0.51566952466964722 0.44957157969474792
0.20571225881576538 0.4997413158416748 0.36585858464241028
0.24908925592899323 0.52026712894439697 0.39045095443725586
0.2989063560962677 0.54462534189224243 0.41999521851539612
0.35516071319580078 0.57028079032897949 0.45068326592445374
0.41742470860481262 0.59583187103271484 0.4808533787727356
0.48373022675514221 0.62167423963546753 0.5118868350982666
0.55242514610290527 0.64831846952438354 0.54582172632217407
0.0019805009942501783 0.0048338049091398716 0.07293536514043808
0.027144338935613632 0.0083582261577248573 0.079008691012859344
0.05704929307103157 0.010157746262848377 0.085311949253082275
0.092557393014431 0.01217911671847105 0.090624712407588959
0.13336020708084106 0.015694009140133858 0.093672551214694977
0.18049617111682892 0.022426275536417961 0.098779015243053436
0.23401170969009399 0.033622309565544128 0.11242617666721344
0.014986075460910797 0.045785177499055862 0.10106078535318375
0.044595696032047272 0.056417174637317657 0.111960768699646
0.079869106411933899 0.063134104013442993 0.1242353543639183
0.12085988372564316 0.070448361337184906 0.13541214168071747
0.16564600169658661 0.080664180219173431 0.14471638202667236
0.21545186638832092 0.091502830386161804 0.15583789348602295
0.27102309465408325 0.10557018965482712 0.17415116727352142
0.034713968634605408 0.10080566257238388 0.13509279489517212
0.066911794245243073 0.11843771487474442 0.15171489119529724
0.10793589800596237 0.1321137547492981 0.1707577109336853
0.15503518283367157 0.14466066658496857 0.18846742808818817
0.20486409962177277 0.15937864780426025 0.20427124202251434
0.25795051455497742 0.17350366711616516 0.22156566381454468
0.31582510471343994 0.1895979642868042 0.24442389607429504
0.065151587128639221 0.18041603267192841 0.18284124135971069
0.10138654708862305 0.19892171025276184 0.20418889820575714
0.14576151967048645 0.21768176555633545 0.22940756380558014
0.19708468019962311 0.23525562882423401 0.25304639339447021
0.25128072500228882 0.25324109196662903 0.27405741810798645
0.30798125267028809 0.26993182301521301 0.29607656598091125
0.36831516027450562 0.28817874193191528 0.32279124855995178
0.10615656524896622 0.27701309323310852 0.24675785005092621
0.14582259953022003 0.29639920592308044 0.27126818895339966
0.19284570217132568 0.31816890835762024 0.30014199018478394
0.24638737738132477 0.34015968441963196 0.32775834202766418
0.30403459072113037 0.36089709401130676 0.35300275683403015
0.36469146609306335 0.38015010952949524 0.37916544079780579
0.42823398113250732 0.40133434534072876 0.40910053253173828
0.15459728240966797 0.38616439700126648 0.32515451312065125
0.19756492972373962 0.40743163228034973 0.35073775053024292
0.24723947048187256 0.43223869800567627 0.38092228770256042
0.30278828740119934 0.45739942789077759 0.41101789474487305
0.36357110738754272 0.48100510239601135 0.43980145454406738
0.42795786261558533 0.50376021862030029 0.46948841214179993
0.49462553858757019 0.52803713083267212 0.50182324647903442
0.21036425232887268 0.50486099720001221 0.41269212961196899
0.25583615899085999 0.52811765670776367 0.43860214948654175
0.30780267715454102 0.55535662174224854 0.46928831934928894
0.36569854617118835 0.58296763896942139 0.50107359886169434
0.42878669500350952 0.60958576202392578 0.53232157230377197
0.49590182304382324 0.63626265525817871 0.56457221508026123
0.56476348638534546 0.66337662935256958 0.5993572473526001
0.0014474457129836082 0.0040987050160765648 0.11680592596530914
0.027820706367492676 0.0082259830087423325 0.12502677738666534
0.059324078261852264 0.011959300376474857 0.1342548131942749
0.095594994723796844 0.015883082523941994 0.14151486754417419
0.13760863244533539 0.019866703078150749 0.14521715044975281
0.18574178218841553 0.026802586391568184 0.1509670615196228
0.24005720019340515 0.03853333368897438 0.16538767516613007
0.016209665685892105 0.048128869384527206 0.14886589348316193
0.047385916113853455 0.058705888688564301 0.16137067973613739
0.082962483167648315 0.067803986370563507 0.17561502754688263
0.12416402995586395 0.07633623480796814 0.18789535760879517
0.16975553333759308 0.085752375423908234 0.19748282432556152
0.22041255235671997 0.09692835807800293 0.20871904492378235
0.27688759565353394 0.11172477900981903 0.22724269330501556
0.038146793842315674 0.10626663267612457 0.1876680850982666
0.072411403059959412 0.12204836308956146 0.20491839945316315
0.11318816989660263 0.13660044968128204 0.22489869594573975
0.15933261811733246 0.14999796450138092 0.24311548471450806
0.20900328457355499 0.16426889598369598 0.25852438807487488
0.26260483264923096 0.17894540727138519 0.27556326985359192
0.32143476605415344 0.1964297741651535 0.29841846227645874
0.068949468433856964 0.18567663431167603 0.23847395181655884
0.107241190969944 0.20396877825260162 0.26037222146987915
0.15226393938064575 0.22277545928955078 0.28560870885848999
0.20278987288475037 0.24075476825237274 0.30894383788108826
0.25606480240821838 0.25889545679092407 0.32932984828948975
0.3132362961769104 0.27588170766830444 0.35136115550994873
0.37471339106559753 0.29555821418762207 0.37836849689483643
0.11063245683908463 0.28246811032295227 0.30362981557846069
0.15215495228767395 0.30277782678604126 0.32858595252037048
0.20058038830757141 0.32492610812187195 0.35736292600631714
0.25373956561088562 0.34772595763206482 0.38398811221122742
0.31066769361495972 0.36889049410820007 0.40885379910469055
0.3719906210899353 0.38769730925559998 0.43585774302482605
0.43646407127380371 0.40964224934577942 0.46655058860778809
0.15976898372173309 0.39197430014610291 0.38068035244941711
0.20471757650375366 0.41481539607048035 0.40736439824104309
0.2561224102973938 0.44067996740341187 0.43826600909233093
0.31223192811012268 0.46698442101478577 0.46815198659896851
0.37296491861343384 0.49113085865974426 0.49694538116455078
0.43786159157752991 0.51330912113189697 0.52762258052825928
0.50521326065063477 0.5386243462562561 0.56107765436172485
0.21617178618907928 0.51098525524139404 0.46711024641990662
0.26356452703475952 0.53624916076660156 0.49415531754493713
0.31739029288291931 0.56592512130737305 0.5259818434715271
0.37636399269104004 0.59506624937057495 0.55827409029006958
0.4399680495262146 0.62167561054229736 0.59052222967147827
0.50794810056686401 0.64941418170928955 0.62397903203964233
0.57759708166122437 0.67821305990219116 0.65983819961547852
0.0015242632944136858 0.0036768894642591476 0.16993130743503571
0.029018476605415344 0.0078852633014321327 0.17880977690219879
0.061530992388725281 0.012053844518959522 0.18830087780952454
0.09870128333568573 0.016645468771457672 0.19633929431438446
0.1417555958032608 0.021974481642246246 0.20289725065231323
0.19086837768554688 0.030122285708785057 0.21179871261119843
0.24646478891372681 0.042895868420600891 0.22843481600284576
0.017278140410780907 0.050360213965177536 0.20491932332515717
0.049577526748180389 0.06037260964512825 0.21795777976512909
0.085731148719787598 0.070370644330978394 0.23258741199970245
0.12648957967758179 0.079759217798709869 0.24554111063480377
0.17273077368736267 0.089413709938526154 0.25668677687644958
0.22455772757530212 0.10099185258150101 0.2697179913520813
0.28232148289680481 0.11672613024711609 0.28940072655677795
0.040485695004463196 0.11084093898534775 0.24692592024803162
0.075896002352237701 0.12554875016212463 0.26450029015541077
0.11588060110807419 0.14081984758377075 0.28450357913970947
0.16154862940311432 0.15503261983394623 0.30259594321250916
0.2113470733165741 0.16880486905574799 0.31868308782577515
0.26617762446403503 0.18346817791461945 0.33644360303878784
0.32645568251609802 0.20199310779571533 0.35997340083122253
0.0724610835313797 0.19089153409004211 0.30045643448829651
0.11128990352153778 0.20930860936641693 0.32256338000297546
0.15623889863491058 0.22845509648323059 0.34696465730667114
0.2055559903383255 0.24703507125377655 0.36934491991996765
0.25893464684486389 0.26451894640922546 0.38991069793701172
0.31705424189567566 0.28134694695472717 0.41269311308860779
0.38003873825073242 0.30193993449211121 0.4403233528137207
0.1148686558008194 0.288554847240448 0.36615622043609619
0.15741689503192902 0.30975538492202759 0.3917442262172699
0.20616075396537781 0.3317050039768219 0.42031332850456238
0.25873029232025146 0.354582279920578 0.44593566656112671
0.31538400053977966 0.37626606225967407 0.47029605507850647
0.37742075324058533 0.39467576146125793 0.49844881892204285
0.44310665130615234 0.41750985383987427 0.53007954359054565
0.16521957516670227 0.39824935793876648 0.44222119450569153
0.21127867698669434 0.42183077335357666 0.4698941707611084
0.26366069912910461 0.44709581136703491 0.50164759159088135
0.31978267431259155 0.47371485829353333 0.53108960390090942
0.38021257519721985 0.49899730086326599 0.55997222661972046
0.44556546211242676 0.52162736654281616 0.59197902679443359
0.51348888874053955 0.5476384162902832 0.62667030096054077
0.22283262014389038 0.51720732450485229 0.52733868360519409
0.27117681503295898 0.54303056001663208 0.55537217855453491
0.32593259215354919 0.57266396284103394 0.58813345432281494
0.38540151715278625 0.60228544473648071 0.62127202749252319
0.44924736022949219 0.63029825687408447 0.65458214282989502
0.51723366975784302 0.65834015607833862 0.68981635570526123
0.58698576688766479 0.68744778633117676 0.72696053981781006
0.0033099155407398939 0.0051887212321162224 0.23057608306407928
0.032549344003200531 0.008940618485212326 0.2390550822019577
0.065548554062843323 0.013006307184696198 0.24845981597900391
0.10356704145669937 0.018040062859654427 0.25756272673606873
0.14747609198093414 0.024638785049319267 0.26688879728317261
0.19798044860363007 0.034341447055339813 0.27909860014915466
0.25487712025642395 0.04898235946893692 0.29784366488456726
0.020223161205649376 0.053107615560293198 0.26715591549873352
0.05282929539680481 0.062624134123325348 0.28025072813034058
0.089149981737136841 0.072871342301368713 0.29498603940010071
0.13011713325977325 0.08278936892747879 0.30882465839385986
0.17721401154994965 0.093078255653381348 0.3218783438205719
0.23039478063583374 0.10573741048574448 0.33687731623649597
0.28984430432319641 0.12315075099468231 0.35823744535446167
0.043480038642883301 0.11346019804477692 0.3105279803276062
0.079272642731666565 0.12862859666347504 0.32858756184577942
0.11917176842689514 0.14481331408023834 0.3490351140499115
0.16424311697483063 0.15949362516403198 0.36777833104133606
0.21496732532978058 0.17343059182167053 0.38476398587226868
0.27100902795791626 0.18848773837089539 0.40346866846084595
0.33283340930938721 0.20809423923492432 0.42795950174331665
0.076475240290164948 0.19537033140659332 0.36585411429405212
0.11555022001266479 0.21461868286132812 0.387960284948349
0.16005106270313263 0.23461060225963593 0.4127042293548584
0.20902326703071594 0.25275400280952454 0.43551304936408997
0.26291137933731079 0.26993146538734436 0.45687931776046753
0.3218376636505127 0.28706845641136169 0.47990107536315918
0.38582167029380798 0.30864101648330688 0.50788497924804688
0.12024550884962082 0.29513704776763916 0.43255904316902161
0.16277801990509033 0.31814828515052795 0.45821923017501831
0.21109145879745483 0.34012505412101746 0.48655098676681519
0.26395311951637268 0.3610098659992218 0.51274991035461426
0.32117846608161926 0.38198176026344299 0.53854119777679443
0.38341736793518066 0.40233740210533142 0.56696015596389771
0.44992077350616455 0.42661631107330322 0.59902310371398926
0.17198723554611206 0.40538263320922852 0.50820964574813843
0.21787680685520172 0.42965853214263916 0.53581118583679199
0.27002763748168945 0.45479947328567505 0.56736809015274048
0.32658353447914124 0.48033413290977478 0.59807068109512329
0.387422114610672 0.50583231449127197 0.62864965200424194
0.45284473896026611 0.53083896636962891 0.66197365522384644
0.52154576778411865 0.5582239031791687 0.69778704643249512
0.23089131712913513 0.52438724040985107 0.59246242046356201
0.27940148115158081 0.5496821403503418 0.62085556983947754
0.33418351411819458 0.57849013805389404 0.65411818027496338
0.39386466145515442 0.60795682668685913 0.68845635652542114
0.4579491913318634 0.6372826099395752 0.7237815260887146
0.5259818434715271 0.66671913862228394 0.76101291179656982
0.59620732069015503 0.69696259498596191 0.79985731840133667
0.0091019421815872192 0.010112418793141842 0.2972378134727478
0.039402622729539871 0.012930701486766338 0.30511844158172607
0.073120981454849243 0.016822740435600281 0.31460478901863098
0.11196888983249664 0.022594047710299492 0.32509851455688477
0.15719315409660339 0.030550010502338409 0.33697071671485901
0.20888537168502808 0.042203612625598907 0.35199978947639465
0.26756516098976135 0.059108208864927292 0.3730430006980896
0.026786759495735168 0.059067923575639725 0.33490529656410217
0.059672068804502487 0.067984394729137421 0.34797456860542297
0.096277810633182526 0.078223288059234619 0.36294883489608765
0.13806380331516266 0.088625393807888031 0.37804269790649414
0.18611539900302887 0.10026339441537857 0.39290741086006165
0.24068710207939148 0.11445701122283936 0.41029790043830872
0.30151066184043884 0.13388159871101379 0.43336918950080872
0.049927417188882828 0.11861143261194229 0.37917545437812805
0.086365461349487305 0.13465331494808197 0.39761415123939514
0.12657167017459869 0.15124495327472687 0.41847896575927734
0.17159609496593475 0.16625550389289856 0.43841761350631714
0.22339373826980591 0.18139135837554932 0.45668119192123413
0.28049656748771667 0.19774729013442993 0.47669130563735962
0.34343942999839783 0.21896439790725708 0.50229829549789429
0.084841214120388031 0.20263317227363586 0.43622070550918579
0.12390377372503281 0.22143492102622986 0.4578988254070282
0.16784235835075378 0.24174398183822632 0.48268720507621765
0.21705770492553711 0.26030713319778442 0.50666511058807373
0.27149778604507446 0.27815273404121399 0.5293806791305542
0.33102321624755859 0.2965027391910553 0.55315715074539185
0.39564034342765808 0.31905236840248108 0.58178633451461792
0.12972143292427063 0.30416315793991089 0.50393718481063843
0.17164742946624756 0.32521876692771912 0.52826225757598877
0.21956494450569153 0.34771308302879333 0.55621850490570068
0.27258044481277466 0.36904492974281311 0.58387422561645508
0.33048984408378601 0.39047187566757202 0.61152637004852295
0.39314976334571838 0.41259336471557617 0.64090418815612793
0.46021273732185364 0.43865108489990234 0.67363250255584717
0.1824612021446228 0.415130615234375 0.57949948310852051
0.22770820558071136 0.43787890672683716 0.60619699954986572
0.27932441234588623 0.46330475807189941 0.63710695505142212
0.33593446016311646 0.48864814639091492 0.66890257596969604
0.39724904298782349 0.51454776525497437 0.70167994499206543
0.46297746896743774 0.54148387908935547 0.7365424633026123
0.5323602557182312 0.57082957029342651 0.77340686321258545
0.24239030480384827 0.53435659408569336 0.66362917423248291
0.2907765805721283 0.55867189168930054 0.69161826372146606
0.34490936994552612 0.58664584159851074 0.7247694730758667
0.40433815121650696 0.61592262983322144 0.76000690460205078
0.46850100159645081 0.64581090211868286 0.79718136787414551
0.53676795959472656 0.67685133218765259 0.83609741926193237
0.60775613784790039 0.7091677188873291 0.87687551975250244
