assets/lut/alexjordan operation yellow.cube
# Created by: G'MIC (https://gmic.eu)
TITLE "operation_yellow"
# LUT size
LUT_3D_SIZE 13
# Data domain
DOMAIN_MIN 0.0 0.0 0.0
DOMAIN_MAX 1.0 1.0 1.0
# LUT data points
0.031494557857513428 0.031494949012994766 0.027344124391674995
0.065687336027622223 0.043787997215986252 0.035691894590854645
0.11065208911895752 0.054313316941261292 0.045137278735637665
0.16755005717277527 0.060777269303798676 0.051744617521762848
0.22651880979537964 0.066400669515132904 0.055867601186037064
0.2859763503074646 0.072019405663013458 0.058809094130992889
0.35041457414627075 0.076289847493171692 0.06091797724366188
0.42127558588981628 0.079385854303836823 0.060327939689159393
0.49340716004371643 0.082295164465904236 0.059200767427682877
0.56964915990829468 0.085462741553783417 0.057348933070898056
0.65479171276092529 0.085906863212585449 0.054094817489385605
0.74137169122695923 0.084055446088314056 0.050373375415802002
0.82048153877258301 0.081985294818878174 0.047075308859348297
0.067343935370445251 0.096699856221675873 0.059183351695537567
0.11758433282375336 0.10489563643932343 0.058355145156383514
0.17945696413516998 0.11097490042448044 0.059588652104139328
0.24631664156913757 0.11536238342523575 0.058631058782339096
0.3102613091468811 0.12100114673376083 0.053868461400270462
0.37563523650169373 0.12594467401504517 0.049463681876659393
0.4453946053981781 0.12940356135368347 0.047038447111845016
0.51548993587493896 0.13318490982055664 0.044590413570404053
0.58365553617477417 0.1379578709602356 0.043321076780557632
0.65605831146240234 0.14197802543640137 0.042365279048681259
0.73699676990509033 0.14381127059459686 0.038872227072715759
0.82196760177612305 0.14319382607936859 0.035269223153591156
0.90004199743270874 0.14110028743743896 0.032470375299453735
0.086147859692573547 0.17088279128074646 0.069275863468647003
0.15293295681476593 0.17484255135059357 0.063863806426525116
0.2286502867937088 0.17640657722949982 0.058406546711921692
0.30537310242652893 0.17805850505828857 0.050679389387369156
0.37636557221412659 0.18217886984348297 0.039084475487470627
0.44841736555099487 0.18582862615585327 0.029525129124522209
0.52451634407043457 0.18775872886180878 0.024605963379144669
0.59540677070617676 0.19154356420040131 0.023433655500411987
0.65862029790878296 0.19749833643436432 0.024019608274102211
0.72585844993591309 0.20299588143825531 0.023585151880979538
0.80207496881484985 0.20578759908676147 0.020995974540710449
0.88365745544433594 0.20588372647762299 0.018590604886412621
0.95949643850326538 0.20518051087856293 0.017402006313204765
0.087133966386318207 0.2521263062953949 0.061456043273210526
0.16626498103141785 0.25271138548851013 0.05360807478427887
0.2529454231262207 0.25074946880340576 0.045240841805934906
0.33916613459587097 0.24948447942733765 0.034211400896310806
0.41819459199905396 0.25137537717819214 0.019315607845783234
0.49569261074066162 0.25361013412475586 0.0095928264781832695
0.57453697919845581 0.2547929584980011 0.007558770477771759
0.64563345909118652 0.2579253613948822 0.00766728725284338
0.70796942710876465 0.26408150792121887 0.0087268305942416191
0.77207982540130615 0.270192950963974 0.0093225967139005661
0.84325253963470459 0.27437278628349304 0.0092523908242583275
0.91844183206558228 0.27622303366661072 0.0087945079430937767
0.98520678281784058 0.27693158388137817 0.009939560666680336
0.080621860921382904 0.33556565642356873 0.047389581799507141
0.1681457906961441 0.33378314971923828 0.03751436248421669
0.26581928133964539 0.32836064696311951 0.030377691611647606
0.36167469620704651 0.32393857836723328 0.021086659282445908
0.44746571779251099 0.32348775863647461 0.0092256283387541771
0.52681821584701538 0.32510402798652649 0.0032377655152231455
0.60377472639083862 0.32673853635787964 0.0020774691365659237
0.67362028360366821 0.3301813006401062 0.0028092628344893456
0.73639190196990967 0.33588078618049622 0.0037184322718530893
0.79960876703262329 0.3420805037021637 0.0045804642140865326
0.86737573146820068 0.34731552004814148 0.0051580094732344151
0.93661957979202271 0.35065534710884094 0.0064253862947225571
0.99293351173400879 0.35283365845680237 0.0087094623595476151
0.078124374151229858 0.41756844520568848 0.036755118519067764
0.17209014296531677 0.41364005208015442 0.025662574917078018
0.27910813689231873 0.40515926480293274 0.021478930488228798
0.38310533761978149 0.39773848652839661 0.016579736024141312
0.47339335083961487 0.39537972211837769 0.0088562164455652237
0.55316019058227539 0.39677184820175171 0.0039413003250956535
0.62670457363128662 0.39941686391830444 0.0025732750073075294
0.69438368082046509 0.40356555581092834 0.0030695896130055189
0.75728815793991089 0.40926524996757507 0.0040049385279417038
0.82054907083511353 0.41547319293022156 0.0052682464011013508
0.88645267486572266 0.42099916934967041 0.0068894480355083942
0.95125073194503784 0.42538139224052429 0.0091486312448978424
0.99719506502151489 0.42800077795982361 0.012872599065303802
0.090701654553413391 0.49383059144020081 0.036891862750053406
0.19060680270195007 0.48828598856925964 0.026281185448169708
0.29962974786758423 0.47899845242500305 0.021655227988958359
0.40522593259811401 0.47107496857643127 0.01788228377699852
0.49778831005096436 0.46755921840667725 0.012571746483445168
0.57751768827438354 0.4684327244758606 0.0083805909380316734
0.64909017086029053 0.47167313098907471 0.0068896724842488766
0.71536475419998169 0.47637304663658142 0.0074821771122515202
0.77933824062347412 0.48202329874038696 0.0090179592370986938
0.84322816133499146 0.48794016242027283 0.01149456575512886
0.90717756748199463 0.49344629049301147 0.01440271083265543
0.96757775545120239 0.49824482202529907 0.018400797620415688
0.99968242645263672 0.5013958215713501 0.023805206641554832
0.11572635173797607 0.56588053703308105 0.045943122357130051
0.22019322216510773 0.55896139144897461 0.035888835787773132
0.32875221967697144 0.55008643865585327 0.029591953381896019
0.4326748251914978 0.54258275032043457 0.025184854865074158
0.52441155910491943 0.53895413875579834 0.020918633788824081
0.60349154472351074 0.53961014747619629 0.017709724605083466
0.6734803318977356 0.54305219650268555 0.016802947968244553
0.73892450332641602 0.54807543754577637 0.018024444580078125
0.80383622646331787 0.5536380410194397 0.020954985171556473
0.86858654022216797 0.55911296606063843 0.025016350671648979
0.92997819185256958 0.5642738938331604 0.029756253585219383
0.98343300819396973 0.56892532110214233 0.034965634346008301
1 0.57223445177078247 0.040863022208213806
0.14750905334949493 0.63577914237976074 0.059822231531143188
0.25535598397254944 0.62790346145629883 0.05014432966709137
0.36372125148773193 0.61902648210525513 0.042958173900842667
0.46596357226371765 0.61200577020645142 0.038039457052946091
0.55580818653106689 0.60877257585525513 0.034704815596342087
0.63311177492141724 0.60975164175033569 0.032780978828668594
0.70133101940155029 0.61357671022415161 0.032977309077978134
0.76571005582809448 0.61882501840591431 0.035148411989212036
0.83150750398635864 0.62411940097808838 0.039113692939281464
0.89684748649597168 0.62912940979003906 0.044092036783695221
0.95392292737960815 0.63383889198303223 0.049410577863454819
0.99477916955947876 0.63830715417861938 0.054890323430299759
1 0.64187014102935791 0.060515712946653366
0.1819147914648056 0.70462656021118164 0.076541617512702942
0.2922675609588623 0.69602751731872559 0.06731046736240387
0.40118423104286194 0.6870720386505127 0.059840451925992966
0.50206798315048218 0.68034309148788452 0.054732423275709152
0.590667724609375 0.67754995822906494 0.05178457498550415
0.66672241687774658 0.6786993145942688 0.051024328917264938
0.73424088954925537 0.68282210826873779 0.052386712282896042
0.7981715202331543 0.68827974796295166 0.054968725889921188
0.86520165205001831 0.69350963830947876 0.059359949082136154
0.92913335561752319 0.69813239574432373 0.064719676971435547
0.97888815402984619 0.70271396636962891 0.070399008691310883
0.99966639280319214 0.70719486474990845 0.075939148664474487
1 0.71118694543838501 0.081357471644878387
0.21568447351455688 0.77335911989212036 0.095022104680538177
0.32841312885284424 0.76393121480941772 0.086308270692825317
0.43817642331123352 0.75488740205764771 0.078958146274089813
0.53901374340057373 0.74829477071762085 0.073692560195922852
0.62679606676101685 0.74556094408035278 0.071215353906154633
0.70267647504806519 0.74699395895004272 0.071338653564453125
0.77101939916610718 0.75103676319122314 0.073128491640090942
0.83703172206878662 0.75636076927185059 0.07650921493768692
0.90385550260543823 0.7614322304725647 0.081016510725021362
0.96342277526855469 0.7661747932434082 0.086300045251846313
0.99685662984848022 0.77107894420623779 0.091874368488788605
1 0.77596932649612427 0.09746222198009491
1 0.78043597936630249 0.10266800224781036
0.2461760938167572 0.84245461225509644 0.11469730734825134
0.36108002066612244 0.83256977796554565 0.10634727030992508
0.47229650616645813 0.82301193475723267 0.098827451467514038
0.57366478443145752 0.81599330902099609 0.093694739043712616
0.66110515594482422 0.81338775157928467 0.091749750077724457
0.73674219846725464 0.81498622894287109 0.092347659170627594
0.80565071105957031 0.81894755363464355 0.094898015260696411
0.87192434072494507 0.8238866925239563 0.098675265908241272
0.93567740917205811 0.8289908766746521 0.10317908227443695
0.98749911785125732 0.83399856090545654 0.10823256522417068
1 0.83932739496231079 0.11370296031236649
1 0.84476751089096069 0.11916110664606094
1 0.84961968660354614 0.12409042567014694
0.27207911014556885 0.91163986921310425 0.13455283641815186
0.38812735676765442 0.90152204036712646 0.12678149342536926
0.49979507923126221 0.8918108344078064 0.11978824436664581
0.60200268030166626 0.88473808765411377 0.11471692472696304
0.68862020969390869 0.88227313756942749 0.11309670656919479
0.76379770040512085 0.88377416133880615 0.11424927413463593
0.8317335844039917 0.88737040758132935 0.11705143004655838
0.89490097761154175 0.89207994937896729 0.12097258865833282
0.95171487331390381 0.89714556932449341 0.12535971403121948
0.9924578070640564 0.90255022048950195 0.13023380935192108
1 0.90812146663665771 0.13533216714859009
1 0.91370522975921631 0.14041857421398163
0.99993431568145752 0.91904175281524658 0.14508341252803802
0.035619474947452545 0.037172384560108185 0.044881902635097504
0.073368027806282043 0.047984179109334946 0.054185517132282257
0.12217063456773758 0.056852243840694427 0.065340436995029449
0.180206298828125 0.063042387366294861 0.074441082775592804
0.24199096858501434 0.067904315888881683 0.081082992255687714
0.30674073100090027 0.071896448731422424 0.086571142077445984
0.37557283043861389 0.074940189719200134 0.090778738260269165
0.44704732298851013 0.077590852975845337 0.092870689928531647
0.5195930004119873 0.08072381466627121 0.093638084828853607
0.59642690420150757 0.082786485552787781 0.093186169862747192
0.67946469783782959 0.083755612373352051 0.09141966700553894
0.76386523246765137 0.08257535845041275 0.089163430035114288
0.84244853258132935 0.081957481801509857 0.086458064615726471
0.071704283356666565 0.10311395674943924 0.07935834676027298
0.12282934784889221 0.110262431204319 0.08125247061252594
0.18581505119800568 0.11521095037460327 0.08476480096578598
0.25437673926353455 0.11891627311706543 0.085879907011985779
0.32269194722175598 0.12309085577726364 0.084069825708866119
0.39256593585014343 0.126596599817276 0.082599148154258728
0.46504330635070801 0.12870407104492188 0.082246564328670502
0.53533238172531128 0.13244898617267609 0.081909924745559692
0.60342031717300415 0.13724473118782043 0.081881538033485413
0.67552089691162109 0.141031414270401 0.081071905791759491
0.75453168153762817 0.1436680406332016 0.078979551792144775
0.83693528175354004 0.14415714144706726 0.07632051408290863
0.9133753776550293 0.14339113235473633 0.07477608323097229
0.087634876370429993 0.17796142399311066 0.095416992902755737
0.15427723526954651 0.18153728544712067 0.091636702418327332
0.23075670003890991 0.18203607201576233 0.088136874139308929
0.3099825382232666 0.18274803459644318 0.082703441381454468
0.38511893153190613 0.18512508273124695 0.074391968548297882
0.45980888605117798 0.18767344951629639 0.067728631198406219
0.5352855920791626 0.18949666619300842 0.065238580107688904
0.60529512166976929 0.19309672713279724 0.064619578421115875
0.67002183198928833 0.19843603670597076 0.06496824324131012
0.73723995685577393 0.20406471192836761 0.064645074307918549
0.81140637397766113 0.20775283873081207 0.063233241438865662
0.88953632116317749 0.20926521718502045 0.061449103057384491
0.96275955438613892 0.20987646281719208 0.061469372361898422
0.087620541453361511 0.25881025195121765 0.095684677362442017
0.16723035275936127 0.259248286485672 0.088141456246376038
0.25496700406074524 0.25660842657089233 0.080490767955780029
0.3431466817855835 0.25430706143379211 0.071252085268497467
0.42491722106933594 0.25480914115905762 0.059330165386199951
0.50293141603469849 0.25646016001701355 0.050182759761810303
0.57926315069198608 0.25809842348098755 0.04722106084227562
0.64906603097915649 0.26137146353721619 0.048129841685295105
0.71206092834472656 0.26684141159057617 0.049791701138019562
0.77612870931625366 0.27306795120239258 0.050579354166984558
0.84549480676651001 0.27792418003082275 0.05026492103934288
0.9176139235496521 0.28111860156059265 0.050209779292345047
0.98386967182159424 0.28294205665588379 0.052462976425886154
0.081622287631034851 0.34134131669998169 0.089116655290126801
0.17064620554447174 0.33890637755393982 0.079302690923213959
0.26829379796981812 0.33337569236755371 0.070785671472549438
0.36471432447433472 0.32884922623634338 0.061388876289129257
0.45151594281196594 0.32756629586219788 0.049550868570804596
0.530953049659729 0.32891169190406799 0.040506236255168915
0.60553306341171265 0.33091813325881958 0.038007535040378571
0.67349851131439209 0.33432060480117798 0.039365924894809723
0.73598182201385498 0.33992248773574829 0.04174530878663063
0.79767554998397827 0.34617793560028076 0.04342358186841011
0.86485666036605835 0.35182544589042664 0.045121960341930389
0.93265628814697266 0.35632947087287903 0.046709425747394562
0.9907652735710144 0.35857445001602173 0.050889782607555389
0.079588919878005981 0.42206656932830811 0.084151983261108398
0.17613813281059265 0.41736456751823425 0.073369987308979034
0.28130951523780823 0.40953478217124939 0.065983839333057404
0.38435575366020203 0.40281638503074646 0.058789737522602081
0.47461500763893127 0.40012592077255249 0.049730308353900909
0.55431175231933594 0.40107607841491699 0.042337007820606232
0.62679487466812134 0.40389594435691833 0.039699867367744446
0.69260036945343018 0.40805670619010925 0.041065678000450134
0.75481212139129639 0.41359582543373108 0.043614212423563004
0.81643915176391602 0.41989502310752869 0.046421036124229431
0.88315385580062866 0.42546314001083374 0.04937431588768959
0.94850617647171021 0.43024459481239319 0.052871465682983398
0.99643468856811523 0.43313154578208923 0.058067996054887772
0.089798122644424438 0.49855032563209534 0.086309246718883514
0.19237805902957916 0.4919981062412262 0.075659506022930145
0.30141171813011169 0.48293241858482361 0.0685243159532547
0.40628892183303833 0.4752655029296875 0.062933750450611115
0.49852970242500305 0.47187098860740662 0.056688226759433746
0.57790887355804443 0.47254529595375061 0.05178210511803627
0.64844107627868652 0.4758334755897522 0.050209704786539078
0.71366238594055176 0.4805482029914856 0.051723241806030273
0.77671718597412109 0.48609712719917297 0.054951924830675125
0.840961754322052 0.49179908633232117 0.058615844696760178
0.90633577108383179 0.49728891253471375 0.062605209648609161
0.96804070472717285 0.50194990634918213 0.06706574559211731
0.99971276521682739 0.50515639781951904 0.072429537773132324
0.11328355222940445 0.57085317373275757 0.095906369388103485
0.2201317697763443 0.56296736001968384 0.085639417171478271
0.33040022850036621 0.55340361595153809 0.078109279274940491
0.43488776683807373 0.54570245742797852 0.072929427027702332
0.5263826847076416 0.54218685626983643 0.068564951419830322
0.6044013500213623 0.54308348894119263 0.065903022885322571
0.67331653833389282 0.54669797420501709 0.065665781497955322
0.73811709880828857 0.55172610282897949 0.0682845339179039
0.80278187990188599 0.55715960264205933 0.072248049080371857
0.86871790885925293 0.56238353252410889 0.076851755380630493
0.93243551254272461 0.56743878126144409 0.081543684005737305
0.98679506778717041 0.5718085765838623 0.086320333182811737
1 0.5754019021987915 0.091168783605098724
0.14539965987205505 0.64042413234710693 0.1104399710893631
0.25544580817222595 0.63141191005706787 0.10050103813409805
0.36580359935760498 0.62192201614379883 0.092880964279174805
0.46931135654449463 0.61431670188903809 0.087611071765422821
0.55872547626495361 0.61121279001235962 0.084485702216625214
0.63466054201126099 0.61246544122695923 0.083571366965770721
0.70186853408813477 0.61654764413833618 0.084503248333930969
0.76628792285919189 0.62188410758972168 0.087763644754886627
0.83238166570663452 0.62710875272750854 0.092328377068042755
0.89884907007217407 0.63201761245727539 0.097463689744472504
0.95883083343505859 0.63657283782958984 0.10258302837610245
0.99743151664733887 0.64096307754516602 0.10747572779655457
1 0.64483702182769775 0.11218894273042679
0.18121597170829773 0.70876044034957886 0.12797464430332184
0.29348695278167725 0.69942140579223633 0.11851182579994202
0.40383383631706238 0.6896858811378479 0.11095178872346878
0.50625079870223999 0.68234366178512573 0.10571569949388504
0.59374386072158813 0.6796380877494812 0.1032663956284523
0.66843336820602417 0.68121945858001709 0.10312680900096893
0.7350926399230957 0.68551504611968994 0.10509692877531052
0.79982483386993408 0.69098448753356934 0.10876288264989853
0.86698192358016968 0.69615507125854492 0.11366025358438492
0.93185043334960938 0.70078361034393311 0.119024358689785
0.98382151126861572 0.7053106427192688 0.12412947416305542
0.99997931718826294 0.70976054668426514 0.12908013164997101
1 0.71400803327560425 0.13358849287033081
0.21709662675857544 0.77682960033416748 0.14725871384143829
0.33097448945045471 0.76700866222381592 0.1383320540189743
0.4412810206413269 0.75739538669586182 0.13095024228096008
0.54220587015151978 0.7503703236579895 0.12577669322490692
0.62972211837768555 0.74774706363677979 0.12359301745891571
0.70428359508514404 0.74939656257629395 0.12430869042873383
0.77190828323364258 0.75369715690612793 0.12701819837093353
0.83774954080581665 0.75901991128921509 0.13090305030345917
0.9049152135848999 0.76395988464355469 0.13565114140510559
0.96540051698684692 0.76876819133758545 0.14076718688011169
0.99814552068710327 0.77367812395095825 0.14593636989593506
1 0.77849817276000977 0.15078990161418915
1 0.78315705060958862 0.15518723428249359
0.25020965933799744 0.84509283304214478 0.16738852858543396
0.36513194441795349 0.83498018980026245 0.15901502966880798
0.4760316014289856 0.82536846399307251 0.15181265771389008
0.57701367139816284 0.81851351261138916 0.14689075946807861
0.66408854722976685 0.81594610214233398 0.14506945013999939
0.73922991752624512 0.81748038530349731 0.1461624950170517
0.80755245685577393 0.82153141498565674 0.14924104511737823
0.87419390678405762 0.82661503553390503 0.15335473418235779
0.93849062919616699 0.83146852254867554 0.15791420638561249
0.98937535285949707 0.83653980493545532 0.16272199153900146
1 0.84182298183441162 0.16771169006824493
1 0.84721571207046509 0.17237403988838196
1 0.85232686996459961 0.17651690542697906
0.2787359356880188 0.91385567188262939 0.18753959238529205
0.39407438039779663 0.90368074178695679 0.17999617755413055
0.50497919321060181 0.8942253589630127 0.17324620485305786
0.60565769672393799 0.88741892576217651 0.16857843101024628
0.69317483901977539 0.88489246368408203 0.16723728179931641
0.76849234104156494 0.88607358932495117 0.16838304698467255
0.8369596004486084 0.88974142074584961 0.17146679759025574
0.90135008096694946 0.89438247680664062 0.17550444602966309
0.95945256948471069 0.89945018291473389 0.17988204956054688
0.99720621109008789 0.90471047163009644 0.18445470929145813
1 0.91032117605209351 0.18905052542686462
1 0.91611593961715698 0.19348876178264618
1 0.92148888111114502 0.19742003083229065
0.040479980409145355 0.043979957699775696 0.061292700469493866
0.082003198564052582 0.053299322724342346 0.071491390466690063
0.13312128186225891 0.060253728181123734 0.084164470434188843
0.19236034154891968 0.065627545118331909 0.095170997083187103
0.2561345100402832 0.069832161068916321 0.10386376827955246
0.32504847645759583 0.072286300361156464 0.11163026094436646
0.39835774898529053 0.073656268417835236 0.1188066229224205
0.47185254096984863 0.075721338391304016 0.12392033636569977
0.54528254270553589 0.078083083033561707 0.1267891526222229
0.62205106019973755 0.080544412136077881 0.12838403880596161
0.70329242944717407 0.081767484545707703 0.12794458866119385
0.78563010692596436 0.081564448773860931 0.12719382345676422
0.86255431175231934 0.080841392278671265 0.12625178694725037
0.075380183756351471 0.10974067449569702 0.10111218690872192
0.12956288456916809 0.115522600710392 0.10584443062543869
0.19489216804504395 0.11844326555728912 0.11157853156328201
0.26391720771789551 0.12175590544939041 0.11412195116281509
0.33386722207069397 0.12498756498098373 0.11410120129585266
0.40700697898864746 0.12789562344551086 0.11531130969524384
0.48284173011779785 0.12814587354660034 0.11804495751857758
0.55408304929733276 0.13121338188648224 0.11984730511903763
0.62251335382461548 0.13565193116664886 0.12085670232772827
0.69465404748916626 0.13980267941951752 0.12068963050842285
0.77175980806350708 0.14220982789993286 0.11974204331636429
0.85106462240219116 0.14345066249370575 0.11862669140100479
0.92532229423522949 0.14388279616832733 0.11802972853183746
0.087952904403209686 0.18466688692569733 0.12388477474451065
0.15647242963314056 0.18761615455150604 0.12201215326786041
0.23607897758483887 0.1868090033531189 0.12097543478012085
0.31681343913078308 0.18631976842880249 0.11744918674230576
0.39338943362236023 0.18792228400707245 0.11191900074481964
0.46938255429267883 0.18952085077762604 0.10831019282341003
0.54482340812683105 0.1911398321390152 0.10755589604377747
0.6150023341178894 0.19423137605190277 0.10828531533479691
0.68089753389358521 0.19917623698711395 0.1087244376540184
0.74874031543731689 0.20429810881614685 0.1087084487080574
0.82109040021896362 0.20842427015304565 0.10793859511613846
0.89582926034927368 0.21095234155654907 0.10721994936466217
0.96666008234024048 0.2125542014837265 0.10792134702205658
0.086724601686000824 0.26477181911468506 0.13226699829101562
0.16815966367721558 0.26483872532844543 0.12551593780517578
0.2582537829875946 0.2612670361995697 0.11900868266820908
0.34833833575248718 0.25815391540527344 0.11166772246360779
0.43105816841125488 0.25797614455223083 0.10337192565202713
0.5084538459777832 0.25954523682594299 0.097080335021018982
0.58256900310516357 0.26154437661170959 0.095230937004089355
0.65200591087341309 0.2644345760345459 0.095869116485118866
0.71694308519363403 0.26912525296211243 0.097386844456195831
0.78178900480270386 0.27473574876785278 0.09785587340593338
0.84955281019210815 0.28015884757041931 0.097882680594921112
0.9182734489440918 0.28446456789970398 0.097948990762233734
0.98307746648788452 0.28619354963302612 0.10029280185699463
0.081832200288772583 0.34599742293357849 0.13342887163162231
0.17329415678977966 0.34290230274200439 0.1239020824432373
0.27170765399932861 0.33749416470527649 0.11514090746641159
0.36809083819389343 0.33265316486358643 0.10628442466259003
0.45523527264595032 0.33118173480033875 0.09704253077507019
0.53349244594573975 0.33261659741401672 0.090428538620471954
0.60595196485519409 0.33519595861434937 0.088278345763683319
0.67400443553924561 0.33835440874099731 0.089536197483539581
0.73784822225570679 0.34290224313735962 0.091559328138828278
