assets/lut/alexjordan yellow 55b.cube
# Created by: G'MIC (https://gmic.eu)
TITLE "yellow_55b"
# LUT size
LUT_3D_SIZE 5
# Data domain
DOMAIN_MIN 0.0 0.0 0.0
DOMAIN_MAX 1.0 1.0 1.0
# LUT data points
0.00039708754047751427 0.00071698357351124287 0.016573004424571991
0.089917980134487152 0.0030812581535428762 0.02531350776553154
0.24157744646072388 0.0014705882640555501 0.016965365037322044
0.43522828817367554 0.0022123148664832115 0.013114300556480885
0.66175782680511475 0.010007611475884914 0.013896867632865906
0.024025516584515572 0.10463279485702515 0.045299068093299866
0.1252700537443161 0.12036780267953873 0.062172383069992065
0.28954359889030457 0.13036356866359711 0.062186911702156067
0.49985864758491516 0.12812727689743042 0.060458030551671982
0.74355208873748779 0.12160412967205048 0.059622328728437424
0.04939187690615654 0.27837464213371277 0.065400294959545135
0.16575063765048981 0.30699998140335083 0.092279233038425446
0.33749651908874512 0.32897156476974487 0.10916537046432495
0.56069016456604004 0.33680963516235352 0.1165124773979187
0.8165428638458252 0.34296533465385437 0.12120355665683746
0.07574811577796936 0.51424199342727661 0.097016036510467529
0.20431703329086304 0.55218392610549927 0.1316274106502533
0.38410615921020508 0.5841326117515564 0.16041599214076996
0.619975745677948 0.60361778736114502 0.17685745656490326
0.8886263370513916 0.61960333585739136 0.18731258809566498
0.11587867140769958 0.79761743545532227 0.14212021231651306
0.25501540303230286 0.83707553148269653 0.18016497790813446
0.43983998894691467 0.87542778253555298 0.21627463400363922
0.68546539545059204 0.90172064304351807 0.23795090615749359
0.96102195978164673 0.92392933368682861 0.25385335087776184
0.0021838918328285217 0.0015740786911919713 0.09995955228805542
0.092590868473052979 0.0066522485576570034 0.10341010242700577
0.24217192828655243 0.0015120562165975571 0.095831401646137238
0.44221442937850952 0 0.089433677494525909
0.67787033319473267 0 0.078868165612220764
0.032878365367650986 0.11349163949489594 0.12710006535053253
0.13284909725189209 0.13098123669624329 0.1450585275888443
0.29579785466194153 0.13898643851280212 0.14734643697738647
0.50767028331756592 0.13316501677036285 0.14440031349658966
0.75328218936920166 0.12756071984767914 0.13896127045154572
0.057916499674320221 0.29550337791442871 0.15281732380390167
0.17387588322162628 0.32289302349090576 0.18241041898727417
0.34682658314704895 0.34372344613075256 0.20251773297786713
0.57178765535354614 0.35067573189735413 0.21084049344062805
0.82865029573440552 0.35627537965774536 0.21525643765926361
0.086123250424861908 0.52870911359786987 0.18826258182525635
0.21430760622024536 0.56793695688247681 0.2251477986574173
0.39590632915496826 0.6004149317741394 0.25822189450263977
0.63393694162368774 0.62010926008224487 0.27772742509841919
0.90661221742630005 0.63069558143615723 0.289976567029953
0.12282167375087738 0.8097185492515564 0.23548002541065216
0.26412490010261536 0.85240209102630615 0.27603137493133545
0.45362970232963562 0.89251124858856201 0.3163851797580719
0.6983104944229126 0.92287719249725342 0.34348100423812866
0.9740791916847229 0.94047838449478149 0.3626716136932373
6.8933826696593314e-05 1.2925092050863896e-05 0.20810215175151825
0.089429087936878204 0.0043871710076928139 0.21086275577545166
0.24301840364933014 0.0035970499739050865 0.2035391628742218
0.45164814591407776 0 0.19529084861278534
0.69308936595916748 0 0.18697516620159149
0.028443610295653343 0.11855240166187286 0.24052928388118744
0.14104712009429932 0.13783061504364014 0.2576802670955658
0.30436611175537109 0.14644363522529602 0.26146417856216431
0.51899921894073486 0.14052623510360718 0.25667867064476013
0.76622498035430908 0.13653554022312164 0.25182434916496277
0.067816101014614105 0.30285874009132385 0.26940032839775085
0.18816262483596802 0.33375698328018188 0.29915884137153625
0.36314693093299866 0.35376548767089844 0.32020676136016846
0.58758533000946045 0.36084958910942078 0.32791426777839661
0.84327411651611328 0.36758750677108765 0.33199214935302734
0.10502433031797409 0.53948855400085449 0.30229714512825012
0.23403303325176239 0.58157193660736084 0.34102994203567505
0.41623586416244507 0.61379671096801758 0.37681460380554199
0.65213936567306519 0.63381528854370117 0.39791306853294373
0.92160022258758545 0.64625167846679688 0.41058871150016785
0.14005616307258606 0.82562798261642456 0.34784829616546631
0.28569760918617249 0.8680802583694458 0.39120578765869141
0.47730103135108948 0.9081728458404541 0.43521559238433838
0.71946817636489868 0.94071990251541138 0.46586528420448303
0.98614603281021118 0.95924109220504761 0.48707500100135803
0 0 0.33293092250823975
0.086947165429592133 0.0019949669949710369 0.33894199132919312
0.25246378779411316 0.0025489807594567537 0.33652123808860779
0.46535956859588623 0 0.33215349912643433
0.70857483148574829 0 0.33156898617744446
0.01917286217212677 0.11976102739572525 0.37185400724411011
0.14364463090896606 0.14385691285133362 0.39022469520568848
0.3158489465713501 0.1505509614944458 0.39783778786659241
0.53111201524734497 0.14966131746768951 0.3974183201789856
0.77869009971618652 0.15298002958297729 0.39807155728340149
0.070752702653408051 0.31001615524291992 0.40746590495109558
0.1967330127954483 0.34275394678115845 0.43826785683631897
0.37428706884384155 0.36184445023536682 0.46063113212585449
0.5985029935836792 0.37168636918067932 0.47030305862426758
0.85495233535766602 0.38409674167633057 0.47556677460670471
0.11179432272911072 0.55691695213317871 0.44592452049255371
0.24692778289318085 0.59513682126998901 0.48433652520179749
0.42973092198371887 0.62447762489318848 0.52032017707824707
0.66415071487426758 0.64526593685150146 0.54233193397521973
0.93586069345474243 0.66088682413101196 0.55399900674819946
0.15971685945987701 0.84045523405075073 0.4944966733455658
0.30797752737998962 0.88161206245422363 0.535819411277771
0.4987245500087738 0.92061644792556763 0.57929927110671997
0.73925483226776123 0.95448261499404907 0.61075824499130249
0.99538576602935791 0.97274321317672729 0.63049858808517456
0 0 0.47239181399345398
0.098303787410259247 0.00090637209359556437 0.48375067114830017
0.27450639009475708 0.0016502828802913427 0.48645833134651184
0.4895833432674408 0.0013591093011200428 0.48679965734481812
0.73226577043533325 0.0030294980388134718 0.49045690894126892
0.023384019732475281 0.12304273247718811 0.51622045040130615
0.15428347885608673 0.15003758668899536 0.53744399547576904
0.33122768998146057 0.16177314519882202 0.5488707423210144
0.54869407415390015 0.16783760488033295 0.55341196060180664
0.79725056886672974 0.18091326951980591 0.55827033519744873
0.086335621774196625 0.31443342566490173 0.55748063325881958
0.21473291516304016 0.35160306096076965 0.5887066125869751
0.38902288675308228 0.37552782893180847 0.61342209577560425
0.61210030317306519 0.3909098207950592 0.62676632404327393
0.86992847919464111 0.41067919135093689 0.63493233919143677
0.13122577965259552 0.57006847858428955 0.60339152812957764
0.26923877000808716 0.60681718587875366 0.64126193523406982
0.44689401984214783 0.63687902688980103 0.67790156602859497
0.67886477708816528 0.65992957353591919 0.70112520456314087
0.94905591011047363 0.68271088600158691 0.71438133716583252
0.18714991211891174 0.85696780681610107 0.65585863590240479
0.33831271529197693 0.89472323656082153 0.69565808773040771
0.52679097652435303 0.93246912956237793 0.73696321249008179
0.76281702518463135 0.96620267629623413 0.76943612098693848
0.99906331300735474 0.98694974184036255 0.79130250215530396
