assets/lut/alexjordan harsh day.cube
# Created by: G'MIC (https://gmic.eu)
TITLE "harsh_day"
# LUT size
LUT_3D_SIZE 13
# Data domain
DOMAIN_MIN 0.0 0.0 0.0
DOMAIN_MAX 1.0 1.0 1.0
# LUT data points
0.0070012412033975124 0.0047255121171474457 0.0056978710927069187
0.014356216415762901 0.0034822351299226284 0.0051652346737682819
0.019466176629066467 0.0023151920177042484 0.0037426368799060583
0.026208106428384781 0.0022671569604426622 0.0027873767539858818
0.036935754120349884 0.0021675857715308666 0.0020635416731238365
0.053148906677961349 0.001232640934176743 0.0010580025846138597
0.073205314576625824 0.00073529413202777505 0.00040624281973578036
0.096430957317352295 0.00073529413202777505 0.00018454159726388752
0.12246892601251602 0.00073529413202777505 0.00013786765339318663
0.15086574852466583 0.00074175663758069277 0.00020554487127810717
0.18179453909397125 0.0016650629695504904 0.00079036038368940353
0.21587696671485901 0.0032420738134533167 0.0031670066528022289
0.25567144155502319 0.007579803466796875 0.0070617226883769035
0.01076507568359375 0.019620798528194427 0.008530590683221817
0.022911984473466873 0.019230622798204422 0.0083419205620884895
0.033050253987312317 0.019178921356797218 0.0072205937467515469
0.044608097523450851 0.019198173657059669 0.0064600026234984398
0.060199350118637085 0.019486580044031143 0.0053629707545042038
0.080805942416191101 0.019911628216505051 0.0038029837887734175
0.10546686500310898 0.019575411453843117 0.0024392521008849144
0.13327229022979736 0.019578132778406143 0.0016016492154449224
0.16403205692768097 0.01979166641831398 0.001232147216796875
0.19758005440235138 0.020246692001819611 0.001379170105792582
0.23383605480194092 0.021152675151824951 0.0023179296404123306
0.27326259016990662 0.023813957348465919 0.0049059698358178139
0.31772980093955994 0.029543215408921242 0.0085603157058358192
0.011637848801910877 0.035832587629556656 0.0084444386884570122
0.028944725170731544 0.03820018470287323 0.0084281023591756821
0.045056857168674469 0.03915119543671608 0.0078781275078654289
0.063571497797966003 0.041123468428850174 0.0069574844092130661
0.084585048258304596 0.043538786470890045 0.0061949486844241619
0.10982060432434082 0.045653607696294785 0.0052165612578392029
0.13897013664245605 0.047454401850700378 0.0042705908417701721
0.17147606611251831 0.048931509256362915 0.0030512043740600348
0.20708858966827393 0.050200637429952621 0.0022671569604426622
0.24604290723800659 0.050428923219442368 0.0023075477220118046
0.28807678818702698 0.050566159188747406 0.0037668414879590273
0.33376500010490417 0.051543142646551132 0.0055356943048536777
0.38323000073432922 0.056926891207695007 0.0085941692814230919
0.011140023358166218 0.05844898521900177 0.0076569500379264355
0.033516485244035721 0.061627361923456192 0.0075785769149661064
0.056371934711933136 0.065608859062194824 0.0071118222549557686
0.080795228481292725 0.069526717066764832 0.0069852941669523716
0.10800984501838684 0.073589816689491272 0.0068222195841372013
0.13878871500492096 0.077777624130249023 0.0052617690525949001
0.17270189523696899 0.081452883780002594 0.0045955884270370007
0.21000948548316956 0.084370583295822144 0.0045870612375438213
0.25078225135803223 0.086539611220359802 0.0040801852010190487
0.294939786195755 0.088159598410129547 0.0041261413134634495
0.3427836000919342 0.08843492716550827 0.0046326583251357079
0.39385455846786499 0.089568734169006348 0.0064041586592793465
0.44768372178077698 0.09581834077835083 0.0091555574908852577
0.010553217492997646 0.089218616485595703 0.0077205882407724857
0.03801167756319046 0.094441056251525879 0.0077205882407724857
0.066437393426895142 0.10076503455638885 0.0076854033395648003
0.097157873213291168 0.10627320408821106 0.0075974259525537491
0.13065654039382935 0.11215413361787796 0.0071910782717168331
0.16686013340950012 0.11806213110685349 0.0059594549238681793
0.20611058175563812 0.12348692864179611 0.0051056207157671452
0.24847596883773804 0.128260537981987 0.0047083236277103424
0.2943025529384613 0.13167047500610352 0.0045955884270370007
0.34386804699897766 0.13390795886516571 0.0046932445839047432
0.39701512455940247 0.13518731296062469 0.0053927404806017876
0.45302170515060425 0.13868686556816101 0.0074732312932610512
0.51067280769348145 0.14686158299446106 0.010284334421157837
0.010936004109680653 0.1316460520029068 0.0077205882407724857
0.042717669159173965 0.13721905648708344 0.0077205882407724857
0.076497159898281097 0.1448005735874176 0.0073631438426673412
0.11288315802812576 0.15258434414863586 0.006907100323587656
0.15237626433372498 0.16015934944152832 0.0062981997616589069
0.19372369349002838 0.16771924495697021 0.0061274510808289051
0.23846527934074402 0.17500710487365723 0.0059876237064599991
0.28632363677024841 0.18125142157077789 0.0056015760637819767
0.33759579062461853 0.18597640097141266 0.005370674654841423
0.39251548051834106 0.18931996822357178 0.0056738313287496567
0.45071500539779663 0.19226078689098358 0.0066768270917236805
0.51148897409439087 0.19726701080799103 0.0088515784591436386
0.57343184947967529 0.20670504868030548 0.011622035875916481
0.012134253047406673 0.18360826373100281 0.0087597565725445747
0.047985780984163284 0.18971548974514008 0.0080534247681498528
0.086748741567134857 0.19875721633434296 0.0069977403618395329
0.12792840600013733 0.20847481489181519 0.006536431610584259
0.1722586452960968 0.21810616552829742 0.0061274510808289051
0.21974781155586243 0.22733291983604431 0.006237673107534647
0.27019059658050537 0.23607657849788666 0.006359743420034647
0.32376781105995178 0.2434447854757309 0.0065312702208757401
0.38077697157859802 0.24950490891933441 0.006645621731877327
0.44120031595230103 0.25415793061256409 0.0070929136127233505
0.50454866886138916 0.25848710536956787 0.0083208568394184113
0.56978511810302734 0.26455295085906982 0.010460827499628067
0.63621038198471069 0.27509850263595581 0.013116545043885708
0.014328481629490852 0.24518431723117828 0.010656633414328098
0.054284531623125076 0.25220981240272522 0.009216981939971447
0.097183361649513245 0.26263558864593506 0.0078367497771978378
0.1433543860912323 0.27420946955680847 0.0071551306173205376
0.192530557513237 0.28596639633178711 0.0067123114131391048
0.24549305438995361 0.29679122567176819 0.0068564619868993759
0.30166125297546387 0.30691495537757874 0.0072814491577446461
0.3609713613986969 0.31550183892250061 0.007872861810028553
0.42364543676376343 0.32276096940040588 0.0084407879039645195
0.48959076404571533 0.3283393383026123 0.0088925529271364212
0.55823689699172974 0.33365383744239807 0.010139166377484798
0.62848222255706787 0.34051215648651123 0.011958716437220573
0.69881582260131836 0.35176205635070801 0.014695575460791588
0.018140800297260284 0.31734177470207214 0.013656376861035824
0.062021099030971527 0.32574042677879333 0.010957680642604828
0.1088639497756958 0.3374561071395874 0.0089539922773838043
0.15943443775177002 0.35065719485282898 0.0076826657168567181
0.21308337152004242 0.36378011107444763 0.006929060909897089
0.27152729034423828 0.37617462873458862 0.0069642607122659683
0.3330681324005127 0.38739153742790222 0.0082204034551978111
0.39809313416481018 0.39726683497428894 0.0091274483129382133
0.4663851261138916 0.40563130378723145 0.0094674797728657722
0.53788280487060547 0.41214713454246521 0.011105062440037727
0.61174416542053223 0.41817116737365723 0.012115508317947388
0.6865496039390564 0.42583400011062622 0.01277604978531599
0.76113992929458618 0.43731474876403809 0.015621723607182503
0.025099631398916245 0.40205559134483337 0.017656693235039711
0.071917995810508728 0.41067385673522949 0.01375478133559227
0.12227808684110641 0.4232214093208313 0.010811061598360538
0.17637476325035095 0.43725234270095825 0.0089271245524287224
0.23523461818695068 0.45149856805801392 0.0079491259530186653
0.29803934693336487 0.46499955654144287 0.0081305708736181259
0.36505034565925598 0.47731468081474304 0.0091709811240434647
0.43564039468765259 0.48819670081138611 0.0094095412641763687
0.50945240259170532 0.49757841229438782 0.011269229464232922
0.58612149953842163 0.50552457571029663 0.012316176667809486
0.66515874862670898 0.51268786191940308 0.012316176667809486
0.74439966678619385 0.5208391547203064 0.012871610932052135
0.82253408432006836 0.53315544128417969 0.015730749815702438
0.035034928470849991 0.49723699688911438 0.023380085825920105
0.084658727049827576 0.50589138269424438 0.018357221037149429
0.13802611827850342 0.51859378814697266 0.013854965567588806
0.19579911231994629 0.53299432992935181 0.010852903127670288
0.25829339027404785 0.54799818992614746 0.0092837763950228691
0.32582151889801025 0.56224280595779419 0.0092094866558909416
0.39807248115539551 0.57529294490814209 0.0095060607418417931
0.47416338324546814 0.58701050281524658 0.010709306225180626
0.55304700136184692 0.59768867492675781 0.01194655429571867
0.63463932275772095 0.60710912942886353 0.012339154258370399
0.71817213296890259 0.61600232124328613 0.012101566419005394
0.801349937915802 0.62631767988204956 0.012646409682929516
0.88250899314880371 0.64003115892410278 0.015074008144438267
0.048862606287002563 0.600117027759552 0.031100882217288017
0.1011214479804039 0.60911434888839722 0.025192739441990852
0.15718206763267517 0.62162888050079346 0.019474837929010391
0.21786841750144958 0.63628357648849487 0.014780052006244659
0.2837575376033783 0.65173101425170898 0.012255066074430943
0.35538515448570251 0.66650736331939697 0.011567657813429832
0.43235287070274353 0.67995470762252808 0.012056373059749603
0.51334661245346069 0.69257867336273193 0.013034312054514885
0.59712260961532593 0.70415776968002319 0.013645561411976814
0.68297028541564941 0.7152748703956604 0.013522159308195114
0.77006369829177856 0.72664123773574829 0.013061134144663811
0.85668176412582397 0.73931509256362915 0.01326115895062685
0.94069653749465942 0.75466078519821167 0.015303503721952438
0.066945306956768036 0.70857131481170654 0.041568007320165634
0.12172142416238785 0.71755695343017578 0.034753479063510895
0.18066835403442383 0.73025017976760864 0.028236448764801025
0.24391333758831024 0.7451285719871521 0.022468551993370056
0.31247016787528992 0.76070874929428101 0.018234089016914368
0.38796845078468323 0.77555477619171143 0.016819419339299202
0.46908089518547058 0.78967589139938354 0.017334192991256714
0.55379831790924072 0.80291342735290527 0.017784282565116882
0.6411934494972229 0.81592899560928345 0.018080377951264381
0.73027491569519043 0.82885837554931641 0.017489908263087273
0.82017838954925537 0.84207451343536377 0.016883594915270805
0.90925157070159912 0.85671979188919067 0.016857355833053589
0.98595333099365234 0.87346822023391724 0.019309263676404953
0.0032584096770733595 0.0024867188185453415 0.010131671093404293
0.010898874141275883 0.0022726021707057953 0.0098956087604165077
0.017587101086974144 0.0019278881372883916 0.0091236336156725883
0.026617866009473801 0.0011886297725141048 0.008876127190887928
0.039447635412216187 0.00083274091593921185 0.0090941339731216431
0.056305784732103348 0.00073619169415906072 0.0087225968018174171
0.077083110809326172 0.00073529413202777505 0.007923380471765995
0.10120115429162979 0.00073529413202777505 0.0074076335877180099
0.12818020582199097 0.00076886347960680723 0.0073874080553650856
0.1580033004283905 0.001275859191082418 0.008016534149646759
0.19043713808059692 0.00221101357601583 0.010470251552760601
0.22554893791675568 0.0037467058282345533 0.015262499451637268
0.26566892862319946 0.0070049059577286243 0.020892258733510971
0.0081199947744607925 0.017381226643919945 0.015719844028353691
0.019933303818106651 0.017396649345755577 0.01526240911334753
0.031269192695617676 0.016799492761492729 0.014589825645089149
0.045446626842021942 0.016717050224542618 0.014717341400682926
0.062834374606609344 0.017918305471539497 0.015251263976097107
0.084350213408470154 0.018646912649273872 0.01520512904971838
0.10966671258211136 0.019380936399102211 0.014719016849994659
0.13819172978401184 0.020180033519864082 0.013914085924625397
0.16998399794101715 0.020819390192627907 0.013721167109906673
0.20470477640628815 0.021820247173309326 0.014176043681800365
0.24193774163722992 0.023323478177189827 0.016134433448314667
0.28210964798927307 0.025911981239914894 0.020184699445962906
0.32637962698936462 0.030918644741177559 0.02558918297290802
0.010550151579082012 0.035191986709833145 0.018922977149486542
0.027129767462611198 0.037215828895568848 0.018773816525936127
0.044481523334980011 0.038661837577819824 0.018292879685759544
0.064557559788227081 0.039492364972829819 0.018621571362018585
0.086922407150268555 0.041652020066976547 0.019477440044283867
0.11334177851676941 0.044795781373977661 0.019758202135562897
0.14324909448623657 0.047455955296754837 0.019668204709887505
0.17648713290691376 0.049761198461055756 0.018969681113958359
0.21289369463920593 0.051119036972522736 0.01860593818128109
0.25264507532119751 0.052018694579601288 0.019103346392512321
0.2954067587852478 0.052860543131828308 0.020990079268813133
0.34101608395576477 0.054794866591691971 0.024531301110982895
0.39003166556358337 0.060198571532964706 0.029342187568545341
0.010554653592407703 0.060428813099861145 0.021605173125863075
0.032718554139137268 0.063566155731678009 0.021664248779416084
0.056212659925222397 0.066259033977985382 0.021594567224383354
0.082032158970832825 0.068958491086959839 0.021927598863840103
0.1105731874704361 0.072643458843231201 0.022588841617107391
0.14224250614643097 0.077324122190475464 0.023494167253375053
0.17704154551029205 0.081887140870094299 0.023560797795653343
0.21477954089641571 0.085457056760787964 0.023355791345238686
0.2561735212802887 0.088425971567630768 0.023254543542861938
0.30101487040519714 0.089624576270580292 0.02361379936337471
0.34918212890625 0.090679138898849487 0.025321407243609428
0.40039372444152832 0.092858441174030304 0.028614552691578865
0.45384496450424194 0.099088408052921295 0.033129256218671799
0.010055362246930599 0.093471407890319824 0.024734796956181526
0.03753560408949852 0.098545566201210022 0.024855416268110275
0.066395193338394165 0.10297640413045883 0.024912066757678986
0.098392680287361145 0.10734791308641434 0.025640061125159264
0.13275992870330811 0.11252249777317047 0.026750242337584496
0.17032253742218018 0.11830547451972961 0.027530834078788757
0.21023853123188019 0.12422636151313782 0.027595864608883858
0.25310122966766357 0.12990836799144745 0.027122886851429939
0.29928559064865112 0.13407218456268311 0.026685064658522606
0.34937381744384766 0.13662591576576233 0.02731538750231266
0.40285220742225647 0.13827067613601685 0.029440097510814667
0.45901510119438171 0.14138555526733398 0.032854236662387848
0.51709544658660889 0.14892686903476715 0.037174269556999207
0.010290930978953838 0.1356397271156311 0.028073403984308243
0.04172954335808754 0.14158932864665985 0.027954580262303352
0.076531581580638885 0.14813326299190521 0.028160529211163521
0.11363519728183746 0.15466780960559845 0.02879302017390728
0.15369580686092377 0.16155080497264862 0.029800714924931526
0.19694143533706665 0.16878361999988556 0.030645886436104774
0.24241484701633453 0.1762186586856842 0.031078891828656197
0.29070949554443359 0.18318758904933929 0.030882397666573524
0.34230813384056091 0.18895746767520905 0.030776079744100571
0.39764660596847534 0.19263145327568054 0.031593818217515945
0.45644688606262207 0.19542330503463745 0.033985063433647156
0.5176159143447876 0.19982199370861053 0.037320889532566071
0.58031421899795532 0.20851345360279083 0.041568771004676819
0.011187744326889515 0.1870274692773819 0.032527100294828415
0.047048218548297882 0.19357709586620331 0.031976543366909027
0.086410164833068848 0.20207999646663666 0.032017651945352554
0.12852835655212402 0.21100074052810669 0.032447591423988342
0.17423968017101288 0.22017088532447815 0.033344749361276627
0.22273853421211243 0.2291797399520874 0.034360446035861969
0.27410188317298889 0.23788632452487946 0.035110756754875183
0.32832247018814087 0.24598129093647003 0.035632818937301636
0.38558390736579895 0.252825528383255 0.035867221653461456
0.44635394215583801 0.25773954391479492 0.036994710564613342
0.51038873195648193 0.26175153255462646 0.039110429584980011
0.57640010118484497 0.26740357279777527 0.042158015072345734
0.64335143566131592 0.27707394957542419 0.046267237514257431
0.012530367821455002 0.24848894774913788 0.037559673190116882
0.052528426051139832 0.25589707493782043 0.03644256666302681
0.096375904977321625 0.26606336236000061 0.035651292651891708
0.14363308250904083 0.27730298042297363 0.035788189619779587
0.19433917105197906 0.28847101330757141 0.036443538963794708
0.24832324683666229 0.29929158091545105 0.037713099271059036
0.30548626184463501 0.30949833989143372 0.039138346910476685
0.36560094356536865 0.31856930255889893 0.040519371628761292
0.4286295473575592 0.32625037431716919 0.041657496243715286
0.49512869119644165 0.33218541741371155 0.04291929304599762
0.56444698572158813 0.33751693367958069 0.044496230781078339
0.63518792390823364 0.34412267804145813 0.046982035040855408
0.70622342824935913 0.3546454906463623 0.050536766648292542
0.015480071306228638 0.32116323709487915 0.043331578373908997
0.059629566967487335 0.32945036888122559 0.041344214230775833
0.10789235681295395 0.34104239940643311 0.039937008172273636
0.15964280068874359 0.3540157675743103 0.039510376751422882
0.21494907140731812 0.3668886125087738 0.040006134659051895
0.27418166399002075 0.37934917211532593 0.041220646351575851
0.33684459328651428 0.3907683789730072 0.04288686066865921
0.40260916948318481 0.40090912580490112 0.045121915638446808
0.47140917181968689 0.40973404049873352 0.047143150120973587
0.54338365793228149 0.41685560345649719 0.048309564590454102
0.61798244714736938 0.42282864451408386 0.049316108226776123
0.69357782602310181 0.43030077219009399 0.051041338592767715
0.76863962411880493 0.44167560338973999 0.054285924881696701
0.020707836374640465 0.40558710694313049 0.050058957189321518
0.068649619817733765 0.41449591517448425 0.04710368812084198
0.12045975029468536 0.42692321538925171 0.044905226677656174
0.17612788081169128 0.44103384017944336 0.043617650866508484
0.23666766285896301 0.4554743766784668 0.043406631797552109
0.30071914196014404 0.46902963519096375 0.044533178210258484
0.36879470944404602 0.48153597116470337 0.046636335551738739
0.44008943438529968 0.49295124411582947 0.048930507153272629
0.51418328285217285 0.50284641981124878 0.051333751529455185
0.59156090021133423 0.51096147298812866 0.052302565425634384
0.67137449979782104 0.51842999458312988 0.052655640989542007
0.75147128105163574 0.52673792839050293 0.054193533957004547
0.83008271455764771 0.53879928588867188 0.057060703635215759
0.029427472501993179 0.50034409761428833 0.05810140073299408
0.080558463931083679 0.50956016778945923 0.054307825863361359
0.13584189116954803 0.5224078893661499 0.051139172166585922
0.19493879377841949 0.53720057010650635 0.048760447651147842
0.25942835211753845 0.55249261856079102 0.04794025793671608
0.3283698558807373 0.56701982021331787 0.048623297363519669
0.40171161293983459 0.58041906356811523 0.050523016601800919
0.47849276661872864 0.59273093938827515 0.052637603133916855
0.55810892581939697 0.60368174314498901 0.054611489176750183
0.64034098386764526 0.61342376470565796 0.055420596152544022
0.7242577075958252 0.62262469530105591 0.05558370053768158
0.80806571245193481 0.63268822431564331 0.056345921009778976
0.88998043537139893 0.64595770835876465 0.059356030076742172
0.042298112064599991 0.60291063785552979 0.068174086511135101
0.095896355807781219 0.61245924234390259 0.063442766666412354
0.15438973903656006 0.62569546699523926 0.059384483844041824
0.21684505045413971 0.64082765579223633 0.056105818599462509
0.2849067747592926 0.65661287307739258 0.054390955716371536
0.35817116498947144 0.67188942432403564 0.054327886551618576
0.4361976683139801 0.68618476390838623 0.055811714380979538
0.51767772436141968 0.69904607534408569 0.057650920003652573
0.60218137502670288 0.71109020709991455 0.058780848979949951
0.68862926959991455 0.72240638732910156 0.059077035635709763
0.77626484632492065 0.73376941680908203 0.058685421943664551
0.86309480667114258 0.74597913026809692 0.059521064162254333
0.94741523265838623 0.76063627004623413 0.062678195536136627
0.059419967234134674 0.7112002968788147 0.080684944987297058
0.11584089696407318 0.72117096185684204 0.075225457549095154
0.17690093815326691 0.73443794250488281 0.070309177041053772
0.24264012277126312 0.74989175796508789 0.066406100988388062
0.31372904777526855 0.76608133316040039 0.063771434128284454
0.39060410857200623 0.78167176246643066 0.063029766082763672
0.47260591387748718 0.7963937520980835 0.064307838678359985
0.55803650617599487 0.81014335155487061 0.065209329128265381
0.64604449272155762 0.82335859537124634 0.065882109105587006
0.73583215475082397 0.83632171154022217 0.065861344337463379
0.82611340284347534 0.84969121217727661 0.065659284591674805
0.9154471755027771 0.86387020349502563 0.066473446786403656
0.9891963005065918 0.87953972816467285 0.070091679692268372
0.00072248867945745587 0.0013144698459655046 0.011959749273955822
0.0070357676595449448 0.0013873978750780225 0.012097377330064774
0.015842108055949211 0.00079921650467440486 0.012447028420865536
0.027670377865433693 0.00073529413202777505 0.013824327848851681
0.042444717139005661 0.00073529413202777505 0.01542949303984642
0.06063118577003479 0.00081087002763524652 0.01696147583425045
0.082277767360210419 0.0010135426418855786 0.018140606582164764
0.10723912715911865 0.0011605655308812857 0.018746588379144669
0.13547177612781525 0.0014175415271893144 0.019804516807198524
0.16675984859466553 0.0020816279575228691 0.02108549140393734
0.20062647759914398 0.0029925776179879904 0.023324510082602501
0.23721881210803986 0.0048297508619725704 0.028009198606014252
0.27771639823913574 0.0077114477753639221 0.034445278346538544
0.0047634197399020195 0.015298940241336823 0.020430276170372963
0.016695598140358925 0.01533044595271349 0.020134929567575455
0.029790826141834259 0.015258190222084522 0.0204581618309021
0.04590027779340744 0.015440233983099461 0.022125199437141418
0.066079489886760712 0.017147812992334366 0.024432208389043808
0.08881116658449173 0.019257953390479088 0.026126876473426819
0.11489497125148773 0.020678861066699028 0.027489680796861649
0.14442302286624908 0.021636603400111198 0.028318682685494423
0.17751269042491913 0.022562183439731598 0.0290388073772192
0.21349264681339264 0.023966711014509201 0.030113833025097847
0.25179839134216309 0.026335278525948524 0.032004158943891525
0.2925383448600769 0.029356414452195168 0.036350235342979431
0.33679008483886719 0.033981770277023315 0.042688168585300446
0.0077957152388989925 0.036004114896059036 0.027881503105163574
0.025945371016860008 0.037861663848161697 0.027755094692111015
0.044349789619445801 0.038731951266527176 0.028119718655943871
0.065809629857540131 0.039259549230337143 0.029681561514735222
0.090263500809669495 0.041779447346925735 0.03214099258184433
0.11759669333696365 0.045705594122409821 0.034509308636188507
0.14837527275085449 0.048925124108791351 0.035849180072546005
0.18259373307228088 0.051466669887304306 0.036592595279216766
0.21998666226863861 0.053585831075906754 0.037198774516582489
0.26070094108581543 0.055196229368448257 0.038439895957708359
0.30404531955718994 0.057083923369646072 0.04060789942741394
0.3499218225479126 0.059909295290708542 0.044564984738826752
0.39855283498764038 0.065566271543502808 0.050302661955356598
0.010015181265771389 0.062880240380764008 0.034629464149475098
0.032749280333518982 0.066181793808937073 0.034976676106452942
0.056863777339458466 0.068369291722774506 0.035725671797990799
0.083911031484603882 0.07014591246843338 0.037330299615859985
0.11359356343746185 0.074109219014644623 0.039875388145446777
0.14623048901557922 0.078949853777885437 0.042224016040563583
0.18189296126365662 0.083747059106826782 0.043776508420705795
0.22060814499855042 0.088133402168750763 0.04428449273109436
