assets/lut/alexjordan green light.cube
# Created by: G'MIC (https://gmic.eu)
TITLE "green_light"
# LUT size
LUT_3D_SIZE 13
# Data domain
DOMAIN_MIN 0.0 0.0 0.0
DOMAIN_MAX 1.0 1.0 1.0
# LUT data points
0.00010986327833961695 0.00068431178806349635 0.00016371783567592502
0.0022974200546741486 0.0040338854305446148 0.001506117288954556
0.0095842545852065086 0.0079272100701928139 0.0072175418026745319
0.024550210684537888 0.013345994986593723 0.015202900394797325
0.04715297743678093 0.022045299410820007 0.021128127351403236
0.075916096568107605 0.031020116060972214 0.024499017745256424
0.11131224036216736 0.037646111100912094 0.026383673772215843
0.15299208462238312 0.042337201535701752 0.028744088485836983
0.2012503445148468 0.046047300100326538 0.033462151885032654
0.25797885656356812 0.047141265124082565 0.035043381154537201
0.3238588273525238 0.047918327152729034 0.029066197574138641
0.39066037535667419 0.048160642385482788 0.021427888423204422
0.45246374607086182 0.049266230314970016 0.017609793692827225
0.011701741255819798 0.026679228991270065 0.012040889821946621
0.023771084845066071 0.039750147610902786 0.017454873770475388
0.040136329829692841 0.048744771629571915 0.02487996406853199
0.063475407660007477 0.056675195693969727 0.030069433152675629
0.094622202217578888 0.066597945988178253 0.030250564217567444
0.13364651799201965 0.075237080454826355 0.027898002415895462
0.17941735684871674 0.08112761378288269 0.024326354265213013
0.23164805769920349 0.084749676287174225 0.021456295624375343
0.2905910313129425 0.087107986211776733 0.020831717178225517
0.35672852396965027 0.088948644697666168 0.018319357186555862
0.42757365107536316 0.089325785636901855 0.011307495646178722
0.49640244245529175 0.089333176612854004 0.005344002041965723
0.55697691440582275 0.09109979122877121 0.0041365381330251694
0.025677280500531197 0.075391583144664764 0.029732214286923409
0.04056955873966217 0.090947248041629791 0.031510941684246063
0.062572821974754333 0.10119159519672394 0.032774697989225388
0.094035625457763672 0.10913543403148651 0.032045267522335052
0.135751873254776 0.11782076954841614 0.027372697368264198
0.18585079908370972 0.12490442395210266 0.020299380645155907
0.24326357245445251 0.12933425605297089 0.011738556437194347
0.30708849430084229 0.13169640302658081 0.0060639623552560806
0.37680292129516602 0.13253749907016754 0.0046465257182717323
0.4517970085144043 0.1324620395898819 0.0025229060556739569
0.52773046493530273 0.13185469806194305 0.00046056110295467079
0.59785920381546021 0.13183972239494324 0.00018289603758603334
0.65646553039550781 0.13490308821201324 0.0017971711931750178
0.023724993690848351 0.13838362693786621 0.032302286475896835
0.041726280003786087 0.15283466875553131 0.031170370057225227
0.070623941719532013 0.1630641371011734 0.027063556015491486
0.11320000141859055 0.17008602619171143 0.02129782922565937
0.16662578284740448 0.17640185356140137 0.014226067811250687
0.22842957079410553 0.18131193518638611 0.0073436661623418331
0.29702854156494141 0.18483783304691315 0.0020479389932006598
0.37159383296966553 0.18512371182441711 0.00012866749602835625
0.45080673694610596 0.18503342568874359 3.4466913348296657e-05
0.53242409229278564 0.18319633603096008 4.8469096327607986e-06
0.61158299446105957 0.18154843151569366 0
0.68233519792556763 0.18118791282176971 7.0010914896556642e-06
0.73992395401000977 0.18526865541934967 0.0032881791703402996
0.011251232586801052 0.21249493956565857 0.023223653435707092
0.029694890603423119 0.22447173297405243 0.018663743510842323
0.065597072243690491 0.23294195532798767 0.012031495571136475
0.11943600326776505 0.23815418779850006 0.0060752867721021175
0.18576015532016754 0.24193295836448669 0.0022723926231265068
0.25835469365119934 0.24503311514854431 0.00066190236248075962
0.33669212460517883 0.24661758542060852 4.1288487409474328e-05
0.42043313384056091 0.24641980230808258 0
0.50723296403884888 0.24475193023681641 0
0.59297621250152588 0.24200968444347382 0
0.67247885465621948 0.24009978771209717 0
0.74187999963760376 0.24112449586391449 0
0.79815316200256348 0.24895927309989929 0.0011779336491599679
0.00093316473066806793 0.29382205009460449 0.010533381253480911
0.012966020964086056 0.30386215448379517 0.0050834952853620052
0.05246487632393837 0.30971157550811768 0.0014534295769408345
0.11602597683668137 0.31227657198905945 0.00017532648053020239
0.19262655079364777 0.31345993280410767 0
0.27465307712554932 0.31490477919578552 0
0.36164659261703491 0.31586897373199463 0
0.45334070920944214 0.31510153412818909 0
0.54639732837677002 0.31256625056266785 0
0.63524270057678223 0.30959749221801758 0
0.71349012851715088 0.30859974026679993 0
0.78185534477233887 0.31339198350906372 0
0.83893013000488281 0.32649511098861694 1.1668485967675224e-05
0 0.37817162275314331 0.0032203674782067537
0.005053546279668808 0.38629224896430969 0.00045948402839712799
0.041013110429048538 0.38983142375946045 0
0.10648788511753082 0.39040356874465942 0
0.18912003934383392 0.39025843143463135 0
0.28020116686820984 0.39064580202102661 0
0.37523022294044495 0.39104118943214417 0
0.47321203351020813 0.38993328809738159 0
0.5700804591178894 0.38767543435096741 0
0.66235798597335815 0.38524553179740906 0
0.74176591634750366 0.38744351267814636 0
0.81378227472305298 0.39845538139343262 0
0.87519842386245728 0.41913917660713196 0
0 0.46337699890136719 0.00079356174683198333
0.0040257624350488186 0.46885320544242859 1.2566061968755093e-06
0.034921355545520782 0.47148048877716064 0
0.098760016262531281 0.47234341502189636 0
0.1859804093837738 0.47277849912643433 0
0.28405272960662842 0.47339656949043274 0
0.38522017002105713 0.47339907288551331 0
0.48747396469116211 0.47219195961952209 0
0.58879703283309937 0.47070410847663879 0
0.68459278345108032 0.47212085127830505 0
0.77013075351715088 0.47949650883674622 0
0.85081034898757935 0.49939897656440735 6.247127748792991e-05
0.91903448104858398 0.52925372123718262 0.0011292700655758381
0 0.5481494665145874 3.7339155824156478e-05
0.0036175597924739122 0.55255615711212158 0
0.033323474228382111 0.55571204423904419 0
0.099607951939105988 0.55972170829772949 6.4625460254319478e-06
0.19407097995281219 0.56448191404342651 6.103515625e-05
0.30026856064796448 0.56823402643203735 0.00029530245228670537
0.40683060884475708 0.56906414031982422 0.00090471154544502497
0.51176619529724121 0.5680120587348938 0.0021835027728229761
0.62077456712722778 0.57164525985717773 0.0039235432632267475
0.72702062129974365 0.58043795824050903 0.0049138385802507401
0.81949371099472046 0.59376317262649536 0.0066428389400243759
0.90495848655700684 0.62120515108108521 0.0075203240849077702
0.97096103429794312 0.6577608585357666 0.012053665705025196
1.4002182979311328e-05 0.63537949323654175 0
0.006265303585678339 0.64325416088104248 0.00034049540408886969
0.04070904478430748 0.64915972948074341 0.0029995189979672432
0.11637639254331589 0.6593785285949707 0.005998663604259491
0.22304098308086395 0.67226779460906982 0.0081200245767831802
0.33982670307159424 0.68188327550888062 0.0106672253459692
0.45399516820907593 0.68688929080963135 0.015020826831459999
0.56540417671203613 0.68991070985794067 0.021187875419855118
0.68252569437026978 0.69931125640869141 0.027023972943425179
0.7990264892578125 0.71575605869293213 0.030487269163131714
0.89968901872634888 0.73672974109649658 0.031562101095914841
0.97423708438873291 0.76595145463943481 0.032101664692163467
0.99902164936065674 0.79548603296279907 0.045224942266941071
0.0040026647038757801 0.73758459091186523 3.6621095205191523e-05
0.024222848936915398 0.75345820188522339 0.0043329424224793911
0.06992601603269577 0.76623648405075073 0.019045647233724594
0.15796183049678802 0.78223687410354614 0.031718011945486069
0.27637496590614319 0.80017274618148804 0.037086173892021179
0.40207907557487488 0.81426864862442017 0.041138488799333572
0.52429425716400146 0.82403475046157837 0.047335110604763031
0.64177823066711426 0.83180314302444458 0.056349601596593857
0.76062726974487305 0.84419155120849609 0.064807236194610596
0.87527406215667725 0.86279785633087158 0.069943897426128387
0.96576213836669922 0.88470864295959473 0.072249814867973328
0.99945306777954102 0.90660220384597778 0.079648517072200775
1 0.92387872934341431 0.10015323013067245
0.025629095733165741 0.85837984085083008 0.0028089038096368313
0.063071168959140778 0.88567304611206055 0.017692342400550842
0.12606969475746155 0.90884727239608765 0.041880648583173752
0.22308525443077087 0.92526799440383911 0.061093036085367203
0.3447449803352356 0.9400031566619873 0.071434244513511658
0.47340130805969238 0.95191526412963867 0.077157996594905853
0.59764742851257324 0.96018177270889282 0.083974294364452362
0.71370601654052734 0.96642816066741943 0.094926245510578156
0.82474690675735474 0.97372561693191528 0.10568443685770035
0.92452520132064819 0.98286205530166626 0.1134040504693985
0.99017989635467529 0.99059069156646729 0.11948832869529724
1 0.99590158462524414 0.1310720294713974
0.99993431568145752 0.99809747934341431 0.14701372385025024
0.060392357409000397 0.97715336084365845 0.020603269338607788
0.11293840408325195 0.99216979742050171 0.045501247048377991
0.18867617845535278 0.9988023042678833 0.070856668055057526
0.29008963704109192 1 0.091379173099994659
0.40944677591323853 1 0.1049056276679039
0.53380018472671509 1 0.11264989525079727
0.65333372354507446 1 0.12027520686388016
0.76279795169830322 1 0.13038313388824463
0.86161482334136963 1 0.14018392562866211
0.9429745078086853 1 0.14756360650062561
0.992442786693573 1 0.15423616766929626
1 1 0.16265977919101715
1 1 0.17111082375049591
0.0011092092609032989 0.0033625583164393902 0.0042026746086776257
0.005230877548456192 0.0081570791080594063 0.0091693056747317314
0.014425479806959629 0.012598913162946701 0.018712271004915237
0.030315190553665161 0.018576363101601601 0.028630783781409264
0.052575532346963882 0.026729777455329895 0.035627074539661407
0.081640772521495819 0.034088104963302612 0.040500491857528687
0.11758147925138474 0.039478451013565063 0.043606970459222794
0.16058704257011414 0.04315224289894104 0.047601930797100067
0.21118688583374023 0.046728156507015228 0.053627762943506241
0.26987850666046143 0.047303561121225357 0.056977290660142899
0.33447685837745667 0.05052885040640831 0.056049779057502747
0.39900034666061401 0.050551321357488632 0.054814521223306656
0.45917734503746033 0.050695039331912994 0.05746123194694519
0.015262438915669918 0.035188082605600357 0.026909757405519485
0.027085516601800919 0.045813482254743576 0.032357849180698395
0.044260405004024506 0.053511060774326324 0.040966589003801346
0.068213172256946564 0.061301916837692261 0.048332814127206802
0.099743038415908813 0.070821322500705719 0.051474027335643768
0.13944637775421143 0.077702194452285767 0.052391424775123596
0.18632988631725311 0.081644527614116669 0.050690371543169022
0.23961485922336578 0.084162063896656036 0.048825446516275406
0.30024349689483643 0.085843183100223541 0.048672337085008621
0.36790940165519714 0.087277069687843323 0.044730961322784424
0.43901395797729492 0.089272409677505493 0.037703182548284531
0.50605839490890503 0.089338235557079315 0.033993169665336609
0.56484806537628174 0.091440699994564056 0.036611221730709076
0.024994764477014542 0.082269735634326935 0.048136945813894272
0.040798157453536987 0.09491565078496933 0.051238413900136948
0.064238034188747406 0.10424762964248657 0.055117122828960419
0.097881719470024109 0.11223853379487991 0.057268582284450531
0.14031033217906952 0.12123911082744598 0.055527660995721817
0.19166222214698792 0.12697216868400574 0.051313064992427826
0.25028565526008606 0.12916584312915802 0.044433608651161194
0.31490030884742737 0.13021519780158997 0.037308502942323685
0.38580524921417236 0.13029751181602478 0.034085053950548172
0.46262985467910767 0.1305408775806427 0.025788849219679832
0.5396086573600769 0.13082873821258545 0.015534644015133381
0.60792642831802368 0.13140933215618134 0.015710838139057159
0.66403365135192871 0.13458901643753052 0.025140052661299706
0.021420497447252274 0.14300405979156494 0.059367701411247253
0.039696533232927322 0.15594655275344849 0.059521019458770752
0.070220082998275757 0.16573195159435272 0.057811334729194641
0.11504021286964417 0.17284902930259705 0.053570900112390518
0.17049612104892731 0.17911951243877411 0.047383401542901993
0.23352165520191193 0.18334303796291351 0.039879053831100464
0.30331555008888245 0.18511030077934265 0.03038635291159153
0.37841722369194031 0.18498660624027252 0.021644143387675285
0.45880857110023499 0.18263804912567139 0.017484283074736595
0.54217404127120972 0.18131355941295624 0.010398849844932556
0.6225205659866333 0.17989099025726318 0.004071209579706192
0.6908714771270752 0.17985889315605164 0.0074627595022320747
0.74486112594604492 0.184708371758461 0.021100318059325218
0.0078367199748754501 0.21599237620830536 0.05841623991727829
0.025246698409318924 0.22796750068664551 0.055016010999679565
0.062659874558448792 0.23627243936061859 0.048445563763380051
0.11941728740930557 0.24141404032707214 0.039958611130714417
0.18826578557491302 0.24497529864311218 0.031289312988519669
0.26224473118782043 0.24731160700321198 0.024744698777794838
0.34151157736778259 0.24785320460796356 0.018552368506789207
0.42543399333953857 0.24650830030441284 0.012926168739795685
0.51254820823669434 0.24359343945980072 0.0091992542147636414
0.59936213493347168 0.2402380108833313 0.0048874798230826855
0.67955094575881958 0.2377370297908783 0.0023671768140047789
0.74721300601959229 0.23864564299583435 0.0042976979166269302
0.80092805624008179 0.24604856967926025 0.015066857449710369
7.3391784098930657e-05 0.29768162965774536 0.049335882067680359
0.0066567366011440754 0.30869883298873901 0.040895022451877594
0.04675649106502533 0.3145478367805481 0.031600624322891235
0.11375032365322113 0.31658264994621277 0.021518422290682793
0.19394363462924957 0.3176385760307312 0.01437778864055872
0.27719840407371521 0.31822791695594788 0.012230622582137585
0.36474937200546265 0.31801906228065491 0.010796086862683296
0.4558994472026825 0.31595990061759949 0.0084792943671345711
0.54755574464797974 0.31182590126991272 0.0052025290206074715
0.63592696189880371 0.30772298574447632 0.0020122902933508158
0.71570903062820435 0.30626648664474487 0.00063487031729891896
0.78328824043273926 0.30985185503959656 0.0014363606460392475
0.83840906620025635 0.32171744108200073 0.0081341462209820747
0 0.38294965028762817 0.038460586220026016
0.00087165081640705466 0.39253604412078857 0.026460848748683929
0.032806128263473511 0.39666730165481567 0.01548868790268898
0.10172687470912933 0.39652523398399353 0.0092028751969337463
0.18812304735183716 0.39517489075660706 0.0065833148546516895
0.28138691186904907 0.39466691017150879 0.0068305670283734798
0.37687778472900391 0.39371564984321594 0.0071167442947626114
0.47469308972358704 0.39187231659889221 0.0062595740891993046
0.56926554441452026 0.3870665431022644 0.0029525607824325562
0.65910542011260986 0.38423928618431091 0.00025536032626405358
0.74104928970336914 0.3862452507019043 0
0.81341350078582764 0.3959118127822876 0.00080970313865691423
0.87282174825668335 0.41413635015487671 0.0087357014417648315
0 0.46825399994850159 0.02975890226662159
0.00035439286148175597 0.47620457410812378 0.017895029857754707
0.026442762464284897 0.48029813170433044 0.0079868389293551445
0.093056730926036835 0.47997018694877625 0.0048589520156383514
0.18338766694068909 0.47777435183525085 0.0054781744256615639
0.28430330753326416 0.47659409046173096 0.0072338031604886055
0.38722270727157593 0.47588962316513062 0.0083606196567416191
0.48987242579460144 0.47453513741493225 0.0079566203057765961
0.5894666314125061 0.4720521867275238 0.0045342836529016495
0.68395310640335083 0.47366428375244141 0.0012184741208329797
0.77293944358825684 0.48273321986198425 0.0017182593001052737
0.85481745004653931 0.50125241279602051 0.010252305306494236
0.91948384046554565 0.52753764390945435 0.028516208752989769
0 0.55223143100738525 0.022264188155531883
0.00073346903081983328 0.56018400192260742 0.016698740422725677
0.027755945920944214 0.56613093614578247 0.011312087997794151
0.096837230026721954 0.56834524869918823 0.011347407475113869
0.193881556391716 0.56913477182388306 0.015386050567030907
0.30188047885894775 0.57045876979827881 0.019686097279191017
0.41048014163970947 0.57128798961639404 0.021993763744831085
0.51737147569656372 0.57164698839187622 0.022148281335830688
0.62552756071090698 0.57562255859375 0.02289288118481636
0.73154604434967041 0.58591234683990479 0.025125855579972267
0.82882988452911377 0.6029173731803894 0.032417956739664078
0.91361343860626221 0.62924104928970337 0.048853661864995956
0.97344040870666504 0.65970319509506226 0.069825612008571625
0 0.63858908414840698 0.017357036471366882
0.0046659731306135654 0.65083378553390503 0.026527449488639832
0.042320851236581802 0.66063404083251953 0.034895114600658417
0.12066271901130676 0.66911411285400391 0.041742779314517975
0.22774121165275574 0.67756301164627075 0.047850441187620163
0.34466862678527832 0.68521237373352051 0.053408291190862656
0.46010109782218933 0.69104564189910889 0.057580791413784027
0.57354772090911865 0.69618606567382812 0.060972295701503754
0.68988519906997681 0.70633113384246826 0.067314475774765015
0.80391979217529297 0.72368007898330688 0.076861679553985596
0.902213454246521 0.74559932947158813 0.087172657251358032
0.9730263352394104 0.77271521091461182 0.10192730277776718
0.99906367063522339 0.79892528057098389 0.1224336177110672
0.0027000128757208586 0.73863106966018677 0.022531231865286827
0.024713898077607155 0.76044780015945435 0.049446538090705872
0.077843070030212402 0.7779431939125061 0.072827145457267761
0.16923175752162933 0.79279375076293945 0.086939252912998199
0.2870943546295166 0.80710679292678833 0.095265105366706848
0.4112493097782135 0.81979697942733765 0.10198633372783661
0.53218978643417358 0.83054125308990479 0.10953300446271896
0.65053194761276245 0.84013849496841431 0.11773151904344559
0.76863217353820801 0.8525044322013855 0.1275336742401123
0.87880879640579224 0.8698311448097229 0.13825903832912445
0.96316641569137573 0.88954472541809082 0.1473698616027832
0.99843519926071167 0.90972506999969482 0.15987397730350494
1 0.92600327730178833 0.17743299901485443
0.023257341235876083 0.86109989881515503 0.050841253250837326
0.063468754291534424 0.89191740751266479 0.087239690124988556
0.13283012807369232 0.91643369197845459 0.11625765264034271
0.23603424429893494 0.93353271484375 0.13449683785438538
0.3598887026309967 0.94717192649841309 0.14559823274612427
0.4854370653629303 0.95713794231414795 0.15366098284721375
0.6067548394203186 0.96559315919876099 0.1624443531036377
0.72299802303314209 0.97197049856185913 0.17316910624504089
0.83387142419815063 0.97779554128646851 0.18321065604686737
0.93050211668014526 0.98525065183639526 0.19288954138755798
0.99139678478240967 0.99110937118530273 0.199449822306633
1 0.99587297439575195 0.20779123902320862
1 0.99802267551422119 0.21897180378437042
0.058111947029829025 0.98023700714111328 0.097568690776824951
0.11249241232872009 0.9941602349281311 0.13232336938381195
0.1935667097568512 0.99945658445358276 0.16011975705623627
0.30125084519386292 1 0.17827673256397247
0.42396849393844604 1 0.19019226729869843
0.54652100801467896 1 0.19828991591930389
0.66364949941635132 1 0.20630022883415222
0.77277207374572754 1 0.21440666913986206
0.8717530369758606 1 0.22134777903556824
0.95180171728134155 1 0.22661444544792175
0.99647063016891479 1 0.22988960146903992
1 1 0.23376502096652985
1 1 0.23863713443279266
0.0042256521992385387 0.0079328501597046852 0.0152014484629035
0.0094886627048254013 0.012549710460007191 0.021018996834754944
0.019181525334715843 0.017251273617148399 0.029251547530293465
0.034990139305591583 0.023177606984972954 0.038498207926750183
0.057505901902914047 0.03012511320412159 0.047190409153699875
0.08766600489616394 0.036394305527210236 0.054915979504585266
0.12484689056873322 0.040704421699047089 0.060899578034877777
0.16965848207473755 0.043336577713489532 0.067552752792835236
0.22286298871040344 0.046743355691432953 0.07661496102809906
0.28269001841545105 0.047432545572519302 0.083413831889629364
0.34594765305519104 0.050471436232328415 0.088190875947475433
0.40836530923843384 0.050735294818878174 0.095248788595199585
0.46695065498352051 0.050735294818878174 0.10449925065040588
0.018030218780040741 0.041287008672952652 0.040991149842739105
0.028759600594639778 0.04874197393655777 0.046161890029907227
0.046368438750505447 0.056393582373857498 0.055674966424703598
0.071413345634937286 0.064416788518428802 0.064750030636787415
0.10383585095405579 0.073349684476852417 0.071351580321788788
0.1448281854391098 0.078802265226840973 0.077266260981559753
0.19322274625301361 0.081559352576732635 0.080420039594173431
0.24803474545478821 0.083213597536087036 0.081716723740100861
0.31010907888412476 0.085314340889453888 0.08361709862947464
0.37900543212890625 0.085473082959651947 0.080946244299411774
0.44929304718971252 0.087797828018665314 0.077570892870426178
0.5143854022026062 0.089338235557079315 0.079112768173217773
0.57190382480621338 0.091225810348987579 0.086392872035503387
0.023594636470079422 0.086346030235290527 0.066336795687675476
0.038509011268615723 0.095778763294219971 0.070762231945991516
0.064396277070045471 0.1053997278213501 0.078270837664604187
0.09943244606256485 0.11459647119045258 0.083946853876113892
0.14340977370738983 0.12319101393222809 0.086063027381896973
0.19614048302173615 0.12779884040355682 0.087589681148529053
0.25613147020339966 0.12879537045955658 0.086142703890800476
0.32162860035896301 0.12893745303153992 0.082117341458797455
0.39355716109275818 0.12813466787338257 0.079357758164405823
0.471536785364151 0.12833470106124878 0.070492684841156006
0.54806435108184814 0.12922187149524689 0.061151992529630661
0.61474573612213135 0.13048996031284332 0.061460576951503754
0.66939502954483032 0.1346154659986496 0.070920206606388092
0.019106097519397736 0.14576847851276398 0.087823830544948578
0.037478011101484299 0.15688532590866089 0.091035567224025726
0.069464318454265594 0.16675980389118195 0.092948883771896362
0.11555630713701248 0.17476513981819153 0.092106476426124573
0.1719159334897995 0.18100564181804657 0.088368527591228485
0.23636892437934875 0.18458348512649536 0.084039635956287384
0.30690217018127441 0.18511030077934265 0.077957510948181152
0.38325062394142151 0.18333257734775543 0.071102514863014221
0.46431288123130798 0.18116903305053711 0.064733453094959259
0.54872810840606689 0.1790129542350769 0.05525989830493927
0.62908029556274414 0.17831367254257202 0.046610947698354721
0.69581764936447144 0.1794109046459198 0.048812326043844223
0.74822449684143066 0.18493571877479553 0.060540322214365005
0.006417891476303339 0.21782855689525604 0.098252959549427032
0.024458806961774826 0.22914038598537445 0.09898599237203598
0.062454491853713989 0.23761403560638428 0.096450150012969971
0.11870601773262024 0.24359826743602753 0.089354813098907471
0.18748442828655243 0.247385174036026 0.080995000898838043
0.26264065504074097 0.24910660088062286 0.073927290737628937
0.34329017996788025 0.24870786070823669 0.066559582948684692
0.42792889475822449 0.24634738266468048 0.058288320899009705
0.51550734043121338 0.2427089512348175 0.050362858921289444
0.60335409641265869 0.23907029628753662 0.042762547731399536
0.68437665700912476 0.23737005889415741 0.038049377501010895
0.7510915994644165 0.23868879675865173 0.040642667561769485
0.80238491296768188 0.24588677287101746 0.05207398533821106
5.7444853155175224e-05 0.29929566383361816 0.09746260941028595
0.0078189922496676445 0.309935063123703 0.094050310552120209
0.047081727534532547 0.31633380055427551 0.087725557386875153
0.11141259968280792 0.3194023072719574 0.077522799372673035
0.19048196077346802 0.32074162364006042 0.068112224340438843
0.27590456604957581 0.32064449787139893 0.062171697616577148
0.3647858202457428 0.31929260492324829 0.056245137006044388
