assets/lut/alexjordan action red 01.cube
# Created by: G'MIC (https://gmic.eu)
TITLE "action_red_01"
# LUT size
LUT_3D_SIZE 7
# Data domain
DOMAIN_MIN 0.0 0.0 0.0
DOMAIN_MAX 1.0 1.0 1.0
# LUT data points
0.0094873765483498573 0.010902943089604378 0.052692487835884094
0.044260989874601364 0.01171607244759798 0.054494477808475494
0.12653179466724396 0.0094037372618913651 0.055038213729858398
0.23995472490787506 0.0090086692944169044 0.052692368626594543
0.38352242112159729 0.0011230618692934513 0.040916938334703445
0.57186269760131836 0 0.024520454928278923
0.80422145128250122 0 0.0018592984415590763
0.050649665296077728 0.062047980725765228 0.11492247879505157
0.07655971497297287 0.087384454905986786 0.10994603484869003
0.16955177485942841 0.091919571161270142 0.10149051249027252
0.31409689784049988 0.08671550452709198 0.097628094255924225
0.50153994560241699 0.067692823708057404 0.080707386136054993
0.73702442646026611 0.040041979402303696 0.060532409697771072
0.9824109673500061 0.02646719291806221 0.025077041238546371
0.12752985954284668 0.14497721195220947 0.2065902054309845
0.14242509007453918 0.1809421181678772 0.20848545432090759
0.19190849363803864 0.21202446520328522 0.15905684232711792
0.34051293134689331 0.21320882439613342 0.12001211196184158
0.55954194068908691 0.19244946539402008 0.095762975513935089
0.83235114812850952 0.15901894867420197 0.068289749324321747
1 0.13790738582611084 0.034798908978700638
0.22469428181648254 0.24636879563331604 0.31196048855781555
0.24051810801029205 0.28565245866775513 0.31654968857765198
0.25130915641784668 0.33821621537208557 0.24923808872699738
0.34248808026313782 0.3688596785068512 0.15501497685909271
0.53885990381240845 0.3646543025970459 0.10658223927021027
0.80204737186431885 0.34141689538955688 0.069300509989261627
1 0.31648758053779602 0.035356767475605011
0.33880025148391724 0.36218905448913574 0.4155101478099823
0.36181330680847168 0.40536758303642273 0.42658504843711853
0.36386996507644653 0.46366211771965027 0.36937692761421204
0.39718112349510193 0.51990371942520142 0.25408133864402771
0.52315229177474976 0.54903495311737061 0.14683006703853607
0.74795860052108765 0.54392081499099731 0.085597172379493713
0.99219781160354614 0.52359002828598022 0.050810225307941437
0.47261273860931396 0.49176234006881714 0.52239722013473511
0.49687030911445618 0.53694146871566772 0.53923052549362183
0.49996069073677063 0.59738951921463013 0.50233101844787598
0.5066341757774353 0.66503357887268066 0.39509084820747375
0.5700308084487915 0.72099703550338745 0.25675678253173828
0.73245024681091309 0.74425303936004639 0.14542074501514435
0.96246629953384399 0.74335891008377075 0.074631422758102417
0.61563360691070557 0.6314842700958252 0.63323336839675903
0.64718633890151978 0.67635256052017212 0.65545231103897095
0.65179592370986938 0.73971003293991089 0.62862002849578857
0.6446189284324646 0.81342583894729614 0.53806489706039429
0.668018639087677 0.88504338264465332 0.39893624186515808
0.77059471607208252 0.93489158153533936 0.24461632966995239
0.94559997320175171 0.96016842126846313 0.12108606100082397
0.0043732887133955956 0.0094082104042172432 0.053360495716333389
0.020614100620150566 0.024634268134832382 0.072961889207363129
0.089175984263420105 0.026453174650669098 0.093640841543674469
0.19932614266872406 0.023294545710086823 0.10693637281656265
0.3507114052772522 0.008423524908721447 0.10131224244832993
0.54543459415435791 6.4625462982803583e-05 0.088368676602840424
0.78126358985900879 0 0.063388347625732422
0.058561615645885468 0.070390813052654266 0.12378279864788055
0.082004129886627197 0.092478267848491669 0.14577563107013702
0.17724542319774628 0.095802620053291321 0.15731818974018097
0.3269677460193634 0.091970555484294891 0.16005794703960419
0.51892769336700439 0.073269650340080261 0.1452973335981369
0.75541692972183228 0.043248269706964493 0.1249835416674614
0.98916864395141602 0.030365319922566414 0.096342675387859344
0.13591060042381287 0.15667924284934998 0.21677851676940918
0.16387143731117249 0.18384736776351929 0.2480611652135849
0.20166736841201782 0.21785248816013336 0.21538472175598145
0.36608630418777466 0.21524237096309662 0.17997792363166809
0.59624719619750977 0.19477792084217072 0.1583801805973053
0.86926066875457764 0.16129137575626373 0.13257883489131927
1 0.13576951622962952 0.10709738731384277
0.23410910367965698 0.2583402693271637 0.32078540325164795
0.26549935340881348 0.29183125495910645 0.35308206081390381
0.27979806065559387 0.33721175789833069 0.33525744080543518
0.3518507182598114 0.37513425946235657 0.2325512021780014
0.55927491188049316 0.371133953332901 0.16948023438453674
0.83146136999130249 0.3472534716129303 0.13072405755519867
1 0.31583085656166077 0.10441882908344269
0.35063433647155762 0.37454023957252502 0.42491486668586731
0.38947272300720215 0.41259443759918213 0.45621073246002197
0.40651872754096985 0.45896533131599426 0.45319756865501404
0.41482323408126831 0.52113419771194458 0.35303938388824463
0.5315629243850708 0.55580824613571167 0.23135747015476227
0.76303362846374512 0.55157971382141113 0.15420031547546387
0.99827325344085693 0.52741307020187378 0.11372645944356918
0.48356568813323975 0.50525808334350586 0.53117078542709351
0.52570980787277222 0.54626482725143433 0.56308591365814209
0.55159574747085571 0.5923771858215332 0.57600033283233643
0.54885578155517578 0.65878701210021973 0.50412267446517944
0.58693450689315796 0.72357356548309326 0.36172118782997131
0.73916846513748169 0.753612220287323 0.22861945629119873
0.97516131401062012 0.74997663497924805 0.14773601293563843
0.62820911407470703 0.64583092927932739 0.64391601085662842
0.6731572151184082 0.68925935029983521 0.67912000417709351
0.70443224906921387 0.73825383186340332 0.69948405027389526
0.70352756977081299 0.80395877361297607 0.65420019626617432
0.70603364706039429 0.88061082363128662 0.52758258581161499
0.78038114309310913 0.94216930866241455 0.35264256596565247
0.95387279987335205 0.96636450290679932 0.21856558322906494
0.0066633336246013641 0.0095759676769375801 0.054037582129240036
0.02303447388112545 0.02863260917365551 0.075740188360214233
0.040727458894252777 0.04816620796918869 0.10479874163866043
0.11559635400772095 0.050949409604072571 0.14502200484275818
0.25851514935493469 0.037629954516887665 0.1705501526594162
0.45634934306144714 0.014864962548017502 0.17448075115680695
0.69357103109359741 0.0010944739915430546 0.16252775490283966
0.067388571798801422 0.078159242868423462 0.13172315061092377
0.085761904716491699 0.10025928169488907 0.15842896699905396
0.11882679909467697 0.12519994378089905 0.19232034683227539
0.2527739405632019 0.12115050852298737 0.23226192593574524
0.45857992768287659 0.095029778778553009 0.25140178203582764
0.70792752504348755 0.061808507889509201 0.23515297472476959
0.96730834245681763 0.036114126443862915 0.2121426910161972
0.14789193868637085 0.16642063856124878 0.22818922996520996
0.17382706701755524 0.19550792872905731 0.25756046175956726
0.20975388586521149 0.22351610660552979 0.28596550226211548
0.37058752775192261 0.2192503809928894 0.28759747743606567
0.60148763656616211 0.19977523386478424 0.27658385038375854
0.88006937503814697 0.16674219071865082 0.24817027151584625
1 0.13524134457111359 0.22694939374923706
0.24582242965698242 0.26865735650062561 0.33182072639465332
0.27930727601051331 0.30354398488998413 0.36386314034461975
0.31089755892753601 0.33830082416534424 0.39851009845733643
0.36521121859550476 0.37983599305152893 0.32541179656982422
0.58727371692657471 0.37231338024139404 0.26739603281021118
0.86908727884292603 0.34348651766777039 0.23902586102485657
1 0.31108775734901428 0.21704147756099701
0.36115565896034241 0.38798224925994873 0.43489488959312439
0.40235555171966553 0.42420437932014465 0.46671488881111145
0.44168257713317871 0.46284192800521851 0.49731743335723877
0.45492929220199585 0.51593250036239624 0.46707171201705933
0.54404377937316895 0.56198501586914062 0.33418875932693481
0.78429573774337769 0.55447465181350708 0.25086045265197754
0.99998492002487183 0.52667313814163208 0.20923148095607758
0.49565368890762329 0.51719868183135986 0.53921329975128174
0.54034906625747681 0.55851978063583374 0.57320243120193481
0.58309710025787354 0.60165071487426758 0.60833084583282471
0.60211062431335449 0.65319955348968506 0.60272747278213501
0.61853820085525513 0.72174382209777832 0.47977980971336365
0.75152242183685303 0.75991964340209961 0.33199673891067505
0.98307138681411743 0.75663888454437256 0.24039900302886963
0.64336597919464111 0.65830272436141968 0.65374290943145752
0.68725383281707764 0.70259028673171997 0.68934357166290283
0.73442107439041138 0.74767518043518066 0.72969639301300049
0.76142615079879761 0.79889625310897827 0.73948878049850464
0.76001876592636108 0.8719446063041687 0.65672636032104492
0.80458241701126099 0.94336706399917603 0.48189809918403625
0.96407681703567505 0.97141379117965698 0.33360141515731812
0.010570676065981388 0.013086864724755287 0.061055921018123627
0.028193036094307899 0.035017333924770355 0.083703495562076569
0.044200029224157333 0.05601399764418602 0.10973144322633743
0.069311536848545074 0.073309548199176788 0.14306400716304779
0.15021367371082306 0.078115262091159821 0.18714636564254761
0.31229704618453979 0.059865254908800125 0.23569667339324951
0.53392177820205688 0.033815961331129074 0.25829797983169556
0.072108186781406403 0.086377300322055817 0.14211726188659668
0.094449885189533234 0.10867936164140701 0.16971869766712189
0.12056756019592285 0.13655853271484375 0.19797927141189575
0.15486638247966766 0.16012923419475555 0.23409129679203033
0.29860666394233704 0.15212392807006836 0.29613906145095825
0.53994482755661011 0.11637266725301743 0.34385135769844055
0.83843386173248291 0.073930956423282623 0.34783872961997986
0.15568973124027252 0.17563822865486145 0.23969368636608124
0.18276381492614746 0.20550087094306946 0.26941132545471191
0.21508246660232544 0.23576931655406952 0.30122101306915283
0.26005277037620544 0.26295009255409241 0.33792734146118164
0.47042956948280334 0.24157215654850006 0.39448481798171997
0.7674749493598938 0.20083320140838623 0.40330812335014343
0.99894422292709351 0.15643198788166046 0.39204323291778564
0.25594702363014221 0.28031274676322937 0.34171000123023987
0.28944504261016846 0.31577157974243164 0.37204039096832275
0.32583707571029663 0.34958377480506897 0.40420639514923096
0.37141123414039612 0.38483679294586182 0.4288938045501709
0.59549832344055176 0.37166205048561096 0.41911047697067261
0.87763744592666626 0.34123384952545166 0.40673696994781494
1 0.30899965763092041 0.38656282424926758
0.37586784362792969 0.40001243352890015 0.44613885879516602
0.41517522931098938 0.43876096606254578 0.47687730193138123
0.4562021791934967 0.47651273012161255 0.50804758071899414
0.49470719695091248 0.51664608716964722 0.53990322351455688
0.55803704261779785 0.56342488527297974 0.45326739549636841
0.81539136171340942 0.55206513404846191 0.37539958953857422
1 0.51938259601593018 0.35048669576644897
0.51166284084320068 0.53084897994995117 0.551921546459198
0.55530571937561035 0.57227343320846558 0.58701562881469727
0.59882646799087524 0.61467748880386353 0.62004184722900391
0.64352118968963623 0.65841817855834961 0.65736395120620728
0.66519069671630859 0.71541440486907959 0.61128562688827515
0.76375859975814819 0.76546907424926758 0.4564950168132782
0.99142205715179443 0.75860488414764404 0.35995087027549744
0.65750372409820557 0.67272698879241943 0.666229248046875
0.70292776823043823 0.71769613027572632 0.70163810253143311
0.75132548809051514 0.76401376724243164 0.7401968240737915
0.79816752672195435 0.80884075164794922 0.77741307020187378
0.82076030969619751 0.8648989200592041 0.76916015148162842
0.83396619558334351 0.94096070528030396 0.63146650791168213
0.97502326965332031 0.97498077154159546 0.46477708220481873
0.014276077970862389 0.02084585465490818 0.069260813295841217
0.035887371748685837 0.042295120656490326 0.094253867864608765
0.051557593047618866 0.062760069966316223 0.11632832884788513
0.074151493608951569 0.083120368421077728 0.14389638602733612
0.10398376733064651 0.10658050328493118 0.17721568048000336
0.1936517208814621 0.10937782377004623 0.23960335552692413
0.37039706110954285 0.08826715499162674 0.30303084850311279
0.078028492629528046 0.095386624336242676 0.15064835548400879
0.10199388861656189 0.11844084411859512 0.17931914329528809
0.12869860231876373 0.14472071826457977 0.20963265001773834
0.15545491874217987 0.17201557755470276 0.23898394405841827
0.19568823277950287 0.19883890450000763 0.27841678261756897
0.33738625049591064 0.19318479299545288 0.36139595508575439
0.5959327220916748 0.1542305201292038 0.42710253596305847
0.16420039534568787 0.18493793904781342 0.24876323342323303
0.19255757331848145 0.21499939262866974 0.27892875671386719
0.22445298731327057 0.24660663306713104 0.3111017644405365
0.25816214084625244 0.27714502811431885 0.34367555379867554
0.30654871463775635 0.30744081735610962 0.38598001003265381
0.50984811782836914 0.28902551531791687 0.46946290135383606
0.84168863296508789 0.23517990112304688 0.52612912654876709
0.26713022589683533 0.29293134808540344 0.35255929827690125
0.30125930905342102 0.32793951034545898 0.38341358304023743
0.33808505535125732 0.36195898056030273 0.41498759388923645
0.37718713283538818 0.39758294820785522 0.44632616639137268
0.43370825052261353 0.43138235807418823 0.48458656668663025
0.70414388179779053 0.3962472677230835 0.55136942863464355
0.98633015155792236 0.3530697226524353 0.56357026100158691
0.38950321078300476 0.41320520639419556 0.45734018087387085
0.42930889129638672 0.45208308100700378 0.48803949356079102
0.46977072954177856 0.49017292261123657 0.51835894584655762
0.510295569896698 0.53048837184906006 0.54964917898178101
0.56075572967529297 0.56873780488967896 0.57873767614364624
0.82034915685653687 0.55122870206832886 0.56621050834655762
1 0.52177256345748901 0.54523926973342896
0.52451878786087036 0.54572099447250366 0.56212443113327026
0.56891113519668579 0.58718174695968628 0.59654223918914795
0.61289358139038086 0.62908262014389038 0.63058149814605713
0.658427894115448 0.67278796434402466 0.66679614782333374
0.70040339231491089 0.7179114818572998 0.7005913257598877
0.77629238367080688 0.76953381299972534 0.59996974468231201
0.99631690979003906 0.75510156154632568 0.51377600431442261
0.67192333936691284 0.68771308660507202 0.67857402563095093
0.72057682275772095 0.73220974206924438 0.71520471572875977
0.76721483469009399 0.77901053428649902 0.75240695476531982
0.81411987543106079 0.82503008842468262 0.78978246450424194
0.86427217721939087 0.86911970376968384 0.83056497573852539
0.87827455997467041 0.93559801578521729 0.78409022092819214
0.98347747325897217 0.97717523574829102 0.60540592670440674
0.016431426629424095 0.026568962261080742 0.076438739895820618
0.039246384054422379 0.049267623573541641 0.10216835141181946
0.05706455186009407 0.068678073585033417 0.12503723800182343
0.080736063420772552 0.092017978429794312 0.15286162495613098
0.10755187273025513 0.11769956350326538 0.18252506852149963
0.14354544878005981 0.13957719504833221 0.22329431772232056
0.25478670001029968 0.14136113226413727 0.28410789370536804
0.087210744619369507 0.10175721347332001 0.16099084913730621
0.11116217821836472 0.12754012644290924 0.18959470093250275
0.13579568266868591 0.1542818695306778 0.21898935735225677
0.16446647047996521 0.18191203474998474 0.24945275485515594
0.1964898407459259 0.21059218049049377 0.28246194124221802
0.24475227296352386 0.23915897309780121 0.32856559753417969
0.39428943395614624 0.23489947617053986 0.40177574753761292
0.17275846004486084 0.19598968327045441 0.25928837060928345
0.20243345201015472 0.22498816251754761 0.29085156321525574
0.23338446021080017 0.25697553157806396 0.32228866219520569
0.26890319585800171 0.29021632671356201 0.35383754968643188
0.30315542221069336 0.32501769065856934 0.38546714186668396
0.36198699474334717 0.35385957360267639 0.43319585919380188
0.55266004800796509 0.34013068675994873 0.51812374591827393
0.27761155366897583 0.30404472351074219 0.36314496397972107
0.31191185116767883 0.33771291375160217 0.39409291744232178
0.34852650761604309 0.37467652559280396 0.42473238706588745
0.390655517578125 0.41153448820114136 0.45822060108184814
0.43180632591247559 0.44809499382972717 0.49029430747032166
0.48720139265060425 0.48066487908363342 0.53372019529342651
0.7256464958190918 0.45549991726875305 0.63201719522476196
0.40068471431732178 0.42687904834747314 0.46614810824394226
0.44111001491546631 0.46361759305000305 0.49757486581802368
0.48146703839302063 0.50370723009109497 0.52897465229034424
0.52490663528442383 0.54587233066558838 0.56345921754837036
0.5705256462097168 0.58637017011642456 0.59950393438339233
0.63334101438522339 0.62028700113296509 0.64244282245635986
0.92101585865020752 0.58083921670913696 0.72322213649749756
0.53999072313308716 0.55925661325454712 0.5748785138130188
0.58191865682601929 0.60179704427719116 0.60778462886810303
0.62566661834716797 0.6417539119720459 0.6421322226524353
0.67196941375732422 0.6863974928855896 0.67669910192489624
0.71905958652496338 0.73137658834457397 0.71343988180160522
0.77450895309448242 0.77427887916564941 0.74455958604812622
0.99446201324462891 0.75270670652389526 0.73464322090148926
0.68785160779953003 0.70215284824371338 0.69209969043731689
0.73637467622756958 0.74642300605773926 0.72865074872970581
0.78086608648300171 0.79261142015457153 0.76431947946548462
0.82852208614349365 0.83766752481460571 0.80171328783035278
0.878917396068573 0.88475805521011353 0.84046375751495361
0.92906934022903442 0.93449616432189941 0.8836173415184021
0.98541343212127686 0.97968560457229614 0.7593233585357666
0.013910644687712193 0.030858477577567101 0.082106061279773712
0.040642563253641129 0.053015194833278656 0.10873726010322571
0.063161082565784454 0.077107131481170654 0.13296686112880707
0.086046613752841949 0.10128658264875412 0.16235539317131042
0.10752325505018234 0.12819008529186249 0.19149261713027954
0.1351609081029892 0.15335293114185333 0.22648590803146362
0.2026364654302597 0.17510280013084412 0.2691551148891449
0.094545654952526093 0.11011859774589539 0.1718972772359848
0.12175977975130081 0.13669729232788086 0.20146119594573975
0.14668016135692596 0.16561011970043182 0.23116548359394073
0.17751485109329224 0.19316864013671875 0.26252895593643188
0.20718443393707275 0.22275209426879883 0.29292866587638855
0.23889699578285217 0.25166362524032593 0.3285585343837738
0.30622962117195129 0.27993804216384888 0.37225571274757385
0.18430039286613464 0.20464153587818146 0.27053192257881165
0.21342197060585022 0.23797772824764252 0.30185842514038086
0.24640291929244995 0.27069488167762756 0.33413666486740112
0.28224295377731323 0.30351072549819946 0.36467751860618591
0.31929349899291992 0.3366294801235199 0.39731186628341675
0.35683971643447876 0.36906272172927856 0.43172827363014221
0.42071640491485596 0.39994686841964722 0.47613516449928284
0.29040259122848511 0.31560984253883362 0.37448993325233459
0.32426875829696655 0.3515511155128479 0.40474340319633484
0.36266922950744629 0.38722047209739685 0.43791976571083069
0.40279194712638855 0.42562311887741089 0.46810144186019897
0.44361630082130432 0.4631136953830719 0.50072950124740601
0.4864615797996521 0.50101965665817261 0.53292930126190186
0.55324208736419678 0.53286468982696533 0.58301174640655518
0.41533383727073669 0.43833252787590027 0.47976341843605042
0.45566394925117493 0.47738295793533325 0.51053667068481445
0.49591681361198425 0.51768141984939575 0.54163557291030884
0.53780418634414673 0.55896961688995361 0.57361412048339844
0.58155620098114014 0.59860497713088989 0.60849988460540771
0.62918305397033691 0.64093625545501709 0.6450839638710022
0.69443225860595703 0.6772162914276123 0.69248497486114502
0.55496704578399658 0.57341933250427246 0.58842486143112183
0.59718352556228638 0.61768597364425659 0.62138289213180542
0.64230990409851074 0.65821462869644165 0.6551404595375061
0.68720370531082153 0.70141589641571045 0.68882423639297485
0.73489677906036377 0.74526679515838623 0.72625267505645752
0.78271663188934326 0.79147487878799438 0.76570069789886475
0.85309749841690063 0.8302234411239624 0.8159140944480896
0.70065861940383911 0.71962261199951172 0.70497888326644897
0.7495531439781189 0.76352548599243164 0.74070018529891968
0.79837882518768311 0.80736738443374634 0.77793890237808228
0.84322082996368408 0.85523051023483276 0.81494182348251343
0.89434206485748291 0.9041944146156311 0.8554951548576355
0.94905638694763184 0.95026373863220215 0.89407658576965332
0.98867559432983398 0.98824548721313477 0.92306673526763916
