assets/lut/alexjordan smart contrast.cube
# Created by: G'MIC (https://gmic.eu)
TITLE "smart_contrast"
# LUT size
LUT_3D_SIZE 13
# Data domain
DOMAIN_MIN 0.0 0.0 0.0
DOMAIN_MAX 1.0 1.0 1.0
# LUT data points
0.015266538597643375 0.016164623200893402 0.015916667878627777
0.039804019033908844 0.018521850928664207 0.019960934296250343
0.065146967768669128 0.020354341715574265 0.020744293928146362
0.098889894783496857 0.021223928779363632 0.018621467053890228
0.14927347004413605 0.017949586734175682 0.016488887369632721
0.21472348272800446 0.013994583860039711 0.014811287634074688
0.2871418297290802 0.012886002659797668 0.014876631088554859
0.35673147439956665 0.012445906177163124 0.013392324559390545
0.41309884190559387 0.0078003676608204842 0.0058777304366230965
0.45521882176399231 0.0028349035419523716 0.00079468369949609041
0.491131991147995 0.0015519085573032498 0.00013786765339318663
0.52604192495346069 0.0039952895604074001 0.00063693476840853691
0.56073981523513794 0.010754948481917381 0.0042180977761745453
0.025749446824193001 0.047342967242002487 0.026330700144171715
0.050671923905611038 0.049970842897891998 0.031177565455436707
0.076765961945056915 0.051917612552642822 0.032759439200162888
0.11073475331068039 0.053173437714576721 0.0321463942527771
0.16182184219360352 0.05131671205163002 0.030585464090108871
0.22909720242023468 0.047874748706817627 0.030016565695405006
0.30388712882995605 0.046561926603317261 0.03036467544734478
0.37582597136497498 0.045788109302520752 0.028601059690117836
0.4362148642539978 0.041421372443437576 0.022984987124800682
0.4833625853061676 0.036435909569263458 0.015809960663318634
0.52428901195526123 0.03803354874253273 0.015156899578869343
0.56481403112411499 0.05070851743221283 0.024451430886983871
0.60453552007675171 0.070309221744537354 0.040773354470729828
0.036745138466358185 0.079135805368423462 0.036940030753612518
0.06222909688949585 0.083476558327674866 0.042396485805511475
0.089956380426883698 0.087637461721897125 0.045073162764310837
0.12642200291156769 0.089988753199577332 0.046297080814838409
0.17880068719387054 0.090781055390834808 0.046256870031356812
0.24733750522136688 0.090082414448261261 0.047268573194742203
0.32405838370323181 0.089385807514190674 0.049557838588953018
0.39953982830047607 0.089481905102729797 0.04984670877456665
0.46497809886932373 0.090049028396606445 0.048797622323036194
0.51805347204208374 0.091432027518749237 0.048340592533349991
0.56494545936584473 0.10074455291032791 0.055309489369392395
0.6114916205406189 0.12205661088228226 0.073237411677837372
0.65480917692184448 0.14850524067878723 0.094752445816993713
0.044160626828670502 0.12085266411304474 0.044092364609241486
0.071128815412521362 0.1281854659318924 0.051903579384088516
0.10141570121049881 0.13607026636600494 0.058140400797128677
0.14163303375244141 0.14184556901454926 0.063262507319450378
0.1971341073513031 0.14538802206516266 0.067268267273902893
0.26969262957572937 0.14832855761051178 0.07137501984834671
0.35113340616226196 0.15030625462532043 0.075119897723197937
0.43189775943756104 0.15426154434680939 0.079423151910305023
0.50384998321533203 0.16147823631763458 0.085506528615951538
0.56434303522109985 0.1717250794172287 0.094330206513404846
0.61725568771362305 0.18872553110122681 0.11010685563087463
0.66653001308441162 0.21388663351535797 0.1337721198797226
0.71096289157867432 0.24303962290287018 0.15787267684936523
0.047175582498311996 0.17990143597126007 0.047141939401626587
0.078325264155864716 0.19061779975891113 0.059420522302389145
0.11446698009967804 0.20328201353549957 0.071781933307647705
0.15979462862014771 0.2137296050786972 0.083118706941604614
0.2205495685338974 0.22224728763103485 0.093126185238361359
0.29865938425064087 0.23044678568840027 0.10181491076946259
0.38566291332244873 0.23657858371734619 0.10914365202188492
0.47192716598510742 0.24427975714206696 0.11735957860946655
0.54997926950454712 0.25710055232048035 0.12941491603851318
0.61671590805053711 0.27429407835006714 0.14598847925662994
0.67353862524032593 0.29691702127456665 0.16893276572227478
0.72405385971069336 0.32354503870010376 0.1967877596616745
0.76750224828720093 0.35168853402137756 0.22136138379573822
0.053833905607461929 0.25687181949615479 0.053501158952713013
0.090930119156837463 0.27299913763999939 0.071670636534690857
0.13434864580631256 0.29140827059745789 0.091253094375133514
0.18724572658538818 0.30850785970687866 0.10936521738767624
0.25372543931007385 0.32369586825370789 0.12551036477088928
0.33598825335502625 0.33781617879867554 0.13916513323783875
0.42652377486228943 0.34887444972991943 0.15022255480289459
0.51645040512084961 0.35854485630989075 0.16084370017051697
0.59835022687911987 0.37276330590248108 0.17529954016208649
0.66813486814498901 0.39335542917251587 0.19586242735385895
0.7266044020652771 0.4180082380771637 0.22149035334587097
0.77638155221939087 0.44443345069885254 0.24996164441108704
0.81826698780059814 0.4699559211730957 0.27384504675865173
0.073402583599090576 0.35138997435569763 0.073084034025669098
0.1158638596534729 0.37368598580360413 0.095944963395595551
0.16627401113510132 0.39824274182319641 0.12128092348575592
0.22539080679416656 0.42158934473991394 0.14484173059463501
0.2964056134223938 0.44219103455543518 0.16512268781661987
0.38012129068374634 0.46000397205352783 0.1818038672208786
0.47146859765052795 0.47307708859443665 0.19478659331798553
0.56276774406433105 0.48346251249313354 0.20592504739761353
0.64592671394348145 0.49784821271896362 0.22060714662075043
0.71600854396820068 0.51946854591369629 0.24170315265655518
0.77384424209594727 0.54442065954208374 0.26696297526359558
0.8215755820274353 0.56896913051605225 0.29304054379463196
0.86125719547271729 0.59051269292831421 0.31507027149200439
0.11359948664903641 0.46240484714508057 0.1142013818025589
0.15841388702392578 0.48838058114051819 0.13867056369781494
0.21144382655620575 0.51695102453231812 0.1658465564250946
0.27289032936096191 0.54419183731079102 0.19123238325119019
0.34483247995376587 0.56774353981018066 0.21253493428230286
0.42778247594833374 0.58553087711334229 0.22922702133655548
0.51817053556442261 0.59763407707214355 0.24188427627086639
0.60852158069610596 0.60783326625823975 0.25290822982788086
0.69079959392547607 0.62249022722244263 0.26639404892921448
0.75992017984390259 0.64339381456375122 0.28509747982025146
0.81586414575576782 0.66637337207794189 0.30741932988166809
0.86078751087188721 0.68776804208755493 0.33033654093742371
0.89796453714370728 0.70504504442214966 0.35050317645072937
0.17146977782249451 0.58156090974807739 0.1737651526927948
0.21641641855239868 0.60929477214813232 0.19761164486408234
0.26905500888824463 0.63863205909729004 0.22348612546920776
0.32892706990242004 0.66657048463821411 0.24704219400882721
0.39808124303817749 0.69021642208099365 0.26636806130409241
0.47817933559417725 0.70600521564483643 0.28084790706634521
0.56623691320419312 0.71457940340042114 0.29135322570800781
0.65407609939575195 0.72204291820526123 0.30069884657859802
0.73378455638885498 0.73478144407272339 0.31181955337524414
0.80061119794845581 0.75374406576156616 0.32642868161201477
0.85376298427581787 0.77324485778808594 0.34404152631759644
0.89548957347869873 0.79099643230438232 0.36291295289993286
0.92984020709991455 0.80494314432144165 0.38052040338516235
0.23914477229118347 0.69917947053909302 0.24279530346393585
0.28419837355613708 0.72668325901031494 0.26602676510810852
0.33491054177284241 0.75433892011642456 0.28894245624542236
0.39161768555641174 0.77944755554199219 0.30815398693084717
0.45617994666099548 0.7999541163444519 0.32303130626678467
0.53163105249404907 0.81161779165267944 0.333333820104599
0.61603814363479614 0.81506508588790894 0.34033173322677612
0.69990384578704834 0.81796944141387939 0.34666076302528381
0.77581626176834106 0.82603132724761963 0.35431542992591858
0.83889657258987427 0.84048497676849365 0.36404305696487427
0.88832688331604004 0.8569796085357666 0.37634128332138062
0.9270021915435791 0.87196767330169678 0.39049848914146423
0.95925652980804443 0.88323479890823364 0.40459001064300537
0.31038135290145874 0.80866289138793945 0.314218670129776
0.355325847864151 0.83400940895080566 0.33592420816421509
0.40412575006484985 0.85727041959762573 0.35487821698188782
0.45721745491027832 0.87635725736618042 0.36853262782096863
0.51771539449691772 0.88987559080123901 0.37706509232521057
0.58835124969482422 0.89615017175674438 0.38224217295646667
0.66651743650436401 0.89566832780838013 0.38556623458862305
0.74505215883255005 0.89358144998550415 0.38862699270248413
0.81625515222549438 0.89607459306716919 0.39270448684692383
0.87425535917282104 0.90593397617340088 0.39782810211181641
0.91950207948684692 0.91997796297073364 0.40474984049797058
0.95539379119873047 0.93317657709121704 0.41390398144721985
0.98554223775863647 0.94300907850265503 0.42435845732688904
0.37975242733955383 0.90623557567596436 0.38187161087989807
0.423715740442276 0.9270361065864563 0.40014654397964478
0.4701194167137146 0.94418227672576904 0.41411444544792175
0.52019089460372925 0.95616447925567627 0.42214637994766235
0.57726138830184937 0.96279698610305786 0.42518115043640137
0.64247381687164307 0.96385425329208374 0.42585641145706177
0.71414190530776978 0.96032023429870605 0.4255182147026062
0.78636544942855835 0.95516949892044067 0.42539873719215393
0.85218065977096558 0.95315021276473999 0.42646759748458862
0.905303955078125 0.95969659090042114 0.42725273966789246
0.94689345359802246 0.97112268209457397 0.42978605628013611
0.98064571619033813 0.9823458194732666 0.43517762422561646
0.99906891584396362 0.98956429958343506 0.44279760122299194
0.44316002726554871 0.98486101627349854 0.4412473738193512
0.48532554507255554 0.99352538585662842 0.45486906170845032
0.5293353796005249 0.99776071310043335 0.46371138095855713
0.57708323001861572 0.99940311908721924 0.46718159317970276
0.6305583119392395 0.99992996454238892 0.46703875064849854
0.69120794534683228 0.9997829794883728 0.46434086561203003
0.75645154714584351 0.99887967109680176 0.46086698770523071
0.82159173488616943 0.99737918376922607 0.45741799473762512
0.88120424747467041 0.99629741907119751 0.45490255951881409
0.93049734830856323 0.99778813123703003 0.45312544703483582
0.96999675035476685 0.99968618154525757 0.45331624150276184
0.99687045812606812 1 0.45608341693878174
1 1 0.46161791682243347
0.015788119286298752 0.018834926187992096 0.038067582994699478
0.04065290093421936 0.020867187529802322 0.04208870604634285
0.066672533750534058 0.021070651710033417 0.042751684784889221
0.10037973523139954 0.020043855533003807 0.039746139198541641
0.14933738112449646 0.015903713181614876 0.035868536680936813
0.21367157995700836 0.011132887564599514 0.032947659492492676
0.28654497861862183 0.0099517675116658211 0.031171148642897606
0.35734871029853821 0.0099898846819996834 0.027626201510429382
0.41579574346542358 0.007149385754019022 0.020079445093870163
0.45982152223587036 0.0037503561470657587 0.011292177252471447
0.49521738290786743 0.002773090498521924 0.0075155370868742466
0.527424156665802 0.0048608668148517609 0.010086807422339916
0.56019383668899536 0.011192097328603268 0.020438086241483688
0.026201734319329262 0.050359629094600677 0.046897426247596741
0.051215153187513351 0.052520498633384705 0.051758095622062683
0.077469877898693085 0.05337301641702652 0.053947910666465759
0.11205793172121048 0.052941415458917618 0.052448228001594543
0.16228227317333221 0.04983481764793396 0.049977067857980728
0.22903634607791901 0.046049408614635468 0.048230864107608795
0.30548551678657532 0.04455961287021637 0.047291144728660583
0.37958881258964539 0.045539766550064087 0.046257182955741882
0.44258767366409302 0.043207790702581406 0.042226351797580719
0.49177592992782593 0.040778350085020065 0.037677165120840073
0.53242021799087524 0.043331041932106018 0.038238808512687683
0.5695454478263855 0.054445844143629074 0.047354932874441147
0.60630381107330322 0.072652556002140045 0.063945174217224121
0.036987617611885071 0.081880398094654083 0.057248208671808243
0.062652304768562317 0.086501657962799072 0.06332658976316452
0.090503156185150146 0.09020773321390152 0.067265786230564117
0.1272892951965332 0.091888889670372009 0.068214938044548035
0.18003515899181366 0.091149166226387024 0.067520022392272949
0.24881866574287415 0.089728079736232758 0.06814739853143692
0.32797014713287354 0.090038999915122986 0.070023402571678162
0.40629923343658447 0.092305846512317657 0.071674630045890808
0.4748176634311676 0.094888843595981598 0.07258625328540802
0.53052890300750732 0.099013641476631165 0.074819736182689667
0.57731783390045166 0.10924684256315231 0.082829706370830536
0.62019574642181396 0.12800729274749756 0.099138818681240082
0.66037136316299438 0.15265701711177826 0.12071530520915985
0.0455460324883461 0.12272562086582184 0.065943367779254913
0.072819560766220093 0.13079018890857697 0.073997244238853455
0.10358541458845139 0.13915932178497314 0.081474706530570984
0.14453490078449249 0.14485619962215424 0.086807683110237122
0.20098116993904114 0.1479686051607132 0.0905800461769104
0.27406120300292969 0.15031792223453522 0.094673186540603638
0.35745081305503845 0.15413059294223785 0.099483534693717957
0.44105547666549683 0.15999411046504974 0.10525689274072647
0.51612955331802368 0.16821867227554321 0.11287874728441238
0.57876574993133545 0.17967446148395538 0.1231997162103653
0.63129997253417969 0.19703496992588043 0.13911114633083344
0.6782459020614624 0.22110678255558014 0.16144070029258728
0.7204100489616394 0.24870733916759491 0.18569178879261017
0.050876062363386154 0.18140974640846252 0.070804715156555176
0.081706024706363678 0.19369557499885559 0.082899563014507294
0.11824841797351837 0.20712107419967651 0.096044428646564484
0.16493815183639526 0.21841348707675934 0.10792917013168335
0.22705233097076416 0.22722020745277405 0.11813468486070633
0.30554336309432983 0.23527152836322784 0.1275295615196228
0.39379149675369263 0.24393017590045929 0.13624309003353119
0.48247769474983215 0.25317633152008057 0.14580431580543518
0.56371223926544189 0.26567316055297852 0.15917631983757019
0.63174039125442505 0.28295093774795532 0.1760140061378479
0.68805515766143799 0.3054145872592926 0.19776700437068939
0.73709344863891602 0.3316899836063385 0.2243000864982605
0.77910917997360229 0.35940408706665039 0.24979338049888611
0.059122975915670395 0.2606160044670105 0.07828947901725769
0.095196999609470367 0.27754336595535278 0.095511868596076965
0.13879559934139252 0.29701131582260132 0.11553655564785004
0.19283396005630493 0.31510519981384277 0.13455143570899963
0.26114052534103394 0.33101195096969604 0.15148171782493591
0.34379243850708008 0.34587711095809937 0.16620117425918579
0.43532672524452209 0.35855522751808167 0.17854359745979309
0.52711230516433716 0.36886042356491089 0.19014796614646912
0.61132997274398804 0.38265222311019897 0.20550958812236786
0.68223845958709717 0.40269672870635986 0.22570434212684631
0.74030894041061401 0.42741695046424866 0.2502705454826355
0.78957873582839966 0.45391970872879028 0.27793487906455994
0.83079415559768677 0.47928479313850403 0.3030913770198822
0.080122210085391998 0.35882472991943359 0.098730958998203278
0.12100982666015625 0.38107377290725708 0.12061423808336258
0.17060448229312897 0.40618699789047241 0.14602936804294586
0.23050218820571899 0.43033707141876221 0.17023414373397827
0.30267870426177979 0.45156532526016235 0.19127438962459564
0.38773763179779053 0.47021943330764771 0.20900969207286835
0.4802916944026947 0.48450788855552673 0.22303391993045807
0.57267802953720093 0.49495252966880798 0.23523895442485809
0.65700769424438477 0.50902819633483887 0.25032070279121399
0.72814470529556274 0.52955484390258789 0.27060922980308533
0.78630310297012329 0.55409872531890869 0.29488947987556458
0.83391940593719482 0.5787513256072998 0.32101982831954956
0.8732982873916626 0.6004442572593689 0.34468719363212585
0.11990818381309509 0.47208783030509949 0.13979385793209076
0.1633906364440918 0.49848461151123047 0.16367380321025848
0.21578748524188995 0.52742940187454224 0.19092835485935211
0.27769166231155396 0.55475002527236938 0.21652883291244507
0.35104632377624512 0.57842040061950684 0.23845568299293518
0.43555992841720581 0.59664016962051392 0.25584614276885986
0.52724701166152954 0.60919308662414551 0.26955488324165344
0.61830300092697144 0.61945295333862305 0.28118017315864563
0.70089572668075562 0.63305956125259399 0.29492014646530151
0.77047276496887207 0.6523471474647522 0.3126528263092041
0.82682305574417114 0.67486423254013062 0.33422073721885681
0.87186157703399658 0.69650876522064209 0.35721740126609802
0.90876412391662598 0.71406549215316772 0.37862557172775269
0.17678011953830719 0.59256786108016968 0.19903784990310669
0.22134657204151154 0.62105679512023926 0.22329092025756836
0.27341967821121216 0.65072512626647949 0.24954007565975189
0.33387768268585205 0.67829382419586182 0.27287057042121887
0.40467780828475952 0.70087289810180664 0.29205992817878723
0.48657909035682678 0.71637296676635742 0.3070131242275238
0.57550644874572754 0.72542446851730347 0.31835520267486572
0.66371637582778931 0.73292320966720581 0.3278312087059021
0.74335569143295288 0.74412083625793457 0.33846220374107361
0.80982393026351929 0.76071077585220337 0.35233813524246216
0.86292493343353271 0.77954280376434326 0.36945471167564392
0.90451556444168091 0.79749137163162231 0.38820740580558777
0.93872374296188354 0.81126469373703003 0.40664637088775635
0.24452090263366699 0.7108190655708313 0.26879313588142395
0.28947204351425171 0.73942726850509644 0.2932039201259613
0.33996492624282837 0.76714456081390381 0.31692978739738464
0.39677232503890991 0.79079777002334595 0.33547705411911011
0.46282157301902771 0.80931943655014038 0.34912455081939697
0.54002177715301514 0.82023262977600098 0.35908401012420654
0.62462782859802246 0.82480412721633911 0.36619412899017334
0.70871639251708984 0.82777696847915649 0.37224629521369934
0.78397393226623535 0.83438634872436523 0.37904012203216553
0.8461606502532959 0.84638667106628418 0.38815858960151672
0.89509159326553345 0.86165714263916016 0.40002334117889404
0.93326091766357422 0.87621158361434937 0.41424629092216492
0.9647185206413269 0.88720351457595825 0.42912197113037109
0.31612095236778259 0.81978785991668701 0.3410680890083313
0.36112263798713684 0.84612077474594116 0.36506438255310059
0.40973919630050659 0.86935025453567505 0.38588562607765198
0.46175915002822876 0.88630127906799316 0.39788791537284851
0.52241545915603638 0.89770877361297607 0.404277503490448
0.59420502185821533 0.90321838855743408 0.40822049975395203
0.67321383953094482 0.90347528457641602 0.41066429018974304
0.7515864372253418 0.90186911821365356 0.41239756345748901
0.82173013687133789 0.90343600511550903 0.41505724191665649
0.87894356250762939 0.91117256879806519 0.41932886838912964
0.92333137989044189 0.92289751768112183 0.4262937605381012
0.95833313465118408 0.93495786190032959 0.43604561686515808
0.98728311061859131 0.94454330205917358 0.44784992933273315
0.38513100147247314 0.91542750597000122 0.40839341282844543
0.42880350351333618 0.93661648035049438 0.4293556809425354
0.47449585795402527 0.95329970121383667 0.44541552662849426
0.52247661352157593 0.96286123991012573 0.45188713073730469
0.57874864339828491 0.96802657842636108 0.45303440093994141
0.64527148008346558 0.968425452709198 0.45179036259651184
0.71779328584671021 0.9648134708404541 0.44969567656517029
0.78994894027709961 0.96018999814987183 0.44761708378791809
0.85454303026199341 0.95804351568222046 0.44647115468978882
0.90712720155715942 0.96226781606674194 0.44648224115371704
0.94784224033355713 0.97115522623062134 0.44963529706001282
0.9804081916809082 0.98108398914337158 0.45585212111473083
0.99892622232437134 0.9885174036026001 0.46500936150550842
0.44755184650421143 0.98908048868179321 0.46738281846046448
0.48890969157218933 0.99614131450653076 0.48281756043434143
0.53092426061630249 0.99903440475463867 0.49314373731613159
0.57667487859725952 0.99999010562896729 0.49636906385421753
0.62952500581741333 1 0.49454501271247864
0.6906769871711731 1 0.49005529284477234
0.75697386264801025 0.99923205375671387 0.48468390107154846
0.82252621650695801 0.99807584285736084 0.47907978296279907
0.88175719976425171 0.99692755937576294 0.47443842887878418
0.93048912286758423 0.99773681163787842 0.4720173180103302
0.96898633241653442 0.99933379888534546 0.47238051891326904
0.99595457315444946 1 0.47601756453514099
1 1 0.48330011963844299
0.016489200294017792 0.02037557028234005 0.062864236533641815
0.041645992547273636 0.022543873637914658 0.065667755901813507
0.067829206585884094 0.022689325734972954 0.066768303513526917
0.10118585079908371 0.021114842966198921 0.064052730798721313
0.14946839213371277 0.01672649011015892 0.060216296464204788
0.21320581436157227 0.01177577581256628 0.056752912700176239
0.28620797395706177 0.010440243408083916 0.053232993930578232
0.35847574472427368 0.010721258819103241 0.048283446580171585
0.41857194900512695 0.0087363896891474724 0.04149487242102623
0.46354854106903076 0.005854498129338026 0.035300727933645248
0.49774226546287537 0.0047102686949074268 0.032751254737377167
0.52727532386779785 0.006545377429574728 0.036360885947942734
0.55796468257904053 0.012770035304129124 0.048782903701066971
0.027692802250385284 0.052034847438335419 0.071009919047355652
0.052690126001834869 0.054935935884714127 0.075214043259620667
0.079127125442028046 0.055859703570604324 0.077736891806125641
0.11362794041633606 0.054762478917837143 0.07691066712141037
0.16336990892887115 0.051444962620735168 0.074103757739067078
0.22972501814365387 0.047796390950679779 0.072439230978488922
0.30685490369796753 0.047191739082336426 0.072188042104244232
0.3833300769329071 0.048319064080715179 0.070749826729297638
0.44851598143577576 0.048485130071640015 0.067943260073661804
0.49918755888938904 0.047956444323062897 0.066101476550102234
0.53862446546554565 0.050861090421676636 0.068341381847858429
0.57250946760177612 0.060411177575588226 0.076807491481304169
0.60605746507644653 0.076634623110294342 0.093254029750823975
0.03881511464715004 0.084030970931053162 0.08253873884677887
0.064528495073318481 0.089718975126743317 0.087941981852054596
0.092848055064678192 0.094016626477241516 0.093009278178215027
0.12982708215713501 0.095655418932437897 0.094441570341587067
0.18177317082881927 0.094646692276000977 0.093282587826251984
0.25174519419670105 0.093827374279499054 0.094454973936080933
0.33228197693824768 0.095182068645954132 0.09730212390422821
0.41268777847290039 0.098801031708717346 0.10030302405357361
0.4834587574005127 0.10312290489673615 0.10332442820072174
0.54066860675811768 0.10915976017713547 0.10750841349363327
0.58688759803771973 0.11956785619258881 0.11654722690582275
0.62700551748275757 0.13645267486572266 0.13125045597553253
0.66431450843811035 0.15888200700283051 0.15231594443321228
0.048643268644809723 0.12525901198387146 0.093699514865875244
0.076021037995815277 0.13497459888458252 0.10100430995225906
0.10760738700628281 0.14421263337135315 0.10971937328577042
0.14922451972961426 0.15025709569454193 0.11552497744560242
0.20616292953491211 0.15326119959354401 0.11916939169168472
0.27962574362754822 0.15618470311164856 0.12392008304595947
0.36406773328781128 0.16175927221775055 0.13007283210754395
0.44909882545471191 0.1691536009311676 0.13736404478549957
0.52602285146713257 0.17833641171455383 0.14636705815792084
0.58999598026275635 0.19103026390075684 0.15769347548484802
0.64204949140548706 0.20847414433956146 0.17283086478710175
0.68720251321792603 0.23095050454139709 0.19445683062076569
0.72743064165115356 0.25681844353675842 0.21884006261825562
0.056094840168952942 0.18486320972442627 0.1009463295340538
0.086962305009365082 0.19866497814655304 0.11215580999851227
0.12414951622486115 0.21319161355495453 0.1261858344078064
0.17212295532226562 0.22518220543861389 0.13865450024604797
0.23511336743831635 0.23412503302097321 0.14941108226776123
0.31338334083557129 0.24201777577400208 0.15932810306549072
