assets/lut/alexjordan red afternoon 01.cube
# Created by: G'MIC (https://gmic.eu)
TITLE "red_afternoon_01"
# LUT size
LUT_3D_SIZE 7
# Data domain
DOMAIN_MIN 0.0 0.0 0.0
DOMAIN_MAX 1.0 1.0 1.0
# LUT data points
0 0 0
0 0 0
0 0 0
0 0 0
0 0 0
0.0057855192571878433 0.00026334874564781785 4.3083641685370822e-06
0.061873551458120346 0.0049122083000838757 0.002649703761562705
0 0 0
0.00048484053695574403 0.000651310954708606 0.00038790234248153865
0.0052870805375277996 0.0038710201624780893 0.0014837526250630617
0.033095698803663254 0.013467990793287754 0.002306575421243906
0.10215745866298676 0.026156526058912277 0.0046503851190209389
0.20159830152988434 0.034224864095449448 0.0030494092497974634
0.33759742975234985 0.040171079337596893 0.0034670811146497726
0.0063685397617518902 0.03548787534236908 0.011325431987643242
0.038912873715162277 0.065283037722110748 0.014696696773171425
0.089680828154087067 0.081846915185451508 0.013799555599689484
0.17231635749340057 0.098819315433502197 0.010736114345490932
0.28459605574607849 0.11058890819549561 0.0086248358711600304
0.41478773951530457 0.11967755854129791 0.00089335720986127853
0.5522233247756958 0.12922868132591248 0.0013186585856601596
0.0065700756385922432 0.16655734181404114 0.0061346613802015781
0.066188469529151917 0.19525986909866333 0.0042206407524645329
0.15832437574863434 0.2085125595331192 0.0066987881436944008
0.27142873406410217 0.22235225141048431 0.0077952663414180279
0.39648726582527161 0.23698405921459198 0.0063475365750491619
0.51660436391830444 0.25273215770721436 0.0010823268676176667
0.63382816314697266 0.26534569263458252 0.009748091921210289
0.010760587640106678 0.32275545597076416 0.00052364572184160352
0.097374662756919861 0.34295651316642761 0.00096803554333746433
0.21327739953994751 0.35411301255226135 0.0065697911195456982
0.33478805422782898 0.36779311299324036 0.013262281194329262
0.45406600832939148 0.38536781072616577 0.016785146668553352
0.57407420873641968 0.39970150589942932 0.024968374520540237
0.69254684448242188 0.4138849675655365 0.045610822737216949
0.04121755063533783 0.47690188884735107 0.0059947292320430279
0.14168724417686462 0.49375420808792114 0.0097884833812713623
0.26331716775894165 0.50613439083099365 0.024139627814292908
0.38733908534049988 0.52044498920440674 0.038137070834636688
0.50807285308837891 0.53706246614456177 0.050421576946973801
0.62948697805404663 0.55230730772018433 0.067890763282775879
0.74903982877731323 0.56909549236297607 0.092555433511734009
0.089039698243141174 0.63204926252365112 0.03616027906537056
0.19504915177822113 0.64716392755508423 0.044191785156726837
0.31574365496635437 0.66132968664169312 0.060656290501356125
0.44022229313850403 0.67648828029632568 0.078348122537136078
0.56330931186676025 0.69325077533721924 0.09640204906463623
0.68532329797744751 0.71068370342254639 0.11778658628463745
0.80470758676528931 0.73048150539398193 0.14455488324165344
0 0 0
0 0 0
0 0 0
0 0 0
0 0 0
0.016929132863879204 0.0010065265232697129 0.0012915816623717546
0.073675654828548431 0.003266951534897089 0.0047972286120057106
0 0 0
0.0014281029580160975 0.0016853183042258024 0.0012251312145963311
0.012353605590760708 0.0084252748638391495 0.008159383200109005
0.054246414452791214 0.01961822435259819 0.015390687622129917
0.12601135671138763 0.031779643148183823 0.02117837592959404
0.23129640519618988 0.038857448846101761 0.019507808610796928
0.36191800236701965 0.042818706482648849 0.017917856574058533
0.0055671092122793198 0.049517583101987839 0.023893184959888458
0.044794045388698578 0.077493973076343536 0.03408406674861908
0.10346747189760208 0.093790791928768158 0.038625214248895645
0.19318611919879913 0.10785984992980957 0.037446625530719757
0.30380353331565857 0.11977846920490265 0.037484157830476761
0.43249312043190002 0.12899419665336609 0.03011506050825119
0.57561814785003662 0.13613402843475342 0.031860515475273132
0.0062644360587000847 0.1795591413974762 0.046094618737697601
0.075042486190795898 0.20386342704296112 0.048286765813827515
0.17218698561191559 0.21985325217247009 0.049505136907100677
0.28657302260398865 0.23434551060199738 0.049713853746652603
0.40584376454353333 0.2493893951177597 0.051510829478502274
0.52405792474746704 0.26482275128364563 0.05044720321893692
0.64414805173873901 0.27721479535102844 0.066527873277664185
0.016295069828629494 0.33215397596359253 0.054246507585048676
0.10797225683927536 0.35175740718841553 0.057826608419418335
0.22776417434215546 0.36386275291442871 0.067349649965763092
0.34862455725669861 0.37870737910270691 0.074594371020793915
0.46593394875526428 0.39534661173820496 0.081292532384395599
0.58412247896194458 0.40902763605117798 0.093781322240829468
0.70287823677062988 0.4231438934803009 0.11449670046567917
0.048805311322212219 0.48563414812088013 0.076087057590484619
0.15267647802829742 0.50255954265594482 0.083367608487606049
0.27728137373924255 0.51549088954925537 0.099094271659851074
0.40127846598625183 0.53023505210876465 0.11280334740877151
0.52078104019165039 0.54660618305206299 0.12519791722297668
0.64118725061416626 0.56140542030334473 0.14267502725124359
0.76128178834915161 0.57777184247970581 0.16542735695838928
0.097150363028049469 0.63963133096694946 0.11424300074577332
0.20562399923801422 0.65538078546524048 0.124024398624897
0.32894715666770935 0.66998046636581421 0.14162594079971313
0.45391499996185303 0.68570852279663086 0.15897981822490692
0.57625770568847656 0.7027733325958252 0.17508356273174286
0.69792705774307251 0.72017842531204224 0.19452306628227234
0.81831371784210205 0.73925745487213135 0.21882672607898712
0 0 0
0 0 0
0 0 0
0 0 0
0.0010255700908601284 1.5079273907758761e-05 0.00033641140908002853
0.038680747151374817 0.0034934848081320524 0.007162146270275116
0.10606767237186432 0.0061288271099328995 0.017542297020554543
0 0 0
0.00089578068582341075 0.001786400331184268 0.0018283170647919178
0.018411958590149879 0.01116389874368906 0.016939185559749603
0.073865599930286407 0.025109309703111649 0.032915960997343063
0.14983752369880676 0.03738262876868248 0.045936807990074158
0.25857675075531006 0.044116076081991196 0.053550928831100464
0.39201515913009644 0.047802329063415527 0.06166362389922142
0.0094233639538288116 0.05762583389878273 0.040438409894704819
0.047626480460166931 0.083514675498008728 0.061310112476348877
0.11381237208843231 0.10045411437749863 0.078198254108428955
0.21141466498374939 0.11483855545520782 0.081673562526702881
0.3234514594078064 0.1262955516576767 0.089724794030189514
0.45010340213775635 0.13544954359531403 0.09293510764837265
0.59097182750701904 0.14308974146842957 0.1006377711892128
0.011483674868941307 0.19274663925170898 0.096662573516368866
0.083093710243701935 0.21454344689846039 0.10655083507299423
0.18159295618534088 0.23128019273281097 0.111807681620121
0.29760006070137024 0.2448306679725647 0.11446910351514816
0.41565009951591492 0.25784182548522949 0.12455921620130539
0.53629791736602783 0.27103087306022644 0.13282126188278198
0.65917360782623291 0.28370743989944458 0.14693740010261536
0.026516513898968697 0.34230044484138489 0.1316068172454834
0.11986053735017776 0.36129665374755859 0.13878366351127625
0.23576796054840088 0.37592306733131409 0.14772970974445343
0.35632345080375671 0.3900793194770813 0.15669603645801544
0.47354251146316528 0.40469282865524292 0.16755904257297516
0.59224456548690796 0.41874778270721436 0.18099237978458405
0.71134686470031738 0.43383374810218811 0.1984071284532547
0.060225959867238998 0.49398812651634216 0.16499735414981842
0.16588440537452698 0.51105970144271851 0.17496427893638611
0.2890632152557373 0.5255921483039856 0.19117259979248047
0.41176244616508484 0.54089313745498657 0.20468495786190033
0.53047692775726318 0.55689430236816406 0.21655859053134918
0.650390625 0.57266241312026978 0.23174990713596344
0.77038097381591797 0.58994501829147339 0.25063931941986084
0.10802878439426422 0.64758920669555664 0.20682734251022339
0.21824684739112854 0.66345548629760742 0.21868278086185455
0.34213805198669434 0.67899900674819946 0.23730576038360596
0.46614649891853333 0.69560462236404419 0.25350308418273926
0.58751541376113892 0.71341276168823242 0.2674064040184021
0.70876091718673706 0.73197335004806519 0.28361809253692627
0.82930195331573486 0.75159776210784912 0.30427855253219604
0 0 0
0 0 0
0 0 0
0 0 0
0.0090716341510415077 0.0007713766535744071 0.0034822500310838223
0.050705075263977051 0.0051200119778513908 0.020440928637981415
0.13282941281795502 0.008137168362736702 0.042927850037813187
6.9113339122850448e-05 4.57763671875e-05 0.00011683445336529985
0.0045691248960793018 0.0047171497717499733 0.0083152921870350838
0.028553128242492676 0.017776325345039368 0.032518438994884491
0.089294373989105225 0.031799688935279846 0.060993537306785583
0.17316114902496338 0.042642287909984589 0.087210997939109802
0.28497955203056335 0.047197572886943817 0.10679813474416733
0.42438411712646484 0.048798490315675735 0.12712362408638
0.008200252428650856 0.068564034998416901 0.078763328492641449
0.054051671177148819 0.092151030898094177 0.10593025386333466
0.12502376735210419 0.10898824781179428 0.13253937661647797
0.22203372418880463 0.12074655294418335 0.1481839120388031
0.33445703983306885 0.13250869512557983 0.16238318383693695
0.46526306867599487 0.14061769843101501 0.17359595000743866
0.60492253303527832 0.14796160161495209 0.18805362284183502
0.012571865692734718 0.20535404980182648 0.16395670175552368
0.086978927254676819 0.22514043748378754 0.17887197434902191
0.1879982054233551 0.24059596657752991 0.19346652925014496
0.30531176924705505 0.25132977962493896 0.20425170660018921
0.42241266369819641 0.26474574208259583 0.21461208164691925
0.54436743259429932 0.27739781141281128 0.2245897501707077
0.66328155994415283 0.29123759269714355 0.23815464973449707
0.030690960586071014 0.35309141874313354 0.21691814064979553
0.12714394927024841 0.37070575356483459 0.22706837952136993
0.24221831560134888 0.38596060872077942 0.23890089988708496
0.36167120933532715 0.39970606565475464 0.25148418545722961
0.47897776961326599 0.41340205073356628 0.26490134000778198
0.59996515512466431 0.42717710137367249 0.27774375677108765
0.71780425310134888 0.44377326965332031 0.29155945777893066
0.067839391529560089 0.50269711017608643 0.25927275419235229
0.1752314567565918 0.51932257413864136 0.27026501297950745
0.29662740230560303 0.5350765585899353 0.28597810864448547
0.41829150915145874 0.55083149671554565 0.30151006579399109
0.53836715221405029 0.56651037931442261 0.31581190228462219
0.65966272354125977 0.58290797472000122 0.32969048619270325
0.77952384948730469 0.6015704870223999 0.34494102001190186
0.1174573078751564 0.65573489665985107 0.30509641766548157
0.2285553365945816 0.67148560285568237 0.31730484962463379
0.35094240307807922 0.68793302774429321 0.33486723899841309
0.47460833191871643 0.70528048276901245 0.35178235173225403
0.59659677743911743 0.72364455461502075 0.36659544706344604
0.7187315821647644 0.7434009313583374 0.38129901885986328
0.8394540548324585 0.76450508832931519 0.39837300777435303
0 0 0
0 0 0
0 0 0
5.0623275456018746e-05 0 4.5955883251735941e-05
0.015424960292875767 0.002347415080294013 0.0099293282255530357
0.077489443123340607 0.0060078641399741173 0.042314819991588593
0.17120927572250366 0.0074555343016982079 0.078822791576385498
0.00084511254681274295 0.002125848550349474 0.0039178584702312946
0.0096712000668048859 0.0098782405257225037 0.021856809034943581
0.042262326925992966 0.023599632084369659 0.061588048934936523
0.10654036700725555 0.036656517535448074 0.10399097949266434
0.19848385453224182 0.045468185096979141 0.14314639568328857
0.31655517220497131 0.047444749623537064 0.17261680960655212
0.45835354924201965 0.04708436131477356 0.20531471073627472
0.0084751201793551445 0.077530652284622192 0.12763997912406921
0.056797701865434647 0.098099187016487122 0.15991878509521484
0.13295648992061615 0.11394481360912323 0.19833332300186157
0.23264326155185699 0.12699969112873077 0.2271786630153656
0.34911486506462097 0.13802230358123779 0.249331995844841
0.47702348232269287 0.14609171450138092 0.26367247104644775
0.60818064212799072 0.15496677160263062 0.28050053119659424
0.0099698835983872414 0.21135431528091431 0.24265150725841522
0.091665171086788177 0.22964176535606384 0.26303747296333313
0.19757355749607086 0.24495668709278107 0.2844853401184082
0.31270113587379456 0.25908076763153076 0.29885843396186829
0.43068590760231018 0.27226719260215759 0.30965948104858398
0.55065768957138062 0.28547954559326172 0.31975090503692627
0.66832566261291504 0.30005115270614624 0.33330839872360229
0.027849219739437103 0.36134243011474609 0.30778372287750244
0.13389873504638672 0.37617328763008118 0.31908923387527466
0.2513938844203949 0.39224064350128174 0.33318939805030823
0.36998218297958374 0.40689021348953247 0.34891080856323242
0.48888549208641052 0.42021298408508301 0.36417379975318909
0.6093791127204895 0.43455973267555237 0.37744370102882385
0.72674733400344849 0.45212665200233459 0.39021256566047668
0.071621879935264587 0.51038414239883423 0.35584732890129089
0.18319922685623169 0.52546191215515137 0.36616000533103943
0.3041670024394989 0.54160565137863159 0.38175743818283081
0.42522379755973816 0.55810606479644775 0.40027841925621033
0.54653912782669067 0.57441794872283936 0.41756775975227356
0.66955041885375977 0.59089428186416626 0.43237724900245667
0.78991210460662842 0.61013412475585938 0.44694814085960388
0.12558065354824066 0.66365265846252441 0.4054376482963562
0.23727735877037048 0.67867755889892578 0.41706401109695435
0.35864400863647461 0.69532561302185059 0.43377763032913208
0.48162242770195007 0.71326088905334473 0.45228049159049988
0.60482019186019897 0.73203980922698975 0.46969878673553467
0.72825241088867188 0.75187903642654419 0.48563840985298157
0.84955179691314697 0.77304947376251221 0.50266808271408081
0 0 0
0 0 0
0 0 0
0.0012756796786561608 0.00013427734666038305 0.0021620208863168955
0.035099402070045471 0.0048709944821894169 0.032046597450971603
0.10144675523042679 0.007862764410674572 0.072930850088596344
0.20264735817909241 0.0072933421470224857 0.1217929795384407
0.0001887901162263006 0.0033788194414228201 0.011678135022521019
0.012027486227452755 0.013050468638539314 0.045036077499389648
0.050064414739608765 0.027369076386094093 0.10012201219797134
0.11694233864545822 0.040469944477081299 0.1539895087480545
0.2135930210351944 0.04766470193862915 0.20671230554580688
0.33828490972518921 0.049130130559206009 0.2482416033744812
0.47567930817604065 0.04974713921546936 0.2873789370059967
0.0051782797090709209 0.083927959203720093 0.17989800870418549
0.057691402733325958 0.10346103459596634 0.23175701498985291
0.1391933262348175 0.12037373334169388 0.28237468004226685
0.24061112105846405 0.13273318111896515 0.316295325756073
0.35868307948112488 0.14186803996562958 0.34505963325500488
0.48811763525009155 0.14922842383384705 0.36494284868240356
0.61709094047546387 0.15919627249240875 0.38473108410835266
0.0060040643438696861 0.22001616656780243 0.33617302775382996
0.094632133841514587 0.23526345193386078 0.36235064268112183
0.20451183617115021 0.25094538927078247 0.38439354300498962
0.31794065237045288 0.26458752155303955 0.39795783162117004
0.43616372346878052 0.27724853157997131 0.41101902723312378
0.55684971809387207 0.29066333174705505 0.42360192537307739
0.67522919178009033 0.30633100867271423 0.43720915913581848
0.024770116433501244 0.36931324005126953 0.40868866443634033
0.13939745724201202 0.38150089979171753 0.41982308030128479
0.25928351283073425 0.39676728844642639 0.43251168727874756
0.37704548239707947 0.40888732671737671 0.45089510083198547
0.49542462825775146 0.42486903071403503 0.46521392464637756
0.6151658296585083 0.44131571054458618 0.47889888286590576
0.73392200469970703 0.45902734994888306 0.49366945028305054
0.076742030680179596 0.51754897832870483 0.45671001076698303
0.19041894376277924 0.53102749586105347 0.46729984879493713
0.3120085597038269 0.54658854007720947 0.48277929425239563
0.4328131377696991 0.56219935417175293 0.50320392847061157
0.55375474691390991 0.57990717887878418 0.52124738693237305
0.67659294605255127 0.59745496511459351 0.53722989559173584
0.79771286249160767 0.61669433116912842 0.55388939380645752
0.13557876646518707 0.67221426963806152 0.50845968723297119
0.24665579199790955 0.68578720092773438 0.5207328200340271
0.36729547381401062 0.70178848505020142 0.537395179271698
0.48994359374046326 0.71945083141326904 0.55695933103561401
0.61308115720748901 0.73836731910705566 0.57608675956726074
0.73656171560287476 0.7580680251121521 0.59440314769744873
0.85810452699661255 0.77922135591506958 0.6132436990737915
0.0022918849717825651 0.00023006364062894136 0.001064360374584794
0 0 0
0 0 0.00033138500293716788
0.0059231477789580822 0.0013902850914746523 0.013933802954852581
0.053228087723255157 0.0059602176770567894 0.063057258725166321
0.12549108266830444 0.0062923803925514221 0.11063604801893234
0.23037168383598328 0.0097952596843242645 0.17365241050720215
0.0046012131497263908 0.0056032217107713223 0.032251559197902679
0.019426906481385231 0.020464474335312843 0.089732572436332703
0.06018047034740448 0.034918136894702911 0.15353383123874664
0.13338525593280792 0.046470314264297485 0.21652360260486603
0.24121052026748657 0.049265619367361069 0.29063338041305542
0.35857084393501282 0.05168464407324791 0.32803428173065186
0.49308052659034729 0.054780878126621246 0.37526741623878479
0.0078309904783964157 0.091911688446998596 0.24360756576061249
0.066938497126102448 0.11378389596939087 0.32072952389717102
0.15135295689105988 0.13020503520965576 0.38108357787132263
0.25238180160522461 0.14020514488220215 0.40965616703033447
0.37141510844230652 0.14703711867332458 0.44354870915412903
0.50140821933746338 0.15292800962924957 0.46631160378456116
0.6381414532661438 0.1607472151517868 0.49580129981040955
0.01554426271468401 0.22703275084495544 0.44122296571731567
0.10556411743164062 0.24292238056659698 0.46823090314865112
0.21352328360080719 0.25860464572906494 0.49056348204612732
0.32522928714752197 0.27135792374610901 0.50012481212615967
0.44337326288223267 0.28285792469978333 0.51365655660629272
0.5673069953918457 0.29472494125366211 0.53084862232208252
0.69093483686447144 0.30952739715576172 0.54929858446121216
0.042735621333122253 0.3747900128364563 0.51599013805389404
0.14846813678741455 0.38837146759033203 0.5310053825378418
0.26670405268669128 0.40310868620872498 0.54160928726196289
0.38403859734535217 0.41586259007453918 0.55476987361907959
0.50333517789840698 0.43064534664154053 0.56950217485427856
0.62415862083435059 0.44678398966789246 0.58596587181091309
0.74376088380813599 0.46528995037078857 0.60271978378295898
0.092197448015213013 0.52629935741424561 0.56168282032012939
0.20129783451557159 0.53893369436264038 0.5764879584312439
0.3212549090385437 0.55333322286605835 0.59156644344329834
0.4419177770614624 0.56829309463500977 0.60948222875595093
0.56293302774429321 0.58527886867523193 0.62726873159408569
0.68475592136383057 0.60372745990753174 0.64498263597488403
0.80505979061126709 0.62424057722091675 0.66325575113296509
0.15190830826759338 0.68356585502624512 0.61439627408981323
0.26029640436172485 0.69530695676803589 0.62887054681777954
0.3788810670375824 0.71013623476028442 0.64572876691818237
0.50055927038192749 0.72679489850997925 0.66483467817306519
0.62308031320571899 0.74519789218902588 0.68452566862106323
0.74553710222244263 0.76521402597427368 0.70432776212692261
0.86600738763809204 0.78745836019515991 0.72459012269973755
