assets/lut/alexjordan green 2025.cube
# Created by: G'MIC (https://gmic.eu)
TITLE "green_2025"
# LUT size
LUT_3D_SIZE 7
# Data domain
DOMAIN_MIN 0.0 0.0 0.0
DOMAIN_MAX 1.0 1.0 1.0
# LUT data points
0.0079432614147663116 0.0065669640898704529 0.0065887602977454662
0.023696301504969597 0.018852278590202332 0.017686372622847557
0.065122090280056 0.040316220372915268 0.03734220564365387
0.15116056799888611 0.073047146201133728 0.068261153995990753
0.2599693238735199 0.096200309693813324 0.090212009847164154
0.40567752718925476 0.10727452486753464 0.10003697872161865
0.55480831861495972 0.1095588207244873 0.10104475170373917
0.08480333536863327 0.099939621984958649 0.075712881982326508
0.15105633437633514 0.14647530019283295 0.11192163079977036
0.23128402233123779 0.17462831735610962 0.13244999945163727
0.32670551538467407 0.19080004096031189 0.14358359575271606
0.44273969531059265 0.19736464321613312 0.14807000756263733
0.56016677618026733 0.18909427523612976 0.13803760707378387
0.71092313528060913 0.18676470220088959 0.12570945918560028
0.16536632180213928 0.25141438841819763 0.14851094782352448
0.22243104875087738 0.27374705672264099 0.16457085311412811
0.29194101691246033 0.2826690673828125 0.16504645347595215
0.39102122187614441 0.28941404819488525 0.16366863250732422
0.51787799596786499 0.29082116484642029 0.1613444983959198
0.66322511434555054 0.27923175692558289 0.14724992215633392
0.84527862071990967 0.27182713150978088 0.13101302087306976
0.17005094885826111 0.36196145415306091 0.15472562611103058
0.23126508295536041 0.38226777315139771 0.16341494023799896
0.31206569075584412 0.39816498756408691 0.164642333984375
0.42419007420539856 0.40938833355903625 0.16368083655834198
0.56344407796859741 0.41342002153396606 0.15594236552715302
0.73864644765853882 0.40500441193580627 0.14077478647232056
0.95177257061004639 0.38999256491661072 0.12314363569021225
0.14601752161979675 0.504558265209198 0.13161887228488922
0.2121662050485611 0.5281369686126709 0.13519485294818878
0.30108258128166199 0.55132877826690674 0.13753949105739594
0.42513498663902283 0.56502026319503784 0.13938799500465393
0.58128601312637329 0.57016998529434204 0.13037528097629547
0.78133606910705566 0.56278711557388306 0.11354905366897583
0.98901718854904175 0.55227303504943848 0.093835867941379547
0.094505444169044495 0.69000977277755737 0.071280568838119507
0.16211308538913727 0.71755707263946533 0.075380273163318634
0.25357785820960999 0.7439647912979126 0.080623403191566467
0.38276854157447815 0.75972718000411987 0.086179293692111969
0.55455970764160156 0.7638736367225647 0.081421568989753723
0.77292698621749878 0.75644266605377197 0.065204903483390808
0.98866581916809082 0.74839073419570923 0.045869864523410797
0.025831693783402443 0.90373349189758301 0.0009806914022192359
0.097322754561901093 0.93243062496185303 0.0032108679879456758
0.1918717622756958 0.9585118293762207 0.0086885038763284683
0.32547751069068909 0.97162777185440063 0.0177790317684412
0.50305020809173584 0.97534763813018799 0.01910725049674511
0.73045063018798828 0.97014403343200684 0.0070322374813258648
0.96526038646697998 0.96449774503707886 0.00056762696476653218
0.0029370177071541548 0.0029673557728528976 0.0027829487808048725
0.028177253901958466 0.021873697638511658 0.023843398317694664
0.088447064161300659 0.057861372828483582 0.058888588100671768
0.1709061861038208 0.084634862840175629 0.088157102465629578
0.27844470739364624 0.10338295996189117 0.1087147444486618
0.41573819518089294 0.10808528959751129 0.12115569412708282
0.57253998517990112 0.10649414360523224 0.12707073986530304
0.098922863602638245 0.11504211276769638 0.10200820863246918
0.16425645351409912 0.16028833389282227 0.14189939200878143
0.23863124847412109 0.18091338872909546 0.16016465425491333
0.33692044019699097 0.1957075297832489 0.1739501953125
0.44329217076301575 0.19768610596656799 0.17463445663452148
0.57045620679855347 0.19079004228115082 0.16380795836448669
0.72926080226898193 0.18575304746627808 0.15516181290149689
0.16875913739204407 0.25569242238998413 0.17750176787376404
0.22725331783294678 0.2785639762878418 0.1939772367477417
0.29614689946174622 0.28466475009918213 0.19502018392086029
0.39408716559410095 0.29143106937408447 0.19480295479297638
0.5232434868812561 0.29188638925552368 0.19373828172683716
0.67692875862121582 0.2825503945350647 0.18020857870578766
0.86000019311904907 0.2752278745174408 0.16634714603424072
0.1709056943655014 0.37032222747802734 0.18604974448680878
0.23315407335758209 0.38856667280197144 0.19247356057167053
0.31857803463935852 0.40622487664222717 0.19825625419616699
0.42852890491485596 0.41495382785797119 0.19835084676742554
0.57122063636779785 0.41598066687583923 0.19296370446681976
0.75116902589797974 0.40760579705238342 0.17904846370220184
0.95741164684295654 0.39780691266059875 0.16295111179351807
0.14516060054302216 0.51527172327041626 0.16334106028079987
0.21359077095985413 0.53927093744277954 0.1688334047794342
0.30821689963340759 0.56375300884246826 0.17494276165962219
0.42992553114891052 0.57510113716125488 0.17632320523262024
0.58891230821609497 0.57669991254806519 0.16963374614715576
0.78941315412521362 0.56936758756637573 0.15300196409225464
0.99134260416030884 0.56022197008132935 0.13507638871669769
0.089621417224407196 0.70188117027282715 0.10129357129335403
0.15876789391040802 0.73059177398681641 0.10856492072343826
0.25316983461380005 0.7574150562286377 0.11776527017354965
0.38629657030105591 0.77138406038284302 0.12484367191791534
0.56207823753356934 0.77366417646408081 0.12051795423030853
0.78010159730911255 0.76664376258850098 0.10359892249107361
0.99180638790130615 0.75797146558761597 0.085297636687755585
0.017806947231292725 0.91584593057632446 0.018862375989556313
0.087093546986579895 0.94687414169311523 0.028892787173390388
0.18361213803291321 0.97087925672531128 0.043869812041521072
0.32576072216033936 0.98006963729858398 0.057451687753200531
0.5112425684928894 0.98205423355102539 0.058266390115022659
0.7385249137878418 0.97836112976074219 0.044010687619447708
0.97367793321609497 0.97299808263778687 0.029651956632733345
0.008967934176325798 0.010476475581526756 0.013425520621240139
0.042059551924467087 0.035151761025190353 0.04599323496222496
0.10342653840780258 0.067117415368556976 0.086684145033359528
0.18662123382091522 0.091474585235118866 0.12075382471084595
0.29647061228752136 0.10627161711454391 0.14558342099189758
0.4338873028755188 0.10941488295793533 0.16125515103340149
0.59250223636627197 0.10457697510719299 0.17031432688236237
0.11211151629686356 0.13618876039981842 0.14759561419487
0.17048145830631256 0.16520054638385773 0.18292060494422913
0.24316133558750153 0.18476714193820953 0.20524807274341583
0.33612000942230225 0.1976473480463028 0.22008088231086731
0.44175806641578674 0.19758722186088562 0.22053481638431549
0.57963627576828003 0.19145923852920532 0.21415789425373077
0.74553090333938599 0.18394304811954498 0.20859196782112122
0.16961933672428131 0.26216533780097961 0.22688601911067963
0.22686967253684998 0.27883186936378479 0.24176549911499023
0.29808694124221802 0.28777691721916199 0.24469520151615143
0.3988860547542572 0.29589402675628662 0.25068587064743042
0.52697241306304932 0.29476940631866455 0.2516595721244812
0.68654537200927734 0.28661632537841797 0.24080950021743774
0.87232416868209839 0.2790793776512146 0.2281377911567688
0.17236614227294922 0.3780912458896637 0.24006570875644684
0.23628118634223938 0.39574980735778809 0.24879820644855499
0.32274457812309265 0.41214993596076965 0.25596043467521667
0.43572962284088135 0.42058145999908447 0.26031279563903809
0.58064103126525879 0.42017462849617004 0.25843507051467896
0.76101016998291016 0.41343948245048523 0.24524697661399841
0.96413332223892212 0.40614074468612671 0.22900982201099396
0.14719311892986298 0.52475273609161377 0.22458735108375549
0.21838892996311188 0.54860943555831909 0.23123997449874878
0.3141530454158783 0.57158350944519043 0.23845465481281281
0.4391733705997467 0.58168035745620728 0.24255681037902832
0.60025829076766968 0.58249378204345703 0.23749497532844543
0.79825025796890259 0.57772058248519897 0.22132422029972076
0.99408996105194092 0.57027184963226318 0.20366254448890686
0.090856842696666718 0.71060293912887573 0.16637237370014191
0.16380369663238525 0.73926126956939697 0.17377331852912903
0.26166588068008423 0.76545274257659912 0.18416930735111237
0.39663991332054138 0.77963376045227051 0.19197648763656616
0.57218194007873535 0.7829059362411499 0.18868674337863922
0.78795731067657471 0.77823150157928467 0.17115156352519989
0.99502962827682495 0.7694588303565979 0.15296982228755951
0.016940262168645859 0.92463421821594238 0.082979895174503326
0.09125104546546936 0.95474755764007568 0.095474720001220703
0.193308025598526 0.97601515054702759 0.11312640458345413
0.33586516976356506 0.9855806827545166 0.12704989314079285
0.5207703709602356 0.98820203542709351 0.12821502983570099
0.74631595611572266 0.98642891645431519 0.11231712251901627
0.98022729158401489 0.98108357191085815 0.095015913248062134
0.014127454720437527 0.014513097703456879 0.028947582468390465
0.053095992654561996 0.043255150318145752 0.07750885933637619
0.11690111458301544 0.074973359704017639 0.1289941817522049
0.20958864688873291 0.10235752910375595 0.17746554315090179
0.3188401460647583 0.11604650318622589 0.21052663028240204
0.4563540518283844 0.11753309518098831 0.23396359384059906
0.61033684015274048 0.10652034729719162 0.24259793758392334
0.12370794266462326 0.14803189039230347 0.21112613379955292
0.17736905813217163 0.17206592857837677 0.25002732872962952
0.25578999519348145 0.19309833645820618 0.28432086110115051
0.34362566471099854 0.20324046909809113 0.29650679230690002
0.44953027367591858 0.20312012732028961 0.29897895455360413
0.59213173389434814 0.19596599042415619 0.29813754558563232
0.75922083854675293 0.18393275141716003 0.29370701313018799
0.17164516448974609 0.26410850882530212 0.30211561918258667
0.22607327997684479 0.27997252345085144 0.32006704807281494
0.30036899447441101 0.29081854224205017 0.32984751462936401
0.40457168221473694 0.29887294769287109 0.34132051467895508
0.53257536888122559 0.29847201704978943 0.34595528244972229
0.69554924964904785 0.29014822840690613 0.33784568309783936
0.88519150018692017 0.28074946999549866 0.32570645213127136
0.17374546825885773 0.38076600432395935 0.3268204927444458
0.23751544952392578 0.398307204246521 0.34236961603164673
0.32367989420890808 0.41400912404060364 0.35380882024765015
0.44179022312164307 0.42432007193565369 0.3642098605632782
0.5865703821182251 0.42470061779022217 0.36495229601860046
0.76918959617614746 0.41814008355140686 0.35313385725021362
0.97379976511001587 0.40978360176086426 0.33669236302375793
0.15002679824829102 0.52922409772872925 0.32880628108978271
0.22071078419685364 0.55220574140548706 0.33804351091384888
0.31536060571670532 0.57355570793151855 0.34695857763290405
0.44349804520606995 0.58540016412734985 0.3524966835975647
0.60537469387054443 0.58812308311462402 0.35051411390304565
0.80645042657852173 0.58333009481430054 0.33692118525505066
0.9972042441368103 0.57411104440689087 0.32138386368751526
0.09449295699596405 0.71390730142593384 0.28095418214797974
0.16815291345119476 0.74293726682662964 0.28722012042999268
0.26713567972183228 0.76884603500366211 0.29806503653526306
0.40275919437408447 0.7842705249786377 0.30649355053901672
0.57776105403900146 0.78972828388214111 0.30578875541687012
0.79587888717651367 0.78514164686203003 0.2924160361289978
0.99768567085266113 0.77359437942504883 0.2776961624622345
0.018464226275682449 0.92831456661224365 0.19894316792488098
0.095653340220451355 0.95838767290115356 0.2109304666519165
0.20086199045181274 0.97854697704315186 0.22995395958423615
0.34314286708831787 0.98841828107833862 0.24503020942211151
0.52559620141983032 0.99158221483230591 0.24899336695671082
0.75040537118911743 0.99042320251464844 0.23671898245811462
0.98447674512863159 0.98499208688735962 0.22239899635314941
0.024387195706367493 0.023678738623857498 0.070598304271697998
0.061963398009538651 0.049452193081378937 0.11925650388002396
0.13697630167007446 0.085981793701648712 0.20387656986713409
0.21959511935710907 0.10798197984695435 0.25233101844787598
0.33206602931022644 0.12079952657222748 0.30014488101005554
0.46997290849685669 0.123318150639534 0.33556902408599854
0.61633116006851196 0.10759404301643372 0.34353587031364441
0.1303572803735733 0.15334430336952209 0.29932060837745667
0.18763650953769684 0.18047460913658142 0.35173085331916809
0.25993558764457703 0.1964452862739563 0.39137819409370422
0.3388536274433136 0.20056186616420746 0.39677274227142334
0.45120927691459656 0.20218329131603241 0.40827959775924683
0.59747195243835449 0.1960950642824173 0.41636151075363159
0.76369017362594604 0.18357700109481812 0.41676241159439087
0.17211373150348663 0.26369789242744446 0.41691285371780396
0.2268194854259491 0.28048479557037354 0.43753275275230408
0.30045992136001587 0.29012036323547363 0.45455583930015564
0.40022656321525574 0.29472452402114868 0.46611148118972778
0.53334933519363403 0.29549813270568848 0.47662600874900818
0.70342403650283813 0.28799185156822205 0.47630742192268372
0.89508235454559326 0.27838787436485291 0.47145342826843262
0.17142112553119659 0.38052573800086975 0.46268698573112488
0.23483683168888092 0.39774659276008606 0.48091584444046021
0.32101732492446899 0.41243493556976318 0.49773350358009338
0.43802836537361145 0.42260506749153137 0.51123714447021484
0.58718281984329224 0.42422828078269958 0.51671403646469116
0.7780909538269043 0.41633746027946472 0.51061290502548218
0.98248887062072754 0.40645754337310791 0.49881315231323242
0.14640961587429047 0.53196936845779419 0.47771540284156799
0.21743480861186981 0.55359703302383423 0.49433606863021851
0.31180372834205627 0.5725550651550293 0.509929358959198
0.43999931216239929 0.58538234233856201 0.5155712366104126
0.60410106182098389 0.58853775262832642 0.51691228151321411
0.81160485744476318 0.58148813247680664 0.50931704044342041
0.99901014566421509 0.5706678032875061 0.49875244498252869
0.089534804224967957 0.7176404595375061 0.44261598587036133
0.16394177079200745 0.74568659067153931 0.45624837279319763
0.26449570059776306 0.76918351650238037 0.47229337692260742
0.40174463391304016 0.78426599502563477 0.48222064971923828
0.57828927040100098 0.78978043794631958 0.48280629515647888
0.79939907789230347 0.78492718935012817 0.47443878650665283
0.99881571531295776 0.77156239748001099 0.46552407741546631
0.015080889686942101 0.93032324314117432 0.37322840094566345
0.091397948563098907 0.96083301305770874 0.38744258880615234
0.19927741587162018 0.97990900278091431 0.40755411982536316
0.3442627489566803 0.98903816938400269 0.4244636595249176
0.52754408121109009 0.99251252412796021 0.43037605285644531
0.75190186500549316 0.99206334352493286 0.41986533999443054
0.98497730493545532 0.98554760217666626 0.40942305326461792
0.024525810033082962 0.024232154712080956 0.10312347114086151
0.07181752473115921 0.057772483676671982 0.19501484930515289
0.14597448706626892 0.088111266493797302 0.29747039079666138
0.22728674113750458 0.10403577238321304 0.36470964550971985
0.33484068512916565 0.11227188259363174 0.41902649402618408
0.4666227400302887 0.11330734193325043 0.46071138978004456
0.61333173513412476 0.10437492281198502 0.48418423533439636
0.12863762676715851 0.15198367834091187 0.40511375665664673
0.18328391015529633 0.17561760544776917 0.47287991642951965
0.25638279318809509 0.19192937016487122 0.53049099445343018
0.3356870710849762 0.19442090392112732 0.5477592945098877
0.44774824380874634 0.19337384402751923 0.56262481212615967
0.59454196691513062 0.18820452690124512 0.57984596490859985
0.76048165559768677 0.17938300967216492 0.5912361741065979
0.16666753590106964 0.26115280389785767 0.57077610492706299
0.21857659518718719 0.2730553150177002 0.58864820003509521
0.29794085025787354 0.28553551435470581 0.62893450260162354
0.39616894721984863 0.28949925303459167 0.6522829532623291
0.52927488088607788 0.28867146372795105 0.66484731435775757
0.70259624719619751 0.27995884418487549 0.67560374736785889
0.89471757411956787 0.26980134844779968 0.68222695589065552
0.16641922295093536 0.37800252437591553 0.65069890022277832
0.22811760008335114 0.39290529489517212 0.66665947437286377
0.31427350640296936 0.40728041529655457 0.69435966014862061
0.42980650067329407 0.4166455864906311 0.71755778789520264
0.58078140020370483 0.41964289546012878 0.73082339763641357
0.77646827697753906 0.40892872214317322 0.73595970869064331
0.98233014345169067 0.39543449878692627 0.73489922285079956
0.14035810530185699 0.52790409326553345 0.68922531604766846
0.20919531583786011 0.54955542087554932 0.70904046297073364
0.30275309085845947 0.56730556488037109 0.73333674669265747
0.43234133720397949 0.57872962951660156 0.74723464250564575
0.59818410873413086 0.58206117153167725 0.75338512659072876
0.8080371618270874 0.57374733686447144 0.75026530027389526
0.9984208345413208 0.56301909685134888 0.74082297086715698
0.082882463932037354 0.71333140134811401 0.68051862716674805
0.15447849035263062 0.74213087558746338 0.69988232851028442
0.25587674975395203 0.76407617330551147 0.72093212604522705
0.39678454399108887 0.77639257907867432 0.73618161678314209
0.57253885269165039 0.78193622827529907 0.73630756139755249
0.79150235652923584 0.77816367149353027 0.72772562503814697
0.99702119827270508 0.76788520812988281 0.71340352296829224
0.010202983394265175 0.92668008804321289 0.62723004817962646
0.079846024513244629 0.95933693647384644 0.63992428779602051
0.19188182055950165 0.97810429334640503 0.65902101993560791
0.34114557504653931 0.98666250705718994 0.67688524723052979
0.52370893955230713 0.99025815725326538 0.68352174758911133
0.74693077802658081 0.99047517776489258 0.67363649606704712
0.982188880443573 0.98319166898727417 0.65457487106323242
0.037489619106054306 0.03692525252699852 0.19105352461338043
0.083682551980018616 0.066596999764442444 0.30943012237548828
0.14973534643650055 0.084336809813976288 0.425324946641922
0.23202647268772125 0.0933113694190979 0.50628513097763062
0.33712905645370483 0.099104143679141998 0.57037460803985596
0.4650978147983551 0.10251126438379288 0.62172216176986694
0.60965639352798462 0.10177169740200043 0.65937834978103638
0.12885232269763947 0.1535431295633316 0.56111782789230347
0.18528486788272858 0.17578889429569244 0.65644192695617676
0.24728469550609589 0.18359018862247467 0.6969413161277771
0.33042997121810913 0.18445447087287903 0.72546523809432983
0.44556471705436707 0.1843419075012207 0.7527850866317749
0.59088915586471558 0.18107308447360992 0.77981317043304443
0.75458002090454102 0.17655694484710693 0.80013608932495117
0.15973949432373047 0.25669121742248535 0.76660633087158203
0.21057894825935364 0.26471048593521118 0.7940858006477356
0.28955638408660889 0.27726972103118896 0.83874481916427612
0.39043861627578735 0.28209897875785828 0.87206935882568359
0.52575397491455078 0.28239560127258301 0.89218395948410034
0.69740152359008789 0.273774653673172 0.91212159395217896
0.88631141185760498 0.26443439722061157 0.92559719085693359
0.15797498822212219 0.37273874878883362 0.87681514024734497
0.21981237828731537 0.38579782843589783 0.90215647220611572
0.30579638481140137 0.40051454305648804 0.93511217832565308
0.42206540703773499 0.41015970706939697 0.96228718757629395
0.57402992248535156 0.41309809684753418 0.97574895620346069
0.76771897077560425 0.40233960747718811 0.98374009132385254
0.97460359334945679 0.38845476508140564 0.98684406280517578
0.13352955877780914 0.51723039150238037 0.95012640953063965
0.20036257803440094 0.54034918546676636 0.96897715330123901
0.29400330781936646 0.55931490659713745 0.98454207181930542
0.42344918847084045 0.5710110068321228 0.99300950765609741
0.58905965089797974 0.57563579082489014 0.9955098032951355
0.79500412940979004 0.56906676292419434 0.99559450149536133
0.99389410018920898 0.56190550327301025 0.99339962005615234
0.079089879989624023 0.70245319604873657 0.96251153945922852
0.14641782641410828 0.73092812299728394 0.98076647520065308
0.24965505301952362 0.7528151273727417 0.99101942777633667
0.39282464981079102 0.76469355821609497 0.99621850252151489
0.5657767653465271 0.77336865663528442 0.99498069286346436
0.7817874550819397 0.77105695009231567 0.99383294582366943
0.99302881956100464 0.76759272813796997 0.98884278535842896
0.013293188065290451 0.91541266441345215 0.93334090709686279
0.078851379454135895 0.94762176275253296 0.95621556043624878
0.19182910025119781 0.9686586856842041 0.96923971176147461
0.34297096729278564 0.97906100749969482 0.97370725870132446
0.52122533321380615 0.98633956909179688 0.97131115198135376
0.74770820140838623 0.9859614372253418 0.97343772649765015
0.98200076818466187 0.98268002271652222 0.97444432973861694
