assets/lut/alexjordan moonlight 01.cube
# Created by: G'MIC (https://gmic.eu)
TITLE "moonlight_01"
# LUT size
LUT_3D_SIZE 7
# Data domain
DOMAIN_MIN 0.0 0.0 0.0
DOMAIN_MAX 1.0 1.0 1.0
# LUT data points
0 0 0
0.0052686203271150589 0 0
0.031141767278313637 0 0.00023893469187896699
0.080601394176483154 0.0006779390387237072 0.00031319411937147379
0.16971588134765625 0 0
0.30038410425186157 0 0
0.46427416801452637 0 0
0 0.019740909337997437 0
0.0021655212622135878 0.022251637652516365 0
0.033718753606081009 0.023599976673722267 0
0.093399390578269958 0.021712044253945351 0
0.18686899542808533 0.010427048429846764 0
0.32100698351860046 0.00083292042836546898 0
0.48992577195167542 0 0
0 0.066453956067562103 0
0.00056825525825843215 0.074804224073886871 0
0.030976522713899612 0.084875695407390594 0
0.099844090640544891 0.087022654712200165 8.6167283370741643e-06
0.20505522191524506 0.081374749541282654 0.00016551298904232681
0.34965294599533081 0.072277620434761047 0
0.52497357130050659 0.065496675670146942 0.0037344240117818117
0 0.14414209127426147 0
0.0025554283056408167 0.1620253324508667 0
0.03357015922665596 0.18158429861068726 0
0.1054845005273819 0.19337479770183563 0.0024858512915670872
0.21984648704528809 0.19969609379768372 0.0094893807545304298
0.37542909383773804 0.20180459320545197 0.011208029463887215
0.56274080276489258 0.20373700559139252 0.021672088652849197
0 0.26509001851081848 0
0.0052732881158590317 0.29467946290969849 0
0.038487497717142105 0.3241635262966156 0
0.11329839378595352 0.34578025341033936 0.010846934281289577
0.23545040190219879 0.3631325364112854 0.029060782864689827
0.4041869044303894 0.37583193182945251 0.037736225873231888
0.60582250356674194 0.38355863094329834 0.05147138237953186
0 0.4504607617855072 0
0.0024859260302037001 0.48277696967124939 0
0.043979614973068237 0.51903963088989258 0
0.12943071126937866 0.54983651638031006 0.016882773488759995
0.26166927814483643 0.5794299840927124 0.045677334070205688
0.44257703423500061 0.60358220338821411 0.063176445662975311
0.65111494064331055 0.61802840232849121 0.086316891014575958
0 0.6805272102355957 0
0.0087834075093269348 0.71533370018005371 0
0.063821859657764435 0.75639081001281738 5.7564528106013313e-05
0.16365012526512146 0.79711276292800903 0.024541832506656647
0.30623355507850647 0.83896303176879883 0.061082996428012848
0.48795866966247559 0.87413066625595093 0.093520954251289368
0.69610011577606201 0.8950534462928772 0.13125638663768768
0 0.00056023692013695836 0.020325006917119026
0.0033293182495981455 6.4625462982803583e-05 0.02107207290828228
0.029915798455476761 0.00027088838396593928 0.02234332449734211
0.083496332168579102 0 0.013128572143614292
0.16770610213279724 0 0.0010769114596769214
0.29547381401062012 0 0
0.45797029137611389 0 0
0 0.019492758437991142 0.015750421211123466
0.00079712213482707739 0.022725183516740799 0.020021984353661537
0.031160213053226471 0.024387629702687263 0.023168871179223061
0.097324907779693604 0.018103266134858131 0.018626628443598747
0.19135177135467529 0.01419225987046957 0.010100196115672588
0.32418683171272278 0.0054332059808075428 0.00033135508419945836
0.49245676398277283 0.0015270906733348966 0
0 0.065684422850608826 0.0096208164468407631
0 0.076545864343643188 0.015114249661564827
0.02933165617287159 0.08687947690486908 0.022940108552575111
0.10239741206169128 0.088575921952724457 0.027023015543818474
0.21017655730247498 0.086213909089565277 0.024136696010828018
0.35583481192588806 0.080193489789962769 0.012932242825627327
0.53153383731842041 0.074873261153697968 0.013820976950228214
0 0.14921237528324127 0.0063668494112789631
0.0016975553007796407 0.16886962950229645 0.0071213068440556526
0.033631537109613419 0.18734833598136902 0.021493948996067047
0.10925744473934174 0.19990590214729309 0.03637218102812767
0.22687134146690369 0.20836521685123444 0.042874488979578018
0.38491255044937134 0.209969162940979 0.041296835988759995
0.57353770732879639 0.20969507098197937 0.049240712076425552
0 0.27817437052726746 0.0058065080083906651
0.0017099417746067047 0.30726966261863708 0.0022362354211509228
0.037674173712730408 0.33442199230194092 0.018547656014561653
0.12051384150981903 0.35606884956359863 0.045803338289260864
0.24771702289581299 0.37567278742790222 0.065375521779060364
0.41779088973999023 0.38885167241096497 0.074256643652915955
0.62106204032897949 0.39535614848136902 0.08696245402097702
0 0.46056082844734192 0.0044508539140224457
0 0.49626928567886353 0.0016985127003863454
0.036789629608392715 0.53325480222702026 0.017595402896404266
0.13390588760375977 0.56544202566146851 0.054495044052600861
0.27326810359954834 0.59983521699905396 0.086189344525337219
0.45422127842903137 0.62767690420150757 0.10628516972064972
0.66614818572998047 0.63817161321640015 0.12987391650676727
0 0.68758749961853027 0.010966835543513298
0 0.73020273447036743 0.0045419279485940933
0.047056820243597031 0.77491551637649536 0.026136569678783417
0.15701434016227722 0.81901776790618896 0.069644004106521606
0.30589136481285095 0.86803406476974487 0.11128821223974228
0.49079826474189758 0.91126328706741333 0.14688894152641296
0.70394492149353027 0.92227387428283691 0.18770414590835571
0 0.00048683016211725771 0.096578814089298248
0.0026689267251640558 0 0.093700617551803589
0.025939103215932846 0.0006245332770049572 0.086679823696613312
0.081115946173667908 0 0.074315093457698822
0.16817376017570496 0 0.054239984601736069
0.29411956667900085 0 0.029736433178186417
0.45370513200759888 0 0.020753523334860802
0 0.016033262014389038 0.092178404331207275
4.9815458623925224e-05 0.020347774028778076 0.095945186913013458
0.026297071948647499 0.022994875907897949 0.097588256001472473
0.093950502574443817 0.016009880229830742 0.095249608159065247
0.1920064240694046 0.012451994232833385 0.078760616481304169
0.32667690515518188 0.0059201107360422611 0.05381074920296669
0.49342453479766846 0.0034063151106238365 0.04004376009106636
0 0.065216019749641418 0.077025048434734344
0.00020105698786210269 0.076304525136947632 0.091030403971672058
0.029789838939905167 0.084836550056934357 0.10339786112308502
0.10249015688896179 0.088067986071109772 0.10799979418516159
0.21254011988639832 0.088325574994087219 0.10222838073968887
0.35970523953437805 0.081468529999256134 0.08806157112121582
0.53640085458755493 0.079008884727954865 0.08332902193069458
0 0.15362513065338135 0.070039622485637665
0.0040080351755023003 0.17201139032840729 0.081091202795505524
0.037098843604326248 0.19112187623977661 0.10086381435394287
0.11423704773187637 0.20566244423389435 0.11756809055805206
0.23332710564136505 0.21643105149269104 0.12539350986480713
0.39231997728347778 0.21592365205287933 0.1240774542093277
0.58326059579849243 0.21629345417022705 0.12888148427009583
0 0.28790909051895142 0.065338790416717529
0.0019114176975563169 0.31479749083518982 0.072123520076274872
0.042185030877590179 0.34279617667198181 0.09788048267364502
0.12997721135616302 0.36596530675888062 0.12675373256206512
0.25956249237060547 0.38635459542274475 0.14874814450740814
0.4291740357875824 0.39968979358673096 0.16033904254436493
0.63650315999984741 0.40641829371452332 0.17091786861419678
0 0.47116106748580933 0.065193340182304382
0 0.50625860691070557 0.071823760867118835
0.042226977646350861 0.54440343379974365 0.10068690031766891
0.14427386224269867 0.57887643575668335 0.13885413110256195
0.28648483753204346 0.61296135187149048 0.17297866940498352
0.46917185187339783 0.63988876342773438 0.19550080597400665
0.68487799167633057 0.651805579662323 0.21863272786140442
0 0.69687575101852417 0.078839771449565887
8.1679398135747761e-05 0.74024701118469238 0.084075763821601868
0.052395179867744446 0.78830528259277344 0.1153491884469986
0.1639818400144577 0.83595031499862671 0.16118472814559937
0.31568723917007446 0.88434785604476929 0.20574218034744263
0.5043104887008667 0.92304503917694092 0.24407109618186951
0.71938943862915039 0.93813079595565796 0.28684225678443909
0 0 0.22054432332515717
0.00026281020836904645 0 0.21702231466770172
0.017674464732408524 2.7286305339657702e-05 0.20627488195896149
0.069774061441421509 3.4466913348296657e-05 0.19155699014663696
0.15910187363624573 0 0.16864539682865143
0.28540492057800293 0 0.14061671495437622
0.44349128007888794 0 0.12994635105133057
0.00041189754847437143 0.01349227037280798 0.21874323487281799
0 0.013809054158627987 0.22759020328521729
0.019041024148464203 0.020518792793154716 0.22791863977909088
0.080929823219776154 0.019783005118370056 0.22245082259178162
0.18106749653816223 0.013532376848161221 0.20503140985965729
0.31796494126319885 0.0032917098142206669 0.1826891154050827
0.48469394445419312 0.0018181744962930679 0.17264162003993988
0 0.062023475766181946 0.20837539434432983
7.180606644396903e-06 0.072364330291748047 0.2246776670217514
0.023369224742054939 0.084814511239528656 0.23742860555648804
0.094452470541000366 0.089169912040233612 0.24396936595439911
0.20662049949169159 0.087471097707748413 0.23839613795280457
0.35617011785507202 0.078238904476165771 0.22629198431968689
0.53398603200912476 0.076783247292041779 0.22219774127006531
0 0.15156462788581848 0.19942298531532288
0.004247747827321291 0.17086321115493774 0.21593423187732697
0.03405100479722023 0.19241407513618469 0.23797519505023956
0.11239761859178543 0.20696108043193817 0.25671479105949402
0.23470577597618103 0.21551008522510529 0.26514154672622681
0.3953668475151062 0.21685048937797546 0.2662690281867981
0.5874754786491394 0.21949134767055511 0.2699180543422699
0 0.28796938061714172 0.19072209298610687
0.0024652818683534861 0.31511729955673218 0.20918786525726318
0.042521055787801743 0.34648570418357849 0.23919269442558289
0.13142289221286774 0.37184968590736389 0.26833435893058777
0.26393318176269531 0.39162421226501465 0.29038649797439575
0.4361284077167511 0.40517207980155945 0.30468723177909851
0.64428615570068359 0.41402271389961243 0.31654059886932373
0 0.47489404678344727 0.18562176823616028
0.00017024022236000746 0.50918889045715332 0.2096254825592041
0.047386843711137772 0.55101519823074341 0.24574571847915649
0.14861655235290527 0.58897286653518677 0.28386586904525757
0.29193541407585144 0.62132197618484497 0.31861412525177002
0.47820150852203369 0.64564067125320435 0.34356755018234253
0.69542300701141357 0.66100221872329712 0.36886101961135864
0 0.70353978872299194 0.19702717661857605
0.0028660045936703682 0.74733948707580566 0.2202301025390625
0.062465008348226547 0.79821193218231201 0.26233935356140137
0.1730048805475235 0.84870386123657227 0.30942171812057495
0.32554042339324951 0.8947683572769165 0.35493999719619751
0.51707804203033447 0.92948788404464722 0.39554238319396973
0.73352575302124023 0.94710487127304077 0.44052264094352722
0 0.00051944208098575473 0.39588013291358948
0 0 0.39463496208190918
0.005601830780506134 0.00071345310425385833 0.38551941514015198
0.052505284547805786 0.0011563319712877274 0.37359678745269775
0.1420363187789917 0 0.34842756390571594
0.27032312750816345 0 0.31244239211082458
0.43003940582275391 0 0.2934471070766449
0 0.010912622325122356 0.40629935264587402
0 0.010611246339976788 0.41671040654182434
0.0094809141010046005 0.019501419737935066 0.42024117708206177
0.063031606376171112 0.022818621248006821 0.41432583332061768
0.16223138570785522 0.016836727038025856 0.39485138654708862
0.30179011821746826 0.0070311152376234531 0.36775442957878113
0.47051084041595459 0.0068949679844081402 0.35451266169548035
0 0.055170830339193344 0.40708276629447937
0 0.06491398811340332 0.42282876372337341
0.017999986186623573 0.079614974558353424 0.43843713402748108
0.082283124327659607 0.087459415197372437 0.44507321715354919
0.19390226900577545 0.085501715540885925 0.43784239888191223
0.34605950117111206 0.07839704304933548 0.42304953932762146
0.5257384181022644 0.078142829239368439 0.41812053322792053
0 0.14483843743801117 0.39687427878379822
0.00079351686872541904 0.16644710302352905 0.41422328352928162
0.029160099104046822 0.18879261612892151 0.44164291024208069
0.10519066452980042 0.2037649005651474 0.46307536959648132
0.22911769151687622 0.21252927184104919 0.47065573930740356
0.39453551173210144 0.2169269323348999 0.46819385886192322
0.58726954460144043 0.22109149396419525 0.47092717885971069
0 0.28254622220993042 0.38274464011192322
0.0015845804009586573 0.31190955638885498 0.40814682841300964
0.039456266909837723 0.34531873464584351 0.44565758109092712
0.127508744597435 0.37259414792060852 0.47802957892417908
0.26242572069168091 0.39413872361183167 0.49993604421615601
0.44034215807914734 0.40893381834030151 0.5113559365272522
0.64793246984481812 0.41870257258415222 0.52239811420440674
0 0.47307208180427551 0.36694353818893433
0.0012997196754440665 0.51040399074554443 0.40445968508720398
0.048991724848747253 0.55493587255477905 0.45236915349960327
0.15049812197685242 0.59434759616851807 0.49352651834487915
0.29510942101478577 0.62977725267410278 0.52756780385971069
0.48382222652435303 0.65455502271652222 0.55244457721710205
0.7009928822517395 0.66991126537322998 0.57805049419403076
0 0.70756626129150391 0.36880955100059509
0.0090493597090244293 0.7545020580291748 0.4116692841053009
0.068137146532535553 0.80812722444534302 0.46820035576820374
0.18078865110874176 0.85912734270095825 0.51802408695220947
0.33404350280761719 0.90917783975601196 0.56302392482757568
0.52701771259307861 0.94475328922271729 0.60536807775497437
0.7438814640045166 0.95916509628295898 0.65197771787643433
0 0 0.63719600439071655
0 0 0.64149624109268188
9.6818512247409672e-05 0 0.64163839817047119
0.037022639065980911 0 0.63091397285461426
0.12765645980834961 0 0.60074096918106079
0.2598368227481842 0 0.56151169538497925
0.42315533757209778 0 0.54122155904769897
0 0.00091350777074694633 0.65940135717391968
0 0.0010769114596769214 0.67523694038391113
0.001438829000107944 0.011682742275297642 0.68385303020477295
0.045894384384155273 0.019749585539102554 0.67896884679794312
0.14514151215553284 0.012073412537574768 0.65502297878265381
0.28727135062217712 0.0016821917379274964 0.62456917762756348
0.45909839868545532 0.00072784424992278218 0.61080503463745117
0 0.04075482115149498 0.6694263219833374
0 0.047638420015573502 0.69084101915359497
0.013088211417198181 0.067425668239593506 0.7072787880897522
0.070835039019584656 0.080107808113098145 0.71269482374191284
0.18044786155223846 0.07842978835105896 0.7023308277130127
0.3339812159538269 0.067793063819408417 0.68554472923278809
0.51540672779083252 0.065182104706764221 0.67993170022964478
0 0.13180769979953766 0.66166967153549194
2.1242627553874627e-05 0.15120087563991547 0.68487024307250977
0.02557036466896534 0.17609953880310059 0.71366322040557861
0.097767502069473267 0.19513103365898132 0.7343330979347229
0.22009584307670593 0.205691859126091 0.73996508121490479
0.38765701651573181 0.2094196230173111 0.73430752754211426
0.58194684982299805 0.21376754343509674 0.73389679193496704
0 0.26981961727142334 0.64787882566452026
0.00085019879043102264 0.29936373233795166 0.67968058586120605
0.035941030830144882 0.33607697486877441 0.72019809484481812
0.12218701094388962 0.36660113930702209 0.75274926424026489
0.25622957944869995 0.39076867699623108 0.77508437633514404
0.43479582667350769 0.40718725323677063 0.78515070676803589
0.64552372694015503 0.41702097654342651 0.78864461183547974
0 0.46334460377693176 0.62653630971908569
0.0016832239925861359 0.50429296493530273 0.67217302322387695
0.045883640646934509 0.55234253406524658 0.72774416208267212
0.1495983898639679 0.59251469373703003 0.76899468898773193
0.29367104172706604 0.6291203498840332 0.80516701936721802
0.48113128542900085 0.65511500835418701 0.83207005262374878
0.70015490055084229 0.67542701959609985 0.84960329532623291
0.00086696847574785352 0.70665353536605835 0.61630654335021973
0.011405750177800655 0.75830942392349243 0.67517316341400146
0.066901266574859619 0.81626343727111816 0.74043083190917969
0.18602757155895233 0.8633611798286438 0.79018360376358032
0.33896872401237488 0.91634124517440796 0.83722001314163208
0.53240478038787842 0.95663225650787354 0.8875201940536499
0.75013166666030884 0.96888768672943115 0.92535215616226196
0 0 0.9295583963394165
0 0 0.93702614307403564
0.00017444386321585625 0 0.9424208402633667
0.036204751580953598 0 0.93591427803039551
0.13040652871131897 0 0.90580195188522339
0.26573449373245239 0 0.87270265817642212
0.43155935406684875 0 0.86017411947250366
0 0 0.95310652256011963
0 0 0.96865248680114746
0.0012918360298499465 0.0029086244758218527 0.97546505928039551
0.042243164032697678 0.013036959804594517 0.97434896230697632
0.14350061118602753 0.0038593965582549572 0.95731532573699951
0.28728741407394409 0 0.93576192855834961
0.46034190058708191 0 0.92765611410140991
0 0.031290855258703232 0.9650275707244873
0.0016428928356617689 0.03291098028421402 0.98148560523986816
0.016279302537441254 0.055866643786430359 0.98774713277816772
0.071028977632522583 0.072042934596538544 0.98919045925140381
0.17899294197559357 0.069299079477787018 0.98488003015518188
0.33090800046920776 0.054095622152090073 0.97817987203598022
0.51184546947479248 0.049195803701877594 0.97647631168365479
0 0.12397757172584534 0.96415948867797852
0.003769848495721817 0.13640077412128448 0.98141801357269287
0.031010661274194717 0.16366247832775116 0.99202173948287964
0.10074722021818161 0.18647864460945129 0.99611169099807739
0.22059613466262817 0.19682219624519348 0.99669981002807617
0.3849257230758667 0.19859454035758972 0.99597972631454468
0.57763195037841797 0.20721383392810822 0.9957084059715271
0 0.26147335767745972 0.96095013618469238
0.0059576444327831268 0.28658956289291382 0.98137480020523071
0.041730139404535294 0.32568705081939697 0.99481821060180664
0.12670882046222687 0.35968863964080811 0.99976104497909546
0.25967544317245483 0.38375735282897949 1
0.43693158030509949 0.3994145393371582 1
0.6439439058303833 0.41702821850776672 1
0 0.45436298847198486 0.95313739776611328
0.0079013155773282051 0.49366635084152222 0.98030489683151245
0.052095644176006317 0.54463285207748413 0.99708414077758789
0.15485341846942902 0.58818233013153076 1
0.30011400580406189 0.62285161018371582 1
0.48516663908958435 0.65057086944580078 1
0.69994533061981201 0.67925405502319336 1
0.0026302712503820658 0.70306789875030518 0.94944339990615845
0.021784674376249313 0.75307077169418335 0.9800599217414856
0.079415507614612579 0.81195485591888428 0.99855506420135498
0.19586057960987091 0.86030411720275879 1
0.35072842240333557 0.90763592720031738 1
0.54052680730819702 0.94848811626434326 1
0.75435996055603027 0.97026187181472778 1
