assets/lut/alexjordan film 9879.cube
# Created by: G'MIC (https://gmic.eu)
TITLE "film_9879"
# LUT size
LUT_3D_SIZE 5
# Data domain
DOMAIN_MIN 0.0 0.0 0.0
DOMAIN_MAX 1.0 1.0 1.0
# LUT data points
0.026714758947491646 0.018905684351921082 0.019125232473015785
0.17575781047344208 0.038361553102731705 0.040932673960924149
0.2957664430141449 0.060352489352226257 0.06339765340089798
0.42422366142272949 0.075431376695632935 0.077488318085670471
0.54733240604400635 0.097318224608898163 0.10051439702510834
0.11259587854146957 0.18340343236923218 0.10828790068626404
0.25064113736152649 0.20001205801963806 0.12517052888870239
0.37184518575668335 0.22059597074985504 0.14483040571212769
0.51067155599594116 0.23713944852352142 0.16107669472694397
0.6403612494468689 0.26321592926979065 0.19045795500278473
0.16924948990345001 0.35888195037841797 0.16191413998603821
0.31603479385375977 0.3802579939365387 0.18631026148796082
0.44763031601905823 0.41552460193634033 0.22122283279895782
0.60763102769851685 0.45444092154502869 0.25977990031242371
0.74580860137939453 0.5024217963218689 0.30028057098388672
0.28929314017295837 0.580311119556427 0.28434100747108459
0.45203113555908203 0.62271034717559814 0.32346054911613464
0.59938353300094604 0.67387843132019043 0.3737216591835022
0.76825606822967529 0.72341001033782959 0.41964137554168701
0.91598701477050781 0.7667810320854187 0.46954724192619324
0.43373826146125793 0.83966517448425293 0.4258066713809967
0.59899204969406128 0.88418459892272949 0.46924442052841187
0.73842567205429077 0.92517590522766113 0.50978368520736694
0.88365167379379272 0.95265400409698486 0.54173797369003296
0.99015867710113525 0.97434121370315552 0.54734551906585693
0.040477648377418518 0.03044656477868557 0.15789099037647247
0.18043690919876099 0.047580733895301819 0.17694370448589325
0.29862850904464722 0.067859336733818054 0.19794735312461853
0.43208983540534973 0.083357945084571838 0.20511095225811005
0.55042308568954468 0.10501662641763687 0.2316688746213913
0.12254302203655243 0.1957254558801651 0.23704858124256134
0.26015937328338623 0.20847518742084503 0.25436928868293762
0.37597620487213135 0.22822368144989014 0.2698976993560791
0.52218812704086304 0.24482806026935577 0.29434451460838318
0.64599490165710449 0.27595758438110352 0.31783619523048401
0.1763356477022171 0.36873027682304382 0.29518967866897583
0.32494062185287476 0.39354079961776733 0.3178747296333313
0.46248489618301392 0.43276426196098328 0.35898116230964661
0.62290424108505249 0.47235825657844543 0.3978341817855835
0.77135276794433594 0.52008599042892456 0.44522327184677124
0.29479160904884338 0.60041606426239014 0.41549432277679443
0.46250250935554504 0.64401054382324219 0.46137809753417969
0.61924064159393311 0.69235646724700928 0.51582616567611694
0.78730368614196777 0.73814296722412109 0.56151747703552246
0.92665320634841919 0.78144985437393188 0.6048043966293335
0.45192384719848633 0.86855792999267578 0.56187409162521362
0.60793823003768921 0.91191768646240234 0.60114872455596924
0.74162542819976807 0.94442790746688843 0.6363491415977478
0.88103187084197998 0.96253538131713867 0.66239416599273682
0.99293243885040283 0.98107773065567017 0.67068701982498169
0.050061572343111038 0.042663142085075378 0.28037267923355103
0.18454040586948395 0.05810057744383812 0.29431638121604919
0.30544701218605042 0.078580789268016815 0.30886602401733398
0.44524016976356506 0.092731505632400513 0.32164621353149414
0.56083804368972778 0.11234066635370255 0.34773686528205872
0.13161937892436981 0.19996693730354309 0.35575926303863525
0.26725906133651733 0.21555896103382111 0.36906483769416809
0.3847922682762146 0.23630052804946899 0.38549673557281494
0.53343188762664795 0.25467690825462341 0.41345572471618652
0.65698528289794922 0.2863595187664032 0.43693798780441284
0.19167302548885345 0.37913945317268372 0.41584092378616333
0.34000831842422485 0.40747624635696411 0.44082838296890259
0.47657796740531921 0.44997435808181763 0.48273235559463501
0.63930821418762207 0.48545795679092407 0.52217000722885132
0.78215199708938599 0.53678113222122192 0.56793928146362305
0.32575088739395142 0.61371123790740967 0.54603350162506104
0.48868867754936218 0.65851020812988281 0.59019011259078979
0.64085406064987183 0.71103984117507935 0.64180320501327515
0.80156487226486206 0.75348043441772461 0.685860276222229
0.94232380390167236 0.7947162389755249 0.72539639472961426
0.46955797076225281 0.88842242956161499 0.68443256616592407
0.62766009569168091 0.92434906959533691 0.72613704204559326
0.76037538051605225 0.95578587055206299 0.75270110368728638
0.89450013637542725 0.97424191236495972 0.7727668285369873
0.99796378612518311 0.98705816268920898 0.78175115585327148
0.061965372413396835 0.05009797215461731 0.36505791544914246
0.19741727411746979 0.064419716596603394 0.37971344590187073
0.31517446041107178 0.087979890406131744 0.38917961716651917
0.44842207431793213 0.10053233802318573 0.40081518888473511
0.56743496656417847 0.11773741245269775 0.42949283123016357
0.14161422848701477 0.20898446440696716 0.43691694736480713
0.2809942364692688 0.22347806394100189 0.45488545298576355
0.40174901485443115 0.247055783867836 0.47713568806648254
0.54418396949768066 0.26972445845603943 0.49796083569526672
0.66811269521713257 0.30111005902290344 0.53187084197998047
0.20374332368373871 0.39358490705490112 0.5054207444190979
0.35760492086410522 0.42490348219871521 0.53417342901229858
0.49537843465805054 0.46713992953300476 0.57964575290679932
0.66217005252838135 0.50769025087356567 0.61798357963562012
0.80727684497833252 0.56080621480941772 0.6684144139289856
0.33622315526008606 0.63508713245391846 0.64024049043655396
0.50939422845840454 0.67985308170318604 0.69210875034332275
0.65935349464416504 0.73063302040100098 0.7416502833366394
0.82292550802230835 0.77232283353805542 0.78188914060592651
0.95219999551773071 0.81408232450485229 0.81924617290496826
0.48253348469734192 0.90447723865509033 0.78342223167419434
0.63795918226242065 0.94114911556243896 0.82172477245330811
0.76554250717163086 0.96895331144332886 0.842723548412323
0.90109544992446899 0.98067229986190796 0.85839319229125977
0.99722647666931152 0.98994213342666626 0.87545061111450195
0.067500635981559753 0.059865240007638931 0.47363060712814331
0.20067445933818817 0.074667774140834808 0.49028685688972473
0.32055681943893433 0.094754569232463837 0.50482743978500366
0.45570507645606995 0.10880551487207413 0.52164465188980103
0.58295202255249023 0.13259038329124451 0.54778629541397095
0.14784513413906097 0.22233423590660095 0.54958075284957886
0.28772997856140137 0.23411735892295837 0.57409429550170898
0.41230642795562744 0.2609201967716217 0.59783774614334106
0.56055128574371338 0.28291964530944824 0.62716460227966309
0.69238042831420898 0.32329446077346802 0.66291087865829468
0.21567539870738983 0.41311678290367126 0.62037432193756104
0.37037235498428345 0.43987640738487244 0.65296190977096558
0.5096244215965271 0.4842853844165802 0.69374674558639526
0.67517518997192383 0.52698278427124023 0.73897671699523926
0.82155478000640869 0.57879042625427246 0.79050296545028687
0.35779282450675964 0.65190494060516357 0.76587271690368652
0.52923876047134399 0.70071113109588623 0.81350564956665039
0.67633301019668579 0.74990189075469971 0.86172354221343994
0.84200847148895264 0.79011702537536621 0.90139865875244141
0.97353225946426392 0.82444947957992554 0.93969500064849854
0.49172011017799377 0.91139209270477295 0.89835375547409058
0.64945554733276367 0.95316702127456665 0.93466866016387939
0.77068197727203369 0.97532737255096436 0.95477843284606934
0.90426528453826904 0.98529845476150513 0.96927022933959961
0.99693834781646729 0.99153518676757812 0.98344558477401733
