assets/lut/alexjordan retro brown 01.cube
# Created by: G'MIC (https://gmic.eu)
TITLE "retro_brown_01"
# LUT size
LUT_3D_SIZE 7
# Data domain
DOMAIN_MIN 0.0 0.0 0.0
DOMAIN_MAX 1.0 1.0 1.0
# LUT data points
0.00018961289606522769 0 0
0.0094942431896924973 0.00042347627459093928 0.00039527742774225771
0.060825690627098083 0.0056207245215773582 0.0030400294344872236
0.12714482843875885 0.025606058537960052 0.014520877040922642
0.20521767437458038 0.068710044026374817 0.050011400133371353
0.28817164897918701 0.11741630733013153 0.095181331038475037
0.36483860015869141 0.16777200996875763 0.13663829863071442
0.070024751126766205 0.059108089655637741 0.024392670020461082
0.14626145362854004 0.10608429461717606 0.060643617063760757
0.22540545463562012 0.16091176867485046 0.10725784301757812
0.30283012986183167 0.20821678638458252 0.15429402887821198
0.37818807363510132 0.25663912296295166 0.19678464531898499
0.45155489444732666 0.29743149876594543 0.23730883002281189
0.5218387246131897 0.34093233942985535 0.27507945895195007
0.24506652355194092 0.25174146890640259 0.17154413461685181
0.32063519954681396 0.30123597383499146 0.21739441156387329
0.3865496814250946 0.33874338865280151 0.2552952766418457
0.4468347430229187 0.37017875909805298 0.28348064422607422
0.50849026441574097 0.40189999341964722 0.31207969784736633
0.56751728057861328 0.4301764965057373 0.33829358220100403
0.62199079990386963 0.45631629228591919 0.36107152700424194
0.38323628902435303 0.41092559695243835 0.29630738496780396
0.4416179358959198 0.44157296419143677 0.32457408308982849
0.49409329891204834 0.46619775891304016 0.34729745984077454
0.54523998498916626 0.48771828413009644 0.36777237057685852
0.60023659467697144 0.51401883363723755 0.39062371850013733
0.65444976091384888 0.5384746789932251 0.41155445575714111
0.70712107419967651 0.56170624494552612 0.43148893117904663
0.47900983691215515 0.5295788049697876 0.37978798151016235
0.53013569116592407 0.5512576699256897 0.39937528967857361
0.57986313104629517 0.57297855615615845 0.41830801963806152
0.63151592016220093 0.5968010425567627 0.43923890590667725
0.68558555841445923 0.62440985441207886 0.46183508634567261
0.74106842279434204 0.65146172046661377 0.48395246267318726
0.79639410972595215 0.6759268045425415 0.50621986389160156
0.5644221305847168 0.64172333478927612 0.45472142100334167
0.61541354656219482 0.66266900300979614 0.47318810224533081
0.6665191650390625 0.68544656038284302 0.4921882152557373
0.72031122446060181 0.71155226230621338 0.51366114616394043
0.77611440420150757 0.74016642570495605 0.53699249029159546
0.8323790431022644 0.76744550466537476 0.56028401851654053
0.88504451513290405 0.79303979873657227 0.5834164023399353
0.64937949180603027 0.75786584615707397 0.53143256902694702
0.70176029205322266 0.77955740690231323 0.55047732591629028
0.75482285022735596 0.80354273319244385 0.57033127546310425
0.8098292350769043 0.83016848564147949 0.59225791692733765
0.86544942855834961 0.85811662673950195 0.61559689044952393
0.91781091690063477 0.88525408506393433 0.63903635740280151
0.96206581592559814 0.91092103719711304 0.66168522834777832
0 0 0
0.018171587958931923 0.00093048694543540478 0.0011798484483733773
0.078197598457336426 0.017040582373738289 0.011895018629729748
0.14734765887260437 0.043396085500717163 0.035911336541175842
0.22584083676338196 0.090735957026481628 0.07862052321434021
0.31268152594566345 0.14387457072734833 0.13214612007141113
0.39047408103942871 0.1932840496301651 0.17775735259056091
0.093568854033946991 0.082483924925327301 0.058036923408508301
0.16824105381965637 0.12737791240215302 0.095414780080318451
0.24870158731937408 0.18295402824878693 0.1454416811466217
0.32683557271957397 0.22941653430461884 0.19238536059856415
0.4009971022605896 0.27555093169212341 0.23432742059230804
0.47260802984237671 0.31717869639396667 0.27471271157264709
0.53806185722351074 0.3556550145149231 0.30966800451278687
0.26556152105331421 0.27273842692375183 0.20868006348609924
0.34030470252037048 0.31725263595581055 0.25346529483795166
0.40660321712493896 0.35952305793762207 0.29121458530426025
0.4686133861541748 0.39170864224433899 0.32193353772163391
0.5286487340927124 0.42023736238479614 0.34976914525032043
0.58303940296173096 0.444989413022995 0.3723699152469635
0.63854163885116577 0.47221603989601135 0.39538481831550598
0.39851149916648865 0.42518508434295654 0.32838010787963867
0.45791593194007874 0.45663639903068542 0.35833078622817993
0.50842940807342529 0.48198461532592773 0.37887465953826904
0.55916577577590942 0.50309240818023682 0.3992907702922821
0.61332100629806519 0.52757269144058228 0.42214274406433105
0.6656806468963623 0.54952186346054077 0.44078406691551208
0.72184622287750244 0.57459503412246704 0.46246442198753357
0.49051252007484436 0.53999996185302734 0.40895244479179382
0.54274833202362061 0.5639108419418335 0.43035194277763367
0.59200811386108398 0.58606386184692383 0.44851246476173401
0.64323049783706665 0.60943353176116943 0.46872293949127197
0.6981695294380188 0.63706642389297485 0.49157077074050903
0.75526368618011475 0.66292017698287964 0.51335346698760986
0.81304138898849487 0.68743515014648438 0.53618764877319336
0.57408684492111206 0.64905375242233276 0.48144155740737915
0.62566119432449341 0.67162257432937622 0.50099211931228638
0.67811346054077148 0.69641637802124023 0.52083873748779297
0.73361849784851074 0.72352379560470581 0.54320454597473145
0.79246580600738525 0.7527192234992981 0.56719231605529785
0.85130065679550171 0.77994918823242188 0.59095162153244019
0.90541690587997437 0.80423688888549805 0.61444032192230225
0.66059368848800659 0.7652774453163147 0.55849367380142212
0.71316123008728027 0.78813403844833374 0.5779343843460083
0.7676965594291687 0.81399750709533691 0.59876066446304321
0.82519423961639404 0.84168487787246704 0.62177193164825439
0.8840339183807373 0.87009543180465698 0.64613932371139526
0.9365614652633667 0.89674347639083862 0.67004328966140747
0.97561943531036377 0.9217342734336853 0.69246906042098999
0.00018310546875 0 0
0.029139604419469833 0.0022144243121147156 0.0053375242277979851
0.09581611305475235 0.021739166229963303 0.02937215194106102
0.1684870570898056 0.058306045830249786 0.066491387784481049
0.24962122738361359 0.11142285168170929 0.11592888832092285
0.33474212884902954 0.16646870970726013 0.16981764137744904
0.41140758991241455 0.21449229121208191 0.2150169312953949
0.11318422108888626 0.10009846091270447 0.087336130440235138
0.19010002911090851 0.15082664787769318 0.13530482351779938
0.27013790607452393 0.20417669415473938 0.18478302657604218
0.34369280934333801 0.24834020435810089 0.22522071003913879
0.41519078612327576 0.29042661190032959 0.26560559868812561
0.4848267138004303 0.33096793293952942 0.30456596612930298
0.54946160316467285 0.36711564660072327 0.33791664242744446
0.28720507025718689 0.29309314489364624 0.24759092926979065
0.35641515254974365 0.33636409044265747 0.28748688101768494
0.42271250486373901 0.37293720245361328 0.3234599232673645
0.48267775774002075 0.40447688102722168 0.35251942276954651
0.53788876533508301 0.43158796429634094 0.37689071893692017
0.59136170148849487 0.45547381043434143 0.39863303303718567
0.64921325445175171 0.4836583137512207 0.42292770743370056
0.4122888445854187 0.44050425291061401 0.36119952797889709
0.46894955635070801 0.46985849738121033 0.3880000114440918
0.5174679160118103 0.49191099405288696 0.40552738308906555
0.57075899839401245 0.51476186513900757 0.42875510454177856
0.62384390830993652 0.53988081216812134 0.4506705105304718
0.67610043287277222 0.56071174144744873 0.46832212805747986
0.73374283313751221 0.58703452348709106 0.49096351861953735
0.49953979253768921 0.54948431253433228 0.43691763281822205
0.55229663848876953 0.57416224479675293 0.45915567874908447
0.60272800922393799 0.59695863723754883 0.47800230979919434
0.65514230728149414 0.62196624279022217 0.49936971068382263
0.71078550815582275 0.65018934011459351 0.52256554365158081
0.76928853988647461 0.67450094223022461 0.54345035552978516
0.82478779554367065 0.69906556606292725 0.56586635112762451
0.58294320106506348 0.65710413455963135 0.50876104831695557
0.6355816125869751 0.68137025833129883 0.52956581115722656
0.68990027904510498 0.70819240808486938 0.55124062299728394
0.74649763107299805 0.73668056726455688 0.57419562339782715
0.80665826797485352 0.76559555530548096 0.5988013744354248
0.86629855632781982 0.79108905792236328 0.62259340286254883
0.91083914041519165 0.81496149301528931 0.64489519596099854
0.67150235176086426 0.7740979790687561 0.58635604381561279
0.72436851263046265 0.79857414960861206 0.60683912038803101
0.77985239028930664 0.82613271474838257 0.62897861003875732
0.83863765001296997 0.85465294122695923 0.65288412570953369
0.89903169870376587 0.88249289989471436 0.67780202627182007
0.9479445219039917 0.90789425373077393 0.70173937082290649
0.97111338376998901 0.9320254921913147 0.72233408689498901
0.0014396219048649073 0.00018095129053108394 0.00096085492987185717
0.044798083603382111 0.0083892522379755974 0.020548367872834206
0.11743631958961487 0.035929512232542038 0.062622770667076111
0.19282522797584534 0.079153500497341156 0.10694221407175064
0.27235552668571472 0.13171841204166412 0.15512536466121674
0.35665249824523926 0.18736124038696289 0.20836924016475677
0.43306821584701538 0.23512959480285645 0.25343137979507446
0.13529017567634583 0.12097509205341339 0.12516553699970245
0.21332256495952606 0.17506332695484161 0.17518876492977142
0.2932792603969574 0.22447621822357178 0.22381769120693207
0.36557820439338684 0.27005574107170105 0.26457700133323669
0.43502804636955261 0.31180286407470703 0.30355563759803772
0.5015023946762085 0.34841260313987732 0.3389982283115387
0.56610584259033203 0.38309144973754883 0.37155944108963013
0.30660399794578552 0.31200593709945679 0.28504598140716553
0.37571820616722107 0.35483476519584656 0.32471948862075806
0.43800315260887146 0.38726210594177246 0.35598447918891907
0.49510589241981506 0.41793692111968994 0.38197684288024902
0.54943108558654785 0.44417759776115417 0.40628314018249512
0.60363078117370605 0.4682183563709259 0.42839699983596802
0.66216081380844116 0.4962647557258606 0.45278686285018921
0.42275664210319519 0.45102173089981079 0.39034146070480347
0.47978946566581726 0.4807266891002655 0.41685348749160767
0.53084778785705566 0.50220257043838501 0.4373508095741272
0.58142006397247314 0.52264940738677979 0.45770594477653503
0.6339753270149231 0.55037075281143188 0.47843384742736816
0.68876779079437256 0.57325601577758789 0.49796313047409058
0.74610501527786255 0.59973716735839844 0.52016013860702515
0.50969892740249634 0.55992090702056885 0.46516257524490356
0.56265723705291748 0.58395546674728394 0.48725137114524841
0.61505907773971558 0.60679548978805542 0.50877231359481812
0.66765254735946655 0.63242006301879883 0.53056830167770386
0.72302883863449097 0.66017431020736694 0.55291873216629028
0.7808566689491272 0.68549472093582153 0.57361608743667603
0.83497804403305054 0.71129715442657471 0.59652775526046753
0.5949128270149231 0.66883879899978638 0.53839462995529175
0.64758896827697754 0.69346886873245239 0.55980151891708374
0.7020261287689209 0.72110700607299805 0.5827333927154541
0.75795680284500122 0.74916666746139526 0.60641944408416748
0.81479167938232422 0.77640801668167114 0.62951880693435669
0.87737369537353516 0.80200827121734619 0.65417736768722534
0.91892772912979126 0.82651573419570923 0.67746859788894653
0.68361455202102661 0.78512883186340332 0.61621761322021484
0.7368587851524353 0.81063342094421387 0.63755542039871216
0.79211956262588501 0.83960908651351929 0.66080862283706665
0.84964281320571899 0.86801564693450928 0.68502014875411987
0.90683060884475708 0.89447236061096191 0.70962107181549072
0.9557456374168396 0.91933315992355347 0.73431754112243652
0.97424948215484619 0.94362872838973999 0.7549782395362854
0.0092130927368998528 0.00096046598628163338 0.016971183940768242
0.064062602818012238 0.017007416114211082 0.052787061780691147
0.13729526102542877 0.052997946739196777 0.098483048379421234
0.21757741272449493 0.10359441488981247 0.14811044931411743
0.29608228802680969 0.15387335419654846 0.19615255296230316
0.37822088599205017 0.20622377097606659 0.24651800096035004
0.45461270213127136 0.25366127490997314 0.29195848107337952
0.15286299586296082 0.13870246708393097 0.16240395605564117
0.23637935519218445 0.1959376186132431 0.2140239030122757
0.3148285448551178 0.24558450281620026 0.2608453631401062
0.3873080313205719 0.29028043150901794 0.30398979783058167
0.45609131455421448 0.33118823170661926 0.34259405732154846
0.51897698640823364 0.36290803551673889 0.37435570359230042
0.58373391628265381 0.39724487066268921 0.40644082427024841
0.32216799259185791 0.32721862196922302 0.32057338953018188
0.39269489049911499 0.36906379461288452 0.35918423533439636
0.45328435301780701 0.40219917893409729 0.38812547922134399
0.50815826654434204 0.42793405055999756 0.41311907768249512
0.56147772073745728 0.45229816436767578 0.43639692664146423
0.61356234550476074 0.47537145018577576 0.45784839987754822
0.67391854524612427 0.50611668825149536 0.48398053646087646
0.43186414241790771 0.45842394232749939 0.41823667287826538
0.48859789967536926 0.48873639106750488 0.44315576553344727
0.54116380214691162 0.51203799247741699 0.46581876277923584
0.591064453125 0.53437083959579468 0.48565146327018738
0.64448964595794678 0.55784249305725098 0.50699669122695923
0.69898086786270142 0.58253580331802368 0.52820146083831787
0.75725644826889038 0.61191475391387939 0.5528978705406189
0.51879441738128662 0.56845396757125854 0.49288156628608704
0.57131797075271606 0.59341412782669067 0.51440656185150146
0.62532901763916016 0.61807751655578613 0.53796815872192383
0.68071639537811279 0.6438106894493103 0.56217122077941895
0.735801100730896 0.66961795091629028 0.58439266681671143
0.7912670373916626 0.69647526741027832 0.6048998236656189
0.84559124708175659 0.72475099563598633 0.62959367036819458
0.60665911436080933 0.68024551868438721 0.5682365894317627
0.65921789407730103 0.70527416467666626 0.58991158008575439
0.71459758281707764 0.73265159130096436 0.61447727680206299
0.77133822441101074 0.76046454906463623 0.6393437385559082
0.82610881328582764 0.78711181879043579 0.66186630725860596
0.88427013158798218 0.81352001428604126 0.6855926513671875
0.92557072639465332 0.84031474590301514 0.70984601974487305
0.69687116146087646 0.79680490493774414 0.64700508117675781
0.75028800964355469 0.8224942684173584 0.66926819086074829
0.80576825141906738 0.85108333826065063 0.69350945949554443
0.86255890130996704 0.87959015369415283 0.71830141544342041
0.91677749156951904 0.90598893165588379 0.74232929944992065
0.96115082502365112 0.93153595924377441 0.76637029647827148
0.98034322261810303 0.95687049627304077 0.78777217864990234
0.027295146137475967 0.019166804850101471 0.055257745087146759
0.08585435152053833 0.035575326532125473 0.093761637806892395
0.16040705144405365 0.076020561158657074 0.13943131268024445
0.24027962982654572 0.12537829577922821 0.1882769763469696
0.31938204169273376 0.17495192587375641 0.23641884326934814
0.39467257261276245 0.22076284885406494 0.28072431683540344
0.4671424925327301 0.26513120532035828 0.32329168915748596
0.1786506325006485 0.16481731832027435 0.20337982475757599
0.25905328989028931 0.21458569169044495 0.25569626688957214
0.33449530601501465 0.26547211408615112 0.30142858624458313
0.40376788377761841 0.30629631876945496 0.33917522430419922
0.47129347920417786 0.34362092614173889 0.37535154819488525
0.53465372323989868 0.37569683790206909 0.40697997808456421
0.59462302923202515 0.40566360950469971 0.43613862991333008
0.34077173471450806 0.3440188467502594 0.35640636086463928
0.40657061338424683 0.38210844993591309 0.39106285572052002
0.46667748689651489 0.41454872488975525 0.42111366987228394
0.51854932308197021 0.43988373875617981 0.44255250692367554
0.5733073353767395 0.46499156951904297 0.4660395085811615
0.62903362512588501 0.48901119828224182 0.49041882157325745
0.68379491567611694 0.51376307010650635 0.51347130537033081
0.44612252712249756 0.47050195932388306 0.45211148262023926
0.50007051229476929 0.49909669160842896 0.47348871827125549
0.55215716361999512 0.52149438858032227 0.49519610404968262
0.6024097204208374 0.54482084512710571 0.51523882150650024
0.65574771165847778 0.56923782825469971 0.53725457191467285
0.71275210380554199 0.59559953212738037 0.56096947193145752
0.77051126956939697 0.62333816289901733 0.58627849817276001
0.52978456020355225 0.57981383800506592 0.52407228946685791
0.58208435773849487 0.6047893762588501 0.54476135969161987
0.63611704111099243 0.62994766235351562 0.56795620918273926
0.6943972110748291 0.65542668104171753 0.59485447406768799
0.7465202808380127 0.681529700756073 0.61583465337753296
0.80439555644989014 0.7094845175743103 0.63776570558547974
0.8617895245552063 0.73771953582763672 0.66426247358322144
0.61859089136123657 0.69255244731903076 0.59911835193634033
0.67129409313201904 0.71697592735290527 0.62135320901870728
0.72727072238922119 0.74390435218811035 0.64639222621917725
0.78549551963806152 0.77231085300445557 0.67255455255508423
0.84074860811233521 0.79980349540710449 0.69528234004974365
0.899555504322052 0.82592988014221191 0.71922910213470459
0.93896484375 0.85223805904388428 0.74375045299530029
0.71010816097259521 0.80871057510375977 0.6788603663444519
0.76387530565261841 0.83378279209136963 0.70216113328933716
0.81998372077941895 0.86137932538986206 0.72722655534744263
0.87803345918655396 0.89066064357757568 0.75240296125411987
0.93316280841827393 0.91837382316589355 0.77641791105270386
0.9728320837020874 0.94344699382781982 0.79959112405776978
0.98426753282546997 0.96825146675109863 0.82033348083496094
0.036795895546674728 0.024202175438404083 0.092335566878318787
0.10380858182907104 0.05368969589471817 0.13227526843547821
0.17978771030902863 0.091657720506191254 0.17728006839752197
0.25945878028869629 0.14155556261539459 0.22573387622833252
0.33902862668037415 0.19344183802604675 0.27427265048027039
0.40769726037979126 0.23457011580467224 0.31360185146331787
0.46592524647712708 0.26669999957084656 0.34484827518463135
0.20088009536266327 0.18532580137252808 0.24595032632350922
0.27679798007011414 0.23699057102203369 0.29277816414833069
0.34908071160316467 0.27969306707382202 0.3352159857749939
0.41659936308860779 0.31639665365219116 0.3703991174697876
0.48852285742759705 0.35927978157997131 0.40990576148033142
0.54576843976974487 0.38677260279655457 0.4370022714138031
0.59247821569442749 0.40574866533279419 0.45603451132774353
0.35746023058891296 0.36207860708236694 0.39281222224235535
0.41810035705566406 0.39648941159248352 0.42292022705078125
0.47814169526100159 0.42733046412467957 0.45305463671684265
0.5300634503364563 0.44760307669639587 0.47286641597747803
0.58822023868560791 0.47661498188972473 0.49888741970062256
0.64299577474594116 0.50199514627456665 0.52222269773483276
0.68949484825134277 0.51975911855697632 0.54000377655029297
0.46152815222740173 0.48771768808364868 0.48706904053688049
0.5116729736328125 0.51089227199554443 0.50530070066452026
0.56584280729293823 0.53448408842086792 0.52933591604232788
0.61681640148162842 0.55581361055374146 0.54888510704040527
0.67067956924438477 0.58183580636978149 0.5711740255355835
0.72776848077774048 0.6092681884765625 0.59461426734924316
0.78285044431686401 0.63316148519515991 0.61830705404281616
0.54373633861541748 0.59580063819885254 0.55817943811416626
0.59629732370376587 0.61857563257217407 0.57929098606109619
0.6489102840423584 0.64294809103012085 0.60119897127151489
0.70544028282165527 0.6683419942855835 0.6261742115020752
0.7606503963470459 0.69513046741485596 0.64929449558258057
0.81889820098876953 0.72240132093429565 0.6717904806137085
0.87682861089706421 0.74878942966461182 0.69845885038375854
0.63159370422363281 0.70652741193771362 0.63261133432388306
0.68471759557723999 0.73031032085418701 0.65556377172470093
0.73934668302536011 0.75662720203399658 0.67969429492950439
0.79639768600463867 0.78565305471420288 0.70498806238174438
0.85354852676391602 0.81409764289855957 0.7285841703414917
0.90903878211975098 0.83853203058242798 0.7528194785118103
0.94522684812545776 0.86278653144836426 0.77664387226104736
0.72214853763580322 0.82125937938690186 0.71178078651428223
0.77632147073745728 0.84597307443618774 0.73618334531784058
0.832192063331604 0.87282240390777588 0.76158386468887329
0.89032506942749023 0.90273416042327881 0.78613728284835815
0.94814664125442505 0.93094509840011597 0.81029653549194336
0.98066544532775879 0.95479279756546021 0.8324354887008667
0.98793619871139526 0.97661232948303223 0.8518785834312439
