assets/lut/alexjordan operation yellow.cube
# Created by: G'MIC (https://gmic.eu)
TITLE "operation_yellow"
# LUT size
LUT_3D_SIZE 7
# Data domain
DOMAIN_MIN 0.0 0.0 0.0
DOMAIN_MAX 1.0 1.0 1.0
# LUT data points
0.031494557857513428 0.031494949012994766 0.027344124391674995
0.11065208911895752 0.054313316941261292 0.045137278735637665
0.22651880979537964 0.066400669515132904 0.055867601186037064
0.35041457414627075 0.076289847493171692 0.06091797724366188
0.49340716004371643 0.082295164465904236 0.059200767427682877
0.65479171276092529 0.085906863212585449 0.054094817489385605
0.82048153877258301 0.081985294818878174 0.047075308859348297
0.086147859692573547 0.17088279128074646 0.069275863468647003
0.2286502867937088 0.17640657722949982 0.058406546711921692
0.37636557221412659 0.18217886984348297 0.039084475487470627
0.52451634407043457 0.18775872886180878 0.024605963379144669
0.65862029790878296 0.19749833643436432 0.024019608274102211
0.80207496881484985 0.20578759908676147 0.020995974540710449
0.95949643850326538 0.20518051087856293 0.017402006313204765
0.080621860921382904 0.33556565642356873 0.047389581799507141
0.26581928133964539 0.32836064696311951 0.030377691611647606
0.44746571779251099 0.32348775863647461 0.0092256283387541771
0.60377472639083862 0.32673853635787964 0.0020774691365659237
0.73639190196990967 0.33588078618049622 0.0037184322718530893
0.86737573146820068 0.34731552004814148 0.0051580094732344151
0.99293351173400879 0.35283365845680237 0.0087094623595476151
0.090701654553413391 0.49383059144020081 0.036891862750053406
0.29962974786758423 0.47899845242500305 0.021655227988958359
0.49778831005096436 0.46755921840667725 0.012571746483445168
0.64909017086029053 0.47167313098907471 0.0068896724842488766
0.77933824062347412 0.48202329874038696 0.0090179592370986938
0.90717756748199463 0.49344629049301147 0.01440271083265543
0.99968242645263672 0.5013958215713501 0.023805206641554832
0.14750905334949493 0.63577914237976074 0.059822231531143188
0.36372125148773193 0.61902648210525513 0.042958173900842667
0.55580818653106689 0.60877257585525513 0.034704815596342087
0.70133101940155029 0.61357671022415161 0.032977309077978134
0.83150750398635864 0.62411940097808838 0.039113692939281464
0.95392292737960815 0.63383889198303223 0.049410577863454819
1 0.64187014102935791 0.060515712946653366
0.21568447351455688 0.77335911989212036 0.095022104680538177
0.43817642331123352 0.75488740205764771 0.078958146274089813
0.62679606676101685 0.74556094408035278 0.071215353906154633
0.77101939916610718 0.75103676319122314 0.073128491640090942
0.90385550260543823 0.7614322304725647 0.081016510725021362
0.99685662984848022 0.77107894420623779 0.091874368488788605
1 0.78043597936630249 0.10266800224781036
0.27207911014556885 0.91163986921310425 0.13455283641815186
0.49979507923126221 0.8918108344078064 0.11978824436664581
0.68862020969390869 0.88227313756942749 0.11309670656919479
0.8317335844039917 0.88737040758132935 0.11705143004655838
0.95171487331390381 0.89714556932449341 0.12535971403121948
1 0.90812146663665771 0.13533216714859009
0.99993431568145752 0.91904175281524658 0.14508341252803802
0.040479980409145355 0.043979957699775696 0.061292700469493866
0.13312128186225891 0.060253728181123734 0.084164470434188843
0.2561345100402832 0.069832161068916321 0.10386376827955246
0.39835774898529053 0.073656268417835236 0.1188066229224205
0.54528254270553589 0.078083083033561707 0.1267891526222229
0.70329242944717407 0.081767484545707703 0.12794458866119385
0.86255431175231934 0.080841392278671265 0.12625178694725037
0.087952904403209686 0.18466688692569733 0.12388477474451065
0.23607897758483887 0.1868090033531189 0.12097543478012085
0.39338943362236023 0.18792228400707245 0.11191900074481964
0.54482340812683105 0.1911398321390152 0.10755589604377747
0.68089753389358521 0.19917623698711395 0.1087244376540184
0.82109040021896362 0.20842427015304565 0.10793859511613846
0.96666008234024048 0.2125542014837265 0.10792134702205658
0.081832200288772583 0.34599742293357849 0.13342887163162231
0.27170765399932861 0.33749416470527649 0.11514090746641159
0.45523527264595032 0.33118173480033875 0.09704253077507019
0.60595196485519409 0.33519595861434937 0.088278345763683319
0.73784822225570679 0.34290224313735962 0.091559328138828278
0.86652052402496338 0.35452136397361755 0.094260752201080322
0.98897314071655273 0.36298349499702454 0.099513381719589233
0.088265664875507355 0.50247287750244141 0.13892553746700287
0.30371236801147461 0.48590278625488281 0.11930739134550095
0.49978604912757874 0.47547301650047302 0.10624181479215622
0.64835447072982788 0.47977966070175171 0.10214348882436752
0.77761578559875488 0.48935613036155701 0.10817816108465195
0.90860176086425781 0.49974456429481506 0.11551446467638016
0.99979120492935181 0.50766181945800781 0.12414227426052094
0.14203357696533203 0.64435857534408569 0.16374826431274414
0.36608976125717163 0.6244884729385376 0.14555928111076355
0.55961054563522339 0.61393290758132935 0.13704897463321686
0.70285570621490479 0.61946219205856323 0.13856978714466095
0.83427315950393677 0.62960970401763916 0.14780257642269135
0.96332228183746338 0.63860571384429932 0.15738523006439209
1 0.64705085754394531 0.16519235074520111
0.21660126745700836 0.77955085039138794 0.20095863938331604
0.44113877415657043 0.75977033376693726 0.18482580780982971
0.62884777784347534 0.75038665533065796 0.17810757458209991
0.76974302530288696 0.75646364688873291 0.18240959942340851
0.90440398454666138 0.76626789569854736 0.19147375226020813
0.9986158013343811 0.77585291862487793 0.20053979754447937
1 0.7855345606803894 0.20807339251041412
0.28230088949203491 0.91560053825378418 0.24144233763217926
0.5063977837562561 0.8967357873916626 0.22775901854038239
0.69348549842834473 0.88766992092132568 0.22191281616687775
0.83734208345413208 0.89243173599243164 0.22665287554264069
0.96386003494262695 0.90156012773513794 0.23492343723773956
1 0.91239064931869507 0.24287013709545135
1 0.92373538017272949 0.24979832768440247
0.049338754266500473 0.055613365024328232 0.093403279781341553
0.14614522457122803 0.070587396621704102 0.12253392487764359
0.26999261975288391 0.077972009778022766 0.1495397537946701
0.42077496647834778 0.077664606273174286 0.17431920766830444
0.58104020357131958 0.07660134881734848 0.1937919408082962
0.73799943923950195 0.078089937567710876 0.20369915664196014
0.89030545949935913 0.079308152198791504 0.20780953764915466
0.088447123765945435 0.19282254576683044 0.19277207553386688
0.24573779106140137 0.19305664300918579 0.19307748973369598
0.4052618145942688 0.1931823343038559 0.18969234824180603
0.55484628677368164 0.19576452672481537 0.19302217662334442
0.70156335830688477 0.19919587671756744 0.1991846114397049
0.84248828887939453 0.20746102929115295 0.20166076719760895
0.98172509670257568 0.21277336776256561 0.20481574535369873
0.083173178136348724 0.35204863548278809 0.22617389261722565
0.28088408708572388 0.34184372425079346 0.2087634801864624
0.46311166882514954 0.33625349402427673 0.1945989727973938
0.61097913980484009 0.34067162871360779 0.19134339690208435
0.75178772211074829 0.34625166654586792 0.19582134485244751
0.88424122333526611 0.35532185435295105 0.19976823031902313
0.99622684717178345 0.36327329277992249 0.20559090375900269
0.085047915577888489 0.50909680128097534 0.24357500672340393
0.31240221858024597 0.48911425471305847 0.2231711745262146
0.50740110874176025 0.4799157977104187 0.21023489534854889
0.65351188182830811 0.48640698194503784 0.20928384363651276
0.78906857967376709 0.49455121159553528 0.21533581614494324
0.92039221525192261 0.50305527448654175 0.22231249511241913
1 0.51095831394195557 0.22929826378822327
0.13980714976787567 0.65010374784469604 0.27129468321800232
0.36835184693336487 0.62892663478851318 0.25304830074310303
0.56288546323776245 0.61912745237350464 0.24374772608280182
0.70832669734954834 0.62540262937545776 0.24647939205169678
0.84325289726257324 0.63473087549209595 0.25484851002693176
0.97128373384475708 0.64341837167739868 0.26352372765541077
1 0.65201658010482788 0.26918557286262512
0.21635983884334564 0.7841334342956543 0.30930757522583008
0.44024083018302917 0.76449167728424072 0.29301881790161133
0.62883257865905762 0.75552749633789062 0.28538021445274353
0.77178770303726196 0.76136821508407593 0.28982329368591309
0.90740847587585449 0.7710801362991333 0.29845499992370605
0.99950104951858521 0.78064268827438354 0.30647575855255127
1 0.79066115617752075 0.31147670745849609
0.28527897596359253 0.91923815011978149 0.34961673617362976
0.50869464874267578 0.90084344148635864 0.33545944094657898
0.69684207439422607 0.89210230112075806 0.32860982418060303
0.84149330854415894 0.89710086584091187 0.33311614394187927
0.96994674205780029 0.90636533498764038 0.34089642763137817
1 0.91726255416870117 0.34755110740661621
1 0.92875403165817261 0.3521672785282135
0.06317552924156189 0.065621361136436462 0.12597310543060303
0.16534695029258728 0.078214533627033234 0.17012560367584229
0.29602164030075073 0.081093251705169678 0.20760606229305267
0.44585505127906799 0.080276459455490112 0.23940496146678925
0.60184687376022339 0.079160206019878387 0.26440221071243286
0.74873894453048706 0.083021365106105804 0.28090688586235046
0.8935578465461731 0.085604347288608551 0.29109892249107361
0.095483951270580292 0.19953733682632446 0.26147156953811646
0.25741410255432129 0.19782347977161407 0.26751619577407837
0.42376211285591125 0.19497030973434448 0.2734675407409668
0.57161974906921387 0.19829398393630981 0.28020524978637695
0.71453392505645752 0.20312994718551636 0.2873958945274353
0.846413254737854 0.21316911280155182 0.29306071996688843
0.97446638345718384 0.22095993161201477 0.29933515191078186
0.086883127689361572 0.35776904225349426 0.31420835852622986
0.28734475374221802 0.34758689999580383 0.2972741425037384
0.47038444876670837 0.34116297960281372 0.28682467341423035
0.61953246593475342 0.344891756772995 0.28767505288124084
0.76042211055755615 0.35206836462020874 0.29189354181289673
0.89039832353591919 0.36033907532691956 0.29868978261947632
0.99603140354156494 0.36838474869728088 0.30626314878463745
0.099989376962184906 0.51183068752288818 0.34062805771827698
0.32222574949264526 0.49389439821243286 0.3195805549621582
0.5141022801399231 0.48578652739524841 0.30739563703536987
0.66019809246063232 0.49292832612991333 0.30839419364929199
0.79746860265731812 0.50087416172027588 0.31320229172706604
0.92497521638870239 0.50859665870666504 0.32080501317977905
0.99999356269836426 0.51617199182510376 0.32848939299583435
0.15205395221710205 0.65297925472259521 0.37202787399291992
0.37762221693992615 0.63307005167007446 0.35335561633110046
0.57076036930084229 0.6244281530380249 0.3434872031211853
0.71660739183425903 0.63118189573287964 0.34492790699005127
0.85068827867507935 0.64034098386764526 0.35103040933609009
0.97544026374816895 0.64958637952804565 0.36029675602912903
1 0.65841555595397949 0.36593076586723328
0.22325418889522552 0.78805804252624512 0.41085797548294067
0.44647681713104248 0.76916718482971191 0.39411395788192749
0.63649183511734009 0.76044130325317383 0.38472786545753479
0.78268015384674072 0.76568788290023804 0.38613396883010864
0.9136345386505127 0.77580362558364868 0.39381065964698792
0.99975985288619995 0.78660887479782104 0.40301105380058289
1 0.79693758487701416 0.40782761573791504
0.29131495952606201 0.92360067367553711 0.45114436745643616
0.51416319608688354 0.90582036972045898 0.43631309270858765
0.70419645309448242 0.8973926305770874 0.42772758007049561
0.85285621881484985 0.9022098183631897 0.43018442392349243
0.9761541485786438 0.91220605373382568 0.43784415721893311
1 0.92359417676925659 0.44461125135421753
1 0.9349396824836731 0.44863781332969666
0.071376502513885498 0.075131572782993317 0.17018704116344452
0.18831299245357513 0.082103997468948364 0.22126491367816925
0.32909545302391052 0.082685284316539764 0.26902788877487183
0.47478923201560974 0.083519086241722107 0.30662792921066284
0.61911529302597046 0.086076579988002777 0.33504226803779602
0.76321154832839966 0.089984804391860962 0.35886526107788086
0.90356218814849854 0.093034394085407257 0.37442973256111145
0.092576317489147186 0.21037384867668152 0.3292173445224762
0.26555007696151733 0.20480410754680634 0.33978110551834106
0.43969631195068359 0.20024971663951874 0.35130459070205688
0.58854407072067261 0.20403873920440674 0.3630317747592926
0.71733325719833374 0.21413499116897583 0.36908072233200073
0.84664338827133179 0.22352243959903717 0.37910741567611694
0.96873509883880615 0.23148825764656067 0.38834664225578308
0.079634331166744232 0.36947181820869446 0.39440900087356567
0.2884674072265625 0.35614725947380066 0.38107085227966309
0.48139193654060364 0.34749487042427063 0.37280029058456421
0.63051486015319824 0.35166597366333008 0.37478730082511902
0.76167631149291992 0.36198657751083374 0.37814739346504211
0.88613706827163696 0.36976724863052368 0.38786402344703674
0.9902489185333252 0.37798020243644714 0.39662477374076843
0.10746591538190842 0.51878541707992554 0.42810901999473572
0.32630178332328796 0.50227266550064087 0.40721327066421509
0.52097362279891968 0.49283009767532349 0.39504477381706238
0.66881179809570312 0.49787425994873047 0.39572328329086304
0.80125635862350464 0.50733941793441772 0.40093913674354553
0.9198378324508667 0.51617956161499023 0.40889891982078552
0.99823808670043945 0.52453261613845825 0.41734063625335693
0.16654227674007416 0.65760552883148193 0.46205037832260132
0.38843783736228943 0.63900405168533325 0.44317159056663513
0.58136790990829468 0.62954676151275635 0.43219545483589172
0.72638833522796631 0.63563400506973267 0.43155276775360107
0.85790050029754639 0.64606016874313354 0.43755647540092468
0.97201865911483765 0.65612024068832397 0.44631180167198181
1 0.66549646854400635 0.4535747766494751
0.23762910068035126 0.79276818037033081 0.50137597322463989
0.4583008885383606 0.77477049827575684 0.48472711443901062
0.64641678333282471 0.76647102832794189 0.47428473830223083
0.79182636737823486 0.77181023359298706 0.47368016839027405
0.91984111070632935 0.78237992525100708 0.48048675060272217
0.99972307682037354 0.79309791326522827 0.48975327610969543
1 0.80354964733123779 0.49622085690498352
0.30348041653633118 0.92907917499542236 0.54126590490341187
0.52286410331726074 0.91257345676422119 0.52716755867004395
0.70975279808044434 0.90525901317596436 0.51819592714309692
0.85829818248748779 0.9097856879234314 0.51903200149536133
0.97859096527099609 0.91966307163238525 0.52632302045822144
1 0.93064403533935547 0.53354454040527344
1 0.9415733814239502 0.53840965032577515
0.072252087295055389 0.086834147572517395 0.22176213562488556
0.19836917519569397 0.090825192630290985 0.27548134326934814
0.34320250153541565 0.089913070201873779 0.32752466201782227
0.48360371589660645 0.091667383909225464 0.36684828996658325
0.64326047897338867 0.089671097695827484 0.4076838493347168
0.79858964681625366 0.091613337397575378 0.43893048167228699
0.93527686595916748 0.095711678266525269 0.45796647667884827
0.093122817575931549 0.22106301784515381 0.39993122220039368
0.27574849128723145 0.21118633449077606 0.41513511538505554
0.44787085056304932 0.20787347853183746 0.42583271861076355
0.5944480299949646 0.2113301157951355 0.43992975354194641
0.73242557048797607 0.21816055476665497 0.4537239670753479
0.86638516187667847 0.22834016382694244 0.46466588973999023
0.9834057092666626 0.23838745057582855 0.47296810150146484
0.079695455729961395 0.37863144278526306 0.47924301028251648
0.29505294561386108 0.36209198832511902 0.46494212746620178
0.49126487970352173 0.35224956274032593 0.45583638548851013
0.6420174241065979 0.35584500432014465 0.46202674508094788
0.77542585134506226 0.36498594284057617 0.4686962366104126
0.89691662788391113 0.37590476870536804 0.4740452766418457
0.99289047718048096 0.38618761301040649 0.47992205619812012
0.11235227435827255 0.52645677328109741 0.51109212636947632
0.3341408371925354 0.50849062204360962 0.49170738458633423
0.53145438432693481 0.49788057804107666 0.48014208674430847
0.67816793918609619 0.50299072265625 0.4807637631893158
0.81231570243835449 0.51214396953582764 0.48728674650192261
0.92602086067199707 0.52205801010131836 0.49369841814041138
0.99715059995651245 0.53166067600250244 0.50088727474212646
0.17830948531627655 0.66372585296630859 0.54452639818191528
0.39939931035041809 0.64531469345092773 0.5265088677406311
0.59146112203598022 0.63592147827148438 0.51589035987854004
0.73846304416656494 0.64180839061737061 0.51454752683639526
0.87291479110717773 0.65176248550415039 0.52093160152435303
0.98001718521118164 0.6615145206451416 0.52942544221878052
1 0.67145061492919922 0.53745812177658081
0.2510802149772644 0.79867196083068848 0.58445465564727783
0.47153744101524353 0.7810741662979126 0.56772387027740479
0.65783298015594482 0.77335327863693237 0.5572773814201355
0.80151271820068359 0.77940791845321655 0.5567469596862793
0.93006676435470581 0.7893567681312561 0.56320822238922119
1 0.79901063442230225 0.57269203662872314
1 0.80932378768920898 0.58057683706283569
0.31399416923522949 0.93545854091644287 0.624847412109375
0.53436917066574097 0.91899943351745605 0.6099092960357666
0.71830111742019653 0.91253507137298584 0.60083603858947754
0.86048471927642822 0.91832077503204346 0.60229647159576416
0.97893887758255005 0.92728030681610107 0.60885429382324219
1 0.93729352951049805 0.61701208353042603
1 0.94787085056304932 0.62375307083129883
0.091408886015415192 0.09305533766746521 0.27242273092269897
0.21781501173973083 0.097575351595878601 0.33407101035118103
0.37192413210868835 0.09074479341506958 0.39819580316543579
0.52127921581268311 0.087709240615367889 0.44404688477516174
0.6794663667678833 0.085095316171646118 0.48495855927467346
0.83371001482009888 0.088730260729789734 0.51659512519836426
0.96564775705337524 0.094966232776641846 0.53724175691604614
0.10028723627328873 0.22871826589107513 0.47795331478118896
0.28465887904167175 0.22051623463630676 0.48868641257286072
0.46882733702659607 0.21053577959537506 0.51150357723236084
0.61512047052383423 0.21229109168052673 0.52422088384628296
0.75886625051498413 0.21564553678035736 0.54043245315551758
0.89304083585739136 0.22816212475299835 0.54768896102905273
0.99626809358596802 0.24062338471412659 0.55275410413742065
0.082813024520874023 0.38702279329299927 0.56191414594650269
0.30346426367759705 0.36882320046424866 0.55036407709121704
0.50029271841049194 0.35808905959129333 0.54473263025283813
0.6544421911239624 0.35942491888999939 0.5502963662147522
0.79455763101577759 0.36597338318824768 0.55736911296844482
0.91778421401977539 0.3778495192527771 0.55872595310211182
0.99956649541854858 0.39012840390205383 0.56030762195587158
0.12099029123783112 0.53248637914657593 0.59058237075805664
0.34196394681930542 0.51447117328643799 0.57668697834014893
0.53673607110977173 0.50479453802108765 0.5676378607749939
0.68465971946716309 0.51065069437026978 0.56578314304351807
0.82647705078125 0.51622295379638672 0.57343524694442749
0.9401436448097229 0.52518433332443237 0.57906848192214966
1 0.53457969427108765 0.58524805307388306
0.18848562240600586 0.66913092136383057 0.62336140871047974
0.4076535701751709 0.6518789529800415 0.6095384955406189
0.59959220886230469 0.64271992444992065 0.60073459148406982
0.74941855669021606 0.648723304271698 0.59890067577362061
0.88255441188812256 0.65711992979049683 0.6050649881362915
0.97918403148651123 0.66584181785583496 0.61345487833023071
1 0.67507034540176392 0.62155669927597046
0.25869494676589966 0.80450916290283203 0.66342365741729736
0.47954931855201721 0.78781747817993164 0.64856809377670288
0.66733157634735107 0.78047448396682739 0.63919931650161743
0.81519472599029541 0.78612637519836426 0.63986170291900635
0.94150692224502563 0.79484528303146362 0.64621222019195557
0.99978220462799072 0.80405396223068237 0.6550976037979126
1 0.81382590532302856 0.66363728046417236
0.31546476483345032 0.9420960545539856 0.70462203025817871
0.53939104080200195 0.92557430267333984 0.68880397081375122
0.72665786743164062 0.91845184564590454 0.67894822359085083
0.86659592390060425 0.92516660690307617 0.6835370659828186
0.9873354434967041 0.93301784992218018 0.6903616189956665
1 0.94286805391311646 0.69874721765518188
0.99953991174697876 0.95308464765548706 0.70644074678421021
