assets/lut/alexjordan memories.cube
# Created by: G'MIC (https://gmic.eu)
TITLE "memories"
# LUT size
LUT_3D_SIZE 5
# Data domain
DOMAIN_MIN 0.0 0.0 0.0
DOMAIN_MAX 1.0 1.0 1.0
# LUT data points
0.12094228714704514 0.17793719470500946 0.2040088027715683
0.1838289350271225 0.2190251499414444 0.23839710652828217
0.25188252329826355 0.25655201077461243 0.27176579833030701
0.36487448215484619 0.28349840641021729 0.30308759212493896
0.53159552812576294 0.29243481159210205 0.32567781209945679
0.26092177629470825 0.33360555768013 0.31868219375610352
0.34721314907073975 0.36573031544685364 0.34311434626579285
0.48446342349052429 0.38539481163024902 0.35344806313514709
0.67327231168746948 0.39149633049964905 0.35255062580108643
0.89385497570037842 0.38624578714370728 0.34497550129890442
0.24533967673778534 0.53995019197463989 0.36519640684127808
0.40684282779693604 0.55278986692428589 0.36749309301376343
0.59796571731567383 0.55879265069961548 0.35333475470542908
0.81059181690216064 0.55939739942550659 0.34105393290519714
0.98829883337020874 0.55449217557907104 0.3385862410068512
0.22306227684020996 0.75373744964599609 0.3692719042301178
0.42708125710487366 0.75302332639694214 0.36617714166641235
0.63912868499755859 0.75206881761550903 0.35209518671035767
0.84440028667449951 0.75235611200332642 0.35368657112121582
0.99997901916503906 0.75065714120864868 0.36660286784172058
0.25767737627029419 0.94742578268051147 0.39451891183853149
0.4767378568649292 0.94002842903137207 0.41391924023628235
0.7013733983039856 0.93327236175537109 0.43480446934700012
0.89411461353302002 0.93088579177856445 0.51146310567855835
0.99960035085678101 0.93407279253005981 0.64018303155899048
0.14287988841533661 0.19325743615627289 0.22154501080513
0.20528009533882141 0.23133997619152069 0.25576415657997131
0.2794182300567627 0.26813006401062012 0.2943478524684906
0.39942148327827454 0.29146501421928406 0.33189159631729126
0.58044719696044922 0.29358354210853577 0.35977676510810852
0.26345944404602051 0.34977021813392639 0.35093355178833008
0.36009234189987183 0.37878698110580444 0.38161900639533997
0.50747859477996826 0.39550679922103882 0.39974609017372131
0.7033500075340271 0.39928635954856873 0.40501806139945984
0.91269099712371826 0.39548364281654358 0.40344437956809998
0.25497645139694214 0.55313801765441895 0.42539045214653015
0.41227483749389648 0.56634831428527832 0.42938008904457092
0.6104850172996521 0.5693124532699585 0.42168420553207397
0.82941490411758423 0.5690385103225708 0.41481435298919678
0.99981582164764404 0.56509333848953247 0.40844827890396118
0.23819153010845184 0.76380240917205811 0.44180116057395935
0.42853692173957825 0.76555848121643066 0.43788900971412659
0.64202773571014404 0.76330369710922241 0.43022483587265015
0.8556864857673645 0.76315069198608398 0.43789446353912354
1 0.76181352138519287 0.44453957676887512
0.27756640315055847 0.953826904296875 0.47549384832382202
0.48824781179428101 0.94859784841537476 0.48773977160453796
0.70850634574890137 0.94221031665802002 0.51140660047531128
0.91998016834259033 0.93250423669815063 0.59759724140167236
1 0.94138103723526001 0.69607663154602051
0.16394110023975372 0.20827651023864746 0.23922961950302124
0.22185082733631134 0.24639502167701721 0.27476316690444946
0.3040735125541687 0.2801213264465332 0.31740203499794006
0.43723571300506592 0.29531386494636536 0.36710205674171448
0.61458379030227661 0.30110308527946472 0.3967946469783783
0.27656280994415283 0.36361047625541687 0.38879853487014771
0.37821382284164429 0.39185523986816406 0.42693483829498291
0.52877122163772583 0.40641218423843384 0.45258671045303345
0.72309750318527222 0.40748611092567444 0.46614953875541687
0.92697608470916748 0.40744504332542419 0.46887406706809998
0.25873169302940369 0.56592154502868652 0.49545577168464661
0.42363432049751282 0.57753872871398926 0.49975165724754333
0.62255388498306274 0.58022958040237427 0.4979669451713562
0.83634477853775024 0.579692542552948 0.49134990572929382
0.99996554851531982 0.57709997892379761 0.48995977640151978
0.24833837151527405 0.7737613320350647 0.52034455537796021
0.43874463438987732 0.77702087163925171 0.51528489589691162
0.65673184394836426 0.77216392755508423 0.51312923431396484
0.87442845106124878 0.77139115333557129 0.51002591848373413
1 0.77427446842193604 0.53295022249221802
0.29501420259475708 0.96115195751190186 0.55673778057098389
0.50305616855621338 0.95903801918029785 0.56136953830718994
0.74040395021438599 0.94471240043640137 0.59887498617172241
0.93821126222610474 0.94156539440155029 0.6717039942741394
1 0.95932590961456299 0.77271372079849243
0.17798826098442078 0.22279521822929382 0.2579839825630188
0.24095684289932251 0.2594437301158905 0.29478812217712402
0.33208182454109192 0.28987917304039001 0.35003626346588135
0.47469949722290039 0.30196428298950195 0.40662407875061035
0.68806225061416626 0.29679355025291443 0.44910013675689697
0.27656310796737671 0.37847080826759338 0.43176785111427307
0.38920378684997559 0.40233951807022095 0.47996222972869873
0.55056637525558472 0.41492176055908203 0.51252537965774536
0.75664079189300537 0.41223257780075073 0.52953034639358521
0.97667425870895386 0.40590012073516846 0.53989428281784058
0.26027819514274597 0.57879173755645752 0.55965793132781982
0.43146556615829468 0.58766919374465942 0.57075786590576172
0.63453739881515503 0.58920514583587646 0.57375526428222656
0.84865790605545044 0.58562594652175903 0.56878674030303955
0.99950683116912842 0.58586925268173218 0.56404131650924683
0.25479257106781006 0.78378152847290039 0.59827780723571777
0.45901712775230408 0.78412878513336182 0.59543198347091675
0.6702420711517334 0.78124219179153442 0.59316664934158325
0.87953448295593262 0.78123068809509277 0.59061181545257568
1 0.78706222772598267 0.61243504285812378
0.31902286410331726 0.96507996320724487 0.63599658012390137
0.53865492343902588 0.96288710832595825 0.63442146778106689
0.76483523845672607 0.95258826017379761 0.66677075624465942
0.95681238174438477 0.95025169849395752 0.73774516582489014
1 0.97153270244598389 0.83307898044586182
0.19397255778312683 0.23718100786209106 0.27499222755432129
0.25996795296669006 0.27394235134124756 0.31979718804359436
0.36859127879142761 0.29533001780509949 0.39254108071327209
0.51839244365692139 0.30739045143127441 0.45009607076644897
0.72966623306274414 0.29581263661384583 0.50256228446960449
0.28838416934013367 0.39274567365646362 0.48076680302619934
0.40677627921104431 0.41388913989067078 0.53550177812576294
0.57560688257217407 0.42184227705001831 0.57758694887161255
0.78521460294723511 0.42186674475669861 0.59365904331207275
0.99462014436721802 0.41149818897247314 0.61543530225753784
0.26457688212394714 0.59210765361785889 0.63217067718505859
0.44524902105331421 0.59913665056228638 0.6389387845993042
0.64748638868331909 0.60008257627487183 0.64429241418838501
0.8675803542137146 0.59732955694198608 0.64174014329910278
1 0.59775316715240479 0.64739280939102173
0.26099091768264771 0.79323327541351318 0.67751616239547729
0.47566398978233337 0.79255568981170654 0.67075204849243164
0.68015462160110474 0.79345041513442993 0.6697651743888855
0.89431178569793701 0.79272294044494629 0.66633844375610352
1 0.80216091871261597 0.69938045740127563
0.34701493382453918 0.96609216928482056 0.71796965599060059
0.58379393815994263 0.96265894174575806 0.70823228359222412
0.81127738952636719 0.95342516899108887 0.74027156829833984
0.98174488544464111 0.95717424154281616 0.79868596792221069
0.99960756301879883 0.98601651191711426 0.87966978549957275
