assets/lut/alexjordan memories.cube
# Created by: G'MIC (https://gmic.eu)
TITLE "memories"
# LUT size
LUT_3D_SIZE 13
# Data domain
DOMAIN_MIN 0.0 0.0 0.0
DOMAIN_MAX 1.0 1.0 1.0
# LUT data points
0.12094228714704514 0.17793719470500946 0.2040088027715683
0.14369700849056244 0.19132302701473236 0.21518827974796295
0.16411341726779938 0.20460176467895508 0.22731272876262665
0.1838289350271225 0.2190251499414444 0.23839710652828217
0.20564059913158417 0.23159454762935638 0.2489432692527771
0.2288452535867691 0.24354667961597443 0.26081785559654236
0.25188252329826355 0.25655201077461243 0.27176579833030701
0.2840612530708313 0.26686754822731018 0.28309863805770874
0.31896853446960449 0.27655783295631409 0.29374614357948303
0.36487448215484619 0.28349840641021729 0.30308759212493896
0.42035850882530212 0.28772097826004028 0.31153139472007751
0.47788265347480774 0.2909272313117981 0.31923744082450867
0.53159552812576294 0.29243481159210205 0.32567781209945679
0.17707020044326782 0.22876337170600891 0.24285094439983368
0.19908379018306732 0.24187085032463074 0.2540162205696106
0.22014681994915009 0.25448215007781982 0.26655888557434082
0.24227182567119598 0.2679828405380249 0.27809843420982361
0.26703956723213196 0.27878579497337341 0.28898394107818604
0.2940790057182312 0.28908026218414307 0.29940423369407654
0.33056965470314026 0.29775157570838928 0.30988121032714844
0.37539494037628174 0.30436006188392639 0.31859919428825378
0.42286050319671631 0.31094983220100403 0.32427352666854858
0.47922626137733459 0.31516808271408081 0.32915452122688293
0.54512107372283936 0.31675887107849121 0.33300906419754028
0.6142427921295166 0.31703725457191467 0.33601945638656616
0.67558103799819946 0.31797480583190918 0.33845376968383789
0.23019200563430786 0.27820372581481934 0.28424027562141418
0.25046408176422119 0.29217937588691711 0.29340043663978577
0.27280572056770325 0.30430322885513306 0.30457782745361328
0.30026993155479431 0.31478199362754822 0.31553977727890015
0.33242517709732056 0.32381287217140198 0.32478034496307373
0.36913794279098511 0.33218705654144287 0.33182030916213989
0.4139254093170166 0.33878064155578613 0.33825299143791199
0.46523922681808472 0.34359174966812134 0.34298402070999146
0.52113479375839233 0.34753352403640747 0.34506076574325562
0.58539354801177979 0.34957608580589294 0.34616488218307495
0.6592755913734436 0.34865888953208923 0.34634560346603394
0.7372434139251709 0.34712818264961243 0.3448442816734314
0.80436629056930542 0.34630054235458374 0.3444608747959137
0.26092177629470825 0.33360555768013 0.31868219375610352
0.2856135368347168 0.34639376401901245 0.32692378759384155
0.31301078200340271 0.35715761780738831 0.33525785803794861
0.34721314907073975 0.36573031544685364 0.34311434626579285
0.38700693845748901 0.3737717866897583 0.34800440073013306
0.43233516812324524 0.38055810332298279 0.35100331902503967
0.48446342349052429 0.38539481163024902 0.35344806313514709
0.54141861200332642 0.38896358013153076 0.3543066680431366
0.60374075174331665 0.3914150595664978 0.35344263911247253
0.67327231168746948 0.39149633049964905 0.35255062580108643
0.7500959038734436 0.38906300067901611 0.35040724277496338
0.82886141538619995 0.38665932416915894 0.34679976105690002
0.89385497570037842 0.38624578714370728 0.34497550129890442
0.26669850945472717 0.39782014489173889 0.34223872423171997
0.30066072940826416 0.40792861580848694 0.34940889477729797
0.33669286966323853 0.41671624779701233 0.35488831996917725
0.37853530049324036 0.42375794053077698 0.35867780447006226
0.42600646615028381 0.43008118867874146 0.35977405309677124
0.47898045182228088 0.43497371673583984 0.35950121283531189
0.53730893135070801 0.43830710649490356 0.35854515433311462
0.59997439384460449 0.44089546799659729 0.35607072710990906
0.66729539632797241 0.44285878539085388 0.35235139727592468
0.73958426713943481 0.44178232550621033 0.34960165619850159
0.815044105052948 0.43904572725296021 0.34695082902908325
0.88770675659179688 0.4364108145236969 0.34401583671569824
0.94622170925140381 0.43640789389610291 0.34295010566711426
0.25923490524291992 0.46745768189430237 0.35697644948959351
0.30205491185188293 0.4750249981880188 0.36230731010437012
0.34714743494987488 0.48155295848846436 0.36534446477890015
0.39707726240158081 0.48674806952476501 0.36554676294326782
0.45155823230743408 0.49095237255096436 0.36413994431495667
0.51080602407455444 0.49427023530006409 0.3608250617980957
0.57396572828292847 0.49664899706840515 0.3571324348449707
0.64089763164520264 0.49869367480278015 0.35231214761734009
0.71139580011367798 0.50051790475845337 0.3466317355632782
0.78426080942153931 0.49888795614242554 0.34306612610816956
0.8564145565032959 0.49588471651077271 0.34173676371574402
0.92289859056472778 0.49314677715301514 0.33988660573959351
0.97521239519119263 0.49314406514167786 0.34004157781600952
0.24533967673778534 0.53995019197463989 0.36519640684127808
0.29584673047065735 0.54539626836776733 0.36817106604576111
0.34957656264305115 0.54965353012084961 0.3685210645198822
0.40684282779693604 0.55278986692428589 0.36749309301376343
0.46762573719024658 0.55526190996170044 0.36339941620826721
0.53147685527801514 0.55717068910598755 0.35866233706474304
0.59796571731567383 0.55879265069961548 0.35333475470542908
0.66722583770751953 0.56026387214660645 0.34748038649559021
0.73850071430206299 0.56084519624710083 0.34230393171310425
0.81059181690216064 0.55939739942550659 0.34105393290519714
0.88047963380813599 0.55631226301193237 0.33982035517692566
0.94268208742141724 0.55412441492080688 0.33795985579490662
0.98829883337020874 0.55449217557907104 0.3385862410068512
0.23062406480312347 0.61322283744812012 0.36869320273399353
0.28792864084243774 0.61672109365463257 0.37023231387138367
0.34879598021507263 0.6188579797744751 0.36868578195571899
0.41230642795562744 0.62018924951553345 0.36594042181968689
0.47809723019599915 0.62113302946090698 0.36106342077255249
0.54529213905334473 0.62212806940078735 0.35522830486297607
0.61377900838851929 0.62302011251449585 0.34958973526954651
0.68317532539367676 0.62369221448898315 0.34473186731338501
0.75386267900466919 0.62352299690246582 0.3411567211151123
0.82490712404251099 0.62170469760894775 0.34140607714653015
0.89415955543518066 0.61902415752410889 0.34238287806510925
0.95480215549468994 0.61757802963256836 0.34087273478507996
0.99373519420623779 0.61834585666656494 0.34090077877044678
0.22191569209098816 0.68500441312789917 0.36939188838005066
0.28417292237281799 0.68693923950195312 0.36987867951393127
0.35008507966995239 0.68753433227539062 0.36833533644676208
0.41804447770118713 0.68743491172790527 0.36448866128921509
0.48718124628067017 0.68715035915374756 0.35917884111404419
0.55670464038848877 0.68745690584182739 0.35367420315742493
0.62599354982376099 0.68783748149871826 0.34815731644630432
0.69503748416900635 0.68823069334030151 0.3447529673576355
0.76415824890136719 0.6878960132598877 0.34354516863822937
0.83455002307891846 0.68623030185699463 0.34573915600776672
0.90588575601577759 0.68381631374359131 0.34887874126434326
0.96880251169204712 0.68312603235244751 0.34863731265068054
0.99768316745758057 0.6838371753692627 0.34820705652236938
0.22306227684020996 0.75373744964599609 0.3692719042301178
0.28775438666343689 0.75474482774734497 0.36996769905090332
0.35637554526329041 0.75412780046463013 0.36896595358848572
0.42708125710487366 0.75302332639694214 0.36617714166641235
0.49845185875892639 0.75221931934356689 0.36137786507606506
0.56946474313735962 0.75184339284896851 0.35645818710327148
0.63912868499755859 0.75206881761550903 0.35209518671035767
0.70721894502639771 0.7525322437286377 0.35010823607444763
0.77455121278762817 0.75288987159729004 0.35087352991104126
0.84440028667449951 0.75235611200332642 0.35368657112121582
0.92013305425643921 0.75109314918518066 0.35755100846290588
0.98483407497406006 0.75047010183334351 0.36104926466941833
0.99997901916503906 0.75065714120864868 0.36660286784172058
0.23095287382602692 0.82022887468338013 0.37148407101631165
0.29770120978355408 0.82031595706939697 0.37327679991722107
0.36817610263824463 0.81890749931335449 0.37424975633621216
0.4404771625995636 0.81692022085189819 0.37317952513694763
0.51341712474822998 0.81557297706604004 0.37052717804908752
0.58557784557342529 0.81488913297653198 0.36677604913711548
0.65630453824996948 0.81470578908920288 0.36535722017288208
0.7240871787071228 0.81504005193710327 0.36642122268676758
0.78908562660217285 0.81609588861465454 0.3709469735622406
0.85508382320404053 0.81706494092941284 0.37687468528747559
0.9284052848815918 0.81683272123336792 0.38236072659492493
0.98872190713882446 0.81640738248825073 0.38933733105659485
1 0.81632745265960693 0.41225093603134155
0.24315258860588074 0.88499057292938232 0.37855285406112671
0.31181195378303528 0.88424068689346313 0.38242560625076294
0.38380765914916992 0.88185042142868042 0.38626378774642944
0.45755100250244141 0.87920796871185303 0.38863644003868103
0.53189420700073242 0.87713158130645752 0.38925626873970032
0.60570400953292847 0.87574326992034912 0.38911041617393494
0.67788726091384888 0.87506651878356934 0.3914981484413147
0.74659538269042969 0.87487536668777466 0.39915239810943604
0.81084197759628296 0.87555307149887085 0.4124985933303833
0.87357258796691895 0.87594544887542725 0.42994964122772217
0.93767380714416504 0.87600767612457275 0.44862449169158936
0.98820573091506958 0.87583410739898682 0.47115418314933777
0.99999767541885376 0.87745118141174316 0.50914770364761353
0.25767737627029419 0.94742578268051147 0.39451891183853149
0.32853898406028748 0.94601523876190186 0.40059658885002136
0.40184721350669861 0.94323587417602539 0.40774920582771301
0.4767378568649292 0.94002842903137207 0.41391924023628235
0.55246227979660034 0.93736696243286133 0.41912513971328735
0.62753844261169434 0.93467074632644653 0.42542293667793274
0.7013733983039856 0.93327236175537109 0.43480446934700012
0.77138561010360718 0.9311259388923645 0.45097970962524414
0.83501356840133667 0.93049854040145874 0.47767746448516846
0.89411461353302002 0.93088579177856445 0.51146310567855835
0.9481041431427002 0.9312860369682312 0.55097919702529907
0.98727321624755859 0.93209719657897949 0.59518074989318848
0.99960035085678101 0.93407279253005981 0.64018303155899048
0.13254983723163605 0.18290619552135468 0.21122628450393677
0.15394693613052368 0.1962762176990509 0.22124461829662323
0.17301389575004578 0.20882461965084076 0.23305222392082214
0.19258043169975281 0.2232893705368042 0.24452757835388184
0.21353679895401001 0.23587451875209808 0.25492465496063232
0.2354847639799118 0.2485862672328949 0.26607072353363037
0.26098406314849854 0.26053658127784729 0.27854028344154358
0.29316824674606323 0.27122586965560913 0.29096075892448425
0.33030867576599121 0.28037670254707336 0.30255252122879028
0.37791526317596436 0.28646916151046753 0.31310784816741943
0.43494772911071777 0.28983542323112488 0.3223949670791626
0.4959261417388916 0.29136073589324951 0.33104857802391052
0.55465197563171387 0.29177963733673096 0.33815968036651611
0.18437150120735168 0.23383310437202454 0.24999763071537018
0.20589901506900787 0.24561899900436401 0.26110762357711792
0.22691397368907928 0.25820881128311157 0.27343171834945679
0.2495361715555191 0.27255997061729431 0.28527069091796875
0.27669137716293335 0.28262138366699219 0.29720380902290344
0.30554294586181641 0.29271945357322693 0.30804228782653809
0.34212952852249146 0.30109825730323792 0.31899750232696533
0.38606607913970947 0.30777075886726379 0.32849165797233582
0.43493166565895081 0.31398358941078186 0.33545121550559998
0.49305790662765503 0.31763163208961487 0.34156185388565063
0.56042975187301636 0.31823623180389404 0.34678074717521667
0.63146108388900757 0.31738185882568359 0.35115548968315125
0.69512355327606201 0.31695848703384399 0.35490986704826355
0.23460116982460022 0.28313186764717102 0.29176482558250427
0.25510296225547791 0.2962794303894043 0.30220428109169006
0.27760764956474304 0.30836421251296997 0.31346398591995239
0.30640959739685059 0.31937077641487122 0.32504886388778687
0.34131774306297302 0.32792302966117859 0.33546003699302673
0.37946489453315735 0.33631771802902222 0.34311223030090332
0.42451530694961548 0.34288790822029114 0.34982097148895264
0.4762115478515625 0.34701234102249146 0.35538467764854431
0.53381925821304321 0.350594162940979 0.35870218276977539
0.59997731447219849 0.35160672664642334 0.36067470908164978
0.67483901977539062 0.35048362612724304 0.36184746026992798
0.75231873989105225 0.34798043966293335 0.36235615611076355
0.81864780187606812 0.34728392958641052 0.36308300495147705
0.26388370990753174 0.33844813704490662 0.32925969362258911
0.28794986009597778 0.35097208619117737 0.33831319212913513
0.31597936153411865 0.36185705661773682 0.34751999378204346
0.35173094272613525 0.37072321772575378 0.35539904236793518
0.39321243762969971 0.37859910726547241 0.36077621579170227
0.439910888671875 0.3856065571308136 0.3641933798789978
0.49261969327926636 0.39012828469276428 0.36724159121513367
0.55160641670227051 0.39228808879852295 0.3695375919342041
0.61633288860321045 0.39359849691390991 0.36991420388221741
0.68797773122787476 0.39325213432312012 0.36880242824554443
0.76576071977615356 0.39091318845748901 0.36775141954421997
0.84358304738998413 0.38804027438163757 0.36460456252098083
0.90764230489730835 0.38767030835151672 0.36427697539329529
0.27057597041130066 0.40245485305786133 0.35657984018325806
0.30281606316566467 0.41257718205451965 0.36435002088546753
0.33860653638839722 0.42132535576820374 0.37028294801712036
0.38213089108467102 0.42846861481666565 0.37395903468132019
0.43093836307525635 0.43484011292457581 0.37506037950515747
0.48494407534599304 0.43934741616249084 0.37536033987998962
0.54465293884277344 0.44180917739868164 0.37545290589332581
0.6092606782913208 0.44358345866203308 0.37423926591873169
0.67877119779586792 0.44439923763275146 0.37133413553237915
0.75287306308746338 0.44365659356117249 0.36818492412567139
0.83014017343521118 0.44075766205787659 0.36563977599143982
0.90330654382705688 0.43814238905906677 0.36252763867378235
0.96255576610565186 0.43793860077857971 0.36097231507301331
0.26353436708450317 0.47183430194854736 0.37442421913146973
0.30456382036209106 0.47952732443809509 0.38011479377746582
0.34953990578651428 0.4859432578086853 0.38305011391639709
0.39995715022087097 0.49128377437591553 0.38345560431480408
0.4559028148651123 0.49535757303237915 0.38207563757896423
0.51609593629837036 0.49794185161590576 0.37995174527168274
0.58058851957321167 0.49960771203041077 0.37684446573257446
0.64904129505157471 0.5010979175567627 0.37264904379844666
0.72118353843688965 0.50166493654251099 0.36767241358757019
0.79607844352722168 0.50090110301971436 0.36395394802093506
0.8704257607460022 0.49782249331474304 0.36154085397720337
0.93837207555770874 0.49534487724304199 0.35876518487930298
0.98943048715591431 0.49516189098358154 0.35756459832191467
0.250223308801651 0.54414385557174683 0.38478255271911621
0.29873955249786377 0.54992008209228516 0.38804411888122559
0.35127291083335876 0.55417662858963013 0.38834995031356812
0.40897834300994873 0.55724620819091797 0.38730677962303162
0.47061744332313538 0.5593751072883606 0.38346198201179504
0.53566896915435791 0.56078910827636719 0.37917900085449219
0.60342854261398315 0.56194353103637695 0.3744443953037262
0.67387288808822632 0.5631522536277771 0.36928686499595642
0.74680483341217041 0.56356412172317505 0.36448884010314941
0.82092154026031494 0.56199473142623901 0.36171397566795349
0.89281547069549561 0.5589977502822876 0.36003544926643372
0.9564979076385498 0.55677336454391479 0.35706210136413574
0.99694466590881348 0.55683350563049316 0.35651743412017822
0.23653839528560638 0.61708003282546997 0.38976755738258362
0.29119879007339478 0.62108290195465088 0.39168155193328857
0.35060420632362366 0.62339258193969727 0.39042991399765015
0.41385439038276672 0.62464982271194458 0.38698124885559082
0.47991758584976196 0.6252671480178833 0.38233548402786255
0.54818695783615112 0.6259382963180542 0.37700697779655457
0.61769634485244751 0.62650543451309204 0.37175992131233215
0.68856155872344971 0.62712603807449341 0.36718252301216125
0.76102453470230103 0.62690377235412598 0.3643781840801239
0.83415114879608154 0.62513858079910278 0.36308401823043823
0.90514928102493286 0.6225617527961731 0.36211130023002625
0.9659227728843689 0.62075591087341309 0.35936033725738525
0.99870920181274414 0.62118983268737793 0.3586316704750061
0.22839897871017456 0.68854618072509766 0.3916473388671875
0.28772476315498352 0.69095027446746826 0.39184838533401489
0.35182908177375793 0.69161027669906616 0.39028608798980713
0.41910243034362793 0.69162636995315552 0.38662204146385193
0.48831894993782043 0.69144415855407715 0.38149252533912659
0.55819988250732422 0.69136267900466919 0.37590131163597107
0.62848967313766479 0.69159919023513794 0.37112569808959961
0.69876629114151001 0.69181793928146362 0.36767756938934326
0.77009910345077515 0.69161355495452881 0.36659532785415649
0.84276491403579712 0.69006019830703735 0.36709654331207275
0.91494911909103394 0.68784302473068237 0.36736723780632019
0.97436481714248657 0.68657499551773071 0.36547845602035522
0.99968206882476807 0.6873316764831543 0.36594536900520325
0.2287464439868927 0.75733500719070435 0.39249297976493835
0.29128789901733398 0.7585110068321228 0.39308872818946838
0.35830557346343994 0.75794291496276855 0.3920954167842865
0.42825105786323547 0.75690603256225586 0.38891416788101196
0.49903079867362976 0.75608974695205688 0.38407322764396667
0.57006263732910156 0.7556910514831543 0.378703773021698
0.64050638675689697 0.75593918561935425 0.37485969066619873
0.70992547273635864 0.75634706020355225 0.37316608428955078
0.77926135063171387 0.75661033391952515 0.37370067834854126
0.85119128227233887 0.7561115026473999 0.37539732456207275
0.92536503076553345 0.75444287061691284 0.37768399715423584
0.98366677761077881 0.75307071208953857 0.37965738773345947
1 0.75397956371307373 0.38606244325637817
0.23629778623580933 0.82360082864761353 0.39536198973655701
0.30156034231185913 0.82360553741455078 0.39714124798774719
0.37068703770637512 0.82195180654525757 0.39818304777145386
0.44210240244865417 0.82015913724899292 0.39686214923858643
0.51444917917251587 0.81896620988845825 0.3932526707649231
0.58632189035415649 0.81870192289352417 0.38937222957611084
0.65719890594482422 0.81855088472366333 0.3874756395816803
0.72612375020980835 0.81860452890396118 0.38935631513595581
0.79357343912124634 0.81934159994125366 0.39380168914794922
0.86202389001846313 0.82026124000549316 0.39911761879920959
0.93306249380111694 0.81958103179931641 0.40610975027084351
0.98792511224746704 0.81823331117630005 0.41706833243370056
1 0.81901240348815918 0.43635648488998413
0.24900706112384796 0.8878665566444397 0.4033392071723938
0.31675294041633606 0.88692891597747803 0.40693876147270203
0.38761439919471741 0.88434642553329468 0.41067796945571899
0.46049541234970093 0.881805419921875 0.41273942589759827
0.53411900997161865 0.88007491827011108 0.41189908981323242
0.60738176107406616 0.87917739152908325 0.41166523098945618
0.6795116662979126 0.87832784652709961 0.41465327143669128
0.74939572811126709 0.87759965658187866 0.42297914624214172
0.81609708070755005 0.87728410959243774 0.43689650297164917
0.88073456287384033 0.87828528881072998 0.45355638861656189
0.9431726336479187 0.87859606742858887 0.47420108318328857
0.99082916975021362 0.87819045782089233 0.5012328028678894
1 0.87953060865402222 0.53307127952575684
0.26500165462493896 0.94975537061691284 0.4197046160697937
0.33476758003234863 0.9486280083656311 0.42505156993865967
0.40739095211029053 0.94549095630645752 0.43159836530685425
0.48182684183120728 0.9422600269317627 0.4373246431350708
0.5567014217376709 0.93989187479019165 0.44213104248046875
0.63148170709609985 0.93769437074661255 0.44807887077331543
0.70527786016464233 0.93543297052383423 0.4587254524230957
0.77634292840957642 0.93335151672363281 0.47711595892906189
0.84320402145385742 0.93166661262512207 0.50459355115890503
0.90467500686645508 0.93131124973297119 0.53877121210098267
0.95932298898696899 0.93131124973297119 0.5793336033821106
0.99601489305496216 0.93155831098556519 0.62332659959793091
1 0.93490070104598999 0.65922039747238159
0.13930679857730865 0.18824449181556702 0.21726568043231964
0.16070438921451569 0.20182313024997711 0.22637015581130981
0.18008983135223389 0.21452587842941284 0.23751486837863922
0.19954612851142883 0.22706799209117889 0.24989953637123108
0.22023367881774902 0.24005216360092163 0.26174971461296082
0.24171236157417297 0.2540028989315033 0.27272337675094604
0.27048322558403015 0.26452314853668213 0.28550872206687927
0.30135735869407654 0.27507972717285156 0.29868438839912415
0.34032309055328369 0.28355264663696289 0.31110551953315735
0.38902240991592407 0.28912821412086487 0.32230174541473389
0.44584903120994568 0.29198068380355835 0.332113116979599
0.50891661643981934 0.29237174987792969 0.34157073497772217
0.57093775272369385 0.291643887758255 0.34957119822502136
0.1891310065984726 0.23936685919761658 0.25739049911499023
0.21147322654724121 0.25164133310317993 0.26690211892127991
0.23299330472946167 0.26389417052268982 0.27825328707695007
0.25604817271232605 0.27581989765167236 0.29161950945854187
0.2839323878288269 0.28687369823455811 0.30487185716629028
0.31526827812194824 0.29725176095962524 0.31709674000740051
0.35250186920166016 0.3048575222492218 0.32792758941650391
0.39593693614006042 0.31118625402450562 0.33784973621368408
0.44539585709571838 0.31688576936721802 0.34631720185279846
0.50394695997238159 0.31998270750045776 0.35312739014625549
0.57068318128585815 0.32054141163825989 0.35944163799285889
0.64183837175369263 0.31886285543441772 0.36520597338676453
0.70736610889434814 0.31709110736846924 0.37049305438995361
0.23508015275001526 0.28916820883750916 0.29987853765487671
0.25759482383728027 0.30147221684455872 0.31040495634078979
0.28189286589622498 0.31288865208625793 0.32205447554588318
0.31149092316627502 0.32304227352142334 0.33442598581314087
0.34742704033851624 0.33224603533744812 0.34550866484642029
0.38796877861022949 0.34027966856956482 0.35464274883270264
0.43372941017150879 0.34602570533752441 0.36194944381713867
0.48563829064369202 0.35007476806640625 0.36806058883666992
0.54386144876480103 0.35310626029968262 0.37222355604171753
0.61030560731887817 0.35451343655586243 0.37524300813674927
0.68394297361373901 0.35290181636810303 0.37745195627212524
0.75964009761810303 0.35014164447784424 0.37967276573181152
0.82578033208847046 0.34853062033653259 0.38193428516387939
0.26300287246704102 0.34431594610214233 0.33962690830230713
0.28946807980537415 0.35548678040504456 0.35028377175331116
0.31885582208633423 0.36580780148506165 0.35993245244026184
0.35536369681358337 0.37493592500686646 0.36801376938819885
0.39827397465705872 0.38272926211357117 0.37428060173988342
0.44665107131004333 0.38894665241241455 0.37898552417755127
0.50020390748977661 0.39286455512046814 0.38309508562088013
0.55973547697067261 0.39514756202697754 0.38576516509056091
0.62525802850723267 0.39639827609062195 0.38647982478141785
0.69729876518249512 0.39609354734420776 0.38610047101974487
0.77407515048980713 0.39391052722930908 0.3855140209197998
0.8496587872505188 0.39121028780937195 0.38359323143959045
0.91268706321716309 0.39061868190765381 0.38357841968536377
0.27105268836021423 0.40760326385498047 0.37071982026100159
0.30398291349411011 0.41693943738937378 0.37948569655418396
0.34119683504104614 0.42555439472198486 0.38586658239364624
0.38510721921920776 0.43290883302688599 0.38986164331436157
0.43510258197784424 0.43868839740753174 0.39208891987800598
0.49058303236961365 0.44264763593673706 0.39347752928733826
0.55072009563446045 0.44434919953346252 0.39453715085983276
0.61579859256744385 0.4462093710899353 0.39360365271568298
0.68589669466018677 0.44744932651519775 0.39133560657501221
0.76080459356307983 0.44650185108184814 0.38842865824699402
