assets/lut/alexjordan dream 01.cube
# Created by: G'MIC (https://gmic.eu)
TITLE "dream_1"
# LUT size
LUT_3D_SIZE 5
# Data domain
DOMAIN_MIN 0.0 0.0 0.0
DOMAIN_MAX 1.0 1.0 1.0
# LUT data points
0.033701639622449875 0.033641155809164047 0.038757983595132828
0.28566348552703857 0.05201282724738121 0
0.54669344425201416 0.06944148987531662 0
0.80888152122497559 0.08690045028924942 0
1 0.099570959806442261 0
0.02316652238368988 0.23718734085559845 0.47301223874092102
0.25397565960884094 0.25484845042228699 0.24904413521289825
0.51587384939193726 0.27445033192634583 0.032266519963741302
0.77488327026367188 0.2945857048034668 0
0.99927043914794922 0.31160923838615417 0
0.022293839603662491 0.44448822736740112 0.92555052042007446
0.22933325171470642 0.46164184808731079 0.70040547847747803
0.48111003637313843 0.48056533932685852 0.4655100405216217
0.7390100359916687 0.49587750434875488 0.23883527517318726
0.98636764287948608 0.51617324352264404 0.032501954585313797
0.003551288740709424 0.64878970384597778 1
0.20708122849464417 0.66655701398849487 1
0.44578060507774353 0.68465816974639893 0.9150315523147583
0.70288217067718506 0.70160704851150513 0.68972510099411011
0.95905411243438721 0.72035253047943115 0.46203804016113281
0 0.85244953632354736 1
0.17195340991020203 0.87094986438751221 1
0.41416740417480469 0.88847434520721436 1
0.66741538047790527 0.90786254405975342 1
0.9270818829536438 0.92867696285247803 0.90698301792144775
0.052161019295454025 0.050978284329175949 0.050930261611938477
0.30530589818954468 0.0707893967628479 0
0.56267231702804565 0.087881647050380707 0
0.82438105344772339 0.10278277099132538 0.00090525008272379637
1 0.11927931755781174 0.00090955843916162848
0.021457074210047722 0.25413590669631958 0.48787429928779602
0.27016225457191467 0.27245837450027466 0.25745448470115662
0.52887272834777832 0.29269653558731079 0.045372381806373596
0.79017353057861328 0.31205323338508606 0
1 0.32980653643608093 0
0.0071823121979832649 0.46203619241714478 0.9343034029006958
0.23682259023189545 0.47984462976455688 0.71407222747802734
0.49475499987602234 0.49693042039871216 0.48474621772766113
0.75557988882064819 0.51368290185928345 0.25388488173484802
0.989044189453125 0.53435635566711426 0.037981685250997543
0.00082307704724371433 0.66615021228790283 1
0.20908787846565247 0.68295526504516602 1
0.46091291308403015 0.70362776517868042 0.93130069971084595
0.72084999084472656 0.72214114665985107 0.7044295072555542
0.97245925664901733 0.7382209300994873 0.46752184629440308
0 0.87131208181381226 1
0.17794297635555267 0.88932615518569946 1
0.42815276980400085 0.90845149755477905 1
0.68476021289825439 0.92796498537063599 1
0.94247055053710938 0.94696682691574097 0.91542404890060425
0.068857781589031219 0.06823401153087616 0.060193978250026703
0.32424920797348022 0.088383391499519348 0
0.58168274164199829 0.10368230193853378 0
0.84342598915100098 0.11754237115383148 0.0039896946400403976
1 0.13087673485279083 0
0.033504005521535873 0.27300781011581421 0.50281357765197754
0.28986012935638428 0.29076537489891052 0.27574723958969116
0.54879355430603027 0.30877351760864258 0.072441518306732178
0.81199294328689575 0.32767844200134277 0
1 0.3425222635269165 0
0.0105335908010602 0.4785800576210022 0.94595330953598022
0.25663530826568604 0.49675792455673218 0.72466409206390381
0.51692825555801392 0.51526105403900146 0.49123549461364746
0.77587258815765381 0.53282016515731812 0.23867076635360718
0.99463260173797607 0.55094492435455322 0.053950738161802292
0.0008792652515694499 0.68262547254562378 1
0.22211098670959473 0.700267493724823 1
0.47930896282196045 0.72207677364349365 0.93969357013702393
0.73883968591690063 0.74099767208099365 0.71410053968429565
0.99034839868545532 0.75535666942596436 0.48734286427497864
0 0.88906878232955933 1
0.18770758807659149 0.90738683938980103 1
0.44354012608528137 0.92684370279312134 1
0.70204198360443115 0.94573605060577393 1
0.9625123143196106 0.96360898017883301 0.9263184666633606
0.084812194108963013 0.086245909333229065 0.072157107293605804
0.34201851487159729 0.10574337840080261 0
0.59940916299819946 0.12220484763383865 0
0.85929542779922485 0.13643348217010498 0.00036327884299680591
1 0.14491789042949677 0
0.05060843750834465 0.29192236065864563 0.51527506113052368
0.30615648627281189 0.30748423933982849 0.28784623742103577
0.56679517030715942 0.32759979367256165 0.06498381495475769
0.82450407743453979 0.3474896252155304 0
1 0.3585532009601593 0
0.019667770713567734 0.4958183765411377 0.95365160703659058
0.2750607430934906 0.51387554407119751 0.73534876108169556
0.53380966186523438 0.53147119283676147 0.50739216804504395
0.79104167222976685 0.54897761344909668 0.27725207805633545
0.99889165163040161 0.56760925054550171 0.081695005297660828
0.002846886171028018 0.70045572519302368 1
0.23992981016635895 0.71961826086044312 1
0.49902540445327759 0.73915594816207886 0.95109063386917114
0.75768721103668213 0.75812715291976929 0.73059087991714478
0.99679738283157349 0.77461981773376465 0.50416344404220581
0 0.90642446279525757 1
0.20090843737125397 0.92542064189910889 1
0.4616856575012207 0.94365036487579346 1
0.72333681583404541 0.96023231744766235 1
0.97906529903411865 0.9781525731086731 0.93925780057907104
0.1040952205657959 0.10452073067426682 0.087126396596431732
0.3621680736541748 0.12177105993032455 0
0.61865180730819702 0.13867668807506561 0
0.87628263235092163 0.15098918974399567 0
1 0.1559966504573822 0
0.065721742808818817 0.30809590220451355 0.52625411748886108
0.32656016945838928 0.32463043928146362 0.29805243015289307
0.58576279878616333 0.34633129835128784 0.090073421597480774
0.84413444995880127 0.36354982852935791 0.0010641808621585369
1 0.37352532148361206 0
0.030154718086123466 0.51289856433868408 0.95746880769729614
0.29247891902923584 0.53027498722076416 0.74155563116073608
0.55115258693695068 0.54795831441879272 0.51032310724258423
0.80956578254699707 0.5675274133682251 0.27258509397506714
1 0.58335047960281372 0.10870956629514694
0.006065757479518652 0.71726298332214355 1
0.25494495034217834 0.73640936613082886 1
0.51647859811782837 0.75474303960800171 0.95447999238967896
0.77287536859512329 0.77587246894836426 0.73730981349945068
0.99932485818862915 0.7911144495010376 0.52539348602294922
0 0.92218232154846191 1
0.21203051507472992 0.94193750619888306 1
0.4767976701259613 0.96007853746414185 1
0.73792070150375366 0.97742784023284912 1
0.98741894960403442 0.98947811126708984 0.95571506023406982
