assets/lut/alexjordan cross process cp 03.cube
# Created by: G'MIC (https://gmic.eu)
TITLE "cross_process_cp_3"
# LUT size
LUT_3D_SIZE 7
# Data domain
DOMAIN_MIN 0.0 0.0 0.0
DOMAIN_MAX 1.0 1.0 1.0
# LUT data points
0.0075861462391912937 0.004823632538318634 0.010714976117014885
0.043964594602584839 0.032841328531503677 0.055246420204639435
0.11251144111156464 0.065919674932956696 0.098190590739250183
0.21275439858436584 0.075829721987247467 0.1160777360200882
0.34668636322021484 0.078588046133518219 0.13623945415019989
0.53223568201065063 0.077513933181762695 0.15384973585605621
0.72245198488235474 0.072422236204147339 0.1713346391916275
0.070536144077777863 0.12840345501899719 0.12788286805152893
0.11589126288890839 0.16261498630046844 0.15735164284706116
0.22032837569713593 0.18161360919475555 0.17831289768218994
0.40086400508880615 0.1858026534318924 0.17955788969993591
0.60841876268386841 0.18486462533473969 0.17462120950222015
0.81463861465454102 0.18670386075973511 0.17029003798961639
0.99125373363494873 0.18184557557106018 0.1751735657453537
0.054448161274194717 0.31064686179161072 0.18358629941940308
0.11959315091371536 0.3469422459602356 0.19663028419017792
0.26701584458351135 0.36039906740188599 0.19902035593986511
0.49467101693153381 0.35392341017723083 0.18657809495925903
0.73561006784439087 0.34660148620605469 0.16753372550010681
0.94315022230148315 0.34603318572044373 0.16177572309970856
1 0.3447120189666748 0.17062695324420929
0.0060515012592077255 0.53107798099517822 0.17634399235248566
0.092915087938308716 0.56031274795532227 0.18502983450889587
0.27253538370132446 0.56517404317855835 0.18642082810401917
0.51403480768203735 0.55235415697097778 0.17300225794315338
0.75651121139526367 0.5406569242477417 0.1556466668844223
0.95627307891845703 0.53639322519302368 0.15752701461315155
1 0.53096842765808105 0.17008942365646362
0.002838329179212451 0.74668723344802856 0.16544231772422791
0.09987322986125946 0.7614065408706665 0.17455783486366272
0.28228321671485901 0.75623530149459839 0.17808286845684052
0.51351618766784668 0.74086272716522217 0.16936075687408447
0.74370700120925903 0.72756499052047729 0.15963585674762726
0.93245232105255127 0.72194755077362061 0.16092544794082642
1 0.71170711517333984 0.17073391377925873
0.017538467422127724 0.91095340251922607 0.17248554527759552
0.12844793498516083 0.92271327972412109 0.18173879384994507
0.29936212301254272 0.91708660125732422 0.1821630448102951
0.51409792900085449 0.90242987871170044 0.17432402074337006
0.7284775972366333 0.88862442970275879 0.16699373722076416
0.90426915884017944 0.87926185131072998 0.1676124781370163
1 0.86679452657699585 0.1740366667509079
0.021138284355401993 0.99819135665893555 0.18114505708217621
0.14850907027721405 1 0.18941114842891693
0.31503444910049438 1 0.1877414882183075
0.51339340209960938 1 0.17984111607074738
0.71039843559265137 0.99958300590515137 0.17247502505779266
0.87240725755691528 0.99757587909698486 0.17218136787414551
0.99247801303863525 0.99235761165618896 0.17610293626785278
0.017916720360517502 0.01356398593634367 0.031397875398397446
0.053577452898025513 0.045565824955701828 0.083167850971221924
0.1224481612443924 0.070362001657485962 0.1314474493265152
0.23283207416534424 0.079446069896221161 0.16152498126029968
0.3810323178768158 0.080271415412425995 0.19217006862163544
0.5615965723991394 0.079152993857860565 0.22234098613262177
0.76473498344421387 0.070323511958122253 0.25186911225318909
0.073985032737255096 0.13774333894252777 0.17458425462245941
0.12452000379562378 0.17342016100883484 0.21917071938514709
0.23531879484653473 0.19373883306980133 0.24956725537776947
0.41945600509643555 0.19152361154556274 0.26400887966156006
0.62919217348098755 0.18785911798477173 0.26861655712127686
0.83793312311172485 0.18870361149311066 0.27345851063728333
0.99563068151473999 0.18591757118701935 0.28885656595230103
0.05581207200884819 0.32094833254814148 0.26709890365600586
0.12672834098339081 0.35553717613220215 0.29362666606903076
0.27719056606292725 0.37148571014404297 0.30324611067771912
0.50492227077484131 0.36426854133605957 0.29556381702423096
0.74845039844512939 0.35352954268455505 0.28426754474639893
0.95928823947906494 0.35123679041862488 0.28386947512626648
1 0.35055768489837646 0.2957058846950531
0.01092218142002821 0.54099327325820923 0.29304072260856628
0.099460914731025696 0.56985414028167725 0.30702555179595947
0.27594524621963501 0.57602816820144653 0.30703076720237732
0.51772844791412354 0.56360810995101929 0.29234799742698669
0.76369196176528931 0.54941415786743164 0.27887716889381409
0.9603918194770813 0.54358041286468506 0.28327840566635132
1 0.54033815860748291 0.29428362846374512
0.0016618167283013463 0.7516481876373291 0.29585668444633484
0.095461808145046234 0.77218985557556152 0.3057209849357605
0.2759757936000824 0.76880335807800293 0.30460062623023987
0.51241409778594971 0.75143831968307495 0.29149666428565979
0.74989026784896851 0.73434293270111084 0.28045374155044556
0.93838763236999512 0.72608333826065063 0.28318801522254944
1 0.72003293037414551 0.29133319854736328
0.0064301434904336929 0.91810476779937744 0.30159604549407959
0.11176053434610367 0.93640631437301636 0.31163108348846436
0.28361943364143372 0.93171334266662598 0.30942374467849731
0.50755804777145386 0.91323280334472656 0.29589012265205383
0.732391357421875 0.89520800113677979 0.28480243682861328
0.91317832469940186 0.88417279720306396 0.28408274054527283
1 0.87518346309661865 0.29022938013076782
0.013259049504995346 1 0.30559837818145752
0.13265229761600494 1 0.31529128551483154
0.29924684762954712 1 0.31222051382064819
0.50540077686309814 1 0.29910397529602051
0.71065443754196167 1 0.28860023617744446
0.87921619415283203 0.99899202585220337 0.28707551956176758
0.99472600221633911 0.99632889032363892 0.28861814737319946
0.029534028843045235 0.028285801410675049 0.062907278537750244
0.06735355406999588 0.056149829179048538 0.12108414620161057
0.13948650658130646 0.074192523956298828 0.17562595009803772
0.26251721382141113 0.079307526350021362 0.22115415334701538
0.42007336020469666 0.079149685800075531 0.26045748591423035
0.60013061761856079 0.077616609632968903 0.29692202806472778
0.80916875600814819 0.065803959965705872 0.33713224530220032
0.074337199330329895 0.15532086789608002 0.24025574326515198
0.13122294843196869 0.18449403345584869 0.29179561138153076
0.24704544246196747 0.20140272378921509 0.33025059103965759
0.43447354435920715 0.19798867404460907 0.35544273257255554
0.64826130867004395 0.19284845888614655 0.36874836683273315
0.86124956607818604 0.19082815945148468 0.38261759281158447
0.99946814775466919 0.18540500104427338 0.40531167387962341
0.053017202764749527 0.33282941579818726 0.36270883679389954
0.12675409018993378 0.36562317609786987 0.39736339449882507
0.28279599547386169 0.37815037369728088 0.41519692540168762
0.51136314868927002 0.37087610363960266 0.41349536180496216
0.7554435133934021 0.36124691367149353 0.40594586730003357
0.96558862924575806 0.35852757096290588 0.40844050049781799
1 0.35756272077560425 0.42144614458084106
0.012990914285182953 0.54687058925628662 0.41162976622581482
0.099788710474967957 0.57745921611785889 0.4308529794216156
0.27884703874588013 0.58173733949661255 0.43300673365592957
0.52193039655685425 0.56885796785354614 0.41905397176742554
0.76834702491760254 0.55484980344772339 0.40511474013328552
0.96452277898788452 0.55003279447555542 0.40633916854858398
1 0.55013501644134521 0.41561520099639893
0.0030263862572610378 0.75105983018875122 0.42385917901992798
0.098039768636226654 0.77386462688446045 0.43643823266029358
0.27774572372436523 0.77215355634689331 0.43347790837287903
0.51623678207397461 0.75345253944396973 0.41776755452156067
0.75455719232559204 0.73400074243545532 0.40358826518058777
0.94134831428527832 0.72571098804473877 0.40307936072349548
0.999919593334198 0.7276688814163208 0.40795251727104187
0.0047165662981569767 0.91847908496856689 0.42696157097816467
0.10883568972349167 0.93829518556594849 0.43819287419319153
0.28161406517028809 0.9340137243270874 0.43350285291671753
0.5082472562789917 0.91311770677566528 0.4157721996307373
0.73604434728622437 0.89284622669219971 0.40196061134338379
0.91661965847015381 0.8820488452911377 0.39987745881080627
0.99982386827468872 0.87846678495407104 0.40380683541297913
0.011268735863268375 1 0.42513623833656311
0.12849107384681702 1 0.43504902720451355
0.29534617066383362 1 0.43013927340507507
0.50399899482727051 1 0.41357707977294922
0.71159404516220093 1 0.40094113349914551
0.88082402944564819 0.99886369705200195 0.39754089713096619
0.99351257085800171 0.99733364582061768 0.39970532059669495
0.03921997919678688 0.038303196430206299 0.096429817378520966
0.07861454039812088 0.065378002822399139 0.16481399536132812
0.15223409235477448 0.080867886543273926 0.22794155776500702
0.28444430232048035 0.083479784429073334 0.28483188152313232
0.45715874433517456 0.08082098513841629 0.33839580416679382
0.64070689678192139 0.077997229993343353 0.38632127642631531
0.83187353610992432 0.069738395512104034 0.43179744482040405
0.073315292596817017 0.16604693233966827 0.30884048342704773
0.13360598683357239 0.19475315511226654 0.37207058072090149
0.25395247340202332 0.20844072103500366 0.42240747809410095
0.44887137413024902 0.20387664437294006 0.45592346787452698
0.67035716772079468 0.19809715449810028 0.47840768098831177
0.8806149959564209 0.19543081521987915 0.49895468354225159
0.99973905086517334 0.19247753918170929 0.52303248643875122
0.052102509886026382 0.34036985039710999 0.46691897511482239
0.12693043053150177 0.3737335205078125 0.50743532180786133
0.28516268730163574 0.38415515422821045 0.53079509735107422
0.51956915855407715 0.37532457709312439 0.53465080261230469
0.76517826318740845 0.36682137846946716 0.5325920581817627
0.9650111198425293 0.36659753322601318 0.53412055969238281
1 0.36716440320014954 0.5466342568397522
0.017502414062619209 0.55100876092910767 0.52893555164337158
0.10362674295902252 0.58161693811416626 0.55415761470794678
0.28253108263015747 0.58562743663787842 0.55823087692260742
0.52867257595062256 0.57253164052963257 0.54657357931137085
0.77360618114471436 0.55989551544189453 0.53376340866088867
0.95732563734054565 0.55738449096679688 0.52948164939880371
1 0.55912202596664429 0.53699582815170288
0.0080716898664832115 0.75151568651199341 0.54411369562149048
0.10631459206342697 0.77413064241409302 0.56039226055145264
0.28503701090812683 0.77271550893783569 0.55825424194335938
0.52380609512329102 0.75517195463180542 0.54245764017105103
0.76036423444747925 0.73640680313110352 0.52660220861434937
0.94256055355072021 0.72905397415161133 0.52302646636962891
0.99901098012924194 0.73094552755355835 0.52586525678634644
0.0092067644000053406 0.92095696926116943 0.54395776987075806
0.11856001615524292 0.93734985589981079 0.55606651306152344
0.29191255569458008 0.93110901117324829 0.5503959059715271
0.51553809642791748 0.91074484586715698 0.53177785873413086
0.74049085378646851 0.89088934659957886 0.51740747690200806
0.91460204124450684 0.88139146566390991 0.51408261060714722
0.99796885251998901 0.87936419248580933 0.51705765724182129
0.015587706118822098 1 0.53881192207336426
0.13661539554595947 1 0.54783177375793457
0.30441933870315552 1 0.54082196950912476
0.50984424352645874 1 0.5232466459274292
0.71500355005264282 0.999958336353302 0.51042169332504272
0.88189011812210083 0.99841773509979248 0.50714987516403198
0.99188613891601562 0.99696773290634155 0.50881505012512207
0.050517212599515915 0.052827347069978714 0.14048308134078979
0.088263615965843201 0.075622648000717163 0.21145740151405334
0.1583588570356369 0.089684836566448212 0.28124862909317017
0.29447928071022034 0.091421090066432953 0.34699147939682007
0.49029743671417236 0.082491450011730194 0.42267349362373352
0.69568228721618652 0.073924824595451355 0.49064260721206665
0.89175921678543091 0.064159348607063293 0.54670053720474243
0.075776956975460052 0.17503258585929871 0.37820920348167419
0.13793706893920898 0.20189499855041504 0.45900252461433411
0.25808197259902954 0.21477814018726349 0.52435356378555298
0.45983251929283142 0.20976579189300537 0.56255018711090088
0.69147205352783203 0.20149222016334534 0.5948907732963562
0.90086549520492554 0.19797652959823608 0.62317353487014771
0.99999713897705078 0.19706660509109497 0.64993900060653687
0.052306994795799255 0.34967386722564697 0.56678539514541626
0.13255339860916138 0.37935653328895569 0.62327378988265991
0.28966638445854187 0.39051368832588196 0.6564595103263855
0.52710568904876709 0.38169726729393005 0.65915966033935547
0.7737465500831604 0.37281531095504761 0.65989691019058228
0.96503329277038574 0.37284582853317261 0.66553390026092529
1 0.373727947473526 0.67619132995605469
0.022396581247448921 0.55678141117095947 0.64702731370925903
0.11218567192554474 0.58532047271728516 0.6779819130897522
0.28549620509147644 0.59227836132049561 0.68567025661468506
0.53144103288650513 0.57901597023010254 0.66930985450744629
0.77702063322067261 0.56641042232513428 0.65744096040725708
0.95020473003387451 0.56333649158477783 0.65595787763595581
0.99980241060256958 0.56543493270874023 0.66070026159286499
0.015311925671994686 0.75819516181945801 0.66202443838119507
0.11260204017162323 0.77666306495666504 0.68246322870254517
0.2883264422416687 0.77589958906173706 0.68105041980743408
0.52532947063446045 0.7598610520362854 0.66214257478713989
0.76341837644577026 0.74221092462539673 0.6455312967300415
0.94147944450378418 0.73370587825775146 0.64131134748458862
0.99932169914245605 0.73455798625946045 0.64348524808883667
0.014501309953629971 0.93126851320266724 0.65975034236907959
0.12487549334764481 0.94005858898162842 0.6738898754119873
0.29792642593383789 0.93199950456619263 0.66753649711608887
0.5194513201713562 0.91362607479095459 0.64775019884109497
0.74237138032913208 0.893807053565979 0.63140475749969482
0.91630452871322632 0.88176029920578003 0.62666380405426025
0.99936467409133911 0.87786823511123657 0.62922024726867676
0.021609945222735405 1 0.65021085739135742
0.14422735571861267 1 0.65949314832687378
0.31187385320663452 1 0.65207618474960327
0.51446175575256348 1 0.63452893495559692
0.71737974882125854 0.99995404481887817 0.62029761075973511
0.88400328159332275 0.99798226356506348 0.61553823947906494
0.99349194765090942 0.9957815408706665 0.61664384603500366
0.059999860823154449 0.058643925935029984 0.17863152921199799
0.099631622433662415 0.082352101802825928 0.26238530874252319
0.16990981996059418 0.096229329705238342 0.34404027462005615
0.31143888831138611 0.097093544900417328 0.4235173761844635
0.51839351654052734 0.083240494132041931 0.51555496454238892
0.73543494939804077 0.070736303925514221 0.5985180139541626
0.93235862255096436 0.062442794442176819 0.66357147693634033
0.078568309545516968 0.17955061793327332 0.45697352290153503
0.14653711020946503 0.20705267786979675 0.55002379417419434
0.26827901601791382 0.22023274004459381 0.62898331880569458
0.4676913321018219 0.21650481224060059 0.67434597015380859
0.7080758810043335 0.20497423410415649 0.71575969457626343
0.9263719916343689 0.19815395772457123 0.75300633907318115
1 0.19787965714931488 0.7792542576789856
0.049850195646286011 0.35838490724563599 0.68439656496047974
0.13844704627990723 0.38594275712966919 0.74291801452636719
0.29666906595230103 0.39794456958770752 0.78123372793197632
0.53117161989212036 0.38998648524284363 0.7877689003944397
0.7807011604309082 0.38009527325630188 0.7887764573097229
0.97655314207077026 0.37769350409507751 0.79465854167938232
1 0.37757351994514465 0.80370104312896729
0.017612263560295105 0.56622284650802612 0.77427017688751221
0.11544877290725708 0.591441810131073 0.80256414413452148
0.28899520635604858 0.60004585981369019 0.81449490785598755
0.53488337993621826 0.58585041761398315 0.79892808198928833
0.78328680992126465 0.57159340381622314 0.78381109237670898
0.96659153699874878 0.56773221492767334 0.77880966663360596
1 0.56608885526657104 0.78282427787780762
0.011376474052667618 0.76900178194046021 0.78816670179367065
0.11413001269102097 0.78428137302398682 0.805572509765625
0.29136970639228821 0.78231519460678101 0.80511391162872314
0.52886927127838135 0.76487702131271362 0.78474169969558716
0.76554936170578003 0.74486672878265381 0.76403462886810303
0.94355940818786621 0.73480391502380371 0.75546663999557495
1 0.73256391286849976 0.75833594799041748
0.015426755882799625 0.94780707359313965 0.78010267019271851
0.1260068416595459 0.94929414987564087 0.79351270198822021
0.3011486828327179 0.93728381395339966 0.78562432527542114
0.5220787525177002 0.91841137409210205 0.76375538110733032
0.74178272485733032 0.89619600772857666 0.7439689040184021
0.91776001453399658 0.88101518154144287 0.73651814460754395
1 0.87682723999023438 0.73847901821136475
0.027375882491469383 1 0.76380890607833862
0.14868126809597015 1 0.77259224653244019
0.31616044044494629 1 0.76410835981369019
0.51699697971343994 1 0.74537795782089233
0.71711009740829468 0.99995404481887817 0.72941547632217407
0.88464081287384033 0.99739748239517212 0.72253131866455078
0.99458175897598267 0.99472534656524658 0.72218769788742065
0.063344769179821014 0.068593434989452362 0.23537866771221161
0.11075945198535919 0.088336750864982605 0.33029636740684509
0.1890614926815033 0.099136874079704285 0.42045843601226807
0.33652451634407043 0.098293989896774292 0.51236176490783691
0.54170536994934082 0.081499956548213959 0.6126524806022644
0.73877924680709839 0.07301224023103714 0.68981277942657471
0.9356798529624939 0.066208004951477051 0.76089316606521606
0.077845796942710876 0.19219991564750671 0.55628973245620728
0.15786555409431458 0.21538121998310089 0.64798593521118164
0.2870577871799469 0.22182746231555939 0.74141997098922729
0.48386630415916443 0.21947208046913147 0.78785628080368042
0.72510290145874023 0.20518341660499573 0.83453208208084106
0.93618172407150269 0.19886864721775055 0.86875462532043457
1 0.19997610151767731 0.88818418979644775
0.049378983676433563 0.36737403273582458 0.81088721752166748
0.15011633932590485 0.39336469769477844 0.85902935266494751
0.30943089723587036 0.40371620655059814 0.89714503288269043
0.53751426935195923 0.39561614394187927 0.91001343727111816
0.78170055150985718 0.38577121496200562 0.91015446186065674
0.97726243734359741 0.38514319062232971 0.90762597322463989
1 0.37939196825027466 0.91425406932830811
0.016814930364489555 0.57537692785263062 0.90598076581954956
0.12815338373184204 0.59657347202301025 0.92946732044219971
0.30022695660591125 0.60431009531021118 0.93726098537445068
0.54037457704544067 0.58920753002166748 0.92803430557250977
0.78409290313720703 0.5739973783493042 0.91022402048110962
0.97433602809906006 0.56817072629928589 0.89768016338348389
1 0.56227046251296997 0.8973889946937561
0.014613566920161247 0.76781952381134033 0.91378676891326904
0.12632760405540466 0.78737431764602661 0.92993426322937012
0.30403041839599609 0.78401356935501099 0.92734116315841675
0.53575551509857178 0.76505470275878906 0.90836560726165771
0.76864385604858398 0.74389994144439697 0.88532000780105591
0.95004665851593018 0.73366093635559082 0.87177318334579468
1 0.72928410768508911 0.8707776665687561
0.021190479397773743 0.948539137840271 0.90008580684661865
0.13403719663619995 0.95042860507965088 0.90943169593811035
0.31091153621673584 0.93668019771575928 0.90137088298797607
0.52704107761383057 0.91748732328414917 0.87973952293395996
0.73991823196411133 0.89437752962112427 0.85785353183746338
0.91370284557342529 0.88030165433883667 0.84554708003997803
0.99992799758911133 0.87975394725799561 0.84455305337905884
0.03569934144616127 0.99983817338943481 0.87636786699295044
0.15632167458534241 1 0.88366764783859253
0.32346874475479126 1 0.87463080883026123
0.51962441205978394 1 0.85532164573669434
0.71380120515823364 0.99968564510345459 0.83845347166061401
0.87871301174163818 0.99615252017974854 0.82893234491348267
0.99206441640853882 0.99283087253570557 0.82515764236450195
