assets/lut/alexjordan yellow film 01.cube
# Created by: G'MIC (https://gmic.eu)
TITLE "yellow_film_01"
# LUT size
LUT_3D_SIZE 13
# Data domain
DOMAIN_MIN 0.0 0.0 0.0
DOMAIN_MAX 1.0 1.0 1.0
# LUT data points
0.034183800220489502 0.036102086305618286 0.036950983107089996
0.047697704285383224 0.04194679856300354 0.043218649923801422
0.062718003988265991 0.047601856291294098 0.047978360205888748
0.082462430000305176 0.054031714797019958 0.053533531725406647
0.10756704211235046 0.060236059129238129 0.060493409633636475
0.139145627617836 0.065230332314968109 0.065408937633037567
0.17755088210105896 0.068412885069847107 0.068003125488758087
0.21907059848308563 0.071720093488693237 0.070981867611408234
0.26565486192703247 0.075189881026744843 0.074000805616378784
0.31832858920097351 0.07802291214466095 0.076745279133319855
0.37990117073059082 0.078186273574829102 0.077842831611633301
0.44686943292617798 0.078186273574829102 0.078828446567058563
0.51059013605117798 0.079430915415287018 0.080203160643577576
0.050856586545705795 0.071397595107555389 0.052524011582136154
0.075442537665367126 0.077733553946018219 0.057097088545560837
0.10363084077835083 0.082351863384246826 0.062055520713329315
0.13200302422046661 0.089462116360664368 0.069447189569473267
0.16297329962253571 0.094851367175579071 0.077535070478916168
0.20109787583351135 0.10065516829490662 0.081107839941978455
0.24468131363391876 0.10522527992725372 0.08343379944562912
0.29054147005081177 0.10982903838157654 0.087605841457843781
0.34257104992866516 0.11462942510843277 0.089106902480125427
0.40022200345993042 0.11791898310184479 0.089578740298748016
0.46173363924026489 0.11946065723896027 0.091459058225154877
0.52795177698135376 0.12099897861480713 0.092666372656822205
0.59024274349212646 0.12486449629068375 0.094612836837768555
0.05745532363653183 0.11810023337602615 0.056828964501619339
0.090057045221328735 0.12560458481311798 0.057777479290962219
0.13128282129764557 0.13103464245796204 0.057591456919908524
0.1785065233707428 0.13474170863628387 0.06195748969912529
0.22499613463878632 0.13744410872459412 0.069886133074760437
0.27133548259735107 0.14313673973083496 0.074997022747993469
0.31713348627090454 0.14870302379131317 0.081993430852890015
0.36292433738708496 0.15546122193336487 0.091241277754306793
0.41465756297111511 0.16170957684516907 0.097155764698982239
0.47216856479644775 0.16636815667152405 0.10070724785327911
0.53253370523452759 0.16986368596553802 0.10492835193872452
0.5983852744102478 0.17291565239429474 0.10799684375524521
0.66159218549728394 0.17805247008800507 0.10996081680059433
0.049075480550527573 0.18154579401016235 0.049347449094057083
0.086286716163158417 0.18946115672588348 0.048846989870071411
0.1340612918138504 0.1956213116645813 0.044982567429542542
0.19641630351543427 0.19696332514286041 0.043694291263818741
0.26438525319099426 0.19689139723777771 0.046729560941457748
0.32867103815078735 0.19861111044883728 0.053084816783666611
0.38416272401809692 0.20292419195175171 0.06534682959318161
0.43235814571380615 0.21030154824256897 0.08223579078912735
0.48331651091575623 0.21753302216529846 0.095974057912826538
0.53945034742355347 0.22341702878475189 0.10570067167282104
0.59813147783279419 0.22872418165206909 0.11498373001813889
0.66301566362380981 0.2335769385099411 0.12155332416296005
0.72793012857437134 0.23969340324401855 0.12550276517868042
0.034592796117067337 0.25615477561950684 0.036464869976043701
0.075508177280426025 0.26409044861793518 0.036679256707429886
0.12758409976959229 0.27001649141311646 0.033525727689266205
0.1945415735244751 0.27168351411819458 0.030732801184058189
0.27147427201271057 0.27110031247138977 0.030742047354578972
0.3513852059841156 0.27075392007827759 0.03519134595990181
0.42812380194664001 0.27110248804092407 0.045014504343271255
0.49323049187660217 0.2750585675239563 0.062696509063243866
0.55129438638687134 0.28126698732376099 0.081731356680393219
0.61078512668609619 0.28758066892623901 0.097336754202842712
0.67222154140472412 0.29412209987640381 0.11120074242353439
0.73815226554870605 0.30001488327980042 0.12323459982872009
0.80192214250564575 0.30673450231552124 0.13228058815002441
0.023332513868808746 0.33728808164596558 0.025152603164315224
0.066680386662483215 0.34571656584739685 0.026270832866430283
0.12125880271196365 0.35235291719436646 0.024869641289114952
0.18793012201786041 0.35553121566772461 0.02398325689136982
0.26530954241752625 0.35651969909667969 0.024888357147574425
0.3517337441444397 0.35642299056053162 0.027105264365673065
0.44471853971481323 0.35447868704795837 0.030669791623950005
0.53091275691986084 0.35344564914703369 0.041496891528367996
0.60697555541992188 0.35526549816131592 0.059050075709819794
0.67813193798065186 0.36003783345222473 0.076254226267337799
0.74860197305679321 0.36645030975341797 0.09245096892118454
0.81949865818023682 0.37234047055244446 0.10882656276226044
0.88257485628128052 0.37922561168670654 0.12484966963529587
0.017793243750929832 0.4229373037815094 0.018614510074257851
0.061165425926446915 0.43248343467712402 0.019771246239542961
0.11614348739385605 0.44106483459472656 0.018883664160966873
0.18361444771289825 0.44572961330413818 0.020678186789155006
0.2618335485458374 0.44760987162590027 0.024244943633675575
0.34982520341873169 0.44818851351737976 0.026166221126914024
0.44654899835586548 0.44696733355522156 0.025229090824723244
0.54484981298446655 0.44416078925132751 0.028278591111302376
0.63929224014282227 0.44220072031021118 0.038015343248844147
0.72856295108795166 0.44304090738296509 0.052095450460910797
0.81307947635650635 0.44756790995597839 0.067038923501968384
0.89436006546020508 0.45290619134902954 0.083156034350395203
0.95727914571762085 0.46035084128379822 0.10255435109138489
0.0142785320058465 0.51251018047332764 0.013887248001992702
0.055951781570911407 0.5230402946472168 0.016941040754318237
0.11129334568977356 0.5331418514251709 0.017275268211960793
0.18066288530826569 0.53875869512557983 0.020882461220026016
0.26147386431694031 0.54109114408493042 0.027045561000704765
0.35063073039054871 0.54196840524673462 0.030046125873923302
0.44698092341423035 0.54228609800338745 0.02904776856303215
0.54839539527893066 0.54130131006240845 0.027522817254066467
0.65226680040359497 0.53979671001434326 0.029266238212585449
0.75444871187210083 0.53906404972076416 0.034957017749547958
0.85736429691314697 0.54096525907516479 0.044706951826810837
0.95641511678695679 0.54398363828659058 0.057371564209461212
0.99815738201141357 0.55092185735702515 0.071720436215400696
0.0080096079036593437 0.60782718658447266 0.0080094132572412491
0.04639028012752533 0.61832618713378906 0.016016418114304543
0.10285238921642303 0.62829548120498657 0.019462240859866142
0.17545142769813538 0.63538056612014771 0.022430839017033577
0.25830256938934326 0.63959753513336182 0.027249639853835106
0.34795880317687988 0.6419978141784668 0.031063320115208626
0.44429334998130798 0.64310115575790405 0.032783269882202148
0.54597604274749756 0.6449732780456543 0.030486088246107101
0.65223211050033569 0.6478084921836853 0.024567054584622383
0.76208317279815674 0.64898282289505005 0.018337743356823921
0.8812108039855957 0.64800649881362915 0.018096445128321648
0.98380535840988159 0.64728254079818726 0.02006765641272068
1 0.65179789066314697 0.034339096397161484
0.0015549154486507177 0.71209090948104858 0.0019853329285979271
0.028895210474729538 0.72329682111740112 0.010106928646564484
0.085792675614356995 0.7346271276473999 0.01437714509665966
0.160490483045578 0.74368447065353394 0.014169909991323948
0.24371090531349182 0.75083482265472412 0.013611468486487865
0.33348932862281799 0.75546270608901978 0.015721892938017845
0.43278777599334717 0.75488537549972534 0.02190113440155983
0.53464746475219727 0.75890988111495972 0.017899787053465843
0.64224284887313843 0.76520735025405884 0.0095197195187211037
0.76136374473571777 0.76721745729446411 0.0037066142540425062
0.89196044206619263 0.76357942819595337 0.0045738820917904377
0.98916590213775635 0.75984710454940796 0.014450132846832275
0.99999243021011353 0.76143187284469604 0.051695477217435837
0 0.82439768314361572 2.154182038793806e-05
0.011412063613533974 0.84128683805465698 0.00074597529601305723
0.062705144286155701 0.85562688112258911 0.002014354569837451
0.13651467859745026 0.86477208137512207 0.0017204734031111002
0.22070395946502686 0.87196838855743408 0.00064161710906773806
0.31179943680763245 0.88002848625183105 0.00073741836240515113
0.41764858365058899 0.8785744309425354 0.0046235029585659504
0.5245482325553894 0.87983065843582153 0.0071228626184165478
0.63498592376708984 0.88358259201049805 0.016630509868264198
0.75538414716720581 0.88126707077026367 0.040146652609109879
0.87850642204284668 0.87585639953613281 0.081652171909809113
0.97380656003952026 0.87225258350372314 0.15209808945655823
0.99911510944366455 0.87268519401550293 0.25851374864578247
0 0.93001919984817505 0
0.0083441045135259628 0.95201629400253296 6.4475862018298358e-06
0.055836666375398636 0.96749824285507202 0.00080190919106826186
0.13291652500629425 0.97090429067611694 0.0039591323584318161
0.22976864874362946 0.96703499555587769 0.0076201795600354671
0.33236178755760193 0.97521525621414185 0.022655531764030457
0.45106351375579834 0.97609740495681763 0.06763438880443573
0.57126271724700928 0.9723694920539856 0.11909370869398117
0.6867825984954834 0.96998894214630127 0.19524520635604858
0.79544943571090698 0.96507942676544189 0.2919955849647522
0.89291900396347046 0.96035152673721313 0.4109153151512146
0.9687504768371582 0.96193259954452515 0.5707550048828125
0.99921023845672607 0.96561545133590698 0.71502071619033813
0.009871150366961956 0.99562084674835205 0.011613838374614716
0.040055695921182632 0.99973177909851074 0.021520158275961876
0.098604179918766022 1 0.042281057685613632
0.19023403525352478 1 0.071340911090373993
0.30861383676528931 0.99938488006591797 0.11071207374334335
0.43992114067077637 0.99965947866439819 0.19238455593585968
0.58402270078659058 0.99982142448425293 0.32216113805770874
0.71641194820404053 0.99930644035339355 0.45734590291976929
0.83102631568908691 0.99896365404129028 0.61203926801681519
0.92436563968658447 0.99788951873779297 0.77888762950897217
0.98060619831085205 0.99721473455429077 0.91342073678970337
0.99781733751296997 0.99915492534637451 0.98254621028900146
0.99987363815307617 0.99984580278396606 0.99830400943756104
0.034548442810773849 0.03681328147649765 0.04536500945687294
0.053304873406887054 0.042147107422351837 0.054054275155067444
0.071697533130645752 0.04737771674990654 0.060589347034692764
0.090813085436820984 0.054911237210035324 0.065566346049308777
0.11616584658622742 0.061871785670518875 0.073129825294017792
0.14811354875564575 0.066959217190742493 0.079980485141277313
0.18639998137950897 0.070537328720092773 0.084270402789115906
0.22872695326805115 0.074046552181243896 0.089218199253082275
0.27730420231819153 0.077755630016326904 0.093802385032176971
0.33362588286399841 0.078186273574829102 0.097423017024993896
0.39677083492279053 0.077662751078605652 0.10027965158224106
0.46361187100410461 0.076612196862697601 0.10300883650779724
0.52761608362197876 0.07841886579990387 0.1071956530213356
0.051258116960525513 0.073167510330677032 0.069849468767642975
0.078545637428760529 0.079394049942493439 0.077011466026306152
0.10392262786626816 0.086218245327472687 0.085896015167236328
0.13006541132926941 0.093605205416679382 0.092504195868968964
0.1614670604467392 0.10055480897426605 0.098364420235157013
0.19971044361591339 0.10604530572891235 0.10428362339735031
0.24376331269741058 0.11005322635173798 0.10819811373949051
0.29132023453712463 0.11433091759681702 0.11294226348400116
0.34534528851509094 0.11844044178724289 0.11557874828577042
0.40538796782493591 0.12057039141654968 0.11710809171199799
0.46830427646636963 0.12153291702270508 0.11979068070650101
0.53421556949615479 0.12271010130643845 0.12294051051139832
0.59609824419021606 0.12695212662220001 0.12757189571857452
0.05734647810459137 0.12058911472558975 0.083892077207565308
0.092322945594787598 0.12709906697273254 0.087929762899875641
0.13327606022357941 0.13209012150764465 0.092905871570110321
0.17410624027252197 0.13832637667655945 0.10062222927808762
0.21679848432540894 0.14488331973552704 0.11003749817609787
0.25949031114578247 0.15090653300285339 0.11653756350278854
0.30458304286003113 0.15600448846817017 0.12262145429849625
0.35192283987998962 0.16187877953052521 0.13023844361305237
0.40678733587265015 0.16759195923805237 0.13511772453784943
0.46650239825248718 0.17178802192211151 0.13734762370586395
0.52832311391830444 0.17524836957454681 0.14101377129554749
0.5933493971824646 0.17847070097923279 0.1453007310628891
0.65652883052825928 0.1837584376335144 0.14988116919994354
0.04744364321231842 0.18334546685218811 0.083187222480773926
0.087070629000663757 0.1905636191368103 0.085206277668476105
0.13802123069763184 0.19547216594219208 0.085241474211215973
0.19735342264175415 0.19798214733600616 0.087627112865447998
0.26070964336395264 0.20042961835861206 0.094815872609615326
0.3174685537815094 0.20458255708217621 0.10612103343009949
0.36714163422584534 0.20999057590961456 0.11947483569383621
0.41387844085693359 0.21754935383796692 0.13535459339618683
0.46737024188041687 0.22495818138122559 0.14653989672660828
0.52548748254776001 0.23093248903751373 0.15306229889392853
0.58561044931411743 0.23689326643943787 0.15977099537849426
0.65017849206924438 0.24226024746894836 0.1667158454656601
0.71436125040054321 0.24859413504600525 0.17240561544895172
0.02978222444653511 0.25800874829292297 0.072360768914222717
0.073801316320896149 0.26577630639076233 0.075330160558223724
0.12986092269420624 0.27125135064125061 0.074669495224952698
0.19753819704055786 0.27345868945121765 0.07245984673500061
0.27424722909927368 0.27352643013000488 0.07493998110294342
0.3513609766960144 0.27408716082572937 0.086337007582187653
0.42169955372810364 0.27577480673789978 0.10105602443218231
0.48029658198356628 0.28112590312957764 0.12173062562942505
0.53676891326904297 0.28789767622947693 0.14113742113113403
0.59458845853805542 0.29558458924293518 0.15453881025314331
0.65478181838989258 0.30394026637077332 0.16673159599304199
0.71847772598266602 0.31118875741958618 0.17829228937625885
0.78091460466384888 0.31832203269004822 0.18718697130680084
0.016964258626103401 0.33933448791503906 0.061379421502351761
0.063665233552455902 0.34776929020881653 0.065658718347549438
0.12223730981349945 0.35459074378013611 0.066466569900512695
0.19122448563575745 0.35831364989280701 0.066136226058006287
0.2696397602558136 0.3597833514213562 0.069151632487773895
0.35600489377975464 0.36029309034347534 0.075822524726390839
0.44747176766395569 0.35808685421943665 0.081834740936756134
0.52876740694046021 0.35763740539550781 0.096700690686702728
0.60013389587402344 0.36063084006309509 0.11865773051977158
0.66619962453842163 0.36775878071784973 0.13883978128433228
0.73226583003997803 0.37675315141677856 0.15640720725059509
0.79920852184295654 0.38427644968032837 0.1726301908493042
0.86030691862106323 0.39200517535209656 0.18712900578975677
0.013812779448926449 0.42489644885063171 0.054814685136079788
0.059149619191884995 0.43494856357574463 0.058555707335472107
0.11712513118982315 0.44397813081741333 0.059757757931947708
0.1860300600528717 0.4490588903427124 0.062971122562885284
0.26497036218643188 0.45129501819610596 0.068862974643707275
0.35416290163993835 0.45223298668861389 0.072580836713314056
0.45196324586868286 0.45042204856872559 0.071393601596355438
0.54743379354476929 0.44844457507133484 0.075982235372066498
0.63750714063644409 0.44770598411560059 0.092675663530826569
0.721710205078125 0.45033562183380127 0.11465684324502945
0.80289387702941895 0.45631316304206848 0.1339862197637558
0.88183802366256714 0.46255189180374146 0.15207147598266602
0.94412004947662354 0.47050559520721436 0.17061993479728699
0.014575240202248096 0.51453161239624023 0.048628322780132294
0.057596258819103241 0.52549201250076294 0.053831003606319427
0.11434365063905716 0.53619694709777832 0.055919136852025986
0.18429149687290192 0.54192715883255005 0.062009204179048538
0.26533776521682739 0.5441359281539917 0.070697620511054993
0.35531610250473022 0.54542160034179688 0.074603289365768433
0.45205992460250854 0.54583835601806641 0.072549380362033844
0.55141347646713257 0.54631716012954712 0.07078290730714798
0.65261852741241455 0.54564166069030762 0.079150781035423279
0.75324052572250366 0.5454331636428833 0.094799235463142395
0.85453826189041138 0.54708421230316162 0.10870914906263351
0.95138710737228394 0.55034512281417847 0.1233111247420311
0.99672180414199829 0.55800551176071167 0.14046384394168854
0.013461213558912277 0.60997295379638672 0.039117760956287384
0.053797375410795212 0.62098771333694458 0.049188278615474701
0.11038230359554291 0.63079607486724854 0.05590922012925148
0.18184302747249603 0.6374133825302124 0.062666647136211395
0.26365390419960022 0.64190685749053955 0.070497013628482819
0.35360902547836304 0.6447451114654541 0.075787656009197235
0.448497474193573 0.64736044406890869 0.075491644442081451
0.54800248146057129 0.65065485239028931 0.07193458080291748
0.65405559539794922 0.65362346172332764 0.071450449526309967
0.76585441827774048 0.65425246953964233 0.074542731046676636
0.88433504104614258 0.65210795402526855 0.076020680367946625
0.9835197925567627 0.65151655673980713 0.081952549517154694
1 0.65741980075836182 0.10256268084049225
0.0076341219246387482 0.71577882766723633 0.024079056456685066
0.041606169193983078 0.72830760478973389 0.037469107657670975
0.098235048353672028 0.73670238256454468 0.047493353486061096
0.17107860743999481 0.74377727508544922 0.052807062864303589
0.25113970041275024 0.75254976749420166 0.055148031562566757
0.34055700898170471 0.75746607780456543 0.06002044677734375
0.43562614917755127 0.76085996627807617 0.061128430068492889
0.5364641547203064 0.76539403200149536 0.057318340986967087
0.64503830671310425 0.77082175016403198 0.052160359919071198
0.76555418968200684 0.77192646265029907 0.05091032013297081
0.89509177207946777 0.76764124631881714 0.055626619607210159
0.99005424976348877 0.7642102837562561 0.077548742294311523
1 0.76783925294876099 0.13008356094360352
0.00072075339267030358 0.83263343572616577 0.0091993594542145729
0.019943341612815857 0.84968924522399902 0.016084304079413414
0.074493080377578735 0.85821586847305298 0.024835593998432159
0.1493762731552124 0.86401176452636719 0.029976055026054382
0.22997987270355225 0.87382775545120239 0.028144193813204765
0.31964066624641418 0.88138383626937866 0.029703207314014435
0.4203478991985321 0.88418978452682495 0.040583815425634384
0.53102344274520874 0.88446974754333496 0.057247761636972427
0.64352476596832275 0.88637608289718628 0.074893385171890259
0.76301485300064087 0.88425964117050171 0.10351236164569855
0.88400650024414062 0.8794867992401123 0.14816461503505707
0.97712820768356323 0.87733763456344604 0.22394481301307678
0.99997466802597046 0.88029736280441284 0.34217950701713562
0 0.94236934185028076 0.0060119028203189373
0.0082337921485304832 0.96262341737747192 0.0064523583278059959
0.060295060276985168 0.97058671712875366 0.01461391057819128
0.14380243420600891 0.97121363878250122 0.031573545187711716
0.24193947017192841 0.97108501195907593 0.04684937372803688
0.34354975819587708 0.97618550062179565 0.066900603473186493
0.4577728807926178 0.97875088453292847 0.11285147815942764
0.58758676052093506 0.97280454635620117 0.1906365305185318
0.7022712230682373 0.97082895040512085 0.26984497904777527
0.81156224012374878 0.96569710969924927 0.37083804607391357
0.90486007928848267 0.96163523197174072 0.48993793129920959
0.97408956289291382 0.96613264083862305 0.6457783579826355
0.99936485290527344 0.9730103611946106 0.79311776161193848
0.0078431675210595131 0.99879074096679688 0.032805155962705612
0.035975810140371323 0.99999982118606567 0.041361566632986069
0.10064967721700668 1 0.067109324038028717
0.20256595313549042 1 0.11213450878858566
0.32891792058944702 1 0.17266586422920227
0.46318459510803223 1 0.25760197639465332
0.60454678535461426 1 0.37936928868293762
0.74412286281585693 0.99952948093414307 0.52904641628265381
0.85375595092773438 0.99940705299377441 0.67962920665740967
0.94420987367630005 0.99804520606994629 0.83929628133773804
0.9861985445022583 0.99757486581802368 0.94101130962371826
0.99920618534088135 0.99971997737884521 0.99420434236526489
1 1 1
0.035290900617837906 0.037481885403394699 0.060133751481771469
0.057731717824935913 0.042255043983459473 0.072435490787029266
0.082947328686714172 0.046567685902118683 0.081725731492042542
0.11063309013843536 0.051704946905374527 0.087986066937446594
0.14067986607551575 0.057482969015836716 0.093558669090270996
0.17302019894123077 0.063055925071239471 0.099158719182014465
0.21033650636672974 0.067564629018306732 0.10432517528533936
0.25236743688583374 0.072061903774738312 0.1102527379989624
0.30009067058563232 0.075779885053634644 0.11624544858932495
0.35620865225791931 0.076214343309402466 0.12092351168394089
0.41816234588623047 0.074648626148700714 0.12461850047111511
0.48296052217483521 0.074471704661846161 0.12874701619148254
0.54808712005615234 0.076340124011039734 0.13432171940803528
0.052640520036220551 0.073902040719985962 0.096591547131538391
0.082209564745426178 0.079234644770622253 0.10635286569595337
0.11524728685617447 0.083966091275215149 0.1154758557677269
0.14597058296203613 0.090516261756420135 0.12034099549055099
0.17775307595729828 0.098978675901889801 0.12288535386323929
0.21520526707172394 0.10572825372219086 0.12922851741313934
0.2587275505065918 0.11004218459129333 0.13461118936538696
0.30612188577651978 0.11460693925619125 0.13956660032272339
0.35878777503967285 0.11891584098339081 0.14401677250862122
0.41629087924957275 0.12131268531084061 0.14710976183414459
0.47736275196075439 0.12216512858867645 0.15010230243206024
0.54120939970016479 0.12437271326780319 0.1541932076215744
0.60409373044967651 0.1286688894033432 0.16004598140716553
0.056873038411140442 0.12234450876712799 0.12126120924949646
0.092159181833267212 0.12883900105953217 0.12787531316280365
0.13480620086193085 0.13310128450393677 0.13573345541954041
0.17182657122612 0.14072306454181671 0.14224696159362793
0.21154603362083435 0.15011082589626312 0.15067280828952789
0.25445890426635742 0.1563546359539032 0.15722322463989258
0.3011782169342041 0.16086621582508087 0.16124327480792999
0.35142436623573303 0.16573026776313782 0.16737782955169678
0.40693119168281555 0.17122913897037506 0.17154449224472046
0.46495720744132996 0.17594467103481293 0.17419543862342834
0.52546012401580811 0.1799711287021637 0.1775069534778595
0.58926379680633545 0.18398401141166687 0.1824091374874115
0.65334773063659668 0.18907234072685242 0.188089519739151
0.04591045156121254 0.18550252914428711 0.12844853103160858
0.086100772023200989 0.1928185373544693 0.13333779573440552
0.13853752613067627 0.19710911810398102 0.13811734318733215
0.19867661595344543 0.19890116155147552 0.14275091886520386
0.25474941730499268 0.20369687676429749 0.15321680903434753
0.3034384548664093 0.2109331339597702 0.16585229337215424
0.35034412145614624 0.21757762134075165 0.17584359645843506
0.39933386445045471 0.22374348342418671 0.1871173083782196
0.4549613893032074 0.23091700673103333 0.19412550330162048
0.51271164417266846 0.23830577731132507 0.19907982647418976
0.57207351922988892 0.24524269998073578 0.20460660755634308
0.6362195611000061 0.25108584761619568 0.21119169890880585
0.70130175352096558 0.25720334053039551 0.21727995574474335
0.027859034016728401 0.25995489954948425 0.12211257219314575
0.073313936591148376 0.26757368445396423 0.12820100784301758
0.13299120962619781 0.27258685231208801 0.13063310086727142
0.20427209138870239 0.27367007732391357 0.12959979474544525
0.27925792336463928 0.27408304810523987 0.1341162770986557
0.34768158197402954 0.27754318714141846 0.15201877057552338
0.40904572606086731 0.28221550583839417 0.16879497468471527
