assets/lut/alexjordan smart contrast.cube
# Created by: G'MIC (https://gmic.eu)
TITLE "smart_contrast"
# LUT size
LUT_3D_SIZE 7
# Data domain
DOMAIN_MIN 0.0 0.0 0.0
DOMAIN_MAX 1.0 1.0 1.0
# LUT data points
0.015266538597643375 0.016164623200893402 0.015916667878627777
0.065146967768669128 0.020354341715574265 0.020744293928146362
0.14927347004413605 0.017949586734175682 0.016488887369632721
0.2871418297290802 0.012886002659797668 0.014876631088554859
0.41309884190559387 0.0078003676608204842 0.0058777304366230965
0.491131991147995 0.0015519085573032498 0.00013786765339318663
0.56073981523513794 0.010754948481917381 0.0042180977761745453
0.036745138466358185 0.079135805368423462 0.036940030753612518
0.089956380426883698 0.087637461721897125 0.045073162764310837
0.17880068719387054 0.090781055390834808 0.046256870031356812
0.32405838370323181 0.089385807514190674 0.049557838588953018
0.46497809886932373 0.090049028396606445 0.048797622323036194
0.56494545936584473 0.10074455291032791 0.055309489369392395
0.65480917692184448 0.14850524067878723 0.094752445816993713
0.047175582498311996 0.17990143597126007 0.047141939401626587
0.11446698009967804 0.20328201353549957 0.071781933307647705
0.2205495685338974 0.22224728763103485 0.093126185238361359
0.38566291332244873 0.23657858371734619 0.10914365202188492
0.54997926950454712 0.25710055232048035 0.12941491603851318
0.67353862524032593 0.29691702127456665 0.16893276572227478
0.76750224828720093 0.35168853402137756 0.22136138379573822
0.073402583599090576 0.35138997435569763 0.073084034025669098
0.16627401113510132 0.39824274182319641 0.12128092348575592
0.2964056134223938 0.44219103455543518 0.16512268781661987
0.47146859765052795 0.47307708859443665 0.19478659331798553
0.64592671394348145 0.49784821271896362 0.22060714662075043
0.77384424209594727 0.54442065954208374 0.26696297526359558
0.86125719547271729 0.59051269292831421 0.31507027149200439
0.17146977782249451 0.58156090974807739 0.1737651526927948
0.26905500888824463 0.63863205909729004 0.22348612546920776
0.39808124303817749 0.69021642208099365 0.26636806130409241
0.56623691320419312 0.71457940340042114 0.29135322570800781
0.73378455638885498 0.73478144407272339 0.31181955337524414
0.85376298427581787 0.77324485778808594 0.34404152631759644
0.92984020709991455 0.80494314432144165 0.38052040338516235
0.31038135290145874 0.80866289138793945 0.314218670129776
0.40412575006484985 0.85727041959762573 0.35487821698188782
0.51771539449691772 0.88987559080123901 0.37706509232521057
0.66651743650436401 0.89566832780838013 0.38556623458862305
0.81625515222549438 0.89607459306716919 0.39270448684692383
0.91950207948684692 0.91997796297073364 0.40474984049797058
0.98554223775863647 0.94300907850265503 0.42435845732688904
0.44316002726554871 0.98486101627349854 0.4412473738193512
0.5293353796005249 0.99776071310043335 0.46371138095855713
0.6305583119392395 0.99992996454238892 0.46703875064849854
0.75645154714584351 0.99887967109680176 0.46086698770523071
0.88120424747467041 0.99629741907119751 0.45490255951881409
0.96999675035476685 0.99968618154525757 0.45331624150276184
1 1 0.46161791682243347
0.016489200294017792 0.02037557028234005 0.062864236533641815
0.067829206585884094 0.022689325734972954 0.066768303513526917
0.14946839213371277 0.01672649011015892 0.060216296464204788
0.28620797395706177 0.010440243408083916 0.053232993930578232
0.41857194900512695 0.0087363896891474724 0.04149487242102623
0.49774226546287537 0.0047102686949074268 0.032751254737377167
0.55796468257904053 0.012770035304129124 0.048782903701066971
0.03881511464715004 0.084030970931053162 0.08253873884677887
0.092848055064678192 0.094016626477241516 0.093009278178215027
0.18177317082881927 0.094646692276000977 0.093282587826251984
0.33228197693824768 0.095182068645954132 0.09730212390422821
0.4834587574005127 0.10312290489673615 0.10332442820072174
0.58688759803771973 0.11956785619258881 0.11654722690582275
0.66431450843811035 0.15888200700283051 0.15231594443321228
0.056094840168952942 0.18486320972442627 0.1009463295340538
0.12414951622486115 0.21319161355495453 0.1261858344078064
0.23511336743831635 0.23412503302097321 0.14941108226776123
0.40166875720024109 0.25233301520347595 0.16872328519821167
0.5736992359161377 0.27679041028022766 0.19363531470298767
0.69827234745025635 0.31662949919700623 0.23069293797016144
0.78856837749481201 0.36859682202339172 0.28264528512954712
0.088461346924304962 0.36787188053131104 0.13068538904190063
0.17819380760192871 0.41560760140419006 0.17828501760959625
0.31121104955673218 0.46075034141540527 0.22390872240066528
0.48869222402572632 0.49224889278411865 0.25552064180374146
0.66508251428604126 0.51896107196807861 0.28456845879554749
0.79421097040176392 0.56363487243652344 0.32670217752456665
0.88229608535766602 0.61033898591995239 0.37717777490615845
0.18409878015518188 0.60424888134002686 0.23110342025756836
0.27906021475791931 0.6619797945022583 0.28094148635864258
0.41168230772018433 0.70961856842041016 0.32308712601661682
0.58473902940750122 0.73380160331726074 0.3508726954460144
0.75089281797409058 0.75090569257736206 0.37117812037467957
0.8687930703163147 0.78386944532394409 0.40012308955192566
0.9445984959602356 0.81631028652191162 0.43682453036308289
0.32104718685150146 0.8287661075592041 0.37050348520278931
0.41155466437339783 0.8758971095085144 0.41613629460334778
0.52522212266921997 0.90126389265060425 0.4342980682849884
0.67940962314605713 0.90895646810531616 0.44086694717407227
0.82551449537277222 0.90862488746643066 0.44295087456703186
0.92411482334136963 0.92313218116760254 0.45297688245773315
0.98649352788925171 0.94254547357559204 0.47568953037261963
0.45098781585693359 0.99078226089477539 0.49473991990089417
0.5279431939125061 0.99902701377868652 0.52231228351593018
0.6240883469581604 0.99973577260971069 0.52345889806747437
0.75498813390731812 0.99907422065734863 0.51245284080505371
0.88017231225967407 0.99665373563766479 0.49794244766235352
0.96442586183547974 0.99830836057662964 0.49551492929458618
1 1 0.50827884674072266
0.017229760065674782 0.018572863191366196 0.15217211842536926
0.070273272693157196 0.025593163445591927 0.15130296349525452
0.15148521959781647 0.024081749841570854 0.15107768774032593
0.28842341899871826 0.018735833466053009 0.14158979058265686
0.42140263319015503 0.013605753891170025 0.12405171245336533
0.49784499406814575 0.0068520638160407543 0.12442123144865036
0.55714833736419678 0.016101732850074768 0.14909557998180389
0.040015008300542831 0.084552451968193054 0.17174717783927917
0.09849134087562561 0.097824528813362122 0.17997634410858154
0.19082252681255341 0.10469432175159454 0.18737486004829407
0.34117895364761353 0.10850955545902252 0.19368290901184082
0.49232202768325806 0.11448726058006287 0.19896982610225677
0.59481340646743774 0.13137154281139374 0.21653558313846588
0.67027431726455688 0.16967540979385376 0.25669416785240173
0.061836674809455872 0.19377341866493225 0.19405907392501831
0.13502956926822662 0.22159850597381592 0.22202740609645844
0.24970453977584839 0.24860604107379913 0.24905818700790405
0.41562104225158691 0.26958701014518738 0.26809060573577881
0.58540797233581543 0.29229345917701721 0.29353219270706177
0.70736527442932129 0.33323848247528076 0.33097222447395325
0.79629123210906982 0.3843284547328949 0.38481727242469788
0.10365805774927139 0.38541075587272644 0.23137956857681274
0.19441366195678711 0.43180468678474426 0.28270980715751648
0.32695749402046204 0.47490498423576355 0.32758888602256775
0.50293570756912231 0.50439298152923584 0.3547728955745697
0.67797362804412842 0.53078746795654297 0.38411998748779297
0.80243986845016479 0.57827329635620117 0.42632734775543213
0.89103257656097412 0.62639236450195312 0.47834154963493347
0.19936506450176239 0.62572801113128662 0.33082419633865356
0.29247042536735535 0.67967146635055542 0.38223773241043091
0.42434436082839966 0.72275042533874512 0.42399388551712036
0.59901756048202515 0.74527215957641602 0.45205545425415039
0.76278418302536011 0.76016640663146973 0.47125101089477539
0.87591654062271118 0.79102170467376709 0.4994049072265625
0.94932198524475098 0.82586431503295898 0.53238284587860107
0.32892858982086182 0.84211212396621704 0.46221405267715454
0.4113193154335022 0.88020247220993042 0.50415718555450439
0.52637547254562378 0.90234363079071045 0.52751773595809937
0.68785518407821655 0.91565889120101929 0.53877002000808716
0.82934731245040894 0.91371297836303711 0.53626412153244019
0.92154806852340698 0.92062866687774658 0.54322028160095215
0.97886377573013306 0.93629831075668335 0.56362974643707275
0.45303758978843689 0.99199354648590088 0.58119642734527588
0.5157628059387207 0.9963686466217041 0.60537385940551758
0.60629725456237793 0.99515390396118164 0.60730355978012085
0.74731504917144775 0.99722045660018921 0.59952199459075928
0.87450981140136719 0.9929925799369812 0.57839286327362061
0.95244544744491577 0.99234366416931152 0.57611632347106934
0.99703711271286011 0.99643403291702271 0.58586549758911133
0.014672223478555679 0.013696258887648582 0.29960909485816956
0.072202794253826141 0.022622980177402496 0.30018541216850281
0.15742436051368713 0.023188736289739609 0.30158299207687378
0.28155338764190674 0.01449928991496563 0.28811010718345642
0.40343919396400452 0.0050418181344866753 0.26334291696548462
0.49007183313369751 0.004074739757925272 0.26619026064872742
0.56285941600799561 0.018543513491749763 0.30098459124565125
0.037363748997449875 0.080052301287651062 0.31923472881317139
0.10050012916326523 0.096095681190490723 0.3306223452091217
0.2007627934217453 0.10759651660919189 0.34189364314079285
0.34641388058662415 0.11091534793376923 0.34592482447624207
0.48971739411354065 0.11079292744398117 0.34486708045005798
0.59519356489181519 0.12947680056095123 0.36441242694854736
0.6807323694229126 0.1759236603975296 0.41423457860946655
0.066627129912376404 0.19705423712730408 0.34635812044143677
0.1418161541223526 0.2256593257188797 0.37571808695793152
0.26093840599060059 0.25647476315498352 0.40343481302261353
0.42773616313934326 0.27790758013725281 0.42424112558364868
0.59605902433395386 0.29875555634498596 0.44910356402397156
0.71785503625869751 0.34053376317024231 0.48825463652610779
0.80584126710891724 0.3944036066532135 0.54050832986831665
0.12049779295921326 0.39910584688186646 0.39561733603477478
0.20888638496398926 0.44333299994468689 0.44410732388496399
0.33936947584152222 0.48449981212615967 0.48707449436187744
0.51480728387832642 0.51512008905410767 0.51322227716445923
0.69248753786087036 0.54362779855728149 0.54330635070800781
0.81762993335723877 0.58825027942657471 0.59055101871490479
0.89982235431671143 0.6337425708770752 0.63705652952194214
0.21707808971405029 0.64018005132675171 0.49363353848457336
0.31080541014671326 0.69240444898605347 0.54669779539108276
0.43889757990837097 0.72986197471618652 0.58638787269592285
0.60642760992050171 0.75271385908126831 0.60701531171798706
0.77217429876327515 0.77238845825195312 0.62457621097564697
0.88176411390304565 0.79884415864944458 0.65328282117843628
0.94830334186553955 0.82713478803634644 0.68155741691589355
0.34302496910095215 0.8526720404624939 0.62140369415283203
0.42777347564697266 0.89253920316696167 0.66292887926101685
0.53742533922195435 0.90892678499221802 0.68321323394775391
0.6869741678237915 0.91564202308654785 0.68732136487960815
0.82813125848770142 0.91546475887298584 0.68379074335098267
0.91902762651443481 0.92101335525512695 0.68942165374755859
0.97347855567932129 0.93338853120803833 0.70359963178634644
0.4569055438041687 0.99337482452392578 0.73079174757003784
0.52088350057601929 0.99822944402694702 0.7489435076713562
0.61110025644302368 0.99773114919662476 0.74947792291641235
0.74213975667953491 0.99700170755386353 0.73877650499343872
0.86610913276672363 0.99250257015228271 0.72106075286865234
0.94581395387649536 0.98894381523132324 0.71524924039840698
0.99439710378646851 0.99300968647003174 0.72165250778198242
0.010751178488135338 0.010956932790577412 0.43515694141387939
0.068938553333282471 0.018023772165179253 0.43678468465805054
0.15513905882835388 0.015937671065330505 0.43721780180931091
0.27476382255554199 0.0076590445823967457 0.42458364367485046
0.3956756591796875 0.0024015239905565977 0.40283587574958801
0.49178287386894226 0.0051943911239504814 0.41179060935974121
0.57161509990692139 0.025961363688111305 0.45027512311935425
0.035077009350061417 0.07803383469581604 0.46094509959220886
0.099343873560428619 0.096228592097759247 0.47374597191810608
0.2003006786108017 0.10615213215351105 0.48483598232269287
0.34468105435371399 0.10677171498537064 0.4907073974609375
0.49164703488349915 0.11178681254386902 0.49413207173347473
0.60408127307891846 0.13842445611953735 0.51802772283554077
0.69456124305725098 0.18896210193634033 0.56473457813262939
0.071043498814105988 0.20015959441661835 0.49589148163795471
0.14716847240924835 0.23449143767356873 0.52441310882568359
0.26723375916481018 0.26353716850280762 0.55235153436660767
0.4358675479888916 0.28304541110992432 0.57772582769393921
0.60538357496261597 0.3074086606502533 0.60507255792617798
0.73075711727142334 0.35324481129646301 0.64412528276443481
0.8217543363571167 0.40988895297050476 0.69367945194244385
0.12708644568920135 0.40527093410491943 0.55430310964584351
0.218663290143013 0.45407715439796448 0.59982424974441528
0.35150021314620972 0.49544331431388855 0.64223635196685791
0.5280914306640625 0.52646803855895996 0.67303860187530518
0.70316725969314575 0.55933868885040283 0.70367145538330078
0.8299444317817688 0.60221278667449951 0.74770301580429077
0.91489005088806152 0.64730745553970337 0.79425698518753052
0.22806268930435181 0.64836180210113525 0.65350663661956787
0.32182395458221436 0.70062637329101562 0.70154845714569092
0.45031934976577759 0.73815351724624634 0.74136722087860107
0.61681556701660156 0.76160985231399536 0.76293462514877319
0.77844148874282837 0.78105795383453369 0.77836120128631592
0.88530451059341431 0.80432802438735962 0.80388432741165161
0.95357859134674072 0.82879137992858887 0.82834023237228394
0.35616967082023621 0.86056971549987793 0.78212052583694458
0.43628653883934021 0.89711135625839233 0.81507974863052368
0.54367977380752563 0.91511392593383789 0.83630746603012085
0.68995207548141479 0.91981601715087891 0.83841311931610107
0.83195704221725464 0.91553831100463867 0.83203911781311035
0.92108452320098877 0.91939306259155273 0.83723187446594238
0.97387009859085083 0.92951118946075439 0.84880697727203369
0.46497571468353271 0.99521875381469727 0.88138645887374878
0.52540183067321777 0.99856245517730713 0.8923947811126709
0.61355632543563843 0.99903905391693115 0.89289402961730957
0.73987406492233276 0.99761974811553955 0.87992203235626221
0.86565697193145752 0.99116677045822144 0.86436629295349121
0.946921706199646 0.9870227575302124 0.86017113924026489
0.99442487955093384 0.99055439233779907 0.8648371696472168
0.0080085750669240952 0.011089623905718327 0.51361000537872314
0.065759293735027313 0.015441176481544971 0.51479917764663696
0.15512450039386749 0.0089330188930034637 0.51029109954833984
0.27802735567092896 0.0045355702750384808 0.49974650144577026
0.40709978342056274 0.0056166853755712509 0.49482569098472595
0.51072078943252563 0.013960938900709152 0.51507878303527832
0.59692835807800293 0.044011060148477554 0.55461877584457397
0.033701863139867783 0.082881912589073181 0.5481683611869812
0.096278876066207886 0.10044220834970474 0.56038713455200195
0.19809462130069733 0.10435212403535843 0.56958365440368652
0.34435063600540161 0.10763014107942581 0.57561248540878296
0.49898242950439453 0.12368813157081604 0.58920800685882568
0.61879873275756836 0.15473185479640961 0.61957204341888428
0.71418124437332153 0.2087848037481308 0.66745483875274658
0.076341845095157623 0.20760105550289154 0.58832699060440063
0.15445029735565186 0.2448841780424118 0.62031137943267822
0.2736259400844574 0.27206572890281677 0.64811974763870239
0.44253820180892944 0.2940046489238739 0.67255455255508423
0.61556529998779297 0.32375013828277588 0.70230782032012939
0.74475562572479248 0.36949729919433594 0.7438349723815918
0.83972525596618652 0.42911368608474731 0.79325658082962036
0.14069992303848267 0.42000555992126465 0.64980781078338623
0.23548103868961334 0.47291013598442078 0.69587832689285278
0.36826428771018982 0.51354503631591797 0.73893731832504272
0.5446467399597168 0.54368817806243896 0.77076548337936401
0.71829897165298462 0.57361871004104614 0.80178660154342651
0.84388351440429688 0.61568605899810791 0.84531021118164062
0.92966043949127197 0.66217041015625 0.88866853713989258
0.23965270817279816 0.66529107093811035 0.74879747629165649
0.3335554301738739 0.71606224775314331 0.79214632511138916
0.46289476752281189 0.75458276271820068 0.8351672887802124
0.63077801465988159 0.77799594402313232 0.85633307695388794
0.78904932737350464 0.78961169719696045 0.87016803026199341
0.89232444763183594 0.80959981679916382 0.89340287446975708
0.95942097902297974 0.83531761169433594 0.91807901859283447
0.36373123526573181 0.87214201688766479 0.87254452705383301
0.43999788165092468 0.90302419662475586 0.90497386455535889
0.54567140340805054 0.91976833343505859 0.92493969202041626
0.6959415078163147 0.92401003837585449 0.92713445425033569
0.83864378929138184 0.91601002216339111 0.92026466131210327
0.9222295880317688 0.92041957378387451 0.92228132486343384
0.97328418493270874 0.93211585283279419 0.93279659748077393
0.46498566865921021 0.99701946973800659 0.96104925870895386
0.51917159557342529 0.9971051812171936 0.97690695524215698
0.60541409254074097 0.99693489074707031 0.97515058517456055
0.7365301251411438 0.99585336446762085 0.96154153347015381
0.86555671691894531 0.99019849300384521 0.95125776529312134
0.94546562433242798 0.98894751071929932 0.9473763108253479
0.99287480115890503 0.99370354413986206 0.94915890693664551
0.015940796583890915 0.015476376749575138 0.56437176465988159
0.078613072633743286 0.015348217450082302 0.56382554769515991
0.169486403465271 0.0092163980007171631 0.55603277683258057
0.29391935467720032 0.0092083951458334923 0.54731494188308716
0.43012145161628723 0.021594537422060966 0.55368518829345703
0.53727847337722778 0.038462948054075241 0.58495646715164185
0.62695139646530151 0.071382410824298859 0.62750852108001709
0.042914789170026779 0.096087031066417694 0.59906423091888428
0.11159591376781464 0.10845130681991577 0.61383283138275146
0.21378457546234131 0.11262299865484238 0.61986249685287476
0.35438504815101624 0.12011920660734177 0.62258332967758179
0.51377743482589722 0.14934036135673523 0.64596849679946899
0.63807690143585205 0.183926060795784 0.68343985080718994
0.73675167560577393 0.23648232221603394 0.73475897312164307
0.088615790009498596 0.22240464389324188 0.63755255937576294
0.17250324785709381 0.2590089738368988 0.67758411169052124
0.2933901846408844 0.28778567910194397 0.70501959323883057
0.45837858319282532 0.31349462270736694 0.72579056024551392
0.63104724884033203 0.34754207730293274 0.75741243362426758
0.75933283567428589 0.39322754740715027 0.80195367336273193
0.85664522647857666 0.45137777924537659 0.85441285371780396
0.16006888449192047 0.43777862191200256 0.70400488376617432
0.26006224751472473 0.49242812395095825 0.75477010011672974
0.39024618268013 0.53132849931716919 0.79674035310745239
0.56198853254318237 0.55890744924545288 0.82592302560806274
0.73344933986663818 0.5859915018081665 0.8561939001083374
0.85550391674041748 0.62862825393676758 0.8983534574508667
0.94505113363265991 0.67759066820144653 0.9451676607131958
0.25605866312980652 0.68362933397293091 0.80340820550918579
0.3580361008644104 0.73475092649459839 0.85447478294372559
0.48009940981864929 0.7713930606842041 0.89142882823944092
0.64161157608032227 0.78579533100128174 0.91069960594177246
0.79579836130142212 0.79177206754684448 0.92140823602676392
0.8976859450340271 0.81289094686508179 0.94029170274734497
0.96321070194244385 0.84155207872390747 0.96329611539840698
0.37641116976737976 0.88057160377502441 0.92535197734832764
0.46013322472572327 0.91996020078659058 0.9609110951423645
0.55876582860946655 0.93459808826446533 0.97223043441772461
0.70562559366226196 0.93062120676040649 0.97632390260696411
0.84337258338928223 0.91975080966949463 0.96430885791778564
0.92495423555374146 0.92142659425735474 0.96585702896118164
0.97789353132247925 0.93409872055053711 0.97749853134155273
0.46646130084991455 0.99564278125762939 0.99731510877609253
0.52867251634597778 1 1
0.612964928150177 1 1
0.74286961555480957 0.99945247173309326 0.99970108270645142
0.86630117893218994 0.99498975276947021 0.99609297513961792
0.94661110639572144 0.99127280712127686 0.9941718578338623
0.99575316905975342 0.99491572380065918 0.99595886468887329
