assets/lut/alexjordan cross process cp 03.cube
# Created by: G'MIC (https://gmic.eu)
TITLE "cross_process_cp_3"
# LUT size
LUT_3D_SIZE 5
# Data domain
DOMAIN_MIN 0.0 0.0 0.0
DOMAIN_MAX 1.0 1.0 1.0
# LUT data points
0.0075861462391912937 0.004823632538318634 0.010714976117014885
0.07400842010974884 0.051637805998325348 0.079448044300079346
0.21275439858436584 0.075829721987247467 0.1160777360200882
0.43414422869682312 0.078490026295185089 0.14553521573543549
0.72245198488235474 0.072422236204147339 0.1713346391916275
0.071734346449375153 0.21250222623348236 0.16581287980079651
0.17738968133926392 0.25915473699569702 0.19225753843784332
0.46110343933105469 0.26270982623100281 0.18890383839607239
0.79612582921981812 0.25950679183006287 0.16958612203598022
1 0.2588164210319519 0.17208613455295563
0.0060515012592077255 0.53107798099517822 0.17634399235248566
0.17205490171909332 0.56634944677352905 0.18714147806167603
0.51403480768203735 0.55235415697097778 0.17300225794315338
0.86306089162826538 0.53776794672012329 0.15341714024543762
1 0.53096842765808105 0.17008942365646362
0.010479153133928776 0.83929163217544556 0.16764082014560699
0.19421260058879852 0.84640383720397949 0.17943879961967468
0.51373153924942017 0.82538288831710815 0.17118406295776367
0.83379876613616943 0.80740851163864136 0.16233150660991669
1 0.79258769750595093 0.17224697768688202
0.021138284355401993 0.99819135665893555 0.18114505708217621
0.22665661573410034 1 0.18966418504714966
0.51339340209960938 1 0.17984111607074738
0.79633700847625732 0.9986538290977478 0.17218136787414551
0.99247801303863525 0.99235761165618896 0.17610293626785278
0.024306772276759148 0.02081744559109211 0.046172555536031723
0.089156098663806915 0.063201472163200378 0.12669359147548676
0.24830068647861481 0.078939847648143768 0.19032718241214752
0.48563298583030701 0.079718135297298431 0.24140773713588715
0.7870781421661377 0.06772199273109436 0.29288622736930847
0.072178751230239868 0.2284834235906601 0.26930460333824158
0.19168879091739655 0.27456986904144287 0.3233276903629303
0.48101502656936646 0.27442541718482971 0.3404897153377533
0.82228231430053711 0.26642554998397827 0.338491290807724
1 0.26445630192756653 0.35630989074707031
0.012549142353236675 0.5440666675567627 0.35248732566833496
0.17817054688930511 0.57950329780578613 0.3715205192565918
0.51928573846817017 0.56699907779693604 0.35504448413848877
0.87320047616958618 0.54829782247543335 0.34176361560821533
1 0.54500693082809448 0.35565277934074402
0.0029494042973965406 0.84094995260238647 0.36308389902114868
0.17972908914089203 0.86169064044952393 0.37413874268531799
0.50979018211364746 0.8371625542640686 0.35542631149291992
0.84648710489273071 0.81091320514678955 0.34195131063461304
1 0.80306649208068848 0.34854024648666382
0.011368111707270145 1 0.3661615252494812
0.20465134084224701 1 0.37664932012557983
0.50346881151199341 1 0.35743683576583862
0.80169206857681274 0.99988383054733276 0.3423384428024292
0.99444413185119629 0.99709206819534302 0.3448701798915863
0.03921997919678688 0.038303196430206299 0.096429817378520966
0.10875476151704788 0.074786059558391571 0.19749040901660919
0.28444430232048035 0.083479784429073334 0.28483188152313232
0.54858303070068359 0.079354017972946167 0.36306402087211609
0.83187353610992432 0.069738395512104034 0.43179744482040405
0.068092450499534607 0.24636983871459961 0.40016517043113708
0.1960521936416626 0.2871086597442627 0.4737851619720459
0.49636936187744141 0.28348976373672485 0.50807100534439087
0.84241127967834473 0.27582594752311707 0.51972633600234985
1 0.27457773685455322 0.54217028617858887
0.017502414062619209 0.55100876092910767 0.52893555164337158
0.18098293244838715 0.58710122108459473 0.5588001012802124
0.52867257595062256 0.57253164052963257 0.54657357931137085
0.87745928764343262 0.55721759796142578 0.53029459714889526
1 0.55912202596664429 0.53699582815170288
0.0081564057618379593 0.84109139442443848 0.54528677463531494
0.19054320454597473 0.86030900478363037 0.55908882617950439
0.51927167177200317 0.83617621660232544 0.53729414939880371
0.85188013315200806 0.8097527027130127 0.5188097357749939
0.99850845336914062 0.80790442228317261 0.52135694026947021
0.015587706118822098 1 0.53881192207336426
0.21452455222606659 1 0.54621762037277222
0.50984424352645874 1 0.5232466459274292
0.80512672662734985 0.99909055233001709 0.50776451826095581
0.99188613891601562 0.99696773290634155 0.50881505012512207
0.055433623492717743 0.058977507054805756 0.16525548696517944
0.12140905112028122 0.087758980691432953 0.27429306507110596
0.30083349347114563 0.095006801187992096 0.38235306739807129
0.61269152164459229 0.077242158353328705 0.5080716609954834
0.91907387971878052 0.062303163111209869 0.60646772384643555
0.067598886787891388 0.259966641664505 0.53274810314178467
0.203229159116745 0.2962287962436676 0.64302909374237061
0.50764000415802002 0.2937922477722168 0.68713819980621338
0.86176353693008423 0.28281795978546143 0.71177011728286743
1 0.28273236751556396 0.73691451549530029
0.020697979256510735 0.56126171350479126 0.70867913961410522
0.18725953996181488 0.5966724157333374 0.74860674142837524
0.53279387950897217 0.58261394500732422 0.73181241750717163
0.88041609525680542 0.566131591796875 0.71786892414093018
0.99993515014648438 0.5665239691734314 0.72199916839599609
0.013154168613255024 0.85745829343795776 0.72338342666625977
0.19614832103252411 0.86418896913528442 0.74117302894592285
0.52335727214813232 0.8425447940826416 0.71454513072967529
0.85072284936904907 0.8145986795425415 0.69107812643051147
1 0.80682212114334106 0.69239681959152222
0.024386776611208916 1 0.70652425289154053
0.2245296835899353 1 0.71402835845947266
0.51567548513412476 1 0.69012206792831421
0.80724328756332397 0.99892288446426392 0.67100083827972412
0.99446451663970947 0.99503135681152344 0.66969376802444458
0.063344769179821014 0.068593434989452362 0.23537866771221161
0.14270848035812378 0.094999454915523529 0.37577533721923828
0.33652451634407043 0.098293989896774292 0.51236176490783691
0.63931560516357422 0.076559044420719147 0.65227943658828735
0.9356798529624939 0.066208004951477051 0.76089316606521606
0.067162923514842987 0.27292907238006592 0.70316505432128906
0.22371748089790344 0.30516248941421509 0.80758702754974365
0.52126389741897583 0.30216991901397705 0.86766791343688965
0.87435430288314819 0.2893805205821991 0.89358407258987427
1 0.28641542792320251 0.91064393520355225
0.016814930364489555 0.57537692785263062 0.90598076581954956
0.20468190312385559 0.60335415601730347 0.93562537431716919
0.54037457704544067 0.58920753002166748 0.92803430557250977
0.88855171203613281 0.5704575777053833 0.90257441997528076
1 0.56227046251296997 0.8973889946937561
0.017580637708306313 0.86065292358398438 0.90788787603378296
0.2101832777261734 0.87140941619873047 0.92039221525192261
0.53174757957458496 0.84423738718032837 0.89424347877502441
0.85008728504180908 0.81328850984573364 0.86224102973937988
1 0.80643045902252197 0.85751873254776001
0.03569934144616127 0.99983817338943481 0.87636786699295044
0.23464307188987732 1 0.88092136383056641
0.51962441205978394 1 0.85532164573669434
0.80135095119476318 0.99813741445541382 0.83263939619064331
0.99206441640853882 0.99283087253570557 0.82515764236450195
