assets/lut/alexjordan magenta day.cube
# Created by: G'MIC (https://gmic.eu)
TITLE "magenta_day"
# LUT size
LUT_3D_SIZE 13
# Data domain
DOMAIN_MIN 0.0 0.0 0.0
DOMAIN_MAX 1.0 1.0 1.0
# LUT data points
0.0014715456636622548 0.0014363457448780537 0.0007263332954607904
0.017270106822252274 0.0041651856154203415 0.0012850293423980474
0.040853641927242279 0.0017907535657286644 0.0017751207342371345
0.071295611560344696 0.00034502815105952322 0.0016428779345005751
0.10764668881893158 3.6621095205191523e-05 0.0012613931903615594
0.14930260181427002 0 0.0005861170357093215
0.19324374198913574 4.0929458918981254e-05 0.00057444855337962508
0.2396044135093689 0.0002825568662956357 0.00056278007104992867
0.28792604804039001 0.00076958152931183577 0.00042509191553108394
0.33810597658157349 0.0012973560951650143 0.00052310718456283212
0.38955175876617432 0.0021903542801737785 0.00076545268530026078
0.44251033663749695 0.003778794314712286 0.0014295540750026703
0.49653655290603638 0.0062361476011574268 0.0031475143041461706
0.011300599202513695 0.021751552820205688 0.0084887035191059113
0.033544965088367462 0.027902955189347267 0.011117777787148952
0.058232955634593964 0.026470962911844254 0.013464235700666904
0.089903689920902252 0.023965349420905113 0.014078252017498016
0.12809322774410248 0.02364482544362545 0.013612799346446991
0.17063964903354645 0.024958577007055283 0.012481809593737125
0.21590240299701691 0.027254201471805573 0.012499850243330002
0.26362082362174988 0.030136751011013985 0.01293761283159256
0.31327307224273682 0.03349754586815834 0.013700657524168491
0.36448508501052856 0.036970444023609161 0.015730045735836029
0.41710802912712097 0.040606509894132614 0.019011314958333969
0.4710635244846344 0.045129798352718353 0.023650195449590683
0.52579605579376221 0.051323924213647842 0.029222451150417328
0.017698580399155617 0.056156516075134277 0.016140073537826538
0.045181646943092346 0.062869474291801453 0.021317649632692337
0.074590854346752167 0.066155634820461273 0.025732241570949554
0.10896620154380798 0.067751772701740265 0.028640268370509148
0.14906072616577148 0.069913528859615326 0.030578119680285454
0.19283904135227203 0.073259167373180389 0.032974332571029663
0.23951806128025055 0.077521122992038727 0.034556340426206589
0.28838229179382324 0.082050487399101257 0.036316413432359695
0.33916547894477844 0.086599789559841156 0.038885287940502167
0.39157241582870483 0.090986110270023346 0.042529746890068054
0.44528001546859741 0.09471999853849411 0.047955591231584549
0.50017452239990234 0.099045634269714355 0.054846372455358505
0.55596375465393066 0.105515256524086 0.061652582138776779
0.024080926552414894 0.10093093663454056 0.024513259530067444
0.056198269128799438 0.10857042670249939 0.031746495515108109
0.089990966022014618 0.11475548893213272 0.038618065416812897
0.12793336808681488 0.11898622661828995 0.044321667402982712
0.170222207903862 0.12294893711805344 0.04881204292178154
0.21558248996734619 0.12772558629512787 0.052827168256044388
0.26371011137962341 0.1329764723777771 0.056420359760522842
0.31379812955856323 0.13885794579982758 0.059882011264562607
0.36573928594589233 0.14455898106098175 0.063808545470237732
0.41917139291763306 0.14969563484191895 0.068595170974731445
0.47393050789833069 0.15407805144786835 0.07555331289768219
0.52973991632461548 0.15824444591999054 0.084126494824886322
0.58632177114486694 0.1647050529718399 0.092255763709545135
0.03586437925696373 0.15532343089580536 0.037034548819065094
0.070408858358860016 0.16296058893203735 0.045165475457906723
0.10718057304620743 0.17027182877063751 0.053579725325107574
0.14813028275966644 0.17620094120502472 0.061307661235332489
0.19224141538143158 0.18172946572303772 0.067708246409893036
0.23906533420085907 0.18752093613147736 0.073868468403816223
0.28827610611915588 0.19387383759021759 0.079020418226718903
0.33961182832717896 0.20046836137771606 0.083779051899909973
0.39257681369781494 0.20701766014099121 0.088662780821323395
0.44701069593429565 0.21339763700962067 0.094020366668701172
0.50267356634140015 0.21865186095237732 0.1017659530043602
0.55957770347595215 0.22337356209754944 0.11080671101808548
0.61664259433746338 0.23022997379302979 0.11957750469446182
0.051343865692615509 0.21650075912475586 0.052393566817045212
0.087760180234909058 0.22374606132507324 0.061143703758716583
0.1271902471780777 0.23131826519966125 0.070672668516635895
0.16986256837844849 0.23843801021575928 0.079793699085712433
0.2151838093996048 0.2453344464302063 0.088007278740406036
0.26316255331039429 0.25220867991447449 0.095472656190395355
0.31326043605804443 0.25924557447433472 0.10206761211156845
0.36531499028205872 0.26656073331832886 0.10807175189256668
0.41933029890060425 0.27376478910446167 0.11383608728647232
0.47474956512451172 0.28061977028846741 0.12017405033111572
0.53136575222015381 0.28669816255569458 0.12788519263267517
0.58889752626419067 0.29248690605163574 0.13703246414661407
0.64692080020904541 0.29979753494262695 0.14632885158061981
0.068792305886745453 0.28251180052757263 0.069321967661380768
0.10740748047828674 0.28967618942260742 0.078902304172515869
0.14895834028720856 0.29759788513183594 0.089212186634540558
0.19265584647655487 0.30546259880065918 0.099335901439189911
0.23902176320552826 0.31324732303619385 0.10898112505674362
0.28765827417373657 0.3210715651512146 0.11764701455831528
0.33836627006530762 0.32879084348678589 0.12540274858474731
0.39102450013160706 0.33651596307754517 0.13265372812747955
0.4456726610660553 0.34399288892745972 0.13963533937931061
0.50198888778686523 0.35107859969139099 0.14687784016132355
0.55961054563522339 0.35771244764328003 0.15500742197036743
0.61808371543884277 0.36442616581916809 0.16419045627117157
0.67667460441589355 0.37244701385498047 0.1735687255859375
0.088148303329944611 0.35257801413536072 0.087168283760547638
0.12901276350021362 0.3599296510219574 0.097201928496360779
0.17122337222099304 0.36815401911735535 0.10830887407064438
0.21610425412654877 0.37662625312805176 0.11958443373441696
0.26313099265098572 0.3852171003818512 0.13037288188934326
0.31215959787368774 0.39374077320098877 0.14027081429958344
0.36310604214668274 0.4020412266254425 0.14918924868106842
0.4161841869354248 0.4101104736328125 0.15741521120071411
0.47130870819091797 0.41782855987548828 0.16543428599834442
0.52840960025787354 0.42526432871818542 0.1736130565404892
0.58692723512649536 0.43225035071372986 0.18239705264568329
0.64639502763748169 0.43948456645011902 0.19180934131145477
0.70571690797805786 0.44824597239494324 0.20146864652633667
0.10909727215766907 0.42622268199920654 0.10549738258123398
0.15041835606098175 0.43384018540382385 0.11598395556211472
0.193828284740448 0.44242334365844727 0.12781377136707306
0.23945505917072296 0.45150518417358398 0.13993066549301147
0.28700041770935059 0.46072974801063538 0.15180055797100067
0.33608996868133545 0.4697648286819458 0.16278362274169922
0.38693314790725708 0.47879326343536377 0.17266684770584106
0.44006511569023132 0.48729631304740906 0.18211483955383301
0.49573317170143127 0.49532783031463623 0.19086241722106934
0.55349582433700562 0.50298207998275757 0.1999598890542984
0.61291700601577759 0.51033645868301392 0.20928843319416046
0.6732403039932251 0.51794892549514771 0.21924342215061188
0.73349606990814209 0.52673721313476562 0.22932194173336029
0.12991569936275482 0.50287234783172607 0.12393441051244736
0.17199698090553284 0.51083475351333618 0.13499721884727478
0.21615152060985565 0.51989233493804932 0.14715433120727539
0.26205575466156006 0.52936601638793945 0.16000856459140778
0.30989062786102295 0.53925669193267822 0.17275750637054443
0.35884633660316467 0.5489843487739563 0.18481777608394623
0.40957677364349365 0.55856108665466309 0.19577169418334961
0.46288037300109863 0.56768739223480225 0.20629020035266876
0.51875007152557373 0.576244056224823 0.21602137386798859
0.57704341411590576 0.58425796031951904 0.22552087903022766
0.63717633485794067 0.59200096130371094 0.23530310392379761
0.69815534353256226 0.60012578964233398 0.24555927515029907
0.75913649797439575 0.60919606685638428 0.25595396757125854
0.1506953090429306 0.58231312036514282 0.14311511814594269
0.19376069307327271 0.59073776006698608 0.15430918335914612
0.23814207315444946 0.59993183612823486 0.16671425104141235
0.2840716540813446 0.61000275611877441 0.1799885630607605
0.33163860440254211 0.62033933401107788 0.19336463510990143
0.38053679466247559 0.63078910112380981 0.20633181929588318
0.43127667903900146 0.64104151725769043 0.21845878660678864
0.48438552021980286 0.65085393190383911 0.22985821962356567
0.54052329063415527 0.65998631715774536 0.24018649756908417
0.59927409887313843 0.66851961612701416 0.25050517916679382
0.65991860628128052 0.67689776420593262 0.26041170954704285
0.7214316725730896 0.68536210060119629 0.27060496807098389
0.78288465738296509 0.69506615400314331 0.28117349743843079
0.17204928398132324 0.66412144899368286 0.16312447190284729
0.21560461819171906 0.67289489507675171 0.17412388324737549
0.26022136211395264 0.68247860670089722 0.18667562305927277
0.30614498257637024 0.69281280040740967 0.20004688203334808
0.35331341624259949 0.70370584726333618 0.21401359140872955
0.40205827355384827 0.71469217538833618 0.22758527100086212
0.45256331562995911 0.72576242685317993 0.24087220430374146
0.50550419092178345 0.73631596565246582 0.25328719615936279
0.56178075075149536 0.7462623119354248 0.26433092355728149
0.62100899219512939 0.75497996807098389 0.27482908964157104
0.68207848072052002 0.76392346620559692 0.28455618023872375
0.74390226602554321 0.77319055795669556 0.29503339529037476
0.80566990375518799 0.78320705890655518 0.30581438541412354
0.19375832378864288 0.74776244163513184 0.18435922265052795
0.23766942322254181 0.75680160522460938 0.1951083242893219
0.28254154324531555 0.76681226491928101 0.20746025443077087
0.32847633957862854 0.7775302529335022 0.2209450751543045
0.3757801353931427 0.78874707221984863 0.23504512012004852
0.42440339922904968 0.80031865835189819 0.24919983744621277
0.47472470998764038 0.81184893846511841 0.26301005482673645
0.52744334936141968 0.82300353050231934 0.27632895112037659
0.58383709192276001 0.8333362340927124 0.28793513774871826
0.64329099655151367 0.84297966957092285 0.29843571782112122
0.70443630218505859 0.85247242450714111 0.3087802529335022
0.7663273811340332 0.86223793029785156 0.31958702206611633
0.82856273651123047 0.87266147136688232 0.3308386504650116
0.0013851989060640335 0.0022599464282393456 0.0082090487703680992
0.017495503649115562 0.0079354681074619293 0.010089006274938583
0.04373372346162796 0.0052278107032179832 0.012138890102505684
0.074974268674850464 0.0019488316029310226 0.012742599472403526
0.11124424636363983 0.00089811434736475348 0.0117353405803442
0.15164229273796082 0.00057444855337962508 0.011412377469241619
0.19521452486515045 0.00079040526179596782 0.01134917326271534
0.24118602275848389 0.0011557185789570212 0.010485510341823101
0.28931143879890442 0.0017545662121847272 0.0098336311057209969
0.33909872174263 0.0028941584751009941 0.0096780518069863319
0.39042547345161438 0.0045907860621809959 0.010244975797832012
0.44306400418281555 0.0069935969077050686 0.011972853913903236
0.49726545810699463 0.010587655007839203 0.016066711395978928
0.010043708607554436 0.023490741848945618 0.020833676680922508
0.034659769386053085 0.03219897672533989 0.024014357477426529
0.061708845198154449 0.032461591064929962 0.027009133249521255
0.094326779246330261 0.029421115294098854 0.028991250321269035
0.13200096786022186 0.028042452409863472 0.030424095690250397
0.1736915111541748 0.028701407834887505 0.030905419960618019
0.21855421364307404 0.031035345047712326 0.03266264870762825
0.26588538289070129 0.034248501062393188 0.033326692879199982
0.31506174802780151 0.038064170628786087 0.034160703420639038
0.36609238386154175 0.042154904454946518 0.035766616463661194
0.41846904158592224 0.04674592986702919 0.038186781108379364
0.47214159369468689 0.052155334502458572 0.042010214179754257
0.52701848745346069 0.058672092854976654 0.047257889062166214
0.018879923969507217 0.058769002556800842 0.031463250517845154
0.047313705086708069 0.066270090639591217 0.036298848688602448
0.078085519373416901 0.069833777844905853 0.041043061763048172
0.11334439367055893 0.070671901106834412 0.044771142303943634
0.15293580293655396 0.072522766888141632 0.048676032572984695
0.1962285041809082 0.076017953455448151 0.052090901881456375
0.24248144030570984 0.080472446978092194 0.05490049347281456
0.29109042882919312 0.085515998303890228 0.05740024521946907
0.34169760346412659 0.090570934116840363 0.059902235865592957
0.39382085204124451 0.095694519579410553 0.063105851411819458
0.44727867841720581 0.10057605057954788 0.067611753940582275
0.50200414657592773 0.10563553124666214 0.073350615799427032
0.55756497383117676 0.11265767365694046 0.08006344735622406
0.027211356908082962 0.10431826859712601 0.042879574000835419
0.059066936373710632 0.11156725138425827 0.049513258039951324
0.093707546591758728 0.1171223372220993 0.056334789842367172
0.13201050460338593 0.12092158198356628 0.062615171074867249
0.17398740351200104 0.12483970820903778 0.06815648078918457
0.21911799907684326 0.12979261577129364 0.073479101061820984
0.26690375804901123 0.13577143847942352 0.077971287071704865
0.31687390804290771 0.14180515706539154 0.081790968775749207
0.36854517459869385 0.14818495512008667 0.085467606782913208
0.42198047041893005 0.15419088304042816 0.089820265769958496
0.47655245661735535 0.15939982235431671 0.095755606889724731
0.53220063447952271 0.16457828879356384 0.10336016118526459
0.58853715658187866 0.17156840860843658 0.11116994172334671
0.038978472352027893 0.15828777849674225 0.057660166174173355
0.073542393743991852 0.16564606130123138 0.065371222794055939
0.11082681268453598 0.17240563035011292 0.073984451591968536
0.15153059363365173 0.17821493744850159 0.081952802836894989
0.19551517069339752 0.18370223045349121 0.089287653565406799
0.24250653386116028 0.18975287675857544 0.095771864056587219
0.29168522357940674 0.19649443030357361 0.10151661932468414
0.34290719032287598 0.20355816185474396 0.10642815381288528
0.39569109678268433 0.21069008111953735 0.11094788461923599
0.45014536380767822 0.21770347654819489 0.11591626703739166
0.50583052635192871 0.2236659824848175 0.12245523929595947
0.56238996982574463 0.22903962433338165 0.13103066384792328
0.61948347091674805 0.23605206608772278 0.13990190625190735
0.054298296570777893 0.21869947016239166 0.074716366827487946
0.091074191033840179 0.22624561190605164 0.083441808819770813
0.13027764856815338 0.23371526598930359 0.092948406934738159
0.17273324728012085 0.24085070192813873 0.10224977135658264
0.21834360063076019 0.24767863750457764 0.11090846359729767
0.26643377542495728 0.25472536683082581 0.11866819858551025
0.31669658422470093 0.2621304988861084 0.1253720223903656
0.36889034509658813 0.26966121792793274 0.13135848939418793
0.42280614376068115 0.2772279679775238 0.13686221837997437
0.4783121645450592 0.28476884961128235 0.14261496067047119
0.53496921062469482 0.29138493537902832 0.14963799715042114
0.5924454927444458 0.29760587215423584 0.15826228260993958
0.65019547939300537 0.30505669116973877 0.16756458580493927
0.072321020066738129 0.28425994515419006 0.093068502843379974
0.11070632934570312 0.29190289974212646 0.10236509889364243
0.15151195228099823 0.29990294575691223 0.11269233375787735
0.19541715085506439 0.30796658992767334 0.12325430661439896
0.24202422797679901 0.3158758282661438 0.13290748000144958
0.29088345170021057 0.32385429739952087 0.14181679487228394
0.3417934775352478 0.33192840218544006 0.14965374767780304
0.39486402273178101 0.34000137448310852 0.15674331784248352
0.44954210519790649 0.347760409116745 0.16319289803504944
0.50592619180679321 0.35528409481048584 0.16986373066902161
0.5635114312171936 0.36225005984306335 0.17741924524307251
0.62194359302520752 0.36930006742477417 0.18603037297725677
0.68054282665252686 0.37747842073440552 0.19547593593597412
0.091584645211696625 0.35409215092658997 0.11187123507261276
0.13130490481853485 0.36182406544685364 0.12176524102687836
0.1738237738609314 0.37031453847885132 0.13288652896881104
0.21878564357757568 0.37911766767501831 0.14427180588245392
0.26617041230201721 0.38795530796051025 0.15507842600345612
0.3154207170009613 0.39673849940299988 0.16488254070281982
0.36668026447296143 0.4053950309753418 0.17378954589366913
0.41999122500419617 0.41384211182594299 0.18175409734249115
0.47531503438949585 0.42179054021835327 0.18937177956104279
0.53255033493041992 0.42950829863548279 0.19706805050373077
0.59114223718643188 0.43685242533683777 0.205270916223526
0.65042310953140259 0.44447517395019531 0.21442773938179016
0.70977640151977539 0.45312279462814331 0.22415646910667419
0.1114383339881897 0.42747586965560913 0.13038216531276703
0.15297071635723114 0.43566206097602844 0.14106243848800659
0.19639852643013 0.44441798329353333 0.15294981002807617
0.24213683605194092 0.45385006070137024 0.16505378484725952
0.28993088006973267 0.4634859561920166 0.17694658041000366
0.33929362893104553 0.47304466366767883 0.18776972591876984
0.39058214426040649 0.48232573270797729 0.19754257798194885
0.44399973750114441 0.49123787879943848 0.20658144354820251
0.4998437762260437 0.49962180852890015 0.21523600816726685
0.55774939060211182 0.5075497031211853 0.22383390367031097
0.61722707748413086 0.51521545648574829 0.23278887569904327
0.67750740051269531 0.52317142486572266 0.24230504035949707
0.73771172761917114 0.53223520517349243 0.25243198871612549
0.13238832354545593 0.50427824258804321 0.14926493167877197
0.17467592656612396 0.51267534494400024 0.16028495132923126
0.21875017881393433 0.52189666032791138 0.17252412438392639
0.26492995023727417 0.5318790078163147 0.1853751540184021
0.31273484230041504 0.54210126399993896 0.19808308780193329
0.36214336752891541 0.55235087871551514 0.20993992686271667
0.41330701112747192 0.56239044666290283 0.2207953929901123
0.4668419361114502 0.57189333438873291 0.23085802793502808
0.52302843332290649 0.58068740367889404 0.24037744104862213
0.5814051628112793 0.5891498327255249 0.24970318377017975
0.64154565334320068 0.5971800684928894 0.2592678964138031
0.70255303382873535 0.6055716872215271 0.26925963163375854
0.7633824348449707 0.61494332551956177 0.279693603515625
0.15351641178131104 0.58363538980484009 0.1685393750667572
0.19652608036994934 0.59242731332778931 0.17947517335414886
0.24091096222400665 0.60220128297805786 0.19182559847831726
0.28703492879867554 0.61264681816101074 0.2051214873790741
0.33471691608428955 0.62344110012054443 0.21868941187858582
0.38388577103614807 0.6343877911567688 0.23137208819389343
0.43494674563407898 0.64509469270706177 0.24344955384731293
0.48847639560699463 0.65519517660140991 0.25457763671875
0.54462277889251709 0.66471260786056519 0.26494109630584717
0.60371404886245728 0.67368566989898682 0.27478870749473572
0.66440093517303467 0.68230783939361572 0.28454774618148804
0.72593724727630615 0.69142055511474609 0.29464021325111389
0.78727155923843384 0.70113056898117065 0.30551794171333313
0.17478843033313751 0.66548717021942139 0.18832877278327942
0.21829643845558167 0.674690842628479 0.19929707050323486
0.26307862997055054 0.6847541332244873 0.21171355247497559
0.30898934602737427 0.69564145803451538 0.22540801763534546
0.35653159022331238 0.70695394277572632 0.23916199803352356
0.40547725558280945 0.71845591068267822 0.2528824508190155
0.45634114742279053 0.72988235950469971 0.2658170759677887
0.50967073440551758 0.74081313610076904 0.2779485285282135
0.56626701354980469 0.75094866752624512 0.28899368643760681
0.62543690204620361 0.76050996780395508 0.29906800389289856
0.68651360273361206 0.76979959011077881 0.30900263786315918
0.74831229448318481 0.77927130460739136 0.31958684325218201
0.81017059087753296 0.78922855854034424 0.33066442608833313
0.19659605622291565 0.74942749738693237 0.20963995158672333
0.2404797375202179 0.75888353586196899 0.22023232281208038
0.28527310490608215 0.76923263072967529 0.2326531857252121
0.33141717314720154 0.78048717975616455 0.24625761806964874
0.37872034311294556 0.79214298725128174 0.26033559441566467
0.42775070667266846 0.80415362119674683 0.27450719475746155
0.47846385836601257 0.81613838672637939 0.28824916481971741
0.53157240152359009 0.82772886753082275 0.30113789439201355
0.58818966150283813 0.83846050500869751 0.31269726157188416
0.64759796857833862 0.84857934713363647 0.32322266697883606
0.70871472358703613 0.85847347974777222 0.33349207043647766
0.77073997259140015 0.86844462156295776 0.34438428282737732
0.83275246620178223 0.87892603874206543 0.35608670115470886
0.0011496898951008916 0.00041758219595067203 0.023671558126807213
0.018767861649394035 0.0040286644361913204 0.025855479761958122
0.04650421068072319 0.0052297702059149742 0.028819439932703972
0.07854926586151123 0.003216971643269062 0.03063780814409256
0.11489761620759964 0.0017831390723586082 0.031974013894796371
0.15478342771530151 0.0014476103242486715 0.032923933118581772
0.19804847240447998 0.0015305463457480073 0.033205173909664154
0.2436319887638092 0.00216523720882833 0.033056985586881638
0.29146701097488403 0.0033608530648052692 0.032382350414991379
0.3410470187664032 0.0051198471337556839 0.031688272953033447
0.39198973774909973 0.0075981440022587776 0.031718745827674866
0.44437021017074585 0.01127751637250185 0.032770957797765732
0.49830427765846252 0.016201304271817207 0.036856260150671005
0.0090895257890224457 0.020328298211097717 0.036597337573766708
0.035773571580648422 0.030162885785102844 0.040178097784519196
0.065193295478820801 0.033771708607673645 0.044119637459516525
0.098712459206581116 0.032405104488134384 0.047283966094255447
0.13639445602893829 0.031085174530744553 0.050583589822053909
0.17765960097312927 0.032145526260137558 0.053641732782125473
0.22194495797157288 0.034625902771949768 0.055635564029216766
0.2689342200756073 0.03814493864774704 0.056979041546583176
0.31789755821228027 0.04238191619515419 0.057810749858617783
0.36851873993873596 0.047226537019014359 0.058986306190490723
0.42063531279563904 0.052671920508146286 0.06064281240105629
0.47398871183395386 0.058893449604511261 0.063504345715045929
0.52876776456832886 0.066061384975910187 0.068636693060398102
0.019937088713049889 0.060068197548389435 0.049797162413597107
0.049512587487697601 0.067849345505237579 0.054735820740461349
0.081654585897922516 0.071929767727851868 0.060084085911512375
0.11800562590360641 0.07317061722278595 0.064625591039657593
0.15762753784656525 0.075165063142776489 0.06981678307056427
0.20043899118900299 0.078747771680355072 0.074900425970554352
0.2463534027338028 0.083449013531208038 0.078694179654121399
0.29460400342941284 0.08869604766368866 0.081600144505500793
0.34495183825492859 0.094404198229312897 0.084206901490688324
0.39681881666183472 0.10005101561546326 0.086991347372531891
0.45001369714736938 0.10592452436685562 0.090680547058582306
0.50446623563766479 0.11220289021730423 0.095378652215003967
0.55992919206619263 0.11977199465036392 0.10161437839269638
0.029995039105415344 0.1078115850687027 0.06427484005689621
0.062233343720436096 0.11500838398933411 0.071007087826728821
0.097293585538864136 0.12012423574924469 0.078097522258758545
0.13620494306087494 0.12359365075826645 0.084742724895477295
0.17834341526031494 0.12736837565898895 0.091379500925540924
0.22340381145477295 0.13244046270847321 0.097502000629901886
0.27085915207862854 0.13847997784614563 0.10251859575510025
0.32081279158592224 0.14495210349559784 0.10673249512910843
0.37233057618141174 0.15156692266464233 0.11060615628957748
0.42546528577804565 0.15795861184597015 0.11470410227775574
0.47989252209663391 0.16404260694980621 0.11969031393527985
0.53529268503189087 0.1704770028591156 0.1260564774274826
0.59152019023895264 0.1782611757516861 0.13344274461269379
0.042537912726402283 0.16205570101737976 0.081407271325588226
0.076884612441062927 0.16931907832622528 0.089270405471324921
0.11446230858564377 0.17574684321880341 0.09795728325843811
