assets/lut/alexjordan cross process cp 04.cube
# Created by: G'MIC (https://gmic.eu)
TITLE "cross_process_cp_4"
# LUT size
LUT_3D_SIZE 5
# Data domain
DOMAIN_MIN 0.0 0.0 0.0
DOMAIN_MAX 1.0 1.0 1.0
# LUT data points
0.011088981293141842 0.016061505302786827 0.014895630069077015
0.056707300245761871 0.058008395135402679 0.058683015406131744
0.10553410649299622 0.1050235703587532 0.10445813834667206
0.25204843282699585 0.13174644112586975 0.12731646001338959
0.63844060897827148 0.099006295204162598 0.11738932132720947
0.14235959947109222 0.18659554421901703 0.16330927610397339
0.16849121451377869 0.26251950860023499 0.16915091872215271
0.43052074313163757 0.27989077568054199 0.14845426380634308
0.79182887077331543 0.26122862100601196 0.14343276619911194
0.9990391731262207 0.26968339085578918 0.16596175730228424
0.0031014387495815754 0.53468120098114014 0.15846820175647736
0.17442050576210022 0.56383270025253296 0.18845909833908081
0.51441359519958496 0.55368614196777344 0.17633941769599915
0.86481565237045288 0.54024195671081543 0.15965785086154938
0.99997079372406006 0.54909986257553101 0.16498972475528717
0 0.82626831531524658 0.17454226315021515
0.18431346118450165 0.8468213677406311 0.19499805569648743
0.51292526721954346 0.82391887903213501 0.18435291945934296
0.83637595176696777 0.79704517126083374 0.16688306629657745
1 0.79335349798202515 0.16701608896255493
0 1 0.17743389308452606
0.19339695572853088 1 0.1930503249168396
0.50123411417007446 1 0.18509463965892792
0.8008042573928833 0.99765950441360474 0.16767594218254089
0.99384826421737671 0.99543732404708862 0.16115681827068329
0.035817839205265045 0.032739751040935516 0.032569196075201035
0.072977371513843536 0.072298489511013031 0.071578353643417358
0.12687043845653534 0.11829093843698502 0.11982143670320511
0.3415226936340332 0.1283489316701889 0.17985935509204865
0.72975850105285645 0.088649749755859375 0.23743635416030884
0.13093166053295135 0.21622328460216522 0.20337775349617004
0.17675322294235229 0.28402191400527954 0.27183344960212708
0.45900425314903259 0.28418111801147461 0.31174460053443909
0.82092005014419556 0.2656654417514801 0.32760533690452576
1 0.2685554027557373 0.34375986456871033
0.00029772589914500713 0.54665249586105347 0.33953666687011719
0.17171676456928253 0.57741349935531616 0.37299713492393494
0.52277529239654541 0.56446093320846558 0.36025026440620422
0.86753886938095093 0.549724280834198 0.34250494837760925
1 0.54799860715866089 0.35280856490135193
0 0.83873730897903442 0.36347132921218872
0.18272699415683746 0.85814660787582397 0.3741491436958313
0.52172720432281494 0.83199435472488403 0.35859334468841553
0.8447871208190918 0.80889791250228882 0.34203121066093445
1 0.8023415207862854 0.34588870406150818
0 1 0.36100265383720398
0.20121476054191589 1 0.36977651715278625
0.51040399074554443 1 0.35632851719856262
0.80843240022659302 0.99999135732650757 0.33796021342277527
0.99954491853713989 0.99824470281600952 0.33307412266731262
0.042535249143838882 0.040413830429315567 0.042609062045812607
0.089868299663066864 0.090031325817108154 0.087620377540588379
0.1578218936920166 0.13169673085212708 0.15537096560001373
0.42341110110282898 0.12173475325107574 0.27559414505958557
0.7909780740737915 0.087996132671833038 0.38283571600914001
0.11801439523696899 0.24363814294338226 0.2812667191028595
0.17418147623538971 0.29907375574111938 0.41940724849700928
0.48118120431900024 0.28872275352478027 0.49247178435325623
0.84294289350509644 0.27095922827720642 0.51777297258377075
1 0.27416878938674927 0.53088861703872681
0.0015698152128607035 0.55570077896118164 0.52982383966445923
0.18154993653297424 0.5852351188659668 0.559833824634552
0.53367078304290771 0.57099366188049316 0.54565882682800293
0.87313979864120483 0.55692631006240845 0.53406566381454468
1 0.55272358655929565 0.53964173793792725
0.0001669491030042991 0.84219962358474731 0.55150455236434937
0.19140042364597321 0.85820680856704712 0.55707758665084839
0.52213096618652344 0.83332079648971558 0.5385778546333313
0.84567475318908691 0.81004786491394043 0.51830768585205078
1 0.80243760347366333 0.52107679843902588
0.0015476002590730786 1 0.54175823926925659
0.21051996946334839 1 0.54504293203353882
0.51325529813766479 1 0.52558225393295288
0.80682402849197388 0.99969714879989624 0.5036436915397644
0.999103844165802 0.99820035696029663 0.50031083822250366
0.053687196224927902 0.056572377681732178 0.059315312653779984
0.10705499351024628 0.10818545520305634 0.11095790565013885
0.20048046112060547 0.14073888957500458 0.22487591207027435
0.52217781543731689 0.10831693559885025 0.41679725050926208
0.87333232164382935 0.078089602291584015 0.55769109725952148
0.085262656211853027 0.26759135723114014 0.4189724326133728
0.17708554863929749 0.30982047319412231 0.59555381536483765
0.50067597627639771 0.29573836922645569 0.68272238969802856
0.87364912033081055 0.2775784432888031 0.70533484220504761
1 0.28350719809532166 0.72415012121200562
0.0045735975727438927 0.56699126958847046 0.72234141826629639
0.1938740611076355 0.59414559602737427 0.7487332820892334
0.54032152891159058 0.57982808351516724 0.7354121208190918
0.87775427103042603 0.56386774778366089 0.71606308221817017
1 0.55987238883972168 0.72147613763809204
0.0087891519069671631 0.8457648754119873 0.73173427581787109
0.19967450201511383 0.86309146881103516 0.74086052179336548
0.52779567241668701 0.83633524179458618 0.71504944562911987
0.85032075643539429 0.81087923049926758 0.68923193216323853
1 0.80402112007141113 0.69046485424041748
0.0072421953082084656 1 0.71375948190689087
0.2163107842206955 1 0.7146415114402771
0.5176505446434021 1 0.68911153078079224
0.8092840313911438 0.99809819459915161 0.66532647609710693
0.99626106023788452 0.99673789739608765 0.66272866725921631
0.069382563233375549 0.072487741708755493 0.072092778980731964
0.12343180179595947 0.12257790565490723 0.14159409701824188
0.24670077860355377 0.14237099885940552 0.34234139323234558
0.58982962369918823 0.10431843250989914 0.5694466233253479
0.89482325315475464 0.07299535721540451 0.71835756301879883
0.064712211489677429 0.28438690304756165 0.59167522192001343
0.18042357265949249 0.3176848292350769 0.81419128179550171
0.51502037048339844 0.30276232957839966 0.88664048910140991
0.88175636529922485 0.29062208533287048 0.89146161079406738
1 0.29217344522476196 0.90710210800170898
0.0062086367979645729 0.57402610778808594 0.89713340997695923
0.214007169008255 0.59618359804153442 0.93800812959671021
0.55100458860397339 0.5833016037940979 0.92683976888656616
0.88375771045684814 0.5706515908241272 0.89560782909393311
1 0.56420600414276123 0.89405739307403564
0.019763542339205742 0.85121667385101318 0.90555518865585327
0.21383987367153168 0.8637232780456543 0.91704452037811279
0.53593450784683228 0.83861058950424194 0.89339202642440796
0.84763854742050171 0.81274664402008057 0.86114323139190674
1 0.80798351764678955 0.85593277215957642
0.0095968209207057953 1 0.87686651945114136
0.21360291540622711 1 0.88280171155929565
0.51575696468353271 1 0.85545694828033447
0.80610466003417969 0.99801242351531982 0.83121991157531738
0.99275100231170654 0.99201023578643799 0.82504814863204956
