assets/lut/alexjordan action magenta 01.cube
# Created by: G'MIC (https://gmic.eu)
TITLE "action_magenta_01"
# LUT size
LUT_3D_SIZE 5
# Data domain
DOMAIN_MIN 0.0 0.0 0.0
DOMAIN_MAX 1.0 1.0 1.0
# LUT data points
0.038182877004146576 0.030975895002484322 0.029567524790763855
0.17892095446586609 0.055626183748245239 0.05569794774055481
0.33926099538803101 0.078055165708065033 0.074980519711971283
0.50529813766479492 0.099513575434684753 0.094335652887821198
0.65446263551712036 0.12523165345191956 0.12485981732606888
0.12371006608009338 0.2391827404499054 0.081543505191802979
0.31964537501335144 0.24982902407646179 0.079877488315105438
0.47944724559783936 0.27423012256622314 0.091264374554157257
0.62079966068267822 0.30451726913452148 0.10961873829364777
0.76490658521652222 0.33003586530685425 0.13173791766166687
0.16985397040843964 0.46289786696434021 0.11994224786758423
0.3862101137638092 0.4660288393497467 0.11411093920469284
0.55864989757537842 0.48640796542167664 0.12516367435455322
0.70291328430175781 0.51493680477142334 0.14593009650707245
0.84618115425109863 0.54056191444396973 0.16949889063835144
0.23791936039924622 0.67695873975753784 0.18749441206455231
0.46779143810272217 0.67850148677825928 0.18319788575172424
0.64967715740203857 0.69350636005401611 0.19160439074039459
0.79113924503326416 0.71995359659194946 0.21341024339199066
0.9272383451461792 0.74628585577011108 0.23427625000476837
0.30761054158210754 0.88796794414520264 0.26365554332733154
0.53958398103713989 0.89149373769760132 0.26129898428916931
0.73005163669586182 0.90384787321090698 0.26429468393325806
0.87280124425888062 0.92766851186752319 0.28226810693740845
0.99475544691085815 0.95330750942230225 0.29620543122291565
0.05347626656293869 0.043416567146778107 0.098506689071655273
0.20927348732948303 0.062612317502498627 0.161295086145401
0.37809485197067261 0.076751992106437683 0.21656917035579681
0.52594834566116333 0.1018645167350769 0.25408691167831421
0.67474287748336792 0.12522329390048981 0.29131427407264709
0.1215495839715004 0.24931155145168304 0.23832453787326813
0.32586514949798584 0.25843003392219543 0.2503332793712616
0.48833122849464417 0.28042218089103699 0.27323859930038452
0.63086402416229248 0.30717843770980835 0.29971817135810852
0.775107741355896 0.33302533626556396 0.33050921559333801
0.17017272114753723 0.46730142831802368 0.30735844373703003
0.39090335369110107 0.47165155410766602 0.30868127942085266
0.56390583515167236 0.49085322022438049 0.32801434397697449
0.70960068702697754 0.51676911115646362 0.35282891988754272
0.85377377271652222 0.54519432783126831 0.37687250971794128
0.24005132913589478 0.67957836389541626 0.39302331209182739
0.47352191805839539 0.68053805828094482 0.39074963331222534
0.65106338262557983 0.69707781076431274 0.40565982460975647
0.79715371131896973 0.72243386507034302 0.43072137236595154
0.94056123495101929 0.74925142526626587 0.45256394147872925
0.31150332093238831 0.89082121849060059 0.47763624787330627
0.54345464706420898 0.89424842596054077 0.4776771068572998
0.72885984182357788 0.90821349620819092 0.48715874552726746
0.88244712352752686 0.93019062280654907 0.50605636835098267
0.99982064962387085 0.95434772968292236 0.52243936061859131
0.073447555303573608 0.056033998727798462 0.1804223507642746
0.23498626053333282 0.065287284553050995 0.28968480229377747
0.39741614460945129 0.082625202834606171 0.35670584440231323
0.54676693677902222 0.10570149123668671 0.41039887070655823
0.69210529327392578 0.12756611406803131 0.45233955979347229
0.12877127528190613 0.25763848423957825 0.3957829475402832
0.33354884386062622 0.26667898893356323 0.41048142313957214
0.49823823571205139 0.28471475839614868 0.44437858462333679
0.64052712917327881 0.31001865863800049 0.47756132483482361
0.7833130955696106 0.33500108122825623 0.51213884353637695
0.17421700060367584 0.47199884057044983 0.48546683788299561
0.39902520179748535 0.4761454164981842 0.49050959944725037
0.56877189874649048 0.49572348594665527 0.51139974594116211
0.71407711505889893 0.51982772350311279 0.53942644596099854
0.8588109016418457 0.5466541051864624 0.56769078969955444
0.23901849985122681 0.68370479345321655 0.58541780710220337
0.47272729873657227 0.68590235710144043 0.58378142118453979
0.65369880199432373 0.70233011245727539 0.59870606660842896
0.79887890815734863 0.72692978382110596 0.62381893396377563
0.94491267204284668 0.75370913743972778 0.64939582347869873
0.31058511137962341 0.89530771970748901 0.67656272649765015
0.54571926593780518 0.89895868301391602 0.67344456911087036
0.73226732015609741 0.91243225336074829 0.68348914384841919
0.88893622159957886 0.93344491720199585 0.70372909307479858
1 0.95842522382736206 0.72435754537582397
0.090095460414886475 0.066004239022731781 0.30124899744987488
0.24953962862491608 0.077612094581127167 0.40651926398277283
0.41445499658584595 0.093358956277370453 0.4902036190032959
0.56590187549591064 0.11551353335380554 0.55470722913742065
0.70866477489471436 0.13699251413345337 0.60271060466766357
0.13606658577919006 0.26784440875053406 0.52850878238677979
0.33739113807678223 0.27744230628013611 0.55779904127120972
0.50724607706069946 0.29525911808013916 0.59669548273086548
0.65116274356842041 0.32020074129104614 0.63594692945480347
0.79261374473571777 0.34427338838577271 0.6744232177734375
0.18327797949314117 0.4809688925743103 0.63897305727005005
0.40752476453781128 0.48574769496917725 0.64550358057022095
0.58088105916976929 0.50381940603256226 0.66976380348205566
0.72100651264190674 0.52953457832336426 0.70073610544204712
0.86445385217666626 0.55427706241607666 0.73393326997756958
0.24681167304515839 0.69265985488891602 0.74955874681472778
0.48225125670433044 0.69377130270004272 0.7485080361366272
0.65953594446182251 0.71053826808929443 0.76303553581237793
0.80431908369064331 0.73505139350891113 0.79216176271438599
0.95565658807754517 0.76117384433746338 0.82150131464004517
0.31820905208587646 0.90289616584777832 0.84747552871704102
0.55936378240585327 0.90491437911987305 0.84307074546813965
0.74143457412719727 0.91826093196868896 0.85659056901931763
0.89054298400878906 0.93917131423950195 0.87959116697311401
0.99885028600692749 0.96803855895996094 0.9106329083442688
0.10433051735162735 0.074291512370109558 0.41146555542945862
0.2814280092716217 0.077287279069423676 0.54863297939300537
0.43217304348945618 0.099967524409294128 0.62184065580368042
0.58066058158874512 0.12375762313604355 0.68725025653839111
0.72064745426177979 0.14486263692378998 0.73847174644470215
0.1448972225189209 0.27445793151855469 0.67285501956939697
0.35069215297698975 0.28173056244850159 0.71763855218887329
0.51819521188735962 0.30326789617538452 0.75038915872573853
0.66425937414169312 0.32946926355361938 0.79115813970565796
0.80403393507003784 0.35214155912399292 0.82988595962524414
0.19502066075801849 0.48765411972999573 0.78376501798629761
0.41501948237419128 0.49179461598396301 0.80663597583770752
0.58852630853652954 0.51177942752838135 0.83119392395019531
0.7339775562286377 0.53805911540985107 0.86816203594207764
0.87830239534378052 0.55973786115646362 0.90511691570281982
0.2570396363735199 0.69856828451156616 0.89735347032546997
0.49025845527648926 0.69947773218154907 0.90820586681365967
0.66542118787765503 0.71836525201797485 0.92733520269393921
0.81499189138412476 0.74230915307998657 0.96542030572891235
0.96186971664428711 0.76483756303787231 0.98763823509216309
0.31988263130187988 0.90982407331466675 0.99326020479202271
0.56571853160858154 0.91008144617080688 0.99597465991973877
0.74520325660705566 0.92583990097045898 0.99938929080963135
0.89431315660476685 0.95121878385543823 0.99996554851531982
0.99779820442199707 0.97219908237457275 0.99971026182174683
