assets/lut/alexjordan cross process cp 15.cube
# Created by: G'MIC (https://gmic.eu)
TITLE "cross_process_cp_15"
# LUT size
LUT_3D_SIZE 13
# Data domain
DOMAIN_MIN 0.0 0.0 0.0
DOMAIN_MAX 1.0 1.0 1.0
# LUT data points
0 0.0015318627702072263 0.0028644038829952478
0.00011629590881057084 0.0022451663389801979 0.0016100415959954262
0.0063512613996863365 0.0033708459232002497 0.00085372925968840718
0.029911654070019722 0.0015736748464405537 0.00030050839995965362
0.070264168083667755 0.00032911114976741374 0
0.12863746285438538 0 0
0.20907455682754517 0 0
0.31727334856987 0 0
0.46402356028556824 0.00015266268746927381 0.00047121234820224345
0.64959508180618286 0.00070769368903711438 0.0014004127588123083
0.8506472110748291 0.00036327884299680591 0.0012730318121612072
0.9934266209602356 0 5.3480558563023806e-05
1 0 0
0 0.0094863744452595711 0.0016504923114553094
0 0.010810328647494316 0.0019795435946434736
0.0049704010598361492 0.013021671213209629 0.0014995799865573645
0.027244327589869499 0.012227585539221764 0.00083305506268516183
0.067449532449245453 0.0091196699067950249 9.1911766503471881e-05
0.12711142003536224 0.0059677422977983952 0
0.20994575321674347 0.0029841703362762928 0
0.3225557804107666 0.00062213971978053451 0.00010929481504717842
0.4724772572517395 0 0.0016886243829503655
0.65840226411819458 0 0.0036470750346779823
0.86141937971115112 0 0.0035813574213534594
0.99577891826629639 0 0.00048229741514660418
1 0 0
0 0.026378033682703972 0.00017972459318116307
0 0.027613112702965736 0.0010578829096630216
0.0054546878673136234 0.031510788947343826 0.001245595864020288
0.027890928089618683 0.031927820295095444 0.00083000335143879056
0.069678530097007751 0.028928987681865692 0.00017197552369907498
0.13163569569587708 0.023689748719334602 0
0.21710583567619324 0.017103981226682663 0
0.33272573351860046 0.0086938152089715004 0.00024931665393523872
0.48344939947128296 0.0011900957906618714 0.0019140206277370453
0.66848385334014893 0 0.0034936494193971157
0.87446719408035278 0 0.0033580854069441557
0.99840527772903442 0 0.00030610326211899519
1 0 0
0 0.054736431688070297 0
0 0.057123072445392609 1.2925092050863896e-05
0.0039537167176604271 0.061616696417331696 0.00023283116752281785
0.027565900236368179 0.064037054777145386 0.00023049747687764466
0.072008602321147919 0.06068846583366394 2.1541820842685411e-06
0.13711871206760406 0.054736882448196411 0
0.22498224675655365 0.045656554400920868 0
0.34307655692100525 0.031944140791893005 0.00022403492766898125
0.49303480982780457 0.013265901245176792 0.00080687581794336438
0.67716389894485474 0.0012545567005872726 0.00063709932146593928
0.88700008392333984 4.0660186641616747e-05 0.0004050909192301333
0.99996203184127808 8.7513646576553583e-05 0
1 4.5507094910135493e-05 0
0 0.09325823187828064 0
0 0.097751080989837646 0
0.0015419605188071728 0.10380901396274567 0
0.023559225723147392 0.10767880827188492 0
0.070795275270938873 0.10667404532432556 0
0.13923576474189758 0.10152477025985718 0
0.23175950348377228 0.092368483543395996 0
0.35381641983985901 0.075317457318305969 0.00020361508359201252
0.50481045246124268 0.048198506236076355 4.6673943870700896e-05
0.68711394071578979 0.021722696721553802 0
0.89453059434890747 0.011795507743954659 0
1 0.0089501775801181793 0
1 0.0090279225260019302 0
0 0.14085061848163605 0
0 0.14777722954750061 0
0.00021683935483451933 0.1572268158197403 0
0.017832767218351364 0.16447348892688751 0
0.066548608243465424 0.1663847416639328 0
0.13885830342769623 0.16348846256732941 0
0.23675699532032013 0.15532264113426208 0
0.36332666873931885 0.13878065347671509 0
0.51809430122375488 0.1100289449095726 0
0.7022479772567749 0.077156215906143188 0
0.90305161476135254 0.052491791546344757 0
1 0.04164104163646698 0
1 0.041235171258449554 0
0 0.19813196361064911 0
0 0.20808626711368561 0
0.00012446385517250746 0.2210715264081955 0
0.01505598146468401 0.23203070461750031 0
0.063480019569396973 0.23778671026229858 0
0.13748165965080261 0.23793326318264008 0
0.23796637356281281 0.23183557391166687 0
0.36613926291465759 0.21750541031360626 0
0.52319061756134033 0.19281746447086334 0
0.71041041612625122 0.16041414439678192 0
0.90897518396377563 0.12815187871456146 0
1 0.10740848630666733 0
1 0.10051175206899643 0
0 0.26674646139144897 0
0 0.27978721261024475 0
0.00012446385517250746 0.29635590314865112 0
0.015128161758184433 0.31114190816879272 0
0.062155555933713913 0.32099920511245728 0
0.13578234612941742 0.32482898235321045 0
0.23686422407627106 0.32189470529556274 0
0.36559760570526123 0.31128671765327454 0
0.52318304777145386 0.29223033785820007 0
0.71150022745132446 0.26430851221084595 0
0.91264915466308594 0.23035553097724915 0
1 0.20204508304595947 0
1 0.18605521321296692 0
0 0.34990018606185913 0
0 0.36671236157417297 0
6.6121421696152538e-05 0.38656681776046753 0.0001468284463044256
0.014027973636984825 0.40441069006919861 3.2671759981894866e-05
0.06003144383430481 0.41756337881088257 0
0.13356168568134308 0.42445319890975952 0
0.23526766896247864 0.42447808384895325 0
0.36527064442634583 0.41756191849708557 0
0.52480554580688477 0.40310913324356079 0
0.71301859617233276 0.37934210896492004 0
0.91385424137115479 0.3466680645942688 0
0.99999141693115234 0.31383273005485535 0
1 0.29124030470848083 0
0 0.45190915465354919 0
0 0.47024720907211304 0
0 0.49254998564720154 0.00047840792103670537
0.010234473273158073 0.51276701688766479 0.00073530909139662981
0.056169979274272919 0.52836978435516357 0.00015402401913888752
0.13090474903583527 0.53753125667572021 0
0.23428584635257721 0.53995645046234131 0
0.36683067679405212 0.53592431545257568 0
0.53006958961486816 0.52425068616867065 0
0.72267770767211914 0.50384312868118286 0
0.91765570640563965 0.47334972023963928 0.00036152859684079885
0.99977970123291016 0.4393913745880127 0
1 0.41239067912101746 0
0 0.57384151220321655 0
0 0.59261602163314819 0
0 0.61492455005645752 7.0010915806051344e-05
0.005900409072637558 0.63622760772705078 0.00092278275405988097
0.051148403435945511 0.65295159816741943 0.00089380599092692137
0.12815624475479126 0.66374200582504272 2.7226466045249254e-05
0.23342493176460266 0.66842752695083618 0
0.36682102084159851 0.66663479804992676 0
0.53226548433303833 0.65820503234863281 0
0.73357123136520386 0.64065712690353394 0
0.93282955884933472 0.61329978704452515 0
0.9999508261680603 0.58013081550598145 0
1 0.54997813701629639 0
0 0.70852935314178467 0
0 0.7276771068572998 0
0 0.75021439790725708 0
0.0033498427364975214 0.77202582359313965 0.0010305218165740371
0.048224728554487228 0.78932559490203857 0.0014328900724649429
0.12808960676193237 0.80123031139373779 0.0001962250389624387
0.23437359929084778 0.80813705921173096 0
0.36633935570716858 0.80980134010314941 0
0.52672302722930908 0.80560559034347534 0
0.72236484289169312 0.79356884956359863 0
0.92965352535247803 0.77238970994949341 0
1 0.7417178750038147 0
1 0.7095673680305481 0
0 0.85168594121932983 0
0 0.87126260995864868 0
0 0.89389204978942871 0
0.0044669057242572308 0.91579741239547729 0.00047432395513169467
0.053832214325666428 0.93374073505401611 0.00099551631137728691
0.13671651482582092 0.94557559490203857 6.7288267018739134e-05
0.24382522702217102 0.95278561115264893 0
0.37482994794845581 0.95682716369628906 0
0.53171348571777344 0.95688015222549438 0
0.71801090240478516 0.95198720693588257 0
0.92312830686569214 0.94053125381469727 0
1 0.91613399982452393 0
1 0.88423240184783936 0
0 0.002635701559484005 0.011729251593351364
0 0.0023836921900510788 0.010715454816818237
0.0037571627181023359 0.0019380906596779823 0.0095437439158558846
0.025981709361076355 0.00042872710037045181 0.0078289257362484932
0.065985724329948425 7.1806067580837407e-07 0.0037923178169876337
0.12492512911558151 0 0.00034957585739903152
0.2066548764705658 0 0
0.31792557239532471 0.00015849692863412201 0
0.46651887893676758 0.0022540821228176355 0
0.64958274364471436 0.0033562155440449715 0
0.84883898496627808 0.00246429443359375 0
0.99281573295593262 0 0
1 0 0
0 0.010641749016940594 0.0095334369689226151
0 0.011689683422446251 0.01033370103687048
0.0021036334801465273 0.012736630626022816 0.010177732445299625
0.023469783365726471 0.010872560553252697 0.0089579708874225616
0.06461690366268158 0.0071614282205700874 0.0060652191750705242
0.12539221346378326 0.0039566787891089916 0.0020073086488991976
0.2091582864522934 0.0019417856819927692 7.2898117650765926e-05
0.32289412617683411 0.00071812048554420471 0
0.47309347987174988 3.1280516850529239e-05 0
0.65827107429504395 0.00016805611085146666 1.5662697478546761e-05
0.86122769117355347 6.4071951783262193e-05 1.9537234038580209e-05
0.99581384658813477 0 0
1 0 0
0 0.027756081894040108 0.0049165464006364346
0 0.029789673164486885 0.0076958900317549706
0.0023169275373220444 0.033139634877443314 0.0089434152469038963
0.024516699835658073 0.032976921647787094 0.0089493542909622192
0.067665815353393555 0.02846183069050312 0.0069846957921981812
0.13121242821216583 0.02205110527575016 0.0041987402364611626
0.21755775809288025 0.015866149216890335 0.0013814440462738276
0.33320897817611694 0.0097024505957961082 6.1498903960455209e-05
0.48343399167060852 0.0033927918411791325 0
0.66665172576904297 0.00022834328410681337 0.0001173580385511741
0.87116491794586182 0 0.00031009750091470778
0.99804210662841797 0 0
1 0 0
0 0.055977839976549149 0.00098701927345246077
0 0.059173539280891418 0.0039738076739013195
0.0019462734926491976 0.064018562436103821 0.0066497651860117912
0.024372205138206482 0.065384343266487122 0.0073583265766501427
0.070630677044391632 0.061824709177017212 0.006634401623159647
0.13728109002113342 0.054700318723917007 0.0048991036601364613
0.22662994265556335 0.04589984193444252 0.003148695919662714
0.34463080763816833 0.034351170063018799 0.00083392276428639889
0.49456828832626343 0.019355684518814087 0
0.67559754848480225 0.0068170437589287758 0
0.87919867038726807 0.0015039930585771799 0
0.99937975406646729 7.4050003604497761e-05 0
1 0 0
0 0.093080408871173859 0.00012983434135094285
0 0.098698526620864868 0.0015194911975413561
0.00046476477291435003 0.10594189167022705 0.0040246550925076008
0.020376751199364662 0.1102411150932312 0.0055392696522176266
0.068746365606784821 0.10870953649282455 0.0053839441388845444
0.13951331377029419 0.10322980582714081 0.0046455082483589649
0.23386278748512268 0.094238206744194031 0.0030551536474376917
0.3564014732837677 0.079687334597110748 0.00080066756345331669
0.50800508260726929 0.056490041315555573 0
0.689666748046875 0.032835163176059723 0
0.89018607139587402 0.017962317913770676 0
0.99999278783798218 0.009856758639216423 0
1 0.0060369004495441914 0
0 0.14008614420890808 0
0 0.1486038863658905 0.00035327087971381843
0 0.15942798554897308 0.001884520286694169
0.013959996402263641 0.16731069982051849 0.0034875159617513418
0.063657738268375397 0.1692061722278595 0.0042493632063269615
0.138266921043396 0.16638860106468201 0.0032083250116556883
0.23806987702846527 0.15874731540679932 0.0013416215078905225
0.3656255304813385 0.14373186230659485 5.3211286285659298e-05
0.52087116241455078 0.11780108511447906 0
0.70426261425018311 0.086845383048057556 0
0.90044182538986206 0.061490479856729507 0
1 0.045848652720451355 0
1 0.038830507546663284 0
0 0.19789975881576538 0
0 0.20928455889225006 0
0 0.22347111999988556 0.00056019204203039408
0.011127202771604061 0.23528832197189331 0.0020522023551166058
0.059872318059206009 0.24130085110664368 0.0028873218689113855
0.13548041880130768 0.24166558682918549 0.0018755594501271844
0.23788352310657501 0.2361978143453598 0.00026524861459620297
0.36799579858779907 0.22284892201423645 0
0.52698796987533569 0.19931013882160187 0
0.71450364589691162 0.1679883748292923 0
0.90953505039215088 0.13624751567840576 0
1 0.11219150573015213 0
1 0.099425390362739563 0
0 0.26801535487174988 0
0 0.28201708197593689 0
0 0.29922166466712952 3.2911113521549851e-05
0.01104049663990736 0.31464454531669617 0.00089597515761852264
0.057744119316339493 0.32484376430511475 0.001564714009873569
0.13227398693561554 0.32890903949737549 0.0010465135565027595
0.23486696183681488 0.32659396529197693 5.8252669987268746e-05
0.36616736650466919 0.31660836935043335 0
0.5286744236946106 0.29766899347305298 0
0.72169482707977295 0.26971560716629028 0
0.9194953441619873 0.23626211285591125 0
1 0.20598737895488739 0
1 0.18572536110877991 0
0 0.35281389951705933 0
0 0.3694862425327301 0
0 0.38957428932189941 0
0.0099296122789382935 0.40833571553230286 0.00011239145533181727
0.055074624717235565 0.42193880677223206 0.00068031757837161422
0.1291155219078064 0.42903515696525574 0.00045931947533972561
0.23212528228759766 0.42936867475509644 0
0.36519899964332581 0.42272341251373291 0
0.53142565488815308 0.40826311707496643 0
0.72985196113586426 0.38457587361335754 0
0.93002355098724365 0.35236302018165588 0
1 0.31886079907417297 0
1 0.29264107346534729 0
0 0.45591190457344055 0
0 0.47466123104095459 0
0 0.49693393707275391 0
0.0067537645809352398 0.51754128932952881 0
0.050708308815956116 0.5333021879196167 0
0.12598548829555511 0.54243415594100952 0
0.23111887276172638 0.54486703872680664 0
0.36617195606231689 0.54071849584579468 0
0.53400206565856934 0.52974194288253784 0
0.73655122518539429 0.50999587774276733 0
0.93906772136688232 0.48084500432014465 0
1 0.4467502236366272 0
1 0.41723364591598511 0
0 0.57662755250930786 0
0 0.59650635719299316 0
0 0.61976748704910278 0
0.003362124552950263 0.64186668395996094 0
0.045612245798110962 0.65888559818267822 0
0.12263032793998718 0.66958975791931152 0
0.22947201132774353 0.67357063293457031 0
0.36515891551971436 0.67205715179443359 0
0.52993136644363403 0.66468197107315063 0
0.72970783710479736 0.64873838424682617 0
0.93494468927383423 0.62343484163284302 0
1 0.59085452556610107 0
1 0.55952757596969604 0
0 0.71085178852081299 0
0 0.73164236545562744 0
0 0.75568848848342896 0
0.0017555386293679476 0.77823334932327271 0
0.042525947093963623 0.79634279012680054 0
0.12203004211187363 0.80861645936965942 0
0.22916886210441589 0.81527495384216309 0
0.3630957305431366 0.81731516122817993 0
0.52453261613845825 0.81452709436416626 0
0.72302091121673584 0.80403268337249756 0
0.93209922313690186 0.78383129835128784 0
1 0.753498375415802 0
1 0.72075128555297852 0
0 0.85395580530166626 0
0 0.8756069540977478 0
0 0.89985448122024536 0
0.0028562657535076141 0.92289721965789795 0
0.048419397324323654 0.94105231761932373 0
0.12967787683010101 0.95242637395858765 0
0.23707154393196106 0.95994073152542114 0
0.37021759152412415 0.96398675441741943 0
0.53369200229644775 0.96483528614044189 0
0.73485612869262695 0.9612659215927124 0
0.94277364015579224 0.94962066411972046 0
1 0.92611277103424072 0
1 0.89388912916183472 0
0 0.0046554715372622013 0.027011482045054436
0 0.0025392868556082249 0.026715686544775963
0.0041980370879173279 0.0011604159371927381 0.026344822719693184
0.026358211413025856 0.00018382353300694376 0.022623803466558456
0.06660645455121994 0 0.016528051346540451
0.12702132761478424 0 0.0068036247976124287
0.21053458750247955 0 0.0003334793436806649
0.32394018769264221 0.0015711914747953415 0
0.47251152992248535 0.0038385728839784861 0
0.65338742733001709 0.0039215688593685627 0
0.84950262308120728 0.0034528544638305902 0
0.99267750978469849 0 0
1 0 0
0.00013515996397472918 0.010935644619166851 0.025117777287960052
0 0.012285344302654266 0.026354067027568817
0.0021603303030133247 0.012442943640053272 0.026715686544775963
0.023707745596766472 0.010766077786684036 0.024739105254411697
0.066547930240631104 0.0063163456507027149 0.020051291212439537
0.12959869205951691 0.0020085354335606098 0.012367083691060543
0.21497146785259247 0.00051719817565754056 0.0033570681698620319
0.32915285229682922 0.00057962455321103334 6.1498903960455209e-05
0.47972014546394348 0.0017041673418134451 0
0.66467893123626709 0.0030210905242711306 0
0.8671383261680603 0.0015032599912956357 0
0.99667763710021973 0 0
1 0 0
0.00038992188638076186 0.028032040223479271 0.020129408687353134
0 0.031146913766860962 0.02279166504740715
0.0020220589358359575 0.034970734268426895 0.025123819708824158
0.024843821302056313 0.034839436411857605 0.024669138714671135
0.069499373435974121 0.029446694999933243 0.022167325019836426
0.13546597957611084 0.019914723932743073 0.017069155350327492
0.22384148836135864 0.013023316860198975 0.0096169868484139442
0.34006637334823608 0.0096891513094305992 0.0024281220976263285
0.49121975898742676 0.0061997957527637482 6.2531114963348955e-05
0.67649555206298828 0.0033256830647587776 0
0.88207900524139404 0.0010229970794171095 0.00010287715122103691
0.99937444925308228 0 0
1 0 0
6.3982195570133626e-05 0.055999860167503357 0.014421470463275909
0 0.060124475508928299 0.019050134345889091
0.0020185583271086216 0.066229604184627533 0.022642247378826141
0.02528533898293972 0.068332970142364502 0.023488856852054596
0.071162022650241852 0.063922524452209473 0.022998107597231865
0.1402679830789566 0.055200599133968353 0.019414789974689484
0.23214618861675262 0.045418772846460342 0.013694388791918755
0.35129296779632568 0.03555544838309288 0.0067547815851867199
0.50278717279434204 0.023847168311476707 0.0010681002167984843
0.68549132347106934 0.012833270244300365 0
0.887501060962677 0.0052240109071135521 2.1003274014219642e-05
0.99986028671264648 0.00033943325979635119 0
1 0 0
0 0.093086391687393188 0.0097879450768232346
0 0.09934360533952713 0.014813142828643322
0.0011066362494602799 0.10732116550207138 0.019287005066871643
0.022352570667862892 0.11221418529748917 0.02202332392334938
0.07046942412853241 0.11122296005487442 0.022446261718869209
0.14249123632907867 0.10507313162088394 0.019499611109495163
0.2386767566204071 0.095349706709384918 0.01467056293040514
0.36181038618087769 0.081221409142017365 0.007570184301584959
0.51447600126266479 0.061946824193000793 0.0010781082091853023
0.69571119546890259 0.040935814380645752 0
0.89086461067199707 0.024389917030930519 0
0.99979722499847412 0.012178757227957249 0
1 0.0046154842711985111 0
0 0.14091044664382935 0.0049041896127164364
0 0.14980137348175049 0.0096427621319890022
0.00020075780048500746 0.16071370244026184 0.014967989176511765
0.017891649156808853 0.16909784078598022 0.018582422286272049
0.066970765590667725 0.17182676494121552 0.019578177481889725
0.14179414510726929 0.16884832084178925 0.018170854076743126
0.24262560904026031 0.16076739132404327 0.012643447145819664
0.36991697549819946 0.14606530964374542 0.0049527185037732124
0.52466452121734619 0.12332536280155182 0.00043574313167482615
0.70662772655487061 0.095580369234085083 0
0.89745724201202393 0.070157252252101898 0
0.99977356195449829 0.05105450376868248 0
1 0.03899446502327919 0
0 0.20022252202033997 0.00093973195180296898
0 0.21187654137611389 0.0043800505809485912
8.9757586465566419e-06 0.22585448622703552 0.0099178990349173546
0.014907493256032467 0.23772013187408447 0.014728336594998837
0.063365131616592407 0.24421045184135437 0.016946576535701752
0.13892398774623871 0.24495120346546173 0.015510035678744316
0.24186097085475922 0.23971335589885712 0.0098411859944462776
0.37235039472579956 0.22703404724597931 0.0029184080194681883
0.53041189908981323 0.20568343997001648 0.00020105698786210269
0.71732437610626221 0.17661575973033905 0
0.90871822834014893 0.14578279852867126 0
1 0.11945594102144241 0
1 0.10135306417942047 0
0 0.27250063419342041 0
0 0.28670611977577209 0.0005854587652720511
0 0.30343553423881531 0.0047730091027915478
0.013206272386014462 0.31848180294036865 0.010301387868821621
0.060141842812299728 0.32892143726348877 0.013605499640107155
0.13459812104701996 0.33317148685455322 0.012935144826769829
0.23758703470230103 0.33108323812484741 0.0086164437234401703
0.36956313252449036 0.32178544998168945 0.0031613518949598074
0.5334092378616333 0.30420833826065063 0.00028560863574966788
0.72984772920608521 0.27747246623039246 0
0.92553496360778809 0.24489428102970123 0
1 0.21341393887996674 0
1 0.18918965756893158 0
0 0.35965657234191895 0
0 0.37624680995941162 0
0 0.39554741978645325 0.0010743533493950963
0.011142955161631107 0.41352689266204834 0.0058848662301898003
0.056289192289113998 0.42704766988754272 0.0098127629607915878
0.13027672469615936 0.43409302830696106 0.01037018746137619
0.23378141224384308 0.43453523516654968 0.007659493014216423
0.36854571104049683 0.42829254269599915 0.0037666321732103825
0.53911882638931274 0.41426905989646912 0.00091442035045474768
0.74505460262298584 0.39129301905632019 5.385455096984515e-06
0.94307416677474976 0.36037686467170715 0
1 0.32676750421524048 0
1 0.29817596077919006 0
0 0.46324670314788818 0
0 0.48193138837814331 0
0 0.50351095199584961 3.2911113521549851e-05
0.0077944137156009674 0.52395182847976685 0.0017904244596138597
0.051778770983219147 0.53933823108673096 0.0056746238842606544
0.12648084759712219 0.54847818613052368 0.0073284674435853958
0.23272928595542908 0.55059856176376343 0.0058305179700255394
0.36897343397140503 0.54642593860626221 0.0036081201396882534
0.53969371318817139 0.53588950634002686 0.001500492449849844
0.74765104055404663 0.5169563889503479 0.0001678466796875
0.94946765899658203 0.48938664793968201 0
1 0.45640900731086731 0
1 0.42554411292076111 0
0 0.58311939239501953 0
0 0.60379916429519653 0
0 0.62715804576873779 0
0.0044712289236485958 0.64886927604675293 0.00013014848809689283
0.04705435037612915 0.66593176126480103 0.0018130283569917083
0.12317047268152237 0.6765562891960144 0.0038731892127543688
0.23076881468296051 0.6804652214050293 0.0038002014625817537
0.36798936128616333 0.6786080002784729 0.0022546206600964069
0.53238850831985474 0.67232680320739746 0.0013384949415922165
0.73306608200073242 0.65758424997329712 0.00018145990907214582
0.9383278489112854 0.63427114486694336 0
1 0.60301822423934937 0
1 0.5711483359336853 0
0 0.71626055240631104 0
0 0.73875194787979126 0
0 0.76341915130615234 0
0.003102470887824893 0.78626710176467896 0
0.045435499399900436 0.80440568923950195 0.00017030005983542651
0.12264116853475571 0.81668871641159058 0.0016008265083655715
0.22912977635860443 0.82342833280563354 0.0021992253605276346
0.36401790380477905 0.82586002349853516 0.001992139732465148
0.52632242441177368 0.82438546419143677 0.00087890622671693563
0.7255328893661499 0.81582045555114746 3.2312731491401792e-05
0.93513137102127075 0.79675889015197754 0
1 0.76683527231216431 0
1 0.73355883359909058 0
0 0.85915225744247437 0
0 0.88269555568695068 0
0 0.90803676843643188 0
0.0050058253109455109 0.93153995275497437 0
0.051394999027252197 0.94855266809463501 0
0.13005821406841278 0.95970404148101807 0.00072524126153439283
0.23620708286762238 0.96643805503845215 0.0021043217275291681
0.36916711926460266 0.96987086534500122 0.002245674841105938
0.53337329626083374 0.97140210866928101 0.0011866551358252764
0.73444223403930664 0.96922904253005981 6.0287176893325523e-05
0.94632834196090698 0.95956164598464966 0
1 0.93717122077941895 0
1 0.9050707221031189 0
0 0.0036641289480030537 0.051503755152225494
0 0.0020576776005327702 0.050471674650907516
0.004700380377471447 0.00097255333093926311 0.049439791589975357
0.027043480426073074 0.00016282025899272412 0.046095080673694611
0.068069681525230408 0 0.03820350393652916
0.12950949370861053 0 0.024864869192242622
0.21424168348312378 0 0.0078477449715137482
0.32729965448379517 0.0020460390951484442 0.00029666378395631909
0.47515404224395752 0.0038362988270819187 0
0.65470623970031738 0.0039215688593685627 0
0.84967255592346191 0.0027119056321680546 0
0.99206191301345825 0 0
1 0 0
0.00036444570287130773 0.012309983372688293 0.048400625586509705
0 0.012836306355893612 0.04943230003118515
0.0022178799845278263 0.012484950944781303 0.050325460731983185
0.024625577032566071 0.011239085346460342 0.048817802220582962
0.068272598087787628 0.0061354544013738632 0.043464750051498413
0.13359889388084412 0.00080264220014214516 0.033140998333692551
0.22016799449920654 0 0.017467020079493523
0.33364066481590271 6.6674925619736314e-05 0.0035013684537261724
0.48342481255531311 0.001471785013563931 6.2216960941441357e-05
0.66907316446304321 0.0025352777447551489 0
