assets/lut/alexjordan agressive highligjtes recovery 5.cube
# Created by: G'MIC (https://gmic.eu)
TITLE "agressive_highligjtes_recovery_5"
# LUT size
LUT_3D_SIZE 7
# Data domain
DOMAIN_MIN 0.0 0.0 0.0
DOMAIN_MAX 1.0 1.0 1.0
# LUT data points
8.1858917837962508e-05 0 0
0.017616914585232735 0.0089452704414725304 0.0073105604387819767
0.078438945114612579 0.020430171862244606 0.020925110206007957
0.25185894966125488 0.052969448268413544 0.053603243082761765
0.52089136838912964 0.11335619539022446 0.11155278980731964
0.55292683839797974 0.12204507738351822 0.11942062526941299
0.53648459911346436 0.12239240854978561 0.10966818034648895
0.020490055903792381 0.0989266037940979 0.02183462493121624
0.09855014830827713 0.10407013446092606 0.0084257088601589203
0.24993018805980682 0.092940375208854675 0.060566306114196777
0.43697178363800049 0.10973687469959259 0.10068954527378082
0.57747888565063477 0.11514720320701599 0.11942991614341736
0.55073279142379761 0.11073539406061172 0.11796477437019348
0.54218101501464844 0.12178806960582733 0.11629912257194519
0.055704034864902496 0.33505025506019592 0.060706734657287598
0.046101275831460953 0.30440080165863037 0.040088098496198654
0.26474034786224365 0.25297069549560547 0.036237034946680069
0.4877723753452301 0.22102123498916626 0.15608280897140503
0.57403379678726196 0.16463556885719299 0.14803969860076904
0.5509224534034729 0.11558093130588531 0.12116542458534241
0.55596500635147095 0.13925975561141968 0.13594701886177063
0.11815755814313889 0.59820359945297241 0.11890365183353424
0.07983088493347168 0.54619920253753662 0.10733542591333389
0.096419252455234528 0.46640068292617798 0.069866001605987549
0.41785541176795959 0.39460161328315735 0.036063175648450851
0.65474247932434082 0.34115880727767944 0.1877598911523819
0.63044863939285278 0.27498042583465576 0.20184807479381561
0.59954094886779785 0.25009506940841675 0.19120520353317261
0.16886968910694122 0.82420051097869873 0.15849560499191284
0.15889424085617065 0.78086990118026733 0.15056391060352325
0.09033406525850296 0.69000375270843506 0.15426141023635864
0.16928544640541077 0.59940844774246216 0.074859932065010071
0.55570638179779053 0.52301084995269775 0.044270757585763931
0.77456635236740112 0.44796645641326904 0.19300468266010284
0.73227989673614502 0.41514819860458374 0.23419305682182312
0.17931082844734192 0.93277579545974731 0.17087239027023315
0.18679967522621155 0.92909973859786987 0.17487560212612152
0.16335324943065643 0.9007035493850708 0.18029192090034485
0.12653596699237823 0.80664443969726562 0.1716456264257431
0.25662782788276672 0.73476815223693848 0.076598599553108215
0.68309986591339111 0.64988857507705688 0.038029104471206665
0.90264558792114258 0.58244627714157104 0.12681837379932404
0.16719318926334381 0.93327385187149048 0.15706300735473633
0.17641083896160126 0.92757230997085571 0.1721460223197937
0.18323458731174469 0.93945795297622681 0.18071238696575165
0.15470477938652039 0.92240387201309204 0.19645154476165771
0.14981526136398315 0.84490811824798584 0.16595359146595001
0.4097994863986969 0.81890493631362915 0.03942253440618515
0.78247398138046265 0.73782360553741455 0.0023881201632320881
0.00023354923177976161 0.00025221880059689283 0.00065056298626586795
0.020909462124109268 0.0028781816363334656 0.02086658775806427
0.12324375659227371 0.013699071481823921 0.061537470668554306
0.28230088949203491 0.049125026911497116 0.096507035195827484
0.50375610589981079 0.10860864818096161 0.13053414225578308
0.56382018327713013 0.13218100368976593 0.14681585133075714
0.53930962085723877 0.13175031542778015 0.13816367089748383
0.034561365842819214 0.089039251208305359 0.087938405573368073
0.092282570898532867 0.085417710244655609 0.089596785604953766
0.23080621659755707 0.079096592962741852 0.083000719547271729
0.40933457016944885 0.099211931228637695 0.10634931921958923
0.56561803817749023 0.12135013937950134 0.12365330755710602
0.5437355637550354 0.11938771605491638 0.11942452937364578
0.53713184595108032 0.12870270013809204 0.12202737480401993
0.065425083041191101 0.3065280020236969 0.072453230619430542
0.056251227855682373 0.27230668067932129 0.048092503100633621
0.22890062630176544 0.22623331844806671 0.029062084853649139
0.45606580376625061 0.20252096652984619 0.13247290253639221
0.56675982475280762 0.17211529612541199 0.15325894951820374
0.54768836498260498 0.11831163614988327 0.11622628569602966
0.54842370748519897 0.12173181027173996 0.11836636066436768
0.10943169891834259 0.57182461023330688 0.10439635813236237
0.09103710949420929 0.52545607089996338 0.098018839955329895
0.09308217465877533 0.44373780488967896 0.07261156290769577
0.39231547713279724 0.37611165642738342 0.040039766579866409
0.63399589061737061 0.32377493381500244 0.18193541467189789
0.62568491697311401 0.2595997154712677 0.1973908394575119
0.58947241306304932 0.22051689028739929 0.17253018915653229
0.16106180846691132 0.8147197961807251 0.15609507262706757
0.16486920416355133 0.77499747276306152 0.16028784215450287
0.11908410489559174 0.67880696058273315 0.14363782107830048
0.18009194731712341 0.58926582336425781 0.069845296442508698
0.54011285305023193 0.51666295528411865 0.048189755529165268
0.76951509714126587 0.4390694797039032 0.19610278308391571
0.72728312015533447 0.4065016508102417 0.23161251842975616
0.17984002828598022 0.93909019231796265 0.18254190683364868
0.18750110268592834 0.93684858083724976 0.18420952558517456
0.16945773363113403 0.89980554580688477 0.17930817604064941
0.12909199297428131 0.79914474487304688 0.17182263731956482
0.25777283310890198 0.72230201959609985 0.068335562944412231
0.67870265245437622 0.64490127563476562 0.049445565789937973
0.8821563720703125 0.58104360103607178 0.13155563175678253
0.17267008125782013 0.93016219139099121 0.17130996286869049
0.1797337681055069 0.92607885599136353 0.18254269659519196
0.18556909263134003 0.94268316030502319 0.18020316958427429
0.16631454229354858 0.93245744705200195 0.1919945627450943
0.15543219447135925 0.84513258934020996 0.16483138501644135
0.38194966316223145 0.82142037153244019 0.041426893323659897
0.77075022459030151 0.75062888860702515 0.00116666906978935
0 0.00014720243052579463 0.0024313533212989569
0.021913086995482445 0.0016805162886157632 0.049528803676366806
0.17824597656726837 0.00045537014375440776 0.1688191294670105
0.42153114080429077 0.025810690596699715 0.25942286849021912
0.60102945566177368 0.075956322252750397 0.28432133793830872
0.67776501178741455 0.099300742149353027 0.30237680673599243
0.66246366500854492 0.10233625769615173 0.27900350093841553
0.016425548121333122 0.088142991065979004 0.26073497533798218
0.080644033849239349 0.069139741361141205 0.30947506427764893
0.33380219340324402 0.025589019060134888 0.32481566071510315
0.54083961248397827 0.047096610069274902 0.27730819582939148
0.63715684413909912 0.087542168796062469 0.231136754155159
0.61568677425384521 0.10692373663187027 0.21464963257312775
0.60571080446243286 0.1158553808927536 0.21096901595592499
0.11356379091739655 0.27949061989784241 0.28328061103820801
0.089261181652545929 0.23482854664325714 0.25289574265480042
0.21007008850574493 0.19183284044265747 0.21489016711711884
0.44308602809906006 0.15668316185474396 0.17986169457435608
0.56392365694046021 0.14360718429088593 0.1503196507692337
0.55068588256835938 0.11994678527116776 0.12550181150436401
0.54457360506057739 0.11710212379693985 0.11454498022794724
0.1341111809015274 0.5221409797668457 0.17005008459091187
0.12590667605400085 0.47768053412437439 0.15758886933326721
0.086293540894985199 0.40083658695220947 0.077185265719890594
0.3531745970249176 0.33385902643203735 0.02531280554831028
0.57866734266281128 0.28626257181167603 0.18077486753463745
0.59194439649581909 0.22610487043857574 0.17203645408153534
0.58108818531036377 0.18634971976280212 0.15246041119098663
0.13760615885257721 0.75605964660644531 0.12750184535980225
0.13768786191940308 0.72649210691452026 0.13305115699768066
0.10943268239498138 0.63233113288879395 0.10841610282659531
0.14443717896938324 0.5458371639251709 0.076732650399208069
0.5072283148765564 0.4702397882938385 0.028882015496492386
0.72946357727050781 0.40889707207679749 0.19830475747585297
0.70371133089065552 0.37434577941894531 0.22494548559188843
0.17257773876190186 0.92413651943206787 0.16504791378974915
0.17535914480686188 0.91866129636764526 0.17291507124900818
0.16058571636676788 0.85732215642929077 0.16806615889072418
0.11943428218364716 0.76523536443710327 0.17603564262390137
0.23511266708374023 0.68908405303955078 0.076944060623645782
0.65107578039169312 0.61012572050094604 0.044600021094083786
0.8769262433052063 0.55310124158859253 0.15319256484508514
0.18255753815174103 0.92882698774337769 0.18610623478889465
0.18553367257118225 0.9292832612991333 0.19511720538139343
0.18400217592716217 0.9341774582862854 0.18461647629737854
0.17199327051639557 0.91952687501907349 0.19240817427635193
0.14886456727981567 0.84094500541687012 0.16137982904911041
0.35485371947288513 0.80616742372512817 0.040826790034770966
0.75571149587631226 0.72590190172195435 0.0020082960836589336
0 0.00043658088543452322 0.0069474163465201855
0.026911491528153419 0.00050917977932840586 0.093486577272415161
0.18167601525783539 0 0.31415623426437378
0.47159069776535034 0.00028480080072768033 0.47572940587997437
0.82692217826843262 0.022853806614875793 0.57885599136352539
0.93136906623840332 0.026208465918898582 0.64803439378738403
0.90995234251022339 0.029852818697690964 0.62008941173553467
0.00091132370289415121 0.077433973550796509 0.51497310400009155
0.062044538557529449 0.054601944983005524 0.62518990039825439
0.29211327433586121 0.016110438853502274 0.68687033653259277
0.69356715679168701 0.0030026603490114212 0.68551343679428101
0.93329405784606934 0.025729743763804436 0.63571381568908691
0.88024389743804932 0.041144546121358871 0.58145558834075928
0.8628997802734375 0.043608274310827255 0.55992692708969116
0.057857930660247803 0.26392444968223572 0.68673384189605713
0.040157798677682877 0.2268122136592865 0.69226431846618652
0.16412355005741119 0.16233368217945099 0.70859086513519287
0.5683092474937439 0.087143838405609131 0.61071181297302246
0.80280542373657227 0.06908869743347168 0.47324672341346741
0.72871989011764526 0.08361448347568512 0.36479538679122925
0.75054031610488892 0.069572478532791138 0.35663923621177673
0.20232236385345459 0.48212844133377075 0.5179440975189209
0.18042926490306854 0.44558700919151306 0.46940714120864868
0.14349071681499481 0.3534107506275177 0.37885221838951111
0.31421491503715515 0.29704481363296509 0.32343381643295288
0.57984793186187744 0.25261512398719788 0.26958200335502625
0.61456775665283203 0.19410614669322968 0.2132834792137146
0.5935785174369812 0.16400747001171112 0.18011163175106049
0.21201269328594208 0.70341318845748901 0.33493182063102722
0.19934813678264618 0.66862988471984863 0.29898619651794434
0.14900490641593933 0.58185839653015137 0.19962140917778015
0.15256021916866302 0.49692881107330322 0.13466450572013855
0.46128013730049133 0.43211722373962402 0.033395804464817047
0.68013197183609009 0.37694481015205383 0.20717661082744598
0.67059636116027832 0.34101280570030212 0.20847074687480927
0.17138178646564484 0.91615194082260132 0.1649375706911087
0.1830180436372757 0.87317264080047607 0.19543366134166718
0.1671517938375473 0.81693077087402344 0.16648191213607788
0.11029094457626343 0.72459614276885986 0.12129226326942444
0.19955796003341675 0.64222204685211182 0.070462591946125031
0.6005968451499939 0.56179773807525635 0.024620743468403816
0.83629053831100464 0.50352334976196289 0.16664354503154755
0.16928213834762573 0.93167567253112793 0.15166708827018738
0.17506982386112213 0.93052619695663452 0.16687804460525513
0.17952601611614227 0.94640958309173584 0.16014516353607178
0.16796195507049561 0.88184946775436401 0.17134253680706024
0.15128162503242493 0.7886011004447937 0.15285427868366241
0.3248220682144165 0.75929516553878784 0.043985374271869659
0.70937764644622803 0.68792331218719482 0.0013153075706213713
0 0.00065594841726124287 0.01498311385512352
0.033426068723201752 1.6874426364665851e-05 0.18506884574890137
0.19255088269710541 0 0.50404828786849976
0.49346321821212769 0 0.74164038896560669
0.94037485122680664 0.00074990966822952032 0.94003146886825562
1 0 0.9828370213508606
0.99909800291061401 0.00016180300735868514 0.99110627174377441
0.00042106778710149229 0.060564767569303513 0.75162678956985474
0.05391915887594223 0.038329001516103745 0.86184287071228027
0.26180911064147949 0.011269901879131794 0.96804124116897583
0.67499285936355591 0 0.99457806348800659
0.99912941455841064 0 0.99964922666549683
1 0 0.99705106019973755
1 0 0.9921833872795105
0.011134383268654346 0.2384597510099411 0.99694329500198364
0.00062531116418540478 0.19858834147453308 0.99988585710525513
0.11916647851467133 0.11746568977832794 1
0.58030593395233154 0.030283385887742043 0.99976366758346558
0.99504280090332031 0.00033066692412830889 0.9776875376701355
0.99777764081954956 0.00019052543211728334 0.93314135074615479
0.98620045185089111 0.0036943324375897646 0.89636588096618652
0.12032993137836456 0.46588027477264404 0.85485994815826416
0.086603634059429169 0.43222725391387939 0.85352104902267456
0.045031841844320297 0.33968344330787659 0.88457703590393066
0.28087690472602844 0.25192931294441223 0.88151282072067261
0.7841569185256958 0.14973150193691254 0.759033203125
0.88699400424957275 0.10243318974971771 0.6109279990196228
0.8458893895149231 0.074460811913013458 0.56033676862716675
0.27485105395317078 0.65728867053985596 0.69244521856307983
0.26714089512825012 0.62606054544448853 0.6549144983291626
0.22445140779018402 0.53919899463653564 0.5650705099105835
0.18705898523330688 0.45044484734535217 0.47457477450370789
0.42478421330451965 0.39507955312728882 0.42801675200462341
0.64331424236297607 0.35262435674667358 0.3632933497428894
0.66953390836715698 0.31685611605644226 0.32212847471237183
0.27016189694404602 0.85919636487960815 0.48152881860733032
0.27299115061759949 0.82757878303527832 0.47517383098602295
0.24784582853317261 0.76571238040924072 0.40717214345932007
0.19364121556282043 0.66604417562484741 0.28490129113197327
0.22161872684955597 0.59522110223770142 0.19621244072914124
0.55981206893920898 0.52507513761520386 0.060966551303863525
0.78286987543106079 0.47034797072410583 0.20810490846633911
0.22880348563194275 0.91438895463943481 0.32518267631530762
0.22619734704494476 0.91624528169631958 0.31092178821563721
0.20143866539001465 0.92602884769439697 0.24532559514045715
0.17877079546451569 0.84140104055404663 0.20919914543628693
0.1264725923538208 0.76331084966659546 0.14089067280292511
0.26124727725982666 0.71634560823440552 0.033914871513843536
0.67020636796951294 0.64382421970367432 0
0 4.6673943870700896e-05 0.011626837775111198
0.027807647362351418 0 0.19263961911201477
0.17446032166481018 0.00044943118700757623 0.49024572968482971
0.51186364889144897 0.0039107976481318474 0.90575826168060303
0.9340507984161377 0.00092137657338753343 0.99941021203994751
1 0 1
1 0 1
0.00049988989485427737 0.043225366622209549 0.84208214282989502
0.045234665274620056 0.019304297864437103 0.90850818157196045
0.25805312395095825 0.0013215607032179832 0.9913482666015625
0.64151507616043091 0 0.99999433755874634
0.99108970165252686 0 1
1 0 1
1 0 1
0.0010765823535621166 0.2106211930513382 1
0.00308990478515625 0.16045291721820831 1
0.12396693229675293 0.085801951587200165 0.99873507022857666
0.52712011337280273 0.026325779035687447 0.99890792369842529
0.97652500867843628 0 0.99999380111694336
1 0 1
1 0 1
0.07428925484418869 0.42895039916038513 0.88250023126602173
0.05199006199836731 0.38735863566398621 0.90657287836074829
0.031908206641674042 0.30543553829193115 0.97446906566619873
0.23085299134254456 0.21285894513130188 1
0.74851477146148682 0.098379530012607574 1
1 0.018962306901812553 0.99939298629760742
1 0.0038586335722357035 0.99857437610626221
0.23521800339221954 0.63037729263305664 0.81852692365646362
0.22160263359546661 0.61304664611816406 0.82165396213531494
0.1545330137014389 0.52362632751464844 0.83375674486160278
0.1093929186463356 0.43329381942749023 0.86966079473495483
0.36522680521011353 0.35439017415046692 0.96055084466934204
0.85158389806747437 0.2456829696893692 0.87505829334259033
0.9531140923500061 0.20018705725669861 0.78605109453201294
0.35793349146842957 0.82023757696151733 0.83343207836151123
0.34783712029457092 0.80206871032714844 0.81858295202255249
0.30999770760536194 0.72665727138519287 0.75818097591400146
0.26437494158744812 0.62365353107452393 0.65568900108337402
0.26556670665740967 0.54182404279708862 0.56665587425231934
0.51582914590835571 0.48998153209686279 0.51972585916519165
0.70905911922454834 0.45590308308601379 0.48244914412498474
0.36884906888008118 0.89812713861465454 0.75102049112319946
0.36711993813514709 0.89456439018249512 0.73551416397094727
0.33725976943969727 0.86626118421554565 0.65227782726287842
0.29362419247627258 0.78677976131439209 0.53981763124465942
0.23335805535316467 0.71711903810501099 0.40410783886909485
0.29530102014541626 0.66180181503295898 0.27079203724861145
0.63353365659713745 0.6036064624786377 0.10942208021879196
0.00048288083053193986 0 0.0056498809717595577
0.023617971688508987 0 0.17173546552658081
0.19272024929523468 0 0.51016312837600708
0.49683228135108948 0.0010265276068821549 0.87054586410522461
0.92991513013839722 0.00065316591644659638 0.99590963125228882
1 0 1
1 0 1
0 0.042207248508930206 0.82125043869018555
0.034346487373113632 0.013194559141993523 0.92250174283981323
0.2606138288974762 0.0063679562881588936 0.99179768562316895
0.60957223176956177 0.0032672658562660217 0.99626833200454712
0.9834023118019104 0 1
1 0 1
1 0 1
0.0037523156497627497 0.20980736613273621 1
0.024631649255752563 0.1663099080324173 1
0.17697808146476746 0.10494864732027054 1
0.5131298303604126 0.049495279788970947 0.99597412347793579
0.94724613428115845 0.00053347420180216432 0.99429184198379517
1 0 1
1 0 1
0.07041478157043457 0.42241725325584412 0.87414228916168213
0.05724354088306427 0.38957118988037109 0.89750880002975464
0.059367399662733078 0.29660141468048096 0.96292883157730103
0.21114586293697357 0.20265758037567139 0.99811649322509766
0.68903577327728271 0.090112902224063873 0.98828327655792236
0.99989497661590576 0.011100858449935913 1
1 0.00095699535449966788 1
0.21462382376194 0.60724943876266479 0.80789786577224731
0.19767248630523682 0.58920085430145264 0.81139802932739258
0.11365329474210739 0.50382322072982788 0.84144800901412964
0.072918519377708435 0.41155946254730225 0.89418262243270874
0.33161273598670959 0.31902161240577698 0.97203105688095093
0.83948820829391479 0.20753736793994904 0.99993389844894409
1 0.13761146366596222 1
0.35001030564308167 0.79867804050445557 0.8577459454536438
0.33427327871322632 0.78008568286895752 0.84440255165100098
0.27873173356056213 0.71198326349258423 0.83800286054611206
0.20722769200801849 0.60959446430206299 0.8315575122833252
0.17561538517475128 0.52715563774108887 0.84464806318283081
0.49449864029884338 0.44120907783508301 0.9353211522102356
0.89465117454528809 0.3563789427280426 0.91632121801376343
0.40139904618263245 0.90281051397323608 0.91844230890274048
0.40141618251800537 0.9065626859664917 0.90881061553955078
0.37346261739730835 0.84769743680953979 0.88264477252960205
0.33530619740486145 0.76159274578094482 0.79075890779495239
0.29445400834083557 0.66910868883132935 0.69923734664916992
0.35077819228172302 0.60798513889312744 0.62157630920410156
0.60163384675979614 0.56692564487457275 0.57201766967773438
