assets/lut/alexjordan yellow film 01.cube
# Created by: G'MIC (https://gmic.eu)
TITLE "yellow_film_01"
# LUT size
LUT_3D_SIZE 7
# Data domain
DOMAIN_MIN 0.0 0.0 0.0
DOMAIN_MAX 1.0 1.0 1.0
# LUT data points
0.034183800220489502 0.036102086305618286 0.036950983107089996
0.062718003988265991 0.047601856291294098 0.047978360205888748
0.10756704211235046 0.060236059129238129 0.060493409633636475
0.17755088210105896 0.068412885069847107 0.068003125488758087
0.26565486192703247 0.075189881026744843 0.074000805616378784
0.37990117073059082 0.078186273574829102 0.077842831611633301
0.51059013605117798 0.079430915415287018 0.080203160643577576
0.05745532363653183 0.11810023337602615 0.056828964501619339
0.13128282129764557 0.13103464245796204 0.057591456919908524
0.22499613463878632 0.13744410872459412 0.069886133074760437
0.31713348627090454 0.14870302379131317 0.081993430852890015
0.41465756297111511 0.16170957684516907 0.097155764698982239
0.53253370523452759 0.16986368596553802 0.10492835193872452
0.66159218549728394 0.17805247008800507 0.10996081680059433
0.034592796117067337 0.25615477561950684 0.036464869976043701
0.12758409976959229 0.27001649141311646 0.033525727689266205
0.27147427201271057 0.27110031247138977 0.030742047354578972
0.42812380194664001 0.27110248804092407 0.045014504343271255
0.55129438638687134 0.28126698732376099 0.081731356680393219
0.67222154140472412 0.29412209987640381 0.11120074242353439
0.80192214250564575 0.30673450231552124 0.13228058815002441
0.017793243750929832 0.4229373037815094 0.018614510074257851
0.11614348739385605 0.44106483459472656 0.018883664160966873
0.2618335485458374 0.44760987162590027 0.024244943633675575
0.44654899835586548 0.44696733355522156 0.025229090824723244
0.63929224014282227 0.44220072031021118 0.038015343248844147
0.81307947635650635 0.44756790995597839 0.067038923501968384
0.95727914571762085 0.46035084128379822 0.10255435109138489
0.0080096079036593437 0.60782718658447266 0.0080094132572412491
0.10285238921642303 0.62829548120498657 0.019462240859866142
0.25830256938934326 0.63959753513336182 0.027249639853835106
0.44429334998130798 0.64310115575790405 0.032783269882202148
0.65223211050033569 0.6478084921836853 0.024567054584622383
0.8812108039855957 0.64800649881362915 0.018096445128321648
1 0.65179789066314697 0.034339096397161484
0 0.82439768314361572 2.154182038793806e-05
0.062705144286155701 0.85562688112258911 0.002014354569837451
0.22070395946502686 0.87196838855743408 0.00064161710906773806
0.41764858365058899 0.8785744309425354 0.0046235029585659504
0.63498592376708984 0.88358259201049805 0.016630509868264198
0.87850642204284668 0.87585639953613281 0.081652171909809113
0.99911510944366455 0.87268519401550293 0.25851374864578247
0.009871150366961956 0.99562084674835205 0.011613838374614716
0.098604179918766022 1 0.042281057685613632
0.30861383676528931 0.99938488006591797 0.11071207374334335
0.58402270078659058 0.99982142448425293 0.32216113805770874
0.83102631568908691 0.99896365404129028 0.61203926801681519
0.98060619831085205 0.99721473455429077 0.91342073678970337
0.99987363815307617 0.99984580278396606 0.99830400943756104
0.035290900617837906 0.037481885403394699 0.060133751481771469
0.082947328686714172 0.046567685902118683 0.081725731492042542
0.14067986607551575 0.057482969015836716 0.093558669090270996
0.21033650636672974 0.067564629018306732 0.10432517528533936
0.30009067058563232 0.075779885053634644 0.11624544858932495
0.41816234588623047 0.074648626148700714 0.12461850047111511
0.54808712005615234 0.076340124011039734 0.13432171940803528
0.056873038411140442 0.12234450876712799 0.12126120924949646
0.13480620086193085 0.13310128450393677 0.13573345541954041
0.21154603362083435 0.15011082589626312 0.15067280828952789
0.3011782169342041 0.16086621582508087 0.16124327480792999
0.40693119168281555 0.17122913897037506 0.17154449224472046
0.52546012401580811 0.1799711287021637 0.1775069534778595
0.65334773063659668 0.18907234072685242 0.188089519739151
0.027859034016728401 0.25995489954948425 0.12211257219314575
0.13299120962619781 0.27258685231208801 0.13063310086727142
0.27925792336463928 0.27408304810523987 0.1341162770986557
0.40904572606086731 0.28221550583839417 0.16879497468471527
0.51844340562820435 0.2952425479888916 0.20099891722202301
0.63329756259918213 0.31396943330764771 0.22422575950622559
0.75836372375488281 0.3299219012260437 0.24193546175956726
0.010436113923788071 0.42696520686149597 0.10557430237531662
0.11938934028148651 0.4442826509475708 0.11846768110990524
0.26948654651641846 0.45308133959770203 0.12472373992204666
0.45805138349533081 0.45305705070495605 0.12705521285533905
0.63553035259246826 0.45192801952362061 0.15691198408603668
0.78723478317260742 0.46419447660446167 0.20983885228633881
0.92152875661849976 0.48187386989593506 0.2455064058303833
0.016766641288995743 0.61180013418197632 0.087240464985370636
0.11379044502973557 0.63251787424087524 0.10825276374816895
0.26474428176879883 0.64590275287628174 0.12272554636001587
0.45276325941085815 0.65175992250442505 0.126877561211586
0.66031670570373535 0.65682518482208252 0.12734559178352356
0.88347423076629639 0.65520411729812622 0.14364531636238098
0.99995261430740356 0.66301465034484863 0.17815214395523071
0.0039543900638818741 0.83752351999282837 0.05628599226474762
0.078848518431186676 0.8636510968208313 0.072633631527423859
0.23424986004829407 0.88097023963928223 0.0841187983751297
0.4296964704990387 0.88642799854278564 0.10551575571298599
0.65426671504974365 0.88594996929168701 0.15071380138397217
0.88861709833145142 0.88173007965087891 0.22740755975246429
0.99926435947418213 0.88585466146469116 0.41932386159896851
0.0079394318163394928 0.99965459108352661 0.076945103704929352
0.10617291182279587 1 0.11817187070846558
0.35823392868041992 1 0.25498610734939575
0.63992226123809814 1 0.46483340859413147
0.88154739141464233 0.99908638000488281 0.75463581085205078
0.99200105667114258 0.99867427349090576 0.96931988000869751
1 1 1
0.039699867367744446 0.041206583380699158 0.11652231961488724
0.087106071412563324 0.051076192408800125 0.15169082581996918
0.17963515222072601 0.048415988683700562 0.17525437474250793
0.285704106092453 0.048397693783044815 0.18579038977622986
0.39846974611282349 0.050946328788995743 0.19292296469211578
0.51081192493438721 0.051798023283481598 0.19831790030002594
0.63082718849182129 0.060887608677148819 0.20391611754894257
0.053387586027383804 0.12571196258068085 0.2268078625202179
0.13490481674671173 0.13550505042076111 0.25138604640960693
0.26664111018180847 0.13468903303146362 0.25955694913864136
0.37098565697669983 0.14549897611141205 0.25257375836372375
0.47005090117454529 0.15948012471199036 0.25392785668373108
0.5724174976348877 0.17320320010185242 0.25786754488945007
0.68857878446578979 0.18718716502189636 0.26582726836204529
0.029575228691101074 0.26109793782234192 0.26181420683860779
0.13245733082294464 0.27478891611099243 0.27530637383460999
0.27804195880889893 0.27835544943809509 0.2785494327545166
0.38541606068611145 0.29476168751716614 0.29308795928955078
0.49633550643920898 0.30872070789337158 0.30958884954452515
0.61309057474136353 0.32837757468223572 0.32495439052581787
0.7493097186088562 0.34095966815948486 0.3388669490814209
0.0085508311167359352 0.43016746640205383 0.24869361519813538
0.12046831846237183 0.44692713022232056 0.26505178213119507
0.27237790822982788 0.45604008436203003 0.27200999855995178
0.45645046234130859 0.45420190691947937 0.28343445062637329
0.60906863212585449 0.46291571855545044 0.32594472169876099
0.73567241430282593 0.48179858922958374 0.36707952618598938
0.8782418966293335 0.50160706043243408 0.39785027503967285
0.014220039360225201 0.61616188287734985 0.23041319847106934
0.11225312203168869 0.63630759716033936 0.25662195682525635
0.26454722881317139 0.65236324071884155 0.26887238025665283
0.45569002628326416 0.66013997793197632 0.2681586742401123
0.66775643825531006 0.66262620687484741 0.27787578105926514
0.87636876106262207 0.66291511058807373 0.3086760938167572
0.99785661697387695 0.68034136295318604 0.37877586483955383
0.0055248932912945747 0.84030646085739136 0.20489697158336639
0.080071650445461273 0.86240851879119873 0.23097032308578491
0.24398083984851837 0.88220071792602539 0.24671635031700134
0.43815857172012329 0.89273899793624878 0.26021075248718262
0.66474926471710205 0.88935542106628418 0.30730733275413513
0.89747035503387451 0.88528257608413696 0.40520110726356506
0.99898296594619751 0.90260511636734009 0.58920162916183472
0.020177504047751427 0.9998466968536377 0.20765559375286102
0.12607258558273315 0.99982249736785889 0.26763144135475159
0.4166792631149292 1 0.42497271299362183
0.70523595809936523 0.9998023509979248 0.62732797861099243
0.93259060382843018 0.99805331230163574 0.87624800205230713
0.99822884798049927 0.99977540969848633 0.99455481767654419
1 1 1
0.04210783913731575 0.044643595814704895 0.18933483958244324
0.091615267097949982 0.050501041114330292 0.24047450721263885
0.18506181240081787 0.045699503272771835 0.28917437791824341
0.32127794623374939 0.034389525651931763 0.31980162858963013
0.49836826324462891 0.020684424787759781 0.33497542142868042
0.65504616498947144 0.018106976523995399 0.33145979046821594
0.7878413200378418 0.028930274769663811 0.31908592581748962
0.048451710492372513 0.12619738280773163 0.36621144413948059
0.13012911379337311 0.13456937670707703 0.40348994731903076
0.26302894949913025 0.13281500339508057 0.42910254001617432
0.43083477020263672 0.12229276448488235 0.43043065071105957
0.58892518281936646 0.12152222543954849 0.41154986619949341
0.70481771230697632 0.13772512972354889 0.38951787352561951
0.8006213903427124 0.16250514984130859 0.37645596265792847
0.026453759521245956 0.259225994348526 0.43758746981620789
0.13268806040287018 0.2725750207901001 0.45373305678367615
0.27612534165382385 0.27732178568840027 0.46035706996917725
0.44785240292549133 0.27548906207084656 0.44873517751693726
0.57105344533920288 0.29321280121803284 0.43364319205284119
0.68111622333526611 0.3177434504032135 0.43060970306396484
0.80148279666900635 0.33448994159698486 0.43695336580276489
0.0099695995450019836 0.42874488234519958 0.42902666330337524
0.12249226123094559 0.4468998908996582 0.44309738278388977
0.27549287676811218 0.4556124210357666 0.45324811339378357
0.45251792669296265 0.45745807886123657 0.45983299612998962
0.59097754955291748 0.47445794939994812 0.47224834561347961
0.71124029159545898 0.49760973453521729 0.49827045202255249
0.85510247945785522 0.5142587423324585 0.51670342683792114
0.01118285208940506 0.61819237470626831 0.4110548198223114
0.11113101989030838 0.64236396551132202 0.43339753150939941
0.27112212777137756 0.65758562088012695 0.45015737414360046
0.45564490556716919 0.66520863771438599 0.45172515511512756
0.67103755474090576 0.66577178239822388 0.46045941114425659
0.8472297191619873 0.67303353548049927 0.51055502891540527
0.97409510612487793 0.69609218835830688 0.57061111927032471
0.0012958601582795382 0.84062552452087402 0.39115166664123535
0.077196113765239716 0.87196892499923706 0.41253525018692017
0.23966561257839203 0.89082455635070801 0.42216682434082031
0.44178906083106995 0.89612233638763428 0.44461885094642639
0.67469590902328491 0.89175701141357422 0.48995369672775269
0.90168869495391846 0.89163398742675781 0.57791376113891602
0.9980284571647644 0.91563767194747925 0.74334847927093506
0.050792887806892395 1 0.39921024441719055
0.18650944530963898 1 0.46253311634063721
0.45601695775985718 1 0.58118724822998047
0.75409811735153198 0.99997955560684204 0.75983732938766479
0.96503919363021851 0.9986724853515625 0.9493517279624939
0.99995511770248413 1 0.99989944696426392
1 1 1
0.043749343603849411 0.043763928115367889 0.27677655220031738
0.096178270876407623 0.044507794082164764 0.35694599151611328
0.19350525736808777 0.039025444537401199 0.43088507652282715
0.33689707517623901 0.026815975084900856 0.48243790864944458
0.5299038290977478 0.014177045784890652 0.5163988471031189
0.73937338590621948 0.0078105852007865906 0.52518671751022339
0.93677157163619995 0.0060108858160674572 0.52150493860244751
0.042742859572172165 0.12157566100358963 0.5340346097946167
0.12729796767234802 0.12759894132614136 0.58612579107284546
0.26051568984985352 0.12649674713611603 0.62379014492034912
0.43280646204948425 0.11655040085315704 0.63189840316772461
0.63348120450973511 0.10379647463560104 0.62612920999526978
0.82214981317520142 0.1014876589179039 0.59725630283355713
0.9690513014793396 0.11510810256004333 0.57160055637359619
0.019019931554794312 0.25516483187675476 0.64025628566741943
0.12641534209251404 0.2686920166015625 0.65912950038909912
0.27233803272247314 0.27464953064918518 0.66713762283325195
0.45896598696708679 0.27000409364700317 0.66321730613708496
0.65237003564834595 0.26703459024429321 0.65169042348861694
0.82730019092559814 0.27556389570236206 0.6232835054397583
0.95343470573425293 0.29436424374580383 0.59856933355331421
0.0079010007902979851 0.42612054944038391 0.63963699340820312
0.1191258579492569 0.4446386992931366 0.65119272470474243
0.27402845025062561 0.45327970385551453 0.66230732202529907
0.45939499139785767 0.45632362365722656 0.66659784317016602
0.66981422901153564 0.45524328947067261 0.65685027837753296
0.80578774213790894 0.48021110892295837 0.63951992988586426
0.93392401933670044 0.50337010622024536 0.63496947288513184
0.011449223384261131 0.61691188812255859 0.62130045890808105
0.11249687522649765 0.6437031626701355 0.63928979635238647
0.27239584922790527 0.65469914674758911 0.65630233287811279
0.45540931820869446 0.66292357444763184 0.6648285984992981
0.66226083040237427 0.66810739040374756 0.66967189311981201
0.81633710861206055 0.69011038541793823 0.68813782930374146
0.95194357633590698 0.7150721549987793 0.71408736705780029
0.0026446622796356678 0.84332072734832764 0.5979849100112915
0.087697602808475494 0.87168288230895996 0.62443399429321289
0.2518884539604187 0.88616496324539185 0.6443372368812561
0.46362596750259399 0.89108765125274658 0.66169095039367676
0.6944013237953186 0.89313727617263794 0.69051235914230347
0.90328258275985718 0.89995694160461426 0.75580292940139771
0.99364566802978516 0.93407005071640015 0.88363265991210938
0.071409575641155243 1 0.60264962911605835
0.25414323806762695 1 0.66693323850631714
0.54519546031951904 0.99997270107269287 0.75822645425796509
0.83498722314834595 0.99956035614013672 0.88586199283599854
0.98716902732849121 0.99926728010177612 0.98757314682006836
1 1 1
1 1 1
0.039156671613454819 0.040095012634992599 0.39041376113891602
0.091862276196479797 0.042116321623325348 0.49784669280052185
0.19208310544490814 0.035485316067934036 0.59800291061401367
0.33752834796905518 0.018326045945286751 0.68640011548995972
0.53437775373458862 0.0071638966910541058 0.74730265140533447
0.77667421102523804 0.0020439894869923592 0.76668703556060791
0.99375873804092407 0.00029871324659325182 0.78071552515029907
0.034575324505567551 0.11565746366977692 0.74082076549530029
0.11995671689510345 0.1213640570640564 0.80733203887939453
0.25284081697463989 0.11831501871347427 0.85772109031677246
0.42208611965179443 0.10869383066892624 0.87408208847045898
0.62691843509674072 0.095457457005977631 0.87896943092346191
0.85729801654815674 0.076997198164463043 0.85297012329101562
0.99999642372131348 0.07807573676109314 0.83832567930221558
0.014501803554594517 0.25146335363388062 0.86704486608505249
0.12088554352521896 0.26248255372047424 0.90368950366973877
0.27036392688751221 0.2671293318271637 0.90972477197647095
0.44709315896034241 0.26797547936439514 0.89674824476242065
0.65214163064956665 0.26167893409729004 0.90076297521591187
0.89319288730621338 0.24805675446987152 0.88446390628814697
1 0.25043827295303345 0.8600698709487915
0.0064743789844214916 0.42341840267181396 0.87537878751754761
0.11421012133359909 0.44180047512054443 0.89715766906738281
0.27175280451774597 0.44911110401153564 0.90615880489349365
0.45282498002052307 0.45466533303260803 0.89881926774978638
0.66716748476028442 0.45248723030090332 0.90351176261901855
0.90537375211715698 0.4463106095790863 0.90228796005249023
1 0.45698145031929016 0.8739435076713562
0.0068089654669165611 0.61743378639221191 0.85997998714447021
0.10669457167387009 0.64101976156234741 0.88471323251724243
0.26696538925170898 0.65301573276519775 0.89482122659683228
0.4515264630317688 0.66413283348083496 0.90895241498947144
0.66370970010757446 0.66816240549087524 0.90608161687850952
0.90565794706344604 0.66440534591674805 0.90098017454147339
0.99940532445907593 0.6948859691619873 0.87791222333908081
0.00051643518963828683 0.8437725305557251 0.84822267293930054
0.082328557968139648 0.86921042203903198 0.87258106470108032
0.2517247200012207 0.88815879821777344 0.89131456613540649
0.47045591473579407 0.8927808403968811 0.89610916376113892
0.7067563533782959 0.89291149377822876 0.90033018589019775
0.90781468152999878 0.90740126371383667 0.91173791885375977
0.98762637376785278 0.94893240928649902 0.95137733221054077
0.068055033683776855 1 0.82895028591156006
0.28537040948867798 1 0.8678087592124939
0.61877095699310303 1 0.90464550256729126
0.90200692415237427 0.99868655204772949 0.96665626764297485
0.99768674373626709 0.99980360269546509 0.99888038635253906
1 1 1
1 1 1
0.037024702876806259 0.038860142230987549 0.53794264793395996
0.090638071298599243 0.0366324782371521 0.67527967691421509
0.19691444933414459 0.023877402767539024 0.82448512315750122
0.34013321995735168 0.0095061361789703369 0.9026331901550293
0.54368400573730469 0.002103214617818594 0.97431987524032593
0.77288675308227539 0.0034116108436137438 0.9894595742225647
0.99282193183898926 0.004070925060659647 0.98981094360351562
0.02579893171787262 0.10826089978218079 0.95325344800949097
0.11654487997293472 0.11305154860019684 0.99082767963409424
0.25127515196800232 0.10723210126161575 0.99999570846557617
0.4205901026725769 0.098685212433338165 1
0.6310310959815979 0.086679078638553619 1
0.8616330623626709 0.067053548991680145 0.99977463483810425
0.99973231554031372 0.064957804977893829 0.99855464696884155
0.018620898947119713 0.24055477976799011 1
0.12078066170215607 0.25155651569366455 1
0.26767635345458984 0.25594460964202881 1
0.44635406136512756 0.25607791543006897 1
0.65464997291564941 0.2519608736038208 1
0.88929736614227295 0.23730470240116119 1
0.99995476007461548 0.23379436135292053 1
0.012744814157485962 0.41619372367858887 0.99990898370742798
0.11455369740724564 0.43300288915634155 1
0.2693275511264801 0.44139811396598816 1
0.45290616154670715 0.44516849517822266 1
0.65940773487091064 0.4451059103012085 1
0.90392369031906128 0.4430534839630127 0.99999767541885376
1 0.4363962709903717 1
0.0059133940376341343 0.61560732126235962 1
0.10391269624233246 0.63635587692260742 1
0.26419907808303833 0.65072202682495117 1
0.44734346866607666 0.6593017578125 1
0.65765482187271118 0.66641545295715332 0.99957698583602905
0.91387569904327393 0.66652190685272217 0.9997602105140686
0.99904567003250122 0.66460990905761719 0.99882078170776367
0.00083182839443907142 0.84188014268875122 1
0.077247485518455505 0.8670656681060791 1
0.27286159992218018 0.88075035810470581 0.99999344348907471
0.49367824196815491 0.88604146242141724 0.99979168176651001
0.73395228385925293 0.89358198642730713 0.99846839904785156
0.92932343482971191 0.91955304145812988 0.99886584281921387
0.99912756681442261 0.96382993459701538 0.99778789281845093
0.071075722575187683 0.99934756755828857 0.99432975053787231
0.36438232660293579 1 0.99924588203430176
0.70889991521835327 0.99804484844207764 0.99593710899353027
0.95259815454483032 0.99764996767044067 0.99718004465103149
0.99996554851531982 1 1
1 1 0.99996501207351685
0.99848508834838867 0.9989432692527771 0.99764257669448853
