assets/lut/alexjordan highlights protection.cube
# Created by: G'MIC (https://gmic.eu)
TITLE "highlights_protection"
# LUT size
LUT_3D_SIZE 7
# Data domain
DOMAIN_MIN 0.0 0.0 0.0
DOMAIN_MAX 1.0 1.0 1.0
# LUT data points
0 0 0
0 0 0
0 0 0
0 0 0
0.0038895402103662491 0.00020542518177535385 0.00014708275557495654
0.15191060304641724 0.020976422354578972 0.021445540711283684
0.37192609906196594 0.033802706748247147 0.035310275852680206
0 0 0
0 0 0
0.00052268832223489881 0 0
0.027821185067296028 0.008784574456512928 0.0026423137169331312
0.14317457377910614 0.031367987394332886 0.014230900444090366
0.31595763564109802 0.054458186030387878 0.023817863315343857
0.54853701591491699 0.069067753851413727 0.032061781734228134
0.0011022828985005617 0.074562951922416687 0.0036620793398469687
0.016772087663412094 0.094925478100776672 0.0031243716366589069
0.12796875834465027 0.14032132923603058 6.9233014073688537e-05
0.31494230031967163 0.1706402599811554 0.00075967825250700116
0.48901852965354919 0.19526271522045135 0.00225981161929667
0.64210289716720581 0.22007191181182861 0.018594345077872276
0.79992133378982544 0.24477538466453552 0.044269293546676636
1.516903103038203e-05 0.35746455192565918 7.4678311648312956e-05
0.014998491853475571 0.36928653717041016 0.00026993098435923457
0.19174237549304962 0.38466539978981018 0
0.41053521633148193 0.4024333655834198 0.000751495361328125
0.58334994316101074 0.41841873526573181 0.021514907479286194
0.72288805246353149 0.43841564655303955 0.082275122404098511
0.8736722469329834 0.46405372023582458 0.12368042767047882
0.038421884179115295 0.57919681072235107 0.036501295864582062
0.10018076002597809 0.5891420841217041 0.048003822565078735
0.27236485481262207 0.60630613565444946 0.03057493269443512
0.4633696973323822 0.62422454357147217 0.053382288664579391
0.62245643138885498 0.62228131294250488 0.088789574801921844
0.75929552316665649 0.62369555234909058 0.13195107877254486
0.91171455383300781 0.64477372169494629 0.1581399142742157
0.12003646790981293 0.75480294227600098 0.09952247142791748
0.19768135249614716 0.76151269674301147 0.14103096723556519
0.33542981743812561 0.76433205604553223 0.1294533759355545
0.47905793786048889 0.76170617341995239 0.11727185547351837
0.61454546451568604 0.75106525421142578 0.12065115571022034
0.74378246068954468 0.74448543787002563 0.12859839200973511
0.90425145626068115 0.77076774835586548 0.14214281737804413
0.19692894816398621 0.94251108169555664 0.16890347003936768
0.25679883360862732 0.94870257377624512 0.19598905742168427
0.38632375001907349 0.94112914800643921 0.20246367156505585
0.52279031276702881 0.93293106555938721 0.18432439863681793
0.64903509616851807 0.91820222139358521 0.15750026702880859
0.78512322902679443 0.91956532001495361 0.14553798735141754
0.94460701942443848 0.94227057695388794 0.15856112539768219
0 0 0
0 0 0
0 0 0
0 0 0
0.010184209793806076 0.00095063750632107258 0.0012452518567442894
0.16977956891059875 0.02546081505715847 0.036102220416069031
0.40083137154579163 0.034655477851629257 0.060655869543552399
0 0 0
0 0 0
0.00067946489434689283 0.00014645446208305657 1.1967677892243955e-05
0.037459727376699448 0.011540221981704235 0.006092490628361702
0.15756277740001678 0.032341528683900833 0.028394227847456932
0.33867824077606201 0.056106880307197571 0.045975390821695328
0.56469863653182983 0.070185750722885132 0.064077176153659821
0.001039662049151957 0.087418407201766968 0.021380361169576645
0.020808903500437737 0.10398293286561966 0.021686015650629997
0.1426129937171936 0.14543241262435913 0.016691993921995163
0.32623091340065002 0.17324240505695343 0.012384960427880287
0.50530511140823364 0.19447430968284607 0.030837653204798698
0.65401780605316162 0.22266308963298798 0.06486038863658905
0.79918640851974487 0.24876438081264496 0.10241326689720154
0 0.36065998673439026 0.033537097275257111
0.018181998282670975 0.36958861351013184 0.026701504364609718
0.18974891304969788 0.39020028710365295 0.010629302822053432
0.40243625640869141 0.4011857807636261 0.019045541062951088
0.58624911308288574 0.4167284369468689 0.04823925718665123
0.73902565240859985 0.44029685854911804 0.12192945182323456
0.87823450565338135 0.46884232759475708 0.17704087495803833
0.029487011954188347 0.58014756441116333 0.089732527732849121
0.079057939350605011 0.58898317813873291 0.089074201881885529
0.26193159818649292 0.61106884479522705 0.072855941951274872
0.45156356692314148 0.62619227170944214 0.082294732332229614
0.61784040927886963 0.62361866235733032 0.11287647485733032
0.76845186948776245 0.6257861852645874 0.16525720059871674
0.91537654399871826 0.64061886072158813 0.20179423689842224
0.12683054804801941 0.75256800651550293 0.17674851417541504
0.18412254750728607 0.76754724979400635 0.18805728852748871
0.32783252000808716 0.77849537134170532 0.17051240801811218
0.47682622075080872 0.77488481998443604 0.15427125990390778
0.61693847179412842 0.765308678150177 0.15602776408195496
0.75220000743865967 0.75521588325500488 0.17550024390220642
0.89777195453643799 0.76495182514190674 0.20122294127941132
0.19414666295051575 0.92981147766113281 0.23780086636543274
0.25335806608200073 0.94032472372055054 0.25735199451446533
0.39138415455818176 0.94497418403625488 0.26641744375228882
0.53033769130706787 0.93382912874221802 0.24426169693470001
0.65697765350341797 0.92874634265899658 0.22432233393192291
0.79209524393081665 0.92704087495803833 0.22720272839069366
0.93868035078048706 0.93883794546127319 0.23117928206920624
0 0 0
0 0 0
0 0 0
0 0 0
0.05424906313419342 0.0083032045513391495 0.025469686836004257
0.22341348230838776 0.026232775300741196 0.092620700597763062
0.44632962346076965 0.032233040779829025 0.14495331048965454
0 0 0
0 0 0
0.003937440924346447 0.0017756742890924215 0.0036060856655240059
0.065874584019184113 0.016097888350486755 0.039673943072557449
0.21555081009864807 0.03664582222700119 0.095795668661594391
0.40544897317886353 0.055439352989196777 0.14609584212303162
0.58691048622131348 0.073166579008102417 0.17965349555015564
0.0024497087579220533 0.10565222799777985 0.096445195376873016
0.021584095433354378 0.12159739434719086 0.11616954207420349
0.15266567468643188 0.15494538843631744 0.15170001983642578
0.35508501529693604 0.17415234446525574 0.17399729788303375
0.56184506416320801 0.19240745902061462 0.19801470637321472
0.71322870254516602 0.21935826539993286 0.23196235299110413
0.8177722692489624 0.25001028180122375 0.25579538941383362
5.9898226027144119e-05 0.37113448977470398 0.18892833590507507
0.010543359443545341 0.3799649178981781 0.18758635222911835
0.17818848788738251 0.40143123269081116 0.18061079084873199
0.40894219279289246 0.40902033448219299 0.18771918118000031
0.62256407737731934 0.42065554857254028 0.20939622819423676
0.78558087348937988 0.44125291705131531 0.26356002688407898
0.90787804126739502 0.46676450967788696 0.30830210447311401
0.035565949976444244 0.59754937887191772 0.26046979427337646
0.064153768122196198 0.60307741165161133 0.25555846095085144
0.23907367885112762 0.63201725482940674 0.24011123180389404
0.43997269868850708 0.64166653156280518 0.23613655567169189
0.63226282596588135 0.63752442598342896 0.2436533123254776
0.79274028539657593 0.62651073932647705 0.27356505393981934
0.93726307153701782 0.63255006074905396 0.31812751293182373
0.12416136264801025 0.76739883422851562 0.33659204840660095
0.16967533528804779 0.77224397659301758 0.32973834872245789
0.29775586724281311 0.79120135307312012 0.29357072710990906
0.44410297274589539 0.78881412744522095 0.26176515221595764
0.59935784339904785 0.7723318338394165 0.24315473437309265
0.75173616409301758 0.7535398006439209 0.26211917400360107
0.90649718046188354 0.75849968194961548 0.31604236364364624
0.19751518964767456 0.93530929088592529 0.38836380839347839
0.2620854377746582 0.94399493932723999 0.40161651372909546
0.37488770484924316 0.95061188936233521 0.38130715489387512
0.49879851937294006 0.93988311290740967 0.34279912710189819
0.63176953792572021 0.93121480941772461 0.32241171598434448
0.78364056348800659 0.9286048412322998 0.33965224027633667
0.94101947546005249 0.9411318302154541 0.36060634255409241
0 0 0
0 0 0
0 0 0
7.0010914896556642e-06 0 0
0.11179821193218231 0.015212413854897022 0.083257965743541718
0.28333932161331177 0.030726758763194084 0.17041261494159698
0.49550306797027588 0.029494611546397209 0.24396917223930359
0 0 0
0 0 0
0.012188900262117386 0.0053788875229656696 0.020050212740898132
0.094666950404644012 0.021611770614981651 0.095186345279216766
0.24890893697738647 0.038795754313468933 0.1766686737537384
0.45539304614067078 0.055376030504703522 0.25649639964103699
0.63884085416793823 0.074459701776504517 0.3048381507396698
0.0068051056005060673 0.12145183980464935 0.1970026046037674
0.029244218021631241 0.13754835724830627 0.2309013158082962
0.16182707250118256 0.16527621448040009 0.31635817885398865
0.36876365542411804 0.17760095000267029 0.36879494786262512
0.56859034299850464 0.18883611261844635 0.38085931539535522
0.74786162376403809 0.21515922248363495 0.40337154269218445
0.85978978872299194 0.24906125664710999 0.40835219621658325
0.0048823338001966476 0.37773895263671875 0.37691006064414978
0.014694946818053722 0.38907539844512939 0.38742130994796753
0.17785578966140747 0.41153538227081299 0.40936887264251709
0.41565939784049988 0.41793134808540344 0.42177367210388184
0.63638037443161011 0.4213336706161499 0.41980469226837158
0.8137516975402832 0.43850341439247131 0.43370088934898376
0.9490896463394165 0.46180245280265808 0.4567742645740509
0.044480685144662857 0.60195410251617432 0.4425407350063324
0.070064693689346313 0.61318528652191162 0.44121149182319641
0.23151038587093353 0.64542669057846069 0.44389018416404724
0.43182763457298279 0.65065288543701172 0.43609011173248291
0.63612467050552368 0.63882803916931152 0.42453804612159729
0.81849640607833862 0.62384092807769775 0.42533338069915771
0.97191739082336426 0.62674856185913086 0.45159134268760681
0.11647256463766098 0.77117514610290527 0.48383679986000061
0.16421346366405487 0.78296834230422974 0.48320844769477844
0.28006419539451599 0.80249351263046265 0.45645114779472351
0.41437116265296936 0.79617893695831299 0.41223189234733582
0.58288776874542236 0.78052008152008057 0.38350120186805725
0.75451505184173584 0.75540584325790405 0.37239038944244385
0.93310707807540894 0.7605171799659729 0.41673240065574646
0.19566571712493896 0.93727147579193115 0.53225249052047729
0.25766101479530334 0.9426959753036499 0.5384223461151123
0.34863361716270447 0.95203137397766113 0.50770330429077148
0.45248430967330933 0.94732701778411865 0.45379453897476196
0.59958994388580322 0.94617557525634766 0.42761710286140442
0.7647101879119873 0.93731844425201416 0.42487126588821411
0.9469677209854126 0.94749629497528076 0.45871704816818237
0 0 0
0 0 0
0 0 0
0.008380216546356678 0.00074009614763781428 0.010022900067269802
0.15373045206069946 0.022436672821640968 0.15422353148460388
0.33980485796928406 0.030493104830384254 0.2722325325012207
0.55056142807006836 0.02459220215678215 0.3659549355506897
0 0 0
0.00010950425348710269 9.7536576504353434e-05 0.00066899316152557731
0.024239858612418175 0.012404976412653923 0.052405696362257004
0.12029118090867996 0.03234577551484108 0.16354890167713165
0.29733750224113464 0.044828645884990692 0.2956547737121582
0.47653442621231079 0.059823773801326752 0.37775492668151855
0.69009000062942505 0.078972309827804565 0.44853043556213379
0.019193312153220177 0.13081835210323334 0.28932848572731018
0.04785320907831192 0.14608721435070038 0.32897841930389404
0.17605939507484436 0.17650406062602997 0.45229044556617737
0.37419649958610535 0.1881273090839386 0.54326921701431274
0.57170253992080688 0.19276639819145203 0.57184213399887085
0.74993866682052612 0.21692058444023132 0.58058524131774902
0.87581968307495117 0.25357523560523987 0.57066065073013306
0.023543847724795341 0.37251371145248413 0.52364605665206909
0.04871857538819313 0.38512271642684937 0.55347937345504761
0.19903652369976044 0.4097900390625 0.60868257284164429
0.41714510321617126 0.41791063547134399 0.63459926843643188
0.63803458213806152 0.42099452018737793 0.63793158531188965
0.83268451690673828 0.43751028180122375 0.63703799247741699
0.9777449369430542 0.4636286199092865 0.63405835628509521
0.073262035846710205 0.60017687082290649 0.60051882266998291
0.093304775655269623 0.6045680046081543 0.60616219043731689
0.23462748527526855 0.63410890102386475 0.63475024700164795
0.42637035250663757 0.64565354585647583 0.64381080865859985
0.63283401727676392 0.6346358060836792 0.63675916194915771
0.83422642946243286 0.61945033073425293 0.62106513977050781
0.99215179681777954 0.6214599609375 0.62038743495941162
0.13098689913749695 0.76291000843048096 0.62018108367919922
0.17928372323513031 0.78152823448181152 0.63305819034576416
0.26859232783317566 0.7926754355430603 0.62049579620361328
0.39300331473350525 0.78917777538299561 0.59076434373855591
0.56300437450408936 0.77761083841323853 0.56665873527526855
0.75631606578826904 0.75578051805496216 0.54247206449508667
0.94914346933364868 0.7533300518989563 0.55409139394760132
0.19433993101119995 0.91760176420211792 0.65290927886962891
0.26761481165885925 0.94180738925933838 0.67450213432312012
0.33812230825424194 0.95122593641281128 0.65069711208343506
0.42663034796714783 0.95057189464569092 0.60401046276092529
0.57150322198867798 0.9527772068977356 0.57561177015304565
0.7485426664352417 0.94554650783538818 0.55778306722640991
0.94518494606018066 0.94654077291488647 0.57556068897247314
0 0 0
0 0 0
0 0 0
0.038847051560878754 0.0090536978095769882 0.063031755387783051
0.1842372715473175 0.029143195599317551 0.22835218906402588
0.3782082200050354 0.031675510108470917 0.37666913866996765
0.60226923227310181 0.02050996758043766 0.49821239709854126
0.00039642932824790478 0 0.00012835334928240627
0.0018389683682471514 0.0017633176175877452 0.0069384407252073288
0.040247555822134018 0.021452317014336586 0.098686903715133667
0.14770537614822388 0.041219986975193024 0.24798010289669037
0.3178875744342804 0.057507861405611038 0.39731737971305847
0.50831860303878784 0.067848816514015198 0.5084916353225708
0.7260400652885437 0.082907885313034058 0.59800970554351807
0.028410205617547035 0.14269118010997772 0.37915128469467163
0.063679680228233337 0.15668909251689911 0.43141075968742371
0.19006381928920746 0.18642218410968781 0.57493269443511963
0.37186607718467712 0.19971033930778503 0.68275898694992065
0.56078547239303589 0.20867322385311127 0.72722768783569336
0.73325711488723755 0.22918999195098877 0.73824596405029297
0.86694830656051636 0.2702222466468811 0.72046041488647461
0.036574762314558029 0.37351506948471069 0.64833289384841919
0.088082410395145416 0.38785281777381897 0.68579840660095215
0.22895732522010803 0.40956461429595947 0.75976991653442383
0.42207694053649902 0.42073667049407959 0.80528616905212402
0.63302600383758545 0.43062517046928406 0.82695543766021729
0.82118874788284302 0.44209599494934082 0.82103389501571655
0.97916054725646973 0.46902254223823547 0.81312793493270874
0.080232284963130951 0.59063851833343506 0.73233681917190552
0.13871054351329803 0.6050797700881958 0.75494438409805298
0.26831305027008057 0.62364894151687622 0.79740244150161743
0.43652662634849548 0.63586914539337158 0.83025163412094116
0.63050365447998047 0.63172847032546997 0.84108150005340576
0.82396852970123291 0.61045712232589722 0.82032901048660278
0.99109518527984619 0.60922408103942871 0.80757051706314087
0.13106511533260345 0.75125634670257568 0.74952679872512817
0.19120226800441742 0.77009785175323486 0.76827090978622437
0.27543061971664429 0.77540510892868042 0.77503663301467896
0.39574819803237915 0.77847546339035034 0.77867579460144043
0.55275613069534302 0.7663264274597168 0.76698434352874756
0.7492905855178833 0.74524074792861938 0.7458309531211853
0.95992410182952881 0.74468088150024414 0.74649417400360107
0.20084874331951141 0.91191524267196655 0.78135722875595093
0.26899078488349915 0.931324303150177 0.79597550630569458
0.34082192182540894 0.94384497404098511 0.79391342401504517
0.42933890223503113 0.95418483018875122 0.78313970565795898
0.55559080839157104 0.94735062122344971 0.75276350975036621
0.74220305681228638 0.95516693592071533 0.7410653829574585
0.95382028818130493 0.95318341255187988 0.75218069553375244
6.5732470829971135e-05 0.00023006364062894136 0.00055872596567496657
0 0 0
0 0 0
0.077601686120033264 0.018447531387209892 0.1460520327091217
0.22594913840293884 0.031858932226896286 0.33614242076873779
0.4262729287147522 0.03019225224852562 0.51120531558990479
0.61843079328536987 0.018349995836615562 0.61835014820098877
0.00080916460137814283 0.0017739539034664631 0.00995635986328125
0.0046759662218391895 0.0062546073459088802 0.028569359332323074
0.056115932762622833 0.02964312955737114 0.16146080195903778
0.17592038214206696 0.053545679897069931 0.35390949249267578
0.35108733177185059 0.067974910140037537 0.53127378225326538
0.53221029043197632 0.075372077524662018 0.64286959171295166
0.72793960571289062 0.087867051362991333 0.72725027799606323
0.031931784003973007 0.16179554164409637 0.51912659406661987
0.073250427842140198 0.16859321296215057 0.55576598644256592
0.20041809976100922 0.19411793351173401 0.68026137351989746
0.36494386196136475 0.21233491599559784 0.78609061241149902
0.54335099458694458 0.227484330534935 0.83895939588546753
0.71524882316589355 0.24902364611625671 0.86533564329147339
0.85406458377838135 0.28287145495414734 0.85484927892684937
0.04355417937040329 0.38177916407585144 0.79264891147613525
0.1215297058224678 0.39045417308807373 0.79384177923202515
0.26606348156929016 0.41184249520301819 0.86641412973403931
0.43846800923347473 0.43158191442489624 0.93984562158584595
0.62172329425811768 0.44501775503158569 0.96208477020263672
0.80276906490325928 0.45746502280235291 0.96467894315719604
0.95760762691497803 0.47298949956893921 0.95617574453353882
0.087626092135906219 0.59340006113052368 0.87001729011535645
0.1733369380235672 0.61137723922729492 0.88149011135101318
0.31619572639465332 0.6304815411567688 0.93355309963226318
0.46286115050315857 0.6388128399848938 0.9820091724395752
0.63093429803848267 0.63366413116455078 0.99223160743713379
0.81264162063598633 0.61385637521743774 0.98799759149551392
0.98081707954406738 0.60558927059173584 0.98026168346405029
0.14501526951789856 0.76150131225585938 0.89808064699172974
0.22339527308940887 0.7796928882598877 0.91462028026580811
0.32445576786994934 0.78366643190383911 0.93386608362197876
0.42494016885757446 0.77375239133834839 0.94700998067855835
0.57315832376480103 0.76714605093002319 0.95887881517410278
0.75701773166656494 0.74725615978240967 0.95878076553344727
0.95829766988754272 0.74291306734085083 0.95706307888031006
0.2254936546087265 0.92900967597961426 0.93392115831375122
0.29899144172668457 0.94041424989700317 0.9410698413848877
0.38050758838653564 0.94428694248199463 0.94556295871734619
0.45022666454315186 0.93918013572692871 0.94091498851776123
0.57760930061340332 0.9447978138923645 0.94197827577590942
0.75827288627624512 0.95483940839767456 0.94820672273635864
0.96234375238418579 0.96039736270904541 0.96154534816741943
