assets/lut/alexjordan action magenta 01.cube
# Created by: G'MIC (https://gmic.eu)
TITLE "action_magenta_01"
# LUT size
LUT_3D_SIZE 7
# Data domain
DOMAIN_MIN 0.0 0.0 0.0
DOMAIN_MAX 1.0 1.0 1.0
# LUT data points
0.038182877004146576 0.030975895002484322 0.029567524790763855
0.11986997723579407 0.049967251718044281 0.047695174813270569
0.23761162161827087 0.061338432133197784 0.060139302164316177
0.33926099538803101 0.078055165708065033 0.074980519711971283
0.45349356532096863 0.09078478068113327 0.086877800524234772
0.55621242523193359 0.10862031579017639 0.1043238490819931
0.65446263551712036 0.12523165345191956 0.12485981732606888
0.10768193006515503 0.16516903042793274 0.071504227817058563
0.23306436836719513 0.17290478944778442 0.0737471804022789
0.34868431091308594 0.18571877479553223 0.076769210398197174
0.44893136620521545 0.20316576957702637 0.088478356599807739
0.54467171430587769 0.22297598421573639 0.10014829784631729
0.63814675807952881 0.24359002709388733 0.11472360789775848
0.73267596960067749 0.26082924008369446 0.13057172298431396
0.13809427618980408 0.31395545601844788 0.091967970132827759
0.27536764740943909 0.3182767927646637 0.088132835924625397
0.40019151568412781 0.32849282026290894 0.088187456130981445
0.5045158863067627 0.34619686007499695 0.097150497138500214
0.59837555885314941 0.36684083938598633 0.10811950266361237
0.69698148965835571 0.3842962384223938 0.12375642359256744
0.79342752695083618 0.4002804160118103 0.13924524188041687
0.16985397040843964 0.46289786696434021 0.11994224786758423
0.31707111001014709 0.46397387981414795 0.11543826013803482
0.4492948055267334 0.4706692099571228 0.11534247547388077
0.55864989757537842 0.48640796542167664 0.12516367435455322
0.65517204999923706 0.50556766986846924 0.13844053447246552
0.75104051828384399 0.52383530139923096 0.15367303788661957
0.84618115425109863 0.54056191444396973 0.16949889063835144
0.21246372163295746 0.60695958137512207 0.16220414638519287
0.36758679151535034 0.60687476396560669 0.15887606143951416
0.50590920448303223 0.6115419864654541 0.15914431214332581
0.61913770437240601 0.62437117099761963 0.16787885129451752
0.7152894139289856 0.64196926355361938 0.18215684592723846
0.80740177631378174 0.66077220439910889 0.19750429689884186
0.90001338720321655 0.67793649435043335 0.21206294000148773
0.26295793056488037 0.74695104360580444 0.21371211111545563
0.42061170935630798 0.74769490957260132 0.21082593500614166
0.56270265579223633 0.75186538696289062 0.20923298597335815
0.6794811487197876 0.76294106245040894 0.21566089987754822
0.77554577589035034 0.77943867444992065 0.22941695153713226
0.86535024642944336 0.79769885540008545 0.24389810860157013
0.95355409383773804 0.81490182876586914 0.25606539845466614
0.30761054158210754 0.88796794414520264 0.26365554332733154
0.46553859114646912 0.88944470882415771 0.26279172301292419
0.60945338010787964 0.89396953582763672 0.26039889454841614
0.73005163669586182 0.90384787321090698 0.26429468393325806
0.82772797346115112 0.91908448934555054 0.27614986896514893
0.91660588979721069 0.93622070550918579 0.28781065344810486
0.99475544691085815 0.95330750942230225 0.29620543122291565
0.04690266028046608 0.040175508707761765 0.072232641279697418
0.14154660701751709 0.058007258921861649 0.10316962748765945
0.26128467917442322 0.06520698219537735 0.14092162251472473
0.36588010191917419 0.077624410390853882 0.16918225586414337
0.46815139055252075 0.093320183455944061 0.18983504176139832
0.56952410936355591 0.11033247411251068 0.21217724680900574
0.66865265369415283 0.12569430470466614 0.23607461154460907
0.10642702877521515 0.17274090647697449 0.16348986327648163
0.23633383214473724 0.18145598471164703 0.17204394936561584
0.35895094275474548 0.19165346026420593 0.18545030057430267
0.4575849175453186 0.20797589421272278 0.20139133930206299
0.55074739456176758 0.22708241641521454 0.21739433705806732
0.64598339796066284 0.24597305059432983 0.23642744123935699
0.74210697412490845 0.26257002353668213 0.25735870003700256
0.1343962699174881 0.32114243507385254 0.20058028399944305
0.27567380666732788 0.32492628693580627 0.20338548719882965
0.40189799666404724 0.33637616038322449 0.20987486839294434
0.50798320770263672 0.3518407940864563 0.22345897555351257
0.60501778125762939 0.36909785866737366 0.23849007487297058
0.70247828960418701 0.3870539665222168 0.25569462776184082
0.79939812421798706 0.40424761176109314 0.27463915944099426
0.17017272114753723 0.46620362997055054 0.24432343244552612
0.31939056515693665 0.46787247061729431 0.24207735061645508
0.45207023620605469 0.4757552444934845 0.24616003036499023
0.56207007169723511 0.48998427391052246 0.25994598865509033
0.65989601612091064 0.50756692886352539 0.27604484558105469
0.75564992427825928 0.52632540464401245 0.29122307896614075
0.85177826881408691 0.54486918449401855 0.30762216448783875
0.21547523140907288 0.60876226425170898 0.29636871814727783
0.3728434145450592 0.60805624723434448 0.2929721474647522
0.51157599687576294 0.61338323354721069 0.29561299085617065
0.62227582931518555 0.62671291828155518 0.3081800639629364
0.71911334991455078 0.64374631643295288 0.32474935054779053
0.81332379579544067 0.66293656826019287 0.3405890166759491
0.90820568799972534 0.68053621053695679 0.35544735193252563
0.26569482684135437 0.74910640716552734 0.35331845283508301
0.42521756887435913 0.74926626682281494 0.3508601188659668
0.56627589464187622 0.75351154804229736 0.35157936811447144
0.68018347024917603 0.76535952091217041 0.36156028509140015
0.77803605794906616 0.78155630826950073 0.37692788243293762
0.87343680858612061 0.79897111654281616 0.39224106073379517
0.96614217758178711 0.8161466121673584 0.40534242987632751
0.3118252158164978 0.88973486423492432 0.4070492684841156
0.4710216224193573 0.89161461591720581 0.40698575973510742
0.61227726936340332 0.89618313312530518 0.40700092911720276
0.73060053586959839 0.90656912326812744 0.4141293466091156
0.8323853611946106 0.92121076583862305 0.42646360397338867
0.92760634422302246 0.93735975027084351 0.43877401947975159
0.9992862343788147 0.95401912927627563 0.44833976030349731
0.060459945350885391 0.048522081226110458 0.12061827629804611
0.15502041578292847 0.060844719409942627 0.17723700404167175
0.27959457039833069 0.06553177535533905 0.22707043588161469
0.38643085956573486 0.077387787401676178 0.26450476050376892
0.48407772183418274 0.09411456435918808 0.29445797204971313
0.5829961895942688 0.11031711101531982 0.32165470719337463
0.68065863847732544 0.12501150369644165 0.34634211659431458
0.11407759785652161 0.1773245632648468 0.26561224460601807
0.24151551723480225 0.18452805280685425 0.27842777967453003
0.36449980735778809 0.19419343769550323 0.29609555006027222
0.46602728962898254 0.20975868403911591 0.31608977913856506
0.55875170230865479 0.2281680554151535 0.3367156982421875
0.65359008312225342 0.24590091407299042 0.35866525769233704
0.74967509508132935 0.26200214028358459 0.38170412182807922
0.13677497208118439 0.32481533288955688 0.31547889113426208
0.28237351775169373 0.32614004611968994 0.32246848940849304
0.4103858470916748 0.33707264065742493 0.33389246463775635
0.5155717134475708 0.35240381956100464 0.35059976577758789
0.61244630813598633 0.36881393194198608 0.36882519721984863
0.70790249109268188 0.38674172759056091 0.38729780912399292
0.80428165197372437 0.40425443649291992 0.4076077938079834
0.17040200531482697 0.46836003661155701 0.36931082606315613
0.32318764925003052 0.46929070353507996 0.37026265263557434
0.45653286576271057 0.4777047336101532 0.37742555141448975
0.5653185248374939 0.49193617701530457 0.39284047484397888
0.66357070207595825 0.5082288384437561 0.41106507182121277
0.75890856981277466 0.52640104293823242 0.4274711012840271
0.85578322410583496 0.54497510194778442 0.44433057308197021
0.21401792764663696 0.61006367206573486 0.42948377132415771
0.37243497371673584 0.61014509201049805 0.42762228846549988
0.51070564985275269 0.61624598503112793 0.43163406848907471
0.62208902835845947 0.62938487529754639 0.44559779763221741
0.7200922966003418 0.64561963081359863 0.46359792351722717
0.81469893455505371 0.66326403617858887 0.48025727272033691
0.91230297088623047 0.68224138021469116 0.49485659599304199
0.26358464360237122 0.75042527914047241 0.490560382604599
0.42324537038803101 0.75083649158477783 0.4889252781867981
0.56361979246139526 0.75642144680023193 0.49071890115737915
0.6772121787071228 0.76848995685577393 0.50256645679473877
0.77777349948883057 0.78402590751647949 0.51875287294387817
0.8763127326965332 0.80093568563461304 0.53415590524673462
0.97258239984512329 0.8178597092628479 0.54821062088012695
0.31062963604927063 0.89221656322479248 0.54663926362991333
0.46912547945976257 0.89343243837356567 0.5467800498008728
0.61053860187530518 0.89900809526443481 0.54779356718063354
0.72788870334625244 0.90978044271469116 0.55705171823501587
0.83289939165115356 0.92374289035797119 0.5698237419128418
0.93376487493515015 0.93901723623275757 0.58231270313262939
0.99993538856506348 0.95527797937393188 0.59324842691421509
0.073447555303573608 0.056033998727798462 0.1804223507642746
0.17701885104179382 0.062443166971206665 0.25790250301361084
0.29110497236251831 0.070097185671329498 0.31423389911651611
0.39741614460945129 0.082625202834606171 0.35670584440231323
0.49753609299659729 0.097809121012687683 0.3938809335231781
0.59596842527389526 0.1131669282913208 0.42602461576461792
0.69210529327392578 0.12756611406803131 0.45233955979347229
0.11782379448413849 0.18404963612556458 0.36307859420776367
0.24616248905658722 0.19259066879749298 0.37457126379013062
0.36759772896766663 0.20071861147880554 0.39776867628097534
0.47084954380989075 0.21497258543968201 0.42231959104537964
0.56618779897689819 0.23185130953788757 0.44711387157440186
0.66108697652816772 0.24876426160335541 0.47192922234535217
0.75626140832901001 0.26467859745025635 0.49620482325553894
0.14143463969230652 0.33013048768043518 0.42346391081809998
0.28700783848762512 0.33396914601325989 0.42826157808303833
0.41711640357971191 0.34132516384124756 0.44426316022872925
0.52220183610916138 0.3553365170955658 0.46469199657440186
0.61798214912414551 0.37162747979164124 0.48545306921005249
0.71247506141662598 0.38883721828460693 0.50561857223510742
0.80843961238861084 0.40580561757087708 0.52783942222595215
0.17421700060367584 0.47199884057044983 0.48546683788299561
0.32790574431419373 0.47345831990242004 0.48724189400672913
0.46210116147994995 0.48111432790756226 0.49559462070465088
0.56877189874649048 0.49572348594665527 0.51139974594116211
0.66696017980575562 0.51143580675125122 0.53055250644683838
0.76152485609054565 0.52874237298965454 0.54818791151046753
0.8588109016418457 0.5466541051864624 0.56769078969955444
0.21531501412391663 0.61327427625656128 0.5522579550743103
0.37399548292160034 0.61355650424957275 0.55172574520111084
0.51322418451309204 0.61987411975860596 0.55537718534469604
0.62548190355300903 0.63331669569015503 0.56893420219421387
0.72290927171707153 0.64919191598892212 0.58699965476989746
0.81654751300811768 0.66699087619781494 0.60355067253112793
0.91494786739349365 0.68515545129776001 0.62057113647460938
0.26352173089981079 0.75393784046173096 0.61748111248016357
0.42376032471656799 0.75458997488021851 0.61532700061798096
0.56541621685028076 0.76015746593475342 0.61607873439788818
0.68055111169815063 0.77191066741943359 0.62748157978057861
0.78064578771591187 0.78716671466827393 0.64339876174926758
0.87815803289413452 0.80495250225067139 0.66002869606018066
0.9750632643699646 0.82184237241744995 0.67735171318054199
0.31058511137962341 0.89530771970748901 0.67656272649765015
0.47140753269195557 0.89681696891784668 0.6749686598777771
0.6138300895690918 0.90215140581130981 0.67432105541229248
0.73226732015609741 0.91243225336074829 0.68348914384841919
0.83747005462646484 0.92585933208465576 0.6968381404876709
0.93921947479248047 0.94140440225601196 0.7109915018081665
1 0.95842522382736206 0.72435754537582397
0.083703376352787018 0.062832973897457123 0.26240456104278564
0.18042357265949249 0.073256157338619232 0.32876279950141907
0.29818350076675415 0.079165801405906677 0.39345306158065796
0.40792882442474365 0.090201295912265778 0.44489970803260803
0.51004976034164429 0.10454097390174866 0.48792538046836853
0.60843563079833984 0.1194339245557785 0.52469301223754883
0.70315289497375488 0.13364076614379883 0.55336910486221313
0.12222304940223694 0.19269029796123505 0.44672468304634094
0.24565397202968597 0.20152269303798676 0.46411105990409851
0.36794939637184143 0.20977842807769775 0.49106192588806152
0.47593304514884949 0.22278885543346405 0.52074867486953735
0.57369673252105713 0.23888139426708221 0.54960030317306519
0.66892462968826294 0.25540298223495483 0.57699054479598999
0.76339948177337646 0.271354079246521 0.60273063182830811
0.14661775529384613 0.33605754375457764 0.51946860551834106
0.28955712914466858 0.34148484468460083 0.52721023559570312
0.42072081565856934 0.34873098134994507 0.54433161020278931
0.52876013517379761 0.36163243651390076 0.56815022230148315
0.62415707111358643 0.3777487576007843 0.59157156944274902
0.7173498272895813 0.39481464028358459 0.61244934797286987
0.81283748149871826 0.41106268763542175 0.63715487718582153
0.18043732643127441 0.4776032567024231 0.58957552909851074
0.3330644965171814 0.47995707392692566 0.59191960096359253
0.4691224992275238 0.48675495386123657 0.60026609897613525
0.57740527391433716 0.50073486566543579 0.61792951822280884
0.67229491472244263 0.51731806993484497 0.63785052299499512
0.764972984790802 0.53474903106689453 0.65551567077636719
0.86190962791442871 0.55140954256057739 0.67836266756057739
0.22111821174621582 0.61900490522384644 0.66172623634338379
0.38018918037414551 0.61897760629653931 0.66220539808273315
0.5202832818031311 0.62452435493469238 0.66545677185058594
0.63085430860519409 0.63839471340179443 0.67840224504470825
0.72630685567855835 0.65507560968399048 0.69626021385192871
0.82108563184738159 0.67289751768112183 0.71317750215530396
0.91992586851119995 0.68998891115188599 0.7337309718132019
0.26849719882011414 0.75929337739944458 0.73127472400665283
0.43023747205734253 0.75968462228775024 0.7285352349281311
0.57259285449981689 0.76485270261764526 0.72754287719726562
0.68525832891464233 0.7766563892364502 0.73941093683242798
0.78208494186401367 0.7915535569190979 0.75617027282714844
0.88383328914642334 0.80862146615982056 0.77521371841430664
0.98049181699752808 0.82593792676925659 0.79732441902160645
0.31559553742408752 0.90013688802719116 0.79250502586364746
0.47882318496704102 0.90098452568054199 0.79023629426956177
0.62314766645431519 0.90591526031494141 0.78777915239334106
0.73878437280654907 0.91585981845855713 0.79922294616699219
0.84011483192443848 0.92891573905944824 0.81407755613327026
0.942424476146698 0.94480383396148682 0.83101183176040649
0.99994540214538574 0.96409910917282104 0.84725147485733032
0.095640324056148529 0.069912761449813843 0.32994318008422852
0.20731233060359955 0.074232645332813263 0.41861984133720398
0.31656000018119812 0.082349814474582672 0.48561015725135803
0.42129048705101013 0.095806777477264404 0.53595387935638428
0.52249741554260254 0.11109976470470428 0.58049315214157104
0.62049871683120728 0.12633499503135681 0.62042766809463501
0.71387535333633423 0.14013539254665375 0.65091347694396973
0.12748941779136658 0.19835777580738068 0.53698456287384033
0.25655782222747803 0.20502489805221558 0.56346946954727173
0.37763172388076782 0.21464623510837555 0.59242701530456543
0.48454815149307251 0.22939042747020721 0.62061423063278198
0.58294451236724854 0.24627970159053802 0.65050369501113892
0.6785891056060791 0.26293855905532837 0.68055826425552368
0.77201360464096069 0.2781224250793457 0.70733082294464111
0.15247505903244019 0.34212177991867065 0.6130860447883606
0.29586577415466309 0.34655660390853882 0.62883275747299194
0.4276759922504425 0.35451260209083557 0.6469721794128418
0.53609848022460938 0.36798939108848572 0.67203742265701294
0.63201940059661865 0.38489183783531189 0.69754856824874878
0.72575503587722778 0.40179961919784546 0.72193247079849243
0.82042390108108521 0.41713878512382507 0.7478453516960144
0.18673104047775269 0.48394358158111572 0.68827712535858154
0.33840709924697876 0.48622977733612061 0.69429045915603638
0.47501420974731445 0.49279063940048218 0.70337188243865967
0.5837709903717041 0.50694334506988525 0.72262305021286011
0.67816746234893799 0.52433186769485474 0.74528497457504272
0.77189856767654419 0.54125493764877319 0.76747924089431763
0.86862915754318237 0.55675911903381348 0.79182988405227661
0.22648358345031738 0.62561994791030884 0.76339948177337646
0.38468730449676514 0.62543082237243652 0.76625174283981323
0.52497380971908569 0.63031065464019775 0.77028059959411621
0.63436800241470337 0.64453059434890747 0.78496628999710083
0.72985267639160156 0.66178107261657715 0.80716943740844727
0.8279191255569458 0.67890483140945435 0.82772314548492432
0.92670333385467529 0.69508737325668335 0.8475348949432373
0.27404439449310303 0.76528418064117432 0.83683055639266968
0.43713432550430298 0.76494783163070679 0.83670705556869507
0.57907557487487793 0.77020937204360962 0.83619260787963867
0.68837815523147583 0.78287631273269653 0.85047578811645508
0.78492701053619385 0.79755020141601562 0.87340694665908813
0.89042472839355469 0.8145906925201416 0.89399152994155884
0.98583805561065674 0.832253098487854 0.90987628698348999
0.31997540593147278 0.90533018112182617 0.90092676877975464
0.48648878931999207 0.9053075909614563 0.90124493837356567
0.63123106956481934 0.91001158952713013 0.90002226829528809
0.74358111619949341 0.92075330018997192 0.91442376375198364
0.84209185838699341 0.93491274118423462 0.93077254295349121
0.94558322429656982 0.95209628343582153 0.94900429248809814
0.99826264381408691 0.96906977891921997 0.97121584415435791
0.10433051735162735 0.074291512370109558 0.41146555542945862
0.22672228515148163 0.073831193149089813 0.5117989182472229
0.33246353268623352 0.084017597138881683 0.57583606243133545
0.43217304348945618 0.099967524409294128 0.62184065580368042
0.5316956639289856 0.1159919872879982 0.66614794731140137
0.62873858213424683 0.13133488595485687 0.70736265182495117
0.72064745426177979 0.14486263692378998 0.73847174644470215
0.13284304738044739 0.20272991061210632 0.62709552049636841
0.26860907673835754 0.2067156583070755 0.66515445709228516
0.3876989483833313 0.21766951680183411 0.69252258539199829
0.49247768521308899 0.23434464633464813 0.71753644943237305
0.59095931053161621 0.25199967622756958 0.74694287776947021
0.68675011396408081 0.26856356859207153 0.77820974588394165
0.77862977981567383 0.28299620747566223 0.80400186777114868
0.15947376191616058 0.3460526168346405 0.71013790369033813
0.30345296859741211 0.34933653473854065 0.73719042539596558
0.43314436078071594 0.35777726769447327 0.75671392679214478
0.54206037521362305 0.37282204627990723 0.77802377939224243
0.63994514942169189 0.39041838049888611 0.80297446250915527
0.73536020517349243 0.40705558657646179 0.83014756441116333
0.82840925455093384 0.42143979668617249 0.85414218902587891
0.19502066075801849 0.48765411972999573 0.78376501798629761
0.34473156929016113 0.48945081233978271 0.80012398958206177
0.47902736067771912 0.49634116888046265 0.81337904930114746
0.58852630853652954 0.51177942752838135 0.83119392395019531
0.68517810106277466 0.52995699644088745 0.85422992706298828
0.78283780813217163 0.54560530185699463 0.88195431232452393
0.87830239534378052 0.55973786115646362 0.90511691570281982
0.23530957102775574 0.62833976745605469 0.8595309853553772
0.3916303813457489 0.62827891111373901 0.86983686685562134
0.52966898679733276 0.63364642858505249 0.87795037031173706
0.63864779472351074 0.64944159984588623 0.89367294311523438
0.73625642061233521 0.6669037938117981 0.91807019710540771
0.83814460039138794 0.68213808536529541 0.94442319869995117
0.93446987867355347 0.69674384593963623 0.96337729692459106
0.2791893482208252 0.76884514093399048 0.93413132429122925
0.44231513142585754 0.7682381272315979 0.94124966859817505
0.5833314061164856 0.77360039949417114 0.94539737701416016
0.69260340929031372 0.78749305009841919 0.96022313833236694
0.79104602336883545 0.80306905508041382 0.98233366012573242
0.89539980888366699 0.81850630044937134 0.99269586801528931
0.98162376880645752 0.83359545469284058 0.99639284610748291
0.31988263130187988 0.90982407331466675 0.99326020479202271
0.4880308210849762 0.9090501070022583 0.99569928646087646
0.63374501466751099 0.91360986232757568 0.99672037363052368
0.74520325660705566 0.92583990097045898 0.99938929080963135
0.84437358379364014 0.94198060035705566 1
0.94723021984100342 0.9583861231803894 0.99937105178833008
0.99779820442199707 0.97219908237457275 0.99971026182174683
