assets/lut/alexjordan saturated blue.cube
# Created by: G'MIC (https://gmic.eu)
TITLE "saturated_blue"
# LUT size
LUT_3D_SIZE 7
# Data domain
DOMAIN_MIN 0.0 0.0 0.0
DOMAIN_MAX 1.0 1.0 1.0
# LUT data points
0.027662359178066254 0.03042571060359478 0.021520458161830902
0.41457867622375488 0.054722670465707779 0.050299372524023056
0.67217934131622314 0.074950046837329865 0.073281168937683105
0.86920279264450073 0.081860169768333435 0.10688229650259018
0.97893911600112915 0.10138166695833206 0.12570066750049591
0.99869930744171143 0.12683765590190887 0.15175095200538635
1 0.14736467599868774 0.16661329567432404
0.078719362616539001 0.35131329298019409 0.072995670139789581
0.39407980442047119 0.31917154788970947 0.032939385622739792
0.62173342704772949 0.30276697874069214 0.028965983539819717
0.77263349294662476 0.30260393023490906 0.031933803111314774
0.8741416335105896 0.31232219934463501 0.03810432180762291
0.95519024133682251 0.32487237453460693 0.050777062773704529
0.99713075160980225 0.33989048004150391 0.058652166277170181
0.087032213807106018 0.51003885269165039 0.08653298020362854
0.39433807134628296 0.47171282768249512 0.033277846872806549
0.60761946439743042 0.45260810852050781 0.021902136504650116
0.74640357494354248 0.45175772905349731 0.022794626653194427
0.85047417879104614 0.45772436261177063 0.030936909839510918
0.93892067670822144 0.46625456213951111 0.040953468531370163
0.99830257892608643 0.47336453199386597 0.059256803244352341
0.10988302528858185 0.637351393699646 0.10554682463407516
0.41779634356498718 0.59298485517501831 0.047762405127286911
0.62617373466491699 0.5699770450592041 0.034832179546356201
0.76582795381546021 0.56648725271224976 0.032070562243461609
0.86580854654312134 0.57292908430099487 0.037581365555524826
0.95063799619674683 0.58220112323760986 0.044710405170917511
1 0.59047693014144897 0.071872085332870483
0.10684480518102646 0.76037120819091797 0.11151580512523651
0.4172947108745575 0.71235883235931396 0.060689050704240799
0.63180243968963623 0.68832790851593018 0.043661680072546005
0.77702003717422485 0.68312197923660278 0.035790134221315384
0.87810313701629639 0.68933999538421631 0.040791738778352737
0.96480768918991089 0.69973218441009521 0.04712328314781189
1 0.71213662624359131 0.087991707026958466
0.083432681858539581 0.89458596706390381 0.09264683723449707
0.39089229702949524 0.84504550695419312 0.053776834160089493
0.60910886526107788 0.8229290246963501 0.036240477114915848
0.75763553380966187 0.81962490081787109 0.036606807261705399
0.86666077375411987 0.82745945453643799 0.044614754617214203
0.95722675323486328 0.84065461158752441 0.059739671647548676
1 0.85498309135437012 0.09384588897228241
0.05942942202091217 0.99989229440689087 0.058641981333494186
0.35858100652694702 0.98690235614776611 0.021337650716304779
0.57696330547332764 0.97375243902206421 0.012354024685919285
0.72983157634735107 0.97303515672683716 0.020616838708519936
0.83996564149856567 0.98038244247436523 0.039423894137144089
0.92968428134918213 0.98883134126663208 0.055988729000091553
0.99616265296936035 0.99479091167449951 0.06525915116071701
0.051427476108074188 0.041582278907299042 0.39214956760406494
0.41485506296157837 0.055254694074392319 0.43592789769172668
0.67929732799530029 0.055451754480600357 0.44533935189247131
0.8626214861869812 0.063085444271564484 0.47193178534507751
0.95261120796203613 0.087474018335342407 0.4868721067905426
0.98485630750656128 0.11125195026397705 0.52378261089324951
0.99836039543151855 0.13132001459598541 0.54712945222854614
0.048073217272758484 0.34037750959396362 0.4349999725818634
0.3762107789516449 0.29801252484321594 0.39755964279174805
0.59985405206680298 0.28426751494407654 0.37826061248779297
0.75557279586791992 0.28319922089576721 0.37728646397590637
0.8582160472869873 0.29188504815101624 0.3878752589225769
0.93884426355361938 0.30673572421073914 0.39980313181877136
0.99481701850891113 0.32046887278556824 0.41517725586891174
0.052669376134872437 0.50166118144989014 0.44132620096206665
0.37163537740707397 0.45300370454788208 0.38844513893127441
0.58864074945449829 0.4322471022605896 0.36839947104454041
0.72771596908569336 0.4319705069065094 0.35756728053092957
0.83371460437774658 0.43759450316429138 0.36429125070571899
0.92600166797637939 0.44662070274353027 0.37274017930030823
0.9956018328666687 0.45472592115402222 0.39154937863349915
0.079864352941513062 0.62526202201843262 0.46307170391082764
0.39390012621879578 0.57303524017333984 0.4099159836769104
0.60730171203613281 0.54816466569900513 0.38669797778129578
0.74817252159118652 0.54449832439422607 0.37730193138122559
0.8496018648147583 0.55079895257949829 0.38098013401031494
0.93641144037246704 0.55974036455154419 0.3885381817817688
0.99774456024169922 0.5714220404624939 0.40060850977897644
0.083279520273208618 0.74372118711471558 0.47926607728004456
0.39951738715171814 0.6911969780921936 0.4184400737285614
0.61578881740570068 0.66621381044387817 0.39197918772697449
0.75818449258804321 0.66019070148468018 0.3815799355506897
0.86087453365325928 0.66584944725036621 0.39020261168479919
0.94668376445770264 0.67778861522674561 0.40055134892463684
0.99780154228210449 0.69266694784164429 0.42242029309272766
0.074777297675609589 0.87462311983108521 0.45178523659706116
0.38334637880325317 0.82273733615875244 0.39931127429008484
0.59519714117050171 0.80185049772262573 0.36869180202484131
0.73885113000869751 0.79943031072616577 0.37316605448722839
0.84986692667007446 0.80872893333435059 0.38236293196678162
0.93708264827728271 0.82671183347702026 0.39854574203491211
0.99946272373199463 0.84323799610137939 0.42162832617759705
0.05674884095788002 0.99840950965881348 0.38812163472175598
0.35266125202178955 0.97493994235992432 0.33182790875434875
0.56763607263565063 0.95834732055664062 0.31518283486366272
0.71677517890930176 0.96070188283920288 0.34925231337547302
0.83034038543701172 0.97210997343063354 0.36172002553939819
0.92122453451156616 0.98489296436309814 0.37112501263618469
0.99337506294250488 0.99327284097671509 0.37470072507858276
0.076253704726696014 0.054792486131191254 0.63537585735321045
0.42978554964065552 0.053023934364318848 0.65451949834823608
0.6852988600730896 0.058576159179210663 0.65544098615646362
0.8587653636932373 0.06984216719865799 0.67404770851135254
0.94266813993453979 0.092207305133342743 0.68517297506332397
0.99071300029754639 0.11371796578168869 0.709663987159729
1 0.13162724673748016 0.72504878044128418
0.056395705789327621 0.33879634737968445 0.62921208143234253
0.37377911806106567 0.29328283667564392 0.5975346565246582
0.6023445725440979 0.2799171507358551 0.57878535985946655
0.75231444835662842 0.28158894181251526 0.57433736324310303
0.84913128614425659 0.29220852255821228 0.57448524236679077
0.93604081869125366 0.30278483033180237 0.58970528841018677
0.99948471784591675 0.31712645292282104 0.61084204912185669
0.058561872690916061 0.49880668520927429 0.62793093919754028
0.36474466323852539 0.45023068785667419 0.57710075378417969
0.5822339653968811 0.43014490604400635 0.55703836679458618
0.72401517629623413 0.42757660150527954 0.54965770244598389
0.82916140556335449 0.43351653218269348 0.55391442775726318
0.91968578100204468 0.4410761296749115 0.56467705965042114
0.99419856071472168 0.45182004570960999 0.58356320858001709
0.083456538617610931 0.62028056383132935 0.65121746063232422
0.38900601863861084 0.56946414709091187 0.59424257278442383
0.6008753776550293 0.5463569164276123 0.57178127765655518
0.74122446775436401 0.54102480411529541 0.56398975849151611
0.84298598766326904 0.54727619886398315 0.56780159473419189
0.92834043502807617 0.55432409048080444 0.58178776502609253
0.99486660957336426 0.56670910120010376 0.59743809700012207
0.089631833136081696 0.74006021022796631 0.66620582342147827
0.39793050289154053 0.68794238567352295 0.60536807775497437
0.61147475242614746 0.66319030523300171 0.57600587606430054
0.75096964836120605 0.65624195337295532 0.5739293098449707
0.8548012375831604 0.66363662481307983 0.58224242925643921
0.94047713279724121 0.67483484745025635 0.59462499618530273
0.99817466735839844 0.69065260887145996 0.61242157220840454
0.07308795303106308 0.87350356578826904 0.64441221952438354
0.37927001714706421 0.81981033086776733 0.5850939154624939
0.5936589241027832 0.79723316431045532 0.5567203164100647
0.73809641599655151 0.79621416330337524 0.56305277347564697
0.84919935464859009 0.80781638622283936 0.5804591178894043
0.93912613391876221 0.8263821005821228 0.59537702798843384
0.99901711940765381 0.84639579057693481 0.61293947696685791
0.051920991390943527 0.99762612581253052 0.58497250080108643
0.3425847589969635 0.97106355428695679 0.53611773252487183
0.56083989143371582 0.95440137386322021 0.52154302597045898
0.71580243110656738 0.95978474617004395 0.543357253074646
0.8329322338104248 0.97346776723861694 0.56020760536193848
0.9245418906211853 0.98685508966445923 0.57340914011001587
0.99204760789871216 0.99615895748138428 0.5813983678817749
0.083824425935745239 0.079221777617931366 0.76962447166442871
0.4556887149810791 0.058236755430698395 0.76964455842971802
0.69585537910461426 0.064357385039329529 0.7706986665725708
0.84836620092391968 0.08263319730758667 0.77898019552230835
0.94764810800552368 0.10094082355499268 0.79838991165161133
0.99850362539291382 0.12087669968605042 0.81282824277877808
1 0.13618388772010803 0.82296878099441528
0.065907783806324005 0.34885275363922119 0.74652695655822754
0.38496261835098267 0.2958565354347229 0.70155227184295654
0.60973644256591797 0.28042137622833252 0.68487250804901123
0.75193154811859131 0.28516870737075806 0.68011915683746338
0.85396212339401245 0.29320311546325684 0.68866747617721558
0.94106638431549072 0.30342468619346619 0.70495384931564331
0.99987113475799561 0.31493845582008362 0.73283094167709351
0.067238509654998779 0.5025634765625 0.7367016077041626
0.36779659986495972 0.45044189691543579 0.67796999216079712
0.58515852689743042 0.42984998226165771 0.65880364179611206
0.72715765237808228 0.42715609073638916 0.65523970127105713
0.82610934972763062 0.43152788281440735 0.65796935558319092
0.91339290142059326 0.43916478753089905 0.67331963777542114
0.99244648218154907 0.45166561007499695 0.70181328058242798
0.091634832322597504 0.62047624588012695 0.76018434762954712
0.39018982648849487 0.56962591409683228 0.70053964853286743
0.6023673415184021 0.54643756151199341 0.67508763074874878
0.74209386110305786 0.54036927223205566 0.6681552529335022
0.84088099002838135 0.54500913619995117 0.67083984613418579
0.92546433210372925 0.55307197570800781 0.68761163949966431
0.99524956941604614 0.56798005104064941 0.71242892742156982
0.10048151761293411 0.73998451232910156 0.77391457557678223
0.39858666062355042 0.68833857774734497 0.71490681171417236
0.61262625455856323 0.66307318210601807 0.68593740463256836
0.75325667858123779 0.65688598155975342 0.67817813158035278
0.85519027709960938 0.66285008192062378 0.6850963830947876
0.94346028566360474 0.67351722717285156 0.70069730281829834
0.99994003772735596 0.69228476285934448 0.72404098510742188
0.085075125098228455 0.87283146381378174 0.75504171848297119
0.37790936231613159 0.82084149122238159 0.69363951683044434
0.59540873765945435 0.79899948835372925 0.66500592231750488
0.74284142255783081 0.79934728145599365 0.66466277837753296
0.85248905420303345 0.81062740087509155 0.68370610475540161
0.94413584470748901 0.82980310916900635 0.70154500007629395
0.99999785423278809 0.84881329536437988 0.72521024942398071
0.055356372147798538 0.9975096583366394 0.71084451675415039
0.33995512127876282 0.97226887941360474 0.65965789556503296
0.56128382682800293 0.95606344938278198 0.64052653312683105
0.72201108932495117 0.96398669481277466 0.64821499586105347
0.83974802494049072 0.97860252857208252 0.66850388050079346
0.93251389265060425 0.99107712507247925 0.69001483917236328
0.99846863746643066 0.99586385488510132 0.71143549680709839
0.090175539255142212 0.078343197703361511 0.8854365348815918
0.47169667482376099 0.071401797235012054 0.88815778493881226
0.707741379737854 0.072446651756763458 0.88127720355987549
0.85801815986633301 0.088284902274608612 0.8850247859954834
0.96673488616943359 0.10398171842098236 0.90559983253479004
0.99996232986450195 0.12700144946575165 0.89911949634552002
1 0.14111058413982391 0.89700627326965332
0.069052450358867645 0.35365793108940125 0.84729063510894775
0.38711267709732056 0.30594184994697571 0.79824161529541016
0.61279451847076416 0.28625524044036865 0.78643190860748291
0.7557225227355957 0.28910139203071594 0.78262126445770264
0.85885554552078247 0.29523560404777527 0.7942049503326416
0.94651639461517334 0.30751433968544006 0.80757933855056763
0.99988508224487305 0.31796935200691223 0.82673770189285278
0.065131872892379761 0.50529789924621582 0.84163391590118408
0.36864432692527771 0.45485642552375793 0.77935963869094849
0.5893293023109436 0.43219995498657227 0.76017254590988159
0.73051327466964722 0.42740777134895325 0.75805896520614624
0.82555407285690308 0.43195977807044983 0.75877934694290161
0.91127127408981323 0.44091504812240601 0.77472859621047974
0.99110954999923706 0.45403924584388733 0.79968518018722534
0.089568674564361572 0.62251287698745728 0.8639373779296875
0.38851326704025269 0.57200968265533447 0.8062741756439209
0.60408622026443481 0.54832911491394043 0.77823460102081299
0.74319106340408325 0.54107397794723511 0.7700200080871582
0.84033441543579102 0.54383456707000732 0.77180349826812744
0.92579007148742676 0.55417013168334961 0.78753149509429932
0.99591749906539917 0.57218986749649048 0.8117375373840332
0.10387824475765228 0.74118721485137939 0.87319213151931763
0.39734458923339844 0.69049429893493652 0.82004237174987793
0.61282217502593994 0.66686010360717773 0.79150515794754028
0.75462824106216431 0.65880197286605835 0.78090763092041016
0.85554379224777222 0.66154658794403076 0.78750097751617432
0.94511771202087402 0.6758263111114502 0.80460375547409058
1 0.69835692644119263 0.82819432020187378
0.094009041786193848 0.87414759397506714 0.85469222068786621
0.37814176082611084 0.82324421405792236 0.79673677682876587
0.59686625003814697 0.80062448978424072 0.77422577142715454
0.74595552682876587 0.79920518398284912 0.7727043628692627
0.85167056322097778 0.80925709009170532 0.78642302751541138
0.94394171237945557 0.83201181888580322 0.80513143539428711
1 0.85304403305053711 0.83083039522171021
0.05811271071434021 0.99813449382781982 0.81983143091201782
0.34082114696502686 0.97532320022583008 0.77123397588729858
0.56285601854324341 0.9597054123878479 0.75272095203399658
0.7246355414390564 0.96554911136627197 0.75789111852645874
0.84147840738296509 0.97930639982223511 0.77493661642074585
0.93749034404754639 0.99191296100616455 0.79723477363586426
0.99954026937484741 0.99841952323913574 0.82106274366378784
0.118624247610569 0.11299976706504822 0.96365708112716675
0.48825240135192871 0.08401566743850708 0.98223495483398438
0.71973651647567749 0.078683577477931976 0.98057687282562256
0.87680906057357788 0.088665097951889038 0.98502153158187866
0.98108929395675659 0.10472721606492996 0.98673731088638306
1 0.130804643034935 0.96597647666931152
1 0.1440168023109436 0.95778894424438477
0.065995313227176666 0.35214322805404663 0.95527487993240356
0.39853706955909729 0.3068021833896637 0.91886872053146362
0.61719173192977905 0.29017272591590881 0.90661203861236572
0.76074457168579102 0.29072356224060059 0.89978069067001343
0.85797601938247681 0.2982756495475769 0.90136277675628662
0.9423530101776123 0.31025218963623047 0.90884673595428467
0.99988508224487305 0.31862744688987732 0.91331028938293457
0.059324093163013458 0.5040820837020874 0.95843017101287842
0.37440875172615051 0.45681264996528625 0.89959633350372314
0.59218752384185791 0.43582320213317871 0.87415486574172974
0.72748124599456787 0.43198284506797791 0.86678725481033325
0.82384729385375977 0.43535599112510681 0.87101656198501587
0.91123241186141968 0.44309526681900024 0.8863106369972229
0.99106818437576294 0.45589485764503479 0.89780354499816895
0.083149343729019165 0.6226189136505127 0.97031188011169434
0.38805526494979858 0.57524508237838745 0.9170224666595459
0.60433340072631836 0.55101174116134644 0.8856690526008606
0.74163162708282471 0.54463487863540649 0.87663716077804565
0.8407408595085144 0.54723918437957764 0.88212341070175171
0.92856079339981079 0.55787920951843262 0.89717435836791992
0.99685537815093994 0.57617378234863281 0.9125436544418335
0.10006670653820038 0.74082595109939575 0.97139036655426025
0.39842629432678223 0.69160878658294678 0.92549115419387817
0.61248743534088135 0.66781604290008545 0.89885920286178589
0.75461709499359131 0.66140937805175781 0.88847386837005615
0.85710704326629639 0.66554921865463257 0.89903372526168823
0.94893068075180054 0.67958593368530273 0.9187806248664856
1 0.70344299077987671 0.93442749977111816
0.085960149765014648 0.87464189529418945 0.9578518271446228
0.38396754860877991 0.82558280229568481 0.90596407651901245
0.59729188680648804 0.80453962087631226 0.88353723287582397
0.74594676494598389 0.8042481541633606 0.88333982229232788
0.853840172290802 0.81496268510818481 0.89953160285949707
0.94884610176086426 0.83528739213943481 0.92305898666381836
0.99998992681503296 0.85630190372467041 0.94412904977798462
0.04252186045050621 0.99874556064605713 0.92691671848297119
0.34623360633850098 0.97781276702880859 0.88372021913528442
0.56826871633529663 0.96530890464782715 0.86923527717590332
0.72891038656234741 0.97078615427017212 0.8756415843963623
0.84602171182632446 0.98377007246017456 0.89132928848266602
0.9444006085395813 0.99317628145217896 0.91532087326049805
1 0.99830394983291626 0.93267703056335449
0.12782149016857147 0.13481214642524719 0.99087309837341309
0.49640935659408569 0.090472415089607239 0.99851143360137939
0.71245074272155762 0.084382228553295135 1
0.86697572469711304 0.093076355755329132 1
0.98173767328262329 0.1075105220079422 0.99977338314056396
1 0.13077224791049957 0.99938172101974487
1 0.13831599056720734 0.99921554327011108
0.071844317018985748 0.35325968265533447 1
0.40443694591522217 0.30750229954719543 0.99580591917037964
0.61161977052688599 0.29226389527320862 0.99315530061721802
0.7582094669342041 0.29040783643722534 0.99275839328765869
0.8595430850982666 0.29723325371742249 0.9972149133682251
0.94837421178817749 0.31070125102996826 0.99430376291275024
1 0.31485489010810852 0.99109178781509399
0.065366081893444061 0.49859181046485901 1
0.37818214297294617 0.45519119501113892 0.99424642324447632
0.58896607160568237 0.43735679984092712 0.97866028547286987
0.72722929716110229 0.43418940901756287 0.97559350728988647
0.82774657011032104 0.4372401237487793 0.98311227560043335
0.91805237531661987 0.44426476955413818 0.98874920606613159
0.99518215656280518 0.45379003882408142 0.98850530385971069
0.08193543553352356 0.61943119764328003 1
0.38681095838546753 0.5752909779548645 0.99793308973312378
0.60144257545471191 0.5543522834777832 0.98238319158554077
0.74055957794189453 0.55062675476074219 0.97815883159637451
0.8424457311630249 0.55379843711853027 0.9852679967880249
0.93018507957458496 0.56346940994262695 0.99268883466720581
0.99690920114517212 0.57885873317718506 0.99551993608474731
0.09400322288274765 0.73934972286224365 1
0.40376889705657959 0.69025099277496338 0.99767035245895386
0.61547225713729858 0.67202103137969971 0.98712438344955444
0.7546582818031311 0.67036992311477661 0.9857514500617981
0.85953068733215332 0.67475724220275879 0.99381875991821289
0.94734776020050049 0.68668454885482788 0.9994056224822998
0.99971294403076172 0.70879602432250977 0.99998277425765991
0.071082144975662231 0.87565290927886963 1
0.38748541474342346 0.82860833406448364 0.9957423210144043
0.60477077960968018 0.81233251094818115 0.98487663269042969
0.75198239088058472 0.81432217359542847 0.98703879117965698
0.86063641309738159 0.82116341590881348 0.99545431137084961
0.95485216379165649 0.83766931295394897 0.99984472990036011
1 0.86158537864685059 1
0.038675554096698761 0.99911481142044067 0.99447476863861084
0.35000172257423401 0.98126989603042603 0.9891473650932312
0.57356685400009155 0.97102773189544678 0.98172676563262939
0.73573565483093262 0.9762645959854126 0.98742657899856567
0.85181117057800293 0.98217296600341797 0.99513930082321167
0.94384235143661499 0.99331951141357422 0.99926471710205078
0.99836140871047974 0.99847477674484253 0.99811732769012451
