assets/lut/alexjordan dark green 02.cube
# Created by: G'MIC (https://gmic.eu)
TITLE "dark_green_02"
# LUT size
LUT_3D_SIZE 5
# Data domain
DOMAIN_MIN 0.0 0.0 0.0
DOMAIN_MAX 1.0 1.0 1.0
# LUT data points
0 0 0
0.020498597994446754 0.0024689917918294668 9.6848430985119194e-05
0.19992721080780029 0.0010435516014695168 0.00074133777525275946
0.41241171956062317 0.0033008051104843616 0
0.69916379451751709 0 0
0 0.0083632227033376694 0
0.016916835680603981 0.017732119187712669 5.3091611334821209e-05
0.19150891900062561 0.028306296095252037 0.0010097578633576632
0.43542146682739258 0.055716123431921005 0
0.7356075644493103 0.030091797932982445 0
0 0.23921994864940643 0
0.037126459181308746 0.27127045392990112 0.00063521444099023938
0.24463294446468353 0.3077942430973053 0.00042545094038359821
0.51401376724243164 0.3345949649810791 0.0056340238079428673
0.828014075756073 0.35149583220481873 0.01474284753203392
0 0.58461922407150269 0
0.082328617572784424 0.62986928224563599 0.0092780468985438347
0.32056993246078491 0.67379570007324219 0.017421318218111992
0.60813099145889282 0.71053904294967651 0.042126420885324478
0.9403613805770874 0.75450998544692993 0.05608508363366127
0.0016882354393601418 0.96634179353713989 0.0036741818767040968
0.1521793007850647 0.99647301435470581 0.01743398979306221
0.40607813000679016 0.99992531538009644 0.053914356976747513
0.7130618691444397 1 0.090761654078960419
0.99943703413009644 1 0.11867015808820724
0 0 0.027835994958877563
0.026311194524168968 0.0020835876930505037 0.041937090456485748
0.19802458584308624 0.0051065334118902683 0.040414083749055862
0.42559352517127991 0.0017671921523287892 0.035487741231918335
0.71154886484146118 0 0.005433984100818634
0 0.010142606683075428 0.014851723797619343
0.015877727419137955 0.018791751936078072 0.025455804541707039
0.19478382170200348 0.039112869650125504 0.032219577580690384
0.43619272112846375 0.058146398514509201 0.040093231946229935
0.74518245458602905 0.052760735154151917 0.044755958020687103
0 0.24478204548358917 0.024486945942044258
0.04558958113193512 0.28574380278587341 0.06640644371509552
0.2595457136631012 0.32480636239051819 0.095247410237789154
0.52760165929794312 0.35272246599197388 0.1160743236541748
0.84512603282928467 0.37024804949760437 0.12836639583110809
0 0.58586806058883667 0.062918566167354584
0.10547525435686111 0.64329761266708374 0.1216173991560936
0.33930015563964844 0.69127398729324341 0.16344761848449707
0.6329270601272583 0.74096691608428955 0.20018652081489563
0.97206765413284302 0.76981496810913086 0.22447799146175385
0.0020544163417071104 0.97625905275344849 0.14187072217464447
0.16822287440299988 0.99955230951309204 0.18667669594287872
0.42714676260948181 1 0.23377424478530884
0.73422789573669434 1 0.27453556656837463
0.99986213445663452 1 0.30931693315505981
0 0 0.21861700713634491
0.029776778072118759 0.008545340970158577 0.23212818801403046
0.20968352258205414 5.9509278798941523e-05 0.22862233221530914
0.42726236581802368 0 0.20327325165271759
0.70756882429122925 0 0.17994990944862366
0 0.028402380645275116 0.19427475333213806
0.019926827400922775 0.036934241652488708 0.20546059310436249
0.20576359331607819 0.044859644025564194 0.2261846512556076
0.45101150870323181 0.065630115568637848 0.23282670974731445
0.75910204648971558 0.081954255700111389 0.24280352890491486
0 0.25761383771896362 0.21592959761619568
0.053818423300981522 0.2987968921661377 0.25672003626823425
0.27609825134277344 0.34171709418296814 0.29053965210914612
0.54320019483566284 0.37423610687255859 0.31685328483581543
0.86070197820663452 0.39588576555252075 0.33567380905151367
0 0.5998375415802002 0.26628831028938293
0.11740198731422424 0.66243833303451538 0.32315629720687866
0.35874626040458679 0.71310591697692871 0.3712131679058075
0.6466023325920105 0.75526660680770874 0.4032975435256958
0.97896784543991089 0.79458326101303101 0.4314081072807312
0.0050564035773277283 0.98256838321685791 0.34588831663131714
0.18484973907470703 1 0.39936420321464539
0.45135590434074402 1 0.45182177424430847
0.76723742485046387 1 0.49222290515899658
1 1 0.5291823148727417
0 0 0.43527820706367493
0.026758112013339996 0 0.43636280298233032
0.19100029766559601 0 0.42299968004226685
0.42589184641838074 0 0.41636577248573303
0.70109671354293823 0 0.40505018830299377
0 0.011826205067336559 0.4125702977180481
0.018770510330796242 0.034384649246931076 0.41998016834259033
0.20948822796344757 0.05808112770318985 0.44256740808486938
0.46636244654655457 0.060900010168552399 0.46188721060752869
0.76983445882797241 0.096409544348716736 0.47175633907318115
0 0.26216134428977966 0.43947973847389221
0.059067085385322571 0.31203243136405945 0.47741979360580444
0.28549909591674805 0.3577631413936615 0.51504415273666382
0.565357506275177 0.38704663515090942 0.54614472389221191
0.88393336534500122 0.40548735857009888 0.56937998533248901
0.0013422947376966476 0.61657094955444336 0.50215572118759155
0.12491746991872787 0.68369221687316895 0.55594491958618164
0.37646114826202393 0.73344516754150391 0.60243076086044312
0.66583478450775146 0.77888220548629761 0.63694852590560913
0.98656439781188965 0.8170965313911438 0.67111200094223022
0.008904535323381424 0.99083364009857178 0.58549267053604126
0.19592423737049103 1 0.64039856195449829
0.473824143409729 1 0.69471430778503418
0.79830324649810791 1 0.74058634042739868
1 1 0.77646541595458984
0 0 0.66955769062042236
0.056003808975219727 0 0.66683733463287354
0.21509841084480286 0 0.66451084613800049
0.44502633810043335 0 0.66324090957641602
0.71583843231201172 0 0.66682142019271851
0 0.02022349089384079 0.66692143678665161
0.051279928535223007 0.037246465682983398 0.67859858274459839
0.2312818318605423 0.066105619072914124 0.69985318183898926
0.48722758889198303 0.076682493090629578 0.71625953912734985
0.77986055612564087 0.088936209678649902 0.72989517450332642
0.0017459794180467725 0.27753686904907227 0.7033427357673645
0.09099782258272171 0.32377168536186218 0.73829299211502075
0.29961943626403809 0.3698679506778717 0.77749925851821899
0.57831782102584839 0.40277615189552307 0.80641001462936401
0.90181094408035278 0.42579272389411926 0.82997608184814453
0.011739005334675312 0.62959951162338257 0.76844257116317749
0.14808954298496246 0.69647419452667236 0.82016980648040771
0.39088743925094604 0.75562876462936401 0.87072843313217163
0.68518590927124023 0.79851710796356201 0.90909695625305176
0.99268728494644165 0.83421921730041504 0.93921446800231934
0.016853077337145805 0.99821919202804565 0.84984016418457031
0.21414422988891602 1 0.9059598445892334
0.4901408851146698 1 0.96231043338775635
0.81972330808639526 1 0.99331337213516235
1 1 0.99938768148422241
