assets/lut/alexjordan colorful 0209.cube
# Created by: G'MIC (https://gmic.eu)
TITLE "colorful_0209"
# LUT size
LUT_3D_SIZE 7
# Data domain
DOMAIN_MIN 0.0 0.0 0.0
DOMAIN_MAX 1.0 1.0 1.0
# LUT data points
0.041660547256469727 0.035721063613891602 0.047608528286218643
0.33584356307983398 0.011172350496053696 0.023244999349117279
0.49163380265235901 0.023038571700453758 0.013352831825613976
0.50625753402709961 0.034644495695829391 0.036803629249334335
0.62230861186981201 0.049049917608499527 0.050797838717699051
0.78596484661102295 0.047368098050355911 0.04867205023765564
0.94369637966156006 0.044789168983697891 0.043461307883262634
0 0.24524344503879547 0.0007197062368504703
0.20143803954124451 0.20867398381233215 0
0.45571625232696533 0.18117134273052216 0
0.57027685642242432 0.18471397459506989 0.0083932466804981232
0.63773417472839355 0.20713558793067932 0.062705531716346741
0.78733152151107788 0.21012355387210846 0.067939668893814087
0.94910269975662231 0.20973226428031921 0.061452049762010574
0.00070185941876843572 0.40681970119476318 0
0.11914132535457611 0.39849969744682312 0
0.36767202615737915 0.36946028470993042 0
0.54905843734741211 0.35653373599052429 0.003289391053840518
0.66091448068618774 0.36435186862945557 0.06692766398191452
0.79945200681686401 0.37064668536186218 0.079584963619709015
0.95470935106277466 0.37107843160629272 0.077327489852905273
0.050419706851243973 0.51859432458877563 0.041728883981704712
0.1549786776304245 0.53900372982025146 0.00094638898735865951
0.34677302837371826 0.52890723943710327 0.0059170741587877274
0.5222737193107605 0.52033907175064087 0.051570262759923935
0.66724061965942383 0.52393132448196411 0.08912079781293869
0.8132750391960144 0.52908164262771606 0.094602026045322418
0.96720945835113525 0.52941179275512695 0.091365143656730652
0.082154355943202972 0.67022943496704102 0.08001728355884552
0.22710303962230682 0.67252159118652344 0.080155827105045319
0.38396733999252319 0.67276620864868164 0.093395322561264038
0.5332983136177063 0.67428392171859741 0.11700518429279327
0.68508768081665039 0.67778146266937256 0.12154857814311981
0.83106249570846558 0.68492543697357178 0.1018487811088562
0.97896242141723633 0.68774509429931641 0.10407007485628128
0.094710312783718109 0.82956051826477051 0.092367686331272125
0.24515204131603241 0.83151853084564209 0.099799349904060364
0.39355725049972534 0.83398175239562988 0.10348069667816162
0.54289215803146362 0.83809125423431396 0.11289624869823456
0.69737040996551514 0.83997958898544312 0.12343841046094894
0.84585058689117432 0.8424258828163147 0.12268171459436417
0.98718816041946411 0.84611809253692627 0.11608868837356567
0.097662985324859619 0.98231464624404907 0.100530706346035
0.25356340408325195 0.98394608497619629 0.10947021842002869
0.40342777967453003 0.9862511157989502 0.11074844002723694
0.55485808849334717 0.98860293626785278 0.11686322093009949
0.71137011051177979 0.98920893669128418 0.13183428347110748
0.86059123277664185 0.99090981483459473 0.13434521853923798
0.99369543790817261 0.99246323108673096 0.12778449058532715
0.025559892877936363 0.031190594658255577 0.36255413293838501
0.30921867489814758 0.011292969807982445 0.31354734301567078
0.51588994264602661 0.0016363405156880617 0.23967736959457397
0.56171786785125732 0.017390996217727661 0.19417443871498108
0.62360107898712158 0.045052830129861832 0.1925978809595108
0.77812838554382324 0.048238374292850494 0.19197297096252441
0.93569642305374146 0.048815183341503143 0.19230182468891144
0.00048528931802138686 0.23049046099185944 0.22635184228420258
0.19689738750457764 0.19034574925899506 0.18919004499912262
0.49352973699569702 0.15124674141407013 0.14375494420528412
0.65306621789932251 0.15365110337734222 0.1473725289106369
0.67217504978179932 0.1937825083732605 0.19268201291561127
0.78764539957046509 0.20881038904190063 0.20428496599197388
0.94651788473129272 0.21076454222202301 0.20496155321598053
0 0.41455075144767761 0.12706558406352997
0.06872965395450592 0.40841946005821228 0.059848666191101074
0.36998957395553589 0.36790341138839722 0.034752760082483292
0.61657434701919556 0.34078934788703918 0.063369318842887878
0.71298074722290039 0.34872728586196899 0.16288620233535767
0.80908823013305664 0.36386582255363464 0.21722330152988434
0.9560542106628418 0.36873847246170044 0.22251123189926147
0.0090925628319382668 0.53581082820892334 0.16383285820484161
0.07323060929775238 0.5685725212097168 0.068923354148864746
0.28682556748390198 0.55932247638702393 0.015775449573993683
0.53156465291976929 0.53236472606658936 0.04884662851691246
0.70357668399810791 0.51869446039199829 0.15105824172496796
0.81794947385787964 0.52420884370803833 0.23022748529911041
0.95835584402084351 0.52930295467376709 0.24305541813373566
0.08629588782787323 0.66378998756408691 0.22666800022125244
0.19322548806667328 0.68549984693527222 0.19113963842391968
0.32534393668174744 0.69990384578704834 0.13468858599662781
0.50163447856903076 0.69633537530899048 0.12537138164043427
0.6848684549331665 0.68181824684143066 0.19123467803001404
0.82559782266616821 0.68074649572372437 0.25419634580612183
0.97793328762054443 0.68528741598129272 0.25004193186759949
0.10503167659044266 0.82467317581176758 0.24024026095867157
0.24938791990280151 0.83031654357910156 0.24459010362625122
0.40178731083869934 0.82888585329055786 0.25342583656311035
0.53869450092315674 0.83789467811584473 0.24454475939273834
0.69623833894729614 0.83781498670578003 0.26761588454246521
0.84085142612457275 0.83852380514144897 0.28838607668876648
0.98418772220611572 0.84590131044387817 0.26841062307357788
0.10445494949817657 0.9814268946647644 0.24927160143852234
0.26097214221954346 0.98325026035308838 0.25804874300956726
0.41007524728775024 0.98446369171142578 0.25985389947891235
0.56251066923141479 0.98508292436599731 0.2788492739200592
0.7196698784828186 0.98498749732971191 0.30134114623069763
0.86084187030792236 0.98912334442138672 0.29007703065872192
0.9928475022315979 0.99246323108673096 0.27885898947715759
0.031425625085830688 0.022275259718298912 0.5143471360206604
0.26005470752716064 0.015935590490698814 0.53672808408737183
0.46792677044868469 0.0032795625738799572 0.47122210264205933
0.55386251211166382 0.014549405314028263 0.37441349029541016
0.61625230312347412 0.046086031943559647 0.32797396183013916
0.75868815183639526 0.053879681974649429 0.33244526386260986
0.92437762022018433 0.051708370447158813 0.34155577421188354
0.00027884688461199403 0.20332685112953186 0.48113206028938293
0.1677614152431488 0.17905975878238678 0.52360731363296509
0.46705034375190735 0.14162282645702362 0.47310611605644226
0.67676430940628052 0.13526996970176697 0.40511888265609741
0.71909213066101074 0.17798534035682678 0.35994592308998108
0.78997230529785156 0.20687630772590637 0.34828647971153259
0.93886840343475342 0.20916423201560974 0.35173121094703674
0 0.38825315237045288 0.38714545965194702
0.058832459151744843 0.39073678851127625 0.39316964149475098
0.34742221236228943 0.35455000400543213 0.35131537914276123
0.64936619997024536 0.31804174184799194 0.3110651969909668
0.80188608169555664 0.32251793146133423 0.31425032019615173
0.84338504076004028 0.35352632403373718 0.34776720404624939
0.94300061464309692 0.3681701123714447 0.36667346954345703
0 0.53811681270599365 0.34814202785491943
0.028350021690130234 0.5708656907081604 0.29695248603820801
0.23307608067989349 0.56447911262512207 0.22643373906612396
0.53137826919555664 0.5303458571434021 0.19504350423812866
0.7763822078704834 0.50366723537445068 0.22647038102149963
0.88118761777877808 0.51026755571365356 0.32059386372566223
0.94427812099456787 0.52842932939529419 0.39228427410125732
0.069333337247371674 0.66688233613967896 0.37560576200485229
0.13789241015911102 0.69792693853378296 0.32796159386634827
0.23808096349239349 0.727428138256073 0.22984881699085236
0.4463246762752533 0.72247731685638428 0.16863726079463959
0.69410687685012817 0.69304847717285156 0.19963966310024261
0.86363798379898071 0.67874455451965332 0.30320706963539124
0.97958332300186157 0.68302899599075317 0.38060411810874939
0.10196620225906372 0.82204180955886841 0.38952982425689697
0.24852734804153442 0.82522475719451904 0.39290538430213928
0.3584589958190918 0.84317260980606079 0.35773590207099915
0.48526880145072937 0.8590046763420105 0.30590903759002686
0.66490209102630615 0.8568304181098938 0.29139828681945801
0.84427714347839355 0.84464120864868164 0.35669878125190735
0.98285174369812012 0.84573483467102051 0.40890854597091675
0.10580288618803024 0.97860008478164673 0.40093222260475159
0.26904258131980896 0.97937637567520142 0.41196441650390625
0.41139069199562073 0.98381185531616211 0.40892723202705383
0.56533783674240112 0.98200899362564087 0.42740547657012939
0.70811784267425537 0.98827457427978516 0.4160519540309906
0.85775929689407349 0.99030810594558716 0.4247334897518158
0.99200642108917236 0.99224668741226196 0.42815837264060974
0.027513107284903526 0.02863628976047039 0.49455991387367249
0.20116601884365082 0.016520211473107338 0.56586295366287231
0.39368656277656555 0.0097327586263418198 0.57965964078903198
0.50719749927520752 0.024588087573647499 0.50788813829421997
0.60635942220687866 0.04817923903465271 0.46897152066230774
0.75863891839981079 0.052623480558395386 0.47817391157150269
0.92453813552856445 0.049507904797792435 0.48759141564369202
0.013998248614370823 0.18670165538787842 0.56135088205337524
0.1653391569852829 0.17192712426185608 0.67162549495697021
0.41703766584396362 0.14548799395561218 0.68813920021057129
0.63505536317825317 0.13761167228221893 0.63221091032028198
0.73062026500701904 0.16916555166244507 0.54354017972946167
0.79852843284606934 0.2009211927652359 0.50081533193588257
0.93903964757919312 0.2061498612165451 0.49897313117980957
0.0085872272029519081 0.35592511296272278 0.54361462593078613
0.089663833379745483 0.36657243967056274 0.63732481002807617
0.33551603555679321 0.33710715174674988 0.66814762353897095
0.63949954509735107 0.30027785897254944 0.63175094127655029
0.8362542986869812 0.29847776889801025 0.56543517112731934
0.88613402843475342 0.33554917573928833 0.51914602518081665
0.93950456380844116 0.36718004941940308 0.51279765367507935
0.027912439778447151 0.51658082008361816 0.50905925035476685
0.06341998279094696 0.54855120182037354 0.54519438743591309
0.22531282901763916 0.54818189144134521 0.54583358764648438
0.5173957347869873 0.51516783237457275 0.50628519058227539
0.81790542602539062 0.47644445300102234 0.46962514519691467
0.97621065378189087 0.4789697527885437 0.47694602608680725
0.99293619394302368 0.51421147584915161 0.51390069723129272
0.063468009233474731 0.66839849948883057 0.51261252164840698
0.11955559253692627 0.69849711656570435 0.51221674680709839
0.20037075877189636 0.72882354259490967 0.46310180425643921
0.39719271659851074 0.72692203521728516 0.39000457525253296
0.6917688250541687 0.68970060348510742 0.3506334125995636
0.93029534816741943 0.66313260793685913 0.38230428099632263
1 0.66742783784866333 0.47159373760223389
0.091876804828643799 0.82192003726959229 0.5323493480682373
0.22635181248188019 0.8287118673324585 0.53490889072418213
0.29176375269889832 0.86386489868164062 0.48301088809967041
0.39076673984527588 0.89214468002319336 0.39255687594413757
0.60627061128616333 0.88302624225616455 0.32934314012527466
0.85095632076263428 0.85231095552444458 0.3511294424533844
0.99754232168197632 0.83882594108581543 0.4728236198425293
0.10090457648038864 0.9784926176071167 0.546497642993927
0.26339933276176453 0.97875320911407471 0.55636519193649292
0.41165420413017273 0.98245322704315186 0.5586281418800354
0.52859711647033691 0.99280405044555664 0.52478426694869995
0.64208471775054932 0.99938517808914185 0.44802498817443848
0.83142310380935669 0.99166667461395264 0.45961594581604004
0.98766255378723145 0.98954969644546509 0.53370380401611328
0.026557952165603638 0.025226278230547905 0.5788998007774353
0.17136760056018829 0.030254004523158073 0.59443318843841553
0.32894432544708252 0.027692578732967377 0.62942856550216675
0.46040463447570801 0.039586339145898819 0.60197335481643677
0.62088680267333984 0.040980499237775803 0.61993545293807983
0.76852047443389893 0.045333053916692734 0.62630116939544678
0.92438745498657227 0.045875713229179382 0.63173162937164307
0.041821930557489395 0.18371669948101044 0.61333209276199341
0.18299484252929688 0.18455485999584198 0.65777623653411865
0.36211022734642029 0.17116250097751617 0.73068457841873169
0.5419001579284668 0.16632348299026489 0.72723948955535889
0.67151904106140137 0.18370211124420166 0.66959619522094727
0.77611947059631348 0.20455972850322723 0.63270729780197144
0.93676561117172241 0.20639152824878693 0.64406871795654297
0.056327387690544128 0.34156662225723267 0.63239806890487671
0.15621499717235565 0.3476625382900238 0.73315060138702393
0.33498659729957581 0.33319786190986633 0.83665037155151367
0.58146899938583374 0.30477353930473328 0.85427284240722656
0.79948645830154419 0.29496237635612488 0.79747509956359863
0.88266623020172119 0.32902193069458008 0.69977819919586182
0.93673187494277954 0.36827307939529419 0.65277969837188721
0.088493019342422485 0.4965747594833374 0.63267737627029419
0.14721204340457916 0.51906365156173706 0.70792996883392334
0.25279703736305237 0.5268251895904541 0.79927986860275269
0.49298688769340515 0.49937909841537476 0.82975542545318604
0.79910737276077271 0.45822721719741821 0.7974591851234436
0.99423539638519287 0.45373654365539551 0.73621124029159546
1 0.49656078219413757 0.68104135990142822
0.092849418520927429 0.65877312421798706 0.65006577968597412
0.17207321524620056 0.68061316013336182 0.67445427179336548
0.21825392544269562 0.71116036176681519 0.71106374263763428
0.37505316734313965 0.71276158094406128 0.71162331104278564
0.67553377151489258 0.67258697748184204 0.6742064356803894
0.96785473823547363 0.63743019104003906 0.6370011568069458
1 0.64198482036590576 0.63818711042404175
0.085962913930416107 0.821971595287323 0.67270439863204956
0.23652391135692596 0.82444232702255249 0.67590391635894775
0.31011927127838135 0.85148262977600098 0.66562706232070923
0.35097014904022217 0.89373034238815308 0.61862754821777344
0.55683082342147827 0.88710719347000122 0.54712522029876709
0.85989266633987427 0.84732156991958618 0.50630885362625122
1 0.82602429389953613 0.5467754602432251
0.092151522636413574 0.97863966226577759 0.68729907274246216
0.26103490591049194 0.9787251353263855 0.6913565993309021
0.40529301762580872 0.98172456026077271 0.69176781177520752
0.45436510443687439 0.99930226802825928 0.64096331596374512
0.5656394362449646 1 0.55256903171539307
0.7792782187461853 0.99792385101318359 0.48693418502807617
0.98487943410873413 0.99214726686477661 0.51684606075286865
0.01720631867647171 0.020628282800316811 0.73312842845916748
0.16461068391799927 0.024721542373299599 0.74756145477294922
0.3091881275177002 0.030763378366827965 0.74537199735641479
0.45196172595024109 0.039492379873991013 0.7308163046836853
0.61307477951049805 0.039029214531183243 0.75572115182876587
0.76833724975585938 0.038591451942920685 0.771148681640625
0.92003530263900757 0.039080362766981125 0.77389490604400635
0.032328017055988312 0.18066011369228363 0.76503908634185791
0.18339784443378448 0.18347996473312378 0.76785188913345337
0.33291774988174438 0.189163938164711 0.75911563634872437
0.47993507981300354 0.1942066103219986 0.762767493724823
0.63964015245437622 0.19339132308959961 0.79008680582046509
0.77824300527572632 0.20092335343360901 0.78283584117889404
0.93138307332992554 0.20343583822250366 0.78365117311477661
0.058775104582309723 0.33980134129524231 0.7745511531829834
0.19296127557754517 0.34526413679122925 0.7963871955871582
0.34179612994194031 0.34569105505943298 0.82936710119247437
0.52130931615829468 0.33332270383834839 0.89203619956970215
0.71203392744064331 0.3248545229434967 0.90443199872970581
0.82764941453933716 0.34618055820465088 0.82824200391769409
0.94441938400268555 0.36226189136505127 0.79470443725585938
0.088622167706489563 0.49514210224151611 0.78017491102218628
0.20287330448627472 0.50425517559051514 0.8142014741897583
0.32061249017715454 0.50857681035995483 0.88359928131103516
0.49359849095344543 0.49481207132339478 0.9917486310005188
0.74036926031112671 0.46949782967567444 0.99574577808380127
0.95775002241134644 0.45633551478385925 0.95458108186721802
0.99999785423278809 0.48319321870803833 0.860251784324646
0.09247530996799469 0.65578675270080566 0.79803454875946045
0.21732191741466522 0.6647639274597168 0.81226325035095215
0.31171223521232605 0.67902010679244995 0.86212027072906494
0.41870254278182983 0.68647229671478271 0.95854860544204712
0.661155104637146 0.66016930341720581 0.98461025953292847
0.95883619785308838 0.62074035406112671 0.96015459299087524
1 0.61804497241973877 0.88255184888839722
0.082212366163730621 0.81901061534881592 0.81868439912796021
0.23740860819816589 0.82254296541213989 0.81916147470474243
0.35503745079040527 0.83427220582962036 0.83395719528198242
0.38167810440063477 0.87161695957183838 0.87357139587402344
0.5320168137550354 0.87536734342575073 0.88017469644546509
0.83950793743133545 0.83655577898025513 0.84113341569900513
1 0.79758405685424805 0.80095678567886353
0.08339691162109375 0.97795730829238892 0.83203256130218506
0.25866112112998962 0.97723972797393799 0.83311426639556885
0.42299553751945496 0.97560703754425049 0.83879154920578003
0.46783185005187988 0.99581623077392578 0.82907474040985107
0.5136035680770874 1 0.7847105860710144
0.71419304609298706 0.9999769926071167 0.71275800466537476
0.98468422889709473 0.98884022235870361 0.68142831325531006
0.0093245264142751694 0.014886668883264065 0.88730418682098389
0.15440286695957184 0.018752394244074821 0.89921408891677856
0.30418679118156433 0.024254608899354935 0.89639568328857422
0.45404410362243652 0.029313031584024429 0.89267522096633911
0.61079078912734985 0.030348116531968117 0.90584361553192139
0.76631778478622437 0.030348116531968117 0.91570770740509033
0.91730993986129761 0.028774814680218697 0.91476833820343018
0.025102084502577782 0.17353208363056183 0.91363233327865601
0.17932520806789398 0.17876714468002319 0.918193519115448
0.32844328880310059 0.1841275542974472 0.91432094573974609
0.47643497586250305 0.19025376439094543 0.90966302156448364
0.62887114286422729 0.19269423186779022 0.92461049556732178
0.78024435043334961 0.19506435096263885 0.92934483289718628
0.92975068092346191 0.19490319490432739 0.92303347587585449
0.049517165869474411 0.33579432964324951 0.92237675189971924
0.20068348944187164 0.3403637707233429 0.92589432001113892
0.34609779715538025 0.34533914923667908 0.92562425136566162
0.49619099497795105 0.35147526860237122 0.92299962043762207
0.64530521631240845 0.35382187366485596 0.93874526023864746
0.79577970504760742 0.35696917772293091 0.93434375524520874
0.9508821964263916 0.35410574078559875 0.9271538257598877
0.07101789116859436 0.49574005603790283 0.92922759056091309
0.22217899560928345 0.49804648756980896 0.92603141069412231
0.36717799305915833 0.5018923282623291 0.92065471410751343
0.50606268644332886 0.50700134038925171 0.97400516271591187
0.67467796802520752 0.49974137544631958 0.99919319152832031
0.86666989326477051 0.48953312635421753 0.99529469013214111
0.99749386310577393 0.48893743753433228 0.9672541618347168
0.07550666481256485 0.6563725471496582 0.94711273908615112
0.23641298711299896 0.65647995471954346 0.93632185459136963
0.38185092806816101 0.66142231225967407 0.93393045663833618
0.47864803671836853 0.67209315299987793 0.99939948320388794
0.65201878547668457 0.65990954637527466 1
0.89837414026260376 0.6311829686164856 1
1 0.61843365430831909 0.99989497661590576
0.069891296327114105 0.81665962934494019 0.96694111824035645
0.23279298841953278 0.81760913133621216 0.96745610237121582
0.38192173838615417 0.82323682308197021 0.96503728628158569
0.44922232627868652 0.84379631280899048 0.99954527616500854
0.56893551349639893 0.84911686182022095 1
0.81997191905975342 0.81802088022232056 1
1 0.77895712852478027 1
0.066804222762584686 0.97530210018157959 0.97608113288879395
0.23347905278205872 0.97825866937637329 0.97518372535705566
0.39451801776885986 0.9786452054977417 0.97905176877975464
0.48003816604614258 0.99149000644683838 0.98828744888305664
0.53283321857452393 0.99524623155593872 0.99598163366317749
0.69303280115127563 0.99523115158081055 0.98868727684020996
0.9797249436378479 0.98389661312103271 0.97574913501739502
