assets/lut/alexjordan cross process cp 16.cube
# Created by: G'MIC (https://gmic.eu)
TITLE "cross_process_cp_16"
# LUT size
LUT_3D_SIZE 7
# Data domain
DOMAIN_MIN 0.0 0.0 0.0
DOMAIN_MAX 1.0 1.0 1.0
# LUT data points
0 0 0
0 0 0
0.00071536796167492867 9.1911766503471881e-05 0.00043676039786078036
0.028595583513379097 0.004775357898324728 0.014259607531130314
0.10821986198425293 0.015577428042888641 0.040178097784519196
0.22516727447509766 0.032142668962478638 0.073378361761569977
0.36140602827072144 0.043332252651453018 0.095860831439495087
0.0080697154626250267 0.019683478400111198 0.021941915154457092
0.053188368678092957 0.051325585693120956 0.056027505546808243
0.12592288851737976 0.082167588174343109 0.086451523005962372
0.22260226309299469 0.10038802027702332 0.10878460109233856
0.35120448470115662 0.1141437441110611 0.12121772021055222
0.51486688852310181 0.12423112243413925 0.13582342863082886
0.68288099765777588 0.12863962352275848 0.13138127326965332
0.042636167258024216 0.17007535696029663 0.11913996934890747
0.12542724609375 0.20069816708564758 0.13301827013492584
0.23759479820728302 0.22270958125591278 0.14207154512405396
0.36986064910888672 0.23654447495937347 0.14333613216876984
0.53030616044998169 0.24593153595924377 0.13814187049865723
0.71874368190765381 0.25113371014595032 0.13737502694129944
0.90197998285293579 0.25141799449920654 0.12954647839069366
0.024237599223852158 0.36356574296951294 0.15450207889080048
0.14348243176937103 0.38327893614768982 0.15056332945823669
0.28258061408996582 0.39590701460838318 0.13839152455329895
0.44474270939826965 0.40848711133003235 0.14094489812850952
0.62029719352722168 0.41808658838272095 0.14181086421012878
0.8025050163269043 0.42087024450302124 0.13853693008422852
0.97125536203384399 0.41654664278030396 0.13413187861442566
0.021407227963209152 0.56921935081481934 0.14692485332489014
0.15261909365653992 0.58083230257034302 0.15026286244392395
0.30400773882865906 0.58303189277648926 0.13929137587547302
0.47375151515007019 0.58724415302276611 0.14291194081306458
0.64835083484649658 0.59272414445877075 0.14858458936214447
0.81211429834365845 0.58567118644714355 0.13894711434841156
0.96478641033172607 0.57049441337585449 0.12608112394809723
0.020990423858165741 0.74669343233108521 0.14130452275276184
0.15841309726238251 0.75329029560089111 0.15139420330524445
0.30627655982971191 0.74146139621734619 0.1428375244140625
0.45901653170585632 0.72356784343719482 0.12765608727931976
0.61640799045562744 0.71167576313018799 0.1176282986998558
0.76618367433547974 0.69406282901763916 0.099260486662387848
0.91218191385269165 0.67561149597167969 0.082346551120281219
0.0093402937054634094 0.880973219871521 0.12030931562185287
0.13567937910556793 0.87271887063980103 0.12031400948762894
0.27078309655189514 0.84453397989273071 0.10120496898889542
0.40746310353279114 0.81189149618148804 0.074051231145858765
0.5466533899307251 0.78457456827163696 0.049284528940916061
0.69378888607025146 0.76906400918960571 0.032798841595649719
0.8416907787322998 0.75799548625946045 0.02111237496137619
0 0 0
0 0 0
0.0033498576376587152 1.4361213288793806e-05 0.0028898350428789854
0.04532928392291069 0.0067410785704851151 0.03385886549949646
0.13474859297275543 0.022589350119233131 0.07175801694393158
0.25605103373527527 0.038560830056667328 0.10038969665765762
0.40748444199562073 0.044361412525177002 0.13079617917537689
0.02034962922334671 0.032979972660541534 0.039129909127950668
0.06527072936296463 0.061824396252632141 0.082131706178188324
0.14081895351409912 0.088379800319671631 0.11507828533649445
0.24236778914928436 0.10712476074695587 0.14501564204692841
0.37539377808570862 0.12062090635299683 0.16870149970054626
0.54565906524658203 0.12734350562095642 0.18416260182857513
0.72718024253845215 0.12807346880435944 0.19082058966159821
0.046086166054010391 0.18593072891235352 0.15974338352680206
0.13117450475692749 0.21488341689109802 0.18003745377063751
0.24782842397689819 0.23413525521755219 0.19286727905273438
0.38237500190734863 0.24471354484558105 0.19821059703826904
0.54269099235534668 0.2530302107334137 0.2007707953453064
0.73289966583251953 0.25708144903182983 0.20385904610157013
0.9203563928604126 0.25894099473953247 0.20743513107299805
0.021843045949935913 0.37632504105567932 0.20999434590339661
0.13984808325767517 0.39462444186210632 0.21238550543785095
0.28721517324447632 0.40524512529373169 0.2086414098739624
0.45088210701942444 0.41487357020378113 0.20929467678070068
0.62371248006820679 0.42350256443023682 0.20896327495574951
0.80522876977920532 0.4252011775970459 0.20517821609973907
0.98186933994293213 0.42212203145027161 0.21026144921779633
0.010236762464046478 0.57855582237243652 0.22141364216804504
0.14067520201206207 0.58788061141967773 0.22106334567070007
0.3041311502456665 0.58918219804763794 0.21619188785552979
0.47881346940994263 0.59319388866424561 0.21907146275043488
0.65244907140731812 0.59747356176376343 0.22231480479240417
0.81325703859329224 0.58556145429611206 0.20656369626522064
0.97085726261138916 0.56830912828445435 0.19495007395744324
0.013005110435187817 0.75707542896270752 0.22801150381565094
0.14626875519752502 0.75497156381607056 0.22518165409564972
0.30114799737930298 0.73968809843063354 0.21188385784626007
0.46211311221122742 0.72512096166610718 0.20093776285648346
0.61824321746826172 0.71118444204330444 0.18883378803730011
0.76298654079437256 0.68666297197341919 0.16302415728569031
0.91279536485671997 0.66716462373733521 0.14659625291824341
0.006955120712518692 0.89055734872817993 0.20807977020740509
0.12810696661472321 0.87320995330810547 0.19657181203365326
0.26447790861129761 0.83787614107131958 0.16870279610157013
0.40672549605369568 0.80771183967590332 0.14294306933879852
0.54909425973892212 0.78345048427581787 0.12000096589326859
0.69119668006896973 0.76063400506973267 0.097484126687049866
0.84155762195587158 0.74889874458312988 0.086923323571681976
0 0 0
0 0 0
0.0098067792132496834 0.001624627155251801 0.01196950301527977
0.06951981782913208 0.012078423984348774 0.058517247438430786
0.16578231751918793 0.029663115739822388 0.10315680503845215
0.29008075594902039 0.043542120605707169 0.13931877911090851
0.43646037578582764 0.050640329718589783 0.17106084525585175
0.020514663308858871 0.042307864874601364 0.067850030958652496
0.074651934206485748 0.074118293821811676 0.11041206121444702
0.15723517537117004 0.098805338144302368 0.1521977037191391
0.26387116312980652 0.11558116972446442 0.18622076511383057
0.39830189943313599 0.12871435284614563 0.21426257491111755
0.56393647193908691 0.13588894903659821 0.23493146896362305
0.7376638650894165 0.13951781392097473 0.25001487135887146
0.049878962337970734 0.2007906585931778 0.20465093851089478
0.14219744503498077 0.22640740871429443 0.23322707414627075
0.26134073734283447 0.24210546910762787 0.25176578760147095
0.39740192890167236 0.25304323434829712 0.25961801409721375
0.55735379457473755 0.26291143894195557 0.26812410354614258
0.7412295937538147 0.26939421892166138 0.27728667855262756
0.92255085706710815 0.27218806743621826 0.28639304637908936
0.027339456602931023 0.39031887054443359 0.27614286541938782
0.14977706968784332 0.40608400106430054 0.2860356867313385
0.29947173595428467 0.41404351592063904 0.28572806715965271
0.46179234981536865 0.42178729176521301 0.28568294644355774
0.63421684503555298 0.4324934184551239 0.28985568881034851
0.81254643201828003 0.43937486410140991 0.29248848557472229
0.98234671354293823 0.43491342663764954 0.29478281736373901
0.013073490932583809 0.58909726142883301 0.30501362681388855
0.14907138049602509 0.5964856743812561 0.3056277334690094
0.31813269853591919 0.59891754388809204 0.30271163582801819
0.48917824029922485 0.59906375408172607 0.30007666349411011
0.65488064289093018 0.59884160757064819 0.29759055376052856
0.81259071826934814 0.58962458372116089 0.28458580374717712
0.97001373767852783 0.57273370027542114 0.2728569507598877
0.013557374477386475 0.76416736841201782 0.31491789221763611
0.14849360287189484 0.75755816698074341 0.30596187710762024
0.30986493825912476 0.74431532621383667 0.29242682456970215
0.46953436732292175 0.72861945629119873 0.27805712819099426
0.61776262521743774 0.70892494916915894 0.25948500633239746
0.75776505470275879 0.68175256252288818 0.2320016622543335
0.90897911787033081 0.66441106796264648 0.21827590465545654
0.0066513209603726864 0.89351421594619751 0.29035979509353638
0.12634208798408508 0.8705141544342041 0.27100089192390442
0.26659664511680603 0.83831441402435303 0.24237960577011108
0.41024130582809448 0.80915051698684692 0.21591760218143463
0.55017423629760742 0.78263068199157715 0.19108018279075623
0.68940263986587524 0.75817745923995972 0.1685960441827774
0.84174948930740356 0.74876248836517334 0.16224287450313568
0 0 0
0.00017000085790641606 3.4107881219824776e-05 0.00180879479739815
0.021255642175674438 0.0072016995400190353 0.029566969722509384
0.094665363430976868 0.021518528461456299 0.086367636919021606
0.19629652798175812 0.036656696349382401 0.13691495358943939
0.32500594854354858 0.047561898827552795 0.17908409237861633
0.47742971777915955 0.053814113140106201 0.21657155454158783
0.026580153033137321 0.057282034307718277 0.10216988623142242
0.08676803857088089 0.086934708058834076 0.14832788705825806
0.1727287620306015 0.10934136807918549 0.19428208470344543
0.28573140501976013 0.12435148656368256 0.23333477973937988
0.42401582002639771 0.13464091718196869 0.26365092396736145
0.59006416797637939 0.13983467221260071 0.28915470838546753
0.76481521129608154 0.14443592727184296 0.31335011124610901
0.05097530409693718 0.215479776263237 0.25681230425834656
0.15122619271278381 0.23671430349349976 0.29078635573387146
0.27272686362266541 0.25108033418655396 0.3120313286781311
0.41465437412261963 0.26109948754310608 0.32572099566459656
0.57607334852218628 0.26882979273796082 0.3362572193145752
0.75648361444473267 0.27337607741355896 0.34666761755943298
0.93550485372543335 0.27929395437240601 0.36212596297264099
0.030688686296343803 0.40349367260932922 0.35205987095832825
0.16120919585227966 0.41732966899871826 0.36394628882408142
0.31520986557006836 0.42612308263778687 0.36670517921447754
0.47763705253601074 0.43144974112510681 0.36744922399520874
0.6468050479888916 0.43736532330513 0.36852899193763733
0.82148665189743042 0.44189566373825073 0.37082114815711975
0.98482584953308105 0.44060060381889343 0.37495934963226318
0.021567430347204208 0.60068458318710327 0.39017796516418457
0.16300177574157715 0.60526144504547119 0.39082810282707214
0.33374282717704773 0.6086040735244751 0.38872447609901428
0.49944564700126648 0.60463577508926392 0.38077506422996521
0.65844464302062988 0.5975794792175293 0.37193486094474792
0.81648951768875122 0.59003967046737671 0.36242005228996277
0.96938830614089966 0.57504177093505859 0.34993463754653931
0.020776411518454552 0.77053040266036987 0.39381310343742371
0.15635769069194794 0.75794833898544312 0.38212519884109497
0.31761682033538818 0.74581831693649292 0.36902144551277161
0.47330179810523987 0.72853559255599976 0.35093733668327332
0.61775237321853638 0.70631468296051025 0.32962048053741455
0.76131200790405273 0.68597871065139771 0.31021848320960999
0.91042333841323853 0.66962087154388428 0.29694142937660217
0.0090953605249524117 0.89158254861831665 0.36202943325042725
0.12712602317333221 0.86210983991622925 0.33762282133102417
0.26662775874137878 0.832416832447052 0.30992251634597778
0.40981444716453552 0.80602866411209106 0.28404077887535095
0.5500984787940979 0.78116756677627563 0.26096880435943604
0.69407886266708374 0.76348048448562622 0.24711336195468903
0.84820955991744995 0.7579495906829834 0.24576251208782196
0 0 3.6621095205191523e-05
0.003963470458984375 0.00074609497096389532 0.011271562427282333
0.036812815815210342 0.014592159539461136 0.052463680505752563
0.11670707166194916 0.031879380345344543 0.11571767181158066
0.22510536015033722 0.043709069490432739 0.1749606728553772
0.35684037208557129 0.052596643567085266 0.22332441806793213
0.51696264743804932 0.055395282804965973 0.26677283644676208
0.037473101168870926 0.06755935400724411 0.13613635301589966
0.10109345614910126 0.094896100461483002 0.18906009197235107
0.18802312016487122 0.11896182596683502 0.24055661261081696
0.3065219521522522 0.13372045755386353 0.28742542862892151
0.45354136824607849 0.14037404954433441 0.32589283585548401
0.62570017576217651 0.14154085516929626 0.35377448797225952
0.81544727087020874 0.14088171720504761 0.38499650359153748
0.051850143820047379 0.22618478536605835 0.30880135297775269
0.15529203414916992 0.24767816066741943 0.34644562005996704
0.28130444884300232 0.2619720995426178 0.37577804923057556
0.42968720197677612 0.27075487375259399 0.3980577290058136
0.59711724519729614 0.27521231770515442 0.41320538520812988
0.77737116813659668 0.27695292234420776 0.4213656485080719
0.96011900901794434 0.28223493695259094 0.44032746553421021
0.02548510953783989 0.41475465893745422 0.41809350252151489
0.16139248013496399 0.42674458026885986 0.43197682499885559
0.31855127215385437 0.43459492921829224 0.43942570686340332
0.48293408751487732 0.43981644511222839 0.44313293695449829
0.6564745306968689 0.44404077529907227 0.44851061701774597
0.83087432384490967 0.44763058423995972 0.45124262571334839
0.98851746320724487 0.44956329464912415 0.45468074083328247
0.019525505602359772 0.60992336273193359 0.46429982781410217
0.16189868748188019 0.61028653383255005 0.46351462602615356
0.32996377348899841 0.60899746417999268 0.45905283093452454
0.49751272797584534 0.6060643196105957 0.45296189188957214
0.66236209869384766 0.60090142488479614 0.44986534118652344
0.82164978981018066 0.59396266937255859 0.44397082924842834
0.96890395879745483 0.57978713512420654 0.42704102396965027
0.023330150172114372 0.77575892210006714 0.46927163004875183
0.1563282310962677 0.75799870491027832 0.45429551601409912
0.31150022149085999 0.74113750457763672 0.43689373135566711
0.46807700395584106 0.72485876083374023 0.41956812143325806
0.61675798892974854 0.70469969511032104 0.40135064721107483
0.76016688346862793 0.68258392810821533 0.38104823231697083
0.90632665157318115 0.66578048467636108 0.36509308218955994
0.012071945704519749 0.88896328210830688 0.43311133980751038
0.12859246134757996 0.85753220319747925 0.40672764182090759
0.26330813765525818 0.82719296216964722 0.37767216563224792
0.4052588939666748 0.80183076858520508 0.35169717669487
0.54723387956619263 0.77788722515106201 0.32941269874572754
0.69111025333404541 0.75851327180862427 0.31299754977226257
0.84201359748840332 0.74876570701599121 0.30620211362838745
4.3083641685370822e-06 0 0.0017973358044400811
0.011048290878534317 0.0033246807288378477 0.026353141292929649
0.055532760918140411 0.019476527348160744 0.081815861165523529
0.13652728497982025 0.038051337003707886 0.14858157932758331
0.25127425789833069 0.050172783434391022 0.21478740870952606
0.39630359411239624 0.055876053869724274 0.27570614218711853
0.56085753440856934 0.058344524353742599 0.32755747437477112
0.037025302648544312 0.076720386743545532 0.16707292199134827
0.11243803799152374 0.10632367432117462 0.23458188772201538
0.20459619164466858 0.12856829166412354 0.29650670289993286
0.32474368810653687 0.14244310557842255 0.34663081169128418
0.47768187522888184 0.14870646595954895 0.3902280330657959
0.65599614381790161 0.14746913313865662 0.42500019073486328
0.84377235174179077 0.14605657756328583 0.4617486298084259
0.050951115787029266 0.24018986523151398 0.36997789144515991
0.16162371635437012 0.26150909066200256 0.41454708576202393
0.29249218106269836 0.27289184927940369 0.45115166902542114
0.44404339790344238 0.28093379735946655 0.47708806395530701
0.61554384231567383 0.28590843081474304 0.4941394031047821
0.79451602697372437 0.28553047776222229 0.50121062994003296
0.97571337223052979 0.28900256752967834 0.52125948667526245
0.02185891754925251 0.42655536532402039 0.48952218890190125
0.16201813519001007 0.43752053380012512 0.5079149603843689
0.32387155294418335 0.44365584850311279 0.51751923561096191
0.49215608835220337 0.44887053966522217 0.52428913116455078
0.66847062110900879 0.453786700963974 0.53262197971343994
0.83881688117980957 0.45481580495834351 0.53218358755111694
0.99162572622299194 0.45629894733428955 0.53387129306793213
0.014779259450733662 0.61880123615264893 0.54157298803329468
0.16185463964939117 0.61837774515151978 0.54254263639450073
0.33479177951812744 0.6168513298034668 0.53757321834564209
0.50692731142044067 0.61517214775085449 0.53492575883865356
0.67024844884872437 0.60762345790863037 0.53077834844589233
0.82034027576446533 0.59334880113601685 0.51506286859512329
0.96802830696105957 0.58065009117126465 0.50032997131347656
0.02130705863237381 0.77811026573181152 0.548206627368927
0.15834940969944 0.76272845268249512 0.53393840789794922
0.31424406170845032 0.74576282501220703 0.51418036222457886
0.47158610820770264 0.72929394245147705 0.4970773458480835
0.61880874633789062 0.70687311887741089 0.47640439867973328
0.75610649585723877 0.67719089984893799 0.44768372178077698
0.90161341428756714 0.65976887941360474 0.43116599321365356
0.015853852033615112 0.88483822345733643 0.50583362579345703
0.13359001278877258 0.85871601104736328 0.48296192288398743
0.26285010576248169 0.82774502038955688 0.45167151093482971
0.40257352590560913 0.80147922039031982 0.42437586188316345
0.54584038257598877 0.77731615304946899 0.40088456869125366
0.68756198883056641 0.75290215015411377 0.37773817777633667
0.83625555038452148 0.73992723226547241 0.36615404486656189
0.0021248012781143188 0.0010528863640502095 0.017427721992135048
0.013512495905160904 0.0075646941550076008 0.049543149769306183
0.067989721894264221 0.02394784614443779 0.11092805862426758
0.15411701798439026 0.044317640364170074 0.18263061344623566
0.27307432889938354 0.057863347232341766 0.25133043527603149
0.43232941627502441 0.060922000557184219 0.32524034380912781
0.59425723552703857 0.061752259731292725 0.38211393356323242
0.049103353172540665 0.087079711258411407 0.20962409675121307
0.12058832496404648 0.11458678543567657 0.28010067343711853
0.21674065291881561 0.13689787685871124 0.34832924604415894
0.33545449376106262 0.15210263431072235 0.3966815173625946
0.48833417892456055 0.16046367585659027 0.4382883608341217
0.67679619789123535 0.15710428357124329 0.48779535293579102
0.86916071176528931 0.14915713667869568 0.5340735912322998
0.059539645910263062 0.25451672077178955 0.43666285276412964
0.17194841802120209 0.27145016193389893 0.48085412383079529
0.30546915531158447 0.28256595134735107 0.52447223663330078
0.45498654246330261 0.29180118441581726 0.54672098159790039
0.62412065267562866 0.29797837138175964 0.55959391593933105
0.80926752090454102 0.29651680588722229 0.57674729824066162
0.98299378156661987 0.29570472240447998 0.59421056509017944
0.030440730974078178 0.43779882788658142 0.5727611780166626
0.17683488130569458 0.44884240627288818 0.59076946973800659
0.33948400616645813 0.45474979281425476 0.60078340768814087
0.50642913579940796 0.45817625522613525 0.60476136207580566
0.67715984582901001 0.45905259251594543 0.60712569952011108
0.84472078084945679 0.45460730791091919 0.60347771644592285
0.99270999431610107 0.44852271676063538 0.5997995138168335
0.024738626554608345 0.62743073701858521 0.6253664493560791
0.17760689556598663 0.62721341848373413 0.62833547592163086
0.35299545526504517 0.62782067060470581 0.62263321876525879
0.52084231376647949 0.6217769980430603 0.61545413732528687
0.67493104934692383 0.60724502801895142 0.6030077338218689
0.81970453262329102 0.5881841778755188 0.58152180910110474
0.96663844585418701 0.57128793001174927 0.56521362066268921
0.026813985779881477 0.78198075294494629 0.62536400556564331
0.16904288530349731 0.76617199182510376 0.61339479684829712
0.32660233974456787 0.75109189748764038 0.59359461069107056
0.47960001230239868 0.73231750726699829 0.57325953245162964
0.62248009443283081 0.70781451463699341 0.54968917369842529
0.75948894023895264 0.68105924129486084 0.5211789608001709
0.90398329496383667 0.66117757558822632 0.50238674879074097
0.023258792236447334 0.87790578603744507 0.57189619541168213
0.1417829841375351 0.85737991333007812 0.55523282289505005
0.26591670513153076 0.82683438062667847 0.52357429265975952
0.40301769971847534 0.80069363117218018 0.49586644768714905
0.5495331883430481 0.78027427196502686 0.4744223952293396
0.69258403778076172 0.75836658477783203 0.45157983899116516
0.83839201927185059 0.74321502447128296 0.43571460247039795
