assets/lut/alexjordan low contrast blue.cube
# Created by: G'MIC (https://gmic.eu)
TITLE "low_contrast_blue"
# LUT size
LUT_3D_SIZE 13
# Data domain
DOMAIN_MIN 0.0 0.0 0.0
DOMAIN_MAX 1.0 1.0 1.0
# LUT data points
0.1038910374045372 0.13356658816337585 0.18319013714790344
0.13987638056278229 0.14368404448032379 0.19042959809303284
0.17691028118133545 0.15272532403469086 0.19772058725357056
0.21671365201473236 0.16111315786838531 0.20624858140945435
0.25805944204330444 0.16930690407752991 0.21509017050266266
0.30050244927406311 0.17757280170917511 0.22404314577579498
0.34362104535102844 0.18611493706703186 0.23331786692142487
0.38769406080245972 0.194715216755867 0.24224875867366791
0.43234151601791382 0.20311939716339111 0.2513090968132019
0.4774722158908844 0.21108734607696533 0.25985664129257202
0.5228695273399353 0.21808819472789764 0.26764830946922302
0.56829452514648438 0.22420084476470947 0.27420127391815186
0.61352741718292236 0.22849695384502411 0.27920135855674744
0.12592971324920654 0.19570021331310272 0.20589819550514221
0.16216903924942017 0.20587684214115143 0.21366584300994873
0.19972676038742065 0.21491548418998718 0.22141668200492859
0.23991324007511139 0.2233445942401886 0.23040984570980072
0.28132757544517517 0.2316114753484726 0.23923695087432861
0.32367917895317078 0.2400411069393158 0.2481391578912735
0.3670838475227356 0.24872814118862152 0.2572510838508606
0.41120430827140808 0.25756430625915527 0.26621022820472717
0.45600345730781555 0.26610070466995239 0.27549028396606445
0.50129693746566772 0.27403953671455383 0.28412690758705139
0.54688811302185059 0.28131940960884094 0.29212766885757446
0.59258228540420532 0.28729283809661865 0.29893890023231506
0.63793659210205078 0.29177641868591309 0.30394113063812256
0.14829781651496887 0.25675120949745178 0.22829955816268921
0.18594485521316528 0.26698964834213257 0.23731993138790131
0.22428791224956512 0.27621501684188843 0.24592824280261993
0.26415291428565979 0.28487691283226013 0.25452640652656555
0.30517974495887756 0.29332521557807922 0.26308521628379822
0.34727251529693604 0.30186024308204651 0.2715086042881012
0.390339195728302 0.31070637702941895 0.28026953339576721
0.43448898196220398 0.3195890486240387 0.28938132524490356
0.47938928008079529 0.32819390296936035 0.29843792319297791
0.52476775646209717 0.33599305152893066 0.3070833683013916
0.57044833898544312 0.34296220541000366 0.31511774659156799
0.61640113592147827 0.3489634096622467 0.32195600867271423
0.66197150945663452 0.35345208644866943 0.32731017470359802
0.1709236204624176 0.31803768873214722 0.2506033182144165
0.20977431535720825 0.32822927832603455 0.26053211092948914
0.24865515530109406 0.3377259373664856 0.26978090405464172
0.28836193680763245 0.34664997458457947 0.27828249335289001
0.32902875542640686 0.35510936379432678 0.28655615448951721
0.37078079581260681 0.36387604475021362 0.29451403021812439
0.41363281011581421 0.37270873785018921 0.30313107371330261
0.45766767859458923 0.38141810894012451 0.311899334192276
0.50256121158599854 0.38953444361686707 0.32072126865386963
0.54799330234527588 0.39709442853927612 0.32931250333786011
0.59385824203491211 0.40382421016693115 0.33712953329086304
0.6397741436958313 0.40954175591468811 0.34407243132591248
0.68573516607284546 0.41414579749107361 0.34943190217018127
0.19335959851741791 0.37977108359336853 0.27266532182693481
0.23287054896354675 0.39014700055122375 0.28313729166984558
0.27228638529777527 0.39977943897247314 0.29270270466804504
0.31205838918685913 0.40888220071792603 0.30135169625282288
0.35266885161399841 0.41769224405288696 0.30969613790512085
0.39419052004814148 0.42636102437973022 0.31752216815948486
0.43697932362556458 0.43502640724182129 0.32573440670967102
0.48083508014678955 0.44333022832870483 0.33424270153045654
0.52558642625808716 0.45103508234024048 0.34274452924728394
0.57103580236434937 0.4581305980682373 0.35099080204963684
0.61694163084030151 0.46431463956832886 0.35865837335586548
0.66292518377304077 0.46979811787605286 0.36551004648208618
0.70919972658157349 0.47438591718673706 0.3710789680480957
0.21558380126953125 0.44191443920135498 0.29439708590507507
0.25555196404457092 0.45227733254432678 0.30537822842597961
0.29539275169372559 0.46208417415618896 0.31514707207679749
0.33536550402641296 0.4713858962059021 0.32412293553352356
0.37604334950447083 0.48031139373779297 0.33245518803596497
0.41769906878471375 0.48892876505851746 0.34052404761314392
0.46026706695556641 0.49730399250984192 0.34850156307220459
0.50399357080459595 0.50514703989028931 0.35670444369316101
0.54859042167663574 0.51243168115615845 0.36477866768836975
0.59392881393432617 0.51905280351638794 0.3725149929523468
0.63973313570022583 0.52487975358963013 0.37993195652961731
0.68601405620574951 0.52996879816055298 0.38668033480644226
0.7322390079498291 0.53443622589111328 0.39210420846939087
0.2374730259180069 0.5040661096572876 0.3157522976398468
0.27796041965484619 0.51456749439239502 0.3270992636680603
0.31817430257797241 0.52444154024124146 0.3373795747756958
0.35841250419616699 0.53385770320892334 0.34666436910629272
0.39923545718193054 0.54280149936676025 0.35525912046432495
0.44095063209533691 0.55132842063903809 0.36350032687187195
0.48350977897644043 0.55930942296981812 0.37147408723831177
0.52708369493484497 0.56691175699234009 0.3792814314365387
0.57159954309463501 0.5739017128944397 0.38682621717453003
0.61675786972045898 0.58018934726715088 0.39410650730133057
0.6624559760093689 0.58580285310745239 0.40102505683898926
0.70853680372238159 0.5907025933265686 0.40731698274612427
0.75474905967712402 0.59503871202468872 0.41266593337059021
0.25895696878433228 0.56602489948272705 0.33666723966598511
0.30002295970916748 0.57667720317840576 0.34849739074707031
0.34052059054374695 0.58676433563232422 0.35922181606292725
0.38114577531814575 0.5962032675743103 0.36892920732498169
0.42217114567756653 0.6051177978515625 0.37796482443809509
0.46401438117027283 0.61363106966018677 0.38621711730957031
0.50649046897888184 0.62170052528381348 0.39420238137245178
0.55002045631408691 0.6287340521812439 0.40177887678146362
0.59428387880325317 0.63542658090591431 0.40902358293533325
0.63931286334991455 0.64151883125305176 0.41574516892433167
0.68488258123397827 0.64687049388885498 0.42212921380996704
0.73095858097076416 0.65169370174407959 0.4279944896697998
0.77703589200973511 0.65586960315704346 0.43295922875404358
0.28030753135681152 0.62796270847320557 0.35677081346511841
0.32159280776977539 0.63872385025024414 0.36927193403244019
0.36247703433036804 0.64877855777740479 0.38050240278244019
0.40343955159187317 0.65827488899230957 0.39074084162712097
0.44471490383148193 0.66730588674545288 0.40020075440406799
0.48656627535820007 0.67576390504837036 0.40878534317016602
0.52918535470962524 0.68348973989486694 0.4167906641960144
0.57272261381149292 0.69057124853134155 0.42418974637985229
0.61691266298294067 0.69702833890914917 0.43112236261367798
0.66181689500808716 0.70284831523895264 0.4373716413974762
0.70741254091262817 0.7081255316734314 0.44322490692138672
0.75332832336425781 0.71271228790283203 0.44856083393096924
0.7993234395980835 0.71667355298995972 0.45304775238037109
0.30107656121253967 0.68938219547271729 0.37673309445381165
0.34286263585090637 0.7003445029258728 0.38969087600708008
0.38412737846374512 0.71060758829116821 0.40121045708656311
0.42539355158805847 0.72015941143035889 0.41198822855949402
0.46689766645431519 0.72918123006820679 0.42188087105751038
0.50886088609695435 0.73749297857284546 0.4307820200920105
0.55165797472000122 0.74521046876907349 0.43889757990837097
0.59518373012542725 0.75223815441131592 0.44621989130973816
0.63937664031982422 0.75852584838867188 0.45270857214927673
0.68434113264083862 0.76423478126525879 0.45874658226966858
0.72976696491241455 0.76917654275894165 0.46410092711448669
0.77555292844772339 0.77361756563186646 0.46895879507064819
0.82155394554138184 0.77732694149017334 0.47286656498908997
0.32129296660423279 0.75053685903549194 0.39520028233528137
0.36354324221611023 0.76161718368530273 0.40886086225509644
0.40535765886306763 0.7719694972038269 0.42095768451690674
0.44697529077529907 0.7816542387008667 0.43232816457748413
0.48871520161628723 0.79071700572967529 0.44273579120635986
0.53087478876113892 0.79905164241790771 0.45201390981674194
0.57373577356338501 0.80670195817947388 0.4602389931678772
0.61730891466140747 0.81360048055648804 0.46739190816879272
0.66171115636825562 0.81987804174423218 0.47377744317054749
0.70668983459472656 0.82530951499938965 0.47935172915458679
0.75206029415130615 0.8301435112953186 0.48436659574508667
0.79776281118392944 0.83427083492279053 0.4888070821762085
0.84369629621505737 0.83767718076705933 0.49224302172660828
0.34108158946037292 0.81111997365951538 0.41285297274589539
0.38386532664299011 0.82236689329147339 0.42688468098640442
0.42604658007621765 0.83290505409240723 0.4398287832736969
0.46798112988471985 0.84262287616729736 0.4515407383441925
0.51009190082550049 0.85176646709442139 0.46230444312095642
0.55260217189788818 0.86012893915176392 0.4719758927822113
0.59560739994049072 0.8678017258644104 0.48036682605743408
0.63930940628051758 0.87467539310455322 0.48747211694717407
0.68371564149856567 0.88066720962524414 0.49356526136398315
0.72864437103271484 0.88600695133209229 0.49916359782218933
0.77408009767532349 0.89061945676803589 0.50389569997787476
0.81973910331726074 0.89448362588882446 0.50781583786010742
0.86557197570800781 0.89771342277526855 0.51106435060501099
0.36040583252906799 0.87126016616821289 0.42938825488090515
0.40364325046539307 0.88260579109191895 0.44385921955108643
0.44634652137756348 0.89329618215560913 0.45718279480934143
0.48879608511924744 0.90313035249710083 0.46938794851303101
0.53118389844894409 0.91224819421768188 0.48049759864807129
0.57387322187423706 0.92068153619766235 0.49041363596916199
0.61720699071884155 0.92831134796142578 0.49902397394180298
0.6611335277557373 0.93491989374160767 0.50615489482879639
0.70557641983032227 0.94100821018218994 0.51232057809829712
0.75059199333190918 0.94607758522033691 0.5175660252571106
0.79594993591308594 0.95055413246154785 0.52199822664260864
0.84156525135040283 0.95432710647583008 0.52575463056564331
0.88723587989807129 0.95721310377120972 0.52867579460144043
0.10725542157888412 0.13609220087528229 0.22450150549411774
0.14395169913768768 0.14650590717792511 0.23246985673904419
0.18114927411079407 0.15579093992710114 0.2401396781206131
0.22062431275844574 0.16439877450466156 0.24850481748580933
0.26168128848075867 0.17277882993221283 0.25726273655891418
0.30386486649513245 0.18118338286876678 0.26637160778045654
0.34715950489044189 0.18993984162807465 0.27552887797355652
0.39124104380607605 0.19887501001358032 0.28474366664886475
0.436004638671875 0.20773832499980927 0.29389017820358276
0.48112073540687561 0.21598613262176514 0.30262821912765503
0.52670639753341675 0.22350136935710907 0.31056782603263855
0.57219529151916504 0.22976496815681458 0.31741368770599365
0.6176077127456665 0.2344573587179184 0.32249659299850464
0.13003815710544586 0.19793863594532013 0.24753257632255554
0.16690343618392944 0.20810751616954803 0.25582784414291382
0.20431756973266602 0.21751153469085693 0.26400670409202576
0.24411755800247192 0.2261640876531601 0.27260616421699524
0.28508618474006653 0.23444415628910065 0.28118318319320679
0.32741209864616394 0.24276916682720184 0.29008957743644714
0.37055483460426331 0.25167542695999146 0.29912802577018738
0.41460853815078735 0.26104536652565002 0.30838364362716675
0.45950999855995178 0.27009734511375427 0.31753149628639221
0.50482678413391113 0.27857661247253418 0.32636815309524536
0.5505337119102478 0.28624328970909119 0.33442661166191101
0.59630018472671509 0.29270175099372864 0.34159216284751892
0.64196121692657471 0.297636479139328 0.34706655144691467
0.15293699502944946 0.25889277458190918 0.27011460065841675
0.19071406126022339 0.26912647485733032 0.2793525755405426
0.22904072701931 0.27855053544044495 0.28837573528289795
0.26826915144920349 0.28744637966156006 0.29671522974967957
0.30885139107704163 0.29560461640357971 0.30483528971672058
0.35091611742973328 0.30369937419891357 0.31331959366798401
0.39392876625061035 0.31296247243881226 0.32206884026527405
0.43785819411277771 0.32258892059326172 0.33104562759399414
0.48271575570106506 0.33176875114440918 0.34010189771652222
0.5281212329864502 0.3400997519493103 0.34882897138595581
0.57400602102279663 0.34764468669891357 0.35705077648162842
0.61987912654876709 0.35412555932998657 0.36431744694709778
0.66582357883453369 0.35912173986434937 0.37001168727874756
0.17566896975040436 0.3205963671207428 0.2927367091178894
0.21427695453166962 0.33075621724128723 0.30265724658966064
0.25300359725952148 0.34035184979438782 0.31192630529403687
0.29230856895446777 0.34922647476196289 0.3201870322227478
0.33264109492301941 0.35742673277854919 0.32808825373649597
0.37446022033691406 0.36559128761291504 0.3362153172492981
0.41715356707572937 0.37485259771347046 0.34447973966598511
0.46096980571746826 0.38434040546417236 0.35319575667381287
0.5057753324508667 0.39303535223007202 0.36209127306938171
0.55121374130249023 0.40112525224685669 0.37065136432647705
0.59708553552627563 0.40832555294036865 0.37879273295402527
0.64322197437286377 0.41458550095558167 0.38593363761901855
0.68924522399902344 0.41977992653846741 0.39199191331863403
0.19833190739154816 0.38283681869506836 0.31511104106903076
0.23743191361427307 0.39307337999343872 0.32541605830192566
0.2763487696647644 0.40267693996429443 0.33466917276382446
0.31581312417984009 0.41167637705802917 0.34306991100311279
0.3561059832572937 0.4201953113079071 0.35096260905265808
0.39754635095596313 0.42883971333503723 0.35877189040184021
0.44014981389045715 0.43777275085449219 0.36685472726821899
0.48396924138069153 0.44641286134719849 0.37523007392883301
0.52865415811538696 0.45455682277679443 0.38383251428604126
0.5740818977355957 0.4619763195514679 0.39204007387161255
0.61995714902877808 0.46877700090408325 0.39992758631706238
0.66616147756576538 0.47469362616539001 0.40712937712669373
0.71243131160736084 0.47978240251541138 0.41310885548591614
0.22058391571044922 0.44536107778549194 0.33731168508529663
0.26018354296684265 0.45557442307472229 0.34773889183998108
0.2995029091835022 0.46522906422615051 0.35726246237754822
0.33912709355354309 0.47439903020858765 0.36603376269340515
0.37945058941841125 0.48324131965637207 0.37398278713226318
0.42075186967849731 0.49194824695587158 0.38170823454856873
0.46330651640892029 0.5004916787147522 0.38950273394584656
0.50702738761901855 0.50850778818130493 0.39769378304481506
0.55171579122543335 0.51596653461456299 0.40571999549865723
0.59685623645782471 0.52291291952133179 0.41348236799240112
0.642569899559021 0.52933591604232788 0.42082926630973816
0.68886262178421021 0.53509730100631714 0.42771396040916443
0.73526251316070557 0.54001230001449585 0.43414482474327087
0.24276444315910339 0.50786322355270386 0.35897108912467957
0.28263109922409058 0.51810985803604126 0.36989074945449829
0.32238560914993286 0.52786612510681152 0.37975615262985229
0.36226513981819153 0.53711223602294922 0.38883620500564575
0.40269652009010315 0.5460236668586731 0.39709341526031494
0.44404780864715576 0.55470293760299683 0.40488868951797485
0.48651981353759766 0.56286942958831787 0.41260847449302673
0.53014618158340454 0.57048654556274414 0.42033588886260986
0.57454460859298706 0.57751172780990601 0.42801752686500549
0.61949253082275391 0.58418154716491699 0.43508827686309814
0.66517758369445801 0.59027594327926636 0.44200819730758667
0.7114068865776062 0.59568578004837036 0.44864293932914734
0.7579352855682373 0.600486159324646 0.45453563332557678
0.26456618309020996 0.57026189565658569 0.38029149174690247
0.30492338538169861 0.58061641454696655 0.39168155193328857
0.34500929713249207 0.59034383296966553 0.40212801098823547
0.38508707284927368 0.59972512722015381 0.41147884726524353
0.42576113343238831 0.6086236834526062 0.42014589905738831
0.46722263097763062 0.61712533235549927 0.42823421955108643
0.50967538356781006 0.62504351139068604 0.43598669767379761
0.55309063196182251 0.63244014978408813 0.44342005252838135
0.59743177890777588 0.63928669691085815 0.45047852396965027
0.64231979846954346 0.64571535587310791 0.45712417364120483
0.6878628134727478 0.65152144432067871 0.46349918842315674
0.7340167760848999 0.65666729211807251 0.46967580914497375
0.78038352727890015 0.66128414869308472 0.47525754570960999
0.28593882918357849 0.63234299421310425 0.40102300047874451
0.32691493630409241 0.64288020133972168 0.41300293803215027
0.36719620227813721 0.65286695957183838 0.42392382025718689
0.40767732262611389 0.66213864088058472 0.43372642993927002
0.44849255681037903 0.67103332281112671 0.44290801882743835
0.48991146683692932 0.67948269844055176 0.45128455758094788
0.53252226114273071 0.68732786178588867 0.45910817384719849
0.57592505216598511 0.69454222917556763 0.46632221341133118
0.62008333206176758 0.70119321346282959 0.47309437394142151
0.66503775119781494 0.7073746919631958 0.47930687665939331
0.71053886413574219 0.71290600299835205 0.48529615998268127
0.75666052103042603 0.71786731481552124 0.49093472957611084
0.80289739370346069 0.72217923402786255 0.49602437019348145
0.30698204040527344 0.69416975975036621 0.42102751135826111
0.34817108511924744 0.70483392477035522 0.43365192413330078
0.38910064101219177 0.71486479043960571 0.44514027237892151
0.42976453900337219 0.72433376312255859 0.45558542013168335
0.47085145115852356 0.73331087827682495 0.46516439318656921
0.51247793436050415 0.74149566888809204 0.47391232848167419
0.5551072359085083 0.7493445873260498 0.48184582591056824
0.59852087497711182 0.75656932592391968 0.48887583613395691
0.64259213209152222 0.76307660341262817 0.49538439512252808
0.68755853176116943 0.76898205280303955 0.50130224227905273
0.73316711187362671 0.77420306205749512 0.50684517621994019
0.77919328212738037 0.77883535623550415 0.51199400424957275
0.82544964551925659 0.78285682201385498 0.5165330171585083
0.32742646336555481 0.75556999444961548 0.44027140736579895
0.36923784017562866 0.76643025875091553 0.45350334048271179
0.41040346026420593 0.77656352519989014 0.46549174189567566
0.45159351825714111 0.78616178035736084 0.47658911347389221
0.49282065033912659 0.79519939422607422 0.48659807443618774
0.53470677137374878 0.803658127784729 0.49578037858009338
0.57728123664855957 0.81135934591293335 0.50380790233612061
0.62083107233047485 0.81832468509674072 0.51097530126571655
0.66507774591445923 0.82471495866775513 0.517231285572052
0.71009808778762817 0.83031046390533447 0.52271825075149536
0.75569301843643188 0.83535873889923096 0.52789556980133057
0.80163466930389404 0.83968275785446167 0.53263980150222778
0.84777319431304932 0.84338498115539551 0.53671866655349731
0.34723204374313354 0.81653213500976562 0.45851069688796997
0.38961395621299744 0.82755428552627563 0.47224271297454834
0.43137916922569275 0.83790910243988037 0.48486849665641785
0.47282075881958008 0.84760761260986328 0.49625387787818909
0.51446235179901123 0.8566475510597229 0.50713062286376953
0.55647671222686768 0.86506861448287964 0.51664638519287109
0.59926646947860718 0.87281709909439087 0.52486681938171387
0.64296680688858032 0.87973445653915405 0.53182291984558105
0.68746733665466309 0.88598459959030151 0.53789961338043213
0.73249137401580811 0.89138060808181763 0.54330217838287354
0.77799659967422485 0.89608919620513916 0.54818868637084961
0.82385534048080444 0.90021616220474243 0.55241578817367554
0.86988580226898193 0.90362834930419922 0.55611836910247803
0.36658307909965515 0.87695980072021484 0.47551849484443665
0.4094708263874054 0.88812255859375 0.48970651626586914
0.4517577588558197 0.89856177568435669 0.50272876024246216
0.4937291145324707 0.90826338529586792 0.51487016677856445
0.53581839799880981 0.91753566265106201 0.52581197023391724
0.57810425758361816 0.92602837085723877 0.53569483757019043
0.62110519409179688 0.93361032009124756 0.54421001672744751
0.66498112678527832 0.94054698944091797 0.55128347873687744
0.70947468280792236 0.94650030136108398 0.55721181631088257
0.75456488132476807 0.95180249214172363 0.56253647804260254
0.80006176233291626 0.95632433891296387 0.56715840101242065
0.84577924013137817 0.96008449792861938 0.5710635781288147
0.89171832799911499 0.96329092979431152 0.57432264089584351
0.10997764766216278 0.13796812295913696 0.2642466127872467
0.14745564758777618 0.14852696657180786 0.27287459373474121
0.18498785793781281 0.15831126272678375 0.28099587559700012
0.22418200969696045 0.16738322377204895 0.28933402895927429
0.26489615440368652 0.17596973478794098 0.29810529947280884
0.30704805254936218 0.18446667492389679 0.30719444155693054
0.35033515095710754 0.19337823987007141 0.3164488673210144
0.39450424909591675 0.20247109234333038 0.32582288980484009
0.43930450081825256 0.21160018444061279 0.33501037955284119
0.48455435037612915 0.22009846568107605 0.3437647819519043
0.53015518188476562 0.22776868939399719 0.35183581709861755
0.5757564902305603 0.23426273465156555 0.35880902409553528
0.62133127450942993 0.23920057713985443 0.36411502957344055
0.13346049189567566 0.19954022765159607 0.28753224015235901
0.17078720033168793 0.21017543971538544 0.29630652070045471
0.20850898325443268 0.22007092833518982 0.30473834276199341
0.24752640724182129 0.22926050424575806 0.31297656893730164
0.28820028901100159 0.23761911690235138 0.32159200310707092
0.33033707737922668 0.24587996304035187 0.33058658242225647
0.37367522716522217 0.25477048754692078 0.33983060717582703
0.41784045100212097 0.2643744945526123 0.34908232092857361
0.46265584230422974 0.27362003922462463 0.35834136605262756
0.50811886787414551 0.28240439295768738 0.3671610951423645
0.55383121967315674 0.29033172130584717 0.37539857625961304
0.59967905282974243 0.29701906442642212 0.38262325525283813
0.64548510313034058 0.30213895440101624 0.38829836249351501
0.15664811432361603 0.26080417633056641 0.31024128198623657
0.1944333016872406 0.27141734957695007 0.31963777542114258
0.23243775963783264 0.28153741359710693 0.32848525047302246
0.2712084949016571 0.29086759686470032 0.33668950200080872
0.31174129247665405 0.29887682199478149 0.34479686617851257
0.35388901829719543 0.30664974451065063 0.35356974601745605
0.39697733521461487 0.31583181023597717 0.36248701810836792
0.44097191095352173 0.32548105716705322 0.37146386504173279
0.48585984110832214 0.33496913313865662 0.38063523173332214
0.53131544589996338 0.34365665912628174 0.38940992951393127
0.57713156938552856 0.35152503848075867 0.39766666293144226
0.62313902378082275 0.35836642980575562 0.40496310591697693
0.66911256313323975 0.36384120583534241 0.41114073991775513
0.17965567111968994 0.32302787899971008 0.3332093358039856
0.21796533465385437 0.33338528871536255 0.34286469221115112
0.25624740123748779 0.34351819753646851 0.35184073448181152
0.2949654757976532 0.35283610224723816 0.35991033911705017
0.33532842993736267 0.3606821596622467 0.3678567111492157
0.37725734710693359 0.36844941973686218 0.37634995579719543
0.42002463340759277 0.37778669595718384 0.38472005724906921
0.46392416954040527 0.38734185695648193 0.39337584376335144
0.5087847113609314 0.39618232846260071 0.40227487683296204
0.55427104234695435 0.40454760193824768 0.41085329651832581
0.60007214546203613 0.41217949986457825 0.41895478963851929
0.64620071649551392 0.41890648007392883 0.42641255259513855
0.69244444370269775 0.42450115084648132 0.43272432684898376
0.20245590806007385 0.38581350445747375 0.35605043172836304
0.24111582338809967 0.39602264761924744 0.36590778827667236
0.27960675954818726 0.4058043360710144 0.37488093972206116
0.31870171427726746 0.41494226455688477 0.3831983208656311
0.35890239477157593 0.42326971888542175 0.39113381505012512
0.40032485127449036 0.43186542391777039 0.39888724684715271
0.44284862279891968 0.44089740514755249 0.40665394067764282
0.48685979843139648 0.44941461086273193 0.41532561182975769
0.53183919191360474 0.45753362774848938 0.42389306426048279
