assets/lut/alexjordan orange underexposed.cube
# Created by: G'MIC (https://gmic.eu)
TITLE "orange_underexposed"
# LUT size
LUT_3D_SIZE 13
# Data domain
DOMAIN_MIN 0.0 0.0 0.0
DOMAIN_MAX 1.0 1.0 1.0
# LUT data points
0.00027829338796436787 0 0.00047043446102179587
0 0 0.00019447476370260119
0 0 0
0 0 0
0 0 0
0.0040391958318650723 0 0
0.042387705296278 0.00030221376800909638 0
0.097275920212268829 0.0020151475910097361 0
0.15101785957813263 0.00097937486134469509 0
0.20034925639629364 0 0
0.24688787758350372 0 0
0.29193934798240662 0 0
0.33666101098060608 0.00016180300735868514 0.00047043446102179587
0.0010371338576078415 0 0.001535572693683207
0 0 0.001578162657096982
0 0 0.00038019815110601485
0 0 0
0.00030954397516325116 0 0
0.021343156695365906 0 0
0.071389295160770416 0 0
0.12801961600780487 2.5281719899794552e-06 0
0.18165498971939087 0 0
0.23045177757740021 0 0
0.27693474292755127 0 0
0.32232347130775452 0 0
0.36710074543952942 0 0.0017934462521225214
0.0016777337295934558 0 0.0022942188661545515
0 0 0.0027632918208837509
0 0 0.0011295094154775143
0 0 0
0.0076764575205743313 0 0
0.049894999712705612 0 0
0.10412533581256866 0 0
0.1589905321598053 0 0
0.21097710728645325 0 0
0.2596859335899353 0 0.00023006364062894136
0.30680215358734131 3.5903033221984515e-06 0
0.35286799073219299 0.00019447476370260119 0
0.39796477556228638 0.002148856408894062 0.0016641205875203013
0.0022021722979843616 0 0.0024991952814161777
3.9493338590546045e-06 0 0.003864482743665576
0 5.466236689244397e-05 0.0010201397817581892
0.0034960429184138775 0.00093060662038624287 0
0.031621206551790237 0.0025366391055285931 0
0.082961045205593109 0.0040760114789009094 0
0.13749310374259949 0.0092369383201003075 0
0.18960057199001312 0.015908932313323021 0
0.23980540037155151 0.018511498346924782 0
0.28856393694877625 0.018005924299359322 0
0.33616584539413452 0.021626910194754601 0
0.38248836994171143 0.028030425310134888 0
0.42741158604621887 0.037758488208055496 0.00047179576358757913
0.0010371936950832605 0.018820295110344887 0.00037358602276071906
3.0517578579747351e-06 0.02487112395465374 0.0013550253352150321
0.00096939684590324759 0.030157875269651413 0.00012998393503949046
0.017039982602000237 0.036387067288160324 0
0.058181479573249817 0.04329618439078331 0
0.11268278956413269 0.053830914199352264 0
0.16773751378059387 0.063502788543701172 0
0.21899506449699402 0.07034195214509964 0
0.26832824945449829 0.074789859354496002 0
0.31709647178649902 0.079199396073818207 0
0.36519202589988708 0.086256392300128937 0
0.4112180769443512 0.094682894647121429 0
0.45577818155288696 0.10543437302112579 0.00021703384118154645
0 0.081869058310985565 0
0.0007573146722279489 0.092562533915042877 0
0.0083300275728106499 0.10160034894943237 0
0.034657943993806839 0.10787370055913925 0
0.083857566118240356 0.1135748028755188 0
0.1409078985452652 0.12402324378490448 0
0.19634103775024414 0.13295820355415344 0
0.24774649739265442 0.13921310007572174 0
0.29702389240264893 0.14529728889465332 0
0.34585389494895935 0.15194264054298401 0
0.39403805136680603 0.16059964895248413 3.5184973967261612e-05
0.43978244066238403 0.1707252711057663 0.0002490174665581435
0.48391306400299072 0.18232445418834686 0.0018147636437788606
0 0.15246507525444031 0
0.0061419918201863766 0.16271713376045227 0
0.025764135643839836 0.1720859706401825 0.00010645249130902812
0.062041174620389938 0.17828254401683807 0.00012691722076851875
0.11448545008897781 0.18309082090854645 0
0.17175008356571198 0.19080887734889984 0
0.22609786689281464 0.20034182071685791 0.00011381261720089242
0.27722629904747009 0.20848292112350464 0.00039636949077248573
0.32657775282859802 0.21595399081707001 0.00094849831657484174
0.37541308999061584 0.2235250324010849 0.0021890229545533657
0.42334195971488953 0.23224036395549774 0.0049299350939691067
0.46926820278167725 0.24265694618225098 0.0085859261453151703
0.51345700025558472 0.25373649597167969 0.015380230732262135
0.00062519148923456669 0.22254538536071777 0
0.016944302245974541 0.23115861415863037 0.00023347443493548781
0.047408353537321091 0.23912462592124939 0.0014557483373209834
0.091705858707427979 0.24506087601184845 0.0023514991626143456
0.14596600830554962 0.25018343329429626 0.0020519180689007044
0.20274007320404053 0.25745698809623718 0.0023902594111859798
0.25658631324768066 0.26712945103645325 0.0049160076305270195
0.30758571624755859 0.27603194117546082 0.0083955349400639534
0.35704135894775391 0.28417065739631653 0.012480178847908974
0.40591040253639221 0.29193460941314697 0.018199233338236809
0.45395943522453308 0.29997804760932922 0.025908391922712326
0.50005155801773071 0.30907911062240601 0.034339740872383118
0.54442024230957031 0.31914350390434265 0.044253569096326828
0.0040434743277728558 0.29149499535560608 0.0005058139213360846
0.031000742688775063 0.29882350564002991 0.00290654506534338
0.070523463189601898 0.30581331253051758 0.0073082568123936653
0.11971989274024963 0.31209856271743774 0.011247687041759491
0.17524583637714386 0.31835010647773743 0.013550597243010998
0.23196186125278473 0.32602760195732117 0.016515305265784264
0.28638899326324463 0.33485478162765503 0.021430550143122673
0.33781495690345764 0.34344291687011719 0.027789754793047905
0.38744929432868958 0.35141494870185852 0.03485126793384552
0.43631553649902344 0.35881981253623962 0.043087620288133621
0.48430991172790527 0.36635699868202209 0.052797954529523849
0.53081822395324707 0.37469196319580078 0.063117340207099915
0.57528394460678101 0.38463655114173889 0.073891609907150269
0.014010694809257984 0.35946252942085266 0.0064713270403444767
0.049717608839273453 0.3660372793674469 0.013390290550887585
0.094711959362030029 0.37282535433769226 0.021753169596195221
0.14708948135375977 0.37974867224693298 0.0288111362606287
0.20362220704555511 0.38704940676689148 0.033991586416959763
0.26061958074569702 0.39511013031005859 0.038797911256551743
0.31545999646186829 0.40358933806419373 0.044378690421581268
0.36725223064422607 0.41140767931938171 0.051817875355482101
0.41716769337654114 0.41889780759811401 0.060145612806081772
0.46607217192649841 0.42604070901870728 0.069396957755088806
0.51364767551422119 0.43356078863143921 0.079730868339538574
0.56003755331039429 0.44169408082962036 0.090503498911857605
0.60520124435424805 0.45148152112960815 0.10173922032117844
0.032999090850353241 0.42618519067764282 0.026237651705741882
0.073284655809402466 0.43272411823272705 0.034366443753242493
0.12137451022863388 0.43996649980545044 0.043665342032909393
0.17536970973014832 0.44763362407684326 0.051938075572252274
0.23180161416530609 0.4555513858795166 0.058745052665472031
0.28896450996398926 0.46380117535591125 0.064800187945365906
0.34380757808685303 0.47192183136940002 0.071167968213558197
0.39573687314987183 0.47946679592132568 0.078684739768505096
0.44580420851707458 0.4867188036441803 0.087328694760799408
0.49453157186508179 0.49386727809906006 0.096726678311824799
0.5421680212020874 0.50145387649536133 0.10679921507835388
0.58869147300720215 0.51004683971405029 0.11740673333406448
0.63430845737457275 0.51990461349487305 0.12890538573265076
0.057206366211175919 0.49281638860702515 0.053796462714672089
0.10013903677463531 0.49960541725158691 0.061274956911802292
0.15006151795387268 0.50734454393386841 0.07043921947479248
0.20455941557884216 0.51555514335632324 0.079048037528991699
0.26100811362266541 0.52380436658859253 0.086664386093616486
0.31707614660263062 0.53209471702575684 0.093375831842422485
0.37146857380867004 0.54004716873168945 0.10012292116880417
0.42356660962104797 0.54758763313293457 0.10744094848632812
0.47365763783454895 0.55484676361083984 0.11577821522951126
0.52245652675628662 0.56225192546844482 0.12449110299348831
0.57014113664627075 0.57024103403091431 0.13425262272357941
0.61697006225585938 0.57905828952789307 0.14500287175178528
0.66302746534347534 0.58917558193206787 0.15629851818084717
0.085624366998672485 0.56063294410705566 0.084150843322277069
0.12981916964054108 0.56761521100997925 0.091207854449748993
0.18040646612644196 0.57559937238693237 0.099852800369262695
0.23458121716976166 0.58385729789733887 0.10855003446340561
0.29025059938430786 0.59244096279144287 0.11643281579017639
0.34540021419525146 0.60059505701065063 0.12333641946315765
0.39918702840805054 0.60845601558685303 0.13013792037963867
0.45102313160896301 0.61608541011810303 0.13734489679336548
0.50122731924057007 0.62370097637176514 0.14520764350891113
0.55019253492355347 0.6314690113067627 0.15378470718860626
0.59802460670471191 0.63977909088134766 0.16306306421756744
0.64521139860153198 0.64899355173110962 0.17353661358356476
0.69190680980682373 0.65949517488479614 0.18487711250782013
9.8404227173887193e-05 0 0
0 0 0
0 0 0
0 0 0
0 0 0
0.0067126704379916191 0 0
0.047322846949100494 1.1668486195048899e-06 0
0.10079704970121384 0.00020205928012728691 0
0.15439936518669128 0.000145661600981839 0
0.20449300110340118 0 0
0.25153052806854248 0 0
0.29689893126487732 0 0
0.34140965342521667 0.00031096514430828393 0.0003389695193618536
0.0011614032555371523 0 0
0 0 0
0 0 0
0 0 0
0.00088022270938381553 0 0
0.025964369997382164 0 0
0.075891561806201935 0 0
0.13105833530426025 0 0
0.18483550846576691 0 0
0.23487691581249237 0 0
0.28206786513328552 0 0
0.32749366760253906 0 0
0.37175586819648743 0.00032166126766242087 0.0019643895793706179
0.0032804002985358238 0 0
0 0 1.9447477370704291e-06
0 0 0
3.2312731491401792e-05 0 0
0.011838950216770172 0 0
0.055048219859600067 0 0
0.1085042878985405 0 0
0.16252364218235016 0 0
0.21474084258079529 0 0
0.26464542746543884 0.00019462435739114881 0
0.3122706413269043 0.001402058289386332 0
0.35809537768363953 0.0039334613829851151 3.1789142667548731e-05
0.4023280143737793 0.010418342426419258 0.0047546238638460636
0.0058382670395076275 0 7.0010914896556642e-06
0.00045532526564784348 0 0.00047172096674330533
0 0.00053935329196974635 4.8110065108630806e-05
0.0037989148404449224 0.0021863749716430902 0
0.036169808357954025 0.0034923627972602844 0
0.087442629039287567 0.0050130058079957962 0
0.14151287078857422 0.0084983231499791145 0
0.19310808181762695 0.014007373712956905 0
0.24355074763298035 0.019075252115726471 0
0.29337146878242493 0.025694873183965683 0
0.34177976846694946 0.033788971602916718 2.9620002806041157e-06
0.38786217570304871 0.041144844144582748 0.0007942648371681571
0.43219783902168274 0.050651192665100098 0.0079185487702488899
0.0050070518627762794 0.023629894480109215 0
0.00077584956306964159 0.028387466445565224 0.00032095814822241664
0.00028198841027915478 0.036931611597537994 0.00010474710143171251
0.015253942459821701 0.045000921934843063 0
0.061027780175209045 0.050644204020500183 0
0.11688147485256195 0.058929998427629471 0
0.17135705053806305 0.066096223890781403 0
0.22207337617874146 0.074101544916629791 0
0.27172571420669556 0.081782139837741852 5.2657783271570224e-06
0.32195153832435608 0.089436925947666168 0.00024358711380045861
0.37101739645004272 0.098850801587104797 0.00091817521024495363
0.41690716147422791 0.10595471411943436 0.0042293621227145195
0.46053686738014221 0.1142880916595459 0.01348769199103117
0.0010917364852502942 0.08881060779094696 0
0.00075538485543802381 0.098308101296424866 0.0004749672079924494
0.0079416763037443161 0.10748991370201111 0.0024420495610684156
0.037748884409666061 0.11427292227745056 0.001075804466381669
0.089548267424106598 0.12082049995660782 0.00013323017628863454
0.14651478826999664 0.13064019381999969 7.3720897489693016e-05
0.2006487250328064 0.13877330720424652 0.00041046141996048391
0.25115269422531128 0.14648588001728058 0.0013676213566213846
0.30062609910964966 0.1543010026216507 0.0028110579587519169
0.35067987442016602 0.16168630123138428 0.005890535656362772
0.39966413378715515 0.17039771378040314 0.010125687345862389
0.4453684389591217 0.17838574945926666 0.016504654660820961
0.4889795184135437 0.18648400902748108 0.026953574270009995
0 0.15910810232162476 0.00084728165529668331
0.0065432232804596424 0.16871526837348938 0.0039080004207789898
0.027504371479153633 0.17715053260326385 0.0075913374312222004
0.067975230515003204 0.1828724592924118 0.0071695363149046898
0.12266441434621811 0.1886029839515686 0.0048149107024073601
0.17871484160423279 0.19728118181228638 0.0048609115183353424
0.23146484792232513 0.20699484646320343 0.0081620309501886368
0.28152728080749512 0.2158631831407547 0.012925107032060623
0.33061715960502625 0.22399470210075378 0.017668211832642555
0.3800538182258606 0.23142552375793457 0.024588551372289658
0.42853051424026489 0.23924975097179413 0.033124692738056183
0.47422569990158081 0.24755533039569855 0.041796516627073288
0.51810312271118164 0.25591304898262024 0.052450306713581085
0.00062519148923456669 0.22780920565128326 0.0067452825605869293
0.01689637079834938 0.23637828230857849 0.01253846101462841
0.049503043293952942 0.2439257949590683 0.017818765714764595
0.096970140933990479 0.24956002831459045 0.019492324441671371
0.1534046083688736 0.25514677166938782 0.019461987540125847
0.20954868197441101 0.26319459080696106 0.021446840837597847
0.26220163702964783 0.27300369739532471 0.027218284085392952
0.31221768260002136 0.28239381313323975 0.034300368279218674
0.36139407753944397 0.29078972339630127 0.041758637875318527
0.41032186150550842 0.29838603734970093 0.050582930445671082
0.45837593078613281 0.30582261085510254 0.06113574281334877
0.50435328483581543 0.31334659457206726 0.072176195681095123
0.54833561182022095 0.32153257727622986 0.083826713263988495
0.0039069531485438347 0.29547157883644104 0.018540656194090843
0.031419537961483002 0.30327484011650085 0.026179952546954155
0.072352901101112366 0.31037306785583496 0.033587660640478134
0.12378709018230438 0.31663817167282104 0.038517538458108902
0.18106551468372345 0.32310304045677185 0.041686907410621643
0.23809967935085297 0.33102971315383911 0.045694552361965179
0.29178771376609802 0.34022149443626404 0.052118279039859772
0.34249141812324524 0.34898743033409119 0.06003883108496666
0.39179772138595581 0.35709699988365173 0.068899966776371002
0.44051867723464966 0.36457696557044983 0.078802473843097687
0.4884067177772522 0.37175875902175903 0.089841641485691071
0.53459948301315308 0.37913540005683899 0.10138589888811111
0.57887858152389526 0.38764575123786926 0.11267694085836411
0.014243287034332752 0.36272954940795898 0.036342859268188477
0.050323203206062317 0.36986744403839111 0.045096110552549362
0.096681319177150726 0.37709775567054749 0.054323818534612656
0.15086786448955536 0.38421571254730225 0.061852026730775833
0.20865623652935028 0.39162167906761169 0.067545093595981598
0.26598682999610901 0.39977771043777466 0.073053114116191864
0.32052168250083923 0.40814018249511719 0.079656623303890228
0.37193682789802551 0.41620907187461853 0.087492547929286957
0.42155405879020691 0.42385697364807129 0.096605442464351654
0.47005131840705872 0.43111592531204224 0.10649213939905167
0.51765507459640503 0.4384034276008606 0.11744233965873718
0.56393235921859741 0.4459955096244812 0.12868018448352814
0.60871177911758423 0.45495355129241943 0.13983824849128723
0.033607795834541321 0.42922616004943848 0.060620296746492386
0.074329495429992676 0.43651285767555237 0.069710567593574524
0.12397169321775436 0.44419765472412109 0.079803317785263062
0.1794465035200119 0.45200696587562561 0.088635355234146118
0.23747646808624268 0.46007302403450012 0.095916077494621277
0.29430285096168518 0.46826574206352234 0.10222107917070389
0.3489421010017395 0.47629687190055847 0.10881298035383224
0.40065902471542358 0.48390328884124756 0.11631050705909729
0.45039498805999756 0.49120602011680603 0.12511976063251495
0.49878683686256409 0.49837934970855713 0.13450062274932861
0.54619061946868896 0.50580394268035889 0.14481425285339355
0.59241938591003418 0.51383006572723389 0.15542842447757721
0.63763892650604248 0.52296465635299683 0.16662187874317169
0.058434698730707169 0.49598902463912964 0.089517898857593536
0.10226008296012878 0.5033721923828125 0.098256535828113556
0.15362280607223511 0.51168006658554077 0.10858679562807083
0.20947852730751038 0.52003949880599976 0.11786745488643646
0.26677030324935913 0.52843677997589111 0.12583056092262268
0.32298511266708374 0.53656899929046631 0.13249652087688446
0.3769126832485199 0.54436993598937988 0.13894712924957275
0.42864471673965454 0.5518304705619812 0.14600357413291931
0.4784550666809082 0.55904299020767212 0.15407110750675201
0.52691233158111572 0.56634414196014404 0.16271623969078064
0.57430499792098999 0.57404857873916626 0.17233406007289886
0.62076979875564575 0.5824737548828125 0.18294250965118408
0.66662025451660156 0.59199893474578857 0.19385726749897003
0.087015025317668915 0.56381815671920776 0.12095953524112701
0.13267169892787933 0.57124549150466919 0.12900123000144958
0.18453329801559448 0.57952499389648438 0.13881951570510864
0.24020685255527496 0.58827728033065796 0.14840283989906311
0.29654186964035034 0.59676229953765869 0.15647172927856445
0.35167565941810608 0.60487174987792969 0.16321605443954468
0.40480184555053711 0.61255747079849243 0.16950474679470062
0.45629468560218811 0.62007445096969604 0.17628292739391327
0.5061456561088562 0.62755018472671509 0.18376313149929047
0.55464118719100952 0.63519692420959473 0.19197759032249451
0.60223186016082764 0.64306056499481201 0.20102123916149139
0.64910441637039185 0.65196365118026733 0.21130973100662231
0.6954306960105896 0.66190648078918457 0.2223503589630127
0 0 0
0 0 0
0 0 0
0 0 0
0 0 0
0.010355676524341106 0 0
0.053351711481809616 0 0
0.10551703721284866 0 0
0.15857411921024323 0 0
0.20900940895080566 0 0
0.2565883994102478 0 0
0.30209377408027649 4.4729194996762089e-06 0
0.34642124176025391 0.0025392570532858372 0.0013834934215992689
0.000533055339474231 0 0
0 0 0
0 0 0
0 0 0
0.0018289603758603334 0 0
0.03126932680606842 0 0
0.08100871741771698 0 0
0.13485701382160187 0 0
0.18836931884288788 0 0
0.23918892443180084 0 0
0.28720858693122864 0 0
0.33263832330703735 0.00038193346699699759 3.5379445762373507e-05
0.37660619616508484 0.0049772076308727264 0.005591164343059063
0.0030334172770380974 0 0
0 0 0
0 0 0
8.6167281551752239e-05 0 0
0.01542301569133997 0 0
0.060573339462280273 0 0
0.11297197639942169 0 0.00028863045736216009
0.16591587662696838 0 0.00074178655631840229
0.21817363798618317 0 0.00040573420119471848
0.26895424723625183 0.00093551335157826543 9.5741423137951642e-05
0.31732523441314697 0.0057129203341901302 0.00015707577404100448
0.36300280690193176 0.012937418185174465 0.0025371776428073645
0.40671080350875854 0.022669039666652679 0.014122936874628067
0.0064615583978593349 5.7759003539104015e-05 0
0.00071300432318821549 1.4810000720899552e-05 0
0 0.001342713600024581 0
0.0043803197331726551 0.004354529082775116 0
0.040561214089393616 0.0058047575876116753 0
0.092728570103645325 0.0069584567099809647 0.00029063504189252853
0.14539727568626404 0.0095945019274950027 0.0019614724442362785
0.19613318145275116 0.013951544649899006 0.0027784460689872503
0.24679780006408691 0.019591402262449265 0.0028168922290205956
0.29761940240859985 0.030709151178598404 0.0034584943205118179
0.34660184383392334 0.042329210788011551 0.005808213260024786
0.39267617464065552 0.051972646266222 0.013421570882201195
0.43621963262557983 0.06228160485625267 0.026538340374827385
0.0061337491497397423 0.02872028760612011 0
0.0010069753043353558 0.030970778316259384 0.00021055633260402828
0.00020105698786210269 0.040891699492931366 0.00090341008035466075
0.017360014840960503 0.051388129591941833 0.00036022710264660418
0.066609926521778107 0.057587552815675735 0.00032576019293628633
0.12253621220588684 0.06264234334230423 0.00098682474344968796
0.17516367137432098 0.068437106907367706 0.0036310830619186163
0.22483792901039124 0.0770539790391922 0.0063975467346608639
0.27466502785682678 0.086133740842342377 0.0090238535776734352
0.3261113166809082 0.094228543341159821 0.014968213625252247
0.37579721212387085 0.10419008135795593 0.021432943642139435
0.42172819375991821 0.11240366101264954 0.030624404549598694
0.46517986059188843 0.12108764797449112 0.043243438005447388
0.0017456503119319677 0.094473518431186676 0.0010005427757278085
0.00019206626166123897 0.10145938396453857 0.0053681917488574982
0.0070229475386440754 0.11025924980640411 0.010093824006617069
0.041477847844362259 0.11850903183221817 0.0087537281215190887
0.096541792154312134 0.12591467797756195 0.0070567410439252853
0.15252396464347839 0.1340937614440918 0.0076880063861608505
0.2047048956155777 0.1417321115732193 0.012682836502790451
0.25428232550621033 0.15056368708610535 0.019920917227864265
0.30387634038925171 0.15913210809230804 0.026928696781396866
0.35513463616371155 0.16551877558231354 0.036911308765411377
0.40450811386108398 0.17334944009780884 0.046498585492372513
0.45048624277114868 0.1811944842338562 0.05508938804268837
0.49386155605316162 0.18889835476875305 0.066293142735958099
0 0.16411833465099335 0.012649386189877987
0.0048830220475792885 0.17237336933612823 0.019954681396484375
0.02723967656493187 0.17979070544242859 0.025534491986036301
0.073021292686462402 0.18560297787189484 0.026341501623392105
0.1300821453332901 0.19258579611778259 0.025929231196641922
0.1845560222864151 0.20187954604625702 0.028563855215907097
0.23557324707508087 0.21108169853687286 0.035408318042755127
0.28492531180381775 0.21983729302883148 0.044227853417396545
0.33434674143791199 0.2278534471988678 0.053518813103437424
0.38452351093292236 0.23490622639656067 0.064652465283870697
0.43319606781005859 0.24225595593452454 0.075450226664543152
0.47872194647789001 0.25009769201278687 0.085099272429943085
0.52232980728149414 0.25726556777954102 0.096097402274608612
0.00049353204667568207 0.23156176507472992 0.032169118523597717
0.016060369089245796 0.23987199366092682 0.039718225598335266
0.050549015402793884 0.2469099760055542 0.046106718480587006
0.10129768401384354 0.25285673141479492 0.049434512853622437
0.15917535126209259 0.25951892137527466 0.05171743780374527
0.214625284075737 0.26819050312042236 0.056033339351415634
0.26617342233657837 0.27747592329978943 0.063451923429965973
0.31563588976860046 0.28632909059524536 0.072582170367240906
0.36471900343894958 0.29462096095085144 0.082394637167453766
0.41403648257255554 0.30254426598548889 0.092992953956127167
0.46194764971733093 0.31028589606285095 0.10398652404546738
0.50769650936126709 0.31760823726654053 0.11502318829298019
0.55187785625457764 0.32461744546890259 0.12662561237812042
0.0039903828874230385 0.29839277267456055 0.053415380418300629
0.032139047980308533 0.30629828572273254 0.06186288595199585
0.073920950293540955 0.31351384520530701 0.06960131973028183
0.12755812704563141 0.32030162215232849 0.075412467122077942
0.18593983352184296 0.32738339900970459 0.080167375504970551
0.24265754222869873 0.33555048704147339 0.085511527955532074
0.29559493064880371 0.34427165985107422 0.092798389494419098
0.34579294919967651 0.35274884104728699 0.10129956901073456
0.39504009485244751 0.3609987199306488 0.11077658087015152
0.44373717904090881 0.36906382441520691 0.12103943526744843
0.49136656522750854 0.37690475583076477 0.131806880235672
0.53730088472366333 0.38428708910942078 0.14313320815563202
0.58195763826370239 0.39185929298400879 0.15412949025630951
0.015523064881563187 0.36526736617088318 0.076462388038635254
0.05203763023018837 0.37296772003173828 0.085691623389720917
0.099272094666957855 0.38062724471092224 0.094973817467689514
0.15477728843688965 0.38809764385223389 0.10282109677791595
0.21342647075653076 0.39566963911056519 0.10925285518169403
0.27048435807228088 0.40374976396560669 0.11528243869543076
0.3244052529335022 0.41200223565101624 0.12214194238185883
0.37535220384597778 0.42003318667411804 0.13007588684558868
0.42471069097518921 0.42786189913749695 0.13905678689479828
0.47310984134674072 0.43559730052947998 0.14868466556072235
0.52058511972427368 0.44329199194908142 0.15900242328643799
0.56670337915420532 0.45095950365066528 0.16980592906475067
0.61167663335800171 0.459207683801651 0.18054816126823425
0.036172289401292801 0.43219146132469177 0.10246450453996658
