assets/lut/alexjordan adventure 1453.cube
# Created by: G'MIC (https://gmic.eu)
TITLE "adventure_1453"
# LUT size
LUT_3D_SIZE 5
# Data domain
DOMAIN_MIN 0.0 0.0 0.0
DOMAIN_MAX 1.0 1.0 1.0
# LUT data points
0.0012613184517249465 0.0058512520045042038 0.020026411861181259
0.17110602557659149 0.013930675573647022 0.024577062577009201
0.46288150548934937 0.01523666363209486 0.0225650854408741
0.78764885663986206 0.0044789933599531651 0.013754811137914658
1 0.026749869808554649 0.018805738538503647
0.0038704667240381241 0.23054353892803192 0.039572697132825851
0.20451743900775909 0.2366165816783905 0.046246219426393509
0.49623006582260132 0.2287953644990921 0.039545528590679169
0.8212440013885498 0.20188198983669281 0.026462061330676079
1 0.19618301093578339 0.028844272717833519
0.014421231113374233 0.48515433073043823 0.052396990358829498
0.22951170802116394 0.48877570033073425 0.057206440716981888
0.50831800699234009 0.478476881980896 0.047313600778579712
0.82923388481140137 0.45518171787261963 0.033092886209487915
1 0.438150554895401 0.024667447432875633
0.024324558675289154 0.74069744348526001 0.052917018532752991
0.24710270762443542 0.74160641431808472 0.057470642030239105
0.5135377049446106 0.73182934522628784 0.048799552023410797
0.82382428646087646 0.71105033159255981 0.031443368643522263
1 0.69200199842453003 0.016037136316299438
0.031958591192960739 0.98786765336990356 0.041027441620826721
0.26151087880134583 0.98749518394470215 0.048167567700147629
0.52287387847900391 0.98142075538635254 0.043090924620628357
0.82056975364685059 0.96755397319793701 0.028498571366071701
1 0.95201772451400757 0.0088708316907286644
0 0.0078187528997659683 0.27026301622390747
0.16744953393936157 0.0081273848190903664 0.27503925561904907
0.45813202857971191 0.013978097587823868 0.26848652958869934
0.78862673044204712 0.011014691554009914 0.24657419323921204
1 0.015618941746652126 0.22640039026737213
0.0045809280127286911 0.22794283926486969 0.3047173023223877
0.20042517781257629 0.23210594058036804 0.31053701043128967
0.49118968844413757 0.22233349084854126 0.2959655225276947
0.81966346502304077 0.19540870189666748 0.27516287565231323
1 0.18831551074981689 0.26197940111160278
0.011779336258769035 0.483306884765625 0.31584903597831726
0.22088868916034698 0.48819023370742798 0.3185679018497467
0.50049877166748047 0.47703307867050171 0.30547964572906494
0.82685273885726929 0.45402306318283081 0.28415501117706299
1 0.43456193804740906 0.26588538289070129
0.019776841625571251 0.73989468812942505 0.31765890121459961
0.23443205654621124 0.74229484796524048 0.31925287842750549
0.50249004364013672 0.73286581039428711 0.30596089363098145
0.82495236396789551 0.71099495887756348 0.28136956691741943
1 0.68837594985961914 0.25847503542900085
0.0283699631690979 0.98795813322067261 0.31017515063285828
0.24797789752483368 0.98826563358306885 0.31215804815292358
0.50930643081665039 0.98254603147506714 0.29927831888198853
0.82064276933670044 0.96767890453338623 0.27315244078636169
1 0.94816774129867554 0.24814958870410919
0 0.0063569908961653709 0.54767030477523804
0.17520496249198914 0.010794561356306076 0.54833692312240601
0.46095803380012512 0.020180093124508858 0.53745740652084351
0.78920727968215942 0.021294582635164261 0.52175635099411011
1 0.01787617988884449 0.49152928590774536
0.00091947667533531785 0.22679212689399719 0.57571560144424438
0.20090305805206299 0.23092319071292877 0.57775098085403442
0.49196344614028931 0.22291423380374908 0.56848037242889404
0.81869161128997803 0.20165738463401794 0.54697149991989136
1 0.19302323460578918 0.51935726404190063
0.0048446804285049438 0.47934529185295105 0.58052957057952881
0.21190047264099121 0.48333451151847839 0.58663547039031982
0.49839663505554199 0.47305509448051453 0.57966136932373047
0.83117437362670898 0.45134803652763367 0.56071954965591431
1 0.43342715501785278 0.52992445230484009
0.01308828592300415 0.73671972751617432 0.58228605985641479
0.22064597904682159 0.74022191762924194 0.58632129430770874
0.49671027064323425 0.73157656192779541 0.57510614395141602
0.82528316974639893 0.71101957559585571 0.55487972497940063
1 0.68912482261657715 0.52721560001373291
0.026053005829453468 0.98734933137893677 0.57775866985321045
0.23075933754444122 0.98927241563796997 0.57896333932876587
0.49344024062156677 0.98335444927215576 0.56573694944381714
0.81725239753723145 0.9680669903755188 0.54339051246643066
1 0.94812726974487305 0.51961380243301392
0 0.0035659640561789274 0.82256615161895752
0.17326153814792633 0.01032364834100008 0.82165026664733887
0.45941850543022156 0.022702999413013458 0.80983829498291016
0.78623920679092407 0.020277479663491249 0.80512338876724243
1 0.018149999901652336 0.75144404172897339
0 0.2250475138425827 0.85355734825134277
0.19861604273319244 0.23247158527374268 0.8507615327835083
0.4875200092792511 0.22658915817737579 0.84123843908309937
0.81848663091659546 0.20040290057659149 0.83564633131027222
1 0.18837253749370575 0.7768518328666687
0.0013203340349718928 0.47580954432487488 0.85635185241699219
0.20548339188098907 0.48121726512908936 0.85718339681625366
0.49517956376075745 0.47258186340332031 0.84320199489593506
0.8289337158203125 0.45346271991729736 0.84656262397766113
1 0.43395808339118958 0.79369962215423584
0.0060714720748364925 0.73256438970565796 0.85034555196762085
0.20595176517963409 0.73816537857055664 0.85501539707183838
0.49437931180000305 0.7291795015335083 0.84308099746704102
0.82454603910446167 0.70938074588775635 0.82807439565658569
1 0.68812078237533569 0.79871654510498047
0.024247277528047562 0.98504734039306641 0.83941596746444702
0.20975552499294281 0.98779994249343872 0.8452146053314209
0.48450016975402832 0.98211479187011719 0.84178602695465088
0.81875061988830566 0.96741825342178345 0.81758308410644531
0.99934870004653931 0.94494915008544922 0.79250860214233398
0 0.0019958496559411287 1
0.1736517995595932 0.0069816289469599724 1
0.46344888210296631 0.017175262793898582 1
0.78377091884613037 0.02002563513815403 1
1 0.019023176282644272 0.96650868654251099
0 0.22021092474460602 1
0.20152673125267029 0.22848761081695557 1
0.49002727866172791 0.22670082747936249 1
0.81995910406112671 0.20311802625656128 1
1 0.18978452682495117 0.96881645917892456
0.00072021485539153218 0.47087359428405762 1
0.21292166411876678 0.47591671347618103 1
0.49786525964736938 0.47058320045471191 0.99894630908966064
0.82119911909103394 0.44988501071929932 1
1 0.43012091517448425 0.99333137273788452
0.0035561504773795605 0.72658324241638184 1
0.21460840106010437 0.72989559173583984 1
0.49697205424308777 0.72232872247695923 1
0.82409477233886719 0.70506775379180908 1
1 0.68625247478485107 0.99987632036209106
0.01010576169937849 0.98153907060623169 1
0.21935375034809113 0.98263359069824219 1
0.49214610457420349 0.97656434774398804 1
0.81150692701339722 0.96425789594650269 1
1 0.94203537702560425 1
