assets/lut/alexjordan action red 01.cube
# Created by: G'MIC (https://gmic.eu)
TITLE "action_red_01"
# LUT size
LUT_3D_SIZE 13
# Data domain
DOMAIN_MIN 0.0 0.0 0.0
DOMAIN_MAX 1.0 1.0 1.0
# LUT data points
0.0094873765483498573 0.010902943089604378 0.052692487835884094
0.021319296211004257 0.01279398612678051 0.054583337157964706
0.044260989874601364 0.01171607244759798 0.054494477808475494
0.080827467143535614 0.0094111273065209389 0.054714366793632507
0.12653179466724396 0.0094037372618913651 0.055038213729858398
0.17991966009140015 0.010444177314639091 0.054511185735464096
0.23995472490787506 0.0090086692944169044 0.052692368626594543
0.30657467246055603 0.0047787982039153576 0.047989923506975174
0.38352242112159729 0.0011230618692934513 0.040916938334703445
0.47107565402984619 0 0.033704556524753571
0.57186269760131836 0 0.024520454928278923
0.6861424446105957 0 0.01142730750143528
0.80422145128250122 0 0.0018592984415590763
0.027025932446122169 0.034074205905199051 0.080559313297271729
0.038902193307876587 0.040671870112419128 0.082967333495616913
0.06213977187871933 0.044674262404441833 0.080766253173351288
0.10210031270980835 0.044018391519784927 0.080033533275127411
0.15358173847198486 0.044333826750516891 0.080107778310775757
0.21312548220157623 0.045017991214990616 0.079999648034572601
0.2798650860786438 0.04240766167640686 0.078640758991241455
0.35653632879257202 0.035536088049411774 0.072805307805538177
0.44492551684379578 0.025725211948156357 0.063605152070522308
0.54249632358551025 0.014666164293885231 0.055820152163505554
0.65255510807037354 0.0064342273399233818 0.046827532351016998
0.77871733903884888 0.0022970163263380527 0.030851686373353004
0.90457332134246826 0.0014367196708917618 0.012216291390359402
0.050649665296077728 0.062047980725765228 0.11492247879505157
0.059595175087451935 0.074690066277980804 0.11759058386087418
0.07655971497297287 0.087384454905986786 0.10994603484869003
0.11394342035055161 0.091100312769412994 0.10439173132181168
0.16955177485942841 0.091919571161270142 0.10149051249027252
0.23689250648021698 0.090250857174396515 0.10020135343074799
0.31409689784049988 0.08671550452709198 0.097628094255924225
0.40192514657974243 0.079033002257347107 0.090843141078948975
0.50153994560241699 0.067692823708057404 0.080707386136054993
0.61249637603759766 0.053913488984107971 0.07121594250202179
0.73702442646026611 0.040041979402303696 0.060532409697771072
0.87246620655059814 0.029374275356531143 0.044713485985994339
0.9824109673500061 0.02646719291806221 0.025077041238546371
0.085755698382854462 0.10003561526536942 0.15748222172260284
0.093693703413009644 0.11622852832078934 0.16327430307865143
0.10370504111051559 0.1341722309589386 0.15458187460899353
0.12898540496826172 0.1459951251745224 0.13888804614543915
0.17955772578716278 0.14984990656375885 0.12587453424930573
0.2500140368938446 0.14857429265975952 0.11732028424739838
0.33530130982398987 0.14396809041500092 0.11070592701435089
0.43285223841667175 0.13525140285491943 0.10169502347707748
0.54236483573913574 0.12297668308019638 0.090742014348506927
0.66637134552001953 0.1068459153175354 0.079328052699565887
0.80340027809143066 0.090015068650245667 0.066739164292812347
0.94465339183807373 0.075448021292686462 0.05107530951499939
0.99986517429351807 0.072172857820987701 0.032740350812673569
0.12752985954284668 0.14497721195220947 0.2065902054309845
0.13647297024726868 0.161195307970047 0.21526294946670532
0.14242509007453918 0.1809421181678772 0.20848545432090759
0.15520410239696503 0.1999971866607666 0.1858333945274353
0.19190849363803864 0.21202446520328522 0.15905684232711792
0.25494587421417236 0.21588191390037537 0.13608308136463165
0.34051293134689331 0.21320882439613342 0.12001211196184158
0.44300657510757446 0.20503790676593781 0.10744424164295197
0.55954194068908691 0.19244946539402008 0.095762975513935089
0.68971222639083862 0.17716383934020996 0.082955315709114075
0.83235114812850952 0.15901894867420197 0.068289749324321747
0.96948844194412231 0.14380843937397003 0.052191641181707382
1 0.13790738582611084 0.034798908978700638
0.17342384159564972 0.19378603994846344 0.25875699520111084
0.18296371400356293 0.21044132113456726 0.26782938838005066
0.18681937456130981 0.23141713440418243 0.26257151365280151
0.19113154709339142 0.2555105984210968 0.23760212957859039
0.2135910838842392 0.27529504895210266 0.20041574537754059
0.26240667700767517 0.287474125623703 0.16135738790035248
0.33861163258552551 0.29008150100708008 0.13208502531051636
0.43786543607711792 0.28480440378189087 0.11386807262897491
0.55455076694488525 0.27474963665008545 0.099929511547088623
0.68483191728591919 0.26117828488349915 0.084983572363853455
0.82710480690002441 0.24525004625320435 0.068118810653686523
0.96572601795196533 0.22990748286247253 0.050803583115339279
1 0.2216937392950058 0.034669481217861176
0.22469428181648254 0.24636879563331604 0.31196048855781555
0.2355027049779892 0.26369911432266235 0.32089149951934814
0.24051810801029205 0.28565245866775513 0.31654968857765198
0.24150118231773376 0.31225147843360901 0.29249140620231628
0.25130915641784668 0.33821621537208557 0.24923808872699738
0.28250816464424133 0.35855036973953247 0.1971617192029953
0.34248808026313782 0.3688596785068512 0.15501497685909271
0.4301929771900177 0.36993128061294556 0.12716130912303925
0.53885990381240845 0.3646543025970459 0.10658223927021027
0.66321438550949097 0.35516813397407532 0.08818131685256958
0.80204737186431885 0.34141689538955688 0.069300509989261627
0.94606572389602661 0.32647687196731567 0.051255140453577042
1 0.31648758053779602 0.035356767475605011
0.27986505627632141 0.30263569951057434 0.36384296417236328
0.29304543137550354 0.32071125507354736 0.3735140860080719
0.29973474144935608 0.34362223744392395 0.37138029932975769
0.30020439624786377 0.37138080596923828 0.34933251142501831
0.30335089564323425 0.40032655000686646 0.30598723888397217
0.32002833485603333 0.42694678902626038 0.24993282556533813
0.36150476336479187 0.44573435187339783 0.19632469117641449
0.431327223777771 0.45536124706268311 0.15397089719772339
0.52557229995727539 0.45724824070930481 0.12056491523981094
0.63960397243499756 0.45271727442741394 0.094964854419231415
0.77225083112716675 0.44209438562393188 0.074259847402572632
0.91548800468444824 0.42861646413803101 0.056293845176696777
0.9990692138671875 0.41815671324729919 0.040446024388074875
0.33880025148391724 0.36218905448913574 0.4155101478099823
0.35293686389923096 0.38108831644058228 0.42615386843681335
0.36181330680847168 0.40536758303642273 0.42658504843711853
0.3638005256652832 0.43311849236488342 0.40870952606201172
0.36386996507644653 0.46366211771965027 0.36937692761421204
0.37157395482063293 0.49363219738006592 0.31425446271896362
0.39718112349510193 0.51990371942520142 0.25408133864402771
0.44745683670043945 0.53854894638061523 0.196803018450737
0.52315229177474976 0.54903495311737061 0.14683006703853607
0.62445104122161865 0.55058425664901733 0.10988061875104904
0.74795860052108765 0.54392081499099731 0.085597172379493713
0.88476520776748657 0.53309816122055054 0.067402690649032593
0.99219781160354614 0.52359002828598022 0.050810225307941437
0.40311285853385925 0.42574083805084229 0.46777898073196411
0.4174436628818512 0.44535520672798157 0.47921165823936462
0.42740151286125183 0.46964102983474731 0.48263949155807495
0.43062120676040649 0.49782735109329224 0.46937313675880432
0.43002164363861084 0.52917033433914185 0.43552479147911072
0.43244519829750061 0.56173479557037354 0.38413017988204956
0.44660112261772156 0.59253197908401489 0.32171469926834106
0.4800262451171875 0.61844855546951294 0.25529307126998901
0.53798884153366089 0.63707762956619263 0.19269341230392456
0.62353616952896118 0.64559710025787354 0.14306941628456116
0.73387616872787476 0.64496493339538574 0.10908930003643036
0.86024945974349976 0.63871616125106812 0.084205657243728638
0.97918659448623657 0.63209611177444458 0.063373371958732605
0.47261273860931396 0.49176234006881714 0.52239722013473511
0.48710939288139343 0.5120578408241272 0.53438103199005127
0.49687030911445618 0.53694146871566772 0.53923052549362183
0.50016731023788452 0.56564617156982422 0.53051340579986572
0.49996069073677063 0.59738951921463013 0.50233101844787598
0.50021761655807495 0.63094562292098999 0.45576968789100647
0.5066341757774353 0.66503357887268066 0.39509084820747375
0.52743202447891235 0.69628196954727173 0.32619118690490723
0.5700308084487915 0.72099703550338745 0.25675678253173828
0.63879722356796265 0.73710620403289795 0.19504190981388092
0.73245024681091309 0.74425303936004639 0.14542074501514435
0.84423357248306274 0.74525338411331177 0.10618498921394348
0.96246629953384399 0.74335891008377075 0.074631422758102417
0.5438193678855896 0.5601881742477417 0.57811200618743896
0.55984818935394287 0.58057224750518799 0.59142196178436279
0.57121104001998901 0.60552406311035156 0.59827268123626709
0.57561099529266357 0.63497805595397949 0.59200584888458252
0.57518094778060913 0.66737157106399536 0.56772303581237793
0.57295763492584229 0.70225024223327637 0.52588886022567749
0.57366228103637695 0.73856663703918457 0.46910843253135681
0.5847286581993103 0.77307641506195068 0.40140062570571899
0.61402469873428345 0.80338943004608154 0.32794433832168579
0.66738235950469971 0.82621908187866211 0.25616133213043213
0.74418067932128906 0.84144425392150879 0.19110018014907837
0.83962404727935791 0.85011082887649536 0.13549508154392242
0.94796627759933472 0.85430806875228882 0.091004133224487305
0.61563360691070557 0.6314842700958252 0.63323336839675903
0.6337200403213501 0.65142804384231567 0.64780658483505249
0.64718633890151978 0.67635256052017212 0.65545231103897095
0.65313345193862915 0.70633280277252197 0.65034455060958862
0.65179592370986938 0.73971003293991089 0.62862002849578857
0.64765644073486328 0.7758181095123291 0.59074819087982178
0.6446189284324646 0.81342583894729614 0.53806489706039429
0.64843988418579102 0.85084050893783569 0.47310423851013184
0.668018639087677 0.88504338264465332 0.39893624186515808
0.70896214246749878 0.91324573755264282 0.32057753205299377
0.77059471607208252 0.93489158153533936 0.24461632966995239
0.85013753175735474 0.95065373182296753 0.176311194896698
0.94559997320175171 0.96016842126846313 0.12108606100082397
0.0052628312259912491 0.010457790456712246 0.053316526114940643
0.014143656007945538 0.01559766847640276 0.060090381652116776
0.034305587410926819 0.017645487561821938 0.066204339265823364
0.069075644016265869 0.016297418624162674 0.071916781365871429
0.11425308883190155 0.01602204330265522 0.075939908623695374
0.16682015359401703 0.016645528376102448 0.078511305153369904
0.22779548168182373 0.014848297461867332 0.078249432146549225
0.29593798518180847 0.0089949518442153931 0.074147321283817291
0.37406980991363525 0.003086030250415206 0.067234188318252563
0.46266409754753113 0.00023157456598710269 0.061137314885854721
0.56465864181518555 0 0.053468756377696991
0.67982202768325806 0 0.04065723717212677
0.79870545864105225 0 0.024955824017524719
0.026382716372609138 0.035752717405557632 0.081913605332374573
0.038034610450267792 0.043516781181097031 0.090739384293556213
0.061484258621931076 0.048082884401082993 0.096021257340908051
0.10331796109676361 0.047379497438669205 0.10109013319015503
0.15340231359004974 0.047706019133329391 0.10364314168691635
0.21228201687335968 0.048354204744100571 0.10564757883548737
0.28080445528030396 0.046445343643426895 0.10482361912727356
0.35925599932670593 0.039766889065504074 0.098694324493408203
0.44850853085517883 0.029378419741988182 0.089308016002178192
0.54665982723236084 0.017503147944808006 0.082291290163993835
0.65868782997131348 0.0079183988273143768 0.07407677173614502
0.78437000513076782 0.0038150264881551266 0.060252618044614792
0.90969568490982056 0.0029926523566246033 0.043375801295042038
0.053439375013113022 0.066041536629199982 0.11851091682910919
0.064434543251991272 0.077535532414913177 0.12989655137062073
0.08106791228055954 0.089589200913906097 0.12841403484344482
0.12000247836112976 0.09338708221912384 0.12557458877563477
0.17777365446090698 0.092865169048309326 0.12541492283344269
0.2463085800409317 0.091410569846630096 0.12599727511405945
0.32503560185432434 0.088314875960350037 0.12378845363855362
0.41481861472129822 0.080979607999324799 0.1168285608291626
0.51540899276733398 0.069409310817718506 0.1072244718670845
0.62656575441360474 0.054965268820524216 0.098526045680046082
0.75120800733566284 0.040826939046382904 0.088051721453666687
0.8854060173034668 0.031113030388951302 0.073650002479553223
0.98784685134887695 0.028186125680804253 0.057189837098121643
0.089583121240139008 0.10504923760890961 0.16319805383682251
0.10121215879917145 0.11842545121908188 0.17778670787811279
0.11193998903036118 0.13507856428623199 0.17729218304157257
0.13457189500331879 0.1483578234910965 0.1615014374256134
0.18758517503738403 0.15108957886695862 0.1497344970703125
0.26124098896980286 0.149004727602005 0.14198407530784607
0.34943410754203796 0.14491802453994751 0.13541644811630249
0.45037627220153809 0.13626560568809509 0.12730948626995087
0.56161761283874512 0.12351810187101364 0.11748764663934708
0.68539154529571533 0.10687547922134399 0.10717647522687912
0.82148730754852295 0.090151198208332062 0.09500575065612793
0.95787477493286133 0.076645903289318085 0.080419562757015228
0.99999946355819702 0.072213403880596161 0.064964577555656433
0.13109149038791656 0.15039350092411041 0.21140024065971375
0.14369769394397736 0.16455751657485962 0.2267533540725708
0.15409481525421143 0.18090313673019409 0.23173685371875763
0.16505664587020874 0.2006450742483139 0.21402694284915924
0.19831421971321106 0.21420076489448547 0.18613263964653015
0.26255074143409729 0.21829806268215179 0.16151392459869385
0.35226619243621826 0.21442025899887085 0.14561760425567627
0.45967856049537659 0.20571206510066986 0.13377317786216736
0.57887232303619385 0.19319666922092438 0.12256599962711334
0.71012532711029053 0.17781326174736023 0.11029104888439178
0.85230147838592529 0.15938138961791992 0.096480384469032288
0.9809035062789917 0.14417345821857452 0.081637412309646606
1 0.13636110723018646 0.06736735999584198
0.17706725001335144 0.19940051436424255 0.26292204856872559
0.19101408123970032 0.21402992308139801 0.27916994690895081
0.20180425047874451 0.23097048699855804 0.28710117936134338
0.20690271258354187 0.25424262881278992 0.27311307191848755
0.22225528955459595 0.27694463729858398 0.23664559423923492
0.26660460233688354 0.29114654660224915 0.19387063384056091
0.34592628479003906 0.29213249683380127 0.16300748288631439
0.44965636730194092 0.28639453649520874 0.14241409301757812
0.56944924592971802 0.27662485837936401 0.1267717182636261
0.70193618535995483 0.26329532265663147 0.11158837378025055
0.84540396928787231 0.24685764312744141 0.095723517239093781
0.97787010669708252 0.23062589764595032 0.080386608839035034
1 0.21999421715736389 0.066690884530544281
0.2286342978477478 0.25289452075958252 0.3158491849899292
0.24416022002696991 0.26866286993026733 0.33160144090652466
0.25561478734016418 0.28704378008842468 0.34036034345626831
0.25987595319747925 0.31056326627731323 0.33001387119293213
0.26417595148086548 0.33795949816703796 0.29311764240264893
0.28819024562835693 0.36099860072135925 0.23973256349563599
0.34642946720123291 0.37197935581207275 0.19264757633209229
0.43637281656265259 0.37296873331069946 0.15962493419647217
0.54884588718414307 0.36769995093345642 0.13574749231338501
0.67610776424407959 0.35822975635528564 0.11541765928268433
0.81677258014678955 0.34448704123497009 0.096786722540855408
0.95976549386978149 0.32817399501800537 0.080440357327461243
1 0.31564277410507202 0.06690032035112381
0.28444761037826538 0.31013932824134827 0.36756828427314758
0.30270415544509888 0.32693800330162048 0.38356077671051025
0.31662467122077942 0.34563249349594116 0.3934844434261322
0.31992870569229126 0.37007120251655579 0.38517415523529053
0.3202655017375946 0.39876928925514221 0.35164692997932434
0.32974544167518616 0.4272860586643219 0.2971547544002533
0.36500805616378784 0.44855928421020508 0.23953700065612793
0.43401369452476501 0.45905265212059021 0.19182707369327545
0.53178852796554565 0.46066075563430786 0.15448562800884247
0.64910554885864258 0.45609909296035767 0.12566949427127838
0.78342217206954956 0.44543194770812988 0.10302734375
0.92919784784317017 0.43112528324127197 0.08527190238237381
0.99993664026260376 0.41831520199775696 0.070833630859851837
0.34418559074401855 0.37012282013893127 0.41921350359916687
0.36358875036239624 0.38758030533790588 0.43497961759567261
0.37932735681533813 0.40759271383285522 0.44622743129730225
0.38521799445152283 0.43197613954544067 0.4415537416934967
0.38418322801589966 0.46121695637702942 0.41335940361022949
0.38579800724983215 0.49260041117668152 0.3630312979221344
0.40356984734535217 0.52122873067855835 0.30118229985237122
0.4498894214630127 0.54186218976974487 0.23998548090457916
0.52708488702774048 0.5523841381072998 0.18720726668834686
0.63000905513763428 0.55419981479644775 0.1465056836605072
0.75510036945343018 0.54787153005599976 0.11740972846746445
0.89514291286468506 0.53645604848861694 0.096705101430416107
0.99590277671813965 0.52537351846694946 0.079867705702781677
0.40873274207115173 0.43384328484535217 0.47180259227752686
0.42785051465034485 0.4524940550327301 0.48702362179756165
0.44487127661705017 0.47300252318382263 0.49964070320129395
0.45352128148078918 0.49705266952514648 0.49970322847366333
0.45348936319351196 0.5259709358215332 0.47779139876365662
0.45168983936309814 0.55875974893569946 0.43349528312683105
0.45878750085830688 0.59183037281036377 0.37245950102806091
0.48631316423416138 0.62011551856994629 0.30420166254043579
0.54191011190414429 0.63971090316772461 0.23866656422615051
0.62669211626052856 0.64943623542785645 0.18410277366638184
0.73803210258483887 0.64942389726638794 0.14423391222953796
0.86745047569274902 0.64305305480957031 0.11552442610263824
0.98452544212341309 0.63510596752166748 0.092604167759418488
0.47789755463600159 0.50021845102310181 0.52675801515579224
0.49655133485794067 0.52012795209884644 0.5419427752494812
0.51440787315368652 0.54108494520187378 0.55603420734405518
0.52516025304794312 0.56504744291305542 0.5599827766418457
0.52672141790390015 0.59393858909606934 0.54339843988418579
0.52430880069732666 0.62724512815475464 0.50558900833129883
0.52495706081390381 0.66251218318939209 0.44921529293060303
0.53935056924819946 0.69584411382675171 0.38006782531738281
0.57643967866897583 0.7230536937713623 0.30731028318405151
0.64185541868209839 0.74079376459121704 0.24029526114463806
0.73484808206558228 0.74901747703552246 0.18485622107982635
0.8491634726524353 0.74971276521682739 0.14189717173576355
0.96863669157028198 0.74671047925949097 0.10881646722555161
0.54922860860824585 0.56846809387207031 0.58279073238372803
0.56872320175170898 0.58907854557037354 0.59874755144119263
0.5879751443862915 0.61061835289001465 0.61421066522598267
0.60061806440353394 0.6354677677154541 0.61996644735336304
0.60350024700164795 0.66465115547180176 0.60826319456100464
0.60056746006011963 0.6981465220451355 0.57650411128997803
0.59750336408615112 0.73466801643371582 0.52613794803619385
0.6025119423866272 0.77119684219360352 0.46009951829910278
0.62539184093475342 0.80369943380355835 0.38399204611778259
0.67287337779998779 0.82913213968276978 0.30732288956642151
0.74648535251617432 0.84600365161895752 0.23667925596237183
0.8426547646522522 0.85485368967056274 0.17745096981525421
0.95342791080474854 0.85778176784515381 0.13187490403652191
0.62198454141616821 0.63947600126266479 0.63931840658187866
0.64249879121780396 0.66017931699752808 0.65561777353286743
0.66312569379806519 0.68217873573303223 0.67186456918716431
0.67662769556045532 0.70792406797409058 0.67878729104995728
0.67975807189941406 0.7379186749458313 0.66923272609710693
0.67679452896118164 0.77202314138412476 0.64192193746566772
0.67154300212860107 0.80948716402053833 0.59713518619537354
0.67082726955413818 0.84772616624832153 0.53555351495742798
0.68376719951629639 0.88397908210754395 0.46035155653953552
0.71723973751068115 0.91500592231750488 0.37739437818527222
0.77373975515365601 0.93908524513244629 0.2960454523563385
0.85219037532806396 0.95529383420944214 0.22426222264766693
0.94898825883865356 0.9633028507232666 0.16768652200698853
0.0043732887133955956 0.0094082104042172432 0.053360495716333389
0.0089776730164885521 0.01776619628071785 0.062852464616298676
0.020614100620150566 0.024634268134832382 0.072961889207363129
0.048448435962200165 0.026560524478554726 0.083840854465961456
0.089175984263420105 0.026453174650669098 0.093640841543674469
0.13892440497875214 0.02612101286649704 0.10238689184188843
0.19932614266872406 0.023294545710086823 0.10693637281656265
0.27004340291023254 0.017010752111673355 0.10582124441862106
0.3507114052772522 0.008423524908721447 0.10131224244832993
0.44150683283805847 0.0020340564660727978 0.096051834523677826
0.54543459415435791 6.4625462982803583e-05 0.088368676602840424
0.66200929880142212 0 0.076947294175624847
0.78126358985900879 0 0.063388347625732422
0.028581207618117332 0.037402551621198654 0.08541388064622879
0.037045333534479141 0.046473994851112366 0.096481412649154663
0.053064938634634018 0.053755830973386765 0.10764282941818237
0.088545873761177063 0.055592123419046402 0.11968041211366653
0.13744962215423584 0.056069362908601761 0.12778301537036896
0.19658893346786499 0.056000128388404846 0.13434755802154541
0.26651424169540405 0.053329393267631531 0.13702785968780518
0.34713450074195862 0.046801146119832993 0.13340649008750916
0.4377191960811615 0.035921432077884674 0.12652084231376648
0.53802341222763062 0.023049447685480118 0.11929551512002945
0.65147703886032104 0.011726289987564087 0.11020642518997192
0.77845197916030884 0.0065117483027279377 0.096744716167449951
0.90420043468475342 0.0058321184478700161 0.082121588289737701
0.058561615645885468 0.070390813052654266 0.12378279864788055
0.068104222416877747 0.081139147281646729 0.1375734955072403
0.082004129886627197 0.092478267848491669 0.14577563107013702
0.12066586315631866 0.095920369029045105 0.15399558842182159
0.17724542319774628 0.095802620053291321 0.15731818974018097
0.24755337834358215 0.094715982675552368 0.16087591648101807
0.3269677460193634 0.091970555484294891 0.16005794703960419
0.41785266995429993 0.08519454300403595 0.15352028608322144
0.51892769336700439 0.073269650340080261 0.1452973335981369
0.63018858432769775 0.058148134499788284 0.13643950223922729
0.75541692972183228 0.043248269706964493 0.1249835416674614
0.8906170129776001 0.033268529921770096 0.11060825735330582
0.98916864395141602 0.030365319922566414 0.096342675387859344
0.094671927392482758 0.11092659085988998 0.16867382824420929
0.10631139576435089 0.12297090888023376 0.18555286526679993
0.11789076775312424 0.13712421059608459 0.19455808401107788
0.13864922523498535 0.1504586935043335 0.18918244540691376
0.19191975891590118 0.15281692147254944 0.1801399290561676
0.27121627330780029 0.15045388042926788 0.17663371562957764
0.36154690384864807 0.14619289338588715 0.17170806229114532
0.46427217125892639 0.13791069388389587 0.16401030123233795
0.57603031396865845 0.12544581294059753 0.15501520037651062
0.69844931364059448 0.1092783585190773 0.14493066072463989
0.83410292863845825 0.091527484357357025 0.13189214468002319
0.96663880348205566 0.077495291829109192 0.11740924417972565
1 0.072138287127017975 0.10450677573680878
0.13591060042381287 0.15667924284934998 0.21677851676940918
0.14920033514499664 0.17043361067771912 0.23402278125286102
0.16387143731117249 0.18384736776351929 0.2480611652135849
0.17386268079280853 0.20272481441497803 0.24277430772781372
0.20166736841201782 0.21785248816013336 0.21538472175598145
0.27015775442123413 0.22099322080612183 0.19279012084007263
0.36608630418777466 0.21524237096309662 0.17997792363166809
0.47645643353462219 0.20650945603847504 0.16916118562221527
0.59624719619750977 0.19477792084217072 0.1583801805973053
