assets/lut/alexjordan harsh day.cube
# Created by: G'MIC (https://gmic.eu)
TITLE "harsh_day"
# LUT size
LUT_3D_SIZE 7
# Data domain
DOMAIN_MIN 0.0 0.0 0.0
DOMAIN_MAX 1.0 1.0 1.0
# LUT data points
0.0070012412033975124 0.0047255121171474457 0.0056978710927069187
0.019466176629066467 0.0023151920177042484 0.0037426368799060583
0.036935754120349884 0.0021675857715308666 0.0020635416731238365
0.073205314576625824 0.00073529413202777505 0.00040624281973578036
0.12246892601251602 0.00073529413202777505 0.00013786765339318663
0.18179453909397125 0.0016650629695504904 0.00079036038368940353
0.25567144155502319 0.007579803466796875 0.0070617226883769035
0.011637848801910877 0.035832587629556656 0.0084444386884570122
0.045056857168674469 0.03915119543671608 0.0078781275078654289
0.084585048258304596 0.043538786470890045 0.0061949486844241619
0.13897013664245605 0.047454401850700378 0.0042705908417701721
0.20708858966827393 0.050200637429952621 0.0022671569604426622
0.28807678818702698 0.050566159188747406 0.0037668414879590273
0.38323000073432922 0.056926891207695007 0.0085941692814230919
0.010553217492997646 0.089218616485595703 0.0077205882407724857
0.066437393426895142 0.10076503455638885 0.0076854033395648003
0.13065654039382935 0.11215413361787796 0.0071910782717168331
0.20611058175563812 0.12348692864179611 0.0051056207157671452
0.2943025529384613 0.13167047500610352 0.0045955884270370007
0.39701512455940247 0.13518731296062469 0.0053927404806017876
0.51067280769348145 0.14686158299446106 0.010284334421157837
0.012134253047406673 0.18360826373100281 0.0087597565725445747
0.086748741567134857 0.19875721633434296 0.0069977403618395329
0.1722586452960968 0.21810616552829742 0.0061274510808289051
0.27019059658050537 0.23607657849788666 0.006359743420034647
0.38077697157859802 0.24950490891933441 0.006645621731877327
0.50454866886138916 0.25848710536956787 0.0083208568394184113
0.63621038198471069 0.27509850263595581 0.013116545043885708
0.018140800297260284 0.31734177470207214 0.013656376861035824
0.1088639497756958 0.3374561071395874 0.0089539922773838043
0.21308337152004242 0.36378011107444763 0.006929060909897089
0.3330681324005127 0.38739153742790222 0.0082204034551978111
0.4663851261138916 0.40563130378723145 0.0094674797728657722
0.61174416542053223 0.41817116737365723 0.012115508317947388
0.76113992929458618 0.43731474876403809 0.015621723607182503
0.035034928470849991 0.49723699688911438 0.023380085825920105
0.13802611827850342 0.51859378814697266 0.013854965567588806
0.25829339027404785 0.54799818992614746 0.0092837763950228691
0.39807248115539551 0.57529294490814209 0.0095060607418417931
0.55304700136184692 0.59768867492675781 0.01194655429571867
0.71817213296890259 0.61600232124328613 0.012101566419005394
0.88250899314880371 0.64003115892410278 0.015074008144438267
0.066945306956768036 0.70857131481170654 0.041568007320165634
0.18066835403442383 0.73025017976760864 0.028236448764801025
0.31247016787528992 0.76070874929428101 0.018234089016914368
0.46908089518547058 0.78967589139938354 0.017334192991256714
0.6411934494972229 0.81592899560928345 0.018080377951264381
0.82017838954925537 0.84207451343536377 0.016883594915270805
0.98595333099365234 0.87346822023391724 0.019309263676404953
0.00072248867945745587 0.0013144698459655046 0.011959749273955822
0.015842108055949211 0.00079921650467440486 0.012447028420865536
0.042444717139005661 0.00073529413202777505 0.01542949303984642
0.082277767360210419 0.0010135426418855786 0.018140606582164764
0.13547177612781525 0.0014175415271893144 0.019804516807198524
0.20062647759914398 0.0029925776179879904 0.023324510082602501
0.27771639823913574 0.0077114477753639221 0.034445278346538544
0.0077957152388989925 0.036004114896059036 0.027881503105163574
0.044349789619445801 0.038731951266527176 0.028119718655943871
0.090263500809669495 0.041779447346925735 0.03214099258184433
0.14837527275085449 0.048925124108791351 0.035849180072546005
0.21998666226863861 0.053585831075906754 0.037198774516582489
0.30404531955718994 0.057083923369646072 0.04060789942741394
0.39855283498764038 0.065566271543502808 0.050302661955356598
0.010190133936703205 0.098197773098945618 0.041679754853248596
0.067647285759449005 0.10704623907804489 0.043366599828004837
0.13593469560146332 0.11544488370418549 0.047715041786432266
0.21492452919483185 0.12704646587371826 0.051081113517284393
0.30550670623779297 0.13788972795009613 0.051992319524288177
0.40997448563575745 0.14339955151081085 0.055940486490726471
0.52469927072525024 0.1545167863368988 0.065273657441139221
0.010349169373512268 0.19303630292415619 0.057006806135177612
0.087060935795307159 0.20765469968318939 0.058216273784637451
0.17692217230796814 0.22457742691040039 0.062087878584861755
0.27921625971794128 0.2417236715555191 0.066274113953113556
0.39205920696258545 0.25728890299797058 0.06824570894241333
0.5177428126335144 0.26732525229454041 0.072291925549507141
0.65136682987213135 0.28237849473953247 0.080421492457389832
0.013712385669350624 0.32846960425376892 0.074091129004955292
0.10820562392473221 0.34764024615287781 0.073105834424495697
0.21811917424201965 0.37221431732177734 0.075801447033882141
0.34290233254432678 0.39571753144264221 0.081218376755714417
0.47871151566505432 0.4153614342212677 0.086253955960273743
0.62579059600830078 0.42997154593467712 0.089212484657764435
0.77703428268432617 0.44888532161712646 0.094893485307693481
0.025240654125809669 0.50703102350234985 0.094611361622810364
0.1352536678314209 0.52935421466827393 0.090532340109348297
0.26314392685890198 0.55897438526153564 0.090946316719055176
0.40792924165725708 0.58741110563278198 0.095395557582378387
0.56534099578857422 0.61133724451065063 0.10040359199047089
0.73170417547225952 0.63134264945983887 0.10236147791147232
0.89772528409957886 0.6547965407371521 0.10711634159088135
0.053142532706260681 0.71711677312850952 0.12189710885286331
0.17502368986606598 0.74140650033950806 0.11532086879014969
0.31726148724555969 0.77342802286148071 0.1126348152756691
0.47852411866188049 0.80495947599411011 0.11483001708984375
0.65261936187744141 0.83268719911575317 0.11752229928970337
0.83261525630950928 0.85950398445129395 0.11880674213171005
0.99204820394515991 0.88856488466262817 0.12465094774961472
0.00067026476608589292 0.00073529413202777505 0.017964247614145279
0.01992848701775074 0.00074965535895898938 0.02357064001262188
0.049932710826396942 0.0022539326455444098 0.03095225989818573
0.092483848333358765 0.0026430017314851284 0.03895936906337738
0.14911171793937683 0.0022671569604426622 0.047262407839298248
0.21708819270133972 0.0035794128198176622 0.055306948721408844
0.29748713970184326 0.0097969807684421539 0.067071609199047089
0.010668676346540451 0.036586344242095947 0.048348624259233475
0.049068614840507507 0.041506495326757431 0.053975619375705719
0.097156211733818054 0.046211916953325272 0.063138864934444427
0.15829341113567352 0.053554311394691467 0.071337789297103882
0.23375895619392395 0.057847730815410614 0.078359596431255341
0.31971752643585205 0.063405163586139679 0.08550543338060379
0.41555282473564148 0.074844539165496826 0.096320554614067078
0.013568039983510971 0.1000218391418457 0.078024290502071381
0.071852542459964752 0.11239873617887497 0.084337703883647919
0.1407206654548645 0.1238224133849144 0.09428831934928894
0.22379623353481293 0.13451749086380005 0.10228150337934494
0.31922003626823425 0.14445401728153229 0.10741288214921951
0.4254881739616394 0.15303140878677368 0.11416555941104889
0.54103982448577881 0.16659876704216003 0.12482477724552155
0.012311868369579315 0.2034907341003418 0.10811249911785126
0.091298513114452362 0.21873177587985992 0.1139380931854248
0.18405035138130188 0.23509564995765686 0.12311507761478424
0.29067221283912659 0.25057128071784973 0.13190561532974243
0.4075775146484375 0.2661336362361908 0.13755883276462555
0.53469663858413696 0.27869775891304016 0.1437113881111145
0.66929751634597778 0.29503935575485229 0.15364240109920502
0.013015582226216793 0.34511172771453857 0.13927514851093292
0.11194664239883423 0.36292311549186707 0.14366273581981659
0.22788785398006439 0.38495752215385437 0.15153738856315613
0.3571992814540863 0.40714719891548157 0.16075335443019867
0.49607357382774353 0.42743688821792603 0.16766756772994995
0.6441306471824646 0.44437110424041748 0.17334739863872528
0.79636532068252563 0.46410515904426575 0.18163715302944183
0.020203894004225731 0.52505064010620117 0.17263557016849518
0.13760361075401306 0.54662996530532837 0.17513434588909149
0.27393832802772522 0.57421594858169556 0.1816130131483078
0.42371553182601929 0.6026119589805603 0.18973386287689209
0.58297932147979736 0.62728744745254517 0.19631876051425934
0.74970114231109619 0.64946442842483521 0.20135670900344849
0.91650503873825073 0.67324376106262207 0.20915228128433228
0.043522119522094727 0.73463958501815796 0.21040728688240051
0.17483304440975189 0.75964152812957764 0.21160814166069031
0.32701566815376282 0.79174786806106567 0.21624767780303955
0.49375179409980774 0.82452768087387085 0.22275692224502563
0.66896581649780273 0.85256880521774292 0.22763355076313019
0.84895569086074829 0.88079673051834106 0.23194822669029236
0.9969780445098877 0.90983021259307861 0.24034596979618073
0.0019736795220524073 0.00073529413202777505 0.02940744161605835
0.025893267244100571 0.0015364852733910084 0.04085763543844223
0.056383933871984482 0.0026126636657863855 0.052958603948354721
0.09978339821100235 0.0032976637594401836 0.064562417566776276
0.15714357793331146 0.0023131128400564194 0.07696513831615448
0.2267812043428421 0.0041689407080411911 0.089571945369243622
0.31074947118759155 0.011872115544974804 0.10413148254156113
0.013142095878720284 0.039718642830848694 0.074367240071296692
0.054320421069860458 0.045467808842658997 0.086133681237697601
0.10305860638618469 0.050281152129173279 0.099588759243488312
0.16545642912387848 0.056497134268283844 0.11091765016317368
0.24187546968460083 0.061116684228181839 0.12174274027347565
0.32976457476615906 0.067319013178348541 0.13303458690643311
0.42918768525123596 0.080465801060199738 0.14651720225811005
0.015096193179488182 0.1064823642373085 0.11915373057126999
0.075876347720623016 0.11978649348020554 0.12961550056934357
0.14755535125732422 0.12839090824127197 0.14400258660316467
0.23238314688205719 0.13856004178524017 0.1562030017375946
0.32965156435966492 0.14990894496440887 0.16573633253574371
0.43834593892097473 0.15975835919380188 0.17615211009979248
0.55647510290145874 0.17508390545845032 0.18929900228977203
0.013641851022839546 0.21428658068180084 0.16367152333259583
0.096751630306243896 0.22966085374355316 0.17357636988162994
0.19245904684066772 0.24362142384052277 0.18682244420051575
0.30037963390350342 0.25971832871437073 0.1990303099155426
0.41930928826332092 0.27610298991203308 0.20879299938678741
0.54932254552841187 0.28809857368469238 0.21927733719348907
0.68706357479095459 0.3051859438419342 0.23186860978603363
0.01411336287856102 0.36009085178375244 0.20957985520362854
0.11825022846460342 0.37680789828300476 0.21866905689239502
0.23871247470378876 0.3960157036781311 0.23070783913135529
0.3693680465221405 0.41894078254699707 0.24225768446922302
0.50922507047653198 0.43997526168823242 0.25244599580764771
0.66053855419158936 0.45563274621963501 0.26262181997299194
0.81714731454849243 0.47451174259185791 0.27458465099334717
0.018886132165789604 0.54192924499511719 0.25683611631393433
0.14264929294586182 0.56213581562042236 0.26517045497894287
0.28555604815483093 0.58657628297805786 0.27645644545555115
0.43801906704902649 0.61456704139709473 0.287687748670578
0.59817290306091309 0.64068746566772461 0.29715311527252197
0.76808840036392212 0.66269552707672119 0.30614364147186279
0.93906891345977783 0.68541496992111206 0.31713718175888062
0.038526002317667007 0.75201505422592163 0.30621424317359924
0.17734885215759277 0.7767450213432312 0.31382757425308228
0.33664867281913757 0.80767077207565308 0.32432153820991516
0.50723457336425781 0.84007853269577026 0.33465865254402161
0.68510746955871582 0.86939144134521484 0.34304070472717285
0.86832469701766968 0.89720970392227173 0.35118642449378967
0.99963897466659546 0.92440247535705566 0.36148059368133545
0.0023855769541114569 0.00064427993493154645 0.043687108904123306
0.029126979410648346 0.0011819577775895596 0.060889899730682373
0.060544945299625397 0.0022671569604426622 0.078674852848052979
0.10472126305103302 0.0022671569604426622 0.093813516199588776
0.16282184422016144 0.0016662298003211617 0.10923096537590027
0.23433579504489899 0.0031397202983498573 0.12531144917011261
0.32188767194747925 0.011183196678757668 0.14363181591033936
0.012870220467448235 0.040968995541334152 0.1035182848572731
0.056024424731731415 0.048176456242799759 0.12089161574840546
0.10598240047693253 0.054781507700681686 0.13883557915687561
0.17003829777240753 0.058507464826107025 0.15310633182525635
0.24780696630477905 0.061321813613176346 0.16719262301921844
0.33825486898422241 0.067450717091560364 0.18230073153972626
0.44186270236968994 0.081223443150520325 0.19975744187831879
0.016302445903420448 0.11262016743421555 0.16393914818763733
0.079707503318786621 0.12618385255336761 0.17894367873668671
0.15276330709457397 0.1364162415266037 0.19648450613021851
0.23880802094936371 0.14489747583866119 0.21244683861732483
0.33767843246459961 0.15412427484989166 0.22598262131214142
0.44936960935592651 0.16309459507465363 0.24043956398963928
0.57137840986251831 0.17901097238063812 0.25731691718101501
0.016227303072810173 0.22465322911739349 0.22305691242218018
0.10323110967874527 0.2408500611782074 0.23681977391242981
0.2003864049911499 0.25446143746376038 0.25369572639465332
0.30896469950675964 0.268329918384552 0.27014634013175964
0.42834895849227905 0.28309398889541626 0.2834012508392334
0.56108379364013672 0.29570087790489197 0.29773721098899841
0.7027822732925415 0.31309065222740173 0.31419828534126282
0.01669655553996563 0.37258720397949219 0.2841627299785614
0.12520262598991394 0.38988307118415833 0.29719281196594238
0.24792307615280151 0.40786927938461304 0.31277585029602051
0.37900504469871521 0.42837440967559814 0.32786998152732849
0.51859396696090698 0.44778785109519958 0.34163165092468262
0.67126339673995972 0.46556782722473145 0.35566443204879761
0.83358108997344971 0.4855135977268219 0.37110027670860291
0.020645994693040848 0.55510824918746948 0.34683734178543091
0.14834012091159821 0.57594817876815796 0.35951262712478638
0.29436898231506348 0.59925645589828491 0.37435102462768555
0.44795903563499451 0.62561941146850586 0.38872182369232178
0.60812938213348389 0.65163463354110718 0.40197908878326416
0.78114640712738037 0.67479538917541504 0.41467168927192688
0.95786511898040771 0.69791793823242188 0.42842870950698853
0.039406973868608475 0.76516437530517578 0.40897032618522644
0.18161730468273163 0.79189151525497437 0.42124119400978088
0.34425908327102661 0.82353603839874268 0.43524402379989624
0.51726913452148438 0.85486471652984619 0.44909936189651489
0.69789576530456543 0.88449001312255859 0.46200251579284668
0.88676786422729492 0.91240006685256958 0.47400882840156555
1 0.93927216529846191 0.48598471283912659
0.0055185803212225437 0.0013726177858188748 0.060683906078338623
0.033617909997701645 0.0022691914346069098 0.081663988530635834
0.065073706209659576 0.0031384038738906384 0.10480155050754547
0.11135046184062958 0.002157488139346242 0.12601958215236664
0.17153117060661316 0.0008855483029037714 0.14579784870147705
0.24546356499195099 0.0016908234683796763 0.1650509238243103
0.33618810772895813 0.0082526709884405136 0.18642453849315643
0.015261377207934856 0.04532979428768158 0.13481682538986206
0.058965213596820831 0.050340555608272552 0.15640601515769958
0.10996712744235992 0.057898964732885361 0.1779378205537796
0.1764904260635376 0.061280254274606705 0.19741745293140411
0.25691911578178406 0.061534956097602844 0.21615786850452423
0.35069414973258972 0.065723136067390442 0.23545728623867035
0.45802733302116394 0.079797945916652679 0.25648811459541321
0.018950235098600388 0.11821920424699783 0.21086813509464264
0.083941273391246796 0.12900674343109131 0.23094896972179413
0.15828397870063782 0.14192825555801392 0.25132471323013306
0.24638581275939941 0.15122403204441071 0.27067086100578308
0.34796786308288574 0.15810662508010864 0.28901159763336182
0.46351358294487 0.16497640311717987 0.30862468481063843
0.5896608829498291 0.18049930036067963 0.32952114939689636
0.02173798531293869 0.2313321977853775 0.28508907556533813
0.1105014905333519 0.24863405525684357 0.30272889137268066
0.20828939974308014 0.26417729258537292 0.32297596335411072
0.31766089797019958 0.27786508202552795 0.34287983179092407
0.43921926617622375 0.2906530499458313 0.36065575480461121
0.57384377717971802 0.30454432964324951 0.37898752093315125
0.71953111886978149 0.3216063380241394 0.39989271759986877
0.021013716235756874 0.38294282555580139 0.36132460832595825
0.13275282084941864 0.40201398730278015 0.37775513529777527
0.25555011630058289 0.42137876152992249 0.39738228917121887
0.3874819278717041 0.44024527072906494 0.41614457964897156
0.52892601490020752 0.45734849572181702 0.433514803647995
0.68282854557037354 0.47833091020584106 0.45053684711456299
0.84766477346420288 0.49971035122871399 0.46981146931648254
0.023104170337319374 0.56756460666656494 0.43940913677215576
0.15378350019454956 0.59009772539138794 0.45576673746109009
0.30065107345581055 0.61598318815231323 0.47405189275741577
0.45582586526870728 0.64064580202102661 0.49205401539802551
0.61806845664978027 0.66517597436904907 0.50819915533065796
0.7932201623916626 0.68898379802703857 0.52458280324935913
0.97062170505523682 0.71277976036071777 0.54186511039733887
0.041062522679567337 0.77889752388000488 0.51372402906417847
0.18656642735004425 0.80813205242156982 0.52967923879623413
0.35172551870346069 0.84340304136276245 0.54673200845718384
0.52645313739776611 0.87299436330795288 0.56431096792221069
0.70905452966690063 0.90127807855606079 0.58180302381515503
0.9006727933883667 0.9295583963394165 0.59953767061233521
1 0.95526635646820068 0.61371004581451416
0.0099652009084820747 0.0080381808802485466 0.08917776495218277
0.039098642766475677 0.0069197113625705242 0.11264115571975708
0.072498321533203125 0.007578232791274786 0.13937307894229889
0.12355203181505203 0.004388472530990839 0.16649015247821808
0.18779554963111877 0.002441211836412549 0.19106097519397736
0.26437881588935852 0.0032765108626335859 0.21348161995410919
0.35672679543495178 0.012914021499454975 0.23697593808174133
0.01770465262234211 0.056565631181001663 0.17524269223213196
0.063198298215866089 0.057075217366218567 0.19941237568855286
0.11788123846054077 0.064847446978092194 0.22367346286773682
0.18847750127315521 0.06798408180475235 0.24773816764354706
0.27274391055107117 0.068382114171981812 0.2714591920375824
0.36999955773353577 0.071315214037895203 0.29498207569122314
0.4800475537776947 0.087518967688083649 0.3194444477558136
0.02240264043211937 0.12886391580104828 0.26452383399009705
0.088737979531288147 0.13507935404777527 0.2882540225982666
0.16657295823097229 0.14983977377414703 0.31082496047019958
0.25827205181121826 0.16104909777641296 0.33332070708274841
0.36372622847557068 0.16735781729221344 0.35638540983200073
0.48343589901924133 0.17276100814342499 0.38098785281181335
0.61249744892120361 0.18920941650867462 0.40614476799964905
0.028654614463448524 0.24084460735321045 0.35123306512832642
0.11814525723457336 0.2561933696269989 0.37273767590522766
0.21774475276470184 0.27410721778869629 0.39598736166954041
0.32953804731369019 0.28966370224952698 0.41890791058540344
0.45456907153129578 0.30303147435188293 0.44091892242431641
0.59303367137908936 0.31568536162376404 0.46397015452384949
0.73923557996749878 0.3361470103263855 0.4877135157585144
0.029789330437779427 0.39785641431808472 0.44057193398475647
0.14219510555267334 0.4147455096244812 0.46068677306175232
0.26510268449783325 0.43281251192092896 0.48458820581436157
0.39869078993797302 0.45330184698104858 0.50654095411300659
0.54388123750686646 0.47392693161964417 0.52640390396118164
0.70129084587097168 0.49313017725944519 0.54699933528900146
0.86404037475585938 0.51794880628585815 0.56868577003479004
0.031987268477678299 0.58558845520019531 0.53057599067687988
0.16392238438129425 0.60582399368286133 0.55065262317657471
0.31083211302757263 0.62977820634841919 0.57308745384216309
0.46736425161361694 0.65553134679794312 0.59394890069961548
0.6331368088722229 0.68156152963638306 0.61315953731536865
0.81094944477081299 0.70287561416625977 0.63352119922637939
0.98115164041519165 0.72934597730636597 0.65314400196075439
0.049815621227025986 0.79811471700668335 0.61514186859130859
0.19800888001918793 0.82538259029388428 0.63364952802658081
0.3636704683303833 0.85962802171707153 0.65377533435821533
0.53881824016571045 0.88915419578552246 0.67499583959579468
0.72215765714645386 0.9180445671081543 0.69720160961151123
0.91298693418502808 0.94734865427017212 0.72178453207015991
1 0.97043603658676147 0.73734474182128906
