assets/lut/alexjordan film 9879.cube
# Created by: G'MIC (https://gmic.eu)
TITLE "film_9879"
# LUT size
LUT_3D_SIZE 13
# Data domain
DOMAIN_MIN 0.0 0.0 0.0
DOMAIN_MAX 1.0 1.0 1.0
# LUT data points
0.026714758947491646 0.018905684351921082 0.019125232473015785
0.081057004630565643 0.023815752938389778 0.025899505242705345
0.13181692361831665 0.030230429023504257 0.033412393182516098
0.17575781047344208 0.038361553102731705 0.040932673960924149
0.21556264162063599 0.046969141811132431 0.048714522272348404
0.25479531288146973 0.054690118879079819 0.05635935440659523
0.2957664430141449 0.060352489352226257 0.06339765340089798
0.33849126100540161 0.064835488796234131 0.06948438286781311
0.3817436695098877 0.06957448273897171 0.073994025588035583
0.42422366142272949 0.075431376695632935 0.077488318085670471
0.46615809202194214 0.082131221890449524 0.083153761923313141
0.50745111703872681 0.08953443169593811 0.091315999627113342
0.54733240604400635 0.097318224608898163 0.10051439702510834
0.053406629711389542 0.075546979904174805 0.047114413231611252
0.1073966845870018 0.080490946769714355 0.054640334099531174
0.15793372690677643 0.085933029651641846 0.062307827174663544
0.20075172185897827 0.094456680119037628 0.069238461554050446
0.23937158286571503 0.10387551039457321 0.076165154576301575
0.27808409929275513 0.11182849109172821 0.083221986889839172
0.31949260830879211 0.11683686077594757 0.090100578963756561
0.36358973383903503 0.12014000117778778 0.096418730914592743
0.40790322422981262 0.12408436834812164 0.10046689212322235
0.4507746696472168 0.12976078689098358 0.10294398665428162
0.49318519234657288 0.13606993854045868 0.10795669257640839
0.53494715690612793 0.14290721714496613 0.11655556410551071
0.57526201009750366 0.151095911860466 0.12646879255771637
0.081155769526958466 0.13125975430011749 0.076943479478359222
0.1335473358631134 0.13500894606113434 0.083666794002056122
0.18268197774887085 0.13973619043827057 0.090839490294456482
0.22460167109966278 0.14852340519428253 0.09710395336151123
0.26233118772506714 0.15827359259128571 0.10345318168401718
0.30132585763931274 0.16638825833797455 0.1100727915763855
0.34409138560295105 0.17057548463344574 0.11675799638032913
0.38963603973388672 0.17293792963027954 0.12259890884160995
0.43490371108055115 0.17711937427520752 0.12658989429473877
0.47874435782432556 0.18335136771202087 0.12945592403411865
0.52210527658462524 0.1895335465669632 0.13545885682106018
0.56472510099411011 0.19621466100215912 0.14501821994781494
0.60539907217025757 0.20535063743591309 0.15557537972927094
0.11259587854146957 0.18340343236923218 0.10828790068626404
0.16319295763969421 0.18696941435337067 0.11327137798070908
0.21030236780643463 0.19165222346782684 0.11923021823167801
0.25064113736152649 0.20001205801963806 0.12517052888870239
0.28775593638420105 0.20940671861171722 0.1310984343290329
0.3277340829372406 0.21650978922843933 0.13802279531955719
0.37184518575668335 0.22059597074985504 0.14483040571212769
0.41857454180717468 0.22383745014667511 0.15121906995773315
0.46536445617675781 0.2292780876159668 0.15623520314693451
0.51067155599594116 0.23713944852352142 0.16107669472694397
0.55528968572616577 0.24469621479511261 0.16882258653640747
0.59874647855758667 0.25206092000007629 0.17935024201869965
0.6403612494468689 0.26321592926979065 0.19045795500278473
0.14127160608768463 0.23602524399757385 0.13628458976745605
0.19115087389945984 0.23930296301841736 0.13924816250801086
0.23804987967014313 0.24350865185260773 0.14497284591197968
0.27918148040771484 0.25117304921150208 0.1517406553030014
0.31602963805198669 0.26003947854042053 0.15816211700439453
0.35608676075935364 0.26678204536437988 0.16561770439147949
0.40093317627906799 0.2721254825592041 0.17342160642147064
0.44900619983673096 0.27773991227149963 0.18155176937580109
0.49792715907096863 0.28561839461326599 0.1888086348772049
0.54569041728973389 0.29594340920448303 0.19686684012413025
0.59212416410446167 0.30608215928077698 0.20661537349224091
0.63594633340835571 0.31606996059417725 0.21787363290786743
0.67724484205245972 0.32978874444961548 0.22900430858135223
0.15944035351276398 0.29378104209899902 0.15313670039176941
0.20925973355770111 0.29716566205024719 0.15530993044376373
0.25860846042633057 0.30133044719696045 0.1628357470035553
0.30243900418281555 0.30927959084510803 0.1725611686706543
0.33933603763580322 0.31921488046646118 0.17990060150623322
0.38026577234268188 0.32749220728874207 0.18927034735679626
0.42618414759635925 0.33526647090911865 0.19903762638568878
0.47557303309440613 0.34428584575653076 0.20819287002086639
0.52709740400314331 0.35503822565078735 0.21844658255577087
0.57843858003616333 0.36792811751365662 0.23028291761875153
0.6273159384727478 0.38101601600646973 0.24292342364788055
0.67122769355773926 0.39452561736106873 0.25430750846862793
0.7124176025390625 0.4104001522064209 0.26541909575462341
0.16924948990345001 0.35888195037841797 0.16191413998603821
0.21918301284313202 0.3636023998260498 0.16392381489276886
0.26974049210548401 0.37016022205352783 0.17309480905532837
0.31603479385375977 0.3802579939365387 0.18631026148796082
0.355977863073349 0.39288365840911865 0.1976446807384491
0.3988431990146637 0.40457236766815186 0.20914171636104584
0.44763031601905823 0.41552460193634033 0.22122283279895782
0.49960169196128845 0.42724728584289551 0.23285588622093201
0.55302464962005615 0.44024282693862915 0.24498969316482544
0.60763102769851685 0.45444092154502869 0.25977990031242371
0.65918523073196411 0.46963787078857422 0.27521619200706482
0.70403611660003662 0.48608258366584778 0.28803089261054993
0.74580860137939453 0.5024217963218689 0.30028057098388672
0.18881948292255402 0.42955175042152405 0.18161948025226593
0.23906901478767395 0.4370669424533844 0.18348442018032074
0.289783775806427 0.44677639007568359 0.19377735257148743
0.33821284770965576 0.45987936854362488 0.2103177011013031
0.38026165962219238 0.47558706998825073 0.22433693706989288
0.42523378133773804 0.4908200204372406 0.23820887506008148
0.47840005159378052 0.5042535662651062 0.25361207127571106
0.53332233428955078 0.51794594526290894 0.2668742835521698
0.5874941349029541 0.53287500143051147 0.27934825420379639
0.64431476593017578 0.54819506406784058 0.29588973522186279
0.69794416427612305 0.56428623199462891 0.31429287791252136
0.74430942535400391 0.58159077167510986 0.3288862407207489
0.78584688901901245 0.5976414680480957 0.34169790148735046
0.23116356134414673 0.50332468748092651 0.22499454021453857
0.28413918614387512 0.5133594274520874 0.23014526069164276
0.33682405948638916 0.52594929933547974 0.24200315773487091
0.38529372215270996 0.54124325513839722 0.25807598233222961
0.42888134717941284 0.55834686756134033 0.27339464426040649
0.47600048780441284 0.57526868581771851 0.28956234455108643
0.53102147579193115 0.59095531702041626 0.30639585852622986
0.58807700872421265 0.60682433843612671 0.32152357697486877
0.64340126514434814 0.62304198741912842 0.33505821228027344
0.70006811618804932 0.63904082775115967 0.35177874565124512
0.75490802526473999 0.65551948547363281 0.37075996398925781
0.80332654714584351 0.6721615195274353 0.38735595345497131
0.84538447856903076 0.68661731481552124 0.40091732144355774
0.28929314017295837 0.580311119556427 0.28434100747108459
0.34746274352073669 0.59234941005706787 0.2939484715461731
0.40333461761474609 0.60672914981842041 0.30805173516273499
0.45203113555908203 0.62271034717559814 0.32346054911613464
0.4960753321647644 0.63980823755264282 0.33882331848144531
0.54436999559402466 0.65673297643661499 0.35581821203231812
0.59938353300094604 0.67387843132019043 0.3737216591835022
0.65798497200012207 0.6909564733505249 0.39074110984802246
0.71395993232727051 0.70743823051452637 0.40508094429969788
0.76825606822967529 0.72341001033782959 0.41964137554168701
0.8221275806427002 0.73911911249160767 0.43710917234420776
0.87297666072845459 0.75411123037338257 0.45558446645736694
0.91598701477050781 0.7667810320854187 0.46954724192619324
0.34803155064582825 0.66287326812744141 0.34221756458282471
0.41054555773735046 0.6759914755821228 0.35641255974769592
0.46988070011138916 0.69060039520263672 0.37314924597740173
0.51835471391677856 0.70688736438751221 0.38767945766448975
0.56132936477661133 0.72375369071960449 0.40133541822433472
0.60886687040328979 0.74024695158004761 0.41794091463088989
0.66386294364929199 0.75686776638031006 0.43658071756362915
0.72274678945541382 0.77294492721557617 0.45516765117645264
0.77762436866760254 0.78813105821609497 0.4690220057964325
0.82805967330932617 0.80236738920211792 0.48017841577529907
0.87884742021560669 0.81594747304916382 0.49419352412223816
0.92783898115158081 0.82878917455673218 0.51022171974182129
0.96887350082397461 0.83955645561218262 0.52168285846710205
0.39670243859291077 0.75032377243041992 0.38952845335006714
0.45992103219032288 0.76398205757141113 0.40532711148262024
0.51840204000473022 0.77886402606964111 0.42190355062484741
0.56710946559906006 0.79476672410964966 0.43618208169937134
0.61030369997024536 0.81107401847839355 0.44899734854698181
0.65689265727996826 0.82657945156097412 0.4639432430267334
0.71003055572509766 0.84094125032424927 0.48163524270057678
0.76611226797103882 0.85450977087020874 0.49890488386154175
0.81843894720077515 0.86673027276992798 0.51163822412490845
0.86618471145629883 0.87820035219192505 0.52061706781387329
0.91174310445785522 0.88886696100234985 0.529438316822052
0.9538414478302002 0.8987346887588501 0.53808557987213135
0.98844718933105469 0.90764302015304565 0.54291057586669922
0.43373826146125793 0.83966517448425293 0.4258066713809967
0.49511677026748657 0.85388898849487305 0.4408973753452301
0.55046600103378296 0.86878466606140137 0.45581930875778198
0.59899204969406128 0.88418459892272949 0.46924442052841187
0.64309161901473999 0.89917033910751343 0.48148244619369507
0.68852400779724121 0.9131549596786499 0.49470674991607666
0.73842567205429077 0.92517590522766113 0.50978368520736694
0.79018038511276245 0.93535310029983521 0.52417367696762085
0.83919650316238403 0.94441127777099609 0.53507572412490845
0.88365167379379272 0.95265400409698486 0.54173797369003296
0.92397642135620117 0.96034067869186401 0.54578042030334473
0.95956712961196899 0.96750330924987793 0.54763239622116089
0.99015867710113525 0.97434121370315552 0.54734551906585693
0.031779825687408447 0.02279631607234478 0.062325332313776016
0.085535727441310883 0.027989152818918228 0.068361960351467133
0.13548916578292847 0.034026935696601868 0.074739985167980194
0.17921215295791626 0.042073268443346024 0.082484513521194458
0.21834674477577209 0.05055541917681694 0.091193117201328278
0.2569582462310791 0.057967569679021835 0.099050141870975494
0.29757332801818848 0.063642971217632294 0.10531731694936752
0.34039339423179626 0.068039238452911377 0.10956612229347229
0.38393494486808777 0.072725988924503326 0.11228055506944656
0.42673036456108093 0.078595183789730072 0.11600160598754883
0.46829372644424438 0.085125908255577087 0.12259060889482498
0.50866621732711792 0.092311695218086243 0.13167624175548553
0.54789209365844727 0.099793471395969391 0.14162467420101166
0.058049429208040237 0.079954393208026886 0.089373841881752014
0.11096124351024628 0.083754338324069977 0.095744967460632324
0.1604626476764679 0.089061707258224487 0.1027112752199173
0.20324769616127014 0.097782596945762634 0.10961201786994934
0.24134637415409088 0.10696855187416077 0.1172427162528038
0.27968356013298035 0.11437118798494339 0.12461715191602707
0.32109367847442627 0.11940003931522369 0.13066384196281433
0.36511266231536865 0.12293145805597305 0.1352161318063736
0.40982711315155029 0.12708905339241028 0.13810425996780396
0.45321935415267944 0.13259418308734894 0.14084349572658539
0.49503982067108154 0.13879652321338654 0.14637191593647003
0.5358765721321106 0.14542472362518311 0.15517818927764893
0.57527369260787964 0.15354049205780029 0.16556087136268616
0.085761159658432007 0.13525864481925964 0.11805278062820435
0.13746921718120575 0.13782750070095062 0.12425994873046875
0.18589681386947632 0.14254942536354065 0.13050588965415955
0.22727309167385101 0.15201200544834137 0.13610109686851501
0.26476448774337769 0.16123455762863159 0.1431041955947876
0.30344739556312561 0.16819427907466888 0.1498572826385498
0.3456912636756897 0.17253227531909943 0.15586815774440765
0.3911932110786438 0.17555774748325348 0.16100621223449707
0.43738779425621033 0.17977850139141083 0.16483110189437866
0.48193863034248352 0.1857227236032486 0.16786117851734161
0.52475839853286743 0.19202351570129395 0.17384511232376099
0.56568866968154907 0.19877715408802032 0.18253806233406067
0.60507011413574219 0.20813776552677155 0.19328393042087555
0.11744468659162521 0.18754416704177856 0.14996565878391266
0.16795891523361206 0.19013427197933197 0.15419477224349976
0.21450707316398621 0.19487367570400238 0.15881335735321045
0.25447925925254822 0.20351898670196533 0.16367720067501068
0.29066407680511475 0.21222923696041107 0.17008960247039795
0.32997819781303406 0.21857118606567383 0.17690889537334442
0.37363693118095398 0.2227538526058197 0.18314468860626221
0.42067572474479675 0.2265634685754776 0.18950307369232178
0.46855571866035461 0.23206889629364014 0.19547641277313232
0.51497822999954224 0.23949196934700012 0.20112860202789307
0.55933612585067749 0.24718096852302551 0.20884045958518982
0.60183179378509521 0.25571444630622864 0.21796654164791107
0.64131826162338257 0.26714280247688293 0.22826628386974335
0.14724953472614288 0.23973481357097626 0.17978651821613312
0.19674743711948395 0.24215470254421234 0.18144166469573975
0.24315039813518524 0.24625855684280396 0.18557018041610718
0.28316131234169006 0.25408366322517395 0.19097039103507996
0.31901103258132935 0.26300263404846191 0.19713984429836273
0.35855630040168762 0.26962354779243469 0.20452548563480377
0.40336322784423828 0.27482914924621582 0.2123626172542572
0.45174616575241089 0.28107395768165588 0.22053799033164978
0.5014379620552063 0.28935420513153076 0.22886335849761963
0.55057835578918457 0.29929634928703308 0.23801960051059723
0.59773856401443481 0.30989924073219299 0.24826748669147491
0.64127683639526367 0.32113856077194214 0.25896725058555603
0.68206405639648438 0.3353271484375 0.26967442035675049
0.16429810225963593 0.29674482345581055 0.19668568670749664
0.21480613946914673 0.29924884438514709 0.19810570776462555
0.26375356316566467 0.3034217357635498 0.20410928130149841
0.30576848983764648 0.31198632717132568 0.21196359395980835
0.34249258041381836 0.32252305746078491 0.2194298654794693
0.38296094536781311 0.33132526278495789 0.22846454381942749
0.42947438359260559 0.3390575647354126 0.23869889974594116
0.47948136925697327 0.34844857454299927 0.2486303299665451
0.53135347366333008 0.35968723893165588 0.25936415791511536
0.58406859636306763 0.37222045660018921 0.27220219373703003
0.6341477632522583 0.38557162880897522 0.28553694486618042
0.67906194925308228 0.40019264817237854 0.29750725626945496
0.72110402584075928 0.41650423407554626 0.30940911173820496
0.16997526586055756 0.36237701773643494 0.20174846053123474
0.22336745262145996 0.36626142263412476 0.20606613159179688
0.27508449554443359 0.37277799844741821 0.21545232832431793
0.32044461369514465 0.38344013690948486 0.22684496641159058
0.36060810089111328 0.39666149020195007 0.23790362477302551
0.40317854285240173 0.40924474596977234 0.24934788048267365
0.45150482654571533 0.42106029391288757 0.26116597652435303
0.50406056642532349 0.43289387226104736 0.27357321977615356
0.55857789516448975 0.4457971453666687 0.28667032718658447
0.61332666873931885 0.46010118722915649 0.30134403705596924
0.66516959667205811 0.47564727067947388 0.31656360626220703
0.71148008108139038 0.49198031425476074 0.33062911033630371
0.75487864017486572 0.50845378637313843 0.34448978304862976
0.18574172258377075 0.43437081575393677 0.21767598390579224
0.24157397449016571 0.44100761413574219 0.22477924823760986
0.29554647207260132 0.45075443387031555 0.23718084394931793
0.34392160177230835 0.46400371193885803 0.25211384892463684
0.38745769858360291 0.47972783446311951 0.26685461401939392
0.43254110217094421 0.49582013487815857 0.28069919347763062
0.48325687646865845 0.51124602556228638 0.29391029477119446
0.53854477405548096 0.52516907453536987 0.30818092823028564
0.59492719173431396 0.53919452428817749 0.32284486293792725
0.65000057220458984 0.5547715425491333 0.33761033415794373
0.70246607065200806 0.57149797677993774 0.3535882830619812
0.74966776371002197 0.58814132213592529 0.36944866180419922
0.7926439642906189 0.60370290279388428 0.38401219248771667
0.22801676392555237 0.50931340456008911 0.26112103462219238
0.28545999526977539 0.51899611949920654 0.27031543850898743
0.34108513593673706 0.53126746416091919 0.28456538915634155
0.39105916023254395 0.54636555910110474 0.30137884616851807
0.43690019845962524 0.56291109323501587 0.31815361976623535
0.484701007604599 0.5800851583480835 0.33447527885437012
0.53783553838729858 0.59717118740081787 0.34950831532478333
0.59457814693450928 0.61337536573410034 0.36437413096427917
0.65147209167480469 0.62912946939468384 0.3791559636592865
0.70706808567047119 0.645660400390625 0.39437410235404968
0.76032006740570068 0.66259896755218506 0.41123804450035095
0.80824893712997437 0.67886579036712646 0.42771762609481812
0.85004526376724243 0.69291657209396362 0.44167467951774597
0.28853702545166016 0.58782666921615601 0.32273110747337341
0.34886971116065979 0.59962362051010132 0.33469459414482117
0.40696516633033752 0.61334502696990967 0.3508751392364502
0.45734772086143494 0.6289680004119873 0.36790886521339417
0.50327157974243164 0.64496231079101562 0.38506612181663513
0.55236601829528809 0.66107988357543945 0.40295854210853577
0.60656195878982544 0.67874407768249512 0.41879278421401978
0.66427433490753174 0.69608151912689209 0.43397077918052673
0.72082996368408203 0.71261817216873169 0.44834825396537781
0.77572900056838989 0.72910314798355103 0.46307039260864258
0.8295554518699646 0.74524486064910889 0.48005202412605286
0.87860226631164551 0.76031476259231567 0.49679002165794373
0.91848069429397583 0.77265429496765137 0.50911796092987061
0.35018303990364075 0.6714593768119812 0.38360747694969177
0.41374427080154419 0.68444383144378662 0.39856868982315063
0.47356098890304565 0.69884955883026123 0.41638711094856262
0.52330124378204346 0.71450388431549072 0.43289998173713684
0.56682175397872925 0.7302556037902832 0.44784247875213623
0.61475682258605957 0.74563705921173096 0.46448025107383728
0.66877412796020508 0.7617763876914978 0.48090249300003052
0.72654843330383301 0.77752745151519775 0.49700415134429932
0.78231716156005859 0.79246300458908081 0.51094996929168701
0.83506679534912109 0.80713760852813721 0.52379065752029419
0.88719189167022705 0.82120645046234131 0.53828287124633789
0.93483263254165649 0.83386063575744629 0.55266386270523071
0.97159808874130249 0.84474641084671021 0.56131798028945923
0.40188869833946228 0.75968867540359497 0.43323016166687012
0.46493536233901978 0.77387243509292603 0.44860804080963135
0.52305448055267334 0.78867757320404053 0.4656277596950531
0.57128006219863892 0.80414867401123047 0.48053702712059021
0.61390000581741333 0.81980240345001221 0.49352866411209106
0.65924298763275146 0.83455872535705566 0.50767976045608521
0.71164262294769287 0.84771764278411865 0.52403777837753296
0.76817077398300171 0.85971921682357788 0.54029369354248047
0.82157790660858154 0.87120932340621948 0.55323171615600586
0.87113165855407715 0.88239431381225586 0.56320983171463013
0.91813540458679199 0.89306008815765381 0.57275962829589844
0.96033865213394165 0.90297895669937134 0.58105409145355225
0.99276793003082275 0.91206496953964233 0.58540046215057373
0.44075897336006165 0.85008955001831055 0.46984976530075073
0.50121337175369263 0.86498522758483887 0.4838404655456543
0.55598169565200806 0.87994623184204102 0.49862778186798096
0.60286784172058105 0.8948901891708374 0.51213210821151733
0.64449656009674072 0.90970331430435181 0.52360844612121582
0.68793433904647827 0.92313468456268311 0.5356484055519104
0.73773813247680664 0.93334460258483887 0.55024868249893188
0.79075294733047485 0.94160175323486328 0.56468212604522705
0.84058791399002075 0.94923722743988037 0.57573068141937256
0.88594210147857666 0.95665693283081055 0.58258920907974243
0.92680388689041138 0.96391528844833374 0.58669835329055786
0.9640769362449646 0.97099918127059937 0.58969539403915405
0.99409192800521851 0.97745710611343384 0.59099721908569336
0.0362892746925354 0.02669881097972393 0.10875541716814041
0.088857807219028473 0.031439296901226044 0.11417847871780396
0.13759203255176544 0.037279434502124786 0.1201665997505188
0.18030059337615967 0.045020952820777893 0.12787628173828125
0.21911454200744629 0.053183715790510178 0.13682469725608826
0.25777521729469299 0.060342151671648026 0.14475025236606598
0.2983364462852478 0.065809436142444611 0.14995911717414856
0.34151092171669006 0.070445328950881958 0.15224778652191162
0.38568821549415588 0.075155787169933319 0.15346391499042511
0.42897132039070129 0.08097241073846817 0.15776699781417847
0.47026717662811279 0.087650015950202942 0.16537155210971832
0.50984293222427368 0.094641320407390594 0.17501200735569
0.5483325719833374 0.10220593959093094 0.18508259952068329
0.062775947153568268 0.083137884736061096 0.13395953178405762
0.11461351811885834 0.086765974760055542 0.14014920592308044
0.16259564459323883 0.092377334833145142 0.14659655094146729
0.20453491806983948 0.10069114714860916 0.15366600453853607
0.24255514144897461 0.10905775427818298 0.16199538111686707
0.28061747550964355 0.11593865603208542 0.16931438446044922
0.32163587212562561 0.12107310444116592 0.17433013021945953
0.36602336168289185 0.12502710521221161 0.1775185763835907
0.41132643818855286 0.12931257486343384 0.17966023087501526
0.45544272661209106 0.13495798408985138 0.18280689418315887
0.49716627597808838 0.14100523293018341 0.18895752727985382
0.53677064180374146 0.14781627058982849 0.1977614164352417
0.57531285285949707 0.15613760054111481 0.20785911381244659
0.090166725218296051 0.13833621144294739 0.16063861548900604
0.14145147800445557 0.14122024178504944 0.16669937968254089
0.18866117298603058 0.14672711491584778 0.17251153290271759
0.22995229065418243 0.15528005361557007 0.17840461432933807
0.26703521609306335 0.16306208074092865 0.18638560175895691
0.30486384034156799 0.16954746842384338 0.19310568273067474
0.34644713997840881 0.17445266246795654 0.19785657525062561
0.39232632517814636 0.178010493516922 0.2026364803314209
0.43950647115707397 0.18221817910671234 0.20699670910835266
0.48487666249275208 0.18811759352684021 0.21049846708774567
0.52729147672653198 0.19453217089176178 0.21668523550033569
0.56638872623443604 0.20169030129909515 0.22471107542514801
0.60469669103622437 0.21136079728603363 0.23388203978538513
0.11998410522937775 0.19197134673595428 0.1913040429353714
0.1708349734544754 0.19462993741035461 0.19597011804580688
0.21735471487045288 0.19946068525314331 0.20010294020175934
0.25743860006332397 0.20722934603691101 0.20483608543872833
0.29410436749458313 0.21426139771938324 0.21258853375911713
0.33216971158981323 0.22048076987266541 0.21885545551776886
0.3744635283946991 0.22580310702323914 0.22370050847530365
0.42189916968345642 0.23008094727993011 0.23062308132648468
0.47098457813262939 0.23529636859893799 0.23811636865139008
0.51836538314819336 0.24249060451984406 0.24497340619564056
0.56264281272888184 0.25056606531143188 0.25252720713615417
0.6030271053314209 0.25984525680541992 0.26079908013343811
0.64199328422546387 0.27180907130241394 0.26932713389396667
0.14735260605812073 0.2448686957359314 0.21988862752914429
0.19847223162651062 0.24671180546283722 0.22351180016994476
0.24538032710552216 0.25031253695487976 0.22815099358558655
0.2852780818939209 0.25761279463768005 0.23321239650249481
0.3218311071395874 0.26579764485359192 0.2397727370262146
0.36089164018630981 0.27279925346374512 0.24687118828296661
0.40541753172874451 0.27879819273948669 0.25434017181396484
0.4541512131690979 0.28546538949012756 0.26293221116065979
