assets/lut/alexjordan faded retro 02.cube
# Created by: G'MIC (https://gmic.eu)
TITLE "faded_retro_02"
# LUT size
LUT_3D_SIZE 7
# Data domain
DOMAIN_MIN 0.0 0.0 0.0
DOMAIN_MAX 1.0 1.0 1.0
# LUT data points
0.12029555439949036 0.13421951234340668 0.02711467444896698
0.18860474228858948 0.13585449755191803 0.029673706740140915
0.32660520076751709 0.11163882166147232 0.0054203555919229984
0.49524196982383728 0.080475524067878723 0
0.62421500682830811 0.067484945058822632 0
0.70021349191665649 0.076253481209278107 0
0.75204753875732422 0.10093835741281509 0.004088966641575098
0.11320746690034866 0.19278748333454132 0.027007414028048515
0.1889059841632843 0.19632376730442047 0.026003982871770859
0.33388176560401917 0.18492914736270905 0.011321811936795712
0.52230280637741089 0.18000373244285583 0.0046931249089539051
0.66458255052566528 0.18757560849189758 0.0078152073547244072
0.753947913646698 0.20901800692081451 0.029131706804037094
0.80978184938430786 0.24461120367050171 0.07657768577337265
0.08355298638343811 0.32606795430183411 0.0060455920174717903
0.17160722613334656 0.34721612930297852 0.01170272845774889
0.32395318150520325 0.35455048084259033 0.0084995795041322708
0.52117544412612915 0.35277298092842102 0.0046102334745228291
0.6746256947517395 0.36386236548423767 0.015907421708106995
0.77101457118988037 0.39044740796089172 0.053897708654403687
0.82373619079589844 0.43016511201858521 0.10241434723138809
0.067332081496715546 0.51980865001678467 0.0002371395385125652
0.16723769903182983 0.5448148250579834 0.0080582117661833763
0.32589191198348999 0.55322945117950439 0.010673402808606625
0.51335710287094116 0.5501708984375 0.0040525547228753567
0.66654682159423828 0.55653876066207886 0.0087964078411459923
0.75852096080780029 0.58262699842453003 0.042511526495218277
0.80703079700469971 0.6138451099395752 0.088612347841262817
0.092537865042686462 0.69689911603927612 0.021652176976203918
0.19774465262889862 0.71932369470596313 0.03818899393081665
0.35209423303604126 0.72286629676818848 0.039970278739929199
0.5263945460319519 0.70976972579956055 0.024419613182544708
0.66921168565750122 0.705341637134552 0.018993737176060677
0.75245058536529541 0.72227245569229126 0.03709576278924942
0.79267007112503052 0.74382466077804565 0.069375582039356232
0.15167813003063202 0.82227766513824463 0.090110257267951965
0.25524309277534485 0.83712422847747803 0.10485953837633133
0.39813154935836792 0.83013683557510376 0.097476944327354431
0.56179118156433105 0.80685997009277344 0.06785188615322113
0.69595086574554443 0.79126232862472534 0.049285992980003357
0.76864892244338989 0.79773211479187012 0.046484000980854034
0.80218559503555298 0.80899441242218018 0.059483710676431656
0.2180817723274231 0.90741574764251709 0.17485275864601135
0.31835117936134338 0.91174554824829102 0.18744845688343048
0.44879785180091858 0.89484775066375732 0.17020544409751892
0.60316914319992065 0.8624834418296814 0.12221681326627731
0.73106426000595093 0.83711040019989014 0.093242883682250977
0.79166382551193237 0.83771151304244995 0.071784183382987976
0.81814855337142944 0.84434455633163452 0.067138031125068665
0.12856794893741608 0.13700982928276062 0.11228010803461075
0.18271960318088531 0.13313977420330048 0.10566042363643646
0.32330185174942017 0.10765711218118668 0.076774522662162781
0.48823040723800659 0.07784976065158844 0.04061521589756012
0.62106025218963623 0.06566329300403595 0.030306946486234665
0.69786733388900757 0.074330709874629974 0.042666535824537277
0.74324506521224976 0.10202041268348694 0.081468351185321808
0.1159687265753746 0.19329111278057098 0.10574637353420258
0.18694397807121277 0.20168112218379974 0.11077187955379486
0.33885785937309265 0.18934540450572968 0.098987117409706116
0.52563083171844482 0.18208825588226318 0.0866585373878479
0.67233943939208984 0.18740351498126984 0.093109667301177979
0.7594984769821167 0.21118013560771942 0.12038231641054153
0.80885380506515503 0.24723365902900696 0.17897132039070129
0.087229169905185699 0.33240392804145813 0.066635429859161377
0.17736019194126129 0.35246303677558899 0.096969857811927795
0.33621367812156677 0.36091965436935425 0.10340847074985504
0.53118622303009033 0.36213394999504089 0.096500799059867859
0.68579351902008057 0.37280747294425964 0.11099629104137421
0.77649968862533569 0.40380269289016724 0.14256565272808075
0.82643342018127441 0.4361269474029541 0.20979404449462891
0.077418938279151917 0.52517414093017578 0.061856124550104141
0.17734143137931824 0.54864239692687988 0.094180956482887268
0.33716955780982971 0.55868518352508545 0.10853735357522964
0.52599519491195679 0.55930632352828979 0.098278731107711792
0.67869168519973755 0.56803768873214722 0.10242410004138947
0.76560282707214355 0.59184736013412476 0.14318643510341644
0.81069105863571167 0.61603128910064697 0.20119050145149231
0.10671693086624146 0.70467829704284668 0.099558979272842407
0.20892079174518585 0.72280418872833252 0.12878493964672089
0.36134696006774902 0.72377753257751465 0.1370653361082077
0.53578096628189087 0.71458500623703003 0.12167172878980637
0.6769898533821106 0.71227991580963135 0.1177142858505249
0.75628209114074707 0.72507208585739136 0.14277797937393188
0.79450899362564087 0.73995083570480347 0.18308930099010468
0.16802768409252167 0.82953780889511108 0.18710140883922577
0.26660171151161194 0.83992832899093628 0.19997629523277283
0.40576887130737305 0.82929486036300659 0.18679855763912201
0.56557166576385498 0.80721515417098999 0.15670762956142426
0.69702088832855225 0.79235154390335083 0.14325308799743652
0.76542210578918457 0.79433399438858032 0.14825263619422913
0.79457980394363403 0.80159664154052734 0.16732768714427948
0.23905612528324127 0.9113268256187439 0.28320103883743286
0.33256757259368896 0.91108566522598267 0.28430697321891785
0.45765429735183716 0.89001655578613281 0.24732556939125061
0.60546582937240601 0.85816282033920288 0.19877301156520844
0.72531765699386597 0.8342139720916748 0.17825947701931
0.78254872560501099 0.82807737588882446 0.1676519513130188
0.80439561605453491 0.83063679933547974 0.16711831092834473
0.11480919271707535 0.12563090026378632 0.31124463677406311
0.17181818187236786 0.1231142058968544 0.30680251121520996
0.31210264563560486 0.097661964595317841 0.2792809009552002
0.48109328746795654 0.070606321096420288 0.24381835758686066
0.61841565370559692 0.060872755944728851 0.22988022863864899
0.69936752319335938 0.071042545139789581 0.24473978579044342
0.74085146188735962 0.099709346890449524 0.27477195858955383
0.10969142615795135 0.18372464179992676 0.29696023464202881
0.18172593414783478 0.19207003712654114 0.30883881449699402
0.33404284715652466 0.18603533506393433 0.30556216835975647
0.52091830968856812 0.17846840620040894 0.29443603754043579
0.67281746864318848 0.18569117784500122 0.30285677313804626
0.76316851377487183 0.2105049192905426 0.33344826102256775
0.8075937032699585 0.2484528124332428 0.37900450825691223
0.085631728172302246 0.32748749852180481 0.26207205653190613
0.17442473769187927 0.35054996609687805 0.29451891779899597
0.3330274224281311 0.36176908016204834 0.30845600366592407
0.52781134843826294 0.36163720488548279 0.30679085850715637
0.68489420413970947 0.37405288219451904 0.32003545761108398
0.77884232997894287 0.40212699770927429 0.35615977644920349
0.82580757141113281 0.43427643179893494 0.40892675518989563
0.080349862575531006 0.5211905837059021 0.25263020396232605
0.17877407371997833 0.54564273357391357 0.28936672210693359
0.33779984712600708 0.55735641717910767 0.30769044160842896
0.5245404839515686 0.55973249673843384 0.30340349674224854
0.67440205812454224 0.5692439079284668 0.308095782995224
0.76205152273178101 0.59004467725753784 0.3399987518787384
0.80553930997848511 0.6118280291557312 0.38455244898796082
0.11092605441808701 0.69873231649398804 0.2906985878944397
0.20970283448696136 0.71658980846405029 0.32160893082618713
0.36070150136947632 0.71761274337768555 0.33006662130355835
0.53310656547546387 0.71083295345306396 0.31670892238616943
0.67117047309875488 0.70914465188980103 0.31198564171791077
0.74844759702682495 0.71875393390655518 0.33020803332328796
0.78506815433502197 0.73039853572845459 0.36017155647277832
0.17290917038917542 0.82284653186798096 0.37618079781532288
0.26483052968978882 0.83110421895980835 0.38945403695106506
0.40090489387512207 0.81933462619781494 0.375234454870224
0.55893439054489136 0.799080491065979 0.34446418285369873
0.68592828512191772 0.78482645750045776 0.32750329375267029
0.75198084115982056 0.78295505046844482 0.33011367917060852
0.77914261817932129 0.78665083646774292 0.34342831373214722
0.24717108905315399 0.90249073505401611 0.46596527099609375
0.33063912391662598 0.899555504322052 0.46633961796760559
0.45072752237319946 0.87699073553085327 0.43114843964576721
0.59324455261230469 0.8465123176574707 0.38215377926826477
0.70830172300338745 0.82320582866668701 0.35227259993553162
0.76345652341842651 0.8125719428062439 0.34115433692932129
0.78319752216339111 0.81093865633010864 0.33528801798820496
0.105149045586586 0.11240147799253464 0.54541927576065063
0.17343525588512421 0.1052420362830162 0.53914397954940796
0.30300134420394897 0.085208997130393982 0.51429128646850586
0.46855399012565613 0.060428932309150696 0.47995051741600037
0.60768979787826538 0.051801148802042007 0.46982622146606445
0.69286239147186279 0.06509505957365036 0.48818665742874146
0.73681819438934326 0.094215482473373413 0.51425707340240479
0.097432367503643036 0.17889675498008728 0.53761881589889526
0.1786438524723053 0.1884700208902359 0.55103468894958496
0.32580375671386719 0.18676669895648956 0.54585057497024536
0.50960826873779297 0.17796111106872559 0.53583115339279175
0.66435903310775757 0.18341013789176941 0.54566466808319092
0.75923579931259155 0.20936883985996246 0.58072435855865479
0.80643206834793091 0.24705882370471954 0.62018442153930664
0.078172899782657623 0.32092809677124023 0.51359421014785767
0.16902197897434235 0.34697842597961426 0.54127717018127441
0.3270258903503418 0.35865974426269531 0.55232959985733032
0.52023947238922119 0.35903444886207581 0.55224639177322388
0.67966413497924805 0.36930260062217712 0.56677126884460449
0.7764398455619812 0.39640107750892639 0.60350757837295532
0.82434874773025513 0.42921122908592224 0.64195829629898071
0.072283849120140076 0.51695841550827026 0.50449949502944946
0.16962724924087524 0.54348766803741455 0.53799915313720703
0.33072108030319214 0.55450284481048584 0.5494464635848999
0.51837998628616333 0.55601471662521362 0.54762560129165649
0.66825711727142334 0.56231546401977539 0.55331528186798096
0.75507861375808716 0.580943763256073 0.57809078693389893
0.79767119884490967 0.60337954759597778 0.60363757610321045
0.098948337137699127 0.69331163167953491 0.54323071241378784
0.19467458128929138 0.71296519041061401 0.57002824544906616
0.34917986392974854 0.71279728412628174 0.5687217116355896
0.52472114562988281 0.70499217510223389 0.55446583032608032
0.66253888607025146 0.70086359977722168 0.54870784282684326
0.7366567850112915 0.70832395553588867 0.56024974584579468
0.77105742692947388 0.72009170055389404 0.57425981760025024
0.15837116539478302 0.81326234340667725 0.62149745225906372
0.24403011798858643 0.82228696346282959 0.6337127685546875
0.38304698467254639 0.80908018350601196 0.61391955614089966
0.54476135969161987 0.78796112537384033 0.58064383268356323
0.67372387647628784 0.77317804098129272 0.56086903810501099
0.73896974325180054 0.7701842188835144 0.56066077947616577
0.76337844133377075 0.77366143465042114 0.56461936235427856
0.23149555921554565 0.88795042037963867 0.70470315217971802
0.30656599998474121 0.88605791330337524 0.70041686296463013
0.42828765511512756 0.86144846677780151 0.6649823784828186
0.573081374168396 0.83071130514144897 0.61465966701507568
0.68962830305099487 0.80770456790924072 0.57877993583679199
0.74713808298110962 0.79611265659332275 0.56780004501342773
0.76628226041793823 0.79375767707824707 0.5664982795715332
0.10092399269342422 0.089675039052963257 0.70845568180084229
0.17849652469158173 0.083296678960323334 0.70546054840087891
0.30668893456459045 0.068528406322002411 0.68100214004516602
0.4664156436920166 0.050800967961549759 0.65556561946868896
0.60416978597640991 0.046852260828018188 0.65494400262832642
0.68820935487747192 0.063613340258598328 0.67978250980377197
0.72938120365142822 0.094157308340072632 0.70443838834762573
0.094082236289978027 0.16729596257209778 0.7192457914352417
0.18077285587787628 0.17994540929794312 0.73291146755218506
0.32856115698814392 0.18243846297264099 0.72898328304290771
0.50935131311416626 0.1774628609418869 0.72085243463516235
0.66402262449264526 0.18268197774887085 0.73402237892150879
0.75660604238510132 0.21294866502285004 0.76526492834091187
0.79991054534912109 0.25257772207260132 0.79103595018386841
0.073574915528297424 0.32363808155059814 0.70307087898254395
0.16826117038726807 0.34715935587882996 0.73090755939483643
0.33051067590713501 0.35820168256759644 0.7407834529876709
0.52259749174118042 0.3583981990814209 0.74151396751403809
0.68250447511672974 0.36736330389976501 0.75746798515319824
0.77770000696182251 0.39695948362350464 0.78821080923080444
0.82162612676620483 0.43182453513145447 0.81198650598526001
0.065329112112522125 0.52277833223342896 0.69948488473892212
0.16210834681987762 0.54858285188674927 0.73059201240539551
0.32688120007514954 0.55599719285964966 0.73779755830764771
0.51759475469589233 0.55372452735900879 0.73470592498779297
0.66982954740524292 0.55803018808364868 0.74258315563201904
0.75545042753219604 0.57623279094696045 0.76516252756118774
0.79585045576095581 0.59848356246948242 0.78135180473327637
0.090270906686782837 0.6958429217338562 0.73735988140106201
0.18438917398452759 0.71573883295059204 0.76215386390686035
0.34035488963127136 0.71303391456604004 0.75592988729476929
0.51958620548248291 0.70153594017028809 0.73956257104873657
0.6613273024559021 0.69609707593917847 0.73391413688659668
0.73200130462646484 0.7023804783821106 0.7432294487953186
0.76328527927398682 0.71419763565063477 0.74982947111129761
0.14710676670074463 0.81062614917755127 0.81070363521575928
0.22913341224193573 0.8197932243347168 0.8219602108001709
0.37011450529098511 0.80447572469711304 0.79787272214889526
0.53657478094100952 0.78052389621734619 0.76406407356262207
0.66855704784393311 0.76439797878265381 0.7433784008026123
0.73127275705337524 0.76167905330657959 0.74078810214996338
0.75170719623565674 0.76674246788024902 0.73973828554153442
0.2172728031873703 0.88084679841995239 0.88289570808410645
0.28752472996711731 0.87788742780685425 0.87965959310531616
0.41237151622772217 0.85192251205444336 0.83961737155914307
0.56220811605453491 0.81780338287353516 0.79171603918075562
0.68082821369171143 0.79373669624328613 0.75603145360946655
0.73617583513259888 0.78337818384170532 0.74400091171264648
0.75342100858688354 0.78078997135162354 0.74037653207778931
0.097567766904830933 0.081942208111286163 0.79283875226974487
0.172895148396492 0.074154183268547058 0.78939247131347656
0.30403631925582886 0.06138942763209343 0.76492232084274292
0.46961277723312378 0.04885617271065712 0.74345618486404419
0.61056554317474365 0.050519756972789764 0.7555585503578186
0.69804191589355469 0.071707539260387421 0.79090398550033569
0.74231988191604614 0.10393797606229782 0.8179284930229187
0.094636686146259308 0.16383306682109833 0.80875110626220703
0.17802621424198151 0.17868527770042419 0.82273507118225098
0.32902473211288452 0.18352803587913513 0.82149600982666016
0.513985276222229 0.18339678645133972 0.81326806545257568
0.67240422964096069 0.19299949705600739 0.83030849695205688
0.76678919792175293 0.22451348602771759 0.86728096008300781
0.80806595087051392 0.26511210203170776 0.89313232898712158
0.076522365212440491 0.33236974477767944 0.80022513866424561
0.16949586570262909 0.35571348667144775 0.82666611671447754
0.33482649922370911 0.36513954401016235 0.83738958835601807
0.53011691570281982 0.36696654558181763 0.83685755729675293
0.6935916543006897 0.37680730223655701 0.85440540313720703
0.78963130712509155 0.40721547603607178 0.88877022266387939
0.83001172542572021 0.44340884685516357 0.91289603710174561
0.069908663630485535 0.53623944520950317 0.79696935415267944
0.16358655691146851 0.56166678667068481 0.82633084058761597
0.33103039860725403 0.56566762924194336 0.83397203683853149
0.52321034669876099 0.56173825263977051 0.82814377546310425
0.67818629741668701 0.56454336643218994 0.83680373430252075
0.76537364721298218 0.58393555879592896 0.86026871204376221
0.80207270383834839 0.6064525842666626 0.87851351499557495
0.096777297556400299 0.70483994483947754 0.82993453741073608
0.19024048745632172 0.72324788570404053 0.8529045581817627
0.34238848090171814 0.72047287225723267 0.85001826286315918
0.52036696672439575 0.70617294311523438 0.83189016580581665
0.66303181648254395 0.69896501302719116 0.82243824005126953
0.73639130592346191 0.70599591732025146 0.82858574390411377
0.76377278566360474 0.71596920490264893 0.83864849805831909
0.15074194967746735 0.81265449523925781 0.90001767873764038
0.23489104211330414 0.82036423683166504 0.9066581130027771
0.36932283639907837 0.80636817216873169 0.88469010591506958
0.53348135948181152 0.78085219860076904 0.85199093818664551
0.66586947441101074 0.7627226710319519 0.82608520984649658
0.72847574949264526 0.7596166729927063 0.81952148675918579
0.74708133935928345 0.7621300220489502 0.82344025373458862
0.21621057391166687 0.87765836715698242 0.96766132116317749
0.28986528515815735 0.8735276460647583 0.95738095045089722
0.40675756335258484 0.84873515367507935 0.91892063617706299
0.55511295795440674 0.81487178802490234 0.87561124563217163
0.67531055212020874 0.78880453109741211 0.8379780650138855
0.72927272319793701 0.77838826179504395 0.82060497999191284
0.74650293588638306 0.77589708566665649 0.82022511959075928
0.09594370424747467 0.096498183906078339 0.82736015319824219
0.16335757076740265 0.083736762404441833 0.81883984804153442
0.29580536484718323 0.070563599467277527 0.79339545965194702
0.46945968270301819 0.059808842837810516 0.77227693796157837
0.61325550079345703 0.064515054225921631 0.79873329401016235
0.70554673671722412 0.086947046220302582 0.84455686807632446
0.75429743528366089 0.11736946552991867 0.87682735919952393
0.10009574145078659 0.17468920350074768 0.83534234762191772
0.17512699961662292 0.19303064048290253 0.84624141454696655
0.32174098491668701 0.20052143931388855 0.84219050407409668
0.51150649785995483 0.20106624066829681 0.83919233083724976
0.67604249715805054 0.20940297842025757 0.86585128307342529
0.77347594499588013 0.24010168015956879 0.91103965044021606
0.81579309701919556 0.27834329009056091 0.94335764646530151
0.091002456843852997 0.34596091508865356 0.83462202548980713
0.18456701934337616 0.36744365096092224 0.85447490215301514
0.341096431016922 0.37881392240524292 0.86215978860855103
0.53154337406158447 0.38139736652374268 0.86536556482315063
0.69890493154525757 0.38857206702232361 0.88874489068984985
0.79639714956283569 0.41843646764755249 0.92941880226135254
0.83845871686935425 0.45383182168006897 0.9635387659072876
0.09092375636100769 0.54596543312072754 0.83224445581436157
0.18953661620616913 0.565784752368927 0.85744822025299072
0.34550100564956665 0.57213765382766724 0.86562836170196533
0.52815455198287964 0.56883317232131958 0.85992652177810669
0.68089503049850464 0.57120448350906372 0.8696025013923645
0.76965373754501343 0.59054696559906006 0.89485222101211548
0.80638426542282104 0.61256504058837891 0.91833961009979248
0.11492957174777985 0.70979321002960205 0.85965555906295776
0.21154025197029114 0.72468262910842896 0.88164418935775757
0.35456344485282898 0.7244335412979126 0.88226509094238281
0.52372652292251587 0.7085801362991333 0.86396747827529907
0.66329902410507202 0.70125800371170044 0.84999561309814453
0.73950850963592529 0.70747190713882446 0.8549315333366394
0.76770484447479248 0.71585404872894287 0.87020277976989746
0.15960736572742462 0.81070387363433838 0.9273187518119812
0.24927458167076111 0.81817829608917236 0.92981541156768799
0.37743246555328369 0.80659914016723633 0.91166877746582031
0.5319182276725769 0.78240495920181274 0.88034588098526001
0.66304510831832886 0.76247471570968628 0.85073673725128174
0.73003506660461426 0.75688713788986206 0.8412443995475769
0.75092011690139771 0.75821250677108765 0.85015660524368286
0.21226002275943756 0.87356722354888916 0.99041467905044556
0.29462090134620667 0.86955916881561279 0.97854596376419067
0.40710589289665222 0.84795111417770386 0.9440731406211853
0.54773163795471191 0.81802308559417725 0.90376174449920654
0.66960197687149048 0.78999346494674683 0.86390697956085205
0.72960227727890015 0.77738291025161743 0.84413844347000122
0.74527597427368164 0.775798499584198 0.84304165840148926
