assets/lut/alexjordan magenta day 01.cube
# Created by: G'MIC (https://gmic.eu)
TITLE "magenta_day_01"
# LUT size
LUT_3D_SIZE 13
# Data domain
DOMAIN_MIN 0.0 0.0 0.0
DOMAIN_MAX 1.0 1.0 1.0
# LUT data points
0.0020384844392538071 0.00072072347393259406 0.0021981482859700918
0.00040197934140451252 0.000151884785736911 0.00093328440561890602
0.00042060404666699469 0.00042293773731216788 0.0011070999316871166
0.0024280173238366842 0.0018349890597164631 0.0026363597717136145
0.0093064699321985245 0.0046376544050872326 0.0054826326668262482
0.025887807831168175 0.0089494893327355385 0.010447034612298012
0.051595665514469147 0.014311592094600201 0.0175323486328125
0.082466974854469299 0.019684705883264542 0.025877589359879494
0.11861343681812286 0.024067165330052376 0.033623401075601578
0.16379548609256744 0.02639223076403141 0.038356885313987732
0.22025682032108307 0.026427041739225388 0.040248483419418335
0.2848227322101593 0.023819703608751297 0.041922342032194138
0.35334593057632446 0.022475911304354668 0.044452037662267685
0.01296570710837841 0.0082913413643836975 0.011800220236182213
0.014966283924877644 0.0095947859808802605 0.012985618785023689
0.024110756814479828 0.015582500025629997 0.019012032076716423
0.038916509598493576 0.022424481809139252 0.025537274777889252
0.062942445278167725 0.029056444764137268 0.031393043696880341
0.096182972192764282 0.035547744482755661 0.037553045898675919
0.13452354073524475 0.041282877326011658 0.043673079460859299
0.17657637596130371 0.046630304306745529 0.049582373350858688
0.22350694239139557 0.050574030727148056 0.054397627711296082
0.27732667326927185 0.052478056401014328 0.056715842336416245
0.34155812859535217 0.050978012382984161 0.056890539824962616
0.41489532589912415 0.047605119645595551 0.0561649389564991
0.488066166639328 0.045833289623260498 0.057400856167078018
0.033304747194051743 0.030415209010243416 0.029959823936223984
0.045225389301776886 0.036790721118450165 0.034837774932384491
0.064808636903762817 0.046580713242292404 0.043821237981319427
0.090050235390663147 0.055842738598585129 0.051547493785619736
0.12291442602872849 0.063396081328392029 0.055920232087373734
0.16531142592430115 0.070091873407363892 0.059736844152212143
0.21213603019714355 0.075712256133556366 0.063870780169963837
0.26269435882568359 0.080995030701160431 0.06754341721534729
0.3174777626991272 0.084849879145622253 0.070170171558856964
0.3772662878036499 0.085915915668010712 0.071399793028831482
0.44527879357337952 0.085307955741882324 0.070404082536697388
0.52309519052505493 0.081886053085327148 0.068869680166244507
0.59831005334854126 0.080919064581394196 0.069746755063533783
0.057040989398956299 0.068374678492546082 0.050403445959091187
0.077014133334159851 0.079383686184883118 0.056734707206487656
0.10435272008180618 0.092145107686519623 0.065270081162452698
0.13787458837032318 0.10196617245674133 0.071492977440357208
0.17746454477310181 0.10943754762411118 0.073544718325138092
0.22453895211219788 0.11516153812408447 0.075917281210422516
0.2755742073059082 0.12059963494539261 0.079531759023666382
0.32962054014205933 0.12618328630924225 0.082645267248153687
0.38788285851478577 0.13019061088562012 0.084519326686859131
0.44933193922042847 0.13262321054935455 0.085486650466918945
0.51653158664703369 0.13411445915699005 0.085527993738651276
0.59082067012786865 0.13211514055728912 0.085393629968166351
0.66209697723388672 0.1335064172744751 0.088197179138660431
0.075371533632278442 0.12268906831741333 0.065120875835418701
0.10171103477478027 0.13528722524642944 0.071817167103290558
0.13458207249641418 0.14902929961681366 0.078533709049224854
0.17306192219257355 0.15930178761482239 0.081779152154922485
0.21672175824642181 0.16641007363796234 0.08333297073841095
0.26625242829322815 0.17157429456710815 0.087449975311756134
0.31914916634559631 0.17655102908611298 0.092468425631523132
0.37507587671279907 0.18174275755882263 0.096610188484191895
0.43402040004730225 0.18619833886623383 0.099728405475616455
0.49536055326461792 0.18982796370983124 0.10174474120140076
0.55968910455703735 0.19303731620311737 0.10341200232505798
0.62869358062744141 0.19472849369049072 0.10582456737756729
0.69594871997833252 0.19847354292869568 0.11092106252908707
0.087370462715625763 0.18740689754486084 0.074174322187900543
0.118719182908535 0.19883954524993896 0.080720864236354828
0.15624043345451355 0.21146662533283234 0.086999200284481049
0.19786664843559265 0.22170676290988922 0.090785965323448181
0.24421392381191254 0.22927641868591309 0.094030745327472687
0.29472064971923828 0.2348196804523468 0.099420242011547089
0.34842014312744141 0.24002310633659363 0.10586914420127869
0.40548437833786011 0.24518783390522003 0.11151013523340225
0.46517980098724365 0.25002536177635193 0.11627296358346939
0.52618139982223511 0.25467079877853394 0.12036076188087463
0.58909147977828979 0.25911727547645569 0.12415074557065964
0.65396571159362793 0.2635425329208374 0.12906666100025177
0.71835154294967651 0.26912644505500793 0.13587789237499237
0.096403829753398895 0.25694507360458374 0.081113509833812714
0.13133411109447479 0.26688772439956665 0.088433466851711273
0.17201264202594757 0.27783766388893127 0.095920592546463013
0.21695809066295624 0.28760117292404175 0.102231465280056
0.26536139845848083 0.29549849033355713 0.10804971307516098
0.31681343913078308 0.30205035209655762 0.11471680551767349
0.37189224362373352 0.30795738101005554 0.12186913937330246
0.4293210506439209 0.31366664171218872 0.1285490095615387
0.48882579803466797 0.31890383362770081 0.13490214943885803
0.55000334978103638 0.32431817054748535 0.1408468633890152
0.61216717958450317 0.32977139949798584 0.14692434668540955
0.67537236213684082 0.33563962578773499 0.15384401381015778
0.73844611644744873 0.34246993064880371 0.16225887835025787
0.10808894038200378 0.3294263482093811 0.092366687953472137
0.14477744698524475 0.3381589949131012 0.099860876798629761
0.18763351440429688 0.34792634844779968 0.10862328112125397
0.23431397974491119 0.35704177618026733 0.11682791262865067
0.28433710336685181 0.36519846320152283 0.12468501180410385
0.33664214611053467 0.37252753973007202 0.13267619907855988
0.39185050129890442 0.37927705049514771 0.14060720801353455
0.44975939393043518 0.3855874240398407 0.14823867380619049
0.5100247859954834 0.39149773120880127 0.1558125764131546
0.57119458913803101 0.39746487140655518 0.16324593126773834
0.63339787721633911 0.40367645025253296 0.17124271392822266
0.69601035118103027 0.41031065583229065 0.17984838783740997
0.75969254970550537 0.41793560981750488 0.18972764909267426
0.12473086267709732 0.40374642610549927 0.1102290004491806
0.16162869334220886 0.41203966736793518 0.11726158112287521
0.20521798729896545 0.42097797989845276 0.1258217841386795
0.25272700190544128 0.42981502413749695 0.13526061177253723
0.30222803354263306 0.43826371431350708 0.14428693056106567
0.35595375299453735 0.44609633088111877 0.15311551094055176
0.41115197539329529 0.45344620943069458 0.16170918941497803
0.46962589025497437 0.4604000449180603 0.17018628120422363
0.53083467483520508 0.4670318067073822 0.17869134247303009
0.59235548973083496 0.47350969910621643 0.18716892600059509
0.65485930442810059 0.48026943206787109 0.1964830756187439
0.71798628568649292 0.48745870590209961 0.20637647807598114
0.78163802623748779 0.49561086297035217 0.21724814176559448
0.14494699239730835 0.48022294044494629 0.13230559229850769
0.1823795884847641 0.48809945583343506 0.13916680216789246
0.22498458623886108 0.49679282307624817 0.14764642715454102
0.27212727069854736 0.50555264949798584 0.15705713629722595
0.32223546504974365 0.51416045427322388 0.16681471467018127
0.37618663907051086 0.5223991870880127 0.17621035873889923
0.4318651556968689 0.53030836582183838 0.18533049523830414
0.4915403425693512 0.53779911994934082 0.19427546858787537
0.55198341608047485 0.54500842094421387 0.20316030085086823
0.61427026987075806 0.55222046375274658 0.21228417754173279
0.67732751369476318 0.55952620506286621 0.22216859459877014
0.7411041259765625 0.56741678714752197 0.2328774482011795
0.80542248487472534 0.57600897550582886 0.24427933990955353
0.16715660691261292 0.55864328145980835 0.1571844071149826
0.20511311292648315 0.56633096933364868 0.16408061981201172
0.24734880030155182 0.57481914758682251 0.17251589894294739
0.29363724589347839 0.58366495370864868 0.18199992179870605
0.34367093443870544 0.5925944447517395 0.1919526606798172
0.39700484275817871 0.60121035575866699 0.20162583887577057
0.45379281044006348 0.60954242944717407 0.21103757619857788
0.51323592662811279 0.6175195574760437 0.22005422413349152
0.57478266954421997 0.62538456916809082 0.22901138663291931
0.6375662088394165 0.63321411609649658 0.23826448619365692
0.70139998197555542 0.64125072956085205 0.24826309084892273
0.76586681604385376 0.64973670244216919 0.25909140706062317
0.83084684610366821 0.6591564416885376 0.27083852887153625
0.19128336012363434 0.63888591527938843 0.18406371772289276
0.22946625947952271 0.6463896632194519 0.19124037027359009
0.27172994613647461 0.65492218732833862 0.19969630241394043
0.31764277815818787 0.66393619775772095 0.20930081605911255
0.36718982458114624 0.67311280965805054 0.21929502487182617
0.42042714357376099 0.68217688798904419 0.22932544350624084
0.47766011953353882 0.69084471464157104 0.23856362700462341
0.53706127405166626 0.6993635892868042 0.2472570389509201
0.59911203384399414 0.7076866626739502 0.25623473525047302
0.66240602731704712 0.71612054109573364 0.26545318961143494
0.72687584161758423 0.72482973337173462 0.2753605842590332
0.79205101728439331 0.73409152030944824 0.28614670038223267
0.85746324062347412 0.74399310350418091 0.29795259237289429
0.21753260493278503 0.72086238861083984 0.21279637515544891
0.25624364614486694 0.72816354036331177 0.21996621787548065
0.29840990900993347 0.7366032600402832 0.22849810123443604
0.34401112794876099 0.74585860967636108 0.23797774314880371
0.39314857125282288 0.75520312786102295 0.24813289940357208
0.44607174396514893 0.76463496685028076 0.25835859775543213
0.50319135189056396 0.77359271049499512 0.2672482430934906
0.56312400102615356 0.78247392177581787 0.2759852409362793
0.62536400556564331 0.79140353202819824 0.28462705016136169
0.68909788131713867 0.80039191246032715 0.29394921660423279
0.75379925966262817 0.80989879369735718 0.30367493629455566
0.81910842657089233 0.81988495588302612 0.31453806161880493
0.88471025228500366 0.83005785942077637 0.32648512721061707
0 0 0
0 0 0
0.00011488970631035045 0.00011488970631035045 0.00018023322627414018
0.0026574528310447931 0.0014593385858461261 0.0026831831783056259
0.011569318361580372 0.0048334160819649696 0.0082303518429398537
0.029489224776625633 0.0098495185375213623 0.016072696074843407
0.056935884058475494 0.015859596431255341 0.025524603202939034
0.089895613491535187 0.021399553865194321 0.034919992089271545
0.12882734835147858 0.025617292150855064 0.043637711554765701
0.17504468560218811 0.027959082275629044 0.049870256334543228
0.23250044882297516 0.027427718043327332 0.053901523351669312
0.30280792713165283 0.023096811026334763 0.057363487780094147
0.37679964303970337 0.019008845090866089 0.061483792960643768
0.0030288845300674438 0.0031118954066187143 0.0036665075458586216
0.0075896019116044044 0.0059211580082774162 0.0076150782406330109
0.021687032654881477 0.013959608040750027 0.018989818170666695
0.041942864656448364 0.022547703236341476 0.031140509992837906
0.068654201924800873 0.030184278264641762 0.04128633439540863
0.10249722003936768 0.036934379488229752 0.050274118781089783
0.14194424450397491 0.042893309146165848 0.058120187371969223
0.18671093881130219 0.047953348606824875 0.064901329576969147
0.23627571761608124 0.051407773047685623 0.070508562028408051
0.29131072759628296 0.05333435907959938 0.073741331696510315
0.35555383563041687 0.051480043679475784 0.076159581542015076
0.43065467476844788 0.046913206577301025 0.077024735510349274
0.50604182481765747 0.044050704687833786 0.079680979251861572
0.02686290442943573 0.0285059604793787 0.031088480725884438
0.041569340974092484 0.036368619650602341 0.039524093270301819
0.065544351935386658 0.048137977719306946 0.053255792707204819
0.094382867217063904 0.058374907821416855 0.064695887267589569
0.12927988171577454 0.066228322684764862 0.072518184781074524
0.17164310812950134 0.072484962642192841 0.078919701278209686
0.21982763707637787 0.077997080981731415 0.084274977445602417
0.27374267578125 0.082404240965843201 0.088753223419189453
0.3324941098690033 0.085065357387065887 0.091710515320301056
0.39229443669319153 0.086428746581077576 0.093800440430641174
0.45890423655509949 0.085554726421833038 0.094171933829784393
0.53477269411087036 0.082248181104660034 0.094215139746665955
0.60829001665115356 0.08109448105096817 0.097117029130458832
0.054657310247421265 0.071144044399261475 0.06204184889793396
0.076956503093242645 0.082989096641540527 0.071842864155769348
0.10667343437671661 0.097198545932769775 0.083580993115901947
0.14158464968204498 0.10707362741231918 0.091396495699882507
0.18164457380771637 0.11391683667898178 0.095797941088676453
0.22860302031040192 0.11910274624824524 0.10027169436216354
0.28112009167671204 0.12387008965015411 0.10483604669570923
0.33880621194839478 0.12799543142318726 0.10840590298175812
0.400575190782547 0.13115829229354858 0.1108412966132164
0.46245363354682922 0.13341605663299561 0.11235122382640839
0.52801430225372314 0.13439688086509705 0.11335819959640503
0.59885525703430176 0.13404248654842377 0.11418745666742325
0.66730374097824097 0.13555373251438141 0.11825989186763763
0.075351893901824951 0.12668994069099426 0.084723092615604401
0.10321445763111115 0.14068111777305603 0.094384782016277313
0.13729651272296906 0.15581022202968597 0.1034509539604187
0.1760919988155365 0.16518837213516235 0.1080770269036293
0.21967095136642456 0.17138044536113739 0.11085040867328644
0.26864534616470337 0.17601391673088074 0.11584839224815369
0.32227525115013123 0.18039576709270477 0.12129199504852295
0.38068363070487976 0.18469990789890289 0.12579649686813354
0.44244629144668579 0.1883922666311264 0.12906685471534729
0.50452142953872681 0.19175820052623749 0.13185647130012512
0.56767189502716064 0.19475570321083069 0.13378192484378815
0.63280171155929565 0.19768929481506348 0.13685853779315948
0.69708418846130371 0.20191843807697296 0.14248034358024597
0.088573485612869263 0.19075761735439301 0.099327102303504944
0.12028872966766357 0.20369763672351837 0.10801270604133606
0.15796306729316711 0.2172342836856842 0.11597951501607895
0.20034357905387878 0.22707922756671906 0.12088615447282791
0.24641638994216919 0.23387999832630157 0.12488129734992981
0.2960934042930603 0.23937550187110901 0.13069355487823486
0.34942734241485596 0.2445194274187088 0.13708356022834778
0.40794160962104797 0.24908332526683807 0.14288145303726196
0.4696299135684967 0.25333645939826965 0.14778462052345276
0.53139966726303101 0.25763070583343506 0.15218549966812134
0.59277820587158203 0.262381911277771 0.15627358853816986
0.65483576059341431 0.26763364672660828 0.16141749918460846
0.71702253818511963 0.27358675003051758 0.16872362792491913
0.098213016986846924 0.25947457551956177 0.11049975454807281
0.13291557133197784 0.27059593796730042 0.11866506189107895
0.17368097603321075 0.28219091892242432 0.12741239368915558
0.21872784197330475 0.29191204905509949 0.1344628632068634
0.26693013310432434 0.29964172840118408 0.14066629111766815
0.3176998496055603 0.30627790093421936 0.14753305912017822
0.37218588590621948 0.3123735785484314 0.15459196269512177
0.43032675981521606 0.3179454505443573 0.16137751936912537
0.4912162721157074 0.32293429970741272 0.16785074770450592
0.55282068252563477 0.32811799645423889 0.17392203211784363
0.61407750844955444 0.33380749821662903 0.18017598986625671
0.67524033784866333 0.34015414118766785 0.1872134655714035
0.73767691850662231 0.34705871343612671 0.19596982002258301
0.10980787128210068 0.33129402995109558 0.12392029166221619
0.14620491862297058 0.34111633896827698 0.13201725482940674
0.18867114186286926 0.35132494568824768 0.14153772592544556
0.23530478775501251 0.36068719625473022 0.15021638572216034
0.28516301512718201 0.36890086531639099 0.15833236277103424
0.33736938238143921 0.37637537717819214 0.16642352938652039
0.39193844795227051 0.38325673341751099 0.17439615726470947
0.45026826858520508 0.38964125514030457 0.18209816515445709
0.51152849197387695 0.39563396573066711 0.18967092037200928
0.57298958301544189 0.40159469842910767 0.19715195894241333
0.63474780321121216 0.40790596604347229 0.20505544543266296
0.6968994140625 0.41473722457885742 0.21376805007457733
0.76022958755493164 0.42224815487861633 0.22375576198101044
0.12551853060722351 0.40519696474075317 0.14263430237770081
0.16241203248500824 0.4143211841583252 0.15017923712730408
0.20557454228401184 0.42379629611968994 0.15958593785762787
0.25290772318840027 0.43300068378448486 0.16910271346569061
0.30327063798904419 0.4415857195854187 0.17845143377780914
0.35684555768966675 0.44950154423713684 0.187547966837883
0.41191592812538147 0.45712196826934814 0.19617380201816559
0.47131037712097168 0.46429005265235901 0.20465131103992462
0.53188407421112061 0.47102728486061096 0.21304957568645477
0.59396421909332275 0.47779491543769836 0.22157518565654755
0.65639108419418335 0.48457670211791992 0.23066985607147217
0.71965259313583374 0.49185311794281006 0.24055401980876923
0.7837638258934021 0.49987882375717163 0.2515282928943634
0.14485014975070953 0.48119565844535828 0.16526296734809875
0.18229591846466064 0.48993277549743652 0.17256678640842438
0.22509555518627167 0.49908578395843506 0.18147338926792145
0.2722378671169281 0.5082128643989563 0.19135701656341553
0.32288464903831482 0.51723366975784302 0.20144206285476685
0.3765748143196106 0.52572625875473022 0.21102143824100494
0.43362563848495483 0.53368973731994629 0.22011440992355347
0.49246010184288025 0.54147273302078247 0.22912842035293579
0.55352288484573364 0.54894745349884033 0.23785337805747986
0.61607164144515991 0.55636686086654663 0.24691185355186462
0.67947161197662354 0.56378614902496338 0.2565729022026062
0.74361103773117065 0.57166647911071777 0.26713353395462036
0.80848759412765503 0.58025240898132324 0.27865558862686157
0.1666235476732254 0.5591546893119812 0.1906503289937973
0.20472922921180725 0.56756305694580078 0.19788841903209686
0.24717795848846436 0.57667571306228638 0.20660871267318726
0.29381018877029419 0.58607131242752075 0.2166009247303009
0.34411182999610901 0.59521698951721191 0.22671180963516235
0.39799526333808899 0.60419672727584839 0.23666001856327057
0.45478227734565735 0.61275953054428101 0.24609622359275818
0.51461946964263916 0.62100231647491455 0.25518739223480225
0.57636630535125732 0.62905645370483398 0.26399588584899902
0.63966995477676392 0.63720548152923584 0.27321586012840271
0.70393091440200806 0.64549064636230469 0.28297543525695801
0.76892924308776855 0.65398871898651123 0.29360920190811157
0.83437341451644897 0.66301113367080688 0.3054625391960144
0.19061650335788727 0.63896507024765015 0.21810901165008545
0.22908256947994232 0.64721578359603882 0.22541245818138123
0.27158933877944946 0.65631610155105591 0.23420339822769165
0.3177611231803894 0.66585397720336914 0.24388311803340912
0.3677736222743988 0.67530757188796997 0.25409957766532898
0.42129555344581604 0.68471473455429077 0.26436391472816467
0.47857517004013062 0.69367450475692749 0.27370995283126831
0.53870052099227905 0.70243102312088013 0.28250792622566223
0.60092359781265259 0.71113896369934082 0.29151514172554016
0.66474109888076782 0.71988499164581299 0.3004913330078125
0.72965896129608154 0.72891014814376831 0.31011617183685303
0.79526114463806152 0.73821771144866943 0.32072675228118896
0.86135351657867432 0.74787360429763794 0.33272010087966919
0.21677862107753754 0.72056442499160767 0.24721227586269379
0.2557162344455719 0.72868591547012329 0.25476524233818054
0.29822945594787598 0.73775976896286011 0.26330500841140747
0.34409037232398987 0.74735087156295776 0.27296781539916992
0.39388418197631836 0.75704127550125122 0.28319439291954041
0.44733992218971252 0.76673799753189087 0.29331144690513611
0.50444489717483521 0.77616828680038452 0.30262833833694458
0.56481140851974487 0.78531551361083984 0.31132778525352478
0.62721830606460571 0.79463952779769897 0.32035508751869202
0.69143950939178467 0.80397045612335205 0.3290201723575592
0.75658136606216431 0.81361895799636841 0.33864614367485046
0.82258719205856323 0.82355779409408569 0.34940338134765625
0.88874334096908569 0.83380258083343506 0.36143937706947327
0 0 0
0 0 0
0.00031020221649669111 0.00016856474394444376 0.00034054028219543397
0.0044642132706940174 0.00203679408878088 0.0044035967439413071
0.015741519629955292 0.006116276141256094 0.012755180709064007
0.035865604877471924 0.011964775621891022 0.023652678355574608
0.064426988363265991 0.018312685191631317 0.034911077469587326
0.099408045411109924 0.023625526577234268 0.04559885710477829
0.14118300378322601 0.027187107130885124 0.05559246614575386
0.19046926498413086 0.028777642175555229 0.063741959631443024
0.24924391508102417 0.027704695239663124 0.070107974112033844
0.32155710458755493 0.022534793242812157 0.075820699334144592
0.39777776598930359 0.017634088173508644 0.082346267998218536
0.0038866978138685226 0.0039058460388332605 0.0064217513427138329
0.01094162929803133 0.007769356481730938 0.012989777140319347
0.026521241292357445 0.015952106565237045 0.026141522452235222
0.049387313425540924 0.024871332570910454 0.041801854968070984
0.077139608561992645 0.032646328210830688 0.055556740611791611
0.11095394194126129 0.039355333894491196 0.066811099648475647
0.15052320063114166 0.045337796211242676 0.07611382007598877
0.19614575803279877 0.049946025013923645 0.083904430270195007
0.2473565936088562 0.053054898977279663 0.090648859739303589
0.30355498194694519 0.05399283766746521 0.095822773873806
0.36836898326873779 0.052669599652290344 0.099291794002056122
0.44365426898002625 0.047927573323249817 0.1022874116897583
0.51948171854019165 0.04454021155834198 0.10680211335420609
0.030355416238307953 0.03277098760008812 0.043252024799585342
0.048093728721141815 0.04088490828871727 0.055636897683143616
0.073179520666599274 0.052077453583478928 0.07147710770368576
0.10296734422445297 0.061974827200174332 0.085015945136547089
0.1382298618555069 0.069505997002124786 0.095629103481769562
0.17971907556056976 0.075565457344055176 0.10398533940315247
0.22757314145565033 0.080663673579692841 0.11055136471986771
0.28184187412261963 0.084693655371665955 0.11560462415218353
0.34072741866111755 0.087345883250236511 0.11958063393831253
0.40133947134017944 0.088915742933750153 0.12252617627382278
0.46717748045921326 0.088029779493808746 0.12449252605438232
0.54067647457122803 0.085313387215137482 0.1259453296661377
0.61294865608215332 0.084366247057914734 0.13007321953773499
0.058560524135828018 0.076911419630050659 0.082139246165752411
0.083055563271045685 0.088392414152622223 0.095811657607555389
0.11417236179113388 0.10128294676542282 0.11029751598834991
0.14877523481845856 0.11086507886648178 0.11980607360601425
0.18857432901859283 0.11751734465360641 0.12663057446479797
0.23457828164100647 0.12266644090414047 0.13252127170562744
0.28657463192939758 0.1272875964641571 0.13751395046710968
0.34495642781257629 0.13097184896469116 0.14135372638702393
0.40703693032264709 0.13372904062271118 0.14421375095844269
0.46905854344367981 0.13587243854999542 0.14623144268989563
0.53283894062042236 0.1372574120759964 0.14789816737174988
0.60017997026443481 0.13805614411830902 0.1499146968126297
0.66586709022521973 0.14060790836811066 0.15475690364837646
0.079077549278736115 0.13251249492168427 0.11181290447711945
0.10810335725545883 0.14566613733768463 0.12425806373357773
0.14283959567546844 0.15935160219669342 0.13558726012706757
0.18175603449344635 0.16851074993610382 0.14331930875778198
0.22498859465122223 0.17448991537094116 0.1482289731502533
0.2727450430393219 0.17963133752346039 0.15331622958183289
