assets/lut/alexjordan memories.cube
# Created by: G'MIC (https://gmic.eu)
TITLE "memories"
# LUT size
LUT_3D_SIZE 7
# Data domain
DOMAIN_MIN 0.0 0.0 0.0
DOMAIN_MAX 1.0 1.0 1.0
# LUT data points
0.12094228714704514 0.17793719470500946 0.2040088027715683
0.16411341726779938 0.20460176467895508 0.22731272876262665
0.20564059913158417 0.23159454762935638 0.2489432692527771
0.25188252329826355 0.25655201077461243 0.27176579833030701
0.31896853446960449 0.27655783295631409 0.29374614357948303
0.42035850882530212 0.28772097826004028 0.31153139472007751
0.53159552812576294 0.29243481159210205 0.32567781209945679
0.23019200563430786 0.27820372581481934 0.28424027562141418
0.27280572056770325 0.30430322885513306 0.30457782745361328
0.33242517709732056 0.32381287217140198 0.32478034496307373
0.4139254093170166 0.33878064155578613 0.33825299143791199
0.52113479375839233 0.34753352403640747 0.34506076574325562
0.6592755913734436 0.34865888953208923 0.34634560346603394
0.80436629056930542 0.34630054235458374 0.3444608747959137
0.26669850945472717 0.39782014489173889 0.34223872423171997
0.33669286966323853 0.41671624779701233 0.35488831996917725
0.42600646615028381 0.43008118867874146 0.35977405309677124
0.53730893135070801 0.43830710649490356 0.35854515433311462
0.66729539632797241 0.44285878539085388 0.35235139727592468
0.815044105052948 0.43904572725296021 0.34695082902908325
0.94622170925140381 0.43640789389610291 0.34295010566711426
0.24533967673778534 0.53995019197463989 0.36519640684127808
0.34957656264305115 0.54965353012084961 0.3685210645198822
0.46762573719024658 0.55526190996170044 0.36339941620826721
0.59796571731567383 0.55879265069961548 0.35333475470542908
0.73850071430206299 0.56084519624710083 0.34230393171310425
0.88047963380813599 0.55631226301193237 0.33982035517692566
0.98829883337020874 0.55449217557907104 0.3385862410068512
0.22191569209098816 0.68500441312789917 0.36939188838005066
0.35008507966995239 0.68753433227539062 0.36833533644676208
0.48718124628067017 0.68715035915374756 0.35917884111404419
0.62599354982376099 0.68783748149871826 0.34815731644630432
0.76415824890136719 0.6878960132598877 0.34354516863822937
0.90588575601577759 0.68381631374359131 0.34887874126434326
0.99768316745758057 0.6838371753692627 0.34820705652236938
0.23095287382602692 0.82022887468338013 0.37148407101631165
0.36817610263824463 0.81890749931335449 0.37424975633621216
0.51341712474822998 0.81557297706604004 0.37052717804908752
0.65630453824996948 0.81470578908920288 0.36535722017288208
0.78908562660217285 0.81609588861465454 0.3709469735622406
0.9284052848815918 0.81683272123336792 0.38236072659492493
1 0.81632745265960693 0.41225093603134155
0.25767737627029419 0.94742578268051147 0.39451891183853149
0.40184721350669861 0.94323587417602539 0.40774920582771301
0.55246227979660034 0.93736696243286133 0.41912513971328735
0.7013733983039856 0.93327236175537109 0.43480446934700012
0.83501356840133667 0.93049854040145874 0.47767746448516846
0.9481041431427002 0.9312860369682312 0.55097919702529907
0.99960035085678101 0.93407279253005981 0.64018303155899048
0.13930679857730865 0.18824449181556702 0.21726568043231964
0.18008983135223389 0.21452587842941284 0.23751486837863922
0.22023367881774902 0.24005216360092163 0.26174971461296082
0.27048322558403015 0.26452314853668213 0.28550872206687927
0.34032309055328369 0.28355264663696289 0.31110551953315735
0.44584903120994568 0.29198068380355835 0.332113116979599
0.57093775272369385 0.291643887758255 0.34957119822502136
0.23508015275001526 0.28916820883750916 0.29987853765487671
0.28189286589622498 0.31288865208625793 0.32205447554588318
0.34742704033851624 0.33224603533744812 0.34550866484642029
0.43372941017150879 0.34602570533752441 0.36194944381713867
0.54386144876480103 0.35310626029968262 0.37222355604171753
0.68394297361373901 0.35290181636810303 0.37745195627212524
0.82578033208847046 0.34853062033653259 0.38193428516387939
0.27105268836021423 0.40760326385498047 0.37071982026100159
0.34119683504104614 0.42555439472198486 0.38586658239364624
0.43510258197784424 0.43868839740753174 0.39208891987800598
0.55072009563446045 0.44434919953346252 0.39453715085983276
0.68589669466018677 0.44744932651519775 0.39133560657501221
0.83779478073120117 0.44397830963134766 0.38634204864501953
0.96949177980422974 0.44144511222839355 0.38161253929138184
0.25323128700256348 0.54855805635452271 0.40449506044387817
0.35205894708633423 0.55900996923446655 0.40904989838600159
0.47294250130653381 0.56351304054260254 0.40495201945304871
0.60716730356216431 0.56534779071807861 0.39762729406356812
0.75152117013931274 0.56663769483566284 0.38968747854232788
0.89946311712265015 0.56258648633956909 0.38498565554618835
0.99925106763839722 0.56064355373382568 0.38017117977142334
0.23367810249328613 0.69208621978759766 0.4142259955406189
0.35276857018470764 0.69611459970474243 0.41315433382987976
0.48849818110466003 0.69556111097335815 0.40542006492614746
0.63006919622421265 0.69536709785461426 0.39725783467292786
0.77390170097351074 0.69515436887741089 0.39529484510421753
0.91873788833618164 0.69209390878677368 0.39438578486442566
1 0.69136053323745728 0.39166513085365295
0.24157501757144928 0.82645732164382935 0.42125561833381653
0.37264356017112732 0.8252449631690979 0.42351153492927551
0.51413238048553467 0.82292628288269043 0.41814661026000977
0.65661704540252686 0.82252490520477295 0.41379097104072571
0.79677468538284302 0.82240068912506104 0.42207935452461243
0.93522882461547852 0.82242858409881592 0.43462440371513367
1 0.82239127159118652 0.46260416507720947
0.27160966396331787 0.95221424102783203 0.44745883345603943
0.41190505027770996 0.94806063175201416 0.45767298340797424
0.55927592515945435 0.94275707006454468 0.46710246801376343
0.70684343576431274 0.93866384029388428 0.48518458008766174
0.84971112012863159 0.9323655366897583 0.53442496061325073
0.9650236964225769 0.93245786428451538 0.60363256931304932
1 0.93733584880828857 0.67627626657485962
0.15009208023548126 0.19684344530105591 0.22870771586894989
0.19048008322715759 0.22411526739597321 0.25034940242767334
0.23144426941871643 0.24928025901317596 0.274139404296875
0.28777304291725159 0.27121773362159729 0.30218848586082458
0.36424383521080017 0.28752550482749939 0.33053809404373169
0.46323499083518982 0.29722648859024048 0.35211798548698425
0.58820396661758423 0.29695647954940796 0.37028241157531738
0.24195420742034912 0.2990325391292572 0.31489059329032898
0.2924436628818512 0.32167467474937439 0.34245339035987854
0.36025568842887878 0.33926737308502197 0.36862793564796448
0.45004391670227051 0.35163035988807678 0.3886161744594574
0.56260067224502563 0.35732260346412659 0.4036291241645813
0.69393730163574219 0.35954177379608154 0.41003841161727905
0.82648712396621704 0.35915443301200867 0.41494199633598328
0.27458065748214722 0.41706132888793945 0.40203264355659485
0.34977430105209351 0.43360790610313416 0.41919383406639099
0.44677141308784485 0.44645482301712036 0.42889606952667236
0.56252694129943848 0.45215663313865662 0.43382969498634338
0.69565111398696899 0.45450946688652039 0.43358197808265686
0.84218579530715942 0.45227533578872681 0.43190982937812805
0.97031635046005249 0.45119020342826843 0.42883545160293579
0.25631767511367798 0.55762428045272827 0.44811916351318359
0.35588306188583374 0.56815046072006226 0.45241269469261169
0.47967579960823059 0.57165849208831787 0.45140719413757324
0.61438030004501343 0.57330870628356934 0.44689324498176575
0.75721931457519531 0.57433986663818359 0.44247922301292419
0.90453517436981201 0.57094413042068481 0.4412054717540741
0.99993103742599487 0.56957876682281494 0.43816718459129333
0.24015767872333527 0.69965112209320068 0.46309030055999756
0.35485872626304626 0.70530349016189575 0.46143820881843567
0.49129772186279297 0.70408469438552856 0.45659729838371277
0.63553440570831299 0.70192533731460571 0.4544798731803894
0.78172439336776733 0.70064598321914673 0.45770654082298279
0.92411834001541138 0.69978821277618408 0.45567029714584351
1 0.69949609041213989 0.45662418007850647
0.24992862343788147 0.83249771595001221 0.47443360090255737
0.37585970759391785 0.8339042067527771 0.47313773632049561
0.51574665307998657 0.83168160915374756 0.46922433376312256
0.65964311361312866 0.82962703704833984 0.4695429801940918
0.80280113220214844 0.82824254035949707 0.48213145136833191
0.9359133243560791 0.82873022556304932 0.4962581992149353
1 0.83042210340499878 0.52482742071151733
0.28310272097587585 0.95683866739273071 0.5031810998916626
0.4196048378944397 0.95476698875427246 0.50856024026870728
0.56585025787353516 0.94980138540267944 0.51788055896759033
0.71458560228347778 0.94451028108596802 0.53895527124404907
0.86062073707580566 0.93746531009674072 0.58980643749237061
0.97645837068557739 0.93694227933883667 0.66156250238418579
1 0.94642043113708496 0.71964466571807861
0.16394110023975372 0.20827651023864746 0.23922961950302124
0.20236986875534058 0.23366911709308624 0.26306793093681335
0.24431896209716797 0.25937965512275696 0.2867388129234314
0.3040735125541687 0.2801213264465332 0.31740203499794006
0.38751673698425293 0.29124048352241516 0.35195735096931458
0.49189445376396179 0.29870972037315369 0.37886518239974976
0.61458379030227661 0.30110308527946472 0.3967946469783783
0.25389733910560608 0.30852562189102173 0.3321748673915863
0.30369555950164795 0.32964032888412476 0.3650834858417511
0.37336638569831848 0.34921273589134216 0.39442729949951172
0.46641471982002258 0.35912886261940002 0.41766023635864258
0.58051979541778564 0.36267286539077759 0.43645358085632324
0.71331155300140381 0.36326166987419128 0.44792717695236206
0.84656429290771484 0.36494767665863037 0.45272570848464966
0.27985486388206482 0.42662850022315979 0.43695545196533203
0.35854381322860718 0.44232821464538574 0.45497727394104004
0.4587043821811676 0.45435470342636108 0.46865525841712952
0.57434666156768799 0.45964595675468445 0.47558730840682983
0.70675396919250488 0.46007716655731201 0.47892183065414429
0.85046160221099854 0.45856836438179016 0.47872745990753174
0.9775816798210144 0.45802241563796997 0.47809764742851257
0.25873169302940369 0.56592154502868652 0.49545577168464661
0.3633587658405304 0.57496374845504761 0.4997449517250061
0.48778489232063293 0.57907474040985107 0.49966448545455933
0.62255388498306274 0.58022958040237427 0.4979669451713562
0.76416927576065063 0.58019649982452393 0.49395057559013367
0.90750998258590698 0.57845532894134521 0.48940783739089966
0.99996554851531982 0.57709997892379761 0.48995977640151978
0.2458377331495285 0.70633888244628906 0.51473170518875122
0.36345437169075012 0.71144741773605347 0.51338684558868408
0.50085163116455078 0.71056902408599854 0.51009702682495117
0.6445995569229126 0.70833766460418701 0.50734442472457886
0.79113185405731201 0.7073664665222168 0.50345796346664429
0.93796193599700928 0.70566534996032715 0.49935933947563171
1 0.70733010768890381 0.50903987884521484
0.25769594311714172 0.83891558647155762 0.52731084823608398
0.38356474041938782 0.84138530492782593 0.52348613739013672
0.52577346563339233 0.83843284845352173 0.52187609672546387
0.67497473955154419 0.83366960287094116 0.52596831321716309
0.81636744737625122 0.83341747522354126 0.53074222803115845
0.9467170238494873 0.83495372533798218 0.54471051692962646
0.99999320507049561 0.84134787321090698 0.58023416996002197
0.29501420259475708 0.96115195751190186 0.55673778057098389
0.43043410778045654 0.96115916967391968 0.55774801969528198
0.57975488901138306 0.95529007911682129 0.56904017925262451
0.74040395021438599 0.94471240043640137 0.59887498617172241
0.88348686695098877 0.93928152322769165 0.64408016204833984
0.98131883144378662 0.9445609450340271 0.70740038156509399
1 0.95932590961456299 0.77271372079849243
0.17292626202106476 0.21862280368804932 0.25172793865203857
0.2124212384223938 0.24289365112781525 0.27383619546890259
0.25967833399772644 0.26778429746627808 0.30426540970802307
0.32195806503295898 0.28695642948150635 0.33794933557510376
0.40965041518211365 0.29573673009872437 0.37666016817092896
0.52625119686126709 0.29896271228790283 0.40952876210212708
0.6647990345954895 0.29799291491508484 0.43146446347236633
0.25567880272865295 0.31860017776489258 0.35541614890098572
0.3110700249671936 0.33749544620513916 0.38861128687858582
0.38752532005310059 0.35503295063972473 0.42600271105766296
0.48322167992591858 0.36552804708480835 0.45090183615684509
0.60084587335586548 0.36750847101211548 0.47149226069450378
0.745949387550354 0.36359593272209167 0.48962140083312988
0.89932608604431152 0.36187067627906799 0.49779397249221802
0.27798712253570557 0.43740072846412659 0.46953389048576355
0.36062005162239075 0.4507901668548584 0.49301224946975708
0.46365633606910706 0.46140262484550476 0.50882446765899658
0.58590531349182129 0.46585455536842346 0.51955276727676392
0.72336184978485107 0.46391332149505615 0.52440667152404785
0.86833775043487549 0.45985382795333862 0.52575927972793579
0.99107944965362549 0.45875698328018188 0.52655541896820068
0.26077324151992798 0.57418471574783325 0.53755158185958862
0.36694478988647461 0.58186841011047363 0.54576331377029419
0.49421674013137817 0.58565270900726318 0.54812145233154297
0.63057082891464233 0.58617514371871948 0.54848247766494751
0.77258467674255371 0.58463019132614136 0.54521721601486206
0.91423314809799194 0.58214449882507324 0.53932464122772217
0.99994432926177979 0.58257555961608887 0.53908067941665649
0.24914473295211792 0.71346920728683472 0.56452667713165283
0.37215152382850647 0.717110276222229 0.56435638666152954
0.51355284452438354 0.71551996469497681 0.56430810689926147
0.65345925092697144 0.71423375606536865 0.56032514572143555
0.79460293054580688 0.71383410692214966 0.5545470118522644
0.94207924604415894 0.71194630861282349 0.55184704065322876
1 0.71495860815048218 0.56194376945495605
0.26582127809524536 0.84437960386276245 0.58009880781173706
0.39693593978881836 0.84642136096954346 0.57537341117858887
0.54228389263153076 0.8430817723274231 0.57582002878189087
0.68612360954284668 0.83976322412490845 0.57805114984512329
0.8204314112663269 0.84127748012542725 0.57928228378295898
0.95193761587142944 0.84153199195861816 0.59969216585159302
1 0.84918045997619629 0.6396719217300415
0.3099273145198822 0.96507352590560913 0.60948282480239868
0.44969424605369568 0.96503269672393799 0.60712331533432007
0.60075187683105469 0.95891153812408447 0.61715155839920044
0.75548911094665527 0.95019370317459106 0.64496785402297974
0.88918721675872803 0.94794195890426636 0.68479764461517334
0.99252808094024658 0.94877475500106812 0.75657415390014648
0.99984443187713623 0.96728837490081787 0.82738745212554932
0.18278196454048157 0.22728522121906281 0.26547181606292725
0.22419349849224091 0.25266855955123901 0.28691866993904114
0.27563068270683289 0.27766978740692139 0.31981447339057922
0.34296512603759766 0.29232209920883179 0.36279240250587463
0.43027660250663757 0.3031197190284729 0.40222743153572083
0.55123656988143921 0.3062782883644104 0.43440696597099304
0.7049938440322876 0.29662668704986572 0.46613803505897522
0.26421728730201721 0.3257167637348175 0.38084867596626282
0.3210107684135437 0.34664690494537354 0.41765907406806946
0.40062552690505981 0.36205390095710754 0.4584716260433197
0.50052428245544434 0.37067186832427979 0.48837611079216003
0.62198591232299805 0.37330159544944763 0.50966554880142212
0.77186542749404907 0.36926215887069702 0.52647179365158081
0.92521733045578003 0.36323601007461548 0.5418093204498291
0.28151559829711914 0.44554448127746582 0.50855368375778198
0.36688229441642761 0.45813009142875671 0.5333256721496582
0.47337079048156738 0.46747511625289917 0.55355101823806763
0.59890878200531006 0.47053089737892151 0.56697678565979004
0.73962092399597168 0.46877896785736084 0.57251322269439697
0.88364124298095703 0.46417391300201416 0.5729602575302124
0.99397379159927368 0.46265211701393127 0.57574450969696045
0.26009795069694519 0.58354789018630981 0.58421659469604492
0.37118446826934814 0.5900149941444397 0.59081768989562988
0.50129598379135132 0.59289956092834473 0.59579378366470337
0.63854587078094482 0.5927422046661377 0.59822463989257812
0.78147155046463013 0.59005695581436157 0.59728735685348511
0.92074143886566162 0.58770835399627686 0.59050828218460083
0.99937629699707031 0.58958619832992554 0.58974152803421021
0.24716341495513916 0.72215205430984497 0.61580783128738403
0.37805095314979553 0.72366976737976074 0.61445564031600952
0.51997953653335571 0.7223515510559082 0.61481010913848877
0.65908694267272949 0.72090500593185425 0.61298966407775879
0.80095326900482178 0.71938955783843994 0.61003923416137695
0.94504404067993164 0.71907758712768555 0.60629045963287354
1 0.72399377822875977 0.61420631408691406
0.27350470423698425 0.84952092170715332 0.63359576463699341
0.41323474049568176 0.84960031509399414 0.62759453058242798
0.55694437026977539 0.84829765558242798 0.62692338228225708
0.69500696659088135 0.84662967920303345 0.62967038154602051
0.83175039291381836 0.84618723392486572 0.63385742902755737
0.96253496408462524 0.8471992015838623 0.64708161354064941
1 0.85885947942733765 0.67587220668792725
0.32845380902290344 0.96573561429977417 0.66279542446136475
0.47798481583595276 0.96492117643356323 0.65694898366928101
0.63104861974716187 0.95980197191238403 0.66483646631240845
0.77821385860443115 0.95364564657211304 0.68948912620544434
0.90535825490951538 0.9528084397315979 0.72790515422821045
0.99707317352294922 0.95590835809707642 0.78753781318664551
1 0.97680723667144775 0.84023207426071167
0.19397255778312683 0.23718100786209106 0.27499222755432129
0.23617766797542572 0.26216131448745728 0.30221077799797058
0.28973329067230225 0.28428342938423157 0.34024345874786377
0.36859127879142761 0.29533001780509949 0.39254108071327209
0.46282446384429932 0.30439776182174683 0.43389540910720825
0.58443993330001831 0.30658993124961853 0.46652713418006897
0.72966623306274414 0.29581263661384583 0.50256228446960449
0.27429658174514771 0.3359382152557373 0.40525981783866882
0.33314377069473267 0.35502868890762329 0.45184069871902466
0.41504988074302673 0.36848941445350647 0.49126982688903809
0.52112013101577759 0.37430879473686218 0.52773427963256836
0.64500528573989868 0.37810677289962769 0.54937446117401123
0.79375416040420532 0.37480840086936951 0.56497424840927124
0.94254601001739502 0.36605086922645569 0.58766752481460571
0.28730365633964539 0.45566496253013611 0.54895114898681641
0.37711396813392639 0.46752098202705383 0.57141369581222534
0.48530840873718262 0.47461271286010742 0.59330719709396362
0.61196571588516235 0.47679603099822998 0.61038190126419067
0.75381731986999512 0.47592145204544067 0.61794531345367432
0.9048888087272644 0.47171986103057861 0.61983948945999146
0.99999135732650757 0.46800851821899414 0.63031125068664551
0.26457688212394714 0.59210765361785889 0.63217067718505859
0.38160273432731628 0.59748125076293945 0.63727611303329468
0.51102304458618164 0.60018312931060791 0.64054208993911743
0.64748638868331909 0.60008257627487183 0.64429241418838501
0.79135227203369141 0.59834295511245728 0.64429223537445068
0.93921017646789551 0.59645503759384155 0.64000231027603149
1 0.59775316715240479 0.64739280939102173
0.24952265620231628 0.72965735197067261 0.66741311550140381
0.38860270380973816 0.72954046726226807 0.66539293527603149
0.52761536836624146 0.72985243797302246 0.66270989179611206
0.66760355234146118 0.72849279642105103 0.66199380159378052
0.81291311979293823 0.72709035873413086 0.65818053483963013
0.94820570945739746 0.72924339771270752 0.65575361251831055
1 0.73421257734298706 0.6741674542427063
0.28474223613739014 0.85318624973297119 0.68693083524703979
0.4305368959903717 0.85318624973297119 0.67943966388702393
0.56871509552001953 0.85420376062393188 0.67706215381622314
0.70557814836502075 0.85458099842071533 0.6817014217376709
0.85014510154724121 0.85217279195785522 0.68545430898666382
0.95817697048187256 0.8585813045501709 0.69679194688796997
0.9999769926071167 0.86846292018890381 0.7399030327796936
0.34701493382453918 0.96609216928482056 0.71796965599060059
0.504402756690979 0.96449112892150879 0.70897418260574341
0.65918833017349243 0.96054756641387939 0.71499115228652954
0.81127738952636719 0.95342516899108887 0.74027156829833984
0.93558597564697266 0.95339286327362061 0.77576100826263428
0.99854570627212524 0.96553879976272583 0.82203835248947144
0.99960756301879883 0.98601651191711426 0.87966978549957275
