assets/lut/alexjordan green day 01.cube
# Created by: G'MIC (https://gmic.eu)
TITLE "green_day_01"
# LUT size
LUT_3D_SIZE 5
# Data domain
DOMAIN_MIN 0.0 0.0 0.0
DOMAIN_MAX 1.0 1.0 1.0
# LUT data points
0 0 0
0.11924438178539276 0.00098845537286251783 0.0008326810784637928
0.34273508191108704 0 1.4002182979311328e-05
0.56019848585128784 7.0010914896556642e-06 0.00096598605159670115
0.77713990211486816 0.025330981239676476 0
0.00015649234410375357 0.15518192946910858 2.1003274014219642e-05
0.14922553300857544 0.15282003581523895 0
0.36972853541374207 0.15631061792373657 0.00029907227144576609
0.58646976947784424 0.16066645085811615 0.0002801483788061887
0.80292141437530518 0.1975015252828598 0.0013585707638412714
0.0057913986966013908 0.38816061615943909 0.0032690907828509808
0.17184735834598541 0.38783562183380127 0
0.39607536792755127 0.3886546790599823 0
0.61227566003799438 0.39503121376037598 0.00076617073500528932
0.82963484525680542 0.4135735034942627 0.0028108034748584032
0.0094469552859663963 0.61202919483184814 0.0048628412187099457
0.19291014969348907 0.61571711301803589 9.7297219326719642e-05
0.42019602656364441 0.61987018585205078 0
0.63998669385910034 0.62789136171340942 0.0029991001356393099
0.85737687349319458 0.64457917213439941 0.011085061356425285
0.020725414156913757 0.8436274528503418 0.016130410134792328
0.21594323217868805 0.84730023145675659 0.0067609003745019436
0.43928980827331543 0.85431879758834839 0.0057120528072118759
0.66231805086135864 0.86461752653121948 0.013652068562805653
0.88338375091552734 0.88277745246887207 0.030545193701982498
0 4.2006548028439283e-05 0.070088885724544525
0.12203875929117203 5.2956973377149552e-05 0.085477881133556366
0.34405344724655151 0 0.091803260147571564
0.5627129077911377 0 0.10186767578125
0.77734887599945068 0.016645483672618866 0.097893193364143372
0.00052579992916435003 0.16017451882362366 0.1029328852891922
0.1541905552148819 0.15647383034229279 0.10761590301990509
0.37353384494781494 0.16054163873195648 0.11304759234189987
0.59113329648971558 0.16232603788375854 0.11210387200117111
0.8061755895614624 0.19214390218257904 0.12399465590715408
0.0014705882640555501 0.38823530077934265 0.12949702143669128
0.17294815182685852 0.38831606507301331 0.12661252915859222
0.40002185106277466 0.39515438675880432 0.13231173157691956
0.61582309007644653 0.39999756217002869 0.14175212383270264
0.83241856098175049 0.41154029965400696 0.14614754915237427
0.0045084934681653976 0.61596691608428955 0.15017782151699066
0.19002611935138702 0.61998468637466431 0.1422918438911438
0.42122095823287964 0.62580156326293945 0.14737094938755035
0.6419251561164856 0.63144415616989136 0.16042284667491913
0.85850167274475098 0.64185047149658203 0.17336373031139374
0.015228406526148319 0.84754902124404907 0.18077485263347626
0.2112814337015152 0.85130190849304199 0.17079076170921326
0.43728554248809814 0.85656636953353882 0.17160952091217041
0.66141146421432495 0.8642541766166687 0.18282525241374969
0.88197094202041626 0.87791734933853149 0.19862622022628784
0 0.0049440721049904823 0.2740446925163269
0.12170475721359253 2.8004365958622657e-05 0.27851611375808716
0.34032467007637024 0 0.27977815270423889
0.56200969219207764 0 0.28918999433517456
0.78015869855880737 0.0073347501456737518 0.28782805800437927
0 0.16320668160915375 0.30112177133560181
0.1511605829000473 0.157785564661026 0.30274546146392822
0.37346220016479492 0.16057018935680389 0.30767428874969482
0.59369927644729614 0.16873995959758759 0.31779742240905762
0.80951100587844849 0.19465598464012146 0.31891819834709167
0.0022056431043893099 0.39208218455314636 0.32124987244606018
0.18263421952724457 0.39486014842987061 0.32583874464035034
0.40600875020027161 0.39979791641235352 0.33427333831787109
0.62077611684799194 0.40422779321670532 0.34147083759307861
0.83661490678787231 0.41511285305023193 0.34803920984268188
0.0093569289892911911 0.62288099527359009 0.34561887383460999
0.20144060254096985 0.6275254487991333 0.34753000736236572
0.42714676260948181 0.63187104463577271 0.35607007145881653
0.6446956992149353 0.63633054494857788 0.36191686987876892
0.86082726716995239 0.64479851722717285 0.3707527220249176
0.021756116300821304 0.85521477460861206 0.37723743915557861
0.21881306171417236 0.85760283470153809 0.37267741560935974
0.44096478819847107 0.86231166124343872 0.37452307343482971
0.66282814741134644 0.86745238304138184 0.38091731071472168
0.8822711706161499 0.87872499227523804 0.39105391502380371
0.024375347420573235 0 0.47097837924957275
0.1498972475528717 0 0.47413221001625061
0.34649926424026489 0 0.47775083780288696
0.56229537725448608 0.00073565315688028932 0.48455250263214111
0.78105437755584717 0.012766624800860882 0.48718357086181641
0.002092638285830617 0.16320584714412689 0.4963480532169342
0.15510229766368866 0.16053920984268188 0.4992976188659668
0.37108725309371948 0.16732844710350037 0.50482308864593506
0.59031230211257935 0.18113046884536743 0.51390910148620605
0.80838119983673096 0.2049068808555603 0.51775503158569336
0.0086895516142249107 0.3960784375667572 0.51953506469726562
0.18840143084526062 0.39984327554702759 0.52341198921203613
0.4040256142616272 0.4030265212059021 0.53043395280838013
0.62042868137359619 0.41047093272209167 0.53866076469421387
0.83689182996749878 0.42377761006355286 0.54584604501724243
0.024552797898650169 0.62769609689712524 0.54648524522781372
0.2149428129196167 0.63161766529083252 0.5499151349067688
0.43060016632080078 0.63553923368453979 0.55546677112579346
0.64739990234375 0.64172995090484619 0.56213152408599854
0.86230021715164185 0.65197503566741943 0.56947845220565796
0.043430596590042114 0.86036974191665649 0.57763642072677612
0.23538549244403839 0.86310553550720215 0.57653301954269409
0.44908854365348816 0.86498737335205078 0.57832902669906616
0.66668927669525146 0.87109577655792236 0.58312726020812988
0.88420403003692627 0.88134860992431641 0.58967703580856323
0.056594625115394592 0 0.67109978199005127
0.19357602298259735 0 0.67228317260742188
0.37212750315666199 0.00087639305274933577 0.67662292718887329
0.57567930221557617 0.0058095743879675865 0.68332934379577637
0.79067456722259521 0.023682776838541031 0.69004255533218384
0.042165089398622513 0.17469926178455353 0.69447410106658936
0.19456715881824493 0.1725953072309494 0.69629395008087158
0.38649192452430725 0.18110966682434082 0.70132303237915039
0.59671604633331299 0.19538991153240204 0.70943599939346313
0.81342220306396484 0.21817989647388458 0.71593701839447021
0.04117291048169136 0.40239086747169495 0.72003674507141113
0.21197545528411865 0.40330913662910461 0.72201794385910034
0.41269788146018982 0.40771469473838806 0.72714763879776001
0.62528520822525024 0.41621401906013489 0.73521274328231812
0.84082460403442383 0.43272894620895386 0.74209332466125488
0.054366361349821091 0.6337285041809082 0.74901378154754639
0.23559090495109558 0.63510626554489136 0.74953675270080566
0.44030621647834778 0.63598376512527466 0.75373375415802002
0.65297818183898926 0.64346718788146973 0.76004433631896973
0.86679387092590332 0.65638506412506104 0.76624226570129395
0.073068298399448395 0.8680998682975769 0.78068476915359497
0.25841584801673889 0.86715686321258545 0.77798002958297729
0.46287655830383301 0.86752480268478394 0.77995043992996216
0.6749303936958313 0.87280458211898804 0.78370124101638794
0.89019894599914551 0.88245946168899536 0.78857094049453735
