assets/lut/alexjordan bleech bypass yellow 01.cube
# Created by: G'MIC (https://gmic.eu)
TITLE "bleech_bypass_yellow_01"
# LUT size
LUT_3D_SIZE 5
# Data domain
DOMAIN_MIN 0.0 0.0 0.0
DOMAIN_MAX 1.0 1.0 1.0
# LUT data points
5.3854550060350448e-05 0.00019621007959358394 2.5850184101727791e-05
0.045520301908254623 0.0062172980979084969 0.00740839634090662
0.16056956350803375 0.011863155290484428 0.01103032473474741
0.60109293460845947 0.012803380377590656 0.0093930261209607124
0.98351418972015381 0.020596284419298172 0.01799480989575386
0.01665770635008812 0.1082790270447731 0.016008220613002777
0.13342040777206421 0.13427489995956421 0.013567651621997356
0.3267551064491272 0.16552045941352844 0.018930727615952492
0.68385452032089233 0.19131705164909363 0.022130046039819717
0.98633581399917603 0.22990427911281586 0.025021467357873917
0.024450728669762611 0.39216098189353943 0.023555666208267212
0.22866842150688171 0.43752619624137878 0.025241043418645859
0.48868909478187561 0.48596349358558655 0.028678145259618759
0.7647739052772522 0.53484541177749634 0.031402692198753357
0.98904293775558472 0.58007431030273438 0.032997250556945801
0.034505296498537064 0.77657049894332886 0.031662631779909134
0.32656851410865784 0.79829245805740356 0.033380977809429169
0.63795125484466553 0.82061010599136353 0.037284418940544128
0.84927725791931152 0.84833621978759766 0.039749264717102051
0.99102169275283813 0.86852079629898071 0.038665652275085449
0.046918831765651703 0.99411469697952271 0.043410342186689377
0.4337974488735199 0.99715954065322876 0.057397447526454926
0.80933678150177002 0.99437069892883301 0.061968710273504257
0.94906055927276611 0.99997901916503906 0.079586207866668701
1 1 0.097913660109043121
0.0066673578694462776 0.0066206390038132668 0.028916796669363976
0.057195790112018585 0.0084927724674344063 0.058735895901918411
0.17734891176223755 0.012551984749734402 0.080806896090507507
0.61197519302368164 0.015351508744060993 0.10916737467050552
0.97716206312179565 0.017573712393641472 0.13513818383216858
0.015675803646445274 0.12121010571718216 0.11447685211896896
0.15070785582065582 0.15039272606372833 0.13958124816417694
0.34187927842140198 0.1762382984161377 0.16534246504306793
0.69395768642425537 0.20082853734493256 0.19128347933292389
0.98751366138458252 0.23893348872661591 0.21775676310062408
0.024878736585378647 0.41014161705970764 0.20376262068748474
0.2415253072977066 0.45878049731254578 0.22875647246837616
0.50854992866516113 0.50452375411987305 0.25358769297599792
0.77591037750244141 0.55166971683502197 0.28149455785751343
0.99035310745239258 0.59936428070068359 0.30114758014678955
0.033211845904588699 0.77711248397827148 0.2894844114780426
0.335428386926651 0.81032770872116089 0.31678232550621033
0.66672110557556152 0.83424347639083862 0.33879998326301575
0.86141103506088257 0.86220276355743408 0.37073063850402832
0.99505603313446045 0.88606029748916626 0.39145728945732117
0.05372556671500206 0.99586886167526245 0.38599345088005066
0.43511375784873962 0.99809116125106812 0.41485780477523804
0.83300131559371948 0.99546569585800171 0.42563876509666443
0.9481356143951416 0.99959534406661987 0.45485964417457581
1 1 0.48888507485389709
0.0082910722121596336 0.0072860419750213623 0.097026333212852478
0.070814572274684906 0.011064312420785427 0.14639624953269958
0.20271193981170654 0.014974930323660374 0.19561047852039337
0.62278550863265991 0.016537414863705635 0.24487434327602386
0.98441404104232788 0.023538956418633461 0.27526527643203735
0.016611240804195404 0.1333787590265274 0.2466767430305481
0.1621963232755661 0.16248694062232971 0.30075904726982117
0.37024489045143127 0.18917234241962433 0.34674832224845886
0.70499300956726074 0.21581107378005981 0.39742672443389893
0.9892156720161438 0.25129950046539307 0.44036024808883667
0.029291668906807899 0.43033796548843384 0.40775850415229797
0.25649359822273254 0.48305532336235046 0.4532836377620697
0.53299188613891602 0.52839750051498413 0.49881130456924438
0.78796744346618652 0.57602399587631226 0.5394127368927002
0.99017608165740967 0.61409252882003784 0.58201658725738525
0.037826970219612122 0.794483482837677 0.55446267127990723
0.35110330581665039 0.82251262664794922 0.60666608810424805
0.68761187791824341 0.84837055206298828 0.65203523635864258
0.87237334251403809 0.87529510259628296 0.69343680143356323
0.99604851007461548 0.89372467994689941 0.73890900611877441
0.052040878683328629 0.99374687671661377 0.71120929718017578
0.44369301199913025 0.99680286645889282 0.74925929307937622
0.83856666088104248 0.99608129262924194 0.8009677529335022
0.95529478788375854 0.99773281812667847 0.8544459342956543
0.99814409017562866 0.99796187877655029 0.89975428581237793
0.0011134727392345667 0.0030819312669336796 0.53643006086349487
0.062375012785196304 0.0087160300463438034 0.5690801739692688
0.23765778541564941 0.017868161201477051 0.58748042583465576
0.63725066184997559 0.018556825816631317 0.60089880228042603
0.98499149084091187 0.026440415531396866 0.6245763897895813
0.020349016413092613 0.15109297633171082 0.60261756181716919
0.1708720326423645 0.17572222650051117 0.63396847248077393
0.39033883810043335 0.20400732755661011 0.65872740745544434
0.71772861480712891 0.23085072636604309 0.67570805549621582
0.98937278985977173 0.26091894507408142 0.69712913036346436
0.03396625816822052 0.45960938930511475 0.68465793132781982
0.26833105087280273 0.50337803363800049 0.70366215705871582
0.54770112037658691 0.54978281259536743 0.72606742382049561
0.7996554970741272 0.59873884916305542 0.75043350458145142
0.99090862274169922 0.63991075754165649 0.77349865436553955
0.042277630418539047 0.80575287342071533 0.75844472646713257
0.36107698082923889 0.83500778675079346 0.78321278095245361
0.71029210090637207 0.85842502117156982 0.80669206380844116
0.88311088085174561 0.8839259147644043 0.83139216899871826
0.99612712860107422 0.90693855285644531 0.85437983274459839
0.058373156934976578 0.99592715501785278 0.83644670248031616
0.44764402508735657 0.99740707874298096 0.8650822639465332
0.86376088857650757 0.99682283401489258 0.88502031564712524
0.96541750431060791 0.99785685539245605 0.90553706884384155
1 0.99993050098419189 0.92984044551849365
0 0.00061394186923280358 0.90265125036239624
0.055763348937034607 0.0076086306944489479 0.93031191825866699
0.23829427361488342 0.022404016926884651 0.94234770536422729
0.62835311889648438 0.018209688365459442 0.93584436178207397
0.98558259010314941 0.027982210740447044 0.94246876239776611
0.02710113488137722 0.16172529757022858 0.94347667694091797
0.1764070987701416 0.18864110112190247 0.94567227363586426
0.40689766407012939 0.21620197594165802 0.9412391185760498
0.72385311126708984 0.24019978940486908 0.94086933135986328
0.98806661367416382 0.27086198329925537 0.94176661968231201
0.034387744963169098 0.47547787427902222 0.94156759977340698
0.27911251783370972 0.51656872034072876 0.94229352474212646
0.56516033411026001 0.57245028018951416 0.94207394123077393
0.80936735868453979 0.61395740509033203 0.94179368019104004
0.99144876003265381 0.67078608274459839 0.94237440824508667
0.042824823409318924 0.81502068042755127 0.94195860624313354
0.37334814667701721 0.84326440095901489 0.94335353374481201
0.73790419101715088 0.86834752559661865 0.94292879104614258
0.89249122142791748 0.89249098300933838 0.94496983289718628
0.99720239639282227 0.91861587762832642 0.94784581661224365
0.054218605160713196 0.994251549243927 0.94465833902359009
0.47195017337799072 0.99852943420410156 0.95203483104705811
0.89953786134719849 0.99689596891403198 0.94541352987289429
0.9751848578453064 0.99992120265960693 0.95107769966125488
0.9984012246131897 0.99891811609268188 0.9462849497795105
