assets/lut/alexjordan blue dark.cube
# Created by: G'MIC (https://gmic.eu)
TITLE "blue_dark"
# LUT size
LUT_3D_SIZE 13
# Data domain
DOMAIN_MIN 0.0 0.0 0.0
DOMAIN_MAX 1.0 1.0 1.0
# LUT data points
0.0060597886331379414 0.0077205882407724857 0.010821457952260971
0.017111700028181076 0.0077205882407724857 0.010189415886998177
0.027992472052574158 0.0077205882407724857 0.0087484018877148628
0.039853010326623917 0.0076093487441539764 0.008025703951716423
0.053383231163024902 0.0068853190168738365 0.0081409532576799393
0.069016069173812866 0.005866076797246933 0.0084548946470022202
0.086850233376026154 0.0055282744579017162 0.0098835965618491173
0.10588235408067703 0.0057153590023517609 0.011706886813044548
0.12649931013584137 0.0067194919101893902 0.014031309634447098
0.14862160384654999 0.0088452659547328949 0.017177686095237732
0.17215618491172791 0.012090046890079975 0.021861221641302109
0.1976514607667923 0.01740347221493721 0.028223404660820961
0.22500957548618317 0.024283735081553459 0.036857247352600098
0.0099502261728048325 0.026310475543141365 0.021477837115526199
0.022290084511041641 0.027022058144211769 0.022497603669762611
0.034640923142433167 0.028797328472137451 0.023288711905479431
0.047958929091691971 0.030106278136372566 0.024314282462000847
0.063026562333106995 0.030442226678133011 0.026387982070446014
0.079891011118888855 0.030487345531582832 0.028822101652622223
0.098204940557479858 0.030984213575720787 0.03198547288775444
0.11903434991836548 0.032781921327114105 0.03525250032544136
0.14060036838054657 0.035551108419895172 0.038719281554222107
0.16374132037162781 0.039141278713941574 0.043118465691804886
0.18819989264011383 0.043547909706830978 0.048831161111593246
0.21434482932090759 0.049272336065769196 0.056353610008955002
0.24218115210533142 0.05653032660484314 0.065745651721954346
0.013566065579652786 0.04394899308681488 0.031371831893920898
0.027185792103409767 0.04733918234705925 0.034495260566473007
0.041509035974740982 0.05110849067568779 0.037778906524181366
0.056834187358617783 0.054163075983524323 0.041559226810932159
0.073363780975341797 0.056609194725751877 0.045834530144929886
0.092046879231929779 0.058418497443199158 0.050724491477012634
0.11215097457170486 0.060746479779481888 0.055500015616416931
0.13349956274032593 0.064148738980293274 0.060134544968605042
0.15646257996559143 0.068434759974479675 0.064818359911441803
0.18060676753520966 0.072983823716640472 0.070341356098651886
0.20606085658073425 0.0779586061835289 0.077305123209953308
0.23309865593910217 0.083489768207073212 0.086048662662506104
0.26175215840339661 0.091117918491363525 0.096491873264312744
0.018706915900111198 0.0652313232421875 0.042665999382734299
0.033828180283308029 0.070463128387928009 0.047830633819103241
0.049741167575120926 0.076534286141395569 0.053807158023118973
0.067071340978145599 0.081790640950202942 0.060012802481651306
0.085673250257968903 0.08637816458940506 0.066629849374294281
0.10531316697597504 0.090393692255020142 0.073348492383956909
0.12679444253444672 0.094415955245494843 0.080138005316257477
0.14966526627540588 0.099615179002285004 0.086152933537960052
0.17401957511901855 0.10548697412014008 0.091992110013961792
0.19896821677684784 0.11097147315740585 0.09862760454416275
0.2256285548210144 0.11628829687833786 0.10677149146795273
0.25373348593711853 0.12178078293800354 0.11697963625192642
0.28297674655914307 0.12941320240497589 0.1285758763551712
0.027441421523690224 0.092890754342079163 0.057779096066951752
0.04336528480052948 0.099466852843761444 0.064495682716369629
0.060769639909267426 0.10718780010938644 0.072415642440319061
0.07910437136888504 0.11452849209308624 0.080734193325042725
0.099448829889297485 0.12116720527410507 0.089290454983711243
0.12099321931600571 0.12740923464298248 0.097739063203334808
0.14356136322021484 0.13358968496322632 0.10570080578327179
0.16760747134685516 0.14014062285423279 0.11328098177909851
0.19322663545608521 0.14686015248298645 0.12058952450752258
0.21940690279006958 0.15334346890449524 0.12835048139095306
0.24676170945167542 0.15928889811038971 0.13751249015331268
0.27536642551422119 0.16504420340061188 0.14869363605976105
0.30542925000190735 0.17261959612369537 0.16156509518623352
0.04043332114815712 0.12866212427616119 0.078051038086414337
0.057096771895885468 0.13566684722900391 0.085598751902580261
0.075357399880886078 0.14408427476882935 0.094836369156837463
0.095192931592464447 0.15257793664932251 0.1047559529542923
0.11552803218364716 0.16079457104206085 0.11476220190525055
0.13845175504684448 0.16881851851940155 0.12445210665464401
0.16255594789981842 0.17668730020523071 0.13383735716342926
0.18772204220294952 0.18432930111885071 0.14276811480522156
0.21426355838775635 0.1919335275888443 0.15157656371593475
0.24151848256587982 0.19931164383888245 0.16033263504505157
0.2695152759552002 0.2059829980134964 0.17027305066585541
0.29870516061782837 0.2121061384677887 0.1823420524597168
0.32932710647583008 0.21984890103340149 0.19613078236579895
0.057101920247077942 0.17111991345882416 0.10290151834487915
0.074019938707351685 0.17783623933792114 0.11127939820289612
0.091421566903591156 0.18638671934604645 0.12141351401805878
0.1131245493888855 0.19551669061183929 0.13239501416683197
0.13464203476905823 0.20472240447998047 0.14374621212482452
0.15841172635555267 0.21394167840480804 0.15481762588024139
0.18331466615200043 0.22287310659885406 0.16533049941062927
0.20975247025489807 0.23151165246963501 0.17554740607738495
0.23715515434741974 0.23979116976261139 0.18537996709346771
0.26523026823997498 0.24772568047046661 0.19551922380924225
0.29394969344139099 0.25491011142730713 0.20627400279045105
0.32370674610137939 0.26173514127731323 0.21860674023628235
0.35491758584976196 0.27000415325164795 0.23314458131790161
0.076424002647399902 0.21820907294750214 0.1320539265871048
0.094553746283054352 0.2249637097120285 0.14106404781341553
0.1129949688911438 0.23336760699748993 0.15203952789306641
0.13391324877738953 0.24277107417583466 0.16394431889057159
0.15611371397972107 0.2525082528591156 0.17629781365394592
0.18028156459331512 0.26235431432723999 0.18846990168094635
0.20614819228649139 0.27196279168128967 0.20005953311920166
0.2333042323589325 0.28130811452865601 0.21119605004787445
0.26155358552932739 0.29020458459854126 0.22228746116161346
0.29051584005355835 0.29863923788070679 0.23321633040904999
0.32014438509941101 0.30645355582237244 0.24496743083000183
0.35063156485557556 0.3143952488899231 0.25812554359436035
0.38236415386199951 0.32357189059257507 0.27294072508811951
0.098590925335884094 0.26893573999404907 0.16526348888874054
0.11614387482404709 0.27568551898002625 0.17481879889965057
0.13549162447452545 0.28415226936340332 0.18623907864093781
0.15664580464363098 0.29369524121284485 0.1989654004573822
0.17948862910270691 0.30371108651161194 0.21201080083847046
0.20418860018253326 0.31403186917304993 0.22524507343769073
0.23063521087169647 0.32421216368675232 0.23773650825023651
0.25851869583129883 0.33407875895500183 0.24964939057826996
0.28748911619186401 0.3436247706413269 0.26141950488090515
0.31730648875236511 0.35276171565055847 0.27330473065376282
0.34790554642677307 0.36164090037345886 0.28602391481399536
0.37931254506111145 0.37076839804649353 0.29990151524543762
0.41187283396720886 0.38126197457313538 0.31495511531829834
0.12208276242017746 0.32226204872131348 0.20186139643192291
0.14041011035442352 0.32946339249610901 0.21176193654537201
0.16012483835220337 0.3380221426486969 0.22360435128211975
0.18174691498279572 0.34776562452316284 0.23709896206855774
0.2048833966255188 0.35815253853797913 0.25063270330429077
0.22992485761642456 0.36879387497901917 0.26458728313446045
0.25683024525642395 0.37936174869537354 0.27773946523666382
0.28546690940856934 0.38991346955299377 0.29053691029548645
0.3152652382850647 0.40017667412757874 0.30288875102996826
0.3459770679473877 0.41016823053359985 0.31558153033256531
0.37739312648773193 0.42008057236671448 0.32890421152114868
0.40963909029960632 0.43042382597923279 0.34325951337814331
0.44287359714508057 0.44199010729789734 0.3588624894618988
0.14770615100860596 0.37861520051956177 0.24113741517066956
0.16663268208503723 0.38574418425559998 0.25158819556236267
0.18681551516056061 0.39485654234886169 0.26385077834129333
0.20862895250320435 0.40490862727165222 0.27737349271774292
0.23225176334381104 0.41529163718223572 0.29173329472541809
0.25758248567581177 0.42629706859588623 0.30604109168052673
0.28490617871284485 0.43735846877098083 0.31989410519599915
0.31418907642364502 0.44843840599060059 0.33292075991630554
0.34474316239356995 0.45934334397315979 0.34597790241241455
0.37616324424743652 0.4701840877532959 0.3592984676361084
0.40848299860954285 0.48117354512214661 0.37326353788375854
0.44143447279930115 0.49253702163696289 0.3881542980670929
0.47531276941299438 0.50502026081085205 0.40427011251449585
0.1747729480266571 0.43702989816665649 0.28307837247848511
0.194510817527771 0.44466885924339294 0.29358398914337158
0.21530589461326599 0.45384791493415833 0.30597183108329773
0.23765820264816284 0.46404385566711426 0.31964129209518433
0.26164892315864563 0.47502431273460388 0.33430391550064087
0.2875119149684906 0.48621860146522522 0.34908184409141541
0.31538653373718262 0.497629314661026 0.36326113343238831
0.34501290321350098 0.50929808616638184 0.37681478261947632
0.37601092457771301 0.52094686031341553 0.39036661386489868
0.40801060199737549 0.53254908323287964 0.40438187122344971
0.44092312455177307 0.54446470737457275 0.41900551319122314
0.4745602011680603 0.55674999952316284 0.43446186184883118
0.50891053676605225 0.56998527050018311 0.45108121633529663
0.20408144593238831 0.49759784340858459 0.32690674066543579
0.224137082695961 0.50560563802719116 0.33750125765800476
0.245534747838974 0.51489001512527466 0.34997031092643738
0.26863446831703186 0.52534002065658569 0.36357074975967407
0.29310789704322815 0.53652918338775635 0.37809225916862488
0.31951797008514404 0.5482182502746582 0.39288532733917236
0.34770411252975464 0.56018650531768799 0.4073912501335144
0.37769708037376404 0.57220923900604248 0.42161327600479126
0.40914791822433472 0.58458065986633301 0.4359799325466156
0.44151869416236877 0.59690910577774048 0.45065367221832275
0.47473791241645813 0.60953819751739502 0.465789794921875
0.50876331329345703 0.62264233827590942 0.48191279172897339
0.54363709688186646 0.63631325960159302 0.498850017786026
0.0043816659599542618 0.007277380209416151 0.024804297834634781
0.015859866514801979 0.0077205882407724857 0.025052059441804886
0.027180152013897896 0.0078126797452569008 0.024479974061250687
0.039415322244167328 0.0082576973363757133 0.023637793958187103
0.053278379142284393 0.0081727122887969017 0.023314651101827621
0.069219060242176056 0.0071760141290724277 0.025777045637369156
0.08711860328912735 0.0066908295266330242 0.027026800438761711
0.10622968524694443 0.0071324664168059826 0.028713345527648926
0.12733457982540131 0.0084543712437152863 0.031184222549200058
0.14938472211360931 0.01063187513500452 0.034123871475458145
0.17316789925098419 0.014036904089152813 0.038575146347284317
0.1984369158744812 0.01905314065515995 0.044784173369407654
0.22587418556213379 0.025655947625637054 0.053369589149951935
0.0088302465155720711 0.025393527001142502 0.036126110702753067
0.021447934210300446 0.027163906022906303 0.037787061184644699
0.034248936921358109 0.030289549380540848 0.039135336875915527
0.047848779708147049 0.031384784728288651 0.040862813591957092
0.063224464654922485 0.032151106745004654 0.042592741549015045
0.080532729625701904 0.032420888543128967 0.045961417257785797
0.099542699754238129 0.033281527459621429 0.048978962004184723
0.12004487216472626 0.035083860158920288 0.052184760570526123
0.14169681072235107 0.038001265376806259 0.055765531957149506
0.16479846835136414 0.041723094880580902 0.060007087886333466
0.18957012891769409 0.04610094428062439 0.065570682287216187
0.21557199954986572 0.051541466265916824 0.072848334908485413
0.24348844587802887 0.058593254536390305 0.082231931388378143
0.013334251940250397 0.044058870524168015 0.046643231064081192
0.026919825002551079 0.04802970215678215 0.050177212804555893
0.041407447308301926 0.052154943346977234 0.053831286728382111
0.056981403380632401 0.055715091526508331 0.057818379253149033
0.074059851467609406 0.058088667690753937 0.062392126768827438
0.093000151216983795 0.060430802404880524 0.067119628190994263
0.11324001848697662 0.063288010656833649 0.072021260857582092
0.13482847809791565 0.067089974880218506 0.076806791126728058
0.1578829288482666 0.071456283330917358 0.081642955541610718
0.18208053708076477 0.076050266623497009 0.087165728211402893
0.20736692845821381 0.080977208912372589 0.094004794955253601
0.23448146879673004 0.086506620049476624 0.10264496505260468
0.26298367977142334 0.093993000686168671 0.11316543072462082
0.019327364861965179 0.066358186304569244 0.058689627796411514
0.034135136753320694 0.071985922753810883 0.063941329717636108
0.049873262643814087 0.078110054135322571 0.070064052939414978
0.067361108958721161 0.08371049165725708 0.076362445950508118
0.086149387061595917 0.088493257761001587 0.083108104765415192
0.10655722767114639 0.092922016978263855 0.08977171778678894
0.12840871512889862 0.097865909337997437 0.096238307654857635
0.15144407749176025 0.10334206372499466 0.10250595957040787
0.17549873888492584 0.10898768156766891 0.10886668413877487
0.20102542638778687 0.11441364884376526 0.11573294550180435
0.22732464969158173 0.11979036778211594 0.1239112988114357
0.25501474738121033 0.12549754977226257 0.13378705084323883
0.28432357311248779 0.13302496075630188 0.14554667472839355
0.028315510600805283 0.09461415559053421 0.07421913743019104
0.044035069644451141 0.101329505443573 0.080820642411708832
0.061294972896575928 0.10929752141237259 0.088812105357646942
0.079971522092819214 0.11694413423538208 0.09745006263256073
0.10027225315570831 0.12383204698562622 0.10589083284139633
0.12209447473287582 0.13059471547603607 0.11421172320842743
0.14513508975505829 0.13762228190898895 0.12210902571678162
0.16976596415042877 0.1443852037191391 0.12997519969940186
0.19525161385536194 0.1508544385433197 0.1378554105758667
0.22167673707008362 0.15706491470336914 0.14601953327655792
0.24884378910064697 0.16309337317943573 0.15517978370189667
0.27723643183708191 0.1689375638961792 0.16631154716014862
0.30704745650291443 0.176496222615242 0.17924250662326813
0.041539691388607025 0.13036723434925079 0.094161957502365112
0.0577254518866539 0.13751937448978424 0.10192745178937912
0.07600276917219162 0.14636248350143433 0.11151900887489319
0.095415569841861725 0.15522283315658569 0.12172709405422211
0.11698949337005615 0.16377468407154083 0.13189452886581421
0.13980996608734131 0.17235364019870758 0.14187227189540863
0.16417260468006134 0.18084357678890228 0.1510123610496521
0.19017237424850464 0.18880841135978699 0.16031931340694427
0.21705427765846252 0.19614291191101074 0.16953246295452118
0.24428741633892059 0.20327307283878326 0.17882758378982544
0.27213770151138306 0.20999245345592499 0.18877680599689484
0.30112570524215698 0.21611599624156952 0.2008693516254425
0.3314501941204071 0.22379593551158905 0.21460475027561188
0.058098796755075455 0.1724279373884201 0.11880259960889816
0.075689829885959625 0.17977882921695709 0.12747205793857574
0.093705452978610992 0.18871574103832245 0.13821324706077576
0.11447273939847946 0.19818714261054993 0.14979349076747894
0.13616196811199188 0.20778359472751617 0.16148896515369415
0.16002447903156281 0.21737256646156311 0.17265236377716064
0.18564707040786743 0.22667835652828217 0.18339803814888
0.21246866881847382 0.23561835289001465 0.19391559064388275
0.2403106689453125 0.24389299750328064 0.20420795679092407
0.26850458979606628 0.2517734169960022 0.21466840803623199
0.29698911309242249 0.25902748107910156 0.2255190908908844
0.3266032338142395 0.26596122980117798 0.23793810606002808
0.35745173692703247 0.27417734265327454 0.25259077548980713
0.07765478640794754 0.21919216215610504 0.14790444076061249
0.09531441330909729 0.22666878998279572 0.15742892026901245
0.1144539937376976 0.23548147082328796 0.16904269158840179
0.13491526246070862 0.24531656503677368 0.18155604600906372
0.15786384046077728 0.25560271739959717 0.19434434175491333
0.18241071701049805 0.26574903726577759 0.20693765580654144
0.20871351659297943 0.27570560574531555 0.21883910894393921
0.23627741634845734 0.28531715273857117 0.23034791648387909
0.26485496759414673 0.29436337947845459 0.24174714088439941
0.29392731189727783 0.30288204550743103 0.25300401449203491
0.32346343994140625 0.31085294485092163 0.26485702395439148
0.35374331474304199 0.31880170106887817 0.27823060750961304
0.38534659147262573 0.32808032631874084 0.2931077778339386
0.099333204329013824 0.26958411931991577 0.1814703494310379
0.11727555096149445 0.27717936038970947 0.19151598215103149
0.13677740097045898 0.286235511302948 0.2036697119474411
0.15828481316566467 0.29632040858268738 0.21702942252159119
0.18156790733337402 0.30680710077285767 0.23059563338756561
0.20662954449653625 0.31751373410224915 0.24442861974239349
0.23346960544586182 0.32801973819732666 0.25711148977279663
0.2616334855556488 0.33821192383766174 0.26941803097724915
0.29094761610031128 0.34794288873672485 0.28154978156089783
0.32086905837059021 0.35715764760971069 0.29376271367073059
0.35133776068687439 0.3660295307636261 0.30649212002754211
0.38274383544921875 0.37530699372291565 0.32034769654273987
0.41499784588813782 0.38565301895141602 0.33566612005233765
0.12294533103704453 0.32310354709625244 0.21836285293102264
0.14138823747634888 0.33099934458732605 0.22910892963409424
0.16161888837814331 0.34026357531547546 0.24186672270298004
0.18348373472690582 0.35046181082725525 0.2554183304309845
0.20709960162639618 0.36134129762649536 0.2696075439453125
0.23260469734668732 0.37245538830757141 0.28392550349235535
0.2599492073059082 0.38341435790061951 0.29749190807342529
0.28875544667243958 0.39420643448829651 0.31059953570365906
0.31872433423995972 0.40452286601066589 0.32344335317611694
0.34954056143760681 0.41464164853096008 0.33626362681388855
0.3810373842716217 0.42464059591293335 0.34983506798744202
0.4132380485534668 0.43499606847763062 0.3644041121006012
0.44624719023704529 0.44640040397644043 0.38017919659614563
0.14804746210575104 0.37907683849334717 0.2587476372718811
0.16737751662731171 0.38726374506950378 0.26950588822364807
0.18814757466316223 0.39702180027961731 0.28217759728431702
0.2105330228805542 0.40749529004096985 0.29636615514755249
0.23456560075283051 0.41869685053825378 0.31100347638130188
0.26048150658607483 0.43017816543579102 0.32566648721694946
0.28822779655456543 0.44161516427993774 0.33984977006912231
0.3177209198474884 0.45300042629241943 0.35345166921615601
0.34835958480834961 0.46410068869590759 0.36688777804374695
0.37990626692771912 0.47508251667022705 0.38045662641525269
0.4121740460395813 0.48608112335205078 0.39468619227409363
0.4451238214969635 0.49739667773246765 0.40979528427124023
0.47885510325431824 0.50970578193664551 0.42601552605628967
0.17575503885746002 0.43755289912223816 0.30102646350860596
0.19543501734733582 0.44615352153778076 0.31208905577659607
0.21653123199939728 0.45600369572639465 0.32488924264907837
0.23954777419567108 0.46695125102996826 0.33901292085647583
0.26407620310783386 0.47843694686889648 0.35397344827651978
0.29027631878852844 0.49023878574371338 0.36891606450080872
0.31861206889152527 0.50224614143371582 0.38347238302230835
0.34852996468544006 0.51419925689697266 0.39764925837516785
0.37978446483612061 0.52598315477371216 0.41173017024993896
0.4118492603302002 0.53786826133728027 0.42598170042037964
0.4446713924407959 0.54957181215286255 0.4409121572971344
0.478353351354599 0.56207102537155151 0.45651108026504517
0.51259344816207886 0.57511836290359497 0.47319126129150391
0.20460262894630432 0.49809780716896057 0.34535545110702515
0.22486279904842377 0.50702923536300659 0.35650694370269775
0.24685277044773102 0.51716470718383789 0.36936768889427185
0.27022460103034973 0.52834481000900269 0.38333195447921753
0.29536938667297363 0.54013687372207642 0.3983021080493927
0.32226800918579102 0.55238634347915649 0.41333773732185364
0.35085365176200867 0.56484973430633545 0.42832624912261963
0.3811071515083313 0.57727348804473877 0.44303503632545471
0.41262549161911011 0.58954942226409912 0.45766627788543701
0.44532337784767151 0.60228860378265381 0.47258180379867554
0.47861549258232117 0.6151009202003479 0.48809099197387695
0.51266235113143921 0.62816447019577026 0.50440716743469238
0.54745513200759888 0.6416935920715332 0.52157151699066162
0.002943375613540411 0.0056782141327857971 0.039065580815076828
0.014571036212146282 0.0077186436392366886 0.040347080677747726
0.02678731270134449 0.0080385096371173859 0.040984313935041428
0.039822999387979507 0.0089057022705674171 0.042015958577394485
0.054218485951423645 0.008807881735265255 0.042279411107301712
0.070574790239334106 0.0085653867572546005 0.044314693659543991
0.088679216802120209 0.0085309343412518501 0.046225752681493759
0.10819947719573975 0.0091293780133128166 0.04781278595328331
0.12885338068008423 0.010526679456233978 0.050055321305990219
0.15121664106845856 0.012931165285408497 0.052611272782087326
0.17509323358535767 0.016662029549479485 0.056701630353927612
0.200736403465271 0.021644113585352898 0.062599062919616699
0.22807058691978455 0.027937870472669601 0.071001283824443817
0.0078603560104966164 0.024676304310560226 0.051172427833080292
0.020641252398490906 0.027509741485118866 0.053561370819807053
0.034191027283668518 0.030750663951039314 0.056015748530626297
0.048556219786405563 0.032128516584634781 0.058191664516925812
0.064542941749095917 0.03302408754825592 0.061460189521312714
0.082329139113426208 0.033784095197916031 0.06464221328496933
0.10151760280132294 0.035259708762168884 0.067660205066204071
0.12175750732421875 0.037756048142910004 0.070995032787322998
0.14369811117649078 0.040943428874015808 0.074468009173870087
0.16689236462116241 0.044774327427148819 0.07846570760011673
0.19148536026477814 0.049234755337238312 0.083554945886135101
0.21778073906898499 0.054694037884473801 0.090583935379981995
0.24571643769741058 0.061614211648702621 0.1000380739569664
0.013785687275230885 0.044489827007055283 0.062995284795761108
0.027317630127072334 0.049143292009830475 0.066821932792663574
0.04203483834862709 0.053594820201396942 0.071235686540603638
0.057923648506402969 0.057096607983112335 0.075710251927375793
0.075733572244644165 0.0596744604408741 0.080819644033908844
0.09502817690372467 0.061953987926244736 0.085702471435070038
0.11560112237930298 0.065524548292160034 0.090532340109348297
0.13731950521469116 0.07001214474439621 0.095326818525791168
0.16017845273017883 0.074704565107822418 0.10035807639360428
0.18433436751365662 0.07951577752828598 0.10572366416454315
0.2098250687122345 0.084637373685836792 0.11240667849779129
0.23678362369537354 0.090491399168968201 0.12093479186296463
0.26533696055412292 0.09779009222984314 0.13144589960575104
0.020568309351801872 0.068020030856132507 0.076138123869895935
0.035206694155931473 0.073943480849266052 0.081648238003253937
0.051037013530731201 0.080539897084236145 0.087977178394794464
0.068538442254066467 0.086130551993846893 0.094669610261917114
0.088146299123764038 0.090524859726428986 0.10170714557170868
0.10909049957990646 0.09496249258518219 0.10822392255067825
0.1310785710811615 0.10058390349149704 0.11482709646224976
0.15408867597579956 0.10651341080665588 0.12130140513181686
0.1783471405506134 0.11247575283050537 0.1278051882982254
0.20356732606887817 0.11813022196292877 0.13483183085918427
0.22994013130664825 0.12374439835548401 0.14290699362754822
0.25752684473991394 0.12991559505462646 0.15268242359161377
0.28650981187820435 0.13745585083961487 0.16420701146125793
0.030304703861474991 0.0971098393201828 0.0924391970038414
0.045710589736700058 0.10431817919015884 0.099023662507534027
