assets/lut/alexjordan brownish.cube
# Created by: G'MIC (https://gmic.eu)
TITLE "brownish"
# LUT size
LUT_3D_SIZE 13
# Data domain
DOMAIN_MIN 0.0 0.0 0.0
DOMAIN_MAX 1.0 1.0 1.0
# LUT data points
0 0 0
0 0 0
0 0 0
0.00052328669698908925 0.00023947322915773839 6.8395274865906686e-05
0.006878572516143322 0.0023306005168706179 0.00078765267971903086
0.023823441937565804 0.0064495159313082695 0.0024406283628195524
0.053133450448513031 0.011290621012449265 0.0054023293778300285
0.090001948177814484 0.015876695513725281 0.010078055784106255
0.12883836030960083 0.020458491519093513 0.017878858372569084
0.16844800114631653 0.025371281430125237 0.026529230177402496
0.21217373013496399 0.029999557882547379 0.031719088554382324
0.25948420166969299 0.034209337085485458 0.03123869001865387
0.30399194359779358 0.041593872010707855 0.030882608145475388
0.00020355523156467825 0.00068504485534504056 0.0004413679416757077
0.0046289181336760521 0.004484124481678009 0.0034351872745901346
0.016111874952912331 0.011930966749787331 0.0090760029852390289
0.037152323871850967 0.021263092756271362 0.015044178813695908
0.066430993378162384 0.029394172132015228 0.019134655594825745
0.10082829743623734 0.036228418350219727 0.022372152656316757
0.13960795104503632 0.041772354394197464 0.02606181800365448
0.18152865767478943 0.045808065682649612 0.029192831367254257
0.22588762640953064 0.048894155770540237 0.033360797911882401
0.27249696850776672 0.05233905091881752 0.037364210933446884
0.31813868880271912 0.057786125689744949 0.041549008339643478
0.35854050517082214 0.068212457001209259 0.046595361083745956
0.39551010727882385 0.08177514374256134 0.052017003297805786
0.023181645199656487 0.029640527442097664 0.020301640033721924
0.044038824737071991 0.04123249277472496 0.027791086584329605
0.066137872636318207 0.051979407668113708 0.03315570205450058
0.094259701669216156 0.060207128524780273 0.03652559220790863
0.12911772727966309 0.066902101039886475 0.037801105529069901
0.1691216379404068 0.073384664952754974 0.039786215871572495
0.21256372332572937 0.079267807304859161 0.041664034128189087
0.25836741924285889 0.083898492157459259 0.043695069849491119
0.3069145679473877 0.08764832466840744 0.045770280063152313
0.35702204704284668 0.09158693253993988 0.048387341201305389
0.40335363149642944 0.099267818033695221 0.053346537053585052
0.44106727838516235 0.11353981494903564 0.062809720635414124
0.47444942593574524 0.13188187777996063 0.073249951004981995
0.058906123042106628 0.079904742538928986 0.044269006699323654
0.082031786441802979 0.090043984353542328 0.046364564448595047
0.10813754051923752 0.098623372614383698 0.046772662550210953
0.14131371676921844 0.10496540367603302 0.047280717641115189
0.18045790493488312 0.11145380139350891 0.048461135476827621
0.22424037754535675 0.11933884024620056 0.051562994718551636
0.27089053392410278 0.1271730363368988 0.054571203887462616
0.31911671161651611 0.13417428731918335 0.057197585701942444
0.36852505803108215 0.14063672721385956 0.060446180403232574
0.41771784424781799 0.14789053797721863 0.065256662666797638
0.46337485313415527 0.15847350656986237 0.073284372687339783
0.50319457054138184 0.17441721260547638 0.084763802587985992
0.53806942701339722 0.1939556747674942 0.098246723413467407
0.081414617598056793 0.13817095756530762 0.056688748300075531
0.11019695550203323 0.14690624177455902 0.057645954191684723
0.1414950042963028 0.15445369482040405 0.056998547166585922
0.17869596183300018 0.16060693562030792 0.056931156665086746
0.2217029482126236 0.16773904860019684 0.059187989681959152
0.26911893486976624 0.17678166925907135 0.064126364886760712
0.31870564818382263 0.18667712807655334 0.068820059299468994
0.36832568049430847 0.19719392061233521 0.073248006403446198
0.41752228140830994 0.20678521692752838 0.078593358397483826
0.46573555469512939 0.21724700927734375 0.086853146553039551
0.51178443431854248 0.23033811151981354 0.098199211061000824
0.55386209487915039 0.24615423381328583 0.11201750487089157
0.59127938747406006 0.26554715633392334 0.12735152244567871
0.098827347159385681 0.20369312167167664 0.065716564655303955
0.13354025781154633 0.21203583478927612 0.06735171377658844
0.16999149322509766 0.22028149664402008 0.068438559770584106
0.21074599027633667 0.22805559635162354 0.070486880838871002
0.25692096352577209 0.23633888363838196 0.074933655560016632
0.30843070149421692 0.24589496850967407 0.08122534304857254
0.36113280057907104 0.25727358460426331 0.087533138692378998
0.41228002309799194 0.26957601308822632 0.093658700585365295
0.46170994639396667 0.28241109848022461 0.10157879441976547
0.51023858785629272 0.29522347450256348 0.11324338614940643
0.55717509984970093 0.30982354283332825 0.12767279148101807
0.60031932592391968 0.32682603597640991 0.14368602633476257
0.63942259550094604 0.34558397531509399 0.16047841310501099
0.11582418531179428 0.27522963285446167 0.076556108891963959
0.15652179718017578 0.28438872098922729 0.080100581049919128
0.198947474360466 0.29383617639541626 0.083921588957309723
0.24409013986587524 0.3035251796245575 0.088912889361381531
0.29336854815483093 0.31331875920295715 0.095874637365341187
0.34808242321014404 0.32373937964439392 0.10402983427047729
0.40309065580368042 0.3357451856136322 0.1121523380279541
0.45599153637886047 0.34932923316955566 0.1205185204744339
0.50641471147537231 0.36349618434906006 0.13116191327571869
0.5556788444519043 0.37782898545265198 0.14565594494342804
0.60261052846908569 0.3933958113193512 0.16261988878250122
0.64600706100463867 0.41057267785072327 0.17994120717048645
0.68551546335220337 0.42881524562835693 0.19780592620372772
0.13834075629711151 0.35158875584602356 0.092459224164485931
0.18428869545459747 0.36174255609512329 0.098295547068119049
0.23312842845916748 0.37261098623275757 0.10544215142726898
0.28384760022163391 0.38370385766029358 0.11364639550447464
0.33688622713088989 0.39464938640594482 0.12340492010116577
0.39242947101593018 0.40602052211761475 0.13401345908641815
0.44809344410896301 0.41859206557273865 0.14427390694618225
0.50174564123153687 0.43256118893623352 0.15474086999893188
0.55321705341339111 0.44707450270652771 0.16765591502189636
0.60259783267974854 0.46179616451263428 0.18424174189567566
0.64897787570953369 0.47752547264099121 0.20254805684089661
0.69166570901870728 0.49488702416419983 0.22059592604637146
0.73078370094299316 0.51247227191925049 0.23856799304485321
0.16733419895172119 0.43049588799476624 0.11673078685998917
0.21929097175598145 0.44223815202713013 0.12504696846008301
0.27429667115211487 0.45416367053985596 0.13522212207317352
0.33004432916641235 0.46616160869598389 0.14662179350852966
0.38579040765762329 0.47775059938430786 0.15937197208404541
0.44137272238731384 0.48954671621322632 0.17252841591835022
0.49627271294593811 0.50226527452468872 0.18463271856307983
0.54967373609542847 0.5160183310508728 0.19634993374347687
0.60094404220581055 0.53029161691665649 0.21015508472919464
0.64945405721664429 0.54472988843917847 0.22767737507820129
0.69500136375427246 0.56037825345993042 0.24597769975662231
0.73690557479858398 0.57724261283874512 0.2641206681728363
0.77563154697418213 0.59416931867599487 0.28223529458045959
0.20735163986682892 0.51103073358535767 0.15219202637672424
0.26305335760116577 0.52345836162567139 0.16243571043014526
0.32224798202514648 0.53627705574035645 0.17493113875389099
0.38136583566665649 0.54880505800247192 0.188823401927948
0.43789511919021606 0.56049948930740356 0.20458237826824188
0.49281048774719238 0.57201308012008667 0.220164954662323
0.5464368462562561 0.58433705568313599 0.23376202583312988
0.5984947681427002 0.59744489192962646 0.24611984193325043
0.6484684944152832 0.61104047298431396 0.25938087701797485
0.6958279013633728 0.62511152029037476 0.27551785111427307
0.74016463756561279 0.64014554023742676 0.29271635413169861
0.78133469820022583 0.65623170137405396 0.31030571460723877
0.81959503889083862 0.67209023237228394 0.32785362005233765
0.2573850154876709 0.59139740467071533 0.19881041347980499
0.31481984257698059 0.60394823551177979 0.21044191718101501
0.37492808699607849 0.61678814888000488 0.22482801973819733
0.4345056414604187 0.62934446334838867 0.24058067798614502
0.49116584658622742 0.64097875356674194 0.25943627953529358
0.54503554105758667 0.65235233306884766 0.27639830112457275
0.59721213579177856 0.66394859552383423 0.29036781191825867
0.64738857746124268 0.67600709199905396 0.30208536982536316
0.69563168287277222 0.68872940540313721 0.31396108865737915
0.74142640829086304 0.7022210955619812 0.32732751965522766
0.78459405899047852 0.71658003330230713 0.34245121479034424
0.82499343156814575 0.73176801204681396 0.35862404108047485
0.86270678043365479 0.74684244394302368 0.37520986795425415
0.31284749507904053 0.6698530912399292 0.25242751836776733
0.37054163217544556 0.68238288164138794 0.26578417420387268
0.43001741170883179 0.69486331939697266 0.28231164813041687
0.48835229873657227 0.7071526050567627 0.3001314103603363
0.54405248165130615 0.71875983476638794 0.31965348124504089
0.59689736366271973 0.72991406917572021 0.33797949552536011
0.64751309156417847 0.7408255934715271 0.35177138447761536
0.69588392972946167 0.75206685066223145 0.3617074191570282
0.74213927984237671 0.76377785205841064 0.37125590443611145
0.78647172451019287 0.77661252021789551 0.38180172443389893
0.82837826013565063 0.79024201631546021 0.39437153935432434
0.86780083179473877 0.80473047494888306 0.40882498025894165
0.90514582395553589 0.8192562460899353 0.42454072833061218
0.36985108256340027 0.74666464328765869 0.31012639403343201
0.42729708552360535 0.75883746147155762 0.32492867112159729
0.48539578914642334 0.77100551128387451 0.34190309047698975
0.54203695058822632 0.78278231620788574 0.36137586832046509
0.59628349542617798 0.79424881935119629 0.38153353333473206
0.64763593673706055 0.80512094497680664 0.40011054277420044
0.69632351398468018 0.81558692455291748 0.41308552026748657
0.74327665567398071 0.82601088285446167 0.42108166217803955
0.78794479370117188 0.83698403835296631 0.42827436327934265
0.83068710565567017 0.84907037019729614 0.43681412935256958
0.87145000696182251 0.86217600107192993 0.44776138663291931
0.91015714406967163 0.87599343061447144 0.46037670969963074
0.94676613807678223 0.89006006717681885 0.47465083003044128
0 0 0
0 0 0
0 0 0
0.0017873278120532632 0.00084241980221122503 0.0010809805244207382
0.010814487002789974 0.0044233133085072041 0.0044252881780266762
0.029459066689014435 0.010215100832283497 0.0098366085439920425
0.060134679079055786 0.01612834632396698 0.016765190288424492
0.099751882255077362 0.019598763436079025 0.024178523570299149
0.13930971920490265 0.023300739005208015 0.032516852021217346
0.1814287006855011 0.026709852740168571 0.040602080523967743
0.22899888455867767 0.029212711378931999 0.045736905187368393
0.27843120694160461 0.032023217529058456 0.048096060752868652
0.32376834750175476 0.038612216711044312 0.050292398780584335
0.0010414273710921407 0.0016361610032618046 0.0022805905900895596
0.0083191515877842903 0.00664545688778162 0.0078539233654737473
0.022726815193891525 0.01515782717615366 0.016107328236103058
0.045661341398954391 0.024986760690808296 0.02489268034696579
0.074953742325305939 0.033067576587200165 0.032022766768932343
0.11031083017587662 0.039557602256536484 0.038260232657194138
0.14958076179027557 0.044359035789966583 0.04304841160774231
0.19233399629592896 0.047721624374389648 0.047223184257745743
0.23593945801258087 0.051033467054367065 0.052194379270076752
0.28152641654014587 0.054324042052030563 0.057427544146776199
0.32893019914627075 0.058829303830862045 0.062386739999055862
0.37388384342193604 0.066616177558898926 0.067594863474369049
0.41365295648574829 0.078613013029098511 0.074160665273666382
0.027690572664141655 0.033863231539726257 0.02976093627512455
0.048843160271644592 0.045187976211309433 0.037598494440317154
0.07181384414434433 0.055407773703336716 0.044112171977758408
0.10095001012086868 0.063369840383529663 0.049597959965467453
0.13702508807182312 0.06997399777173996 0.054176568984985352
0.17847619950771332 0.075806625187397003 0.058642100542783737
0.22265924513339996 0.080945514142513275 0.062195271253585815
0.26821166276931763 0.085574448108673096 0.065398074686527252
0.31499981880187988 0.089555360376834869 0.069054558873176575
0.36266729235649109 0.093880489468574524 0.073487222194671631
0.40943005681037903 0.10114653408527374 0.079637818038463593
0.45153641700744629 0.11333607882261276 0.088242866098880768
0.48892870545387268 0.13040341436862946 0.099019728600978851
0.059826076030731201 0.083970300853252411 0.056195158511400223
0.08324209600687027 0.094047904014587402 0.058856245130300522
0.11098535358905792 0.1022777184844017 0.061662904918193817
0.14580643177032471 0.10880625247955322 0.065206103026866913
0.18663112819194794 0.11500488221645355 0.069242976605892181
0.23208621144294739 0.1217510774731636 0.074017725884914398
0.27974081039428711 0.12891374528408051 0.078481830656528473
0.32753488421440125 0.13605152070522308 0.082457751035690308
0.374998539686203 0.1426541805267334 0.087150946259498596
0.4217860996723175 0.14984089136123657 0.093714728951454163
0.46745079755783081 0.15997087955474854 0.1024458035826683
0.51081299781799316 0.1747426837682724 0.11375615745782852
0.54880475997924805 0.19345012307167053 0.12707105278968811
0.081696800887584686 0.14142331480979919 0.073458231985569
0.11056762188673019 0.15038964152336121 0.074815861880779266
0.14312247931957245 0.15795363485813141 0.076195374131202698
0.18213619291782379 0.16436085104942322 0.079114682972431183
0.22703292965888977 0.17118199169635773 0.083835780620574951
0.27605131268501282 0.17915014922618866 0.090115822851657867
0.32653480768203735 0.18860726058483124 0.096143417060375214
0.37586429715156555 0.1991182267665863 0.10164446383714676
0.42353451251983643 0.20929525792598724 0.10843487828969955
0.46968951821327209 0.21966469287872314 0.11795160919427872
0.51521998643875122 0.23225553333759308 0.12982392311096191
0.55962318181991577 0.24816493690013885 0.14340300858020782
0.59970772266387939 0.26678842306137085 0.15858359634876251
0.099489726126194 0.20662868022918701 0.086979523301124573
0.13392764329910278 0.21516178548336029 0.089507341384887695
0.17176423966884613 0.22325576841831207 0.091825254261493683
0.21442528069019318 0.23095571994781494 0.095869041979312897
0.26257643103599548 0.23890501260757446 0.10226943343877792
0.31555056571960449 0.24779020249843597 0.11046530306339264
0.3685881495475769 0.25909820199012756 0.11811788380146027
0.41946670413017273 0.27253609895706177 0.12511943280696869
0.46811309456825256 0.2858697772026062 0.1343303769826889
0.51530987024307251 0.29870030283927917 0.14659322798252106
0.56146538257598877 0.31291809678077698 0.1613050252199173
0.60574960708618164 0.32945209741592407 0.17706054449081421
0.6462593674659729 0.34800013899803162 0.19370844960212708
0.11748149991035461 0.27850806713104248 0.10162700712680817
0.15764641761779785 0.28756371140480042 0.10567205399274826
0.20109635591506958 0.29685476422309875 0.11064508557319641
0.24796761572360992 0.30610296130180359 0.11729250103235245
0.29925057291984558 0.31566208600997925 0.12595684826374054
0.35471957921981812 0.32581660151481628 0.13570436835289001
0.4100499153137207 0.33839908242225647 0.14517252147197723
0.462636798620224 0.35309076309204102 0.15461209416389465
0.51310449838638306 0.3676811158657074 0.16648505628108978
0.56163477897644043 0.38198912143707275 0.18107442557811737
0.60811573266983032 0.39713746309280396 0.19845111668109894
0.65171390771865845 0.41414573788642883 0.21517977118492126
0.69188833236694336 0.43209600448608398 0.23268157243728638
0.14050911366939545 0.35543018579483032 0.12126882374286652
0.18620601296424866 0.365610271692276 0.12749756872653961
0.2355542778968811 0.37603718042373657 0.13548377156257629
0.28768423199653625 0.3866066038608551 0.14522765576839447
0.34196680784225464 0.3974241316318512 0.1563996821641922
0.39826303720474243 0.40883955359458923 0.16818135976791382
0.45432630181312561 0.42190629243850708 0.17946457862854004
0.5080869197845459 0.43644401431083679 0.19105592370033264
0.5596698522567749 0.45121076703071594 0.20497983694076538
0.608997642993927 0.46604123711585999 0.22202816605567932
0.65532827377319336 0.4815807044506073 0.24024307727813721
0.69785141944885254 0.49882647395133972 0.25756290555000305
0.73719966411590576 0.51633143424987793 0.27497997879981995
0.17136834561824799 0.43567338585853577 0.14945392310619354
0.22262248396873474 0.44670385122299194 0.15788835287094116
0.27763462066650391 0.45809924602508545 0.16865374147891998
0.33388325572013855 0.46953564882278442 0.18133208155632019
0.39043349027633667 0.48103839159011841 0.19512388110160828
0.44674041867256165 0.49291518330574036 0.20907074213027954
0.50210481882095337 0.50579363107681274 0.2220526784658432
0.55580830574035645 0.51988846063613892 0.23483112454414368
0.6072801947593689 0.53435266017913818 0.24943667650222778
0.6560511589050293 0.54894423484802246 0.26688024401664734
0.70172965526580811 0.56431317329406738 0.2852112352848053
0.7433742880821228 0.58125823736190796 0.30260506272315979
0.78214317560195923 0.59803974628448486 0.3200538158416748
0.21303445100784302 0.51710528135299683 0.18816742300987244
0.26832717657089233 0.52879279851913452 0.19859954714775085
0.32702493667602539 0.54061484336853027 0.21178555488586426
0.38585707545280457 0.55243957042694092 0.22670519351959229
0.44305592775344849 0.56406086683273315 0.24294129014015198
0.49847796559333801 0.57576858997344971 0.25883188843727112
0.55243760347366333 0.58808004856109619 0.27286481857299805
0.60466307401657104 0.60111558437347412 0.28562718629837036
0.65485399961471558 0.61463803052902222 0.29931217432022095
0.7024834156036377 0.62879467010498047 0.31512457132339478
0.74699002504348755 0.64395672082901001 0.33211556077003479
0.78801470994949341 0.66017019748687744 0.34941762685775757
0.82627683877944946 0.67604345083236694 0.36662536859512329
0.26463234424591064 0.59758150577545166 0.23690623044967651
0.32209619879722595 0.60941171646118164 0.24903714656829834
0.38205686211585999 0.62128978967666626 0.26394405961036682
0.44124612212181091 0.63317829370498657 0.28111153841018677
0.4976959228515625 0.64481163024902344 0.29918080568313599
0.55167889595031738 0.65618693828582764 0.3166242241859436
0.60381120443344116 0.66749268770217896 0.33071261644363403
0.65399396419525146 0.6793816089630127 0.34228575229644775
0.70228177309036255 0.69185793399810791 0.35363078117370605
0.74810779094696045 0.70531362295150757 0.36681380867958069
0.7914307713508606 0.7199932336807251 0.38189017772674561
0.83179992437362671 0.73541206121444702 0.39798429608345032
0.86946380138397217 0.75038343667984009 0.41464748978614807
0.3223082423210144 0.67569524049758911 0.29249662160873413
0.38063329458236694 0.6874498724937439 0.30628123879432678
0.44009643793106079 0.69931221008300781 0.32275915145874023
0.49796459078788757 0.71115940809249878 0.34157320857048035
0.55285251140594482 0.72259980440139771 0.36146995425224304
0.60495752096176147 0.73356205224990845 0.37965899705886841
0.65500885248184204 0.74416762590408325 0.39290526509284973
0.70303237438201904 0.75484532117843628 0.40189334750175476
0.74923646450042725 0.76601284742355347 0.41021272540092468
0.7934609055519104 0.77876168489456177 0.42076373100280762
0.83526778221130371 0.79266434907913208 0.43356993794441223
0.87468737363815308 0.80736905336380005 0.44817066192626953
0.91186344623565674 0.82199013233184814 0.46374121308326721
0.38178625702857971 0.75148367881774902 0.35160961747169495
0.43984648585319519 0.76338100433349609 0.36678206920623779
0.49804550409317017 0.77498418092727661 0.38444820046424866
0.55392587184906006 0.78664255142211914 0.40401852130889893
0.60689550638198853 0.79775738716125488 0.4244123101234436
0.65704846382141113 0.80848556756973267 0.44299131631851196
0.70516133308410645 0.81846064329147339 0.45514926314353943
0.75109994411468506 0.82802760601043701 0.46151924133300781
0.79547160863876343 0.83835476636886597 0.46783310174942017
0.83793860673904419 0.85011446475982666 0.47570845484733582
0.87843328714370728 0.86346745491027832 0.48666191101074219
0.91698354482650757 0.87749677896499634 0.49950292706489563
0.953460693359375 0.89168882369995117 0.51391029357910156
0 0 0
0 0 0
0.0002062629209831357 8.7962427642196417e-05 0.00018292595632374287
0.0041652005165815353 0.0019653320778161287 0.0026476990897208452
0.015514493919909 0.0067560086026787758 0.0085119958966970444
0.036913733929395676 0.013412700034677982 0.017416141927242279
0.069631941616535187 0.018946882337331772 0.027138683944940567
0.10921647399663925 0.022170616313815117 0.036228720098733902
0.14881724119186401 0.026383118703961372 0.045694150030612946
0.19345253705978394 0.028959356248378754 0.053840052336454391
0.24512144923210144 0.029632389545440674 0.059700552374124527
0.29589763283729553 0.031540200114250183 0.064745105803012848
0.34101173281669617 0.03763141855597496 0.070493273437023163
0.0026509752497076988 0.0032117357477545738 0.0045559154823422432
0.01314570102840662 0.0094450553879141808 0.012057091109454632
0.030293198302388191 0.018858052790164948 0.022365763783454895
0.053313460201025009 0.02858264371752739 0.033125784248113632
0.082398355007171631 0.036620404571294785 0.042636603116989136
0.1177179366350174 0.04268207773566246 0.051120713353157043
0.15794159471988678 0.046880219131708145 0.058092903345823288
0.20082475244998932 0.050155386328697205 0.064211465418338776
0.24425019323825836 0.054022323340177536 0.070857986807823181
0.291015625 0.057412419468164444 0.077064856886863708
0.34082722663879395 0.060837332159280777 0.083097107708454132
0.3881000280380249 0.067262299358844757 0.089650712907314301
0.42894700169563293 0.078187830746173859 0.09813525527715683
0.032409533858299255 0.038398399949073792 0.038955073803663254
0.054215747863054276 0.049162380397319794 0.047841150313615799
0.077874280512332916 0.058962669223546982 0.055540826171636581
0.1072545051574707 0.067033402621746063 0.063025698065757751
0.14323139190673828 0.073661208152770996 0.070094361901283264
0.18504394590854645 0.07920527458190918 0.076747477054595947
0.22994531691074371 0.084049016237258911 0.082544408738613129
0.27555492520332336 0.088556401431560516 0.087680622935295105
0.32157620787620544 0.093217454850673676 0.093288853764533997
0.36872780323028564 0.098186179995536804 0.099662095308303833
0.41642701625823975 0.10483478009700775 0.10687655210494995
0.46136829257011414 0.11547765135765076 0.11598709970712662
0.50015616416931152 0.13096348941326141 0.12748974561691284
0.061744481325149536 0.087800793349742889 0.070025421679019928
0.086531154811382294 0.097568079829216003 0.074852481484413147
0.11529248952865601 0.10602913796901703 0.079200446605682373
0.15054841339588165 0.11305977404117584 0.084875054657459259
0.19182641804218292 0.11963004618883133 0.090824171900749207
0.23797470331192017 0.1261909008026123 0.097174547612667084
0.28612223267555237 0.13298718631267548 0.10341358929872513
0.33401584625244141 0.14013344049453735 0.10942474007606506
0.38048139214515686 0.1471930593252182 0.1161336675286293
0.42563918232917786 0.15448823571205139 0.12450818717479706
0.47127518057823181 0.16422724723815918 0.13419699668884277
0.51682716608047485 0.1779826283454895 0.14549970626831055
0.55700796842575073 0.19534957408905029 0.15912206470966339
0.082516074180603027 0.14508505165576935 0.09256058931350708
0.11226417869329453 0.15381763875484467 0.095835648477077484
0.14622318744659424 0.16177479922771454 0.099041372537612915
0.18628548085689545 0.16892339289188385 0.10394509881734848
0.23195980489253998 0.17625756561756134 0.11005023121833801
0.28179046511650085 0.18406996130943298 0.11754964292049408
0.33259740471839905 0.19361531734466553 0.12520737946033478
0.38191479444503784 0.20434318482875824 0.13259674608707428
0.42862728238105774 0.21481224894523621 0.14115343987941742
0.47335147857666016 0.2249104380607605 0.15204833447933197
