assets/lut/alexjordan contrasty green.cube
# Created by: G'MIC (https://gmic.eu)
TITLE "contrasty_green"
# LUT size
LUT_3D_SIZE 5
# Data domain
DOMAIN_MIN 0.0 0.0 0.0
DOMAIN_MAX 1.0 1.0 1.0
# LUT data points
3.0338062060764059e-05 0 0.0034245061688125134
0.14287571609020233 0 0
0.59505605697631836 0.00026312435511499643 0
1 0 0
1 0 0
0 0.082898005843162537 0
0.14363583922386169 0.1019241064786911 0
0.73344612121582031 0.068357624113559723 0
1 0.033606793731451035 0
1 0.017015419900417328 0.00063787720864638686
0.0039237975142896175 0.54162418842315674 0
0.23183004558086395 0.61524337530136108 0
0.90011954307556152 0.59741246700286865 0
1 0.50068879127502441 0.00025767905754037201
0.9989626407623291 0.54472881555557251 0.00089886237401515245
0.0039548985660076141 1 0.00015581915795337409
0.33324015140533447 1 0.0094937942922115326
0.99756944179534912 0.99999678134918213 0.00071258546086028218
0.99745595455169678 1 0.00060237810248509049
1 1 0.0076232012361288071
0.00033371869358234107 1 0.0044510932639241219
0.41962656378746033 0.99903947114944458 0.013017348013818264
1 0.99991708993911743 0.022600838914513588
1 1 0.039499007165431976
1 1 0.066926129162311554
3.7339155824156478e-05 0 0.043430492281913757
0.14489392936229706 0.0001476063480367884 0.0022395863197743893
0.62965220212936401 0.004352315329015255 0
1 0 0
1 0 0
0 0.1024206280708313 0.0079234251752495766
0.17178289592266083 0.12310470640659332 0.027988912537693977
0.77837830781936646 0.10034713894128799 0.0028969708364456892
1 0.038142498582601547 0
1 0.032717879861593246 0
0 0.5924067497253418 0.0087742526084184647
0.23759391903877258 0.65763938426971436 0.070008479058742523
0.93588173389434814 0.64361858367919922 0.076396837830543518
1 0.53758800029754639 0.011308198794722557
0.99532347917556763 0.58510899543762207 0.020182186737656593
0 1 0.054274044930934906
0.34663817286491394 1 0.12656153738498688
0.99788945913314819 0.99996048212051392 0.1525581032037735
0.99942010641098022 1 0.099622927606105804
0.99968111515045166 1 0.11127109825611115
0 1 0.10113359242677689
0.45918917655944824 0.9999229907989502 0.14255551993846893
1 0.99367183446884155 0.19072343409061432
0.99818676710128784 0.98802834749221802 0.18374952673912048
0.99734234809875488 0.99375247955322266 0.20702672004699707
0.00013535443576984107 0 0.14005228877067566
0.14586283266544342 0.00012679754581768066 0.073393799364566803
0.63456588983535767 0.0043689203448593616 0.0079191168770194054
1 0 0
1 0 0
0 0.11611510813236237 0.10542729496955872
0.19758395850658417 0.14802126586437225 0.14224196970462799
0.8383491039276123 0.12255074083805084 0.10285387188196182
1 0.040941320359706879 0.033369775861501694
1 0.079101055860519409 0.035011723637580872
0.0031535278540104628 0.63265955448150635 0.14970463514328003
0.27381658554077148 0.70663201808929443 0.224564328789711
0.96068835258483887 0.68633192777633667 0.224980428814888
0.99993520975112915 0.58511066436767578 0.14299467206001282
1 0.62789750099182129 0.15425653755664825
0.00086234597256407142 1 0.23862496018409729
0.39927598834037781 1 0.32531279325485229
0.99995797872543335 0.99996060132980347 0.33346515893936157
0.99961966276168823 1 0.2879050076007843
1 1 0.31917127966880798
0 1 0.29474392533302307
0.52856206893920898 0.99381351470947266 0.3622170090675354
1 0.99669438600540161 0.40220782160758972
0.99829244613647461 0.99122929573059082 0.39081797003746033
0.99986809492111206 0.98747068643569946 0.43791869282722473
0.00013302073057275265 0 0.28182587027549744
0.1459999680519104 0 0.22215260565280914
0.65803325176239014 0.0008677463629283011 0.099566243588924408
1 0 0.00014109892072156072
1 0 0.004337310791015625
0 0.12971594929695129 0.28136923909187317
0.21007241308689117 0.16134454309940338 0.32718315720558167
0.87996453046798706 0.1348024308681488 0.30979117751121521
1 0.07580094039440155 0.19873170554637909
0.99593180418014526 0.10068465769290924 0.22661422193050385
0 0.66278600692749023 0.3801480233669281
0.29258766770362854 0.73579323291778564 0.45088106393814087
0.97498625516891479 0.71289891004562378 0.44203564524650574
0.99092549085617065 0.61423832178115845 0.35652095079421997
1 0.67713046073913574 0.38984403014183044
0.00064912682864814997 1 0.4948611855506897
0.41909155249595642 1 0.58336818218231201
1 0.99988281726837158 0.58964633941650391
0.99652713537216187 1 0.53195691108703613
1 1 0.57639592885971069
0.0052607669495046139 0.99942874908447266 0.56340223550796509
0.53235799074172974 0.99889647960662842 0.66108447313308716
1 0.99900168180465698 0.69461476802825928
0.99767947196960449 0.9941222071647644 0.68120789527893066
1 1 0.7316443920135498
0 0 0.58075141906738281
0.13810211420059204 0.00085238285828381777 0.50502204895019531
0.68006747961044312 4.434024594957009e-05 0.41204345226287842
0.99931633472442627 0.00027634864090941846 0.2168697863817215
0.99797123670578003 0.00096070533618330956 0.29710155725479126
0.00010501637007109821 0.14487279951572418 0.60754168033599854
0.24174574017524719 0.1833096444606781 0.63914698362350464
0.91854208707809448 0.15669098496437073 0.618480384349823
1 0.098989076912403107 0.49522119760513306
0.99900680780410767 0.14284338057041168 0.57670962810516357
0.0012969521339982748 0.69290798902511597 0.71682929992675781
0.32714268565177917 0.75817888975143433 0.77269905805587769
0.97577357292175293 0.73689419031143188 0.75616258382797241
0.99958008527755737 0.63774418830871582 0.65862745046615601
1 0.70379525423049927 0.72368121147155762
0.016333606094121933 1 0.8985564112663269
0.45052066445350647 0.9999808669090271 0.95566642284393311
0.99969774484634399 0.99988412857055664 0.95603674650192261
0.99979037046432495 1 0.8901858925819397
1 0.9999275803565979 0.95804190635681152
0.03499520942568779 1 0.98017036914825439
0.55987876653671265 1 0.99977415800094604
1 1 1
1 1 0.99961352348327637
1 1 1
