assets/lut/alexjordan magenta day 01.cube
# Created by: G'MIC (https://gmic.eu)
TITLE "magenta_day_01"
# LUT size
LUT_3D_SIZE 7
# Data domain
DOMAIN_MIN 0.0 0.0 0.0
DOMAIN_MAX 1.0 1.0 1.0
# LUT data points
0.0020384844392538071 0.00072072347393259406 0.0021981482859700918
0.00042060404666699469 0.00042293773731216788 0.0011070999316871166
0.0093064699321985245 0.0046376544050872326 0.0054826326668262482
0.051595665514469147 0.014311592094600201 0.0175323486328125
0.11861343681812286 0.024067165330052376 0.033623401075601578
0.22025682032108307 0.026427041739225388 0.040248483419418335
0.35334593057632446 0.022475911304354668 0.044452037662267685
0.033304747194051743 0.030415209010243416 0.029959823936223984
0.064808636903762817 0.046580713242292404 0.043821237981319427
0.12291442602872849 0.063396081328392029 0.055920232087373734
0.21213603019714355 0.075712256133556366 0.063870780169963837
0.3174777626991272 0.084849879145622253 0.070170171558856964
0.44527879357337952 0.085307955741882324 0.070404082536697388
0.59831005334854126 0.080919064581394196 0.069746755063533783
0.075371533632278442 0.12268906831741333 0.065120875835418701
0.13458207249641418 0.14902929961681366 0.078533709049224854
0.21672175824642181 0.16641007363796234 0.08333297073841095
0.31914916634559631 0.17655102908611298 0.092468425631523132
0.43402040004730225 0.18619833886623383 0.099728405475616455
0.55968910455703735 0.19303731620311737 0.10341200232505798
0.69594871997833252 0.19847354292869568 0.11092106252908707
0.096403829753398895 0.25694507360458374 0.081113509833812714
0.17201264202594757 0.27783766388893127 0.095920592546463013
0.26536139845848083 0.29549849033355713 0.10804971307516098
0.37189224362373352 0.30795738101005554 0.12186913937330246
0.48882579803466797 0.31890383362770081 0.13490214943885803
0.61216717958450317 0.32977139949798584 0.14692434668540955
0.73844611644744873 0.34246993064880371 0.16225887835025787
0.12473086267709732 0.40374642610549927 0.1102290004491806
0.20521798729896545 0.42097797989845276 0.1258217841386795
0.30222803354263306 0.43826371431350708 0.14428693056106567
0.41115197539329529 0.45344620943069458 0.16170918941497803
0.53083467483520508 0.4670318067073822 0.17869134247303009
0.65485930442810059 0.48026943206787109 0.1964830756187439
0.78163802623748779 0.49561086297035217 0.21724814176559448
0.16715660691261292 0.55864328145980835 0.1571844071149826
0.24734880030155182 0.57481914758682251 0.17251589894294739
0.34367093443870544 0.5925944447517395 0.1919526606798172
0.45379281044006348 0.60954242944717407 0.21103757619857788
0.57478266954421997 0.62538456916809082 0.22901138663291931
0.70139998197555542 0.64125072956085205 0.24826309084892273
0.83084684610366821 0.6591564416885376 0.27083852887153625
0.21753260493278503 0.72086238861083984 0.21279637515544891
0.29840990900993347 0.7366032600402832 0.22849810123443604
0.39314857125282288 0.75520312786102295 0.24813289940357208
0.50319135189056396 0.77359271049499512 0.2672482430934906
0.62536400556564331 0.79140353202819824 0.28462705016136169
0.75379925966262817 0.80989879369735718 0.30367493629455566
0.88471025228500366 0.83005785942077637 0.32648512721061707
0 0 0
0.00031020221649669111 0.00016856474394444376 0.00034054028219543397
0.015741519629955292 0.006116276141256094 0.012755180709064007
0.064426988363265991 0.018312685191631317 0.034911077469587326
0.14118300378322601 0.027187107130885124 0.05559246614575386
0.24924391508102417 0.027704695239663124 0.070107974112033844
0.39777776598930359 0.017634088173508644 0.082346267998218536
0.030355416238307953 0.03277098760008812 0.043252024799585342
0.073179520666599274 0.052077453583478928 0.07147710770368576
0.1382298618555069 0.069505997002124786 0.095629103481769562
0.22757314145565033 0.080663673579692841 0.11055136471986771
0.34072741866111755 0.087345883250236511 0.11958063393831253
0.46717748045921326 0.088029779493808746 0.12449252605438232
0.61294865608215332 0.084366247057914734 0.13007321953773499
0.079077549278736115 0.13251249492168427 0.11181290447711945
0.14283959567546844 0.15935160219669342 0.13558726012706757
0.22498859465122223 0.17448991537094116 0.1482289731502533
0.32568839192390442 0.1844736784696579 0.15823964774608612
0.44746923446655273 0.19163832068443298 0.16589878499507904
0.57068395614624023 0.19860190153121948 0.17115095257759094
0.69265073537826538 0.20809799432754517 0.18081431090831757
0.10255829989910126 0.26353710889816284 0.14684519171714783
0.17731703817844391 0.28620424866676331 0.16658619046211243
0.27013722062110901 0.30289849638938904 0.1816444993019104
0.37369009852409363 0.31662419438362122 0.19474519789218903
0.49370282888412476 0.32738208770751953 0.20699097216129303
0.61569637060165405 0.33875998854637146 0.21905320882797241
0.73579436540603638 0.35286074876785278 0.23487398028373718
0.1287979930639267 0.40795058012008667 0.18160422146320343
0.20831382274627686 0.42727997899055481 0.19987846910953522
0.30575203895568848 0.44524234533309937 0.21902336180210114
0.41509678959846497 0.46127423644065857 0.23636382818222046
0.53443366289138794 0.4756321907043457 0.25267967581748962
0.65890228748321533 0.48969528079032898 0.26960927248001099
0.78633075952529907 0.50490957498550415 0.290069580078125
0.16839994490146637 0.56076723337173462 0.22928452491760254
0.2491765171289444 0.57932472229003906 0.24618491530418396
0.3466658890247345 0.5984501838684082 0.26632487773895264
0.4578094482421875 0.61639392375946045 0.28569558262825012
0.57948154211044312 0.63330650329589844 0.30344739556312561
0.70746123790740967 0.65033185482025146 0.32178321480751038
0.83878171443939209 0.66794633865356445 0.34368801116943359
0.21788474917411804 0.72142612934112549 0.28554040193557739
0.29987037181854248 0.73961454629898071 0.30208101868629456
0.39664757251739502 0.75955629348754883 0.32204091548919678
0.50774687528610229 0.77925640344619751 0.34179782867431641
0.63062721490859985 0.79854691028594971 0.3595031201839447
0.76042073965072632 0.81830853223800659 0.37732106447219849
0.89343750476837158 0.83862727880477905 0.39951428771018982
0 0 0
0.0045264451764523983 0.0019006318179890513 0.0057591008953750134
0.028824690729379654 0.011053840629756451 0.030289474874734879
0.083638012409210205 0.021948168054223061 0.06191558763384819
0.17014764249324799 0.027426013723015785 0.093567028641700745
0.28394690155982971 0.025635514408349991 0.11875709146261215
0.4225100576877594 0.019749496132135391 0.14177298545837402
0.044177621603012085 0.042989782989025116 0.082820743322372437
0.088427558541297913 0.060507427901029587 0.11925804615020752
0.15451173484325409 0.074410535395145416 0.15452538430690765
0.24343200027942657 0.084035329520702362 0.1785520613193512
0.35575130581855774 0.089186966419219971 0.19586406648159027
0.47579368948936462 0.093266867101192474 0.20540106296539307
0.60475319623947144 0.095935091376304626 0.21626430749893188
0.08754710853099823 0.14186771214008331 0.18465939164161682
0.14991174638271332 0.16285775601863861 0.21366634964942932
0.2351575642824173 0.17818370461463928 0.2360755056142807
0.33782514929771423 0.18918308615684509 0.2497389167547226
0.45594626665115356 0.1970202624797821 0.25846299529075623
0.5747491717338562 0.20568566024303436 0.26444739103317261
0.69433426856994629 0.21605487167835236 0.27529552578926086
0.10779894888401031 0.2717868983745575 0.23753207921981812
0.18245503306388855 0.29221567511558533 0.26167592406272888
0.27775010466575623 0.30899938941001892 0.27885225415229797
0.38386920094490051 0.32380425930023193 0.29088857769966125
0.50143146514892578 0.33520561456680298 0.30176153779029846
0.62164920568466187 0.34711340069770813 0.3126034140586853
0.74406224489212036 0.36012840270996094 0.32863453030586243
0.13571810722351074 0.41444051265716553 0.27628222107887268
0.21535845100879669 0.43435961008071899 0.29668992757797241
0.31360486149787903 0.4527624249458313 0.31583604216575623
0.42378965020179749 0.4691200852394104 0.33238744735717773
0.5427737832069397 0.48408812284469604 0.34714922308921814
0.66719067096710205 0.49868336319923401 0.36254176497459412
0.79582029581069946 0.51357829570770264 0.38215428590774536
0.17524527013301849 0.56585276126861572 0.32077166438102722
0.25700646638870239 0.58590281009674072 0.33933559060096741
0.3554745614528656 0.60561180114746094 0.3599393367767334
0.46746686100959778 0.62389057874679565 0.37944191694259644
0.58901011943817139 0.64164358377456665 0.39660513401031494
0.71739810705184937 0.65952497720718384 0.4136512279510498
0.84939491748809814 0.67719560861587524 0.43458932638168335
0.22423739731311798 0.72522872686386108 0.37347844243049622
0.30745843052864075 0.74523770809173584 0.39156422019004822
0.40550428628921509 0.76616096496582031 0.41258904337882996
0.51729029417037964 0.78654354810714722 0.43250852823257446
0.63999205827713013 0.80691617727279663 0.45069789886474609
0.77004599571228027 0.82768005132675171 0.46793100237846375
0.90358138084411621 0.84811818599700928 0.48905721306800842
4.0929458918981254e-05 9.6938187198247761e-05 4.0929458918981254e-05
0.01196467038244009 0.0058902218006551266 0.01777699775993824
0.04072258248925209 0.016714418306946754 0.056380823254585266
0.1000339463353157 0.025279011577367783 0.10158827900886536
0.19585053622722626 0.027303539216518402 0.1510951817035675
0.3059857189655304 0.026389507576823235 0.18804784119129181
0.44392308592796326 0.021451793611049652 0.22365681827068329
0.048569474369287491 0.050706285983324051 0.12820567190647125
0.095005601644515991 0.067121006548404694 0.17617717385292053
0.16189393401145935 0.079175956547260284 0.22343543171882629
0.25604832172393799 0.0860176682472229 0.26229566335678101
0.3739778995513916 0.089428871870040894 0.29320627450942993
0.48792150616645813 0.095094181597232819 0.3080594539642334
0.61132818460464478 0.10081081092357635 0.32250493764877319
0.086250931024551392 0.148567795753479 0.27358481287956238
0.15029186010360718 0.16749987006187439 0.3060222864151001
0.23958399891853333 0.18258975446224213 0.33525234460830688
0.34543293714523315 0.19382128119468689 0.35548964142799377
0.46085658669471741 0.20253553986549377 0.36612775921821594
0.5791020393371582 0.21152935922145844 0.37349221110343933
0.702747642993927 0.22040753066539764 0.38603916764259338
0.10735632479190826 0.27803054451942444 0.34668797254562378
0.1840425431728363 0.29801228642463684 0.37059810757637024
0.28223267197608948 0.31598621606826782 0.38832926750183105
0.39091497659683228 0.33103600144386292 0.40165528655052185
0.50596517324447632 0.34290987253189087 0.41067036986351013
0.62757188081741333 0.3542235791683197 0.42051765322685242
0.7556685209274292 0.36491483449935913 0.43731525540351868
0.14129041135311127 0.42032390832901001 0.38730382919311523
0.22178380191326141 0.44111749529838562 0.40778222680091858
0.32182210683822632 0.45994356274604797 0.42709088325500488
0.43352207541465759 0.47563850879669189 0.44480577111244202
0.55200964212417603 0.49054896831512451 0.45830345153808594
0.67659997940063477 0.50578296184539795 0.4714961051940918
0.80676114559173584 0.52006524801254272 0.49055039882659912
0.18381126224994659 0.57165324687957764 0.42680191993713379
0.26646971702575684 0.59289968013763428 0.4473131000995636
0.36604517698287964 0.61287558078765869 0.46943590044975281
0.47883036732673645 0.6308596134185791 0.49007406830787659
0.60005635023117065 0.64887869358062744 0.50702202320098877
0.72762376070022583 0.6671939492225647 0.52304470539093018
0.85947138071060181 0.68446308374404907 0.54357802867889404
0.23359769582748413 0.73072153329849243 0.47450631856918335
0.31736865639686584 0.75218135118484497 0.49527838826179504
0.41597837209701538 0.77388262748718262 0.51830440759658813
0.52810919284820557 0.79458272457122803 0.54013252258300781
0.65033107995986938 0.81527304649353027 0.55885016918182373
0.77945941686630249 0.83591729402542114 0.57611489295959473
0.91215789318084717 0.85535311698913574 0.59827655553817749
0.0011369293788447976 0.00059922161744907498 0.0025519425980746746
0.016113730147480965 0.0078382454812526703 0.033948291093111038
0.056723784655332565 0.018565937876701355 0.1011059358716011
0.12178193777799606 0.025802941992878914 0.16609038412570953
0.21583937108516693 0.027328431606292725 0.22292198240756989
0.33251389861106873 0.024501277133822441 0.2759799063205719
0.4862309992313385 0.014537527225911617 0.32806888222694397
0.057956740260124207 0.055023014545440674 0.18870729207992554
0.10317914187908173 0.07004992663860321 0.25188034772872925
0.17423176765441895 0.080680862069129944 0.3188595175743103
0.27069005370140076 0.086766019463539124 0.36859005689620972
0.38533887267112732 0.090581692755222321 0.403024822473526
0.50378727912902832 0.094843514263629913 0.42388719320297241
0.6361846923828125 0.098158068954944611 0.44299110770225525
0.093660004436969757 0.1511005163192749 0.37390568852424622
0.1573367565870285 0.16982176899909973 0.41324096918106079
0.24530297517776489 0.18552999198436737 0.4490264356136322
0.35021889209747314 0.19704635441303253 0.47348397970199585
0.46180504560470581 0.20783370733261108 0.48430755734443665
0.58186423778533936 0.21599549055099487 0.49297875165939331
0.71000105142593384 0.22375263273715973 0.50493282079696655
0.11592413485050201 0.281046062707901 0.46075868606567383
0.19111694395542145 0.30234250426292419 0.48448720574378967
0.2879127562046051 0.32068198919296265 0.50487524271011353
0.39591020345687866 0.33523517847061157 0.52241307497024536
0.50823825597763062 0.34909254312515259 0.53038859367370605
0.63019496202468872 0.36030209064483643 0.53963518142700195
0.76070040464401245 0.37048190832138062 0.55482584238052368
0.14869323372840881 0.42508652806282043 0.50514763593673706
0.22937332093715668 0.44718217849731445 0.52607047557830811
0.32991185784339905 0.46612051129341125 0.54728186130523682
0.44126799702644348 0.48178824782371521 0.56679290533065796
0.55842256546020508 0.49733558297157288 0.57978552579879761
0.682472825050354 0.51272016763687134 0.59175854921340942
0.81278824806213379 0.52696794271469116 0.60852265357971191
0.19229108095169067 0.57708513736724854 0.54336881637573242
0.27506467700004578 0.59985870122909546 0.56601911783218384
0.37537756562232971 0.6205565333366394 0.59043663740158081
0.48807165026664734 0.638496994972229 0.6126217246055603
0.6088826060295105 0.65630191564559937 0.62949448823928833
0.73537737131118774 0.67501485347747803 0.6441304087638855
0.86616432666778564 0.69228267669677734 0.66286623477935791
0.24317172169685364 0.7364577054977417 0.58694738149642944
0.3266427218914032 0.75968295335769653 0.61165446043014526
0.42502114176750183 0.78278523683547974 0.63729578256607056
0.53719890117645264 0.80365800857543945 0.66077274084091187
0.65909057855606079 0.82398617267608643 0.68022620677947998
0.78716129064559937 0.84474396705627441 0.69723457098007202
0.91934484243392944 0.86329489946365356 0.71871799230575562
0.0040528089739382267 0.0018807654269039631 0.014755697920918465
0.02692197822034359 0.011304504238069057 0.076512552797794342
0.071133725345134735 0.021652670577168465 0.15603388845920563
0.14088051021099091 0.02554645948112011 0.23938862979412079
0.23260939121246338 0.027360474690794945 0.31000635027885437
0.36878189444541931 0.017879664897918701 0.38517838716506958
0.52065187692642212 0.011102893389761448 0.43840670585632324
0.063742890954017639 0.058971092104911804 0.27001157402992249
0.1112319678068161 0.072122000157833099 0.35506010055541992
0.18076445162296295 0.084501005709171295 0.41845411062240601
0.27787855267524719 0.090046674013137817 0.47463202476501465
0.38906228542327881 0.09315984696149826 0.52121561765670776
0.51471793651580811 0.095002822577953339 0.55037254095077515
0.64730823040008545 0.1006937101483345 0.56296581029891968
0.097571417689323425 0.15448890626430511 0.4908854067325592
0.16199234127998352 0.17220763862133026 0.54007750749588013
0.247850701212883 0.18934500217437744 0.57123857736587524
0.35082659125328064 0.20200414955615997 0.59251612424850464
0.46448108553886414 0.21124562621116638 0.6103399395942688
0.58612555265426636 0.2184944748878479 0.6239011287689209
0.70791500806808472 0.2303498238325119 0.62496638298034668
0.12162917107343674 0.28564247488975525 0.58215653896331787
0.19653645157814026 0.30732381343841553 0.60771781206130981
0.29129180312156677 0.32613745331764221 0.62928801774978638
0.39831864833831787 0.3405994176864624 0.64810037612915039
0.51283067464828491 0.35356101393699646 0.65913575887680054
0.63510501384735107 0.36453700065612793 0.67043137550354004
0.7619360089302063 0.37744453549385071 0.67996072769165039
0.154920294880867 0.43048879504203796 0.62846320867538452
0.2355390191078186 0.45333677530288696 0.65140122175216675
0.3347906768321991 0.47317585349082947 0.67482560873031616
0.44549551606178284 0.48937696218490601 0.69570690393447876
0.56380581855773926 0.50416064262390137 0.71018147468566895
0.6880723237991333 0.51910316944122314 0.72223436832427979
0.8171461820602417 0.53450870513916016 0.73600071668624878
0.19880622625350952 0.58188366889953613 0.67036652565002441
0.28163126111030579 0.60673600435256958 0.69486755132675171
0.3812103271484375 0.62925606966018677 0.72004282474517822
0.49409574270248413 0.64747858047485352 0.74314409494400024
0.61604911088943481 0.66395586729049683 0.76150226593017578
0.74203038215637207 0.68255090713500977 0.77506989240646362
0.87215220928192139 0.70010018348693848 0.79146444797515869
0.24967817962169647 0.74077051877975464 0.71477651596069336
0.33322659134864807 0.7675287127494812 0.74049025774002075
0.43160900473594666 0.79271227121353149 0.76650464534759521
0.54396480321884155 0.81361943483352661 0.79102593660354614
0.66614115238189697 0.83313202857971191 0.81126886606216431
0.7942700982093811 0.85354971885681152 0.82758629322052002
0.92674124240875244 0.8710864782333374 0.84790104627609253
0.0054518007673323154 0.0056797699071466923 0.052940864115953445
0.036526445299386978 0.019001170992851257 0.13100425899028778
0.081177502870559692 0.0283635463565588 0.21919548511505127
0.15519201755523682 0.028784448280930519 0.31683477759361267
0.2681102454662323 0.020354894921183586 0.43115484714508057
0.39694944024085999 0.015808554366230965 0.50453048944473267
0.52645552158355713 0.020030781626701355 0.5383836030960083
0.062997661530971527 0.065106846392154694 0.37469020485877991
0.11422163993120193 0.07657121866941452 0.47306284308433533
0.1823226660490036 0.091789752244949341 0.51923710107803345
0.27840122580528259 0.098051615059375763 0.572013258934021
0.40197205543518066 0.093984924256801605 0.65174025297164917
0.52385640144348145 0.098859556019306183 0.68066966533660889
0.6412278413772583 0.11370165646076202 0.67569243907928467
0.097535409033298492 0.15951980650424957 0.62664055824279785
0.16539421677589417 0.17615672945976257 0.676891028881073
0.24937213957309723 0.19478806853294373 0.69700229167938232
0.35168689489364624 0.20887430012226105 0.71136200428009033
0.46955987811088562 0.21653188765048981 0.73864150047302246
0.59183412790298462 0.22453932464122772 0.75757455825805664
0.70998203754425049 0.24082398414611816 0.75301587581634521
0.12647418677806854 0.29226547479629517 0.7108803391456604
0.20261594653129578 0.31136301159858704 0.74590104818344116
0.29644602537155151 0.33008661866188049 0.76760011911392212
0.402741938829422 0.34640181064605713 0.78006726503372192
0.51940590143203735 0.35923475027084351 0.79293018579483032
0.64253813028335571 0.37098544836044312 0.80634313821792603
0.76661390066146851 0.38661691546440125 0.81180870532989502
0.16274671256542206 0.43712326884269714 0.75756293535232544
0.24353200197219849 0.45870468020439148 0.78739714622497559
0.34128394722938538 0.47914525866508484 0.81225621700286865
0.4513418972492218 0.49640113115310669 0.83116531372070312
0.57048231363296509 0.51158952713012695 0.84591913223266602
0.69527757167816162 0.52658462524414062 0.85816776752471924
0.82307517528533936 0.54340285062789917 0.86892205476760864
0.20696368813514709 0.58815199136734009 0.80248969793319702
0.29017829895019531 0.61295789480209351 0.83053267002105713
0.3889959454536438 0.63675540685653687 0.8559613823890686
0.50062137842178345 0.65620666742324829 0.87830007076263428
0.62197208404541016 0.67325210571289062 0.89663922786712646
0.74927186965942383 0.69023388624191284 0.91131013631820679
0.87956452369689941 0.70795571804046631 0.92577415704727173
0.25739783048629761 0.74605751037597656 0.84844499826431274
0.34235382080078125 0.77441614866256714 0.87531691789627075
0.44072222709655762 0.80111914873123169 0.90101355314254761
0.55231356620788574 0.82267647981643677 0.92528432607650757
0.67339444160461426 0.8424040675163269 0.94604390859603882
0.80329740047454834 0.86009734869003296 0.96389091014862061
0.93628329038619995 0.87777829170227051 0.98067903518676758
