assets/lut/alexjordan orange underexposed.cube
# Created by: G'MIC (https://gmic.eu)
TITLE "orange_underexposed"
# LUT size
LUT_3D_SIZE 5
# Data domain
DOMAIN_MIN 0.0 0.0 0.0
DOMAIN_MAX 1.0 1.0 1.0
# LUT data points
0.00027829338796436787 0 0.00047043446102179587
0 0 0
0.042387705296278 0.00030221376800909638 0
0.20034925639629364 0 0
0.33666101098060608 0.00016180300735868514 0.00047043446102179587
0.0022021722979843616 0 0.0024991952814161777
0.0034960429184138775 0.00093060662038624287 0
0.13749310374259949 0.0092369383201003075 0
0.28856393694877625 0.018005924299359322 0
0.42741158604621887 0.037758488208055496 0.00047179576358757913
0 0.15246507525444031 0
0.062041174620389938 0.17828254401683807 0.00012691722076851875
0.22609786689281464 0.20034182071685791 0.00011381261720089242
0.37541308999061584 0.2235250324010849 0.0021890229545533657
0.51345700025558472 0.25373649597167969 0.015380230732262135
0.014010694809257984 0.35946252942085266 0.0064713270403444767
0.14708948135375977 0.37974867224693298 0.0288111362606287
0.31545999646186829 0.40358933806419373 0.044378690421581268
0.46607217192649841 0.42604070901870728 0.069396957755088806
0.60520124435424805 0.45148152112960815 0.10173922032117844
0.085624366998672485 0.56063294410705566 0.084150843322277069
0.23458121716976166 0.58385729789733887 0.10855003446340561
0.39918702840805054 0.60845601558685303 0.13013792037963867
0.55019253492355347 0.6314690113067627 0.15378470718860626
0.69190680980682373 0.65949517488479614 0.18487711250782013
0 0 0
0 0 0
0.05814686045050621 0 0
0.21289458870887756 0 0
0.35117840766906738 0.0056914384476840496 0.0084343850612640381
0.0032976935617625713 0.00051511876517906785 0
0.0053728292696177959 0.005773626733571291 0.0012874976964667439
0.14859375357627869 0.013977125287055969 0.018119078129529953
0.30151936411857605 0.030886227265000343 0.026907393708825111
0.43981567025184631 0.068125918507575989 0.055952362716197968
0 0.16629336774349213 0.038895100355148315
0.074122801423072815 0.18873818218708038 0.060418717563152313
0.23898664116859436 0.21321564912796021 0.079729489982128143
0.38839450478553772 0.23625722527503967 0.11062008887529373
0.52659720182418823 0.26091000437736511 0.1383531242609024
0.018019776791334152 0.36774712800979614 0.12174178659915924
0.15883989632129669 0.39155963063240051 0.14927282929420471
0.32718050479888916 0.41531288623809814 0.16888324916362762
0.47584527730941772 0.43938115239143372 0.19318176805973053
0.61447453498840332 0.46399369835853577 0.22200939059257507
0.09574396163225174 0.57143259048461914 0.20656329393386841
0.25238198041915894 0.59717357158660889 0.23799195885658264
0.41443946957588196 0.62061768770217896 0.25651651620864868
0.56202536821365356 0.64284825325012207 0.27619153261184692
0.70190626382827759 0.66875207424163818 0.30394372344017029
0.00021139407181181014 0.00095000921282917261 0.0057838140055537224
0 0.00010404399654362351 0.023414582014083862
0.068821683526039124 0.00084460387006402016 0.038245752453804016
0.22399161756038666 0 0.061891518533229828
0.3621712327003479 0.00034149768180213869 0.092202357947826385
3.3838608942460269e-05 0.00084565108409151435 0.080977901816368103
0.012679634615778923 0.0063195768743753433 0.10786105692386627
0.15946975350379944 0.024339040741324425 0.13056597113609314
0.31280580163002014 0.031198209151625633 0.15370568633079529
0.44797492027282715 0.068106569349765778 0.18180698156356812
0.0027609881944954395 0.18057358264923096 0.1689201146364212
0.095014519989490509 0.20210149884223938 0.19352667033672333
0.24825119972229004 0.22207652032375336 0.21777105331420898
0.40077623724937439 0.24873615801334381 0.23814307153224945
0.53939461708068848 0.27457156777381897 0.26408606767654419
0.038534771651029587 0.38065937161445618 0.25838789343833923
0.17798832058906555 0.40376174449920654 0.28511890769004822
0.33514779806137085 0.42538398504257202 0.30192944407463074
0.4860578179359436 0.44804435968399048 0.32319614291191101
0.62525993585586548 0.4762873649597168 0.34860518574714661
0.11312152445316315 0.58404070138931274 0.34175455570220947
0.26647794246673584 0.60904580354690552 0.36826324462890625
0.42442035675048828 0.63155829906463623 0.38704913854598999
0.57186949253082275 0.65437519550323486 0.40772581100463867
0.71158242225646973 0.68118691444396973 0.43357843160629272
0.0025810091756284237 0 0.12847068905830383
0 0 0.15495951473712921
0.070103757083415985 0 0.17761175334453583
0.23206807672977448 0 0.20006167888641357
0.37106499075889587 0 0.22605331242084503
0.0010299981804564595 0.0045494530349969864 0.21568858623504639
0.022490827366709709 0.016077423468232155 0.24057146906852722
0.16769672930240631 0.035314597189426422 0.26388341188430786
0.32313913106918335 0.047562409192323685 0.28779327869415283
0.4609101414680481 0.066285707056522369 0.31341943144798279
0.0011380214709788561 0.186658576130867 0.30194872617721558
0.095945753157138824 0.21402910351753235 0.3228435218334198
0.25786426663398743 0.23645780980587006 0.34628206491470337
0.41199028491973877 0.25856456160545349 0.36988422274589539
0.55151993036270142 0.28300020098686218 0.39451739192008972
0.04650631919503212 0.3915267288684845 0.38679736852645874
0.19503547251224518 0.41399848461151123 0.41028586030006409
0.34953197836875916 0.43544101715087891 0.43176612257957458
0.49945452809333801 0.46057525277137756 0.4552798867225647
0.63841491937637329 0.48697730898857117 0.48074227571487427
0.12621653079986572 0.59511750936508179 0.471822589635849
0.28181919455528259 0.61939382553100586 0.49512922763824463
0.43688786029815674 0.6412968635559082 0.51674431562423706
0.58427602052688599 0.66470003128051758 0.54119044542312622
0.72350162267684937 0.69262599945068359 0.56671756505966187
0 0 0.26153606176376343
0.00062659766990691423 0 0.28515192866325378
0.094728954136371613 0 0.3089025616645813
0.24349294602870941 0 0.33159372210502625
0.38162979483604431 0.0044454988092184067 0.35715818405151367
0 0.020440762862563133 0.34521651268005371
0.021604830399155617 0.01886393316090107 0.36887794733047485
0.18245278298854828 0.03910248726606369 0.39218008518218994
0.33630532026290894 0.054350100457668304 0.4161275327205658
0.47312906384468079 0.098113358020782471 0.44137600064277649
0.0032231947407126427 0.19426105916500092 0.43092608451843262
0.10560640692710876 0.22335800528526306 0.45336282253265381
0.26890784502029419 0.24219551682472229 0.47587811946868896
0.42325478792190552 0.26603379845619202 0.50027477741241455
0.56354588270187378 0.29530969262123108 0.52561235427856445
0.036604445427656174 0.40079376101493835 0.51624023914337158
0.19541199505329132 0.42289525270462036 0.53936123847961426
0.35840213298797607 0.44770282506942749 0.56103342771530151
0.50800156593322754 0.4721623957157135 0.58509141206741333
0.65070021152496338 0.49914431571960449 0.61153942346572876
0.13319815695285797 0.60624992847442627 0.60315132141113281
0.28641054034233093 0.62671566009521484 0.62546873092651367
0.44464555382728577 0.65057599544525146 0.64743196964263916
0.59322452545166016 0.67468512058258057 0.6715080738067627
0.73714983463287354 0.70209002494812012 0.69806760549545288
