assets/lut/alexjordan magenta dream.cube
# Created by: G'MIC (https://gmic.eu)
TITLE "magenta_dream"
# LUT size
LUT_3D_SIZE 13
# Data domain
DOMAIN_MIN 0.0 0.0 0.0
DOMAIN_MAX 1.0 1.0 1.0
# LUT data points
0.0030419144313782454 0.00098535872530192137 0.025326628237962723
0.037968385964632034 0.002757771871984005 0.024165449663996696
0.092417895793914795 0.0024544510524719954 0.023911643773317337
0.13923092186450958 0.0024699789937585592 0.02189616858959198
0.18429096043109894 0.0026243920437991619 0.019028592854738235
0.23198297619819641 0.0040778066031634808 0.019062327221035957
0.26817551255226135 0.0040660332888364792 0.018586760386824608
0.2951202392578125 0.002634325297549367 0.01232534646987915
0.32706573605537415 0.0035576315131038427 0.0029187072068452835
0.37636765837669373 0.0022848690859973431 0.0032187069300562143
0.40977320075035095 0.0014299579197540879 0.0045756618492305279
0.4146980345249176 0.00063279096502810717 0.0048065334558486938
0.44151681661605835 6.3204301113728434e-05 0.0025236241053789854
0.0069435718469321728 0.044237501919269562 0.039120990782976151
0.056686911731958389 0.053229402750730515 0.04217098280787468
0.13112962245941162 0.052157130092382431 0.042995244264602661
0.19853125512599945 0.047689862549304962 0.043441232293844223
0.26295948028564453 0.044389642775058746 0.04261302575469017
0.31844186782836914 0.044717796146869659 0.037995461374521255
0.3671853244304657 0.042726762592792511 0.03133639320731163
0.41468372941017151 0.037613902240991592 0.024502906948328018
0.46122449636459351 0.0367111936211586 0.017792975530028343
0.51971590518951416 0.034456007182598114 0.016988223418593407
0.56366956233978271 0.02959023229777813 0.017388870939612389
0.59284335374832153 0.022410659119486809 0.016827287152409554
0.63341987133026123 0.015733068808913231 0.015880748629570007
0.011742670089006424 0.11873862892389297 0.044693246483802795
0.071130402386188507 0.13618728518486023 0.052492104470729828
0.15791797637939453 0.13941149413585663 0.053828459233045578
0.24083437025547028 0.13434892892837524 0.051329817622900009
0.31475865840911865 0.13091298937797546 0.045493736863136292
0.3797767162322998 0.12644802033901215 0.040678240358829498
0.4427545964717865 0.11973833292722702 0.035437401384115219
0.50318485498428345 0.11446082592010498 0.029757795855402946
0.54966169595718384 0.11272206157445908 0.027155468240380287
0.59830087423324585 0.1102810874581337 0.025994604453444481
0.64586806297302246 0.10294181853532791 0.024600563570857048
0.68659478425979614 0.096031591296195984 0.023339828476309776
0.72368812561035156 0.093353167176246643 0.022650415077805519
0.0050678928382694721 0.19596979022026062 0.041728854179382324
0.065513759851455688 0.21573242545127869 0.049764402210712433
0.15994323790073395 0.22076566517353058 0.051866419613361359
0.25140571594238281 0.21868403255939484 0.049710381776094437
0.32868662476539612 0.21669098734855652 0.045578945428133011
0.39830878376960754 0.21346816420555115 0.041633531451225281
0.46410390734672546 0.20878162980079651 0.038238197565078735
0.52112823724746704 0.2059335857629776 0.034734088927507401
0.56832313537597656 0.20514747500419617 0.032249167561531067
0.61354357004165649 0.2025124579668045 0.029807401821017265
0.65989655256271362 0.19600805640220642 0.027781512588262558
0.69971024990081787 0.19210620224475861 0.025729609653353691
0.73709189891815186 0.19023925065994263 0.025048678740859032
0.00087639305274933577 0.26835381984710693 0.036112990230321884
0.05484497919678688 0.2888694703578949 0.043935287743806839
0.15617850422859192 0.29373583197593689 0.048214513808488846
0.25279122591018677 0.29274344444274902 0.048386383801698685
0.33074352145195007 0.29227688908576965 0.047017369419336319
0.39841067790985107 0.29185676574707031 0.04409007728099823
0.46242102980613708 0.28994259238243103 0.041721854358911514
0.51902657747268677 0.28787016868591309 0.039639987051486969
0.56858247518539429 0.28647509217262268 0.037231713533401489
0.61440855264663696 0.28374770283699036 0.034302968531847
0.65902364253997803 0.27998632192611694 0.032199051231145859
0.6996580958366394 0.27740806341171265 0.030148599296808243
0.74156033992767334 0.27423891425132751 0.029075562953948975
0.0010365205816924572 0.33108100295066833 0.03371097519993782
0.054314140230417252 0.35278177261352539 0.041515767574310303
0.15366517007350922 0.35966259241104126 0.046740319579839706
0.25131577253341675 0.35982665419578552 0.048971004784107208
0.33099061250686646 0.36003339290618896 0.048591524362564087
0.39835688471794128 0.36034327745437622 0.046777237206697464
0.46084749698638916 0.35964828729629517 0.045189335942268372
0.51806306838989258 0.35778677463531494 0.043922841548919678
0.56954652070999146 0.35569703578948975 0.042297318577766418
0.61712980270385742 0.35340568423271179 0.040450617671012878
0.66226792335510254 0.35112291574478149 0.038372907787561417
0.70537519454956055 0.34928116202354431 0.036111511290073395
0.7485622763633728 0.34610828757286072 0.033929683268070221
0.0019560870714485645 0.38642913103103638 0.032704867422580719
0.056486152112483978 0.41100555658340454 0.040475629270076752
0.15118689835071564 0.41994959115982056 0.046545635908842087
0.24808312952518463 0.42105540633201599 0.05013173446059227
0.33075287938117981 0.42121720314025879 0.05034739151597023
0.40009662508964539 0.42135798931121826 0.049084097146987915
0.46228009462356567 0.42094960808753967 0.047604206949472427
0.51937127113342285 0.41965582966804504 0.046797972172498703
0.57196348905563354 0.41804108023643494 0.046226844191551208
0.62095260620117188 0.41618698835372925 0.045354627072811127
0.6669456958770752 0.41464114189147949 0.04390653595328331
0.71092510223388672 0.41307055950164795 0.041624899953603745
0.75363588333129883 0.41001832485198975 0.039055317640304565
0.0037201377563178539 0.43595340847969055 0.031957916915416718
0.056926295161247253 0.46423789858818054 0.038611572235822678
0.14784336090087891 0.47461062669754028 0.045351933687925339
0.24401746690273285 0.4762474000453949 0.049700390547513962
0.32882672548294067 0.47602957487106323 0.050483014434576035
0.40083792805671692 0.47643876075744629 0.049715094268321991
0.46389764547348022 0.47669079899787903 0.048127926886081696
0.52142238616943359 0.47634813189506531 0.047347888350486755
0.57467436790466309 0.4753672182559967 0.047273598611354828
0.62402874231338501 0.47426056861877441 0.047189585864543915
0.67036384344100952 0.4731290340423584 0.046739198267459869
0.71404474973678589 0.47166138887405396 0.045203190296888351
0.7559630274772644 0.46876955032348633 0.04242146760225296
0.0083371326327323914 0.47753745317459106 0.030058123171329498
0.06036560982465744 0.509560227394104 0.036316428333520889
0.14641951024532318 0.52221441268920898 0.042879711836576462
0.24111981689929962 0.52521109580993652 0.047226026654243469
0.3265705406665802 0.52580755949020386 0.048258330672979355
0.40008431673049927 0.5268283486366272 0.047271683812141418
0.46433341503143311 0.52778440713882446 0.045970752835273743
0.5225900411605835 0.5284888744354248 0.045588802546262741
0.57607436180114746 0.52853381633758545 0.046245351433753967
0.62588107585906982 0.52818328142166138 0.046977758407592773
0.67189550399780273 0.52739459276199341 0.046983636915683746
0.71496838331222534 0.52633017301559448 0.046008523553609848
0.75611156225204468 0.5236855149269104 0.042955495417118073
0.0061997957527637482 0.52016735076904297 0.021773828193545341
0.057053778320550919 0.5515141487121582 0.029294751584529877
0.14350000023841858 0.5648491382598877 0.03746960312128067
0.23819956183433533 0.56866198778152466 0.042617544531822205
0.32373747229576111 0.57077711820602417 0.04411562904715538
0.39751145243644714 0.57321023941040039 0.042988032102584839
0.46284803748130798 0.57539659738540649 0.041162855923175812
0.52165853977203369 0.57700932025909424 0.04052116721868515
0.57566708326339722 0.57773584127426147 0.041976045817136765
0.62553638219833374 0.5780450701713562 0.04441172257065773
0.6714634895324707 0.57793831825256348 0.045535337179899216
0.71417760848999023 0.57725757360458374 0.044158440083265305
0.75447052717208862 0.57486236095428467 0.041132833808660507
0.0013933967566117644 0.56180262565612793 0.010743115097284317
0.048351302742958069 0.59213972091674805 0.019650522619485855
0.13708725571632385 0.60484498739242554 0.029054215177893639
0.23191402852535248 0.60979676246643066 0.035486798733472824
0.31759226322174072 0.61352753639221191 0.037761569023132324
0.39211347699165344 0.61712652444839478 0.037307754158973694
0.45848825573921204 0.6202043890953064 0.035330798476934433
0.51832979917526245 0.62254637479782104 0.034326650202274323
0.57296955585479736 0.62404674291610718 0.036474879831075668
0.6230202317237854 0.62488824129104614 0.039527412503957748
0.66916888952255249 0.62504595518112183 0.041059888899326324
0.71209877729415894 0.62459677457809448 0.040420021861791611
0.75281888246536255 0.62256020307540894 0.037676073610782623
0.002617076737806201 0.59473663568496704 0.0044762557372450829
0.051357883960008621 0.62491387128829956 0.012131635099649429
0.13378369808197021 0.64147323369979858 0.02105795219540596
0.22350779175758362 0.64965945482254028 0.027755945920944214
0.30800551176071167 0.654654860496521 0.030894888564944267
0.3839493989944458 0.65901172161102295 0.031292051076889038
0.45153504610061646 0.66267037391662598 0.030098021030426025
0.5124586820602417 0.6654735803604126 0.029604054987430573
0.56780821084976196 0.66761040687561035 0.031359698623418808
0.61846351623535156 0.66892212629318237 0.033845085650682449
0.6651618480682373 0.66957777738571167 0.035239335149526596
0.70866173505783081 0.66906768083572388 0.034798085689544678
0.74959802627563477 0.66729623079299927 0.03202095627784729
0.0077849593944847584 0.62243664264678955 0.00099271885119378567
0.061101038008928299 0.65340238809585571 0.0059291464276611805
0.13588578999042511 0.67363011837005615 0.013198149390518665
0.21797429025173187 0.68563026189804077 0.019511159509420395
0.29929003119468689 0.69303596019744873 0.023534856736660004
0.37449374794960022 0.69831061363220215 0.025120468810200691
0.44261711835861206 0.70261317491531372 0.025473441928625107
0.5045166015625 0.70600080490112305 0.025561926886439323
0.56064248085021973 0.70863348245620728 0.026322323828935623
0.61215329170227051 0.7104225754737854 0.027580620720982552
0.65953123569488525 0.71144413948059082 0.028125477954745293
0.70362824201583862 0.71119529008865356 0.027296612039208412
0.74507242441177368 0.70977520942687988 0.024581190198659897
0.0049771028570830822 0.001732306438498199 0.065751604735851288
0.039513066411018372 0.0044452594593167305 0.066709436476230621
0.094550669193267822 0.0037824143655598164 0.066979534924030304
0.14628086984157562 0.0028143490198999643 0.064154274761676788
0.1840391606092453 0.0025294434744864702 0.05478808656334877
0.22713255882263184 0.004448864609003067 0.050823256373405457
0.26963171362876892 0.0035814023576676846 0.049765985459089279
0.31344908475875854 0.00063093594508245587 0.049145102500915527
0.34389421343803406 0.00017822864174377173 0.03887532651424408
0.39296343922615051 6.2830309616401792e-05 0.037944361567497253
0.42780134081840515 1.1488970812933985e-05 0.038162335753440857
0.43307051062583923 3.6980123695684597e-05 0.030861679464578629
0.45738789439201355 0 0.025660287588834763
0.011446544900536537 0.048615489155054092 0.090623728930950165
0.06652996689081192 0.059272225946187973 0.10146937519311905
0.14162571728229523 0.057890858501195908 0.10280989110469818
0.21423205733299255 0.051550038158893585 0.10204961150884628
0.26979982852935791 0.047791335731744766 0.092706091701984406
0.32360354065895081 0.049491509795188904 0.086220517754554749
0.38147014379501343 0.044975776225328445 0.085888460278511047
0.44409281015396118 0.034800898283720016 0.088456921279430389
0.49222865700721741 0.031188994646072388 0.081863418221473694
0.54679298400878906 0.027741165831685066 0.077751085162162781
0.59187024831771851 0.024009734392166138 0.075325027108192444
0.62122780084609985 0.023060068488121033 0.070360772311687469
0.66207563877105713 0.018983010202646255 0.070030257105827332
0.012662566266953945 0.12700718641281128 0.1062176302075386
0.077310837805271149 0.14416354894638062 0.11989415436983109
0.16913504898548126 0.14560599625110626 0.12066877633333206
0.25383195281028748 0.14255130290985107 0.11728709936141968
0.3252069354057312 0.14017535746097565 0.10964877903461456
0.39022770524024963 0.13674771785736084 0.10472434759140015
0.45431667566299438 0.1292281299829483 0.10346435755491257
0.51490110158920288 0.12203998863697052 0.10266662389039993
0.56633704900741577 0.11891309171915054 0.099229611456394196
0.61842912435531616 0.11452950537204742 0.09573286771774292
0.66925114393234253 0.10701033473014832 0.092783175408840179
0.70780336856842041 0.10456328839063644 0.08891606330871582
0.73868370056152344 0.1069389209151268 0.086400590837001801
0.0083526913076639175 0.20344682037830353 0.10830393433570862
0.073691591620445251 0.2242751270532608 0.12012565135955811
0.16979214549064636 0.22958523035049438 0.12233279645442963
0.26165413856506348 0.229063481092453 0.11997552216053009
0.3389890193939209 0.2282094806432724 0.11620321869850159
0.40927496552467346 0.22639641165733337 0.11264760792255402
0.47368848323822021 0.22214590013027191 0.11046934127807617
0.52845156192779541 0.21893297135829926 0.10854952782392502
0.57710719108581543 0.21746115386486053 0.1056269034743309
0.62612509727478027 0.2142801433801651 0.10224068164825439
0.67707151174545288 0.20648568868637085 0.099803924560546875
0.71763336658477783 0.20419476926326752 0.096525721251964569
0.75069862604141235 0.20573696494102478 0.093148611485958099
0.0035263660829514265 0.27545368671417236 0.10480871796607971
0.065106257796287537 0.29744395613670349 0.11594519764184952
0.16496579349040985 0.30364075303077698 0.12091950327157974
0.2618410587310791 0.30311045050621033 0.1215553879737854
0.34129488468170166 0.30315947532653809 0.11989330500364304
0.41034480929374695 0.3037225604057312 0.11717584729194641
0.47311946749687195 0.30257180333137512 0.11512759327888489
0.52775794267654419 0.29996600747108459 0.1139475479722023
0.57764840126037598 0.29768574237823486 0.11194527149200439
0.62650620937347412 0.29501670598983765 0.10906636714935303
0.67363733053207397 0.29066833853721619 0.10671850293874741
0.71578866243362427 0.2884068489074707 0.10405572503805161
0.75547540187835693 0.28684228658676147 0.10056255757808685
0.0021060719154775143 0.34017693996429443 0.10214143991470337
0.061702951788902283 0.36287200450897217 0.11326818913221359
0.16356723010540009 0.36974218487739563 0.12030060589313507
0.26363414525985718 0.36976659297943115 0.12300211936235428
0.34388086199760437 0.37031346559524536 0.12226033210754395
0.41112366318702698 0.37151035666465759 0.12024457007646561
0.47239258885383606 0.37073829770088196 0.11883052438497543
0.52825373411178589 0.36829978227615356 0.11830221116542816
0.58005332946777344 0.36547067761421204 0.11735024303197861
0.62927263975143433 0.36288410425186157 0.11565396189689636
0.67553943395614624 0.36029082536697388 0.11400700360536575
0.71824836730957031 0.3587830662727356 0.11144980788230896
0.76023787260055542 0.35710790753364563 0.10719399899244308
0.0027208963874727488 0.39741671085357666 0.099833905696868896
0.062780208885669708 0.42201083898544312 0.11117710918188095
0.16363333165645599 0.43021857738494873 0.1200224906206131
0.26426270604133606 0.4307464063167572 0.12416401505470276
0.34541064500808716 0.43129521608352661 0.12409982085227966
0.41299596428871155 0.43206688761711121 0.12256854027509689
0.47357085347175598 0.43179017305374146 0.12162111699581146
0.5299498438835144 0.4298950731754303 0.12123911082744598
0.58272260427474976 0.42762359976768494 0.12081699818372726
0.63235938549041748 0.42540347576141357 0.12024687230587006
0.67874574661254883 0.42362812161445618 0.11898826062679291
0.72207421064376831 0.42253059148788452 0.11633565276861191
0.76404410600662231 0.42052492499351501 0.11234371364116669
0.0045131011866033077 0.44789817929267883 0.096956290304660797
0.063550747931003571 0.4756208062171936 0.10833551734685898
0.16044637560844421 0.48531517386436462 0.11841738969087601
0.25957569479942322 0.48672193288803101 0.12374861538410187
0.34345978498458862 0.48688629269599915 0.12446142733097076
0.41334199905395508 0.48719236254692078 0.12318592518568039
0.47529679536819458 0.48723730444908142 0.12242507934570312
0.5319521427154541 0.48659265041351318 0.12224654853343964
0.58512604236602783 0.48515936732292175 0.12251511961221695
0.63495808839797974 0.4837135374546051 0.12277163565158844
0.68127810955047607 0.48252326250076294 0.12189103662967682
0.72445553541183472 0.48136210441589355 0.11941927671432495
0.76584833860397339 0.47902783751487732 0.11563403904438019
0.0073577431030571461 0.49168479442596436 0.092905603349208832
0.06610763818025589 0.52181363105773926 0.10550305247306824
0.15863649547100067 0.53395962715148926 0.11660091578960419
0.25521299242973328 0.53676855564117432 0.12214316427707672
0.33981654047966003 0.53741633892059326 0.12279176712036133
0.41188830137252808 0.5377083420753479 0.12154744565486908
0.47513589262962341 0.53885549306869507 0.12033168971538544
0.53289604187011719 0.53881466388702393 0.12005845457315445
0.58660870790481567 0.53842371702194214 0.12108110636472702
0.63669502735137939 0.53757363557815552 0.12256903201341629
0.6825411319732666 0.53679180145263672 0.12279614061117172
0.72525006532669067 0.53579515218734741 0.12015554308891296
0.76575589179992676 0.5336143970489502 0.11628416180610657
0.0047004250809550285 0.53428405523300171 0.084171295166015625
0.060819722712039948 0.56503653526306152 0.099437698721885681
0.15347808599472046 0.57802033424377441 0.11235025525093079
0.24937961995601654 0.58187848329544067 0.11821660399436951
0.334637850522995 0.58356010913848877 0.1188381239771843
0.40848264098167419 0.5850222110748291 0.11736316978931427
0.47338783740997314 0.58648627996444702 0.11550536751747131
0.53212159872055054 0.587444007396698 0.11487791687250137
0.58625686168670654 0.58763784170150757 0.11665646731853485
0.63640069961547852 0.58748072385787964 0.11907926201820374
0.6820758581161499 0.58724188804626465 0.12007636576890945
0.72440439462661743 0.58657211065292358 0.11833871901035309
0.76451021432876587 0.5845712423324585 0.11439479887485504
0.00082759483484551311 0.5754697322845459 0.071208670735359192
0.048349987715482712 0.60646224021911621 0.088976480066776276
0.14155898988246918 0.62016934156417847 0.10390126705169678
0.23877392709255219 0.62501180171966553 0.11132434010505676
0.32597267627716064 0.62738186120986938 0.11304463446140289
0.40198406577110291 0.62946349382400513 0.11176224052906036
0.4687630832195282 0.63139444589614868 0.10955537110567093
0.52880525588989258 0.63300591707229614 0.10857237130403519
0.58329653739929199 0.63386690616607666 0.11045089364051819
0.63354873657226562 0.63437169790267944 0.11340469866991043
0.67937028408050537 0.63449656963348389 0.11497412621974945
0.7219473123550415 0.63396435976028442 0.11382609605789185
0.76230031251907349 0.63199955224990845 0.1104203462600708
0.0013986624544486403 0.60835462808609009 0.058401625603437424
0.047949232161045074 0.64047420024871826 0.078030556440353394
0.13400475680828094 0.65782618522644043 0.093458093702793121
0.22754794359207153 0.66539174318313599 0.10231181234121323
0.31519767642021179 0.66912126541137695 0.10567963868379593
0.39288800954818726 0.67159169912338257 0.1055678129196167
0.46152088046073914 0.67402952909469604 0.10402703285217285
0.52264344692230225 0.67589956521987915 0.10315772891044617
0.57791256904602051 0.6775825023651123 0.10458257049322128
0.62845140695571899 0.67849916219711304 0.1068766862154007
0.67489254474639893 0.67904937267303467 0.10817299783229828
0.71803200244903564 0.67858290672302246 0.10745556652545929
0.75887572765350342 0.67699539661407471 0.10419639199972153
0.0057927896268665791 0.63506597280502319 0.043128833174705505
0.057752348482608795 0.66866683959960938 0.064580775797367096
0.13447603583335876 0.69002300500869751 0.080886378884315491
0.22072859108448029 0.70146059989929199 0.091188631951808929
0.30529481172561646 0.70736825466156006 0.096323080360889435
0.38287413120269775 0.71106600761413574 0.097828961908817291
0.45217818021774292 0.71401423215866089 0.097707606852054596
0.51443159580230713 0.71675986051559448 0.097442343831062317
0.57047098875045776 0.71882706880569458 0.098230354487895966
0.62167763710021973 0.72043240070343018 0.099505089223384857
0.66891360282897949 0.7213054895401001 0.10003218054771423
0.71275418996810913 0.72114354372024536 0.098708212375640869
0.75414168834686279 0.71955782175064087 0.095297873020172119
0.0065410840325057507 0.0030562607571482658 0.10439198464155197
0.04468204453587532 0.0054586073383688927 0.11290224641561508
0.097579672932624817 0.0030261469073593616 0.11038366705179214
0.14534018933773041 0.0010332743404433131 0.10492559522390366
0.19236193597316742 0.0012357225641608238 0.10383634269237518
0.22670206427574158 0.0035981121473014355 0.092940293252468109
0.2681044340133667 0.0024696351028978825 0.089413627982139587
0.32024294137954712 0.00057265337090939283 0.093003563582897186
0.35521575808525085 0.00021739286603406072 0.087129868566989899
0.39615419507026672 0 0.085997730493545532
0.4277958869934082 0 0.085962958633899689
0.43470129370689392 0.00018148982780985534 0.076570503413677216
0.46820154786109924 0.00048555861576460302 0.071676082909107208
0.013500438071787357 0.05221761018037796 0.13745652139186859
0.070386253297328949 0.060899876058101654 0.15435726940631866
0.14548039436340332 0.053157508373260498 0.15877242386341095
0.21271505951881409 0.045402497053146362 0.1558317095041275
0.2709537148475647 0.045338708907365799 0.1494871973991394
0.32728910446166992 0.049876462668180466 0.14337106049060822
0.39262765645980835 0.044949714094400406 0.14687551558017731
0.45469227433204651 0.038184251636266708 0.14982932806015015
0.50005984306335449 0.035140421241521835 0.14370585978031158
0.5500103235244751 0.027113253250718117 0.14153964817523956
0.59495431184768677 0.021305592730641365 0.14101636409759521
0.62152183055877686 0.025878516957163811 0.13260656595230103
0.65887880325317383 0.027868099510669708 0.12767733633518219
0.015093156136572361 0.13061359524726868 0.16254796087741852
0.081466406583786011 0.14819654822349548 0.18194302916526794
0.17293119430541992 0.14815764129161835 0.18754576146602631
0.25517931580543518 0.14578992128372192 0.18402831256389618
0.3262297511100769 0.14245522022247314 0.17765161395072937
0.39462184906005859 0.14052227139472961 0.17394004762172699
0.46085360646247864 0.13492076098918915 0.17389053106307983
0.51807969808578491 0.13056805729866028 0.17183515429496765
0.56872677803039551 0.12660422921180725 0.16791771352291107
0.62105101346969604 0.11869584769010544 0.16572770476341248
0.67149621248245239 0.10992220789194107 0.16397747397422791
0.71069097518920898 0.10895396023988724 0.15918436646461487
0.74500191211700439 0.11021628230810165 0.15408450365066528
0.013280771672725677 0.20608797669410706 0.17036303877830505
0.07968449592590332 0.22891780734062195 0.18720918893814087
0.17491412162780762 0.23468591272830963 0.19236652553081512
0.26613834500312805 0.23445333540439606 0.19046483933925629
0.34396392107009888 0.23378749191761017 0.1877237856388092
0.41557607054710388 0.23311662673950195 0.18488425016403198
0.47960072755813599 0.22978688776493073 0.18256579339504242
0.53382760286331177 0.22670906782150269 0.17986007034778595
0.58365321159362793 0.2240464836359024 0.17686387896537781
0.63423639535903931 0.21899071335792542 0.17433084547519684
0.68411415815353394 0.21177618205547333 0.17247509956359863
0.72586411237716675 0.20907245576381683 0.16908933222293854
0.76238739490509033 0.20856951177120209 0.16464892029762268
0.006116919219493866 0.27821439504623413 0.17033743858337402
0.070660144090652466 0.30182933807373047 0.18529868125915527
