assets/lut/alexjordan faded retro 01.cube
# Created by: G'MIC (https://gmic.eu)
TITLE "faded_retro_01"
# LUT size
LUT_3D_SIZE 5
# Data domain
DOMAIN_MIN 0.0 0.0 0.0
DOMAIN_MAX 1.0 1.0 1.0
# LUT data points
0.11739808320999146 0.12122358381748199 0.17239533364772797
0.24246086180210114 0.10362058132886887 0.15587857365608215
0.48094439506530762 0.060070712119340897 0.12198152393102646
0.66279751062393188 0.046100467443466187 0.12206884473562241
0.7488667368888855 0.0744142085313797 0.15122310817241669
0.10663565993309021 0.2359088808298111 0.15904915332794189
0.24922932684421539 0.24363252520561218 0.16775253415107727
0.52924901247024536 0.23956458270549774 0.16291138529777527
0.73354154825210571 0.26176881790161133 0.17848016321659088
0.8253139853477478 0.31293976306915283 0.21748553216457367
0.091394953429698944 0.49500694870948792 0.14443902671337128
0.25084143877029419 0.52777433395385742 0.16641755402088165
0.52699738740921021 0.53019028902053833 0.16495400667190552
0.7336883544921875 0.54788172245025635 0.1736685037612915
0.8217204213142395 0.58728909492492676 0.20508402585983276
0.14471638202667236 0.73663103580474854 0.19309493899345398
0.31288087368011475 0.76928436756134033 0.2087395042181015
0.55879205465316772 0.75309401750564575 0.19103655219078064
0.74260729551315308 0.74340265989303589 0.18411645293235779
0.80952036380767822 0.76644998788833618 0.20730423927307129
0.2259964793920517 0.8880765438079834 0.27356812357902527
0.38313531875610352 0.89450693130493164 0.27818682789802551
0.6110113263130188 0.84965425729751587 0.23811642825603485
0.77642256021499634 0.81939530372619629 0.21294878423213959
0.82417100667953491 0.82419902086257935 0.20744949579238892
0.12033586949110031 0.12406846880912781 0.28367489576339722
0.2423148900270462 0.10819713771343231 0.26625210046768188
0.48181265592575073 0.073281951248645782 0.23295879364013672
0.66358458995819092 0.062381446361541748 0.23038797080516815
0.73586243391036987 0.098006799817085266 0.25548765063285828
0.10751118510961533 0.23555999994277954 0.26527857780456543
0.25801071524620056 0.26021865010261536 0.27972021698951721
0.53692883253097534 0.25977975130081177 0.2805943489074707
0.74941211938858032 0.27704855799674988 0.30272147059440613
0.83023488521575928 0.33650687336921692 0.33892917633056641
0.095377527177333832 0.50828665494918823 0.25585848093032837
0.27265775203704834 0.53984546661376953 0.28441429138183594
0.54771018028259277 0.54476296901702881 0.28727555274963379
0.75074124336242676 0.56058531999588013 0.30055978894233704
0.82964390516281128 0.60120832920074463 0.33198529481887817
0.15673002600669861 0.75701183080673218 0.31079298257827759
0.32559341192245483 0.77332347631454468 0.32375788688659668
0.57233864068984985 0.75475764274597168 0.30348378419876099
0.74690699577331543 0.74552923440933228 0.29865297675132751
0.80492591857910156 0.75992733240127563 0.32098114490509033
0.25530809164047241 0.89912021160125732 0.39848896861076355
0.39840096235275269 0.89079391956329346 0.38777029514312744
0.61241394281387329 0.84365922212600708 0.34059497714042664
0.76734822988510132 0.81017416715621948 0.31580656766891479
0.80477893352508545 0.80469334125518799 0.31299588084220886
0.11493789404630661 0.11252807825803757 0.50581610202789307
0.23323710262775421 0.089746944606304169 0.48622784018516541
0.46191185712814331 0.060662154108285904 0.45102223753929138
0.64957839250564575 0.060990367084741592 0.453163743019104
0.73325169086456299 0.099246039986610413 0.48726743459701538
0.10596500337123871 0.23671068251132965 0.49758303165435791
0.25873890519142151 0.25757494568824768 0.51363718509674072
0.53351253271102905 0.260873943567276 0.51114571094512939
0.74492025375366211 0.28422442078590393 0.5297856330871582
0.83291202783584595 0.34278404712677002 0.56424742937088013
0.10171490907669067 0.51086819171905518 0.49186083674430847
0.27120739221572876 0.54501259326934814 0.51843893527984619
0.54775553941726685 0.54847133159637451 0.52230644226074219
0.75076937675476074 0.56060457229614258 0.53389793634414673
0.83231157064437866 0.60029345750808716 0.56461411714553833
0.1571289598941803 0.75887882709503174 0.53844845294952393
0.31686106324195862 0.77053272724151611 0.54815632104873657
0.56410324573516846 0.75022900104522705 0.53252291679382324
0.73498183488845825 0.73806583881378174 0.518687903881073
0.79134631156921387 0.75162762403488159 0.53067004680633545
0.24662397801876068 0.89278095960617065 0.60669291019439697
0.37455645203590393 0.87978148460388184 0.60411518812179565
0.60206162929534912 0.83052784204483032 0.56362533569335938
0.74734467267990112 0.79567587375640869 0.5259099006652832
0.7881203293800354 0.78960198163986206 0.51855051517486572
0.10404802113771439 0.099709846079349518 0.65153032541275024
0.22481416165828705 0.095840588212013245 0.64392459392547607
0.46321532130241394 0.058439381420612335 0.60945707559585571
0.66415715217590332 0.060062393546104431 0.61603349447250366
0.76242858171463013 0.10383061319589615 0.65014588832855225
0.10914607346057892 0.23783712089061737 0.65807211399078369
0.26761457324028015 0.27085217833518982 0.67827951908111572
0.54713290929794312 0.26888811588287354 0.67701548337936401
0.76118922233581543 0.29065331816673279 0.69754230976104736
0.85330736637115479 0.35206028819084167 0.72727811336517334
0.10790818184614182 0.52587485313415527 0.65789055824279785
0.27431729435920715 0.56020015478134155 0.68115139007568359
0.55357187986373901 0.55624210834503174 0.68063449859619141
0.75836515426635742 0.5666278600692749 0.69274848699569702
0.8413429856300354 0.60358941555023193 0.71865975856781006
0.15789008140563965 0.76691591739654541 0.7016112208366394
0.3096792995929718 0.77848881483078003 0.70727139711380005
0.55909019708633423 0.7503473162651062 0.68468368053436279
0.73494011163711548 0.73463022708892822 0.67172008752822876
0.78869789838790894 0.7480168342590332 0.68158811330795288
0.24321971833705902 0.88697141408920288 0.76809823513031006
0.36761367321014404 0.87332659959793091 0.75260114669799805
0.58812028169631958 0.82203847169876099 0.71091222763061523
0.74254262447357178 0.78589522838592529 0.68249249458312988
0.78038382530212402 0.78212201595306396 0.67743384838104248
0.11421356350183487 0.1071598157286644 0.69035166501998901
0.23902003467082977 0.089266911149024963 0.67587602138519287
0.46940013766288757 0.068347901105880737 0.65261387825012207
0.68030929565429688 0.077388659119606018 0.66214680671691895
0.78836441040039062 0.11967223137617111 0.70544534921646118
0.12833726406097412 0.25218069553375244 0.70270562171936035
0.2878163754940033 0.28785863518714905 0.71447879076004028
0.55852854251861572 0.29377371072769165 0.71828383207321167
0.77029895782470703 0.32040643692016602 0.74338281154632568
0.87006610631942749 0.37090590596199036 0.78254342079162598
0.13331986963748932 0.54186558723449707 0.70796835422515869
0.29649913311004639 0.57523024082183838 0.72792237997055054
0.57216948270797729 0.57002067565917969 0.72980082035064697
0.76845681667327881 0.58170843124389648 0.74014914035797119
0.84544664621353149 0.61401534080505371 0.76412111520767212
0.16839565336704254 0.77754765748977661 0.74404096603393555
0.31708160042762756 0.79040753841400146 0.7510867714881897
0.56657588481903076 0.75810045003890991 0.72583174705505371
0.74210304021835327 0.73952203989028931 0.71021711826324463
0.7875831127166748 0.74866443872451782 0.71614116430282593
0.23184683918952942 0.88950157165527344 0.80466669797897339
0.37206572294235229 0.87236011028289795 0.78726315498352051
0.57939749956130981 0.82441854476928711 0.74860650300979614
0.73798400163650513 0.79335731267929077 0.72217082977294922
0.78299403190612793 0.7947160005569458 0.71951401233673096
