assets/lut/alexjordan colorful 0209.cube
# Created by: G'MIC (https://gmic.eu)
TITLE "colorful_0209"
# LUT size
LUT_3D_SIZE 13
# Data domain
DOMAIN_MIN 0.0 0.0 0.0
DOMAIN_MAX 1.0 1.0 1.0
# LUT data points
0.041660547256469727 0.035721063613891602 0.047608528286218643
0.19867420196533203 0.02239583246409893 0.034518808126449585
0.33584356307983398 0.011172350496053696 0.023244999349117279
0.43564268946647644 0.014793381094932556 0.015730705112218857
0.49163380265235901 0.023038571700453758 0.013352831825613976
0.505878746509552 0.025504736229777336 0.021236734464764595
0.50625753402709961 0.034644495695829391 0.036803629249334335
0.54501068592071533 0.045797880738973618 0.047380499541759491
0.62230861186981201 0.049049917608499527 0.050797838717699051
0.70506167411804199 0.048299241811037064 0.050591070204973221
0.78596484661102295 0.047368098050355911 0.04867205023765564
0.865306556224823 0.046333685517311096 0.046159423887729645
0.94369637966156006 0.044789168983697891 0.043461307883262634
0.0044350270181894302 0.14502665400505066 0.010741484351456165
0.11044996976852417 0.11945929378271103 0.0041338303126394749
0.2751275897026062 0.098745487630367279 0.00084925635019317269
0.40353548526763916 0.091004706919193268 0.0018573985435068607
0.48782274127006531 0.091299749910831451 0.002421210752800107
0.53343170881271362 0.093531213700771332 0.0068822526372969151
0.54936105012893677 0.10514374077320099 0.023427641019225121
0.56826364994049072 0.12178127467632294 0.04832928255200386
0.62382757663726807 0.12953788042068481 0.061120022088289261
0.70442867279052734 0.12944106757640839 0.061882887035608292
0.78690356016159058 0.12907721102237701 0.058985870331525803
0.86782735586166382 0.12879715859889984 0.055957391858100891
0.94639551639556885 0.1274743527173996 0.052881412208080292
0 0.24524344503879547 0.0007197062368504703
0.047313209623098373 0.22917713224887848 0.00014181698497850448
0.20143803954124451 0.20867398381233215 0
0.34705972671508789 0.19175337255001068 0
0.45571625232696533 0.18117134273052216 0
0.52933615446090698 0.17813989520072937 0.0001980949891731143
0.57027685642242432 0.18471397459506989 0.0083932466804981232
0.59558689594268799 0.19764865934848785 0.038448214530944824
0.63773417472839355 0.20713558793067932 0.062705531716346741
0.70705848932266235 0.20934271812438965 0.069557324051856995
0.78733152151107788 0.21012355387210846 0.067939668893814087
0.86850619316101074 0.21032385528087616 0.064515195786952972
0.94910269975662231 0.20973226428031921 0.061452049762010574
0 0.33255895972251892 0.00018382353300694376
0.026358885690569878 0.32575234770774841 4.721248842542991e-05
0.14346887171268463 0.31008461117744446 0
0.28474777936935425 0.29244625568389893 0
0.40909942984580994 0.27709800004959106 0
0.50405788421630859 0.26934352517127991 0
0.56771630048751831 0.26972535252571106 0.0023020277731120586
0.60906177759170532 0.27680376172065735 0.030874155461788177
0.6517493724822998 0.28475478291511536 0.06215260922908783
0.71364152431488037 0.28933358192443848 0.074783310294151306
0.79068446159362793 0.29037255048751831 0.075027823448181152
0.87111872434616089 0.29121518135070801 0.07206522673368454
0.95060592889785767 0.29099816083908081 0.069570921361446381
0.00070185941876843572 0.40681970119476318 0
0.030107101425528526 0.4071294367313385 0
0.11914132535457611 0.39849969744682312 0
0.24252742528915405 0.38393163681030273 0
0.36767202615737915 0.36946028470993042 0
0.47222781181335449 0.35981619358062744 0
0.54905843734741211 0.35653373599052429 0.003289391053840518
0.60586881637573242 0.35900291800498962 0.039023216813802719
0.66091448068618774 0.36435186862945557 0.06692766398191452
0.72548174858093262 0.36815935373306274 0.077535934746265411
0.79945200681686401 0.37064668536186218 0.079584963619709015
0.87711411714553833 0.37107843160629272 0.078477926552295685
0.95470935106277466 0.37107843160629272 0.077327489852905273
0.016150126233696938 0.46601510047912598 0.002577104838564992
0.053556732833385468 0.47381472587585449 2.2828344299341552e-05
0.12622608244419098 0.47320705652236938 0
0.23104135692119598 0.46473237872123718 0
0.34547820687294006 0.45351299643516541 0
0.44832310080528259 0.44496262073516846 0.0001115237973863259
0.5292963981628418 0.44087210297584534 0.016978304833173752
0.59426844120025635 0.4411395788192749 0.066599763929843903
0.6626582145690918 0.44460192322731018 0.082098133862018585
0.73314934968948364 0.44789448380470276 0.08636743575334549
0.80792301893234253 0.44880938529968262 0.086639329791069031
0.88405263423919678 0.45021337270736694 0.085466019809246063
0.96037071943283081 0.45117101073265076 0.084514632821083069
0.050419706851243973 0.51859432458877563 0.041728883981704712
0.089819557964801788 0.53309327363967896 0.011892745271325111
0.1549786776304245 0.53900372982025146 0.00094638898735865951
0.24616201221942902 0.53592735528945923 0.00037159639759920537
0.34677302837371826 0.52890723943710327 0.0059170741587877274
0.44149702787399292 0.52300775051116943 0.0224483422935009
0.5222737193107605 0.52033907175064087 0.051570262759923935
0.59546726942062378 0.52131527662277222 0.08104240894317627
0.66724061965942383 0.52393132448196411 0.08912079781293869
0.73803818225860596 0.52659064531326294 0.095232374966144562
0.8132750391960144 0.52908164262771606 0.094602026045322418
0.89016073942184448 0.52939993143081665 0.092763982713222504
0.96720945835113525 0.52941179275512695 0.091365143656730652
0.071092434227466583 0.58958739042282104 0.069494731724262238
0.12460240721702576 0.59869188070297241 0.04886290431022644
0.19355641305446625 0.60318875312805176 0.033169794827699661
0.27779653668403625 0.60213130712509155 0.034592945128679276
0.3646317720413208 0.59973949193954468 0.051978539675474167
0.4475894570350647 0.59796571731567383 0.071577392518520355
0.52672392129898071 0.59666258096694946 0.091280408203601837
0.60355120897293091 0.59690171480178833 0.10574010014533997
0.67680191993713379 0.60050499439239502 0.10363733768463135
0.74772679805755615 0.60457807779312134 0.10020730644464493
0.8216015100479126 0.60663926601409912 0.098028995096683502
0.89769536256790161 0.60755783319473267 0.09820740669965744
0.97351795434951782 0.60910862684249878 0.097789868712425232
0.082154355943202972 0.67022943496704102 0.08001728355884552
0.15043133497238159 0.67218834161758423 0.077727332711219788
0.22710303962230682 0.67252159118652344 0.080155827105045319
0.30847352743148804 0.67106318473815918 0.088494531810283661
0.38396733999252319 0.67276620864868164 0.093395322561264038
0.45706397294998169 0.6743428111076355 0.10108189284801483
0.5332983136177063 0.67428392171859741 0.11700518429279327
0.61034619808197021 0.67448681592941284 0.12893147766590118
0.68508768081665039 0.67778146266937256 0.12154857814311981
0.75771999359130859 0.68217366933822632 0.10833210498094559
0.83106249570846558 0.68492543697357178 0.1018487811088562
0.90562999248504639 0.68750935792922974 0.10363717377185822
0.97896242141723633 0.68774509429931641 0.10407007485628128
0.090656772255897522 0.74947714805603027 0.087881825864315033
0.16457311809062958 0.75041216611862183 0.091754570603370667
0.24206683039665222 0.74999028444290161 0.098464474081993103
0.31932300329208374 0.74978810548782349 0.10381964594125748
0.39172479510307312 0.7518046498298645 0.10504817217588425
0.46351173520088196 0.75451850891113281 0.10987328737974167
0.53844398260116577 0.75564086437225342 0.11937417089939117
0.615589439868927 0.75633567571640015 0.12692639231681824
0.69141900539398193 0.75844496488571167 0.12512819468975067
0.765461266040802 0.76101720333099365 0.11745138466358185
0.8388906717300415 0.76410895586013794 0.11221557110548019
0.91289216279983521 0.76516819000244141 0.11101051419973373
0.98345261812210083 0.7672002911567688 0.1102331131696701
0.094710312783718109 0.82956051826477051 0.092367686331272125
0.16931076347827911 0.83063274621963501 0.09586392343044281
0.24515204131603241 0.83151853084564209 0.099799349904060364
0.3201916515827179 0.8324318528175354 0.10158176720142365
0.39355725049972534 0.83398175239562988 0.10348069667816162
0.46697106957435608 0.83633702993392944 0.10798642039299011
0.54289215803146362 0.83809125423431396 0.11289624869823456
0.62028670310974121 0.83968591690063477 0.11776730418205261
0.69737040996551514 0.83997958898544312 0.12343841046094894
0.77228248119354248 0.84119606018066406 0.12487871944904327
0.84585058689117432 0.8424258828163147 0.12268171459436417
0.91942626237869263 0.84505969285964966 0.11944587528705597
0.98718816041946411 0.84611809253692627 0.11608868837356567
0.096246041357517242 0.90781956911087036 0.096148639917373657
0.17211788892745972 0.91104120016098022 0.099651679396629333
0.24875591695308685 0.91151958703994751 0.10340680927038193
0.32470521330833435 0.91159391403198242 0.1060250997543335
0.39785513281822205 0.91430133581161499 0.10636602342128754
0.47116360068321228 0.91673511266708374 0.10776328295469284
0.54789131879806519 0.91914862394332886 0.11205818504095078
0.6266629695892334 0.91936272382736206 0.11826453357934952
0.70411783456802368 0.91938376426696777 0.12580433487892151
0.77931267023086548 0.91991037130355835 0.13007380068302155
0.85307037830352783 0.92226570844650269 0.12917555868625641
0.92628586292266846 0.92338603734970093 0.12538936734199524
0.99084937572479248 0.92623114585876465 0.12187015265226364
0.097662985324859619 0.98231464624404907 0.100530706346035
0.17531965672969818 0.98394608497619629 0.10487505048513412
0.25356340408325195 0.98394608497619629 0.10947021842002869
0.33014178276062012 0.98427629470825195 0.11193329840898514
0.40342777967453003 0.9862511157989502 0.11074844002723694
0.4775468111038208 0.98833996057510376 0.11166349053382874
0.55485808849334717 0.98860293626785278 0.11686322093009949
0.63367664813995361 0.98879259824752808 0.12470873445272446
0.71137011051177979 0.98920893669128418 0.13183428347110748
0.78685373067855835 0.98997551202774048 0.13534334301948547
0.86059123277664185 0.99090981483459473 0.13434521853923798
0.933555006980896 0.99139535427093506 0.13100609183311462
0.99369543790817261 0.99246323108673096 0.12778449058532715
0.035669676959514618 0.034638840705156326 0.21522699296474457
0.17769411206245422 0.020474586635828018 0.18249647319316864
0.33199402689933777 0.0095730647444725037 0.14623263478279114
0.44593331217765808 0.0036770689766854048 0.12882058322429657
0.51696115732192993 0.0054383971728384495 0.11063548177480698
0.54686480760574341 0.0095560858026146889 0.10373321175575256
0.5414501428604126 0.023641578853130341 0.10876470804214478
0.5514296293258667 0.043421801179647446 0.11802083998918533
0.61498582363128662 0.049652744084596634 0.12299212068319321
0.69929558038711548 0.048141524195671082 0.12239508330821991
0.78203427791595459 0.047499757260084152 0.12068279832601547
0.86187857389450073 0.047761715948581696 0.11915773898363113
0.94056671857833862 0.046878021210432053 0.11778024584054947
0.004283485934138298 0.13632722198963165 0.13244371116161346
0.10678917169570923 0.11283485591411591 0.11200232058763504
0.27756977081298828 0.090579211711883545 0.087555602192878723
0.41663813591003418 0.071144178509712219 0.07416166365146637
0.51694786548614502 0.067108765244483948 0.06790904700756073
0.57779723405838013 0.072044581174850464 0.072747878730297089
0.59242790937423706 0.089099928736686707 0.090357914566993713
0.58919245004653931 0.1140177845954895 0.1157660111784935
0.62737172842025757 0.12683980166912079 0.12975245714187622
0.70505547523498535 0.12770101428031921 0.1297299861907959
0.78589415550231934 0.12831874191761017 0.1283690482378006
0.86502534151077271 0.12941403687000275 0.1271558403968811
0.94476711750030518 0.12908537685871124 0.12577542662620544
0.00086086499504745007 0.2413925975561142 0.068982064723968506
0.049875177443027496 0.22509129345417023 0.050912417471408844
0.1990511417388916 0.20220308005809784 0.032542433589696884
0.35601890087127686 0.17970894277095795 0.022222645580768585
0.48160797357559204 0.16487830877304077 0.021558439359068871
0.57105112075805664 0.16051934659481049 0.032331623136997223
0.61830127239227295 0.16778992116451263 0.059064976871013641
0.63023954629898071 0.1858779639005661 0.097421072423458099
0.65050452947616577 0.20109795033931732 0.12734693288803101
0.71067821979522705 0.20633220672607422 0.13728176057338715
0.78720605373382568 0.20915049314498901 0.1368919163942337
0.86761456727981567 0.21085691452026367 0.13487915694713593
0.9479789137840271 0.21049869060516357 0.13334180414676666
2.041984953393694e-05 0.33636978268623352 0.041510652750730515
0.019957149401307106 0.32956352829933167 0.020548487082123756
0.12924465537071228 0.31117874383926392 0.0059184655547142029
0.2822469174861908 0.2885754406452179 0.0026563308201730251
0.42558377981185913 0.26927968859672546 0.0024985070340335369
0.53806608915328979 0.25786778330802917 0.0069828107953071594
0.6107448935508728 0.25688904523849487 0.029923576861619949
0.64435654878616333 0.26602828502655029 0.076810725033283234
0.66334980726242065 0.27870029211044312 0.12385866045951843
0.7113720178604126 0.28615611791610718 0.14648817479610443
0.78911185264587402 0.28943675756454468 0.14615838229656219
0.8707079291343689 0.29024994373321533 0.14300599694252014
0.95084774494171143 0.29053136706352234 0.14137160778045654
0 0.41694319248199463 0.023284373804926872
0.0094670914113521576 0.41860955953598022 0.0054633049294352531
0.088099129498004913 0.40819573402404785 9.0011897555086762e-05
0.2241244912147522 0.38959482312202454 0
0.36950030922889709 0.37059494853019714 0
0.49357053637504578 0.356059730052948 0.00023073682677932084
0.58489763736724854 0.34959015250205994 0.013003839179873466
0.6413382887840271 0.35134270787239075 0.061168566346168518
0.67463010549545288 0.35893768072128296 0.11728485673666
0.72408902645111084 0.36515107750892639 0.14758248627185822
0.79936057329177856 0.3673892617225647 0.15100602805614471
0.87710338830947876 0.36996933817863464 0.15054689347743988
0.95464235544204712 0.37101608514785767 0.15018771588802338
0.0024848340544849634 0.48038139939308167 0.032987076789140701
0.019670508801937103 0.49048951268196106 0.0079498440027236938
0.087300755083560944 0.48873090744018555 0.00019468419486656785
0.20111052691936493 0.47743847966194153 0
0.33170396089553833 0.46287339925765991 0
0.45326328277587891 0.44955947995185852 5.7175580877810717e-05
0.55323386192321777 0.44051557779312134 0.017596000805497169
0.62758606672286987 0.4375215470790863 0.068884037435054779
0.67960822582244873 0.44067791104316711 0.1229853481054306
0.73697692155838013 0.4444270133972168 0.15300929546356201
0.80918741226196289 0.44664353132247925 0.1581910252571106
0.88288933038711548 0.44839963316917419 0.15944698452949524
0.9587816596031189 0.44968366622924805 0.15915869176387787
0.0319683738052845 0.52867108583450317 0.088582463562488556
0.055327907204627991 0.54820996522903442 0.044622756540775299
0.11605384945869446 0.5552712082862854 0.013002986088395119
0.21092380583286285 0.55209887027740479 0.0030554379336535931
0.32036039233207703 0.54499340057373047 0.0017374076414853334
0.4287392795085907 0.53608649969100952 0.010185915045440197
0.52765893936157227 0.52655375003814697 0.048254452645778656
0.60960501432418823 0.52142912149429321 0.098020039498806
0.67478752136230469 0.52208971977233887 0.14008530974388123
0.73881226778030396 0.5249488353729248 0.16417586803436279
0.81215840578079224 0.52650123834609985 0.16805657744407654
0.8875918984413147 0.52869319915771484 0.16812393069267273
0.96476787328720093 0.52941179275512695 0.16605822741985321
0.065574392676353455 0.58866482973098755 0.13509808480739594
0.10484150797128677 0.60542809963226318 0.10082225501537323
0.16660608351230621 0.61456471681594849 0.07328382134437561
0.24925072491168976 0.61615562438964844 0.059103500097990036
0.3360103964805603 0.61654293537139893 0.048714268952608109
0.42526406049728394 0.61443895101547241 0.054944701492786407
0.51808017492294312 0.60609936714172363 0.094260364770889282
0.6043209433555603 0.59950578212738037 0.13745176792144775
0.67866420745849609 0.59991186857223511 0.15616276860237122
0.74743026494979858 0.60305541753768921 0.16566145420074463
0.81935423612594604 0.60600763559341431 0.17122086882591248
0.89576500654220581 0.60661983489990234 0.17240415513515472
0.97284245491027832 0.60718059539794922 0.17023757100105286
0.084151759743690491 0.66670548915863037 0.1511981338262558
0.14863970875740051 0.67212158441543579 0.14394214749336243
0.21854570508003235 0.67585504055023193 0.14071080088615417
0.29894289374351501 0.67552322149276733 0.1442943662405014
0.36869513988494873 0.68132489919662476 0.1243775337934494
0.43987798690795898 0.68564748764038086 0.11401693522930145
0.52206826210021973 0.68210500478744507 0.1386866420507431
0.60647439956665039 0.67680966854095459 0.17364844679832458
0.68408483266830444 0.67773520946502686 0.17744873464107513
0.7561529278755188 0.68073076009750366 0.17495366930961609
0.82840234041213989 0.68371927738189697 0.17697729170322418
0.90421479940414429 0.68469703197479248 0.17921699583530426
0.97890430688858032 0.68722641468048096 0.17686949670314789
0.096172407269477844 0.74692684412002563 0.16010646522045135
0.1695772111415863 0.74875426292419434 0.16350920498371124
0.2441224604845047 0.74943399429321289 0.16994911432266235
0.32221302390098572 0.7483554482460022 0.17826229333877563
0.39060166478157043 0.75267899036407471 0.16729256510734558
0.45670583844184875 0.75848805904388428 0.15568000078201294
0.53173840045928955 0.75970524549484253 0.16314102709293365
0.61192506551742554 0.75842446088790894 0.17943845689296722
0.68973332643508911 0.75801616907119751 0.18902134895324707
0.76329416036605835 0.75971055030822754 0.19185009598731995
0.83594131469726562 0.76146835088729858 0.19276982545852661
0.91055417060852051 0.76417320966720581 0.19089119136333466
0.98278933763504028 0.76599645614624023 0.1858319491147995
0.10000652074813843 0.82748115062713623 0.16484378278255463
0.17341732978820801 0.82989466190338135 0.16774013638496399
0.2479919046163559 0.83151352405548096 0.17138707637786865
0.32555064558982849 0.83022606372833252 0.17890180647373199
0.39855006337165833 0.83163726329803467 0.1793389767408371
0.46678084135055542 0.83620434999465942 0.17444901168346405
0.54147672653198242 0.83836698532104492 0.176780104637146
0.62040942907333374 0.83914482593536377 0.18335956335067749
0.69749468564987183 0.83841317892074585 0.19724804162979126
0.77131807804107666 0.83854913711547852 0.20619198679924011
0.84380567073822021 0.84064406156539917 0.20621839165687561
0.91727268695831299 0.84324359893798828 0.1999536007642746
0.98582929372787476 0.84605205059051514 0.19328825175762177
0.10050909221172333 0.90732824802398682 0.16895066201686859
0.17545425891876221 0.9102129340171814 0.1717589795589447
0.25174912810325623 0.91151958703994751 0.17593742907047272
0.32965987920761108 0.91093778610229492 0.18159212172031403
0.4026438295841217 0.91186481714248657 0.18254238367080688
0.47315925359725952 0.91533935070037842 0.18178178369998932
0.55009394884109497 0.91701483726501465 0.18760895729064941
0.62976330518722534 0.91737252473831177 0.19667437672615051
0.70665889978408813 0.91701704263687134 0.2075752466917038
0.78007930517196655 0.91789090633392334 0.21390324831008911
0.85234880447387695 0.91976386308670044 0.21127854287624359
0.92481917142868042 0.92294639348983765 0.20427228510379791
0.98976415395736694 0.92600369453430176 0.19828647375106812
0.10137838870286942 0.98180669546127319 0.17413534224033356
0.17888921499252319 0.98389953374862671 0.17825739085674286
0.25754863023757935 0.98394608497619629 0.18325123190879822
0.33448103070259094 0.98394608497619629 0.18645760416984558
0.40702047944068909 0.98549342155456543 0.18526889383792877
0.47996336221694946 0.98702722787857056 0.18654733896255493
0.55825167894363403 0.98774498701095581 0.19588372111320496
0.63852524757385254 0.98730850219726562 0.20774355530738831
0.7157360315322876 0.98744815587997437 0.21642521023750305
0.78943592309951782 0.98831623792648315 0.21867316961288452
0.86131805181503296 0.98978394269943237 0.21467757225036621
0.93344342708587646 0.99105876684188843 0.20867075026035309
0.99346208572387695 0.99246323108673096 0.20458216965198517
0.025559892877936363 0.031190594658255577 0.36255413293838501
0.15180104970932007 0.023079801350831985 0.34734109044075012
0.30921867489814758 0.011292969807982445 0.31354734301567078
0.4346843957901001 0.002704366110265255 0.27777326107025146
0.51588994264602661 0.0016363405156880617 0.23967736959457397
0.5555654764175415 0.0049707898870110512 0.20931446552276611
0.56171786785125732 0.017390996217727661 0.19417443871498108
0.57219266891479492 0.036081530153751373 0.191099613904953
0.62360107898712158 0.045052830129861832 0.1925978809595108
0.70023363828659058 0.046461053192615509 0.19274669885635376
0.77812838554382324 0.048238374292850494 0.19197297096252441
0.85646313428878784 0.049334820359945297 0.19216218590736389
0.93569642305374146 0.048815183341503143 0.19230182468891144
0.0032051834277808666 0.12506391108036041 0.30213958024978638
0.091617569327354431 0.10757440328598022 0.29427057504653931
0.26181799173355103 0.084951035678386688 0.26754742860794067
0.41288366913795471 0.063082993030548096 0.23428979516029358
0.52272325754165649 0.055126503109931946 0.20322281122207642
0.59264802932739258 0.060596376657485962 0.18399742245674133
0.61870521306991577 0.078154817223548889 0.18029728531837463
0.61982202529907227 0.10321342945098877 0.18840199708938599
0.64118754863739014 0.12134752422571182 0.19593197107315063
0.70495080947875977 0.12720099091529846 0.19718535244464874
0.78189998865127563 0.12919759750366211 0.19769541919231415
0.86086916923522949 0.13073374330997467 0.19852104783058167
0.94117504358291626 0.13035373389720917 0.19896194338798523
0.00048528931802138686 0.23049046099185944 0.22635184228420258
0.047320287674665451 0.21439172327518463 0.21310468018054962
0.19689738750457764 0.19034574925899506 0.18919004499912262
0.35887730121612549 0.16658705472946167 0.16320447623729706
0.49352973699569702 0.15124674141407013 0.14375494420528412
0.59506082534790039 0.14627471566200256 0.13805140554904938
0.65306621789932251 0.15365110337734222 0.1473725289106369
0.66672050952911377 0.17301183938980103 0.16967827081680298
0.67217504978179932 0.1937825083732605 0.19268201291561127
0.71762561798095703 0.20362117886543274 0.20267511904239655
0.78764539957046509 0.20881038904190063 0.20428496599197388
0.86598557233810425 0.21143411099910736 0.2047620415687561
0.94651788473129272 0.21076454222202301 0.20496155321598053
9.9182125268271193e-06 0.32999905943870544 0.16582778096199036
0.01627330482006073 0.32315313816070557 0.14095263183116913
0.12260864675045013 0.30413153767585754 0.11339561641216278
0.28014114499092102 0.28032928705215454 0.094473756849765778
0.43579486012458801 0.25955381989479065 0.082588329911231995
0.56277656555175781 0.2462911456823349 0.084702722728252411
0.64727526903152466 0.2438044399023056 0.1044350266456604
0.68359076976776123 0.2533925473690033 0.14080393314361572
0.69406676292419434 0.26905295252799988 0.18389704823493958
0.72876429557800293 0.28056681156158447 0.20901790261268616
0.79542249441146851 0.28683528304100037 0.2129039466381073
0.87195420265197754 0.28995096683502197 0.21260620653629303
0.95177322626113892 0.28995096683502197 0.21252317726612091
0 0.41455075144767761 0.12706558406352997
0.0021945280022919178 0.41828811168670654 0.092687822878360748
0.06872965395450592 0.40841946005821228 0.059848666191101074
0.21056191623210907 0.38882079720497131 0.043500054627656937
0.36998957395553589 0.36790341138839722 0.034752760082483292
0.51079726219177246 0.35030883550643921 0.039303410798311234
0.61657434701919556 0.34078934788703918 0.063369318842887878
0.68080753087997437 0.34107333421707153 0.10651241987943649
0.71298074722290039 0.34872728586196899 0.16288620233535767
0.75032085180282593 0.35748234391212463 0.20260368287563324
0.80908823013305664 0.36386582255363464 0.21722330152988434
