assets/lut/alexjordan red dream 01.cube
# Created by: G'MIC (https://gmic.eu)
TITLE "red_dream_01"
# LUT size
LUT_3D_SIZE 7
# Data domain
DOMAIN_MIN 0.0 0.0 0.0
DOMAIN_MAX 1.0 1.0 1.0
# LUT data points
0.012222304940223694 0 0
0.012438321486115456 0 0
0.026782825589179993 0 0
0.042835116386413574 0 0
0.06370505690574646 0 0
0.093479901552200317 0 0
0.1515183299779892 0.00062231923220679164 0.0017288656672462821
0.016441928222775459 0.0016502230428159237 0
0.028019849210977554 0.0039071626961231232 0
0.056661598384380341 0.0080277388915419579 0
0.10345605760812759 0.013294758275151253 0
0.16989433765411377 0.017198510468006134 0
0.27375531196594238 0.015255139209330082 0
0.41088813543319702 0.021655093878507614 0.00047412948333658278
0.042010888457298279 0.041995000094175339 0
0.084566868841648102 0.057829342782497406 0
0.15185777842998505 0.071752123534679413 0
0.24741163849830627 0.08631616085767746 0
0.37759208679199219 0.094907157123088837 0
0.53935569524765015 0.10031025856733322 0
0.72314995527267456 0.10971923172473907 0
0.043793652206659317 0.16608826816082001 0
0.12026143074035645 0.19263522326946259 0
0.22483375668525696 0.22070206701755524 0.000291323201963678
0.35925430059432983 0.24649688601493835 7.4678311648312956e-05
0.51325333118438721 0.27069583535194397 0.0011324265506118536
0.67448389530181885 0.29278191924095154 1.1668485967675224e-05
0.84752142429351807 0.31567975878715515 0
0.0095805898308753967 0.38335615396499634 0
0.10706336796283722 0.41964972019195557 0
0.23868352174758911 0.45626410841941833 0.00094611971871927381
0.38991460204124451 0.48775240778923035 0.00033644132781773806
0.55048274993896484 0.51425093412399292 0.00081465480616316199
0.7144542932510376 0.5368117094039917 0.00052955478895455599
0.88519740104675293 0.55980616807937622 0
0.00068108056439086795 0.64058107137680054 0
0.10452751070261002 0.67129874229431152 0
0.2633155882358551 0.69337761402130127 0
0.42352840304374695 0.71545994281768799 6.8215763349144254e-06
0.58945447206497192 0.73602306842803955 0.00019740684365388006
0.76457613706588745 0.75492817163467407 0.0082789398729801178
0.98137032985687256 0.75025206804275513 0.0075951819308102131
0.019330700859427452 0.87653052806854248 0.0039456984959542751
0.15184266865253448 0.89360100030899048 0.012570549733936787
0.3244665265083313 0.90375816822052002 0.011946151033043861
0.49867618083953857 0.9203382134437561 0.026558820158243179
0.69065111875534058 0.93902593851089478 0.056231703609228134
0.92644393444061279 0.94474709033966064 0.068679556250572205
1 0.92200320959091187 0.053168769925832748
0.0099854562431573868 0 0
0.015696896240115166 0 0
0.026595724746584892 0 0
0.03860747441649437 0 0.00026424633688293397
0.066996566951274872 0 0.0011160308495163918
0.10546208173036575 0 0.0041079204529523849
0.17094290256500244 0 0.0089031290262937546
0.013129828497767448 0.0031397053971886635 0.0027414208743721247
0.032195042818784714 0.0041523952968418598 0.0053620282560586929
0.062767714262008667 0.00952885951846838 0.006722678430378437
0.11437822133302689 0.012700637802481651 0.011485709808766842
0.19063004851341248 0.019604790955781937 0.007679628673940897
0.3022400438785553 0.015749270096421242 0.0090872524306178093
0.45024803280830383 0.017346760258078575 0.017157431691884995
0.044149689376354218 0.046447873115539551 0.0079601509496569633
0.089446678757667542 0.063438758254051208 0.011321348138153553
0.16100123524665833 0.075608044862747192 0.0097226612269878387
0.26195049285888672 0.087156735360622406 0.0047794417478144169
0.39501810073852539 0.095642805099487305 0.0035552829504013062
0.55903619527816772 0.10142941772937775 0.00028273637872189283
0.73938703536987305 0.11379378288984299 0.0058648502454161644
0.040539249777793884 0.17187082767486572 0.00066953175701200962
0.11959562450647354 0.19939453899860382 0.00016440596664324403
0.22738845646381378 0.22910459339618683 0.00034855862031690776
0.36231610178947449 0.25279015302658081 0.00026119456742890179
0.51499611139297485 0.27516666054725647 0.00068323471350595355
0.67778593301773071 0.29977467656135559 0.00024892771034501493
0.85088944435119629 0.32449117302894592 0.0081991460174322128
0.00051320396596565843 0.39820417761802673 0
0.089155830442905426 0.43380984663963318 0
0.23779913783073425 0.46297970414161682 0.00092587940162047744
0.39312770962715149 0.49167367815971375 0.0126597685739398
0.55139154195785522 0.52235156297683716 0.021577887237071991
0.71853625774383545 0.54358863830566406 0.039877574890851974
0.89550340175628662 0.56247472763061523 0.047145050019025803
3.9852366171544418e-05 0.65155166387557983 0.0032586490269750357
0.09780450165271759 0.68043172359466553 0.012579839676618576
0.26871287822723389 0.69844561815261841 0.033020436763763428
0.43283650279045105 0.72021281719207764 0.063227377831935883
0.59559446573257446 0.7438473105430603 0.079356327652931213
0.76449781656265259 0.75544917583465576 0.11180487275123596
0.98429578542709351 0.74862086772918701 0.11945619434118271
0.035914536565542221 0.8797907829284668 0.064117282629013062
0.16395162045955658 0.89394479990005493 0.10862821340560913
0.33790907263755798 0.90676891803741455 0.13810466229915619
0.51544880867004395 0.92686325311660767 0.17447364330291748
0.70450460910797119 0.95025229454040527 0.2252466082572937
0.93620705604553223 0.94045388698577881 0.23664800822734833
1 0.92087727785110474 0.2072964608669281
0.01111049298197031 0 0.004083296749740839
0.014525574631989002 2.0225375919835642e-05 0.0016644346760585904
0.028847159817814827 0 0.0054053510539233685
0.04271971806883812 0 0.0089548593387007713
0.07063351571559906 0 0.01443856954574585
0.10879161953926086 0 0.021034615114331245
0.18926338851451874 0 0.036925971508026123
0.01508464477956295 0.0028186275158077478 0.013426313176751137
0.034083720296621323 0.0063846660777926445 0.017671473324298859
0.070207096636295319 0.011135624721646309 0.026878731325268745
0.12340367585420609 0.014548208564519882 0.041744440793991089
0.20695661008358002 0.018683519214391708 0.057219889014959335
0.32114467024803162 0.015483063645660877 0.072586625814437866
0.47398155927658081 0.015264743007719517 0.08774297684431076
0.047371555119752884 0.050858292728662491 0.041502468287944794
0.094908334314823151 0.065628796815872192 0.058582082390785217
0.17407646775245667 0.07856566458940506 0.066183485090732574
0.27793309092521667 0.089448623359203339 0.078109413385391235
0.41109094023704529 0.098862290382385254 0.087173908948898315
0.57692903280258179 0.10357893258333206 0.091993264853954315
0.76152700185775757 0.11281334608793259 0.11037099361419678
0.05935090035200119 0.17395901679992676 0.074713028967380524
0.11650481820106506 0.21017535030841827 0.076194345951080322
0.22606366872787476 0.23452256619930267 0.078486889600753784
0.36443763971328735 0.25715205073356628 0.090092495083808899
0.52059662342071533 0.28180038928985596 0.10694646090269089
0.68539875745773315 0.30571073293685913 0.12532494962215424
0.85512411594390869 0.33115032315254211 0.15880483388900757
0.025015093386173248 0.38905546069145203 0.095210403203964233
0.079288840293884277 0.44494491815567017 0.097970373928546906
0.22164273262023926 0.47397628426551819 0.10875425487756729
0.39119046926498413 0.49582782387733459 0.14372135698795319
0.55495995283126831 0.52699393033981323 0.17472286522388458
0.72093594074249268 0.55032908916473389 0.21826724708080292
0.9032474160194397 0.56737816333770752 0.23483268916606903
0.057679660618305206 0.62576001882553101 0.18446899950504303
0.11739762127399445 0.68267524242401123 0.18747824430465698
0.25077778100967407 0.71243715286254883 0.20120683312416077
0.42599725723266602 0.72597306966781616 0.23551447689533234
0.60251235961914062 0.74652183055877686 0.26793158054351807
0.78179442882537842 0.76187682151794434 0.30105787515640259
0.99137312173843384 0.75161701440811157 0.30154776573181152
0.13895116746425629 0.84112024307250977 0.30719909071922302
0.21766577661037445 0.8825373649597168 0.32170739769935608
0.34475487470626831 0.91447657346725464 0.33835384249687195
0.51756018400192261 0.93125063180923462 0.36303794384002686
0.72002792358398438 0.95266097784042358 0.40007072687149048
0.96028906106948853 0.9424247145652771 0.39665821194648743
1 0.92775928974151611 0.37426435947418213
0.011444899253547192 0 0.008028755895793438
0.013271990232169628 0 0.01037279050797224
0.029632179066538811 0 0.016536623239517212
0.046174366027116776 0 0.023526031523942947
0.074053011834621429 0 0.03235563263297081
0.1216445192694664 0 0.048353996127843857
0.21190084517002106 0 0.078331053256988525
0.013251839205622673 0.0047539207153022289 0.016953727230429649
0.037655938416719437 0.0068201553076505661 0.040855124592781067
0.078681334853172302 0.014139841310679913 0.059426132589578629
0.13540822267532349 0.01560318935662508 0.084233425557613373
0.22448359429836273 0.01561895664781332 0.11738204956054688
0.34711176156997681 0.013958964496850967 0.1530439555644989
0.50897228717803955 0.010087376460433006 0.19173017144203186
0.054849468171596527 0.055740851908922195 0.059707403182983398
0.098279617726802826 0.07260257750749588 0.10850942134857178
0.17675948143005371 0.082369066774845123 0.15583038330078125
0.28960403800010681 0.091513194143772125 0.19263331592082977
0.42823904752731323 0.099365636706352234 0.22354559600353241
0.59523254632949829 0.10446669906377792 0.25236567854881287
0.78150790929794312 0.11180844902992249 0.28436344861984253
0.14917571842670441 0.15547946095466614 0.15279912948608398
0.18233808875083923 0.19737935066223145 0.18834610283374786
0.23998807370662689 0.23734740912914276 0.22887502610683441
0.36892536282539368 0.26155534386634827 0.27049878239631653
0.52470701932907104 0.29022535681724548 0.30066490173339844
0.68721610307693481 0.31452980637550354 0.32946127653121948
0.85614240169525146 0.33782044053077698 0.35507169365882874
0.24759724736213684 0.32148531079292297 0.28823027014732361
0.26680302619934082 0.38964468240737915 0.31678983569145203
0.29578444361686707 0.45691049098968506 0.33661738038063049
0.39422354102134705 0.50622415542602539 0.35273432731628418
0.55798417329788208 0.53364771604537964 0.37626245617866516
0.72413021326065063 0.55531376600265503 0.40251937508583069
0.91884636878967285 0.56904953718185425 0.41229063272476196
0.32096126675605774 0.54884999990463257 0.43046307563781738
0.31762385368347168 0.62810266017913818 0.4414430558681488
0.3386378288269043 0.69271862506866455 0.43210875988006592
0.43372282385826111 0.73469597101211548 0.43331372737884521
0.60380929708480835 0.75265538692474365 0.44799533486366272
0.8042718768119812 0.76742339134216309 0.46470928192138672
0.99436348676681519 0.75853312015533447 0.45850709080696106
0.39379382133483887 0.75962585210800171 0.56464231014251709
0.39626133441925049 0.83049583435058594 0.55968183279037476
0.41122463345527649 0.90437942743301392 0.53245764970779419
0.53128820657730103 0.94335675239562988 0.52276480197906494
0.73605537414550781 0.95867091417312622 0.53625798225402832
0.97588968276977539 0.94441807270050049 0.51475590467453003
1 0.93124759197235107 0.4951343834400177
0.0038686117623001337 0 0.011655800044536591
0.0087789800018072128 0 0.019090255722403526
0.026916084811091423 0 0.028216149657964706
0.044723689556121826 0 0.037454135715961456
0.078029617667198181 0 0.054368950426578522
0.13790059089660645 0 0.085660330951213837
0.23038275539875031 0 0.12786205112934113
0.012609953060746193 0.0081758089363574982 0.019723584875464439
0.035055391490459442 0.010021419264376163 0.05208161473274231
0.081214860081672668 0.012048713862895966 0.092685103416442871
0.14836251735687256 0.015318986028432846 0.14157798886299133
0.24638780951499939 0.014929558150470257 0.19220802187919617
0.37260538339614868 0.013385622762143612 0.24935178458690643
0.54621952772140503 0.0058422312140464783 0.31584784388542175
0.062439519912004471 0.063381031155586243 0.068791225552558899
0.092566519975662231 0.084372259676456451 0.11276374012231827
0.16918563842773438 0.092289961874485016 0.21513435244560242
0.29139700531959534 0.095605604350566864 0.3181062638759613
0.44413483142852783 0.098264358937740326 0.38028886914253235
0.60762715339660645 0.10831370949745178 0.42074093222618103
0.79604631662368774 0.11529579758644104 0.46804648637771606
0.16501781344413757 0.16733899712562561 0.16910293698310852
0.2070113867521286 0.20833013951778412 0.21166838705539703
0.25601387023925781 0.25372853875160217 0.27029848098754883
0.35634544491767883 0.28037306666374207 0.39341276884078979
0.52290672063827515 0.29777184128761292 0.48824867606163025
0.68867206573486328 0.32472619414329529 0.51823049783706665
0.86251544952392578 0.34910768270492554 0.54040628671646118
0.32447701692581177 0.32531654834747314 0.32397350668907166
0.3763410747051239 0.37899330258369446 0.37742909789085388
0.43184533715248108 0.43663832545280457 0.43647509813308716
0.48155900835990906 0.49589788913726807 0.48815491795539856
0.56723159551620483 0.5413823127746582 0.54160690307617188
0.7258613109588623 0.56600213050842285 0.56942909955978394
0.92847353219985962 0.57848876714706421 0.56574279069900513
0.49500149488449097 0.51612710952758789 0.50942850112915039
0.53515958786010742 0.57782429456710815 0.56078320741653442
0.56059956550598145 0.63297915458679199 0.60064303874969482
0.55704337358474731 0.70437014102935791 0.61221951246261597
0.61577481031417847 0.76278102397918701 0.59308236837387085
0.81932485103607178 0.77327144145965576 0.59586530923843384
0.99873322248458862 0.76388555765151978 0.57623285055160522
0.60557478666305542 0.71044272184371948 0.67121773958206177
0.61348867416381836 0.77306431531906128 0.70280200242996216
0.58644717931747437 0.85943454504013062 0.69987618923187256
0.58972984552383423 0.94729858636856079 0.66413307189941406
0.75091606378555298 0.97102618217468262 0.64129835367202759
0.98967301845550537 0.95019102096557617 0.61018598079681396
1 0.93710243701934814 0.58487063646316528
0 0 0.0061004487797617912
0.0053936527110636234 0 0.018483120948076248
0.022632988169789314 0 0.036542914807796478
0.046126555651426315 0 0.054037939757108688
0.082851752638816833 0 0.080619290471076965
0.14873167872428894 0 0.12445852160453796
0.2512238621711731 0 0.18675188720226288
0.012712127529084682 0.0094732549041509628 0.020893890410661697
0.033835377544164658 0.01803874596953392 0.054789286106824875
0.078629449009895325 0.019074562937021255 0.1148066520690918
0.15345980226993561 0.020062346011400223 0.19177559018135071
0.26052877306938171 0.014342918060719967 0.28028902411460876
0.39852100610733032 0.0098556214943528175 0.36432814598083496
0.57631957530975342 0.0030520569998770952 0.45468851923942566
0.07154662162065506 0.071564480662345886 0.081416815519332886
0.10183383524417877 0.095812462270259857 0.12426792085170746
0.15581947565078735 0.11554278433322906 0.21054619550704956
0.27497896552085876 0.11387046426534653 0.37333017587661743
0.43720781803131104 0.10764031857252121 0.52095276117324829
0.61398220062255859 0.11213438957929611 0.59925657510757446
0.80441474914550781 0.12160386890172958 0.64803969860076904
0.17907723784446716 0.1813628077507019 0.18829184770584106
0.2213413268327713 0.22360804677009583 0.23509895801544189
0.27107444405555725 0.27055871486663818 0.29328417778015137
0.34187161922454834 0.31350141763687134 0.39424824714660645
0.49781295657157898 0.32155787944793701 0.59198081493377686
0.68517047166824341 0.33681121468544006 0.6896284818649292
0.8690335750579834 0.35981753468513489 0.69926363229751587
0.34298214316368103 0.34501400589942932 0.3455994725227356
0.39911127090454102 0.39931556582450867 0.40231353044509888
0.45555263757705688 0.45961886644363403 0.46272352337837219
0.51285159587860107 0.5143316388130188 0.51889133453369141
0.57843774557113647 0.56235122680664062 0.59745234251022339
0.73349696397781372 0.57629328966140747 0.70129001140594482
0.94045865535736084 0.58536309003829956 0.68442636728286743
0.53393518924713135 0.53417885303497314 0.53326886892318726
0.58545869588851929 0.58826464414596558 0.58730626106262207
0.63535183668136597 0.63770455121994019 0.6360047459602356
0.67398250102996826 0.69017231464385986 0.68291699886322021
0.68938982486724854 0.75437408685684204 0.70310920476913452
0.8490404486656189 0.78710168600082397 0.70168685913085938
0.99877864122390747 0.77052277326583862 0.6681707501411438
0.68673789501190186 0.7064787745475769 0.70206344127655029
0.72082936763763428 0.76376557350158691 0.74970930814743042
0.73832589387893677 0.84137105941772461 0.79593098163604736
0.71238666772842407 0.92770469188690186 0.79320961236953735
0.78067606687545776 0.97891145944595337 0.75055938959121704
0.99368095397949219 0.95153975486755371 0.70289671421051025
0.99917078018188477 0.94395989179611206 0.6805870532989502
0.0031257779337465763 0.0010246875463053584 0.010849896818399429
0.0047200219705700874 0.001320319133810699 0.020322836935520172
0.013352472335100174 8.8680491899140179e-05 0.033355608582496643
0.046701513230800629 0.0004605162248481065 0.069780610501766205
0.093202434480190277 0.00014857872156426311 0.11635890603065491
0.16747824847698212 0 0.17952369153499603
0.27516624331474304 0 0.25730049610137939
0.021103009581565857 0.017356079071760178 0.031125955283641815
0.037723749876022339 0.02682005986571312 0.060775037854909897
0.073520153760910034 0.029695354402065277 0.12303514778614044
0.14871759712696075 0.029507491737604141 0.22772954404354095
0.26472336053848267 0.022535152733325958 0.35725137591362
0.42505845427513123 0.0089538572356104851 0.48442155122756958
0.61271589994430542 0.0011650534579530358 0.59696990251541138
0.080079309642314911 0.079804711043834686 0.094714254140853882
0.11238513886928558 0.10733446478843689 0.13960470259189606
0.1557604968547821 0.13101840019226074 0.21995165944099426
0.2500356137752533 0.14274841547012329 0.36944422125816345
0.41236066818237305 0.13195155560970306 0.58523684740066528
0.61310821771621704 0.12387557327747345 0.73058450222015381
0.81475341320037842 0.12894025444984436 0.80144935846328735
0.19165043532848358 0.19594995677471161 0.20916369557380676
0.23828217387199402 0.24239738285541534 0.26116505265235901
0.2904321551322937 0.29051539301872253 0.32323375344276428
0.35191011428833008 0.33926132321357727 0.40863031148910522
0.47796091437339783 0.35748949646949768 0.59614592790603638
0.68145239353179932 0.3557375967502594 0.78250610828399658
0.87964427471160889 0.37216010689735413 0.82491803169250488
0.3621157705783844 0.36574468016624451 0.36931002140045166
0.41842064261436462 0.42232212424278259 0.42576625943183899
0.47437900304794312 0.4794430136680603 0.48553311824798584
0.5333741307258606 0.5351557731628418 0.54498159885406494
0.58866977691650391 0.58535712957382202 0.61292052268981934
0.73981791734695435 0.59467363357543945 0.76938390731811523
0.96475005149841309 0.58968842029571533 0.7810596227645874
0.55217188596725464 0.55219835042953491 0.55435675382614136
0.60277426242828369 0.60570782423019409 0.60625797510147095
0.65206551551818848 0.65468895435333252 0.65391522645950317
0.70591026544570923 0.70752072334289551 0.7060168981552124
0.75833922624588013 0.76132982969284058 0.76234561204910278
0.87164551019668579 0.7949451208114624 0.80356293916702271
0.99993360042572021 0.77608931064605713 0.78233522176742554
0.7213020920753479 0.72351038455963135 0.72198665142059326
0.7682378888130188 0.77593564987182617 0.77460485696792603
0.82473397254943848 0.83907359838485718 0.83394867181777954
0.85298699140548706 0.9039762020111084 0.87892860174179077
0.86307394504547119 0.96617478132247925 0.88503432273864746
0.99890732765197754 0.95302665233612061 0.82958745956420898
0.99945896863937378 0.94149923324584961 0.82830178737640381
