assets/lut/alexjordan mostly blue.cube
# Created by: G'MIC (https://gmic.eu)
TITLE "mostly_blue"
# LUT size
LUT_3D_SIZE 7
# Data domain
DOMAIN_MIN 0.0 0.0 0.0
DOMAIN_MAX 1.0 1.0 1.0
# LUT data points
0.027661103755235672 0.039038222283124924 0.050236061215400696
0.11223373562097549 0.056904647499322891 0.054595619440078735
0.20302562415599823 0.086866922676563263 0.0833701491355896
0.28306740522384644 0.10634394735097885 0.10191460698843002
0.36266031861305237 0.11911012232303619 0.11819383502006531
0.44392654299736023 0.13929183781147003 0.13849504292011261
0.52479976415634155 0.17552247643470764 0.18658323585987091
0.12386761605739594 0.15346148610115051 0.13072790205478668
0.18720355629920959 0.18340356647968292 0.14970797300338745
0.26963397860527039 0.21011786162853241 0.15338917076587677
0.35138821601867676 0.23072056472301483 0.16916114091873169
0.43506476283073425 0.24745513498783112 0.18694122135639191
0.51343727111816406 0.26600179076194763 0.20599532127380371
0.59620827436447144 0.28686955571174622 0.22484718263149261
0.24515381455421448 0.27431133389472961 0.24837566912174225
0.29388996958732605 0.30780705809593201 0.27213612198829651
0.34767246246337891 0.34247902035713196 0.26782700419425964
0.41889792680740356 0.36614924669265747 0.26361742615699768
0.50258618593215942 0.38729360699653625 0.27621400356292725
0.584739089012146 0.4083983302116394 0.28866273164749146
0.66925984621047974 0.42783927917480469 0.30761390924453735
0.35101348161697388 0.38552331924438477 0.35232329368591309
0.40214934945106506 0.42014825344085693 0.39289683103561401
0.44087719917297363 0.45757430791854858 0.39219540357589722
0.49017304182052612 0.48725655674934387 0.37663072347640991
0.5655396580696106 0.51470112800598145 0.37700924277305603
0.64692425727844238 0.53783559799194336 0.38378140330314636
0.72310382127761841 0.55298918485641479 0.38035681843757629
0.47504660487174988 0.50734168291091919 0.47601377964019775
0.50994831323623657 0.53650271892547607 0.50208485126495361
0.5448567271232605 0.57078796625137329 0.51391839981079102
0.58422231674194336 0.60435885190963745 0.50612342357635498
0.64209294319152832 0.63816165924072266 0.48962351679801941
0.71166062355041504 0.66379570960998535 0.48183709383010864
0.78955507278442383 0.68602591753005981 0.47615453600883484
0.57018017768859863 0.61691504716873169 0.5725218653678894
0.61258751153945923 0.6481437087059021 0.60727995634078979
0.65050089359283447 0.68181270360946655 0.62778890132904053
0.68583512306213379 0.71789216995239258 0.62965089082717896
0.7314983606338501 0.75225925445556641 0.61529195308685303
0.78608429431915283 0.78228849172592163 0.60292822122573853
0.83908140659332275 0.80398011207580566 0.58803516626358032
0.6869233250617981 0.73498815298080444 0.68815630674362183
0.71751946210861206 0.75787818431854248 0.71259802579879761
0.75563991069793701 0.79312962293624878 0.73592185974121094
0.78764599561691284 0.82497870922088623 0.74201691150665283
0.82648056745529175 0.86392146348953247 0.74305111169815063
0.87478393316268921 0.90009045600891113 0.73588347434997559
0.93048125505447388 0.93108290433883667 0.71093583106994629
0.041208874434232712 0.033443406224250793 0.27303406596183777
0.088323913514614105 0.072891563177108765 0.089069977402687073
0.16576516628265381 0.097002454102039337 0.12360980361700058
0.25293007493019104 0.11562948673963547 0.15595908463001251
0.34751629829406738 0.1320691853761673 0.18228736519813538
0.42701110243797302 0.15211331844329834 0.20259687304496765
0.51064842939376831 0.17291642725467682 0.22577114403247833
0.0080590788275003433 0.21487817168235779 0.2058207094669342
0.17965608835220337 0.19475297629833221 0.20111557841300964
0.27453809976577759 0.22304607927799225 0.21640099585056305
0.35388174653053284 0.24035714566707611 0.23526155948638916
0.43426179885864258 0.25484180450439453 0.25569570064544678
0.5143706202507019 0.27357834577560425 0.27249127626419067
0.59953856468200684 0.29888027906417847 0.29548954963684082
0.030992321670055389 0.37447324395179749 0.18689651787281036
0.27928784489631653 0.31793400645256042 0.29113781452178955
0.35467237234115601 0.34931746125221252 0.31278896331787109
0.42755264043807983 0.37296265363693237 0.31627368927001953
0.51195597648620605 0.39219450950622559 0.32934209704399109
0.59457993507385254 0.41295626759529114 0.35161560773849487
0.67629313468933105 0.43304151296615601 0.36601310968399048
0.11414612084627151 0.49173638224601746 0.24553485214710236
0.3895256519317627 0.42919397354125977 0.39543998241424561
0.45298892259597778 0.46410420536994934 0.42915496230125427
0.50048351287841797 0.49572116136550903 0.42490977048873901
0.57299065589904785 0.52037996053695679 0.41537588834762573
0.65637719631195068 0.54433697462081909 0.43202120065689087
0.73933297395706177 0.55931609869003296 0.43998062610626221
0.27350661158561707 0.58698105812072754 0.36702921986579895
0.50624644756317139 0.54820436239242554 0.50915169715881348
0.55843073129653931 0.57694721221923828 0.54481214284896851
0.59429252147674561 0.61149591207504272 0.54611110687255859
0.64726430177688599 0.64302849769592285 0.53297418355941772
0.71974581480026245 0.66997164487838745 0.52471709251403809
0.79746502637863159 0.69121372699737549 0.53167510032653809
0.42162472009658813 0.68252313137054443 0.48671051859855652
0.61096298694610596 0.66080540418624878 0.6145399808883667
0.66321098804473877 0.68757897615432739 0.65253281593322754
0.69753825664520264 0.72310203313827515 0.66555839776992798
0.73799484968185425 0.75882399082183838 0.65960574150085449
0.79494315385818481 0.79137623310089111 0.64384269714355469
0.86728709936141968 0.81717574596405029 0.63685762882232666
0.54894709587097168 0.7911568284034729 0.5993645191192627
0.71916061639785767 0.77355897426605225 0.72205173969268799
0.76477420330047607 0.79781937599182129 0.75408744812011719
0.80476683378219604 0.83482855558395386 0.77971237897872925
0.83592754602432251 0.8677293062210083 0.7789454460144043
0.88629364967346191 0.90839999914169312 0.77502298355102539
0.93670856952667236 0.93957167863845825 0.7602304220199585
0.048092607408761978 0.033576950430870056 0.53142207860946655
0.14732246100902557 0.058365587145090103 0.30352616310119629
0.13388316333293915 0.12618669867515564 0.13302892446517944
0.19527354836463928 0.14687392115592957 0.17513175308704376
0.2873879075050354 0.16339024901390076 0.22189618647098541
0.38358932733535767 0.18034304678440094 0.25821575522422791
0.46476739645004272 0.19408906996250153 0.28572502732276917
0.042189009487628937 0.20399855077266693 0.46605440974235535
0.19401541352272034 0.18469595909118652 0.42894250154495239
0.24821765720844269 0.23593118786811829 0.24725019931793213
0.32012850046157837 0.25934016704559326 0.28169992566108704
0.41483309864997864 0.27900984883308411 0.31879106163978577
0.49706259369850159 0.29110124707221985 0.34231191873550415
0.5874255895614624 0.31588751077651978 0.36745604872703552
0.014835895970463753 0.39547663927078247 0.39991244673728943
0.13484811782836914 0.37654784321784973 0.37964636087417603
0.34759551286697388 0.35699445009231567 0.36653664708137512
0.43207353353500366 0.37875652313232422 0.37771403789520264
0.51131421327590942 0.40244355797767639 0.40081724524497986
0.59268093109130859 0.42154362797737122 0.42108049988746643
0.6775481104850769 0.44176805019378662 0.43965673446655273
0.0044594709761440754 0.57050341367721558 0.33938926458358765
0.13995777070522308 0.53451162576675415 0.35227915644645691
0.43874454498291016 0.47505626082420349 0.44836348295211792
0.50785529613494873 0.50272512435913086 0.4676058292388916
0.58279216289520264 0.52955001592636108 0.47711023688316345
0.6638990044593811 0.55090093612670898 0.49236851930618286
0.75136226415634155 0.57005155086517334 0.51028013229370117
0.016194391995668411 0.72921460866928101 0.31054291129112244
0.23122690618038177 0.65828150510787964 0.40524289011955261
0.55794757604598999 0.59462636709213257 0.56273913383483887
0.60821771621704102 0.61965984106063843 0.59054052829742432
0.65864259004592896 0.65436559915542603 0.58448296785354614
0.73085999488830566 0.67853850126266479 0.57729244232177734
0.80941808223724365 0.69712293148040771 0.58701413869857788
0.073516547679901123 0.85075324773788452 0.34645602107048035
0.41103461384773254 0.74916177988052368 0.52440840005874634
0.66938161849975586 0.70294469594955444 0.67076712846755981
0.71311056613922119 0.73122859001159668 0.70044451951980591
0.75239521265029907 0.76604855060577393 0.7013964056968689
0.8045240044593811 0.79993414878845215 0.69113564491271973
0.87248450517654419 0.82350969314575195 0.68377691507339478
0.14153774082660675 0.94570767879486084 0.42709463834762573
0.54722100496292114 0.84617239236831665 0.62852239608764648
0.77023255825042725 0.81262111663818359 0.77089786529541016
0.81564223766326904 0.84203213453292847 0.80559968948364258
0.85254615545272827 0.87723082304000854 0.81889504194259644
0.89521783590316772 0.91584873199462891 0.81840330362319946
0.9531514048576355 0.9520384669303894 0.80372601747512817
0.041605766862630844 0.031275909394025803 0.78712576627731323
0.19429905712604523 0.030132757499814034 0.6067085862159729
0.18180841207504272 0.11919467151165009 0.22761619091033936
0.17750246822834015 0.16821017861366272 0.1763429194688797
0.24020491540431976 0.1973026841878891 0.22673124074935913
0.322439044713974 0.21493571996688843 0.27223667502403259
0.40732148289680481 0.22564192116260529 0.314411461353302
0.034585945308208466 0.19339047372341156 0.71789580583572388
0.18791410326957703 0.18595589697360992 0.67618203163146973
0.30166319012641907 0.21396887302398682 0.44088900089263916
0.28950640559196472 0.28173881769180298 0.2883562445640564
0.35948333144187927 0.30924665927886963 0.33609166741371155
0.44663062691688538 0.32352712750434875 0.37967580556869507
0.54111522436141968 0.33845880627632141 0.41604170203208923
0.015760669484734535 0.39020636677742004 0.64738839864730835
0.10787169635295868 0.37569987773895264 0.61969542503356934
0.34484219551086426 0.35427826642990112 0.58488684892654419
0.4089972972869873 0.39686509966850281 0.41134840250015259
0.48465681076049805 0.42192214727401733 0.44552814960479736
0.56785851716995239 0.43955948948860168 0.4763394296169281
0.65013992786407471 0.45419105887413025 0.50107985734939575
0.0041258567944169044 0.57238686084747314 0.57123500108718872
0.084291718900203705 0.55403977632522583 0.55340754985809326
0.29542756080627441 0.52993261814117432 0.53322142362594604
0.49952948093414307 0.51073563098907471 0.51864343881607056
0.58649784326553345 0.53632664680480957 0.53559619188308716
0.66639554500579834 0.55641180276870728 0.55404078960418701
0.74884343147277832 0.57465118169784546 0.57388210296630859
0.0024468665942549706 0.75178033113479614 0.5073663592338562
0.056266486644744873 0.7272716760635376 0.49600657820701599
0.30564555525779724 0.68978983163833618 0.50844919681549072
0.59741365909576416 0.63835066556930542 0.61073356866836548
0.66873717308044434 0.66272789239883423 0.62600904703140259
0.74102556705474854 0.68467092514038086 0.63131678104400635
0.82552963495254517 0.70549392700195312 0.64587795734405518
0.0017377965850755572 0.91936826705932617 0.45268642902374268
0.069494538009166718 0.87991452217102051 0.46846365928649902
0.41821366548538208 0.8026198148727417 0.57671785354614258
0.7121281623840332 0.74666202068328857 0.71612918376922607
0.76506787538528442 0.7746768593788147 0.74215555191040039
0.81492775678634644 0.80884569883346558 0.73453301191329956
0.8861997127532959 0.83097583055496216 0.73276060819625854
0.0081888986751437187 0.98901039361953735 0.45028939843177795
0.1559835821390152 0.97621089220046997 0.50265544652938843
0.55893820524215698 0.89411091804504395 0.67105519771575928
0.80359101295471191 0.84277939796447754 0.80713009834289551
0.84636753797531128 0.86501646041870117 0.82802003622055054
0.90490293502807617 0.9196770191192627 0.85741865634918213
0.95557355880737305 0.95539325475692749 0.8499985933303833
0.025494445115327835 0.043834730982780457 0.96899175643920898
0.20901700854301453 0.026074428111314774 0.92979210615158081
0.27739888429641724 0.075407996773719788 0.53610849380493164
0.21281993389129639 0.17042195796966553 0.23423731327056885
0.22965323925018311 0.21970193088054657 0.22903403639793396
0.28130882978439331 0.24306592345237732 0.27081245183944702
0.35213404893875122 0.25904420018196106 0.31808161735534668
0.024369154125452042 0.19529905915260315 0.94490432739257812
0.19103577733039856 0.17569050192832947 0.91218191385269165
0.36344635486602783 0.17905141413211823 0.76678562164306641
0.34029832482337952 0.26754909753799438 0.39656513929367065
0.33758008480072021 0.32822266221046448 0.33637708425521851
0.39589869976043701 0.35394054651260376 0.3815702497959137
0.4719054102897644 0.36596044898033142 0.42777752876281738
0.0090647079050540924 0.38772547245025635 0.88889890909194946
0.10779032856225967 0.36920478940010071 0.86301165819168091
0.34449613094329834 0.34868216514587402 0.83197444677352905
0.4726104736328125 0.37220555543899536 0.63022291660308838
0.45426952838897705 0.44491690397262573 0.45370352268218994
0.51756846904754639 0.46872654557228088 0.4947662353515625
0.59920263290405273 0.48185208439826965 0.53787404298782349
0.0030922235455363989 0.56557953357696533 0.82085013389587402
0.058966752141714096 0.54984235763549805 0.79982614517211914
0.28455457091331482 0.52831649780273438 0.77194535732269287
0.49959206581115723 0.50721287727355957 0.74490714073181152
0.5647616982460022 0.55408006906509399 0.56464928388595581
0.63755762577056885 0.57509535551071167 0.5994713306427002
0.72114384174346924 0.59258216619491577 0.6309015154838562
0.0019127789419144392 0.74056375026702881 0.74667304754257202
0.049465417861938477 0.73069071769714355 0.73249524831771851
0.22607633471488953 0.70823723077774048 0.71164393424987793
0.44587346911430359 0.69013887643814087 0.69526392221450806
0.66728508472442627 0.67707324028015137 0.68663007020950317
0.74097239971160889 0.69347625970840454 0.68945831060409546
0.83031141757965088 0.71547973155975342 0.71390789747238159
0 0.92342597246170044 0.68954861164093018
0.032745856791734695 0.90235179662704468 0.67218691110610962
0.18152935802936554 0.88229203224182129 0.65571075677871704
0.43455818295478821 0.85150796175003052 0.66439253091812134
0.75800257921218872 0.79468512535095215 0.76717621088027954
0.82276397943496704 0.81411808729171753 0.78114873170852661
0.89671528339385986 0.83825457096099854 0.78622686862945557
0.0037882935721427202 0.99228930473327637 0.64882594347000122
0.015059228055179119 0.9961007833480835 0.61944848299026489
0.19999074935913086 0.99350374937057495 0.63153398036956787
0.54968410730361938 0.95748633146286011 0.71655362844467163
0.87081587314605713 0.9039304256439209 0.87414616346359253
0.91672587394714355 0.92662173509597778 0.89165091514587402
0.96740233898162842 0.96612554788589478 0.89583426713943481
0.023960039019584656 0.017489189282059669 0.99865835905075073
0.20857790112495422 0.03192514181137085 0.98564547300338745
0.34798216819763184 0.051002368330955505 0.86058354377746582
0.30280357599258423 0.13664320111274719 0.43805819749832153
0.24253448843955994 0.22033259272575378 0.25004655122756958
0.26913934946060181 0.25773701071739197 0.26933014392852783
0.31475883722305298 0.28126958012580872 0.30996912717819214
0.023922115564346313 0.19552241265773773 0.99588501453399658
0.16884948313236237 0.17378625273704529 0.98959267139434814
0.37594333291053772 0.16093741357326508 0.9715346097946167
0.43363827466964722 0.22635206580162048 0.68029534816741943
0.36590576171875 0.3285154402256012 0.3850749135017395
0.37930133938789368 0.36792424321174622 0.37893193960189819
0.4284568727016449 0.39131656289100647 0.42099174857139587
0.014577574096620083 0.37891370058059692 0.99617063999176025
0.093064099550247192 0.36135563254356384 0.99294853210449219
0.32953488826751709 0.34621524810791016 0.98144042491912842
0.51957118511199951 0.34392690658569336 0.92161840200424194
0.50074857473373413 0.4357866644859314 0.54771548509597778
0.50062614679336548 0.48897665739059448 0.49913907051086426
0.55439186096191406 0.51151096820831299 0.5413823127746582
0.0041471892036497593 0.55992168188095093 0.99484729766845703
0.048263996839523315 0.5401923656463623 0.9907996654510498
0.26777726411819458 0.5202866792678833 0.98621964454650879
0.49600967764854431 0.50216156244277954 0.96165007352828979
0.62040692567825317 0.53316521644592285 0.7614167332649231
0.60989701747894287 0.5987580418586731 0.6075248122215271
0.67265206575393677 0.6207582950592041 0.65128135681152344
0.000735234294552356 0.74616163969039917 0.96949893236160278
0.039208192378282547 0.7265857458114624 0.96079379320144653
0.20817169547080994 0.70506173372268677 0.94522702693939209
0.4385455846786499 0.68382209539413452 0.92498791217803955
0.65952545404434204 0.66961407661437988 0.88565945625305176
0.72824239730834961 0.71515059471130371 0.72776609659194946
0.79989540576934814 0.73258298635482788 0.75928401947021484
0 0.92412865161895752 0.92229819297790527
0.018273372203111649 0.90377187728881836 0.90446680784225464
0.15108136832714081 0.88178342580795288 0.88440251350402832
0.3775724470615387 0.85975521802902222 0.86632448434829712
0.60711950063705444 0.84426027536392212 0.84535962343215942
0.82076257467269897 0.83019942045211792 0.83944249153137207
0.90396708250045776 0.84884059429168701 0.84721428155899048
0 0.99836856126785278 0.85961878299713135
0.0064992266707122326 0.99742358922958374 0.84170150756835938
0.11209636181592941 0.99451279640197754 0.82287335395812988
0.33674591779708862 0.99170547723770142 0.81477230787277222
0.62033367156982422 0.98731052875518799 0.82450473308563232
0.91674262285232544 0.94952499866485596 0.92753905057907104
0.97434782981872559 0.97330129146575928 0.9386482834815979
0.13618558645248413 0.032968528568744659 1
0.21072512865066528 0.016810981556773186 0.99900227785110474
0.39086562395095825 0.040052495896816254 0.98232144117355347
0.4131714403629303 0.096932291984558105 0.76861333847045898
0.31281307339668274 0.20549960434436798 0.37167203426361084
0.28725108504295349 0.26936802268028259 0.29149848222732544
0.30005428194999695 0.28936249017715454 0.30005428194999695
0.046282734721899033 0.19284798204898834 1
0.15620853006839752 0.15738146007061005 0.99837851524353027
0.3410068154335022 0.16923443973064423 0.98101115226745605
0.50189745426177979 0.18803280591964722 0.9520995020866394
0.45791631937026978 0.29839625954627991 0.58615189790725708
0.39624670147895813 0.37800136208534241 0.40149155259132385
0.42073363065719604 0.40762025117874146 0.42055264115333557
0.012637030333280563 0.37390369176864624 1
0.086370982229709625 0.35853061079978943 0.99658584594726562
0.29703828692436218 0.34891009330749512 0.98859918117523193
0.5289909839630127 0.32917743921279907 0.98989224433898926
0.59375500679016113 0.39629694819450378 0.81080847978591919
0.52931505441665649 0.48902952671051025 0.54699259996414185
0.5409235954284668 0.53155553340911865 0.54105329513549805
0.0056632696650922298 0.5584978461265564 0.99995905160903931
0.0307425856590271 0.53426939249038696 0.99939477443695068
0.25030297040939331 0.52885347604751587 0.99555331468582153
0.48198643326759338 0.50975215435028076 0.98725908994674683
0.67580008506774902 0.50429451465606689 0.97728240489959717
0.65425628423690796 0.58967816829681396 0.70085364580154419
0.63670790195465088 0.62936073541641235 0.63633996248245239
0.0053258561529219151 0.74196994304656982 0.99666750431060791
0.035744313150644302 0.73127633333206177 0.99341058731079102
0.20585592091083527 0.70497071743011475 0.9960210919380188
0.42883947491645813 0.68082493543624878 0.99627292156219482
0.65302401781082153 0.66720485687255859 0.9931369423866272
0.78304499387741089 0.69186663627624512 0.90366071462631226
0.75369679927825928 0.74435079097747803 0.75360387563705444
0.0013894772855564952 0.92108070850372314 0.99817860126495361
0.015872836112976074 0.90535241365432739 0.99393874406814575
0.15012821555137634 0.88099461793899536 0.99120694398880005
0.36730140447616577 0.85916388034820557 0.99211579561233521
0.59724420309066772 0.84106844663619995 0.99421828985214233
0.81438320875167847 0.82450729608535767 0.98905801773071289
0.87132543325424194 0.86597627401351929 0.87604260444641113
0 0.99968242645263672 0.99188172817230225
0.0042460723780095577 0.9976080060005188 0.9958808422088623
0.093781806528568268 0.99785089492797852 0.99469983577728271
0.30330333113670349 0.99309730529785156 0.98896330595016479
0.53728830814361572 0.98521214723587036 0.9831082820892334
0.7584376335144043 0.9854733943939209 0.97917371988296509
0.95152848958969116 0.96191167831420898 0.96459311246871948
