assets/lut/alexjordan bright green 01.cube
# Created by: G'MIC (https://gmic.eu)
TITLE "bright_green_01"
# LUT size
LUT_3D_SIZE 7
# Data domain
DOMAIN_MIN 0.0 0.0 0.0
DOMAIN_MAX 1.0 1.0 1.0
# LUT data points
0.022628126665949821 0.023373741656541824 0.021265260875225067
0.089894220232963562 0.041733250021934509 0.039395097643136978
0.18867357075214386 0.057130388915538788 0.060272589325904846
0.26584836840629578 0.066354192793369293 0.068948782980442047
0.2404705137014389 0.059896714985370636 0.063234098255634308
0.24059072136878967 0.059347759932279587 0.061896935105323792
0.24110470712184906 0.06039135530591011 0.062647067010402679
0.074823282659053802 0.16014045476913452 0.092241115868091583
0.18018032610416412 0.15587639808654785 0.094202212989330292
0.30556610226631165 0.16172845661640167 0.099579393863677979
0.44072785973548889 0.16938541829586029 0.11368949711322784
0.48848018050193787 0.16725301742553711 0.12170661240816116
0.47756779193878174 0.15686652064323425 0.11629294604063034
0.46316653490066528 0.1503998339176178 0.10927858203649521
0.14440670609474182 0.34155231714248657 0.14963015913963318
0.18133033812046051 0.30161839723587036 0.13744924962520599
0.35331588983535767 0.29686704277992249 0.15349189937114716
0.49421417713165283 0.30284297466278076 0.17314019799232483
0.59903889894485474 0.30795502662658691 0.18980175256729126
0.59966683387756348 0.29426488280296326 0.18192207813262939
0.58934247493743896 0.27780434489250183 0.17499789595603943
0.22038142383098602 0.50385606288909912 0.21761111915111542
0.20688022673130035 0.45089682936668396 0.19806404411792755
0.36605745553970337 0.43572434782981873 0.20945660769939423
0.52017605304718018 0.43929040431976318 0.23050278425216675
0.63642036914825439 0.44760695099830627 0.24670162796974182
0.67551356554031372 0.44211408495903015 0.2472902238368988
0.66409891843795776 0.42187386751174927 0.23997549712657928
0.26682171225547791 0.62583500146865845 0.26993563771247864
0.2578219473361969 0.59523427486419678 0.25879839062690735
0.3874366283416748 0.56897532939910889 0.26384907960891724
0.55224531888961792 0.56690883636474609 0.28168132901191711
0.66157525777816772 0.57255929708480835 0.29615950584411621
0.73621797561645508 0.57761776447296143 0.30774334073066711
0.73050200939178467 0.56136131286621094 0.30413970351219177
0.28160777688026428 0.64678561687469482 0.27970418334007263
0.27652844786643982 0.65153747797012329 0.28413420915603638
0.38833746314048767 0.66153216361999512 0.30734044313430786
0.57911008596420288 0.67293035984039307 0.34270218014717102
0.70333260297775269 0.69106858968734741 0.38530021905899048
0.80055248737335205 0.71248257160186768 0.43129435181617737
0.80435073375701904 0.70175737142562866 0.42423024773597717
0.28854519128799438 0.64686280488967896 0.27954903244972229
0.29401171207427979 0.64718329906463623 0.28352522850036621
0.37010395526885986 0.6555677056312561 0.29999557137489319
0.53203386068344116 0.66932380199432373 0.33385565876960754
0.67223197221755981 0.69578534364700317 0.38475134968757629
0.78095310926437378 0.72844046354293823 0.44351422786712646
0.83753371238708496 0.75507867336273193 0.48486033082008362
0.026809049770236015 0.030889518558979034 0.040354888886213303
0.10455941408872604 0.046080540865659714 0.065360516309738159
0.19836117327213287 0.062642209231853485 0.09009532630443573
0.28226706385612488 0.071367450058460236 0.10454513132572174
0.28186604380607605 0.06953740119934082 0.10084834694862366
0.271086186170578 0.065661318600177765 0.096931934356689453
0.28554701805114746 0.06943976879119873 0.10015343874692917
0.079192019999027252 0.1605326384305954 0.1224527433514595
0.1754307746887207 0.15476000308990479 0.12168917059898376
0.3123546838760376 0.16104736924171448 0.12735742330551147
0.43426686525344849 0.16636542975902557 0.13185733556747437
0.49158969521522522 0.16386500000953674 0.13539630174636841
0.47788971662521362 0.15273155272006989 0.12960246205329895
0.45865339040756226 0.1447589099407196 0.12114600092172623
0.13999021053314209 0.33439525961875916 0.17082646489143372
0.17758020758628845 0.29124820232391357 0.14729432761669159
0.34263205528259277 0.28561383485794067 0.15088912844657898
0.47367390990257263 0.28783169388771057 0.16403777897357941
0.58335095643997192 0.29059025645256042 0.17803645133972168
0.59758532047271729 0.2813015878200531 0.17324218153953552
0.58534246683120728 0.26579886674880981 0.17175400257110596
0.21892480552196503 0.4891849160194397 0.22231306135654449
0.18694895505905151 0.43319106101989746 0.18820011615753174
0.34214204549789429 0.41680687665939331 0.19471161067485809
0.49320745468139648 0.41557398438453674 0.21115712821483612
0.6127777099609375 0.42295244336128235 0.2322363555431366
0.66840344667434692 0.42271360754966736 0.23846007883548737
0.65617722272872925 0.40290635824203491 0.23152290284633636
0.269715815782547 0.62192368507385254 0.279349684715271
0.23433761298656464 0.57206326723098755 0.24956049025058746
0.35204058885574341 0.54913520812988281 0.25004571676254272
0.52071428298950195 0.54039520025253296 0.26637262105941772
0.63460463285446167 0.54631900787353516 0.27983590960502625
0.7198714017868042 0.55223840475082397 0.29567238688468933
0.71802139282226562 0.5338549017906189 0.28392153978347778
0.28284093737602234 0.64789688587188721 0.28398382663726807
0.27502945065498352 0.65299695730209351 0.28664958477020264
0.36190861463546753 0.65417337417602539 0.30057618021965027
0.55409854650497437 0.66065609455108643 0.33106276392936707
0.67215567827224731 0.66601085662841797 0.35302466154098511
0.77601140737533569 0.68364280462265015 0.39674785733222961
0.79144549369812012 0.67306923866271973 0.39270615577697754
0.28483426570892334 0.64718329906463623 0.28684207797050476
0.27271327376365662 0.64421564340591431 0.28141245245933533
0.32381603121757507 0.64973729848861694 0.29192852973937988
0.50554436445236206 0.66734057664871216 0.3309725821018219
0.65324068069458008 0.69091975688934326 0.37370184063911438
0.76871532201766968 0.72769767045974731 0.43888300657272339
0.83255302906036377 0.74903154373168945 0.479836106300354
0.035186991095542908 0.036858309060335159 0.060283452272415161
0.11561591923236847 0.052744306623935699 0.096328586339950562
0.21795964241027832 0.069458231329917908 0.13055175542831421
0.3093855082988739 0.074200540781021118 0.15240210294723511
0.3155553936958313 0.074813470244407654 0.15323495864868164
0.31447908282279968 0.073752067983150482 0.15217067301273346
0.31021520495414734 0.072469048202037811 0.14788000285625458
0.095608867704868317 0.18114522099494934 0.18544739484786987
0.18459542095661163 0.16422991454601288 0.17750844359397888
0.32139313220977783 0.16478295624256134 0.18583108484745026
0.44189441204071045 0.16900168359279633 0.193574458360672
0.51550757884979248 0.16706804931163788 0.19714681804180145
0.49499744176864624 0.15567180514335632 0.18436308205127716
0.47938913106918335 0.14728552103042603 0.17963498830795288
0.14167541265487671 0.33903935551643372 0.23879744112491608
0.17682245373725891 0.2996639609336853 0.21010951697826385
0.34657850861549377 0.28934407234191895 0.2041475772857666
0.47959792613983154 0.29242816567420959 0.2062428742647171
0.59842675924301147 0.29639825224876404 0.21574917435646057
0.61199092864990234 0.28559648990631104 0.20992450416088104
0.5968393087387085 0.27178764343261719 0.20130212604999542
0.21626880764961243 0.49187704920768738 0.28321382403373718
0.20111331343650818 0.44134515523910522 0.24346531927585602
0.34783667325973511 0.4221653938293457 0.23270814120769501
0.49696162343025208 0.41895946860313416 0.23366014659404755
0.6124492883682251 0.42541700601577759 0.24442207813262939
0.67276310920715332 0.42420125007629395 0.24879404902458191
0.66215378046035767 0.40674468874931335 0.23842349648475647
0.27356851100921631 0.62494915723800659 0.33912914991378784
0.23638729751110077 0.57108145952224731 0.29086756706237793
0.35627058148384094 0.55096900463104248 0.28049063682556152
0.52136671543121338 0.54174619913101196 0.28552356362342834
0.6328921914100647 0.54392790794372559 0.29217416048049927
0.72107076644897461 0.55137759447097778 0.30744624137878418
0.72349876165390015 0.53524357080459595 0.2983548641204834
0.29352247714996338 0.66230148077011108 0.34546834230422974
0.29071947932243347 0.65907037258148193 0.32575726509094238
0.37029209733009338 0.65287679433822632 0.32737326622009277
0.54570960998535156 0.65388429164886475 0.34721601009368896
0.67672592401504517 0.67145544290542603 0.37866020202636719
0.77153980731964111 0.68039900064468384 0.40746089816093445
0.79204457998275757 0.67200028896331787 0.40240952372550964
0.28993111848831177 0.65526878833770752 0.32937195897102356
0.2811930775642395 0.64864838123321533 0.31008952856063843
0.3301178514957428 0.65695488452911377 0.31775417923927307
0.50763499736785889 0.67481964826583862 0.35106846690177917
0.66023081541061401 0.69988852739334106 0.39493101835250854
0.77088505029678345 0.72994875907897949 0.45152074098587036
0.83713710308074951 0.75729656219482422 0.49715045094490051
0.041517578065395355 0.043399795889854431 0.080931298434734344
0.12965972721576691 0.059806928038597107 0.12396464496850967
0.24715559184551239 0.075942337512969971 0.17355641722679138
0.33738863468170166 0.081486612558364868 0.19761183857917786
0.33666592836380005 0.079468429088592529 0.19361187517642975
0.33351290225982666 0.079294405877590179 0.19296544790267944
0.33239278197288513 0.078751072287559509 0.19078367948532104
0.0968155637383461 0.18704494833946228 0.23605430126190186
0.19225776195526123 0.16873821616172791 0.23099540174007416
0.33023923635482788 0.17025043070316315 0.24703799188137054
0.45640352368354797 0.17329816520214081 0.26111084222793579
0.53045201301574707 0.17213986814022064 0.26684862375259399
0.51723259687423706 0.16086019575595856 0.25844144821166992
0.49461269378662109 0.1523653119802475 0.24621795117855072
0.15855459868907928 0.34924688935279846 0.31295225024223328
0.1833089292049408 0.30713900923728943 0.28082731366157532
0.35397586226463318 0.29551884531974792 0.27874156832695007
0.48753109574317932 0.29734012484550476 0.28262978792190552
0.59980303049087524 0.30219742655754089 0.29183715581893921
0.62281662225723267 0.29031774401664734 0.28555220365524292
0.60454237461090088 0.27485242486000061 0.27301618456840515
0.22728513181209564 0.49733680486679077 0.36485391855239868
0.20711740851402283 0.44630131125450134 0.32096844911575317
0.35135668516159058 0.4250846803188324 0.30803686380386353
0.50213223695755005 0.42538899183273315 0.31010466814041138
0.61354923248291016 0.43204930424690247 0.31627437472343445
0.68520301580429077 0.42837816476821899 0.31860864162445068
0.66945695877075195 0.41024360060691833 0.30432531237602234
0.2852834165096283 0.63540565967559814 0.42005074024200439
0.25312751531600952 0.57581764459609985 0.3652641773223877
0.36088201403617859 0.55653542280197144 0.35368365049362183
0.52567565441131592 0.54615336656570435 0.35055553913116455
0.63667625188827515 0.55039876699447632 0.35883134603500366
0.72996312379837036 0.558643639087677 0.37184736132621765
0.73363792896270752 0.54421812295913696 0.35774606466293335
0.30098405480384827 0.67661619186401367 0.42621889710426331
0.29810956120491028 0.66731917858123779 0.39696100354194641
0.39380654692649841 0.6726873517036438 0.40635117888450623
0.55098164081573486 0.65880846977233887 0.40639474987983704
0.67391127347946167 0.66594600677490234 0.42653444409370422
0.77148085832595825 0.68250685930252075 0.45799544453620911
0.80243140459060669 0.67540568113327026 0.45493906736373901
0.29911544919013977 0.67086136341094971 0.3998408317565918
0.28410667181015015 0.66380691528320312 0.37556919455528259
0.35024762153625488 0.67718732357025146 0.3869110643863678
0.51902741193771362 0.68950557708740234 0.40968787670135498
0.66916882991790771 0.71131002902984619 0.45105633139610291
0.78364890813827515 0.7528490424156189 0.51652413606643677
0.85187298059463501 0.77172011137008667 0.54906946420669556
0.042788084596395493 0.042225662618875504 0.080429255962371826
0.12276717275381088 0.058860089629888535 0.11942107230424881
0.2339809238910675 0.073025859892368317 0.1633761078119278
0.34267333149909973 0.082685612142086029 0.20073801279067993
0.34250399470329285 0.080673933029174805 0.19948042929172516
0.33552452921867371 0.077862635254859924 0.19626021385192871
0.33773970603942871 0.078232526779174805 0.19664935767650604
0.092835865914821625 0.17937847971916199 0.23747642338275909
0.18999636173248291 0.16958954930305481 0.25293853878974915
0.33312153816223145 0.17005196213722229 0.27437594532966614
0.46337181329727173 0.17421834170818329 0.29562687873840332
0.53650802373886108 0.17370599508285522 0.30686488747596741
0.52500766515731812 0.16150917112827301 0.29987823963165283
0.49895581603050232 0.15249904990196228 0.28339418768882751
0.16325785219669342 0.35310137271881104 0.3560883104801178
0.18669475615024567 0.31010016798973083 0.33592194318771362
0.36219081282615662 0.30019843578338623 0.33805379271507263
0.49446764588356018 0.30119860172271729 0.34938311576843262
0.6076960563659668 0.30603134632110596 0.35867291688919067
0.63797670602798462 0.29633957147598267 0.3510882556438446
0.61508309841156006 0.27873030304908752 0.33685833215713501
0.22627471387386322 0.50173640251159668 0.4278571605682373
0.20938217639923096 0.45210021734237671 0.39064228534698486
0.35667252540588379 0.43499061465263367 0.37994039058685303
0.50567871332168579 0.43059280514717102 0.38008338212966919
0.6224408745765686 0.43693250417709351 0.39054641127586365
0.69809979200363159 0.43842020630836487 0.39255484938621521
0.67946881055831909 0.4182249903678894 0.37741297483444214
0.28730601072311401 0.63421320915222168 0.48863261938095093
0.26453575491905212 0.58136415481567383 0.43894496560096741
0.36662745475769043 0.56056499481201172 0.42305195331573486
0.53080153465270996 0.55290502309799194 0.42275282740592957
0.64224487543106079 0.55707663297653198 0.43000638484954834
0.73773646354675293 0.5670781135559082 0.44295430183410645
0.74543166160583496 0.55302566289901733 0.42971885204315186
0.30828770995140076 0.68514657020568848 0.5004844069480896
0.30731898546218872 0.68564826250076294 0.47912377119064331
0.39560464024543762 0.67575627565383911 0.4733332097530365
0.56480902433395386 0.67639267444610596 0.48501408100128174
0.68131124973297119 0.67717427015304565 0.49584722518920898
0.77345156669616699 0.68718975782394409 0.51447927951812744
0.81126135587692261 0.68243342638015747 0.51729434728622437
0.30399155616760254 0.6816180944442749 0.48082873225212097
0.28347593545913696 0.67620110511779785 0.45415148138999939
0.35082736611366272 0.68717622756958008 0.45872831344604492
0.53674328327178955 0.71182078123092651 0.48993566632270813
0.68533420562744141 0.73151791095733643 0.5247499942779541
0.79087811708450317 0.75900369882583618 0.56820476055145264
0.86232227087020874 0.79553097486495972 0.61794978380203247
0.038096558302640915 0.040598701685667038 0.075894691050052643
0.12381058931350708 0.058009669184684753 0.11873982846736908
0.22673498094081879 0.07106412947177887 0.16243807971477509
0.33653900027275085 0.081222027540206909 0.19912645220756531
0.33678832650184631 0.078374914824962616 0.19703163206577301
0.33403009176254272 0.077334821224212646 0.19409039616584778
0.33567067980766296 0.075715519487857819 0.19549594819545746
0.095458298921585083 0.1813761293888092 0.2406965047121048
0.18454942107200623 0.16304668784141541 0.24337758123874664
0.32543176412582397 0.16625921428203583 0.26839408278465271
0.44978240132331848 0.16963064670562744 0.29317858815193176
0.5316474437713623 0.16972725093364716 0.3067270815372467
0.52090001106262207 0.15797156095504761 0.30017024278640747
0.50387227535247803 0.1507018506526947 0.28961843252182007
0.15786302089691162 0.34528431296348572 0.35263350605964661
0.17990989983081818 0.30426329374313354 0.33354434370994568
0.35194826126098633 0.29624298214912415 0.34170645475387573
0.48609974980354309 0.29714781045913696 0.35982662439346313
0.61349618434906006 0.30485886335372925 0.37853997945785522
0.63702136278152466 0.29416388273239136 0.37430468201637268
0.62242352962493896 0.27820214629173279 0.36558014154434204
0.23005619645118713 0.49598246812820435 0.43266093730926514
0.21276223659515381 0.44784331321716309 0.40632009506225586
0.35231602191925049 0.43256491422653198 0.40634891390800476
0.50479918718338013 0.42962557077407837 0.41452980041503906
0.6249580979347229 0.43818590044975281 0.43318098783493042
0.70096546411514282 0.43989774584770203 0.44088128209114075
0.69204503297805786 0.42143267393112183 0.43105950951576233
0.28909438848495483 0.63456594944000244 0.51005023717880249
0.25191813707351685 0.57901084423065186 0.47687965631484985
0.35914707183837891 0.56098192930221558 0.47049745917320251
0.53037178516387939 0.55712902545928955 0.47644484043121338
0.6469997763633728 0.56109464168548584 0.49081683158874512
0.74257379770278931 0.5714232325553894 0.50374853610992432
0.75421392917633057 0.56051957607269287 0.49375262856483459
0.31574222445487976 0.69645774364471436 0.54346764087677002
0.31301027536392212 0.68830418586730957 0.53807294368743896
0.41001790761947632 0.68860042095184326 0.54328310489654541
0.56902599334716797 0.67844408750534058 0.547413170337677
0.68562048673629761 0.68026113510131836 0.55878573656082153
0.77637040615081787 0.69129484891891479 0.57561600208282471
0.81660091876983643 0.69006800651550293 0.57611805200576782
0.31020879745483398 0.68554311990737915 0.52896451950073242
0.30169650912284851 0.6839720606803894 0.51982235908508301
0.37327051162719727 0.6988406777381897 0.52740728855133057
0.55068433284759521 0.71980732679367065 0.55668145418167114
0.69798314571380615 0.74354714155197144 0.5922892689704895
0.80350857973098755 0.78059232234954834 0.63807624578475952
0.87311869859695435 0.80710256099700928 0.67265176773071289
0.034064363688230515 0.037765413522720337 0.072311341762542725
0.11876492947340012 0.055547181516885757 0.11543827503919601
0.22483319044113159 0.072045132517814636 0.15953502058982849
0.3252473771572113 0.079115591943264008 0.19369636476039886
0.35581299662590027 0.081651128828525543 0.20453594624996185
0.35162138938903809 0.083348199725151062 0.20460723340511322
0.34973445534706116 0.07779192179441452 0.20369188487529755
0.091436482965946198 0.17148442566394806 0.23023310303688049
0.18008828163146973 0.15961168706417084 0.24061319231987
0.31695622205734253 0.1602131724357605 0.26525068283081055
0.44115182757377625 0.1636766642332077 0.28693783283233643
0.53441810607910156 0.16806076467037201 0.30487772822380066
0.51314932107925415 0.15625938773155212 0.29565593600273132
0.49665364623069763 0.14925460517406464 0.28662115335464478
0.15480542182922363 0.34119331836700439 0.34962382912635803
0.17849475145339966 0.30023181438446045 0.33052977919578552
0.34515315294265747 0.28790539503097534 0.33724808692932129
0.47972506284713745 0.28765091300010681 0.35213911533355713
0.59553837776184082 0.29309567809104919 0.37113437056541443
0.63082188367843628 0.2846551239490509 0.37163618206977844
0.62588977813720703 0.27257642149925232 0.36647039651870728
0.22661195695400238 0.49050825834274292 0.42947500944137573
0.21276676654815674 0.44152408838272095 0.40359616279602051
0.34166553616523743 0.42415466904640198 0.40235525369644165
0.49503400921821594 0.42046138644218445 0.40846222639083862
0.61134833097457886 0.429217129945755 0.42653065919876099
0.69282668828964233 0.43071204423904419 0.43429771065711975
0.69265365600585938 0.41703304648399353 0.42942187190055847
0.2836756706237793 0.62931758165359497 0.5016210675239563
0.25083741545677185 0.5765872597694397 0.4733334481716156
0.35110658407211304 0.55288803577423096 0.46884831786155701
0.52106666564941406 0.54854607582092285 0.47594597935676575
0.64047694206237793 0.55523973703384399 0.49046322703361511
0.74250918626785278 0.56746816635131836 0.51085984706878662
0.75618594884872437 0.55767560005187988 0.50666391849517822
0.31923249363899231 0.70127326250076294 0.54482078552246094
0.30730202794075012 0.68361920118331909 0.5366281270980835
0.39289766550064087 0.67056071758270264 0.54179400205612183
0.56400597095489502 0.6753000020980835 0.55988496541976929
0.68622064590454102 0.68168848752975464 0.57960414886474609
0.77219676971435547 0.6905704140663147 0.59648782014846802
0.82280492782592773 0.69467306137084961 0.61097413301467896
0.31206175684928894 0.69444239139556885 0.54168343544006348
0.2996830940246582 0.69374138116836548 0.54000008106231689
0.37689796090126038 0.70475244522094727 0.55556422472000122
0.560283362865448 0.73256063461303711 0.59593671560287476
0.7047274112701416 0.75145053863525391 0.6350940465927124
0.80891358852386475 0.78499656915664673 0.67806565761566162
0.88896435499191284 0.82193398475646973 0.7263103723526001
