assets/lut/alexjordan low key 01.cube
# Created by: G'MIC (https://gmic.eu)
TITLE "low_key_01"
# LUT size
LUT_3D_SIZE 13
# Data domain
DOMAIN_MIN 0.0 0.0 0.0
DOMAIN_MAX 1.0 1.0 1.0
# LUT data points
0.00010986327833961695 0.00039708754047751427 0
0.0037848977372050285 0.0036449208855628967 0.00018508013454265893
0.014541341923177242 0.0099209202453494072 0.0020259183365851641
0.033284746110439301 0.018252190202474594 0.0076593435369431973
0.057085327804088593 0.027553662657737732 0.018123552203178406
0.084628209471702576 0.035923406481742859 0.029298849403858185
0.12030734121799469 0.042129144072532654 0.036898668855428696
0.16365988552570343 0.046106703579425812 0.041314862668514252
0.21038228273391724 0.049358680844306946 0.046235296875238419
0.25905904173851013 0.05219351127743721 0.052812181413173676
0.30913469195365906 0.054434772580862045 0.061708174645900726
0.35960111021995544 0.056372907012701035 0.071977369487285614
0.41029268503189087 0.057411015033721924 0.081048168241977692
0.019021650776267052 0.027707790955901146 0.0089257629588246346
0.038938768208026886 0.04012666642665863 0.015408579260110855
0.060474500060081482 0.05079224705696106 0.021495640277862549
0.086577348411083221 0.058937534689903259 0.029031865298748016
0.1161983534693718 0.06591421365737915 0.036863919347524643
0.14972586929798126 0.072128072381019592 0.044293109327554703
0.18953497707843781 0.076958328485488892 0.050095830112695694
0.23466092348098755 0.08079606294631958 0.054106738418340683
0.28259870409965515 0.08400389552116394 0.058049041777849197
0.33336320519447327 0.086580656468868256 0.063236162066459656
0.38656681776046753 0.088217683136463165 0.070284835994243622
0.44122642278671265 0.089239455759525299 0.078591562807559967
0.49346619844436646 0.090347185730934143 0.086683429777622223
0.050179067999124527 0.076169140636920929 0.033296652138233185
0.072208404541015625 0.088130608201026917 0.036401890218257904
0.097384855151176453 0.097580477595329285 0.038025815039873123
0.12924866378307343 0.10349418967962265 0.04133421927690506
0.16417863965034485 0.10834193229675293 0.045335374772548676
0.20330800116062164 0.11275247484445572 0.049669094383716583
0.24866342544555664 0.11591612547636032 0.054739110171794891
0.29674777388572693 0.11887055635452271 0.058793190866708755
0.34591364860534668 0.12203504145145416 0.062367219477891922
0.39858457446098328 0.12422560155391693 0.066473819315433502
0.45506161451339722 0.1248852014541626 0.072069369256496429
0.51437747478485107 0.12490717321634293 0.078893430531024933
0.56897109746932983 0.1256420910358429 0.086373254656791687
0.066527031362056732 0.12913466989994049 0.045734122395515442
0.093235000967979431 0.13969817757606506 0.046672072261571884
0.12316198647022247 0.14787904918193817 0.046071536839008331
0.15753291547298431 0.15301316976547241 0.046099375933408737
0.19676424562931061 0.15717510879039764 0.046312235295772552
0.24051462113857269 0.16009792685508728 0.048792324960231781
0.29027116298675537 0.16194318234920502 0.053839530795812607
0.34159210324287415 0.16409900784492493 0.058313809335231781
0.39314249157905579 0.16661950945854187 0.061867058277130127
0.44765722751617432 0.16852959990501404 0.065587140619754791
0.50582355260848999 0.16888275742530823 0.071006566286087036
0.56666135787963867 0.16825012862682343 0.077628567814826965
0.62259960174560547 0.16897726058959961 0.085384160280227661
0.073696017265319824 0.18520805239677429 0.050351548939943314
0.10504885017871857 0.19425320625305176 0.050752557814121246
0.13920344412326813 0.20134937763214111 0.049090798944234848
0.17680557072162628 0.2062542587518692 0.047696027904748917
0.21929991245269775 0.21005679666996002 0.046001166105270386
0.26588457822799683 0.21266904473304749 0.04755178838968277
0.31723955273628235 0.21443457901477814 0.051954951137304306
0.37010791897773743 0.21613436937332153 0.056375227868556976
0.4234243631362915 0.2181733101606369 0.060212649405002594
0.4787137508392334 0.2198338508605957 0.064140439033508301
0.53622341156005859 0.22025509178638458 0.070177711546421051
0.59495806694030762 0.22043232619762421 0.07804812490940094
0.64893150329589844 0.22188372910022736 0.087315022945404053
0.076631002128124237 0.24301464855670929 0.052112191915512085
0.11169804632663727 0.25090479850769043 0.05204256996512413
0.14995405077934265 0.25720307230949402 0.05074208602309227
0.19163022935390472 0.26173719763755798 0.049620505422353745
0.2365415096282959 0.26532819867134094 0.048955205827951431
0.28489333391189575 0.26819434762001038 0.049876537173986435
0.33601200580596924 0.27022987604141235 0.052737817168235779
0.38848251104354858 0.27277114987373352 0.056510984897613525
0.44155916571617126 0.27454617619514465 0.060603182762861252
0.49517038464546204 0.27701091766357422 0.065287135541439056
0.5500493049621582 0.27806073427200317 0.072070837020874023
0.60569465160369873 0.27940243482589722 0.080699443817138672
0.65940815210342407 0.28098002076148987 0.090811453759670258
0.079611681401729584 0.30127939581871033 0.054255977272987366
0.11765160411596298 0.30853310227394104 0.05419471487402916
0.15922644734382629 0.3140319287776947 0.054025597870349884
0.20409685373306274 0.3183041512966156 0.053875479847192764
0.25109642744064331 0.3219471275806427 0.054215613752603531
0.29997768998146057 0.32502344250679016 0.055005479604005814
0.35035973787307739 0.32804811000823975 0.056968435645103455
0.40142583847045898 0.33109226822853088 0.059946548193693161
0.45267263054847717 0.33403602242469788 0.063945725560188293
0.50409495830535889 0.33678644895553589 0.069370940327644348
0.5558396577835083 0.33941316604614258 0.076243475079536438
0.60884362459182739 0.34142383933067322 0.085069634020328522
0.66269439458847046 0.34273186326026917 0.095520630478858948
0.085137538611888885 0.35954418778419495 0.059254605323076248
0.12575224041938782 0.36607035994529724 0.059800062328577042
0.16966575384140015 0.37120774388313293 0.060256734490394592
0.21626271307468414 0.37537863850593567 0.061131078749895096
0.26437807083129883 0.37907207012176514 0.061929963529109955
0.31345662474632263 0.38266727328300476 0.062889829277992249
0.36283394694328308 0.38642275333404541 0.064472272992134094
0.41230899095535278 0.39010122418403625 0.066896028816699982
0.4620245099067688 0.39378046989440918 0.070684529840946198
0.51099228858947754 0.3974703848361969 0.075802624225616455
0.56013947725296021 0.40106308460235596 0.082524828612804413
0.61125832796096802 0.40375390648841858 0.091033473610877991
0.66599792242050171 0.40479645133018494 0.10157506912946701
0.092870436608791351 0.41762557625770569 0.066572494804859161
0.13571733236312866 0.42360913753509521 0.067971788346767426
0.18122874200344086 0.42846068739891052 0.069305941462516785
0.22884266078472137 0.43264204263687134 0.07065766304731369
0.2774750292301178 0.43645158410072327 0.072015516459941864
0.32623648643493652 0.44047814607620239 0.072972044348716736
0.37482553720474243 0.44477912783622742 0.074303902685642242
0.42336869239807129 0.4490019679069519 0.07638116180896759
0.47168734669685364 0.45329391956329346 0.079686842858791351
0.51995056867599487 0.45756113529205322 0.084514856338500977
0.56822431087493896 0.46148443222045898 0.090884730219841003
0.61874401569366455 0.4642520546913147 0.099251434206962585
0.67253512144088745 0.46599748730659485 0.1089378222823143
0.10215340554714203 0.47572973370552063 0.075285457074642181
0.14667727053165436 0.48129129409790039 0.077572092413902283
0.19321121275424957 0.48597127199172974 0.079626090824604034
0.2414286732673645 0.49015712738037109 0.081651903688907623
0.29025089740753174 0.49430912733078003 0.083139486610889435
0.33897021412849426 0.49854809045791626 0.084473580121994019
0.38694971799850464 0.50309735536575317 0.085586071014404297
0.43462523818016052 0.50773072242736816 0.087461866438388824
0.48211294412612915 0.51241743564605713 0.090402387082576752
0.52994406223297119 0.51693356037139893 0.094862096011638641
0.57864123582839966 0.52081584930419922 0.10078854858875275
0.6294211745262146 0.52404582500457764 0.10856224596500397
0.68186736106872559 0.52569347620010376 0.1174604669213295
0.1119958758354187 0.53408414125442505 0.084645017981529236
0.15777935087680817 0.53933995962142944 0.087808795273303986
0.20517335832118988 0.54390096664428711 0.090494416654109955
0.25380679965019226 0.54815858602523804 0.093003109097480774
0.30263486504554749 0.55240863561630249 0.094910174608230591
0.35106965899467468 0.55683249235153198 0.096401393413543701
0.39896228909492493 0.56148898601531982 0.09769846498966217
0.44636991620063782 0.56640625 0.099683009088039398
0.49388596415519714 0.57138723134994507 0.10234424471855164
0.54178476333618164 0.57591146230697632 0.10636705905199051
0.5907052755355835 0.57985228300094604 0.1118786558508873
0.64080744981765747 0.58308655023574829 0.11899101734161377
0.69236773252487183 0.58589553833007812 0.12721501290798187
0.12204877287149429 0.5925363302230835 0.094191938638687134
0.16876669228076935 0.59787487983703613 0.09806428849697113
0.21687778830528259 0.60248386859893799 0.10150976479053497
0.26562374830245972 0.60664349794387817 0.10440002381801605
0.31443840265274048 0.61096525192260742 0.10677409172058105
0.36286279559135437 0.6154172420501709 0.10853910446166992
0.41083791851997375 0.62024790048599243 0.11040076613426208
0.4583946168422699 0.62532848119735718 0.1121550053358078
0.50593101978302002 0.63025784492492676 0.11503825336694717
0.5539289116859436 0.6348002552986145 0.11866868287324905
0.60274064540863037 0.6389995813369751 0.12377089262008667
0.65260398387908936 0.64255106449127197 0.13020293414592743
0.70343327522277832 0.64527565240859985 0.13792876899242401
0.13242779672145844 0.65151429176330566 0.1039968729019165
0.17993101477622986 0.65661907196044922 0.10869963467121124
0.22826789319515228 0.6610991358757019 0.11258501559495926
0.27717795968055725 0.66537636518478394 0.11601707339286804
0.32599401473999023 0.66975688934326172 0.11874163895845413
0.37455436587333679 0.6743815541267395 0.12094451487064362
0.42264044284820557 0.67932438850402832 0.12306661903858185
0.47047102451324463 0.68422961235046387 0.12521642446517944
0.51823598146438599 0.68902182579040527 0.12801216542720795
0.56629067659378052 0.69374305009841919 0.13172076642513275
0.61514008045196533 0.69801539182662964 0.13642780482769012
0.66451859474182129 0.70177245140075684 0.14238065481185913
0.71470493078231812 0.70513880252838135 0.14951199293136597
0.0004956413758918643 0.001307753031142056 0.00015940946468617767
0.0056648855097591877 0.0062716314569115639 0.0025108787231147289
0.01761392317712307 0.014263182878494263 0.0080293696373701096
0.038625545799732208 0.023431021720170975 0.017928194254636765
0.064986824989318848 0.031628657132387161 0.030125666409730911
0.095022775232791901 0.038801603019237518 0.041101254522800446
0.12903977930545807 0.045161556452512741 0.050011400133371353
0.16918082535266876 0.050072792917490005 0.057463102042675018
0.21388106048107147 0.05376700684428215 0.064700141549110413
0.26167696714401245 0.056672040373086929 0.073458246886730194
0.31194356083869934 0.05871085450053215 0.084082402288913727
0.36413583159446716 0.059819359332323074 0.095485106110572815
0.4171181321144104 0.060185946524143219 0.10594659298658371
0.022478051483631134 0.033189453184604645 0.019490679726004601
0.042511209845542908 0.04554317519068718 0.028747035190463066
0.064109683036804199 0.056019444018602371 0.036739110946655273
0.091156601905822754 0.063657991588115692 0.045055702328681946
0.12249145656824112 0.069564282894134521 0.053723894059658051
0.15774112939834595 0.074875190854072571 0.062063824385404587
0.19621691107749939 0.079778768122196198 0.069333456456661224
0.2390982061624527 0.084119804203510284 0.075511574745178223
0.28582224249839783 0.087435372173786163 0.081759236752986908
0.33576646447181702 0.090123973786830902 0.088961012661457062
0.38875791430473328 0.091796174645423889 0.097914047539234161
0.44290825724601746 0.092682600021362305 0.10764229297637939
0.49609315395355225 0.093577966094017029 0.11706086993217468
0.051201675087213516 0.081575311720371246 0.047986708581447601
0.073656730353832245 0.093317024409770966 0.053113449364900589
0.099833063781261444 0.10217362642288208 0.057005278766155243
0.13208256661891937 0.10771729797124863 0.062125470489263535
0.16823302209377289 0.11180964112281799 0.067465715110301971
0.20857582986354828 0.11520899087190628 0.073881275951862335
0.25286704301834106 0.11846274882555008 0.080340199172496796
0.29959309101104736 0.12179362028837204 0.085869535803794861
0.34857895970344543 0.12477833032608032 0.091280154883861542
0.40083622932434082 0.12728250026702881 0.097601033747196198
0.45593053102493286 0.12820740044116974 0.10502611100673676
0.51278340816497803 0.12899947166442871 0.11326076835393906
0.5662047266960144 0.13024100661277771 0.12207607179880142
0.066022954881191254 0.13402625918388367 0.064957588911056519
0.09294968843460083 0.14440715312957764 0.067199677228927612
0.12359403818845749 0.15211790800094604 0.068701788783073425
0.15945644676685333 0.15673196315765381 0.070583000779151917
0.19912578165531158 0.1599128395318985 0.072854168713092804
0.24388478696346283 0.16221441328525543 0.077507391571998596
0.29324313998222351 0.16415323317050934 0.084116317331790924
0.34365153312683105 0.16660049557685852 0.089925371110439301
0.3952409029006958 0.16908371448516846 0.095269687473773956
0.44894540309906006 0.17075075209140778 0.10125840455293655
0.5056881308555603 0.17189162969589233 0.10811258852481842
0.56300830841064453 0.17241352796554565 0.11625940352678299
0.61646103858947754 0.17413303256034851 0.12507350742816925
0.071003854274749756 0.19003799557685852 0.073486283421516418
0.1023685559630394 0.1987566351890564 0.074379891157150269
0.13750477135181427 0.20542845129966736 0.074522934854030609
0.17666001617908478 0.20986524224281311 0.074728108942508698
0.21979691088199615 0.21291510760784149 0.075284205377101898
0.26725709438323975 0.21522893011569977 0.0787225142121315
0.31908941268920898 0.21640937030315399 0.084752850234508514
0.3714698851108551 0.21886210143566132 0.090650908648967743
0.42470091581344604 0.22047476470470428 0.096188701689243317
0.4795067310333252 0.22223648428916931 0.10269025713205338
0.53498131036758423 0.22345027327537537 0.11011902987957001
0.59116017818450928 0.22452236711978912 0.11881242692470551
0.64397859573364258 0.22637833654880524 0.12863028049468994
0.071633405983448029 0.24797450006008148 0.077527739107608795
0.10644568502902985 0.25570133328437805 0.077529683709144592
0.14610667526721954 0.26147368550300598 0.078053340315818787
0.18954719603061676 0.26538097858428955 0.078784927725791931
0.23592664301395416 0.26861041784286499 0.079971536993980408
0.28487017750740051 0.27085116505622864 0.082402564585208893
0.3361353874206543 0.27338051795959473 0.086785212159156799
0.38858336210250854 0.27576330304145813 0.091688431799411774
0.44165074825286865 0.27749478816986084 0.097646959125995636
0.49510899186134338 0.27932965755462646 0.1046409010887146
0.54908013343811035 0.28115612268447876 0.11280674487352371
0.60319000482559204 0.28272679448127747 0.12226945161819458
0.65612274408340454 0.2845713198184967 0.13283614814281464
0.073516309261322021 0.30642732977867126 0.082392551004886627
0.11121748387813568 0.31342524290084839 0.081958100199699402
0.15442405641078949 0.31839671730995178 0.083379156887531281
0.20106074213981628 0.32202717661857605 0.085259653627872467
0.24959971010684967 0.32512691617012024 0.086959570646286011
0.29925999045372009 0.32809245586395264 0.089051984250545502
0.34972497820854187 0.33131253719329834 0.091861307621002197
0.40064343810081482 0.33445137739181519 0.096117667853832245
0.4520924985408783 0.33693400025367737 0.10172648727893829
0.50373733043670654 0.33940637111663818 0.10881540924310684
0.55494934320449829 0.34204253554344177 0.11720108240842819
0.6073763370513916 0.3442293107509613 0.12689870595932007
0.66130059957504272 0.34573942422866821 0.13783060014247894
0.079706855118274689 0.36409816145896912 0.090338386595249176
0.12009147554636002 0.37055042386054993 0.090665839612483978
0.16533719003200531 0.37519153952598572 0.092374153435230255
0.2136453241109848 0.37866014242172241 0.094686128199100494
0.26318299770355225 0.38201642036437988 0.096682563424110413
0.31275290250778198 0.3856322169303894 0.09851449728012085
0.36230111122131348 0.38943725824356079 0.10069804638624191
0.41158771514892578 0.39316010475158691 0.10397195070981979
0.4615054726600647 0.39670288562774658 0.10901345312595367
0.51069885492324829 0.40007027983665466 0.11557153612375259
0.55997276306152344 0.40345662832260132 0.12344510108232498
0.61125993728637695 0.40591347217559814 0.13282574713230133
0.66576850414276123 0.40733355283737183 0.14369623363018036
0.089090459048748016 0.42148634791374207 0.10075563937425613
0.13185937702655792 0.42730545997619629 0.102034792304039
0.17843043804168701 0.43171441555023193 0.1041819229722023
0.22740757465362549 0.43533599376678467 0.10668706148862839
0.27709308266639709 0.43895024061203003 0.10873088240623474
0.32630687952041626 0.442964106798172 0.1102607250213623
0.37466612458229065 0.44734811782836914 0.11195119470357895
0.42317941784858704 0.45172160863876343 0.11444558203220367
0.47168734669685364 0.4559185802936554 0.11863276362419128
0.51995056867599487 0.45992136001586914 0.12425098568201065
0.56845009326934814 0.46354806423187256 0.13154460489749908
0.61938440799713135 0.46666079759597778 0.14035198092460632
0.67343956232070923 0.46736907958984375 0.15066535770893097
0.099988631904125214 0.47911688685417175 0.11178819090127945
0.14461672306060791 0.48431882262229919 0.11423911154270172
0.19211842119693756 0.48869243264198303 0.11673390865325928
0.24133552610874176 0.49241220951080322 0.11958157271146774
0.29091909527778625 0.49617880582809448 0.12177438288927078
0.33964967727661133 0.50053113698959351 0.12325514107942581
0.38759806752204895 0.50532680749893188 0.12438586354255676
0.43499502539634705 0.51013171672821045 0.12652371823787689
0.48244586586952209 0.51477092504501343 0.12979701161384583
0.53032761812210083 0.51918762922286987 0.134659543633461
0.57927918434143066 0.52303451299667358 0.14120505750179291
0.63024663925170898 0.52561962604522705 0.14930018782615662
0.6831861138343811 0.52834326028823853 0.15876279771327972
0.11122964322566986 0.53712493181228638 0.12305315583944321
0.15706990659236908 0.54185241460800171 0.12630268931388855
0.20509576797485352 0.54620897769927979 0.12933351099491119
0.25457969307899475 0.55011475086212158 0.13221904635429382
0.30386602878570557 0.55405282974243164 0.13467806577682495
0.35232558846473694 0.5585322380065918 0.13608288764953613
0.39995506405830383 0.56356227397918701 0.13750752806663513
0.4473012387752533 0.56859767436981201 0.13922490179538727
0.49446973204612732 0.57340061664581299 0.14212016761302948
0.54229319095611572 0.57802963256835938 0.14621835947036743
0.59124577045440674 0.58216404914855957 0.15202519297599792
0.64185667037963867 0.58561074733734131 0.15932174026966095
0.69374030828475952 0.58767735958099365 0.16803210973739624
0.12246494740247726 0.59532767534255981 0.13406321406364441
0.16937442123889923 0.60011309385299683 0.13794529438018799
0.21775875985622406 0.60450750589370728 0.14156442880630493
0.2668297290802002 0.60849469900131226 0.14475402235984802
0.31605145335197449 0.61259657144546509 0.14716461300849915
0.36451566219329834 0.6171954870223999 0.14914016425609589
0.41222313046455383 0.62220388650894165 0.15059275925159454
0.45958641171455383 0.62708050012588501 0.15241783857345581
0.50701498985290527 0.63218432664871216 0.15503008663654327
0.55478888750076294 0.6370692253112793 0.15883354842662811
0.60372352600097656 0.64131051301956177 0.16391830146312714
0.65369772911071777 0.64478665590286255 0.17044584453105927
0.70475882291793823 0.64800715446472168 0.17850366234779358
0.13385796546936035 0.65370732545852661 0.14518222212791443
0.18118809163570404 0.65867578983306885 0.1497076153755188
0.22979588806629181 0.66305989027023315 0.15362469851970673
0.2788693904876709 0.66730910539627075 0.15697410702705383
0.3278810977935791 0.6716238260269165 0.15978048741817474
0.37642848491668701 0.67615425586700439 0.16200348734855652
0.42431879043579102 0.68092936277389526 0.16389451920986176
0.47188732028007507 0.685951828956604 0.16591888666152954
0.51944941282272339 0.69120937585830688 0.16858965158462524
0.56747543811798096 0.69603675603866577 0.17211607098579407
0.61614888906478882 0.70043432712554932 0.17674247920513153
0.66584742069244385 0.70428931713104248 0.18287912011146545
0.7162209153175354 0.70744699239730835 0.19015046954154968
0.0013287563342601061 0.0028487560339272022 0.0012425740715116262
0.0084389327093958855 0.0091976840049028397 0.006360282190144062
0.02192903496325016 0.018705181777477264 0.014900806359946728
0.044732231646776199 0.028177866712212563 0.027476202696561813
0.072941094636917114 0.035659115761518478 0.040076807141304016
0.10360128432512283 0.04231962189078331 0.051049057394266129
0.13635501265525818 0.04889330267906189 0.060950994491577148
0.17442606389522552 0.054082248359918594 0.070947594940662384
0.2180684506893158 0.057640522718429565 0.081634297966957092
0.26533934473991394 0.06041240319609642 0.092767246067523956
0.31550353765487671 0.062058839946985245 0.10483214259147644
0.36938953399658203 0.062236066907644272 0.11761630326509476
0.42423486709594727 0.061557155102491379 0.12948928773403168
0.026800014078617096 0.037759952247142792 0.029290532693266869
0.047383654862642288 0.049470745027065277 0.040801867842674255
0.06947694718837738 0.059699233621358871 0.05099467933177948
0.09659874439239502 0.067502595484256744 0.060765314847230911
0.12866321206092834 0.073251105844974518 0.070251360535621643
0.16420929133892059 0.078155174851417542 0.07941976934671402
0.20157244801521301 0.083100952208042145 0.087843038141727448
0.24290214478969574 0.087454430758953094 0.096113167703151703
0.28879573941230774 0.09079761803150177 0.1049458235502243
0.33827042579650879 0.093335337936878204 0.1144164577126503
0.39042067527770996 0.094942726194858551 0.12495552748441696
0.44467821717262268 0.095718890428543091 0.13604846596717834
0.49839037656784058 0.096491746604442596 0.14674884080886841
0.053335569798946381 0.085391461849212646 0.062314517796039581
0.077881321310997009 0.095923416316509247 0.070640698075294495
0.10529746115207672 0.10443746298551559 0.078046746551990509
0.13642379641532898 0.11066170781850815 0.084295295178890228
0.17243170738220215 0.11476603150367737 0.091206073760986328
0.21364374458789825 0.11759405583143234 0.099810518324375153
0.25676161050796509 0.12108650803565979 0.1070438027381897
0.30198809504508972 0.12477650493383408 0.11380863934755325
0.35067290067672729 0.12767185270786285 0.12150172889232635
0.40234005451202393 0.12947838008403778 0.12996995449066162
0.45596402883529663 0.13163565099239349 0.13894486427307129
0.5103144645690918 0.13249766826629639 0.14849179983139038
0.56256747245788574 0.13447780907154083 0.15819339454174042
0.065968833863735199 0.13760125637054443 0.084867112338542938
0.094605103135108948 0.14689478278160095 0.09017626941204071
0.12643344700336456 0.15408806502819061 0.09449322521686554
0.16190099716186523 0.15904511511325836 0.098356597125530243
0.20311446487903595 0.16190047562122345 0.10386127978563309
0.24966761469841003 0.16316764056682587 0.11206720024347305
0.29685676097869873 0.16588415205478668 0.11834568530321121
0.34546643495559692 0.16908933222293854 0.12397510558366776
0.39676505327224731 0.17132820188999176 0.13125047087669373
0.45008096098899841 0.17294909060001373 0.13932289183139801
0.50415658950805664 0.17462761700153351 0.14772751927375793
0.55778807401657104 0.17667146027088165 0.15682242810726166
0.60910439491271973 0.17916043102741241 0.16618505120277405
0.068696148693561554 0.19353774189949036 0.0986366868019104
0.10081812739372253 0.20173193514347076 0.10139405727386475
0.13755394518375397 0.20799839496612549 0.10368872433900833
