assets/lut/alexjordan retro magenta 01.cube
# Created by: G'MIC (https://gmic.eu)
TITLE "retro_magenta_01"
# LUT size
LUT_3D_SIZE 7
# Data domain
DOMAIN_MIN 0.0 0.0 0.0
DOMAIN_MAX 1.0 1.0 1.0
# LUT data points
0.13604962825775146 0.092339277267456055 0.092627488076686859
0.22729218006134033 0.10461192578077316 0.1046023964881897
0.32308849692344666 0.11525642871856689 0.11529532074928284
0.43390172719955444 0.12306219339370728 0.12243131548166275
0.55141258239746094 0.12954086065292358 0.12755255401134491
0.67112088203430176 0.13446082174777985 0.13163939118385315
0.78780925273895264 0.13729389011859894 0.13700489699840546
0.17208966612815857 0.21661056578159332 0.10521035641431808
0.26984354853630066 0.22611899673938751 0.11595255881547928
0.36848139762878418 0.23600400984287262 0.12637051939964294
0.46962893009185791 0.24789494276046753 0.13631829619407654
0.57944309711456299 0.25673103332519531 0.14357133209705353
0.69330430030822754 0.26361915469169617 0.14993225038051605
0.80563271045684814 0.2689686119556427 0.15832908451557159
0.18473765254020691 0.34982240200042725 0.1067792996764183
0.28955039381980896 0.35749635100364685 0.12027593702077866
0.39193916320800781 0.36578112840652466 0.13323912024497986
0.49361717700958252 0.37576869130134583 0.14451698958873749
0.59983551502227783 0.38418787717819214 0.1530252993106842
0.70913863182067871 0.39212971925735474 0.16207084059715271
0.81805431842803955 0.39931336045265198 0.17460072040557861
0.19834037125110626 0.48134234547615051 0.11783734709024429
0.30354243516921997 0.48944216966629028 0.13019397854804993
0.40630146861076355 0.4967745840549469 0.14316730201244354
0.50889128446578979 0.50468474626541138 0.15382535755634308
0.6142953634262085 0.51289349794387817 0.16085536777973175
0.72132915258407593 0.52201622724533081 0.17097814381122589
0.82791727781295776 0.53040820360183716 0.18896733224391937
0.21327678859233856 0.61183232069015503 0.13158796727657318
0.31843960285186768 0.62013286352157593 0.14294250309467316
0.42061701416969299 0.6272847056388855 0.15383851528167725
0.52274930477142334 0.63477903604507446 0.16202664375305176
0.6274757981300354 0.64364564418792725 0.16745306551456451
0.73262035846710205 0.65318787097930908 0.18278224766254425
0.83725869655609131 0.66163384914398193 0.21039757132530212
0.22888913750648499 0.74147677421569824 0.14861546456813812
0.33476772904396057 0.75028765201568604 0.15889814496040344
0.43745452165603638 0.75806319713592529 0.16612903773784637
0.53978389501571655 0.76601892709732056 0.17035026848316193
0.64304941892623901 0.77475893497467041 0.17996843159198761
0.74608081579208374 0.78280216455459595 0.21531075239181519
0.84903502464294434 0.7896314263343811 0.26291090250015259
0.24311754107475281 0.87026280164718628 0.17086206376552582
0.35067018866539001 0.87930363416671753 0.18241804838180542
0.45483529567718506 0.88738328218460083 0.19155755639076233
0.55790024995803833 0.89526331424713135 0.201420858502388
0.66077965497970581 0.90266788005828857 0.22415785491466522
0.76287966966629028 0.90792447328567505 0.28504693508148193
0.86484026908874512 0.91178280115127563 0.35545948147773743
0.14211951196193695 0.096355944871902466 0.16718296706676483
0.24284486472606659 0.10466735064983368 0.19075766205787659
0.34416571259498596 0.11216343939304352 0.21159002184867859
0.44940915703773499 0.12209118157625198 0.22743245959281921
0.56199741363525391 0.13017290830612183 0.23692354559898376
0.67789256572723389 0.1364588588476181 0.24302111566066742
0.79171836376190186 0.14106142520904541 0.24924746155738831
0.17615053057670593 0.21742673218250275 0.21444465219974518
0.27776101231575012 0.22635941207408905 0.21884980797767639
0.38095340132713318 0.2351967990398407 0.23102016746997833
0.48037818074226379 0.24811139702796936 0.24413648247718811
0.58734405040740967 0.25729560852050781 0.25375199317932129
0.69867086410522461 0.26497262716293335 0.26115226745605469
0.80926042795181274 0.27176740765571594 0.26909467577934265
0.18843314051628113 0.3508780300617218 0.2229943573474884
0.29371151328086853 0.35853031277656555 0.23214037716388702
0.39835387468338013 0.367388516664505 0.24325142800807953
0.4999825656414032 0.37766328454017639 0.25478231906890869
0.60559552907943726 0.38431465625762939 0.26488551497459412
0.71367925405502319 0.39263999462127686 0.27343243360519409
0.82133454084396362 0.40185782313346863 0.28405672311782837
0.20205570757389069 0.48316168785095215 0.23450924456119537
0.30706453323364258 0.49080890417098999 0.24528114497661591
0.41029888391494751 0.49808105826377869 0.25749090313911438
0.51321971416473389 0.50551652908325195 0.26877307891845703
0.61874032020568848 0.51255589723587036 0.27589330077171326
0.72513771057128906 0.52234929800033569 0.28298202157020569
0.83090758323669434 0.53313970565795898 0.29502114653587341
0.21739847958087921 0.6141473650932312 0.24878804385662079
0.32189744710922241 0.62171530723571777 0.2596832811832428
0.42408639192581177 0.62823498249053955 0.27153012156486511
0.52635949850082397 0.63486623764038086 0.28225356340408325
0.63126170635223389 0.64338427782058716 0.2867375910282135
0.73603254556655884 0.65431350469589233 0.29143637418746948
0.83962112665176392 0.6662294864654541 0.30363056063652039
0.23348617553710938 0.74415010213851929 0.2657245397567749
0.33881038427352905 0.75213819742202759 0.27629479765892029
0.44145825505256653 0.75904589891433716 0.28596135973930359
0.54378759860992432 0.76603800058364868 0.29463452100753784
0.6472516655921936 0.774608314037323 0.30531224608421326
0.74965435266494751 0.78512835502624512 0.32178249955177307
0.85110437870025635 0.79624408483505249 0.34186235070228577
0.24863900244235992 0.87333065271377563 0.28735464811325073
0.35596686601638794 0.88163238763809204 0.29996901750564575
0.46015870571136475 0.88882791996002197 0.31184643507003784
0.56350767612457275 0.89582747220993042 0.32684403657913208
0.66652882099151611 0.90249055624008179 0.35396948456764221
0.76844388246536255 0.90924441814422607 0.40116998553276062
0.86966478824615479 0.9152977466583252 0.45352685451507568
0.1506059467792511 0.10147936642169952 0.25236755609512329
0.25280708074569702 0.1060442179441452 0.29081976413726807
0.35483944416046143 0.1131790429353714 0.31741583347320557
0.45917719602584839 0.12166605889797211 0.33747625350952148
0.56893026828765869 0.13048204779624939 0.34900736808776855
0.68093359470367432 0.13792958855628967 0.35648700594902039
0.79224002361297607 0.14343596994876862 0.36304721236228943
0.17483995854854584 0.22054710984230042 0.32594114542007446
0.27866509556770325 0.22872516512870789 0.33845674991607666
0.38228496909141541 0.23858270049095154 0.34667536616325378
0.48489671945571899 0.24940402805805206 0.35784104466438293
0.59114545583724976 0.2582743763923645 0.36758309602737427
0.69991499185562134 0.26639050245285034 0.37490013241767883
0.80864280462265015 0.27393257617950439 0.38225042819976807
0.18663105368614197 0.35285523533821106 0.34347343444824219
0.29321151971817017 0.36062794923782349 0.3526853621006012
0.39869552850723267 0.36934682726860046 0.36018073558807373
0.50242215394973755 0.37900468707084656 0.36996892094612122
0.60775154829025269 0.38625660538673401 0.37984642386436462
0.71468657255172729 0.39478114247322083 0.38843706250190735
0.82124501466751099 0.40400031208992004 0.39756208658218384
0.20220252871513367 0.48484650254249573 0.35486996173858643
0.30728715658187866 0.49259063601493835 0.36321619153022766
0.41199499368667603 0.49939042329788208 0.37306824326515198
0.51586288213729858 0.50706928968429565 0.3838755190372467
0.62082970142364502 0.51550483703613281 0.39270180463790894
0.7268262505531311 0.52462571859359741 0.40092432498931885
0.83178889751434326 0.53507298231124878 0.41078084707260132
0.21828003227710724 0.61593854427337646 0.36750778555870056
0.32293447852134705 0.6234927773475647 0.37705358862876892
0.42625540494918823 0.62987029552459717 0.38757890462875366
0.52971243858337402 0.63690459728240967 0.39883619546890259
0.63451045751571655 0.64498144388198853 0.4089597761631012
0.73903524875640869 0.65518534183502197 0.41372311115264893
0.84180009365081787 0.66792798042297363 0.41752886772155762
0.23485556244850159 0.74632978439331055 0.38337624073028564
0.34025615453720093 0.75399118661880493 0.39409354329109192
0.44370642304420471 0.76069563627243042 0.40510314702987671
0.54707878828048706 0.76734185218811035 0.41785857081413269
0.65131217241287231 0.77479326725006104 0.43315145373344421
0.75403404235839844 0.78496778011322021 0.44544824957847595
0.85486453771591187 0.79696500301361084 0.45715150237083435
0.25082901120185852 0.87562501430511475 0.40417882800102234
0.35822322964668274 0.88351655006408691 0.41784697771072388
0.46332964301109314 0.89024454355239868 0.43218916654586792
0.56791067123413086 0.89635276794433594 0.45204830169677734
0.672393798828125 0.90211981534957886 0.48212969303131104
0.77505409717559814 0.90871697664260864 0.52448505163192749
0.87596642971038818 0.9150160551071167 0.57302713394165039
0.15703572332859039 0.10291526466608047 0.3522706925868988
0.26049619913101196 0.10828962177038193 0.39704671502113342
0.36231526732444763 0.11504911631345749 0.42719480395317078
0.46653372049331665 0.12308838963508606 0.44943302869796753
0.57428669929504395 0.13174229860305786 0.46354401111602783
0.68339598178863525 0.13960777223110199 0.4723283052444458
0.79213964939117432 0.14584608376026154 0.47924873232841492
0.17827235162258148 0.2214263528585434 0.44229969382286072
0.28167939186096191 0.23050856590270996 0.45753160119056702
0.38426190614700317 0.24082338809967041 0.46334373950958252
0.48796111345291138 0.25048479437828064 0.47417402267456055
0.59369444847106934 0.25998878479003906 0.4838588535785675
0.70052081346511841 0.26867255568504333 0.49089470505714417
0.80726790428161621 0.27630352973937988 0.49727922677993774
0.1899736076593399 0.35321924090385437 0.46753415465354919
0.29498344659805298 0.36277031898498535 0.47234097123146057
0.3999171257019043 0.3710247278213501 0.47690451145172119
0.50422483682632446 0.37963211536407471 0.48722440004348755
0.60896903276443481 0.38949686288833618 0.4965289831161499
0.7146766185760498 0.39828735589981079 0.50474333763122559
0.82022768259048462 0.4066232442855835 0.51256716251373291
0.2033577561378479 0.48633623123168945 0.4756334125995636
0.3083375096321106 0.49502044916152954 0.47997346520423889
0.41347864270210266 0.50159871578216553 0.48816356062889099
0.51778298616409302 0.50965535640716553 0.49934592843055725
0.62199097871780396 0.52049344778060913 0.50838816165924072
0.72750651836395264 0.52876859903335571 0.51754474639892578
0.83226948976516724 0.53737914562225342 0.52572524547576904
0.21872031688690186 0.61782681941986084 0.48572728037834167
0.32346680760383606 0.62574344873428345 0.49334865808486938
0.42762461304664612 0.63260477781295776 0.50249969959259033
0.53146648406982422 0.64038044214248657 0.51337736845016479
0.63629049062728882 0.64940869808197021 0.52397578954696655
0.74117386341094971 0.65817177295684814 0.53122603893280029
0.84364563226699829 0.66909563541412354 0.5353773832321167
0.23509593307971954 0.74837380647659302 0.50028246641159058
0.3407599925994873 0.75627732276916504 0.51040220260620117
0.4447881281375885 0.76340341567993164 0.52036207914352417
0.54891818761825562 0.77053296566009521 0.53308850526809692
0.65453720092773438 0.77760535478591919 0.54909336566925049
0.75881850719451904 0.78641420602798462 0.56233984231948853
0.85880517959594727 0.79788410663604736 0.57276707887649536
0.25145542621612549 0.87776118516921997 0.51969450712203979
0.35939431190490723 0.88566267490386963 0.53296780586242676
0.46513816714286804 0.89259320497512817 0.54717350006103516
0.57118582725524902 0.89872825145721436 0.56657272577285767
0.67847508192062378 0.90385490655899048 0.5948982834815979
0.78343003988265991 0.90963757038116455 0.62950527667999268
0.88294225931167603 0.91813713312149048 0.66128718852996826
0.16165350377559662 0.10586170852184296 0.45252233743667603
0.2656903862953186 0.11095216125249863 0.50417661666870117
0.36811655759811401 0.1171344518661499 0.5411953330039978
0.47267073392868042 0.12464462220668793 0.56548655033111572
0.57942509651184082 0.13338324427604675 0.58104658126831055
0.68694770336151123 0.14196798205375671 0.59143567085266113
0.79405307769775391 0.14866738021373749 0.59893304109573364
0.18052762746810913 0.22405607998371124 0.55596786737442017
0.28377828001976013 0.23438215255737305 0.56825059652328491
0.38677680492401123 0.24363480508327484 0.57814675569534302
0.49135550856590271 0.25230669975280762 0.59096157550811768
0.59697526693344116 0.26195979118347168 0.6019173264503479
0.70279043912887573 0.27136832475662231 0.61002159118652344
0.80832028388977051 0.27938532829284668 0.61633908748626709
0.19263161718845367 0.35499447584152222 0.5876152515411377
0.2964598536491394 0.36633968353271484 0.58501499891281128
0.40132886171340942 0.37430566549301147 0.59072655439376831
0.50647860765457153 0.38202393054962158 0.60324811935424805
0.61136442422866821 0.39160305261611938 0.61437082290649414
0.71634584665298462 0.40085121989250183 0.62325745820999146
0.82088100910186768 0.4095553457736969 0.63037997484207153
0.20505876839160919 0.48875895142555237 0.59317523241043091
0.30972400307655334 0.49810382723808289 0.59480583667755127
0.41521245241165161 0.50483739376068115 0.6033206582069397
0.51972568035125732 0.51251596212387085 0.61569774150848389
0.62418526411056519 0.52210789918899536 0.62615829706192017
0.72924882173538208 0.53057336807250977 0.63584035634994507
0.83254158496856689 0.53964656591415405 0.64313191175460815
0.21928513050079346 0.62022554874420166 0.60194236040115356
0.32443207502365112 0.62838715314865112 0.60913926362991333
0.42915123701095581 0.63553738594055176 0.61808091402053833
0.53262382745742798 0.64389222860336304 0.62799310684204102
0.63792681694030762 0.65242850780487061 0.63837528228759766
0.7433127760887146 0.66018754243850708 0.64807552099227905
0.84437912702560425 0.67053282260894775 0.65440887212753296
0.23525190353393555 0.75056701898574829 0.61493760347366333
0.34126561880111694 0.75867486000061035 0.62456607818603516
0.4454694390296936 0.76662749052047729 0.63303649425506592
0.54914957284927368 0.77493906021118164 0.64223921298980713
0.6567986011505127 0.7816312313079834 0.6568872332572937
0.76306098699569702 0.78882664442062378 0.67134076356887817
0.85993707180023193 0.80055588483810425 0.68065124750137329
0.25176307559013367 0.87958955764770508 0.63304197788238525
0.3602091372013092 0.88786500692367554 0.64561402797698975
0.46642202138900757 0.8955085277557373 0.65736609697341919
0.57322871685028076 0.90244483947753906 0.67178517580032349
0.68462496995925903 0.90667873620986938 0.69597017765045166
0.79374289512634277 0.91134840250015259 0.7246243953704834
0.8893352746963501 0.92180109024047852 0.74556642770767212
0.16688428819179535 0.10778654366731644 0.57399266958236694
0.26992112398147583 0.11267582327127457 0.62562066316604614
0.37213507294654846 0.11708680540323257 0.66557306051254272
0.47740641236305237 0.12478872388601303 0.68671888113021851
0.58425521850585938 0.13434813916683197 0.70027369260787964
0.69139248132705688 0.14411996304988861 0.7117343544960022
0.79781299829483032 0.15155020356178284 0.72040069103240967
0.18247929215431213 0.22557885944843292 0.68294668197631836
0.28538075089454651 0.23674942553043365 0.68942201137542725
0.38932064175605774 0.24507313966751099 0.69922149181365967
0.49512794613838196 0.25322499871253967 0.70944994688034058
0.60115545988082886 0.26356974244117737 0.72012770175933838
0.70692235231399536 0.27401795983314514 0.73031520843505859
0.81206929683685303 0.28272551298141479 0.73801940679550171
0.19435089826583862 0.35792908072471619 0.70804500579833984
0.29764267802238464 0.3697948157787323 0.70012575387954712
0.40355086326599121 0.37660378217697144 0.70774054527282715
0.5096137523651123 0.38381367921829224 0.71942204236984253
0.61483466625213623 0.39342686533927917 0.73159945011138916
0.71967536211013794 0.40345528721809387 0.7419133186340332
0.82377094030380249 0.41268813610076904 0.74961382150650024
0.20733842253684998 0.49248531460762024 0.70732110738754272
0.31190073490142822 0.50126534700393677 0.71050900220870972
0.41753748059272766 0.5075494647026062 0.72045290470123291
0.52226901054382324 0.51505392789840698 0.73252332210540771
0.62683290243148804 0.52422785758972168 0.74327069520950317
0.73171263933181763 0.53310376405715942 0.75293886661529541
0.83446133136749268 0.54267483949661255 0.75975519418716431
0.22096163034439087 0.62319779396057129 0.71494197845458984
0.32665619254112244 0.63128113746643066 0.72389727830886841
0.43134105205535889 0.63849705457687378 0.73424959182739258
0.53443008661270142 0.64714980125427246 0.74462062120437622
0.63959759473800659 0.65563702583312988 0.7543792724609375
0.74556463956832886 0.66312593221664429 0.76381272077560425
0.84506779909133911 0.67366033792495728 0.76951545476913452
0.23604379594326019 0.75268644094467163 0.72734975814819336
0.34294226765632629 0.76097184419631958 0.73796623945236206
0.44739043712615967 0.76942580938339233 0.74641221761703491
0.55049020051956177 0.77874648571014404 0.75383943319320679
0.65882432460784912 0.78569722175598145 0.76608490943908691
0.76619917154312134 0.79211974143981934 0.77961671352386475
0.8578561544418335 0.8048248291015625 0.78689324855804443
0.25199645757675171 0.88103616237640381 0.74435627460479736
0.36148801445960999 0.8895796537399292 0.75698912143707275
0.46858891844749451 0.89770323038101196 0.76704591512680054
0.57598018646240234 0.90561980009078979 0.77737802267074585
0.69005846977233887 0.91023808717727661 0.79584968090057373
0.80429816246032715 0.91328924894332886 0.82056117057800293
0.89286082983016968 0.92608970403671265 0.83310282230377197
0.16984203457832336 0.1096089705824852 0.67845612764358521
0.27219507098197937 0.11235396564006805 0.74455720186233521
0.37425222992897034 0.11525291204452515 0.79053646326065063
0.48062941431999207 0.12368196994066238 0.8046841025352478
0.58781379461288452 0.13410854339599609 0.81547403335571289
0.69486844539642334 0.14443193376064301 0.82740581035614014
0.80078780651092529 0.15227149426937103 0.83722966909408569
0.18265840411186218 0.22819599509239197 0.79793268442153931
0.28774562478065491 0.23746635019779205 0.81167882680892944
0.39211383461952209 0.24448816478252411 0.82161998748779297
0.49860933423042297 0.25331869721412659 0.82581144571304321
0.6047402024269104 0.26451823115348816 0.83538955450057983
0.71050727367401123 0.27548062801361084 0.8465191125869751
0.81540989875793457 0.2839505672454834 0.85484856367111206
0.19583499431610107 0.36037939786911011 0.82293212413787842
0.30108308792114258 0.36982649564743042 0.82764577865600586
0.40681234002113342 0.37724950909614563 0.82919085025787354
0.51308935880661011 0.38501781225204468 0.83423686027526855
0.61831164360046387 0.39516779780387878 0.84599095582962036
0.72304725646972656 0.40549024939537048 0.8571397066116333
0.82695996761322021 0.41451147198677063 0.86515706777572632
0.20936812460422516 0.49509865045547485 0.81871986389160156
0.31510713696479797 0.5029900074005127 0.82950454950332642
0.42025014758110046 0.50978624820709229 0.83803462982177734
0.52498060464859009 0.51768726110458374 0.84725481271743774
0.6297379732131958 0.52681648731231689 0.85741186141967773
0.73473137617111206 0.5359424352645874 0.86635792255401611
0.83758938312530518 0.54505383968353271 0.87322402000427246
0.22254166007041931 0.62530863285064697 0.82589578628540039
0.32937890291213989 0.63356763124465942 0.83815419673919678
0.43401601910591125 0.64126396179199219 0.84880787134170532
0.53729373216629028 0.65010255575180054 0.85929697751998901
0.64211714267730713 0.65896046161651611 0.86819738149642944
0.74815714359283447 0.66682511568069458 0.87484550476074219
0.84930133819580078 0.67589676380157471 0.88091063499450684
0.23661381006240845 0.75389379262924194 0.83781057596206665
0.34512561559677124 0.76251077651977539 0.85041534900665283
0.45078819990158081 0.77096343040466309 0.86025065183639526
0.55497515201568604 0.78043621778488159 0.86898535490036011
0.66160792112350464 0.78926163911819458 0.87638825178146362
0.767162024974823 0.79741626977920532 0.88121235370635986
0.86512118577957153 0.80673408508300781 0.89084732532501221
0.25146064162254333 0.8817746639251709 0.85368615388870239
0.3626161515712738 0.89039039611816406 0.86748993396759033
0.47154593467712402 0.89852654933929443 0.87793624401092529
0.58003240823745728 0.90716707706451416 0.88704860210418701
0.69101983308792114 0.91435307264328003 0.89702576398849487
0.80001723766326904 0.92117881774902344 0.90699195861816406
0.8982703685760498 0.93014430999755859 0.9188266396522522
