assets/lut/alexjordan green light.cube
# Created by: G'MIC (https://gmic.eu)
TITLE "green_light"
# LUT size
LUT_3D_SIZE 7
# Data domain
DOMAIN_MIN 0.0 0.0 0.0
DOMAIN_MAX 1.0 1.0 1.0
# LUT data points
0.00010986327833961695 0.00068431178806349635 0.00016371783567592502
0.0095842545852065086 0.0079272100701928139 0.0072175418026745319
0.04715297743678093 0.022045299410820007 0.021128127351403236
0.11131224036216736 0.037646111100912094 0.026383673772215843
0.2012503445148468 0.046047300100326538 0.033462151885032654
0.3238588273525238 0.047918327152729034 0.029066197574138641
0.45246374607086182 0.049266230314970016 0.017609793692827225
0.025677280500531197 0.075391583144664764 0.029732214286923409
0.062572821974754333 0.10119159519672394 0.032774697989225388
0.135751873254776 0.11782076954841614 0.027372697368264198
0.24326357245445251 0.12933425605297089 0.011738556437194347
0.37680292129516602 0.13253749907016754 0.0046465257182717323
0.52773046493530273 0.13185469806194305 0.00046056110295467079
0.65646553039550781 0.13490308821201324 0.0017971711931750178
0.011251232586801052 0.21249493956565857 0.023223653435707092
0.065597072243690491 0.23294195532798767 0.012031495571136475
0.18576015532016754 0.24193295836448669 0.0022723926231265068
0.33669212460517883 0.24661758542060852 4.1288487409474328e-05
0.50723296403884888 0.24475193023681641 0
0.67247885465621948 0.24009978771209717 0
0.79815316200256348 0.24895927309989929 0.0011779336491599679
0 0.37817162275314331 0.0032203674782067537
0.041013110429048538 0.38983142375946045 0
0.18912003934383392 0.39025843143463135 0
0.37523022294044495 0.39104118943214417 0
0.5700804591178894 0.38767543435096741 0
0.74176591634750366 0.38744351267814636 0
0.87519842386245728 0.41913917660713196 0
0 0.5481494665145874 3.7339155824156478e-05
0.033323474228382111 0.55571204423904419 0
0.19407097995281219 0.56448191404342651 6.103515625e-05
0.40683060884475708 0.56906414031982422 0.00090471154544502497
0.62077456712722778 0.57164525985717773 0.0039235432632267475
0.81949371099472046 0.59376317262649536 0.0066428389400243759
0.97096103429794312 0.6577608585357666 0.012053665705025196
0.0040026647038757801 0.73758459091186523 3.6621095205191523e-05
0.06992601603269577 0.76623648405075073 0.019045647233724594
0.27637496590614319 0.80017274618148804 0.037086173892021179
0.52429425716400146 0.82403475046157837 0.047335110604763031
0.76062726974487305 0.84419155120849609 0.064807236194610596
0.96576213836669922 0.88470864295959473 0.072249814867973328
1 0.92387872934341431 0.10015323013067245
0.060392357409000397 0.97715336084365845 0.020603269338607788
0.18867617845535278 0.9988023042678833 0.070856668055057526
0.40944677591323853 1 0.1049056276679039
0.65333372354507446 1 0.12027520686388016
0.86161482334136963 1 0.14018392562866211
0.992442786693573 1 0.15423616766929626
1 1 0.17111082375049591
0.0042256521992385387 0.0079328501597046852 0.0152014484629035
0.019181525334715843 0.017251273617148399 0.029251547530293465
0.057505901902914047 0.03012511320412159 0.047190409153699875
0.12484689056873322 0.040704421699047089 0.060899578034877777
0.22286298871040344 0.046743355691432953 0.07661496102809906
0.34594765305519104 0.050471436232328415 0.088190875947475433
0.46695065498352051 0.050735294818878174 0.10449925065040588
0.023594636470079422 0.086346030235290527 0.066336795687675476
0.064396277070045471 0.1053997278213501 0.078270837664604187
0.14340977370738983 0.12319101393222809 0.086063027381896973
0.25613147020339966 0.12879537045955658 0.086142703890800476
0.39355716109275818 0.12813466787338257 0.079357758164405823
0.54806435108184814 0.12922187149524689 0.061151992529630661
0.66939502954483032 0.1346154659986496 0.070920206606388092
0.006417891476303339 0.21782855689525604 0.098252959549427032
0.062454491853713989 0.23761403560638428 0.096450150012969971
0.18748442828655243 0.247385174036026 0.080995000898838043
0.34329017996788025 0.24870786070823669 0.066559582948684692
0.51550734043121338 0.2427089512348175 0.050362858921289444
0.68437665700912476 0.23737005889415741 0.038049377501010895
0.80238491296768188 0.24588677287101746 0.05207398533821106
0 0.3848450779914856 0.089802131056785583
0.031241891905665398 0.39993572235107422 0.071875087916851044
0.18504586815834045 0.39904630184173584 0.056450143456459045
0.37627673149108887 0.39526763558387756 0.049857553094625473
0.5669751763343811 0.38675129413604736 0.03332417830824852
0.74396169185638428 0.38831427693367004 0.022631986066699028
0.86881488561630249 0.41199204325675964 0.049771882593631744
0 0.55450618267059326 0.075469091534614563
0.024660222232341766 0.57159721851348877 0.062597043812274933
0.19476336240768433 0.57069677114486694 0.065316595137119293
0.41267737746238708 0.57294899225234985 0.069751709699630737
0.62805807590484619 0.57933676242828369 0.067062273621559143
0.83656960725784302 0.6118355393409729 0.089441649615764618
0.97859418392181396 0.66474789381027222 0.14940999448299408
0.0014393675373867154 0.74817866086959839 0.096396669745445251
0.081731505692005157 0.78586184978485107 0.1391461044549942
0.29456907510757446 0.8098151683807373 0.16134598851203918
0.53694510459899902 0.83694887161254883 0.18312187492847443
0.77288734912872314 0.86153179407119751 0.20342686772346497
0.96033251285552979 0.89246922731399536 0.23124977946281433
1 0.92894428968429565 0.26539227366447449
0.055952932685613632 0.98603940010070801 0.19267384707927704
0.19669170677661896 0.9999348521232605 0.25552737712860107
0.43172106146812439 1 0.27935788035392761
0.66634666919708252 1 0.2969202995300293
0.87344229221343994 1 0.30465179681777954
0.99686384201049805 1 0.30242687463760376
1 1 0.30402234196662903
0.013063692487776279 0.01682739332318306 0.035230524837970734
0.027950989082455635 0.024993641301989555 0.049590509384870529
0.06822580099105835 0.034108299762010574 0.072398707270622253
0.14114400744438171 0.042933445423841476 0.10009799897670746
0.24683648347854614 0.046870511025190353 0.12995010614395142
0.37154695391654968 0.050161294639110565 0.15670794248580933
0.49383705854415894 0.048887275159358978 0.18462745845317841
0.026498638093471527 0.093591578304767609 0.11146478354930878
0.069760039448738098 0.11396406590938568 0.13742701709270477
0.14953246712684631 0.12662087380886078 0.15472827851772308
0.26527649164199829 0.1303657740354538 0.16658990085124969
0.40923833847045898 0.12944336235523224 0.1730058342218399
0.56214624643325806 0.12776865065097809 0.17596617341041565
0.68435359001159668 0.13334767520427704 0.18652527034282684
0.0056420271284878254 0.22648029029369354 0.18498429656028748
0.061887927353382111 0.24534231424331665 0.20181603729724884
0.18522648513317108 0.25140941143035889 0.19949302077293396
0.34562307596206665 0.24839957058429718 0.19132187962532043
0.52247333526611328 0.24187877774238586 0.17918723821640015
0.69303035736083984 0.23774509131908417 0.17371538281440735
0.81302320957183838 0.24796991050243378 0.18043091893196106
0 0.38944098353385925 0.21343857049942017
0.031758852303028107 0.40495043992996216 0.21638683974742889
0.18278439342975616 0.40400800108909607 0.20271274447441101
0.37701687216758728 0.3970063328742981 0.19142691791057587
0.57156729698181152 0.38912695646286011 0.17921493947505951
0.75457262992858887 0.39183753728866577 0.17968344688415527
0.88503849506378174 0.42053255438804626 0.20575371384620667
0 0.55851012468338013 0.21766640245914459
0.02188161201775074 0.56988966464996338 0.21815872192382812
0.19636900722980499 0.57177889347076416 0.21589884161949158
0.41549387574195862 0.57575422525405884 0.22221721708774567
0.63530910015106201 0.58981609344482422 0.23600365221500397
0.8500855565071106 0.62376528978347778 0.26959913969039917
0.98813045024871826 0.67732131481170654 0.32533970475196838
0.00063014309853315353 0.76354813575744629 0.26747643947601318
0.070726536214351654 0.78236043453216553 0.29085773229598999
0.28776645660400391 0.80962437391281128 0.31628495454788208
0.53822863101959229 0.84578460454940796 0.35020720958709717
0.78051662445068359 0.88280570507049561 0.38209199905395508
0.97090131044387817 0.90479874610900879 0.4087575376033783
1 0.9300646185874939 0.43799170851707458
0.055424049496650696 0.99450170993804932 0.38330346345901489
0.19174070656299591 1 0.43025460839271545
0.41753852367401123 1 0.45158052444458008
0.65498220920562744 1 0.46635431051254272
0.85620492696762085 1 0.45529350638389587
0.98816186189651489 1 0.43104106187820435
0.99993932247161865 1 0.41914737224578857
0.0093387076631188393 0.012718155980110168 0.043741501867771149
0.030319243669509888 0.026898851618170738 0.07201714813709259
0.080066680908203125 0.03636767715215683 0.10939622670412064
0.15945060551166534 0.045151460915803909 0.15078972280025482
0.26776158809661865 0.049623362720012665 0.19086724519729614
0.40025830268859863 0.046441290527582169 0.23146669566631317
0.52633607387542725 0.042455263435840607 0.26997017860412598
0.025351580232381821 0.095037616789340973 0.15576374530792236
0.069098137319087982 0.12045291066169739 0.20383840799331665
0.15396209061145782 0.13042344152927399 0.23420281708240509
0.2743910551071167 0.1329510509967804 0.2555641233921051
0.42171567678451538 0.13135412335395813 0.27268356084823608
0.5752570629119873 0.12759007513523102 0.28954178094863892
0.69982117414474487 0.13044737279415131 0.30973038077354431
0.0089053139090538025 0.23264269530773163 0.27921435236930847
0.060736265033483505 0.25025737285614014 0.30870151519775391
0.18244166672229767 0.25305715203285217 0.32061725854873657
0.34566077589988708 0.24794146418571472 0.32024350762367249
0.52525359392166138 0.24061368405818939 0.31700742244720459
0.69404804706573486 0.23715566098690033 0.31871798634529114
0.81367892026901245 0.24800665676593781 0.33030292391777039
3.4466913348296657e-05 0.39008080959320068 0.34645801782608032
0.038781527429819107 0.40477722883224487 0.35986670851707458
0.18242768943309784 0.40405502915382385 0.35660582780838013
0.37598976492881775 0.39424273371696472 0.34618222713470459
0.57037508487701416 0.3863145112991333 0.33620905876159668
0.75234204530715942 0.39354437589645386 0.34246870875358582
0.87720757722854614 0.42195504903793335 0.36933788657188416
4.3083641685370822e-06 0.55781048536300659 0.37179842591285706
0.036748070269823074 0.57390320301055908 0.38454702496528625
0.20049454271793365 0.57843846082687378 0.38601765036582947
0.4249190092086792 0.58461254835128784 0.39257603883743286
0.64902019500732422 0.60309159755706787 0.4092770516872406
0.85641860961914062 0.63586318492889404 0.44395539164543152
0.99020481109619141 0.68767279386520386 0.49770867824554443
0.007054048590362072 0.75821149349212646 0.42747101187705994
0.092974551022052765 0.79696959257125854 0.46400535106658936
0.29840993881225586 0.82582110166549683 0.49210876226425171
0.55530405044555664 0.86167383193969727 0.52493250370025635
0.79087227582931519 0.87909513711929321 0.54769021272659302
0.98426663875579834 0.90769881010055542 0.58078867197036743
0.99942123889923096 0.9339900016784668 0.6054719090461731
0.066136032342910767 0.99494791030883789 0.55483239889144897
0.20321749150753021 1 0.60024088621139526
0.41969037055969238 1 0.62378370761871338
0.65258181095123291 1 0.62709987163543701
0.83657443523406982 0.99931102991104126 0.59430265426635742
0.97017973661422729 0.99908536672592163 0.57283890247344971
0.99790996313095093 0.99810898303985596 0.56023705005645752
0.0095703573897480965 0.014574477449059486 0.061182402074337006
0.035721961408853531 0.030509604141116142 0.10234235972166061
0.091811597347259521 0.04063955694437027 0.15255072712898254
0.17649930715560913 0.048625346273183823 0.2082672119140625
0.28778430819511414 0.050616215914487839 0.26077461242675781
0.42674210667610168 0.042193766683340073 0.31578907370567322
0.5569232702255249 0.035118762403726578 0.36825123429298401
0.027119969949126244 0.10508321225643158 0.22304370999336243
0.067224137485027313 0.12699705362319946 0.27926439046859741
0.15828977525234222 0.13381741940975189 0.32201623916625977
0.28507983684539795 0.13503387570381165 0.3560548722743988
0.43658143281936646 0.1318943053483963 0.38488081097602844
0.5925140380859375 0.1242951899766922 0.41304484009742737
0.71882224082946777 0.12468300759792328 0.44283705949783325
0.013886455446481705 0.23739424347877502 0.38639914989471436
0.058873780071735382 0.25342589616775513 0.4250815212726593
0.17929495871067047 0.25422796607017517 0.44807180762290955
0.34748977422714233 0.24847239255905151 0.45686203241348267
0.5313422679901123 0.24137657880783081 0.46151232719421387
0.70239537954330444 0.2370375394821167 0.4712720513343811
0.82500588893890381 0.24668398499488831 0.4885411262512207
0.0040692645125091076 0.39156618714332581 0.48697981238365173
0.039266251027584076 0.40615037083625793 0.50624173879623413
0.17942947149276733 0.40306740999221802 0.50942879915237427
0.37633061408996582 0.39328935742378235 0.50337129831314087
0.57546669244766235 0.39059042930603027 0.49727016687393188
0.76111942529678345 0.39996075630187988 0.50908476114273071
0.89036571979522705 0.43152818083763123 0.54351365566253662
0.00061334349447861314 0.55940860509872437 0.53087228536605835
0.040176689624786377 0.57637739181518555 0.54655581712722778
0.20491316914558411 0.58041220903396606 0.55276918411254883
0.43260496854782104 0.58966773748397827 0.56181514263153076
0.66068118810653687 0.61651569604873657 0.58524852991104126
0.87760287523269653 0.65414333343505859 0.62083935737609863
0.98704642057418823 0.69953340291976929 0.66688722372055054
0.014200891368091106 0.77404189109802246 0.5970948338508606
0.11351698637008667 0.8143775463104248 0.63901585340499878
0.32094314694404602 0.84203094244003296 0.67062252759933472
0.57187956571578979 0.87322539091110229 0.70054817199707031
0.80064874887466431 0.89101415872573853 0.72102957963943481
0.98328888416290283 0.90991407632827759 0.74469316005706787
0.99998331069946289 0.93224996328353882 0.7614787220954895
0.079536229372024536 0.99734073877334595 0.72855031490325928
0.22770431637763977 1 0.77838534116744995
0.43559330701828003 1 0.79541510343551636
0.64480459690093994 1 0.77806520462036133
0.83065783977508545 0.99895781278610229 0.74958342313766479
0.96830964088439941 0.99954056739807129 0.7307966947555542
0.99919915199279785 0.99871611595153809 0.71126645803451538
0.014152810908854008 0.016690108925104141 0.078276768326759338
0.045116588473320007 0.034961819648742676 0.13843119144439697
0.10370386391878128 0.046324785798788071 0.20576757192611694
0.19309982657432556 0.051918510347604752 0.27502909302711487
0.30885344743728638 0.050440412014722824 0.34031054377555847
0.4494624137878418 0.039025072008371353 0.41013455390930176
0.58373153209686279 0.028767470270395279 0.47831401228904724
0.022674126550555229 0.11218705773353577 0.29293891787528992
0.066884271800518036 0.13120979070663452 0.36202430725097656
0.16299785673618317 0.13695664703845978 0.42167997360229492
0.295034259557724 0.13584902882575989 0.47130012512207031
0.45025652647018433 0.12950204312801361 0.50965744256973267
0.60703402757644653 0.1182660385966301 0.54743272066116333
0.73401081562042236 0.1176525205373764 0.58605790138244629
0.010837764479219913 0.24207490682601929 0.50551903247833252
0.055443137884140015 0.25806209444999695 0.55428361892700195
0.17609933018684387 0.25675210356712341 0.58696717023849487
0.3502899706363678 0.24915324151515961 0.60734814405441284
0.53691262006759644 0.24126847088336945 0.61662876605987549
0.70153093338012695 0.22912253439426422 0.62451446056365967
0.82392138242721558 0.24006876349449158 0.64577919244766235
0.0027736439369618893 0.39578348398208618 0.63637971878051758
0.035417668521404266 0.40952226519584656 0.66087204217910767
0.17457710206508636 0.40313264727592468 0.66681408882141113
0.37578946352005005 0.39530232548713684 0.66754168272018433
0.58286142349243164 0.39865165948867798 0.66830611228942871
0.76026558876037598 0.39841282367706299 0.67561537027359009
0.89952421188354492 0.4365684986114502 0.71997886896133423
0 0.56345754861831665 0.69255560636520386
0.038110215216875076 0.57761591672897339 0.70712512731552124
0.21389731764793396 0.58511972427368164 0.71430844068527222
0.44196659326553345 0.6005135178565979 0.73245000839233398
0.67955547571182251 0.63092517852783203 0.76391142606735229
0.89845442771911621 0.66619503498077393 0.80456876754760742
0.9959600567817688 0.71567332744598389 0.85628634691238403
0.0072872983291745186 0.77935874462127686 0.76807487010955811
0.12087868899106979 0.82378280162811279 0.81575471162796021
0.34866312146186829 0.86623620986938477 0.85249722003936768
0.58946210145950317 0.89436858892440796 0.8860466480255127
0.81357628107070923 0.9120938777923584 0.90423965454101562
0.98923987150192261 0.92313069105148315 0.92004287242889404
0.99935102462768555 0.93937456607818604 0.93688589334487915
0.084771595895290375 0.9988170862197876 0.91430437564849854
0.24652715027332306 0.99999642372131348 0.95280641317367554
0.45009520649909973 1 0.95363646745681763
0.638153076171875 0.99996960163116455 0.93296962976455688
0.82912904024124146 1 0.91547292470932007
0.96522092819213867 1 0.89006799459457397
0.99852341413497925 0.99946647882461548 0.86465251445770264
0.017234638333320618 0.02684803307056427 0.12928636372089386
0.049191761761903763 0.038904391229152679 0.18954768776893616
0.11103785037994385 0.049922913312911987 0.26939705014228821
0.20770712196826935 0.054568182677030563 0.3532487154006958
0.33238717913627625 0.047761522233486176 0.43538662791252136
0.47405356168746948 0.035842791199684143 0.51638293266296387
0.60531103610992432 0.027403468266129494 0.58919870853424072
0.0195604357868433 0.12163616716861725 0.38298869132995605
0.070134885609149933 0.13506263494491577 0.45554187893867493
0.16528506577014923 0.14029966294765472 0.52234822511672974
0.30327436327934265 0.13558734953403473 0.5881924033164978
0.4614199697971344 0.12802235782146454 0.63454800844192505
0.62154203653335571 0.11838111281394958 0.68324965238571167
0.75018906593322754 0.12058144062757492 0.7299613356590271
0.0065886853262782097 0.24438883364200592 0.62232029438018799
0.06341717392206192 0.25840297341346741 0.67733520269393921
0.18366459012031555 0.25868555903434753 0.71744382381439209
0.35491847991943359 0.25050988793373108 0.75003582239151001
0.53931331634521484 0.24026292562484741 0.76344931125640869
0.7088853120803833 0.23411199450492859 0.78048795461654663
0.83229631185531616 0.25063437223434448 0.80363929271697998
0.00012960995081812143 0.39529916644096375 0.76601994037628174
0.04820474237203598 0.4101082980632782 0.80369812250137329
0.18836034834384918 0.40776103734970093 0.82117104530334473
0.38168632984161377 0.40043514966964722 0.83005720376968384
0.58284866809844971 0.39875784516334534 0.82713824510574341
0.77260100841522217 0.41349858045578003 0.84579306840896606
0.91942036151885986 0.45651647448539734 0.8939710259437561
0 0.56389683485031128 0.8474578857421875
0.051067426800727844 0.58858758211135864 0.87520724534988403
0.23590719699859619 0.60262405872344971 0.90009599924087524
0.45545786619186401 0.61235445737838745 0.90919274091720581
0.6876872181892395 0.64099788665771484 0.93446695804595947
0.89804011583328247 0.68151438236236572 0.96639621257781982
0.99852180480957031 0.73027729988098145 0.99306166172027588
0.0083741582930088043 0.78859680891036987 0.94528734683990479
0.13162826001644135 0.8374176025390625 0.98027729988098145
0.36448806524276733 0.87692499160766602 0.99657917022705078
0.59850269556045532 0.89782220125198364 0.99940109252929688
0.81533712148666382 0.9126163125038147 1
0.97977769374847412 0.91942578554153442 1
0.99984830617904663 0.93401080369949341 1
0.1004779264330864 0.99737071990966797 0.99827814102172852
0.26125267148017883 1 1
0.45774823427200317 1 1
0.64710706472396851 1 1
0.81845051050186157 1 0.99818390607833862
0.95253849029541016 0.99718970060348511 0.99793094396591187
0.99897557497024536 0.99755316972732544 0.99037057161331177
