assets/lut/alexjordan brownish.cube
# Created by: G'MIC (https://gmic.eu)
TITLE "brownish"
# LUT size
LUT_3D_SIZE 5
# Data domain
DOMAIN_MIN 0.0 0.0 0.0
DOMAIN_MAX 1.0 1.0 1.0
# LUT data points
0 0 0
0.00052328669698908925 0.00023947322915773839 6.8395274865906686e-05
0.053133450448513031 0.011290621012449265 0.0054023293778300285
0.16844800114631653 0.025371281430125237 0.026529230177402496
0.30399194359779358 0.041593872010707855 0.030882608145475388
0.058906123042106628 0.079904742538928986 0.044269006699323654
0.14131371676921844 0.10496540367603302 0.047280717641115189
0.27089053392410278 0.1271730363368988 0.054571203887462616
0.41771784424781799 0.14789053797721863 0.065256662666797638
0.53806942701339722 0.1939556747674942 0.098246723413467407
0.11582418531179428 0.27522963285446167 0.076556108891963959
0.24409013986587524 0.3035251796245575 0.088912889361381531
0.40309065580368042 0.3357451856136322 0.1121523380279541
0.5556788444519043 0.37782898545265198 0.14565594494342804
0.68551546335220337 0.42881524562835693 0.19780592620372772
0.20735163986682892 0.51103073358535767 0.15219202637672424
0.38136583566665649 0.54880505800247192 0.188823401927948
0.5464368462562561 0.58433705568313599 0.23376202583312988
0.6958279013633728 0.62511152029037476 0.27551785111427307
0.81959503889083862 0.67209023237228394 0.32785362005233765
0.36985108256340027 0.74666464328765869 0.31012639403343201
0.54203695058822632 0.78278231620788574 0.36137586832046509
0.69632351398468018 0.81558692455291748 0.41308552026748657
0.83068710565567017 0.84907037019729614 0.43681412935256958
0.94676613807678223 0.89006006717681885 0.47465083003044128
0 0 0
0.0074877422302961349 0.003535102354362607 0.0049634599126875401
0.082651577889919281 0.019457573071122169 0.03708750382065773
0.208560511469841 0.030238477513194084 0.069126561284065247
0.35307317972183228 0.039752528071403503 0.094876475632190704
0.065510891377925873 0.091383963823318481 0.089210733771324158
0.15592242777347565 0.11689089238643646 0.10862796008586884
0.29196581244468689 0.13770538568496704 0.13139145076274872
0.43440049886703491 0.16004115343093872 0.15760235488414764
0.56336432695388794 0.1997944563627243 0.19534429907798767
0.11945734918117523 0.28611719608306885 0.16084237396717072
0.25814411044120789 0.31424415111541748 0.1860918402671814
0.42148661613464355 0.3507997989654541 0.21988204121589661
0.57229793071746826 0.39542272686958313 0.2612156867980957
0.69979143142700195 0.44327893853187561 0.31156343221664429
0.2278309166431427 0.5274730920791626 0.27123916149139404
0.39719927310943604 0.5608709454536438 0.31337997317314148
0.56210422515869141 0.59789973497390747 0.36001372337341309
0.71231520175933838 0.63927525281906128 0.40320485830307007
0.83543026447296143 0.68623572587966919 0.45357432961463928
0.40885794162750244 0.75950151681900024 0.44462049007415771
0.57664233446121216 0.79394376277923584 0.49374520778656006
0.71656525135040283 0.82532584667205811 0.53576177358627319
0.84802365303039551 0.85316365957260132 0.55842322111129761
0.96192348003387451 0.89529812335968018 0.59884977340698242
0 0 6.7856730311177671e-05
0.020236071199178696 0.011259221471846104 0.027086907997727394
0.11632071435451508 0.024785285815596581 0.089670844376087189
0.24890191853046417 0.033856306225061417 0.14611528813838959
0.37521448731422424 0.049235325306653976 0.19570177793502808
0.067184999585151672 0.10503483563661575 0.17335689067840576
0.17223869264125824 0.12558634579181671 0.21352782845497131
0.31656971573829651 0.1440458744764328 0.24757960438728333
0.46012192964553833 0.17197127640247345 0.28428316116333008
0.57234650850296021 0.21333982050418854 0.32989594340324402
0.12791214883327484 0.29894301295280457 0.29071831703186035
0.27353811264038086 0.32906019687652588 0.32334139943122864
0.43992340564727783 0.36520639061927795 0.36337971687316895
0.59332597255706787 0.40816640853881836 0.4100634753704071
0.71544736623764038 0.4546101987361908 0.4646587073802948
0.25386339426040649 0.5399358868598938 0.42335131764411926
0.4138781726360321 0.57760751247406006 0.46752336621284485
0.57663941383361816 0.6153673529624939 0.5151209831237793
0.7292899489402771 0.65687841176986694 0.56140732765197754
0.84852087497711182 0.70110124349594116 0.61010783910751343
0.43982654809951782 0.77063149213790894 0.60327070951461792
0.59193295240402222 0.80847620964050293 0.6444053053855896
0.72580879926681519 0.84048807621002197 0.67907601594924927
0.85949254035949707 0.86460894346237183 0.70832884311676025
0.96519666910171509 0.89543414115905762 0.73880791664123535
0.00030948413768783212 0.0016234902432188392 0.0074518839828670025
0.040967348963022232 0.019518669694662094 0.077043376863002777
0.14016923308372498 0.034577343612909317 0.16505445539951324
0.28428158164024353 0.035734992474317551 0.24746187031269073
0.4099089503288269 0.049817238003015518 0.31280100345611572
0.075372181832790375 0.11334715038537979 0.27976721525192261
0.18519163131713867 0.13593670725822449 0.33787086606025696
0.3273938000202179 0.1568576842546463 0.3759206235408783
0.47621336579322815 0.18300749361515045 0.42338204383850098
0.58740222454071045 0.22504754364490509 0.47410523891448975
0.14415501058101654 0.31220212578773499 0.43889099359512329
0.29032298922538757 0.34512382745742798 0.47111648321151733
0.45451664924621582 0.38124701380729675 0.51144379377365112
0.60937249660491943 0.42261454463005066 0.56325513124465942
0.73207193613052368 0.46914863586425781 0.62182170152664185
0.27348214387893677 0.55487453937530518 0.58393001556396484
0.43482902646064758 0.59327703714370728 0.62914937734603882
0.59450656175613403 0.63106751441955566 0.67020606994628906
0.7421107292175293 0.6724889874458313 0.71565306186676025
0.8615880012512207 0.71466672420501709 0.76915150880813599
0.45604434609413147 0.78283876180648804 0.75823616981506348
0.60166174173355103 0.81991004943847656 0.79428642988204956
0.73677438497543335 0.84662735462188721 0.82435524463653564
0.86129474639892578 0.86713302135467529 0.85231095552444458
0.96566462516784668 0.89143985509872437 0.87663453817367554
0.0043405867181718349 0.0081235095858573914 0.034711860120296478
0.068039357662200928 0.026900915428996086 0.14339731633663177
0.17504869401454926 0.037703808397054672 0.24302023649215698
0.31588947772979736 0.038981582969427109 0.34111252427101135
0.44004780054092407 0.059000439941883087 0.41278043389320374
0.087448820471763611 0.12377853691577911 0.3737519383430481
0.20362217724323273 0.15193255245685577 0.43397179245948792
0.34952133893966675 0.17197106778621674 0.48386770486831665
0.49366357922554016 0.20081762969493866 0.53542399406433105
0.61125212907791138 0.24483969807624817 0.58912891149520874
0.15578801929950714 0.32952269911766052 0.54590219259262085
0.30973288416862488 0.36465528607368469 0.58085900545120239
0.47402891516685486 0.39967802166938782 0.62898421287536621
0.62326067686080933 0.44104006886482239 0.67782872915267944
0.74979633092880249 0.48326763510704041 0.73988980054855347
0.28196656703948975 0.57058453559875488 0.69913405179977417
0.4538937509059906 0.61029613018035889 0.74299770593643188
0.6126323938369751 0.64440089464187622 0.78587871789932251
0.75784039497375488 0.68561625480651855 0.83161234855651855
0.8768695592880249 0.72092103958129883 0.88381510972976685
0.45284929871559143 0.79715532064437866 0.86622744798660278
0.60759145021438599 0.83212125301361084 0.90817070007324219
0.74816954135894775 0.85685056447982788 0.94194561243057251
0.87581163644790649 0.88267922401428223 0.97339838743209839
0.98659646511077881 0.9150729775428772 0.9965357780456543
