assets/lut/alexjordan film high contrast.cube
# Created by: G'MIC (https://gmic.eu)
TITLE "film_high_contrast"
# LUT size
LUT_3D_SIZE 13
# Data domain
DOMAIN_MIN 0.0 0.0 0.0
DOMAIN_MAX 1.0 1.0 1.0
# LUT data points
0.0084070991724729538 0.0070541379973292351 0.075146496295928955
0.039360795170068741 0.0025456896983087063 0.068210422992706299
0.073753923177719116 0.00029368681134656072 0.060094226151704788
0.10999036580324173 0 0.052384752780199051
0.14720256626605988 0 0.045567307621240616
0.18421198427677155 0 0.039369367063045502
0.22089876234531403 0 0.03290272131562233
0.25743460655212402 0 0.026998691260814667
0.29537537693977356 0 0.022881107404828072
0.33441224694252014 0 0.019713189452886581
0.37421932816505432 0 0.017553158104419708
0.4144865870475769 0 0.01536121778190136
0.45905366539955139 0 0.016481228172779083
0.00060116639360785484 0.029815644025802612 0.056280653923749924
0.02147204801440239 0.023346111178398132 0.051154688000679016
0.058482270687818527 0.016666308045387268 0.045191358774900436
0.097780339419841766 0.011065449565649033 0.03982129693031311
0.13745419681072235 0.0078640207648277283 0.035260666161775589
0.17635935544967651 0.0061454325914382935 0.031297750771045685
0.21507333219051361 0.0043592415750026703 0.026912374421954155
0.25428593158721924 0.0030835021752864122 0.022657835856080055
0.2945486307144165 0.0028186275158077478 0.020283851772546768
0.3363594114780426 0.0025329440832138062 0.020054969936609268
0.37820082902908325 0.002485552104189992 0.020804939791560173
0.42160609364509583 0.0039660586044192314 0.022056460380554199
0.47045540809631348 0.0084631675854325294 0.027534276247024536
0 0.055369611829519272 0.03846881166100502
0.0079991957172751427 0.05099467933177948 0.035299789160490036
0.045037753880023956 0.045902807265520096 0.0322226881980896
0.087228737771511078 0.042446915060281754 0.029538009315729141
0.12912684679031372 0.04161376878619194 0.027557613328099251
0.17087720334529877 0.039962887763977051 0.026195062324404716
0.21280093491077423 0.038990650326013565 0.024815203621983528
0.25612044334411621 0.039388947188854218 0.023711575195193291
0.30059036612510681 0.041499882936477661 0.024809684604406357
0.34562104940414429 0.041939109563827515 0.027543041855096817
0.3919643759727478 0.044899541884660721 0.032259069383144379
0.44255435466766357 0.052944708615541458 0.041101165115833282
0.50013971328735352 0.067617006599903107 0.055714923888444901
0 0.086162030696868896 0.025771750137209892
0.0031180139631032944 0.084156706929206848 0.024544226005673409
0.036777213215827942 0.080725498497486115 0.02404041588306427
0.081920206546783447 0.080929793417453766 0.024722648784518242
0.1272965669631958 0.083203382790088654 0.026907168328762054
0.17298626899719238 0.086637534201145172 0.029832577332854271
0.22092550992965698 0.089962124824523926 0.033379454165697098
0.26967582106590271 0.095221035182476044 0.037540167570114136
0.31831061840057373 0.10225800424814224 0.042498927563428879
0.36797851324081421 0.10924715548753738 0.049404952675104141
0.42217078804969788 0.11984318494796753 0.061520252376794815
0.48413032293319702 0.13712324202060699 0.08071194589138031
0.55074435472488403 0.15932205319404602 0.10487806797027588
0 0.12567102909088135 0.022391030564904213
0.003217973979189992 0.12546725571155548 0.023182976990938187
0.038682062178850174 0.12665750086307526 0.026059841737151146
0.086424931883811951 0.13072468340396881 0.030764739960432053
0.13741147518157959 0.13908042013645172 0.038781497627496719
0.19150751829147339 0.14950905740261078 0.049638397991657257
0.24791733920574188 0.16020162403583527 0.061061784625053406
0.30319622159004211 0.17195551097393036 0.072480596601963043
0.35643118619918823 0.18357944488525391 0.082717776298522949
0.41108235716819763 0.19673043489456177 0.095143817365169525
0.47658419609069824 0.21884115040302277 0.11682862043380737
0.5484386682510376 0.24616581201553345 0.14480814337730408
0.62026768922805786 0.27293699979782104 0.17335745692253113
0 0.18007005751132965 0.033800385892391205
0.013591811060905457 0.18334442377090454 0.038648836314678192
0.059725023806095123 0.19040472805500031 0.046360373497009277
0.11123905330896378 0.20034566521644592 0.056317660957574844
0.1699199378490448 0.21611474454402924 0.071901343762874603
0.23490992188453674 0.23639132082462311 0.092863596975803375
0.30029523372650146 0.25628617405891418 0.11370182782411575
0.36323845386505127 0.27550756931304932 0.13317400217056274
0.42319479584693909 0.29405978322029114 0.15071587264537811
0.48471406102180481 0.31400051712989807 0.16956523060798645
0.55403739213943481 0.34060299396514893 0.19489029049873352
0.62730401754379272 0.3698127269744873 0.22415082156658173
0.69800668954849243 0.39536628127098083 0.25098338723182678
0.0065212324261665344 0.25258076190948486 0.064092136919498444
0.050561942160129547 0.26394557952880859 0.076774492859840393
0.1077418327331543 0.27983438968658447 0.092615582048892975
0.16713021695613861 0.29854542016983032 0.11083497852087021
0.23270700871944427 0.32184907793998718 0.1338009238243103
0.30361479520797729 0.34868210554122925 0.16063474118709564
0.37429308891296387 0.37474837899208069 0.18717165291309357
0.44270998239517212 0.39988541603088379 0.21213220059871674
0.50854241847991943 0.42363831400871277 0.23534764349460602
0.57398504018783569 0.4473111629486084 0.25796982645988464
0.64005941152572632 0.47063919901847839 0.28075161576271057
0.70606940984725952 0.4928111732006073 0.30289790034294128
0.76927745342254639 0.51140099763870239 0.3221791684627533
0.049385581165552139 0.34941214323043823 0.11789335310459137
0.11406517773866653 0.37047448754310608 0.14021803438663483
0.18099309504032135 0.39475086331367493 0.16435632109642029
0.24837620556354523 0.42110720276832581 0.18993730843067169
0.31774303317070007 0.44866204261779785 0.21661001443862915
0.38747102022171021 0.47542676329612732 0.24287588894367218
0.45639491081237793 0.50078630447387695 0.26833578944206238
0.52442419528961182 0.52577513456344604 0.29324567317962646
0.59091120958328247 0.55013322830200195 0.31710579991340637
0.65608197450637817 0.57312172651290894 0.33907422423362732
0.71658796072006226 0.59092658758163452 0.35685300827026367
0.77368021011352539 0.60429888963699341 0.3706572949886322
0.82905977964401245 0.61524778604507446 0.38237980008125305
0.12809073925018311 0.4726814329624176 0.19797345995903015
0.19887404143810272 0.49904656410217285 0.22531639039516449
0.26795664429664612 0.52471095323562622 0.25074222683906555
0.33675721287727356 0.55163305997848511 0.27675601840019226
0.40526303648948669 0.57827627658843994 0.30225306749343872
0.46992725133895874 0.60006523132324219 0.32373026013374329
0.53182715177536011 0.61929804086685181 0.34310147166252136
0.59428650140762329 0.6387779712677002 0.36294245719909668
0.65686696767807007 0.65907347202301025 0.38297411799430847
0.71759819984436035 0.67772841453552246 0.40098702907562256
0.77380871772766113 0.69136494398117065 0.41449171304702759
0.82606220245361328 0.70016258955001831 0.42374879121780396
0.87702983617782593 0.70731770992279053 0.43096157908439636
0.21554483473300934 0.60419249534606934 0.28534591197967529
0.28520321846008301 0.62952476739883423 0.31194642186164856
0.34972971677780151 0.65055745840072632 0.33295205235481262
0.41424158215522766 0.6723177433013916 0.35380968451499939
0.47784757614135742 0.69323134422302246 0.37392973899841309
0.53623312711715698 0.70880180597305298 0.38958171010017395
0.59169465303421021 0.72143131494522095 0.40285864472389221
0.6483224630355835 0.73528802394866943 0.41723489761352539
0.70580929517745972 0.7505829930305481 0.43229842185974121
0.76238000392913818 0.76495736837387085 0.44656160473823547
0.81600713729858398 0.77588838338851929 0.4572625458240509
0.86634045839309692 0.78331857919692993 0.46472957730293274
0.91544753313064575 0.78927505016326904 0.47014680504798889
0.28545057773590088 0.71920168399810791 0.35559189319610596
0.35276609659194946 0.74174278974533081 0.37931740283966064
0.41422423720359802 0.75942093133926392 0.39754897356033325
0.47309985756874084 0.77491247653961182 0.41300714015960693
0.52983826398849487 0.78827935457229614 0.4265037477016449
0.58314633369445801 0.79828202724456787 0.43707951903343201
0.63502669334411621 0.80697000026702881 0.44671109318733215
0.6882857084274292 0.81763213872909546 0.45780795812606812
0.74292385578155518 0.82990384101867676 0.4699980616569519
0.7970271110534668 0.84193897247314453 0.48180237412452698
0.84963029623031616 0.85207730531692505 0.49138405919075012
0.89974099397659302 0.85971391201019287 0.49838250875473022
0.94907504320144653 0.86609327793121338 0.50385522842407227
0.33956325054168701 0.8192901611328125 0.40991893410682678
0.40341252088546753 0.83804208040237427 0.43072634935379028
0.4620881974697113 0.85234981775283813 0.44615471363067627
0.51675915718078613 0.86277872323989868 0.45751172304153442
0.56829464435577393 0.87020301818847656 0.46583971381187439
0.61749017238616943 0.87540262937545776 0.47220224142074585
0.66694211959838867 0.88167381286621094 0.479166179895401
0.71903884410858154 0.89091122150421143 0.488923579454422
0.77277648448944092 0.90239018201828003 0.50027734041213989
0.82639491558074951 0.91395336389541626 0.51137220859527588
0.87875247001647949 0.92420989274978638 0.52064353227615356
0.92973852157592773 0.93279677629470825 0.52811533212661743
0.97920513153076172 0.9405444860458374 0.53431707620620728
0.38388934731483459 0.91036689281463623 0.4547819197177887
0.44409826397895813 0.92496222257614136 0.47212740778923035
0.49998140335083008 0.93574118614196777 0.48455271124839783
0.55149322748184204 0.94252419471740723 0.49283596873283386
0.59983491897583008 0.94601017236709595 0.49802377820014954
0.64634007215499878 0.94814479351043701 0.50183582305908203
0.69424152374267578 0.95252281427383423 0.50720864534378052
0.74607914686203003 0.96143031120300293 0.51638692617416382
0.79964137077331543 0.97225379943847656 0.52718150615692139
0.85319274663925171 0.9815942645072937 0.5378042459487915
0.90594488382339478 0.98840802907943726 0.54732191562652588
0.95775711536407471 0.99323195219039917 0.55535423755645752
0.99671584367752075 0.99656975269317627 0.56210362911224365
0.0078505119308829308 0.0052533317357301712 0.10712685436010361
0.038383230566978455 0.0017271153628826141 0.10103318095207214
0.073931612074375153 0.00014666389324702322 0.093911848962306976
0.11177726835012436 0 0.086766563355922699
0.14903989434242249 0 0.080131620168685913
0.18567152321338654 0 0.073925122618675232
0.22233690321445465 0 0.0679740309715271
0.25981774926185608 0 0.063307248055934906
0.29857248067855835 0 0.060322795063257217
0.33926379680633545 0 0.059065829962491989
0.38014674186706543 0 0.05803355947136879
0.4214043915271759 0 0.056993715465068817
0.46491077542304993 7.7012009569443762e-05 0.056627102196216583
0.00049498316366225481 0.027300726622343063 0.088340103626251221
0.019823037087917328 0.021566443145275116 0.083690270781517029
0.058333948254585266 0.015567315742373466 0.078680329024791718
0.098616503179073334 0.010565813630819321 0.073503561317920685
0.13789436221122742 0.0075962739065289497 0.068529300391674042
0.17647059261798859 0.0054974425584077835 0.063997529447078705
0.21440084278583527 0.0036711897701025009 0.059901442378759384
0.2543347179889679 0.0028186275158077478 0.056981585919857025
0.29604756832122803 0.0028186275158077478 0.05663546547293663
0.33919933438301086 0.0029985017608851194 0.058096509426832199
0.3822530210018158 0.0043953540734946728 0.059703093022108078
0.42545142769813538 0.0088060265406966209 0.060263361781835556
0.47393560409545898 0.016460822895169258 0.065528988838195801
0 0.054090879857540131 0.071409069001674652
0.0075960494577884674 0.050492994487285614 0.06880149245262146
0.04553261399269104 0.045619666576385498 0.066361293196678162
0.088397018611431122 0.042400464415550232 0.063477277755737305
0.12909242510795593 0.041347101330757141 0.060509100556373596
0.1695164293050766 0.038303002715110779 0.057889707386493683
0.21129556000232697 0.036705855280160904 0.056246228516101837
0.25498706102371216 0.037193611264228821 0.056624304503202438
0.30054756999015808 0.040266387164592743 0.059083316475152969
0.34624063968658447 0.042609285563230515 0.063179194927215576
0.39305388927459717 0.046906638890504837 0.068227671086788177
0.44288384914398193 0.056777056306600571 0.076210901141166687
0.50013631582260132 0.072052806615829468 0.090282350778579712
0 0.086167670786380768 0.06012972816824913
0.0033894558437168598 0.084613919258117676 0.059539452195167542
0.038660071790218353 0.08224940299987793 0.059169918298721313
0.083301842212677002 0.081697486340999603 0.059428062289953232
0.12727420032024384 0.083910383284091949 0.060209579765796661
0.17139239609241486 0.08509286493062973 0.061515778303146362
0.21865808963775635 0.087108954787254333 0.064396187663078308
0.26818907260894775 0.092908583581447601 0.069988444447517395
0.3187655508518219 0.10153060406446457 0.076999679207801819
0.36934736371040344 0.11027317494153976 0.085153587162494659
0.423073410987854 0.12128414213657379 0.096160590648651123
0.4840242862701416 0.13907262682914734 0.11492110788822174
0.55078941583633423 0.161434605717659 0.13894103467464447
0 0.12700983881950378 0.058364555239677429
0.0046721962280571461 0.12742352485656738 0.059574082493782043
0.041750259697437286 0.12894397974014282 0.062369372695684433
0.089123710989952087 0.13327671587467194 0.067088603973388672
0.13874581456184387 0.14114819467067719 0.073915757238864899
0.19075512886047363 0.14903901517391205 0.082350574433803558
0.24686683714389801 0.15732003748416901 0.09290352463722229
0.30376911163330078 0.17109519243240356 0.10637730360031128
0.36008751392364502 0.18594023585319519 0.12013500183820724
0.41767680644989014 0.20258721709251404 0.13488613069057465
0.48132160305976868 0.22413061559200287 0.15484331548213959
0.55149084329605103 0.25059926509857178 0.18163914978504181
0.62294012308120728 0.27671214938163757 0.21003866195678711
0.00028399299480952322 0.18294593691825867 0.072219178080558777
0.019397959113121033 0.18756274878978729 0.077271826565265656
0.065485157072544098 0.19497492909431458 0.085643604397773743
0.11766508221626282 0.20619307458400726 0.096505001187324524
0.17555034160614014 0.22150132060050964 0.11145936697721481
0.237889364361763 0.23909659683704376 0.12948037683963776
0.30264982581138611 0.25767415761947632 0.14912670850753784
0.36745235323905945 0.27876946330070496 0.17092922329902649
0.43010541796684265 0.2997557520866394 0.19124236702919006
0.49365264177322388 0.32239043712615967 0.21185629069805145
0.56176525354385376 0.34858015179634094 0.23623935878276825
0.63386321067810059 0.37685209512710571 0.26403108239173889
0.70378851890563965 0.40176931023597717 0.29012098908424377
0.014494174160063267 0.2602519690990448 0.10661952942609787
0.061361305415630341 0.27202555537223816 0.11952900886535645
0.11675566434860229 0.28806388378143311 0.13597925007343292
0.17659503221511841 0.30733075737953186 0.15456072986125946
0.2418503612279892 0.33038565516471863 0.17690785229206085
0.31076732277870178 0.35558560490608215 0.20180392265319824
0.38099300861358643 0.38146042823791504 0.22791224718093872
0.45082494616508484 0.40766572952270508 0.25433260202407837
0.51737368106842041 0.43202108144760132 0.27824416756629944
0.58216512203216553 0.45508661866188049 0.30014756321907043
0.64796924591064453 0.47854319214820862 0.32225236296653748
0.7139660120010376 0.50127404928207397 0.34465426206588745
0.77774536609649658 0.52013528347015381 0.36423590779304504
0.066409602761268616 0.36122250556945801 0.16468575596809387
0.1276390552520752 0.38196435570716858 0.1865667849779129
0.19287833571434021 0.40634319186210632 0.21096429228782654
0.25906676054000854 0.43186172842979431 0.23566140234470367
0.32730486989021301 0.45800378918647766 0.26087328791618347
0.39644020795822144 0.48429027199745178 0.28649890422821045
0.46572989225387573 0.50987982749938965 0.31205356121063232
0.53426218032836914 0.53568816184997559 0.33757144212722778
0.59993851184844971 0.55875009298324585 0.36036908626556396
0.662364661693573 0.57929474115371704 0.38007465004920959
0.72277063131332397 0.59718436002731323 0.39717632532119751
0.7815585732460022 0.61247438192367554 0.4125482439994812
0.83829182386398315 0.62445682287216187 0.42536306381225586
0.14139226078987122 0.48221287131309509 0.24216347932815552
0.20979727804660797 0.50845718383789062 0.26961269974708557
0.27890044450759888 0.53577697277069092 0.2966957688331604
0.34635746479034424 0.56175488233566284 0.32189437747001648
0.41284844279289246 0.5858960747718811 0.34508213400840759
0.47719115018844604 0.60761719942092896 0.36637651920318604
0.54017454385757446 0.62736678123474121 0.38634124398231506
0.6027342677116394 0.64717262983322144 0.40615904331207275
0.66408824920654297 0.66589879989624023 0.42472431063652039
0.723258376121521 0.68303835391998291 0.44143944978713989
0.77952742576599121 0.69675308465957642 0.45452636480331421
0.83327019214630127 0.70735257863998413 0.46526411175727844
0.88566917181015015 0.71559292078018188 0.47389769554138184
0.22168385982513428 0.60774946212768555 0.32373920083045959
0.29099410772323608 0.63413184881210327 0.35123565793037415
0.35750648379325867 0.65824168920516968 0.37549254298210144
0.42137905955314636 0.67968964576721191 0.39624255895614624
0.48280170559883118 0.69845575094223022 0.41469299793243408
0.54105490446090698 0.71370410919189453 0.43011012673377991
0.59760564565658569 0.72704362869262695 0.44410759210586548
0.65431481599807739 0.74082893133163452 0.45824873447418213
0.71122556924819946 0.75530010461807251 0.47295928001403809
0.76723039150238037 0.76926946640014648 0.48639670014381409
0.82130438089370728 0.78075104951858521 0.49717450141906738
0.87278193235397339 0.78944957256317139 0.50564885139465332
0.92332059144973755 0.79627805948257446 0.51241618394851685
0.29034429788589478 0.72183901071548462 0.39347264170646667
0.35713374614715576 0.74538493156433105 0.41815280914306641
0.41970840096473694 0.76444864273071289 0.438251793384552
0.47833254933357239 0.7798582911491394 0.45338219404220581
0.53373527526855469 0.792072594165802 0.46582427620887756
0.58670026063919067 0.80150431394577026 0.47607824206352234
0.63883793354034424 0.8103366494178772 0.48595377802848816
0.69214522838592529 0.82071101665496826 0.49693915247917175
0.74662965536117554 0.83273649215698242 0.50910216569900513
0.8010522723197937 0.84493464231491089 0.52081000804901123
0.85399997234344482 0.85580426454544067 0.53081458806991577
0.9052053689956665 0.86441880464553833 0.53869879245758057
0.95550310611724854 0.87166160345077515 0.54501855373382568
0.34485992789268494 0.82220566272735596 0.44898667931556702
0.40811079740524292 0.84139335155487061 0.4695030152797699
0.46668845415115356 0.85587537288665771 0.48536711931228638
0.52074688673019409 0.86598539352416992 0.49632179737091064
0.57115983963012695 0.87246048450469971 0.50376683473587036
0.61970275640487671 0.87708908319473267 0.50971400737762451
0.66910243034362793 0.88278830051422119 0.51686966419219971
0.72138524055480957 0.89216071367263794 0.52673697471618652
0.77523332834243774 0.9036860466003418 0.53818714618682861
0.82924389839172363 0.915569007396698 0.54940903186798096
0.8822028636932373 0.92644548416137695 0.55922657251358032
0.93386250734329224 0.93590289354324341 0.56730771064758301
0.98323112726211548 0.94417834281921387 0.57424384355545044
0.38917085528373718 0.91343194246292114 0.49393096566200256
0.44864076375961304 0.92768919467926025 0.51088589429855347
0.50372183322906494 0.93805772066116333 0.52293962240219116
0.55453896522521973 0.9442363977432251 0.53058773279190063
0.60179716348648071 0.94690024852752686 0.5351366400718689
0.64752805233001709 0.94803708791732788 0.53816437721252441
0.69506019353866577 0.95194673538208008 0.54321342706680298
0.74711441993713379 0.96108615398406982 0.5528416633605957
0.80108034610748291 0.97240298986434937 0.56409215927124023
0.85506808757781982 0.98193979263305664 0.57510149478912354
0.90827596187591553 0.98922121524810791 0.5850105881690979
0.96061331033706665 0.99399316310882568 0.59360033273696899
0.99772995710372925 0.9971962571144104 0.60061049461364746
0.0071169533766806126 0.0034343944862484932 0.13857041299343109
0.036970339715480804 0.0010115529876202345 0.13325923681259155
0.073216699063777924 1.0052849575004075e-05 0.1271049827337265
0.11226941645145416 0 0.12067144364118576
0.14995422959327698 0 0.11445538699626923
0.18668185174465179 0 0.10850149393081665
0.22357065975666046 0 0.10322153568267822
0.26114967465400696 0 0.099149264395236969
0.30046349763870239 0 0.096964038908481598
0.3417452871799469 0 0.096424371004104614
0.38431820273399353 8.2576980275916867e-06 0.096503026783466339
0.42776283621788025 0.0015112634282559156 0.096568629145622253
0.47084519267082214 0.0022112827282398939 0.096661783754825592
0.00049498316366225481 0.024449218064546585 0.12027094513177872
0.018760068342089653 0.019228288903832436 0.11562234908342361
0.057333208620548248 0.014383952133357525 0.11153484880924225
0.09845435619354248 0.010599278844892979 0.10685732960700989
0.13791899383068085 0.00791956577450037 0.1019783616065979
0.17647327482700348 0.0053523643873631954 0.097352705895900726
0.21476937830448151 0.0033335816115140915 0.093766860663890839
0.25476372241973877 0.0028186275158077478 0.091732986271381378
0.29621240496635437 0.0031365638133138418 0.091757364571094513
0.34000533819198608 0.0048417486250400543 0.093970656394958496
0.38410687446594238 0.0089828046038746834 0.096288584172725677
0.42882832884788513 0.016760209575295448 0.098174780607223511
0.47726121544837952 0.024244735017418861 0.10318323969841003
0 0.052271511405706406 0.10455343127250671
0.0073673473671078682 0.048773717135190964 0.10163438320159912
0.045164428651332855 0.0453505739569664 0.099977187812328339
0.088179677724838257 0.043583303689956665 0.097154505550861359
0.12899652123451233 0.041767824441194534 0.093731239438056946
0.1692950427532196 0.038393747061491013 0.090876877307891846
0.21090298891067505 0.035541296005249023 0.089759156107902527
0.25452479720115662 0.036092646420001984 0.090884082019329071
0.299897700548172 0.039450179785490036 0.094286583364009857
0.34670522809028625 0.044044509530067444 0.099268987774848938
0.39482304453849792 0.051206760108470917 0.10565610229969025
0.44560396671295166 0.061604637652635574 0.11350030452013016
0.50152558088302612 0.075249329209327698 0.12640300393104553
0 0.085846215486526489 0.094963595271110535
0.0042814365588128567 0.084643498063087463 0.094012781977653503
0.039489027112722397 0.083418034017086029 0.094620801508426666
0.083690956234931946 0.084520868957042694 0.094475105404853821
0.12775689363479614 0.08592185378074646 0.094140179455280304
0.17182177305221558 0.085604332387447357 0.094858668744564056
0.21870595216751099 0.087385423481464386 0.09827028214931488
0.26871690154075623 0.09276086837053299 0.10535091161727905
0.31996247172355652 0.10163190960884094 0.11387438327074051
0.37198516726493835 0.11206956952810287 0.12404285371303558
0.42802858352661133 0.12625792622566223 0.13741762936115265
0.48932620882987976 0.14417760074138641 0.15536214411258698
0.55406266450881958 0.16502265632152557 0.17735396325588226
0 0.12927354872226715 0.095286518335342407
0.007210196927189827 0.1304209977388382 0.096626251935958862
0.044464591890573502 0.13246691226959229 0.099799439311027527
0.091804489493370056 0.13739264011383057 0.10437808930873871
0.14179182052612305 0.14453406631946564 0.11055123060941696
0.19313837587833405 0.15162165462970734 0.11773630976676941
0.24800483882427216 0.16067516803741455 0.12854290008544922
0.30662444233894348 0.17424499988555908 0.14394208788871765
0.36585980653762817 0.19064076244831085 0.16088704764842987
0.42554959654808044 0.20977148413658142 0.17799656093120575
0.49038615822792053 0.2328285425901413 0.19916212558746338
0.56048941612243652 0.25901064276695251 0.22515024244785309
0.63094687461853027 0.28434953093528748 0.25184440612792969
