assets/lut/alexjordan red dream 01.cube
# Created by: G'MIC (https://gmic.eu)
TITLE "red_dream_01"
# LUT size
LUT_3D_SIZE 5
# Data domain
DOMAIN_MIN 0.0 0.0 0.0
DOMAIN_MAX 1.0 1.0 1.0
# LUT data points
0.012222304940223694 0 0
0.018472978845238686 0 0
0.042835116386413574 0 0
0.076742030680179596 0 0
0.1515183299779892 0.00062231923220679164 0.0017288656672462821
0.027108436450362206 0.014682904817163944 0
0.072549469769001007 0.026525638997554779 0
0.16952574253082275 0.04067578911781311 0
0.33626618981361389 0.046011578291654587 0
0.57711517810821533 0.053067959845066071 0
0.043793652206659317 0.16608826816082001 0
0.16861657798290253 0.20683683454990387 4.8424215492559597e-05
0.35925430059432983 0.24649688601493835 7.4678311648312956e-05
0.59297889471054077 0.28167593479156494 0.00047996372450143099
0.84752142429351807 0.31567975878715515 0
0.0019329594215378165 0.51168477535247803 0
0.17182618379592896 0.56326228380203247 0
0.4029298722743988 0.60659545660018921 0
0.64831018447875977 0.64200073480606079 0.00079941097646951675
0.9271697998046875 0.66168200969696045 0.00030770394369028509
0.019330700859427452 0.87653052806854248 0.0039456984959542751
0.23612105846405029 0.89874762296676636 0.014007972553372383
0.49867618083953857 0.9203382134437561 0.026558820158243179
0.80933272838592529 0.94575965404510498 0.068278200924396515
1 0.92200320959091187 0.053168769925832748
0.008921484462916851 0 0.0011444241972640157
0.021345160901546478 0 0.00020415362087078393
0.039429038763046265 0 0.0030031988862901926
0.08590252697467804 0 0.0079497694969177246
0.17919109761714935 0 0.020726956427097321
0.026156660169363022 0.018504856154322624 0.014313432388007641
0.084481149911880493 0.031595926731824875 0.024565767496824265
0.19280077517032623 0.041231762617826462 0.032031144946813583
0.37033507227897644 0.048506986349821091 0.03464077040553093
0.62433892488479614 0.049957290291786194 0.045856684446334839
0.041454628109931946 0.17584660649299622 0.022231576964259148
0.16929426789283752 0.21982038021087646 0.018755953758955002
0.36341342329978943 0.2548358142375946 0.023264447227120399
0.59814095497131348 0.28944066166877747 0.02893410436809063
0.85277944803237915 0.32758405804634094 0.06744086742401123
0.00039937635301612318 0.52466845512390137 0.029704120010137558
0.15612789988517761 0.58021342754364014 0.042765777558088303
0.40823373198509216 0.61189889907836914 0.093113884329795837
0.64998733997344971 0.64984023571014404 0.13821373879909515
0.94224047660827637 0.66288089752197266 0.17328837513923645
0.072263471782207489 0.86632668972015381 0.16923165321350098
0.25668162107467651 0.90007609128952026 0.22168706357479095
0.51878958940505981 0.92857253551483154 0.27084794640541077
0.8295854926109314 0.95080828666687012 0.32419672608375549
1 0.92287439107894897 0.29350820183753967
0.011444899253547192 0 0.008028755895793438
0.020609073340892792 0 0.013176906853914261
0.046174366027116776 0 0.023526031523942947
0.093173019587993622 0 0.03818785771727562
0.21190084517002106 0 0.078331053256988525
0.026304341852664948 0.022887181490659714 0.031838975846767426
0.09484553337097168 0.035263359546661377 0.092937067151069641
0.21323022246360779 0.044813103973865509 0.13603377342224121
0.40250802040100098 0.045604061335325241 0.18938016891479492
0.66943907737731934 0.043263811618089676 0.24269530177116394
0.14917571842670441 0.15547946095466614 0.15279912948608398
0.20235747098922729 0.21911972761154175 0.20662461221218109
0.36892536282539368 0.26155534386634827 0.27049878239631653
0.60620832443237305 0.30270087718963623 0.31501883268356323
0.85614240169525146 0.33782044053077698 0.35507169365882874
0.29000729322433472 0.42881831526756287 0.35974055528640747
0.302146315574646 0.54630452394485474 0.38406524062156677
0.40974298119544983 0.62487101554870605 0.39310890436172485
0.65813791751861572 0.65400350093841553 0.41818591952323914
0.96423584222793579 0.66574227809906006 0.43199142813682556
0.39379382133483887 0.75962585210800171 0.56464231014251709
0.39713171124458313 0.86852806806564331 0.54642874002456665
0.53128820657730103 0.94335675239562988 0.52276480197906494
0.86038357019424438 0.95693790912628174 0.53257912397384644
1 0.93124759197235107 0.4951343834400177
0.00020478192891459912 0 0.0087147131562232971
0.014858036302030087 0 0.026492474600672722
0.043866042047739029 0 0.044811025261878967
0.10849931091070175 0 0.084541484713554382
0.23923419415950775 0 0.15555799007415771
0.034716334193944931 0.03202483057975769 0.042017903178930283
0.086100637912750244 0.048270504921674728 0.12008482962846756
0.22779670357704163 0.047009352594614029 0.27210339903831482
0.43673896789550781 0.043399196118116379 0.38313838839530945
0.70917201042175293 0.039934884756803513 0.48778271675109863
0.17257757484912872 0.17441678047180176 0.17782978713512421
0.23751156032085419 0.23834861814975739 0.24998845160007477
0.34387710690498352 0.29858613014221191 0.39949521422386169
0.60080981254577637 0.31609529256820679 0.59484350681304932
0.86718112230300903 0.35420992970466614 0.62261253595352173
0.42811673879623413 0.43003922700881958 0.4274124801158905
0.51291924715042114 0.51450550556182861 0.51546037197113037
0.58884882926940918 0.59618836641311646 0.59267145395278931
0.67480325698852539 0.66881227493286133 0.63385730981826782
0.98049783706665039 0.67788535356521606 0.6207546591758728
0.65532153844833374 0.70477914810180664 0.6905362606048584
0.67929863929748535 0.8019791841506958 0.74742758274078369
0.64514839649200439 0.93915921449661255 0.73197245597839355
0.89350831508636475 0.96953004598617554 0.67462128400802612
1 0.94187277555465698 0.62755417823791504
0.0031257779337465763 0.0010246875463053584 0.010849896818399429
0.0067094690166413784 0.00049902225146070123 0.025285579264163971
0.046701513230800629 0.0004605162248481065 0.069780610501766205
0.12568612396717072 0 0.14504396915435791
0.27516624331474304 0 0.25730049610137939
0.043389458209276199 0.041465084999799728 0.055713266134262085
0.086124390363693237 0.066763646900653839 0.12822382152080536
0.20459488034248352 0.07275613397359848 0.31455537676811218
0.43780362606048584 0.055885672569274902 0.56356030702590942
0.74415051937103271 0.038370843976736069 0.7321133017539978
0.19165043532848358 0.19594995677471161 0.20916369557380676
0.26434803009033203 0.26650521159172058 0.29179629683494568
0.35191011428833008 0.33926132321357727 0.40863031148910522
0.57558757066726685 0.35460275411605835 0.70648866891860962
0.87964427471160889 0.37216010689735413 0.82491803169250488
0.45797103643417358 0.46036848425865173 0.46192198991775513
0.54010134935379028 0.54330414533615112 0.54550302028656006
0.62085533142089844 0.62319850921630859 0.62527060508728027
0.70419543981552124 0.69124341011047363 0.7168765664100647
0.992359459400177 0.68560856580734253 0.77187085151672363
0.7213020920753479 0.72351038455963135 0.72198665142059326
0.79811960458755493 0.80680865049362183 0.80569589138031006
0.85298699140548706 0.9039762020111084 0.87892860174179077
0.94275975227355957 0.97169554233551025 0.85069781541824341
0.99945896863937378 0.94149923324584961 0.82830178737640381
