assets/lut/alexjordan green action.cube
# Created by: G'MIC (https://gmic.eu)
TITLE "green_action"
# LUT size
LUT_3D_SIZE 5
# Data domain
DOMAIN_MIN 0.0 0.0 0.0
DOMAIN_MAX 1.0 1.0 1.0
# LUT data points
0 0 0
0.00020913516345899552 1.9387638531043194e-05 6.8395274865906686e-05
0.039693482220172882 0.012794659473001957 0.012328398413956165
0.21981120109558105 0.04205615445971489 0.041668761521577835
0.43875196576118469 0.051606360822916031 0.047413110733032227
0.039897274225950241 0.12042276561260223 0.034134030342102051
0.1626117080450058 0.16488805413246155 0.026972722262144089
0.34821471571922302 0.18918688595294952 0.017007701098918915
0.58692598342895508 0.19227239489555359 0.003344307653605938
0.84881597757339478 0.18411669135093689 0.0049041896127164364
0.0082771750167012215 0.41667953133583069 0.0061279446817934513
0.15889190137386322 0.41265007853507996 0.0025786904152482748
0.39360278844833374 0.4078318178653717 0
0.65421754121780396 0.40952667593955994 0
0.90442800521850586 0.39632537961006165 0.00068007822846993804
0 0.67470818758010864 0
0.088599547743797302 0.66402417421340942 0.001588664366863668
0.34527873992919922 0.64644116163253784 0
0.61093401908874512 0.64266103506088257 0
0.8577430248260498 0.63023179769515991 0
0 0.917091965675354 0
0.05277647078037262 0.88845145702362061 0.00022403492766898125
0.29012033343315125 0.87684005498886108 0
0.55494940280914307 0.87276506423950195 0
0.7977982759475708 0.8608856201171875 0
0 0 0
0.0029975592624396086 0.0014503479469567537 0.0031523611396551132
0.078937798738479614 0.024474918842315674 0.054053153842687607
0.27223876118659973 0.050435818731784821 0.12685553729534149
0.51192754507064819 0.045598272234201431 0.17049640417098999
0.031755231320858002 0.14124405384063721 0.1376592218875885
0.17160476744174957 0.1722387820482254 0.1717657744884491
0.37399947643280029 0.19257658720016479 0.19086413085460663
0.62056607007980347 0.192271888256073 0.19472572207450867
0.8882177472114563 0.1785845160484314 0.17277935147285461
0.0048851161263883114 0.41607525944709778 0.17759320139884949
0.15183326601982117 0.41713166236877441 0.14774477481842041
0.40146490931510925 0.41803073883056641 0.12364353984594345
0.66076761484146118 0.41184225678443909 0.12394119054079056
0.90918618440628052 0.39665114879608154 0.1031162366271019
0.0013424592325463891 0.67879760265350342 0.093455389142036438
0.085557214915752411 0.65799415111541748 0.060299217700958252
0.34160119295120239 0.64980429410934448 0.072301007807254791
0.60396212339401245 0.64072239398956299 0.068808957934379578
0.84613627195358276 0.62428736686706543 0.038681462407112122
0 0.91990196704864502 0.082418404519557953
0.035030052065849304 0.88690280914306641 0.058044776320457458
0.27875712513923645 0.87849628925323486 0.05393441766500473
0.55110150575637817 0.87220638990402222 0.044098455458879471
0.8005753755569458 0.86280828714370728 0.031148724257946014
0 0 0
0.012476813048124313 0.0057136085815727711 0.015703223645687103
0.11528559774160385 0.03592001274228096 0.11425431072711945
0.31696441769599915 0.053739316761493683 0.22745439410209656
0.56799620389938354 0.042538512498140335 0.31027239561080933
0.044366471469402313 0.15385463833808899 0.25084161758422852
0.1803218275308609 0.18327875435352325 0.32077357172966003
0.38747289776802063 0.1938759982585907 0.37353858351707458
0.63606029748916626 0.19438326358795166 0.4036080539226532
0.89951562881469727 0.17286226153373718 0.41191667318344116
0 0.42521163821220398 0.39148280024528503
0.14527738094329834 0.4191277027130127 0.39174449443817139
0.40127098560333252 0.41601660847663879 0.38607561588287354
0.66276144981384277 0.41268110275268555 0.38411223888397217
0.90591287612915039 0.39000198245048523 0.35845685005187988
0 0.6805453896522522 0.36618450284004211
0.082911968231201172 0.65903931856155396 0.33828181028366089
0.34356391429901123 0.64526975154876709 0.32415658235549927
0.59103018045425415 0.6298290491104126 0.30944803357124329
0.8421403169631958 0.61842471361160278 0.29995790123939514
0 0.91387224197387695 0.31453511118888855
0.026949655264616013 0.88516050577163696 0.27896758913993835
0.26986688375473022 0.86931914091110229 0.25878334045410156
0.53841954469680786 0.86139094829559326 0.25064900517463684
0.80603915452957153 0.86556178331375122 0.26186373829841614
0 0 0
0.027775438502430916 0.013712131418287754 0.049662407487630844
0.16208873689174652 0.043620750308036804 0.20931442081928253
0.38079133629798889 0.052190490067005157 0.36414620280265808
0.64442980289459229 0.029075352475047112 0.47832253575325012
0.041540827602148056 0.16876175999641418 0.38861355185508728
0.1902424693107605 0.19397649168968201 0.49683111906051636
0.4021700918674469 0.19384725391864777 0.57416456937789917
0.64996576309204102 0.18470305204391479 0.62661522626876831
0.91168928146362305 0.16907118260860443 0.64552158117294312
0.0037344838492572308 0.4317532479763031 0.62135863304138184
0.14385780692100525 0.41900601983070374 0.62581783533096313
0.39588326215744019 0.41153240203857422 0.624481201171875
0.65730452537536621 0.40847912430763245 0.62744712829589844
0.9059634804725647 0.39237606525421143 0.60766249895095825
0 0.67682874202728271 0.60943549871444702
0.073800422251224518 0.65766751766204834 0.58679801225662231
0.33852067589759827 0.63854962587356567 0.56778651475906372
0.59636348485946655 0.63200861215591431 0.5624692440032959
0.84896528720855713 0.62722212076187134 0.55103850364685059
0 0.91323173046112061 0.55959057807922363
0.040392737835645676 0.87955427169799805 0.52021950483322144
0.2668759822845459 0.86376583576202393 0.503010094165802
0.53289097547531128 0.85408604145050049 0.49668833613395691
0.79746019840240479 0.85956454277038574 0.50390112400054932
0.0015431123320013285 0.0011135325767099857 0.004690222442150116
0.050100333988666534 0.023925138637423515 0.11649427562952042
0.20172044634819031 0.047354947775602341 0.32356417179107666
0.42929863929748535 0.043961320072412491 0.52063429355621338
0.7003898024559021 0.022053288295865059 0.66873389482498169
0.032790478318929672 0.18992793560028076 0.55940991640090942
0.18493106961250305 0.19687795639038086 0.6563912034034729
0.41077610850334167 0.19374674558639526 0.77230536937713623
0.66668075323104858 0.19000211358070374 0.85074871778488159
0.91839373111724854 0.1782376766204834 0.87295353412628174
0 0.43964189291000366 0.85134154558181763
0.13774807751178741 0.42466622591018677 0.85886538028717041
0.40920981764793396 0.42503681778907776 0.87572240829467773
0.67654705047607422 0.42510023713111877 0.88008129596710205
0.91797000169754028 0.40765061974525452 0.86773574352264404
0.00079656863817945123 0.70122385025024414 0.8691411018371582
0.083558715879917145 0.66141039133071899 0.83358263969421387
0.34888240694999695 0.65474468469619751 0.82559311389923096
0.62153065204620361 0.65919917821884155 0.82785069942474365
0.84554195404052734 0.62628662586212158 0.79313021898269653
0.002722063334658742 0.93189996480941772 0.81519269943237305
0.06447659432888031 0.88752686977386475 0.77025192975997925
0.28940096497535706 0.8787071704864502 0.75960463285446167
0.55026400089263916 0.87156832218170166 0.75606566667556763
0.79571008682250977 0.86512929201126099 0.74547660350799561
