assets/lut/alexjordan smart contrast.cube
# Created by: G'MIC (https://gmic.eu)
TITLE "smart_contrast"
# LUT size
LUT_3D_SIZE 5
# Data domain
DOMAIN_MIN 0.0 0.0 0.0
DOMAIN_MAX 1.0 1.0 1.0
# LUT data points
0.015266538597643375 0.016164623200893402 0.015916667878627777
0.098889894783496857 0.021223928779363632 0.018621467053890228
0.2871418297290802 0.012886002659797668 0.014876631088554859
0.45521882176399231 0.0028349035419523716 0.00079468369949609041
0.56073981523513794 0.010754948481917381 0.0042180977761745453
0.044160626828670502 0.12085266411304474 0.044092364609241486
0.14163303375244141 0.14184556901454926 0.063262507319450378
0.35113340616226196 0.15030625462532043 0.075119897723197937
0.56434303522109985 0.1717250794172287 0.094330206513404846
0.71096289157867432 0.24303962290287018 0.15787267684936523
0.073402583599090576 0.35138997435569763 0.073084034025669098
0.22539080679416656 0.42158934473991394 0.14484173059463501
0.47146859765052795 0.47307708859443665 0.19478659331798553
0.71600854396820068 0.51946854591369629 0.24170315265655518
0.86125719547271729 0.59051269292831421 0.31507027149200439
0.23914477229118347 0.69917947053909302 0.24279530346393585
0.39161768555641174 0.77944755554199219 0.30815398693084717
0.61603814363479614 0.81506508588790894 0.34033173322677612
0.83889657258987427 0.84048497676849365 0.36404305696487427
0.95925652980804443 0.88323479890823364 0.40459001064300537
0.44316002726554871 0.98486101627349854 0.4412473738193512
0.57708323001861572 0.99940311908721924 0.46718159317970276
0.75645154714584351 0.99887967109680176 0.46086698770523071
0.93049734830856323 0.99778813123703003 0.45312544703483582
1 1 0.46161791682243347
0.017108602449297905 0.020456276834011078 0.098731547594070435
0.10143263638019562 0.024143069982528687 0.099232695996761322
0.28773629665374756 0.014656231738626957 0.088749244809150696
0.46605941653251648 0.0084079215303063393 0.071008585393428802
0.55590325593948364 0.014441965147852898 0.089754693210124969
0.050973180681467056 0.12813235819339752 0.13075700402259827
0.15421941876411438 0.15526902675628662 0.15367339551448822
0.37014520168304443 0.17058609426021576 0.17163124680519104
0.59647965431213379 0.20039555430412292 0.20094777643680573
0.7321590781211853 0.26455575227737427 0.26323074102401733
0.095659174025058746 0.37668970227241516 0.17180213332176208
0.24655768275260925 0.44799596071243286 0.24721874296665192
0.49624383449554443 0.49871665239334106 0.2976374626159668
0.74114954471588135 0.54699027538299561 0.34589412808418274
0.88780194520950317 0.61961585283279419 0.41972589492797852
0.25617891550064087 0.73170304298400879 0.33980745077133179
0.40331390500068665 0.80542236566543579 0.40506860613822937
0.64132523536682129 0.83865487575531006 0.44105672836303711
0.85402834415435791 0.85296672582626343 0.45898717641830444
0.96786117553710938 0.88971835374832153 0.49753090739250183
0.45257920026779175 0.99179691076278687 0.52989983558654785
0.56163370609283447 0.99793756008148193 0.55988121032714844
0.75147527456283569 0.99849790334701538 0.54923826456069946
0.92385244369506836 0.99436336755752563 0.52694028615951538
0.99954569339752197 0.99931001663208008 0.54112851619720459
0.014672223478555679 0.013696258887648582 0.29960909485816956
0.1095423698425293 0.024002030491828918 0.30113694071769714
0.28155338764190674 0.01449928991496563 0.28811010718345642
0.45034724473953247 0.0031925125513225794 0.25962555408477783
0.56285941600799561 0.018543513491749763 0.30098459124565125
0.050349455326795578 0.12833650410175323 0.33145245909690857
0.1672283262014389 0.16153004765510559 0.36076080799102783
0.38539180159568787 0.18349805474281311 0.38306039571762085
0.60446488857269287 0.20696461200714111 0.40812799334526062
0.74511712789535522 0.27854487299919128 0.47897523641586304
0.12049779295921326 0.39910584688186646 0.39561733603477478
0.26748248934745789 0.46459978818893433 0.46847978234291077
0.51480728387832642 0.51512008905410767 0.51322227716445923
0.76214230060577393 0.56514960527420044 0.56487160921096802
0.89982235431671143 0.6337425708770752 0.63705652952194214
0.27904036641120911 0.75379592180252075 0.55625361204147339
0.42593806982040405 0.81990951299667358 0.62483870983123779
0.65005981922149658 0.84587043523788452 0.65046137571334839
0.85978853702545166 0.86198097467422485 0.66428881883621216
0.96192973852157593 0.89053612947463989 0.69354671239852905
0.4569055438041687 0.99337482452392578 0.73079174757003784
0.56003224849700928 0.99790745973587036 0.75076973438262939
0.74213975667953491 0.99700170755386353 0.73877650499343872
0.91190725564956665 0.98967850208282471 0.71622097492218018
0.99439710378646851 0.99300968647003174 0.72165250778198242
0.0084788156673312187 0.010247414000332355 0.47942835092544556
0.10559931397438049 0.014921749010682106 0.4809669554233551
0.27484866976737976 0.0052193137817084789 0.46850299835205078
0.45278996229171753 0.0044092666357755661 0.45809417963027954
0.58252173662185669 0.03343263640999794 0.50813907384872437
0.052728928625583649 0.12986603379249573 0.53012168407440186
0.16906312108039856 0.16797235608100891 0.55884706974029541
0.38935515284538269 0.18586055934429169 0.58505141735076904
0.61826950311660767 0.2226487398147583 0.61896634101867676
0.76864880323410034 0.30282914638519287 0.68631559610366821
0.13267305493354797 0.41131207346916199 0.61033552885055542
0.28632256388664246 0.48461344838142395 0.67758661508560181
0.53600025177001953 0.5345844030380249 0.72967946529388428
0.77943187952041626 0.58593577146530151 0.78062891960144043
0.92207425832748413 0.65416449308395386 0.84906506538391113
0.29618573188781738 0.76832300424575806 0.7715606689453125
0.43750953674316406 0.82919251918792725 0.82946771383285522
0.66139763593673706 0.85709238052368164 0.85699039697647095
0.86659717559814453 0.86408722400665283 0.86613106727600098
0.96538072824478149 0.88884866237640381 0.88969522714614868
0.46535381674766541 0.99611121416091919 0.92995941638946533
0.55929946899414062 0.99704056978225708 0.94296169281005859
0.73819148540496826 0.99677532911300659 0.92919760942459106
0.91443735361099243 0.98793619871139526 0.9141460657119751
0.99373191595077515 0.99145722389221191 0.91520476341247559
0.015940796583890915 0.015476376749575138 0.56437176465988159
0.11967791616916656 0.012335279956459999 0.56059902906417847
0.29391935467720032 0.0092083951458334923 0.54731494188308716
0.48703053593635559 0.028686897829174995 0.56692773103713989
0.62695139646530151 0.071382410824298859 0.62750852108001709
0.062840431928634644 0.15003451704978943 0.61690592765808105
0.18813806772232056 0.18174576759338379 0.65427714586257935
0.40266132354736328 0.20700240135192871 0.67253637313842773
0.63880842924118042 0.25897213816642761 0.7193986177444458
0.7967798113822937 0.33810687065124512 0.79415535926818848
0.16006888449192047 0.43777862191200256 0.70400488376617432
0.31990092992782593 0.51359480619430542 0.77789026498794556
0.56198853254318237 0.55890744924545288 0.82592302560806274
0.80003052949905396 0.60514152050018311 0.87551259994506836
0.94505113363265991 0.67759066820144653 0.9451676607131958
0.31633535027503967 0.79116487503051758 0.86558079719543457
0.46153947710990906 0.85284024477005005 0.92431074380874634
0.67648214101791382 0.86930596828460693 0.94691497087478638
0.87309324741363525 0.86782872676849365 0.94743883609771729
0.96872836351394653 0.89523553848266602 0.96848171949386597
0.46646130084991455 0.99564278125762939 0.99731510877609253
0.56312668323516846 1 1
0.74286961555480957 0.99945247173309326 0.99970108270645142
0.91223657131195068 0.99272412061691284 0.99448186159133911
0.99575316905975342 0.99491572380065918 0.99595886468887329
