assets/lut/alexjordan orange dark look.cube
# Created by: G'MIC (https://gmic.eu)
TITLE "orange_dark_look"
# LUT size
LUT_3D_SIZE 7
# Data domain
DOMAIN_MIN 0.0 0.0 0.0
DOMAIN_MAX 1.0 1.0 1.0
# LUT data points
0 0 0
0.012982835993170738 0.0005882711848244071 0
0.090894110500812531 0.00073206285014748573 0.00019311343203298748
0.18093398213386536 0 0
0.27375417947769165 0 0
0.38262435793876648 7.9345700214616954e-05 4.434024594957009e-05
0.5077093243598938 0.011337623931467533 0.0061751273460686207
0.0046142577193677425 0.016576251015067101 0.00072238396387547255
0.048597373068332672 0.038006339222192764 0.014092957600951195
0.15985143184661865 0.046054869890213013 0.019381849095225334
0.29734784364700317 0.05039520189166069 0.021014777943491936
0.44050031900405884 0.080099932849407196 0.038485012948513031
0.59357690811157227 0.11091835051774979 0.056660760194063187
0.74114418029785156 0.13742257654666901 0.066755674779415131
0.050487324595451355 0.14236186444759369 0.036384418606758118
0.12604726850986481 0.19051028788089752 0.067197032272815704
0.27579057216644287 0.22599256038665771 0.088786259293556213
0.44258362054824829 0.25618484616279602 0.1075313612818718
0.58776795864105225 0.29211592674255371 0.12910610437393188
0.72761416435241699 0.328126460313797 0.14969177544116974
0.85830581188201904 0.35785287618637085 0.16586162149906158
0.11636831611394882 0.37386807799339294 0.099436752498149872
0.2227039635181427 0.42951396107673645 0.1417788565158844
0.38992482423782349 0.45871928334236145 0.17133499681949615
0.55484223365783691 0.47970312833786011 0.19122405350208282
0.68469840288162231 0.50424051284790039 0.20723815262317657
0.79992592334747314 0.53368490934371948 0.22236110270023346
0.91314858198165894 0.56039965152740479 0.23933839797973633
0.18124011158943176 0.60186481475830078 0.16257648169994354
0.30177086591720581 0.64609909057617188 0.20315277576446533
0.47230720520019531 0.65844929218292236 0.23194250464439392
0.63326197862625122 0.66497725248336792 0.25240802764892578
0.75374472141265869 0.6821485161781311 0.26709073781967163
0.85894924402236938 0.70541143417358398 0.27357703447341919
0.95603328943252563 0.72904539108276367 0.28746497631072998
0.23296715319156647 0.79383111000061035 0.22246704995632172
0.35705304145812988 0.82498270273208618 0.25569665431976318
0.52958428859710693 0.82404738664627075 0.28032675385475159
0.68845194578170776 0.82161009311676025 0.29852294921875
0.80457156896591187 0.8332628607749939 0.31225606799125671
0.90475887060165405 0.84986215829849243 0.31155455112457275
0.99129921197891235 0.86878901720046997 0.32023531198501587
0.27826386690139771 0.95477515459060669 0.28038662672042847
0.40922403335571289 0.97259283065795898 0.30079641938209534
0.5767446756362915 0.96556025743484497 0.32214313745498657
0.72893619537353516 0.96040624380111694 0.33695700764656067
0.84519690275192261 0.96650665998458862 0.3495943546295166
0.94104444980621338 0.9784386157989502 0.35254892706871033
1 0.99075478315353394 0.36152550578117371
0.00030640247859992087 4.4878790504299104e-05 0
0.018076054751873016 0.001757453428581357 8.3324957813601941e-05
0.084872797131538391 0 0
0.18826429545879364 1.077091019396903e-05 8.3115519373677671e-05
0.29568973183631897 0.003156998660415411 0.0028209162410348654
0.3960186243057251 0.00070944393519312143 0.00053316005505621433
0.53431791067123413 0.0075517394579946995 0.0065964194945991039
0.016419623047113419 0.023764815181493759 0.0042503206059336662
0.055492956191301346 0.043697729706764221 0.02166830375790596
0.16247625648975372 0.051008995622396469 0.025580732151865959
0.31832420825958252 0.066078290343284607 0.033198367804288864
0.47306853532791138 0.095990650355815887 0.054592866450548172
0.62118959426879883 0.12358775734901428 0.079309277236461639
0.76684355735778809 0.15761186182498932 0.10506566613912582
0.065766908228397369 0.16398768126964569 0.05326760932803154
0.1443328857421875 0.21159736812114716 0.089772544801235199
0.29359984397888184 0.24435530602931976 0.11315641552209854
0.46534141898155212 0.27710339426994324 0.12780675292015076
0.61505746841430664 0.3114812970161438 0.15190212428569794
0.7521938681602478 0.3474029004573822 0.17924514412879944
0.87668406963348389 0.37925964593887329 0.20742475986480713
0.14088673889636993 0.40082603693008423 0.12954120337963104
0.23979982733726501 0.45078405737876892 0.17002169787883759
0.4080834686756134 0.47590649127960205 0.19729913771152496
0.57329815626144409 0.49793371558189392 0.21654951572418213
0.70408093929290771 0.52140820026397705 0.2361065000295639
0.81776553392410278 0.54979640245437622 0.25458857417106628
0.92542380094528198 0.5771641731262207 0.27791330218315125
0.21229678392410278 0.62490338087081909 0.19902025163173676
0.32081019878387451 0.66268664598464966 0.23638512194156647
0.48763090372085571 0.67331588268280029 0.25901338458061218
0.6473880410194397 0.68055051565170288 0.27854135632514954
0.76949870586395264 0.6952747106552124 0.29713353514671326
0.87393593788146973 0.71632176637649536 0.30180123448371887
0.96760046482086182 0.73914432525634766 0.31663540005683899
0.2623366117477417 0.81095004081726074 0.26678699254989624
0.37816515564918518 0.83666312694549561 0.28829842805862427
0.54087346792221069 0.83693897724151611 0.30892971158027649
0.69834178686141968 0.83542639017105103 0.32706502079963684
0.81759554147720337 0.84465897083282471 0.34080690145492554
0.91642940044403076 0.85902959108352661 0.34127750992774963
0.99615883827209473 0.87667655944824219 0.35846441984176636
0.29759934544563293 0.96778887510299683 0.33256915211677551
0.42008572816848755 0.98129737377166748 0.33477836847305298
0.58196216821670532 0.97670763731002808 0.35262623429298401
0.73770129680633545 0.97150617837905884 0.36982998251914978
0.85565483570098877 0.97550386190414429 0.38289070129394531
0.94919854402542114 0.9838104248046875 0.38551139831542969
1 0.9933508038520813 0.4061470627784729
0.0038958829827606678 0.0031911812257021666 0.03099212609231472
0.024047194048762321 0.0044556264765560627 0.027346936985850334
0.093008391559123993 0.00044054517638869584 0.017545513808727264
0.19423167407512665 4.3083641685370822e-06 0.026306167244911194
0.29558232426643372 0.00039995979750528932 0.029108129441738129
0.40451177954673767 0.0065636727958917618 0.030667053535580635
0.54799282550811768 0.016249982640147209 0.060377009212970734
0.017356438562273979 0.031663946807384491 0.048225283622741699
0.059972383081912994 0.050983309745788574 0.065755985677242279
0.17159256339073181 0.061654496937990189 0.082026012241840363
0.33436852693557739 0.082349322736263275 0.1095525249838829
0.48474517464637756 0.10442455857992172 0.13359558582305908
0.62775003910064697 0.13903404772281647 0.1736806184053421
0.77261704206466675 0.17224873602390289 0.21847116947174072
0.074979864060878754 0.17901797592639923 0.12168134748935699
0.16549716889858246 0.22341687977313995 0.16306643187999725
0.30488491058349609 0.26641654968261719 0.2039581686258316
0.46883845329284668 0.29435062408447266 0.22798432409763336
0.61624288558959961 0.32664260268211365 0.25406354665756226
0.74738448858261108 0.36590847373008728 0.28687414526939392
0.86722433567047119 0.40075737237930298 0.32238075137138367
0.16572172939777374 0.41825294494628906 0.22464762628078461
0.2677311897277832 0.45853307843208313 0.27137133479118347
0.4356696605682373 0.4809499979019165 0.30881646275520325
0.57398056983947754 0.50837594270706177 0.33033198118209839
0.69836956262588501 0.53427058458328247 0.34832194447517395
0.81119066476821899 0.5631832480430603 0.36814281344413757
0.91374361515045166 0.58839082717895508 0.39424028992652893
0.242062047123909 0.63557946681976318 0.30853667855262756
0.34185692667961121 0.66572350263595581 0.3510386049747467
0.507152259349823 0.67332041263580322 0.37739807367324829
0.65665656328201294 0.6846197247505188 0.39988458156585693
0.76896846294403076 0.70329409837722778 0.41526436805725098
0.87206000089645386 0.72336697578430176 0.42112457752227783
0.96183830499649048 0.74502718448638916 0.43608763813972473
0.28897041082382202 0.81423491239547729 0.38211610913276672
0.39597699046134949 0.83607345819473267 0.40391471982002258
0.55587053298950195 0.83573287725448608 0.4261547327041626
0.7101176381111145 0.83759796619415283 0.44687703251838684
0.82366055250167847 0.84951722621917725 0.4603438675403595
0.91843956708908081 0.86418271064758301 0.46343210339546204
0.99552124738693237 0.8812670111656189 0.48435813188552856
0.31460490822792053 0.96996498107910156 0.44435769319534302
0.43399468064308167 0.98053288459777832 0.44656354188919067
0.59683871269226074 0.97543585300445557 0.46799930930137634
0.75157362222671509 0.97171729803085327 0.49076411128044128
0.86477780342102051 0.97790002822875977 0.50150549411773682
0.95434117317199707 0.98680275678634644 0.50708776712417603
1 0.99481165409088135 0.52795958518981934
0.0050626266747713089 0.0017936257645487785 0.12426207214593887
0.023306408897042274 0.0015742582036182284 0.11528294533491135
0.09606664627790451 0.0021158703602850437 0.1053210124373436
0.19288827478885651 0 0.10392609983682632
0.2997572124004364 0 0.11954951286315918
0.41914659738540649 0.0057964250445365906 0.14985807240009308
0.55236303806304932 0.02653045579791069 0.19574138522148132
0.019845984876155853 0.032661676406860352 0.16262894868850708
0.070037573575973511 0.053550779819488525 0.18899513781070709
0.19021898508071899 0.067782141268253326 0.20182700455188751
0.34183585643768311 0.086924836039543152 0.23474955558776855
0.49886217713356018 0.11756613105535507 0.28635415434837341
0.64244890213012695 0.15420094132423401 0.33844092488288879
0.78053319454193115 0.1895943284034729 0.38944390416145325
0.079613208770751953 0.19097118079662323 0.25527235865592957
0.16750314831733704 0.2430836409330368 0.30175316333770752
0.32427266240119934 0.276763916015625 0.324750155210495
0.47032269835472107 0.30636480450630188 0.36171171069145203
0.61686855554580688 0.34225174784660339 0.40912055969238281
0.75107485055923462 0.37633481621742249 0.45215106010437012
0.86901664733886719 0.4057486355304718 0.48701533675193787
0.17258936166763306 0.42888149619102478 0.3788866400718689
0.27535507082939148 0.47147160768508911 0.4204748272895813
0.44820761680603027 0.49080914258956909 0.44352462887763977
0.56787610054016113 0.52209925651550293 0.46354907751083374
0.68876796960830688 0.54510354995727539 0.49531471729278564
0.80014461278915405 0.57195937633514404 0.52076917886734009
0.89814549684524536 0.5966680645942688 0.54292625188827515
0.25040173530578613 0.63957870006561279 0.47719690203666687
0.34856647253036499 0.67006808519363403 0.51281058788299561
0.52371209859848022 0.67531532049179077 0.53167498111724854
0.67498970031738281 0.68380999565124512 0.55973416566848755
0.76230782270431519 0.7094460129737854 0.57413089275360107
0.85910624265670776 0.72935235500335693 0.58680635690689087
0.94660884141921997 0.75189328193664551 0.60083979368209839
0.29805788397789001 0.81341683864593506 0.54718506336212158
0.40488758683204651 0.83437031507492065 0.569965660572052
0.57347053289413452 0.83257287740707397 0.58856660127639771
0.73435735702514648 0.8320353627204895 0.61211216449737549
0.83437776565551758 0.8479684591293335 0.63226640224456787
0.91432607173919678 0.86705774068832397 0.63658195734024048
0.991008460521698 0.88476657867431641 0.65101802349090576
0.32082411646842957 0.97016012668609619 0.5952485203742981
0.44482976198196411 0.97766971588134766 0.6127135157585144
0.61865007877349854 0.96958422660827637 0.63402217626571655
0.77205032110214233 0.96613287925720215 0.64831572771072388
0.87857556343078613 0.97602057456970215 0.65951061248779297
0.95946097373962402 0.98723429441452026 0.66759264469146729
1 0.99510985612869263 0.68141466379165649
0.00059480854542925954 0 0.21299867331981659
0.017890989780426025 0.0017335180891677737 0.21063768863677979
0.094184339046478271 0.004200235940515995 0.19090062379837036
0.20140776038169861 0 0.19171664118766785
0.31967940926551819 0 0.22191339731216431
0.44713667035102844 0.0049080643802881241 0.27055969834327698
0.57176458835601807 0.025341438129544258 0.31940808892250061
0.021070621907711029 0.037594050168991089 0.26983243227005005
0.076435521245002747 0.060510866343975067 0.3010677695274353
0.20439265668392181 0.082836717367172241 0.31366223096847534
0.35938557982444763 0.096744999289512634 0.34410521388053894
0.52118104696273804 0.12436355650424957 0.40507769584655762
0.66428399085998535 0.16320350766181946 0.46488997340202332
0.79259133338928223 0.20207604765892029 0.51372742652893066
0.086625762283802032 0.20812311768531799 0.37687605619430542
0.17747180163860321 0.25804674625396729 0.42514696717262268
0.34180566668510437 0.2920086681842804 0.44441193342208862
0.49779629707336426 0.31859955191612244 0.47016936540603638
0.63695418834686279 0.35255992412567139 0.51973247528076172
0.76537752151489258 0.3856050968170166 0.56903016567230225
0.88259035348892212 0.41454797983169556 0.61155468225479126
0.1798517256975174 0.4455924928188324 0.50600802898406982
0.28084111213684082 0.48887747526168823 0.54363495111465454
0.45181742310523987 0.5067896842956543 0.54744112491607666
0.5933992862701416 0.52895444631576538 0.5492558479309082
0.70332157611846924 0.55681759119033813 0.58788752555847168
0.80406755208969116 0.58368182182312012 0.62447762489318848
0.90032190084457397 0.60717892646789551 0.65266656875610352
0.25454801321029663 0.65128117799758911 0.60118168592453003
0.35905295610427856 0.68097364902496338 0.63164317607879639
0.53000688552856445 0.6859053373336792 0.63198798894882202
0.68372267484664917 0.69315344095230103 0.63070744276046753
0.75964951515197754 0.72311049699783325 0.65002965927124023
0.85056471824645996 0.74312198162078857 0.68336284160614014
0.94011771678924561 0.76135283708572388 0.70685416460037231
0.29569938778877258 0.82368141412734985 0.66892707347869873
0.4065525233745575 0.84254461526870728 0.69375020265579224
0.57723730802536011 0.84041959047317505 0.69949615001678467
0.74548041820526123 0.83654212951660156 0.70953655242919922
0.85355585813522339 0.84743708372116089 0.73338854312896729
0.91090220212936401 0.87356346845626831 0.74456202983856201
0.98324066400527954 0.89002811908721924 0.75930666923522949
0.32024756073951721 0.97585797309875488 0.72154730558395386
0.44542065262794495 0.98273384571075439 0.74165070056915283
0.61788606643676758 0.97601205110549927 0.74969607591629028
0.7790265679359436 0.96972751617431641 0.75669872760772705
0.89592540264129639 0.97409570217132568 0.77436310052871704
0.96802133321762085 0.98598825931549072 0.78937959671020508
1 0.99506551027297974 0.80271369218826294
0.00048386817798018456 0 0.28053683042526245
0.018483659252524376 0.00022565056860912591 0.2798086404800415
0.09303564578294754 0 0.2577914297580719
0.21270863711833954 2.1541820842685411e-06 0.27058389782905579
0.33043941855430603 0.00045112162479199469 0.29970160126686096
0.46847513318061829 0.0065646152943372726 0.35925540328025818
0.60197627544403076 0.024745402857661247 0.41778528690338135
0.025311354547739029 0.042912844568490982 0.35461315512657166
0.083038285374641418 0.070409856736660004 0.38963791728019714
0.21895867586135864 0.086314991116523743 0.40791049599647522
0.38737499713897705 0.10486604273319244 0.44543924927711487
0.53840351104736328 0.13612397015094757 0.49825996160507202
0.68206018209457397 0.17298799753189087 0.55971813201904297
0.81014692783355713 0.21039588749408722 0.61145699024200439
0.09425024688243866 0.21887709200382233 0.47460192441940308
0.18879497051239014 0.27745166420936584 0.53015273809432983
0.3577025830745697 0.30665281414985657 0.54676228761672974
0.52529126405715942 0.33210128545761108 0.57126337289810181
0.66331654787063599 0.36463508009910583 0.61738693714141846
0.78889316320419312 0.39536532759666443 0.6656373143196106
0.90366989374160767 0.42390882968902588 0.70863229036331177
0.18818648159503937 0.4583640992641449 0.6044202446937561
0.29044204950332642 0.50353813171386719 0.64214730262756348
0.45898997783660889 0.51904976367950439 0.64017832279205322
0.61003994941711426 0.5399356484413147 0.64150583744049072
0.72492402791976929 0.56875085830688477 0.67144536972045898
0.82273346185684204 0.59440308809280396 0.70447355508804321
0.91831165552139282 0.61607319116592407 0.73664289712905884
0.26039797067642212 0.66048258543014526 0.69677269458770752
0.3630969226360321 0.69191223382949829 0.72159218788146973
0.53173840045928955 0.696036696434021 0.71582472324371338
0.68259835243225098 0.70387774705886841 0.70738518238067627
0.78312414884567261 0.7292981743812561 0.71783101558685303
0.86291086673736572 0.7520410418510437 0.74664318561553955
0.94641268253326416 0.76904487609863281 0.77670657634735107
0.29465815424919128 0.83281344175338745 0.7625698447227478
0.40480723977088928 0.85304421186447144 0.78055167198181152
0.57809078693389893 0.85034120082855225 0.77691590785980225
0.74436718225479126 0.84687823057174683 0.77042198181152344
0.85632598400115967 0.85915273427963257 0.77529990673065186
0.91449809074401855 0.88428449630737305 0.79488933086395264
0.97414129972457886 0.90002036094665527 0.82212692499160767
0.3211837112903595 0.98289304971694946 0.81469917297363281
0.44579741358757019 0.98914927244186401 0.82898420095443726
0.61896395683288574 0.98364537954330444 0.82675850391387939
0.78384017944335938 0.97692817449569702 0.82458019256591797
0.90545666217803955 0.97857511043548584 0.83862876892089844
0.9837152361869812 0.98352944850921631 0.86867713928222656
0.99967348575592041 0.99590587615966797 0.88424688577651978
0.0087421638891100883 0.0045421374961733818 0.34520676732063293
0.028881670907139778 3.9672850107308477e-05 0.34307843446731567
0.10987077653408051 0 0.33915558457374573
0.23121491074562073 0.0041009490378201008 0.34814080595970154
0.35069957375526428 0.01977965421974659 0.37203657627105713
0.49222049117088318 0.023578599095344543 0.43623849749565125
0.62295722961425781 0.033172111958265305 0.4948485791683197
0.040389880537986755 0.064887106418609619 0.43552118539810181
0.095255866646766663 0.079471930861473083 0.4656766951084137
0.23544229567050934 0.094942234456539154 0.49326241016387939
0.41329160332679749 0.12266726046800613 0.53400999307632446
0.56374198198318481 0.16219252347946167 0.58613890409469604
0.70296251773834229 0.19548070430755615 0.64220738410949707
0.83498942852020264 0.22552123665809631 0.69845354557037354
0.10659794509410858 0.23345896601676941 0.55647939443588257
0.20152702927589417 0.28753471374511719 0.60576021671295166
0.36834949254989624 0.31609559059143066 0.62544906139373779
0.54576516151428223 0.34708830714225769 0.65699994564056396
0.68824392557144165 0.3739197850227356 0.70416200160980225
0.80820256471633911 0.40671160817146301 0.74557888507843018
0.92779922485351562 0.43330353498458862 0.79305183887481689
0.19641764461994171 0.47411862015724182 0.68547886610031128
0.2934417724609375 0.51457756757736206 0.71847105026245117
0.46706432104110718 0.52993643283843994 0.7149539589881897
0.62417316436767578 0.55331176519393921 0.72315853834152222
0.74137264490127563 0.576771080493927 0.74652111530303955
0.83689290285110474 0.60258734226226807 0.77077943086624146
0.9400947093963623 0.62105029821395874 0.81110644340515137
0.26092630624771118 0.67072880268096924 0.77462673187255859
0.36779946088790894 0.69913977384567261 0.79531317949295044
0.53823518753051758 0.70569026470184326 0.7890392541885376
0.68770134449005127 0.71661245822906494 0.78116905689239502
0.79497909545898438 0.73555707931518555 0.78750061988830566
0.88085401058197021 0.75762373208999634 0.80614626407623291
0.96035152673721313 0.77776080369949341 0.83471500873565674
0.29626914858818054 0.84000134468078613 0.83893167972564697
0.41370499134063721 0.85905516147613525 0.85258787870407104
0.58690720796585083 0.85671776533126831 0.84483242034912109
0.74455976486206055 0.8556860089302063 0.83423930406570435
0.85415160655975342 0.86748355627059937 0.83369898796081543
0.93017536401748657 0.89019858837127686 0.84076589345932007
0.98719131946563721 0.90871036052703857 0.86589497327804565
0.32487675547599792 0.98726296424865723 0.88977640867233276
0.44799476861953735 0.99346107244491577 0.90011531114578247
0.62657362222671509 0.98767858743667603 0.89056926965713501
0.79079508781433105 0.98197239637374878 0.88319677114486694
0.90816253423690796 0.98503202199935913 0.8888707160949707
0.99197280406951904 0.99163639545440674 0.89632928371429443
0.99994611740112305 0.99954688549041748 0.91189074516296387
