assets/lut/alexjordan dark green 02.cube
# Created by: G'MIC (https://gmic.eu)
TITLE "dark_green_02"
# LUT size
LUT_3D_SIZE 13
# Data domain
DOMAIN_MIN 0.0 0.0 0.0
DOMAIN_MAX 1.0 1.0 1.0
# LUT data points
0 0 0
0 0 0
0 4.6673943870700896e-05 0
0.020498597994446754 0.0024689917918294668 9.6848430985119194e-05
0.079876631498336792 0.002074133139103651 0.00035413855221122503
0.14175403118133545 0.0011085061123594642 0.00035783357452601194
0.19992721080780029 0.0010435516014695168 0.00074133777525275946
0.26164567470550537 0.0021392970811575651 0.0011242586188018322
0.33253970742225647 0.0037243713159114122 0.00034169215359725058
0.41241171956062317 0.0033008051104843616 0
0.50058597326278687 0.00026269053341820836 0
0.59707880020141602 0 0
0.69916379451751709 0 0
0 0 0
0 0 0
0 0 0
0.011433051899075508 0.00037092319689691067 0
0.063263505697250366 7.0145550125744194e-05 0
0.12370985746383667 0 0.00011436612112447619
0.18505269289016724 0 0.00059741153381764889
0.25057834386825562 7.6353782787919044e-05 0.0001005434532999061
0.32455995678901672 0.0025181937962770462 0
0.40775567293167114 0.0054500354453921318 4.0450751839671284e-05
0.49871045351028442 0.0020537134259939194 2.5281718990299851e-05
0.5979805588722229 0 0
0.70264625549316406 0 0
0 0 0
0 0 0
0 0 0
0.0093109132722020149 0 0
0.054713081568479538 0 0
0.11521871387958527 0 0.001529065310023725
0.18247997760772705 9.918212890625e-05 0.0038256775587797165
0.25490748882293701 0.00076003727735951543 0.0012850144412368536
0.33197411894798279 0.0081266667693853378 0
0.41659471392631531 0.016925139352679253 0
0.50924146175384521 0.013573052361607552 0
0.60949307680130005 0.0027049344498664141 0
0.7151448130607605 2.154182038793806e-05 0
0 0.0083632227033376694 0
0 0.006490116473287344 5.561978105106391e-05
0.0012977450387552381 0.0095282914116978645 0.0016635371139273047
0.016916835680603981 0.017732119187712669 5.3091611334821209e-05
0.059751294553279877 0.021598218008875847 0
0.12064505368471146 0.026156436651945114 0.00056035659508779645
0.19150891900062561 0.028306296095252037 0.0010097578633576632
0.2688349187374115 0.029852578416466713 7.4169685831293464e-05
0.34964430332183838 0.04312509298324585 0
0.43542146682739258 0.055716123431921005 0
0.52916616201400757 0.055619813501834869 0
0.6300385594367981 0.042371325194835663 0
0.7356075644493103 0.030091797932982445 0
0 0.063307411968708038 0
0 0.064254134893417358 0
0.0028678744565695524 0.071400463581085205 0.0001011268759611994
0.022097375243902206 0.083585403859615326 0
0.067977234721183777 0.095366701483726501 0
0.13134779036045074 0.10433118045330048 0
0.2055598646402359 0.10587047785520554 0
0.28612148761749268 0.10732545703649521 0
0.37045103311538696 0.11707832664251328 0
0.45946198701858521 0.12848541140556335 0
0.55487579107284546 0.13232900202274323 5.8880974393105134e-05
0.65674853324890137 0.1262412816286087 0.00013236251834314317
0.76269274950027466 0.11910482496023178 0.00011213713878532872
0 0.14450077712535858 0
0 0.14918211102485657 0
0.0028714197687804699 0.15932534635066986 0
0.028247145935893059 0.17254398763179779 0
0.078855700790882111 0.18554900586605072 0
0.14620581269264221 0.19595763087272644 0
0.22324369847774506 0.20181843638420105 0
0.3065563440322876 0.20692087709903717 2.2618911316385493e-05
0.39399626851081848 0.21502907574176788 0.00019124349637422711
0.48595312237739563 0.22479778528213501 0.00082660751650109887
0.58378642797470093 0.23099517822265625 0.0022990508005023003
0.68705379962921143 0.23078164458274841 0.0035762861371040344
0.79380911588668823 0.22986707091331482 0.0044693290255963802
0 0.23921994864940643 0
0 0.24563133716583252 0
0.0047109713777899742 0.25713068246841431 1.077091019396903e-05
0.037126459181308746 0.27127045392990112 0.00063521444099023938
0.092623919248580933 0.28565603494644165 0.00062632840126752853
0.16408152878284454 0.29804244637489319 0.00029063504189252853
0.24463294446468353 0.3077942430973053 0.00042545094038359821
0.33019179105758667 0.31622713804244995 0.0013042076025158167
0.41978883743286133 0.32547852396965027 0.0030865687876939774
0.51401376724243164 0.3345949649810791 0.0056340238079428673
0.6140332818031311 0.34217825531959534 0.0084631973877549171
0.71938365697860718 0.34668105840682983 0.011365044862031937
0.828014075756073 0.35149583220481873 0.01474284753203392
0 0.34501248598098755 0
0 0.35257771611213684 0
0.0075627644546329975 0.36439770460128784 0.00076524325413629413
0.047607570886611938 0.37962004542350769 0.0042322645895183086
0.10941296815872192 0.39581301808357239 0.0033029592595994473
0.18530294299125671 0.41019445657730103 0.0017830792348831892
0.26875790953636169 0.42237800359725952 0.0023658154532313347
0.35607796907424927 0.43317979574203491 0.0053867865353822708
0.44756925106048584 0.44352135062217712 0.010005622170865536
0.54361361265182495 0.45352903008460999 0.014585188589990139
0.64552921056747437 0.46256247162818909 0.018540101125836372
0.75349986553192139 0.47102811932563782 0.022592537105083466
0.86423802375793457 0.48021480441093445 0.027947952970862389
0 0.46068689227104187 0
7.8986677181092091e-06 0.47001445293426514 0
0.014377608895301819 0.48300454020500183 0.0023810293059796095
0.062293153256177902 0.49930480122566223 0.0079545266926288605
0.12934456765651703 0.51632380485534668 0.0075721591711044312
0.20882329344749451 0.53157925605773926 0.0055195228196680546
0.29445132613182068 0.54494631290435791 0.0073128943331539631
0.38373664021492004 0.55680298805236816 0.013372099958360195
0.47709265351295471 0.56810754537582397 0.021136250346899033
0.57492786645889282 0.57907813787460327 0.027139401063323021
0.67849421501159668 0.58971703052520752 0.03086559846997261
0.78890079259872437 0.60065293312072754 0.03526102751493454
0.90213370323181152 0.61483430862426758 0.042421095073223114
0 0.58461922407150269 0
0.0010179257951676846 0.59727609157562256 0
0.028646072372794151 0.61292803287506104 0.002688433974981308
0.082328617572784424 0.62986928224563599 0.0092780468985438347
0.15208004415035248 0.64621871709823608 0.012164919637143612
0.2330767810344696 0.66082918643951416 0.01337884645909071
0.32056993246078491 0.67379570007324219 0.017421318218111992
0.41222110390663147 0.68592667579650879 0.025895571336150169
0.50816404819488525 0.69778776168823242 0.035564720630645752
0.60813099145889282 0.71053904294967651 0.042126420885324478
0.71321916580200195 0.7224586009979248 0.043956097215414047
0.82527649402618408 0.7349473237991333 0.047464273869991302
0.9403613805770874 0.75450998544692993 0.05608508363366127
0 0.71398580074310303 0
0.0059527377597987652 0.73028713464736938 0.0002062629209831357
0.046326085925102234 0.74900603294372559 0.0034645530395209789
0.10437945276498795 0.76684635877609253 0.0099322004243731499
0.17645159363746643 0.78212755918502808 0.016259405761957169
0.25861522555351257 0.79424262046813965 0.022375278174877167
0.34769898653030396 0.80511802434921265 0.029768386855721474
0.44160947203636169 0.81625962257385254 0.039744582027196884
0.54007422924041748 0.82915675640106201 0.050382066518068314
0.64236921072006226 0.84618639945983887 0.057347975671291351
0.74906456470489502 0.86529302597045898 0.058823142200708389
0.86204206943511963 0.88107293844223022 0.060900475829839706
0.97237116098403931 0.89542490243911743 0.069745846092700958
0 0.84401988983154297 0.00016299977141898125
0.016691515222191811 0.86359244585037231 0.0015289605362340808
0.065806731581687927 0.8843187689781189 0.0057607614435255527
0.12707667052745819 0.90384989976882935 0.011719796806573868
0.20081330835819244 0.9182472825050354 0.019440550357103348
0.28493669629096985 0.92608100175857544 0.029903382062911987
0.375946044921875 0.9321361780166626 0.041208844631910324
0.47211828827857971 0.93965208530426025 0.053177028894424438
0.57256722450256348 0.95052427053451538 0.064642585813999176
0.67703384160995483 0.96503633260726929 0.072739511728286743
0.7862963080406189 0.98094385862350464 0.076830290257930756
0.9005204439163208 0.9903678297996521 0.081188470125198364
0.99189287424087524 0.98765021562576294 0.090172231197357178
0.0016882354393601418 0.96634179353713989 0.0036741818767040968
0.034327354282140732 0.97986143827438354 0.006804746575653553
0.088307023048400879 0.99014806747436523 0.011660736985504627
0.1521793007850647 0.99647301435470581 0.01743398979306221
0.22734536230564117 0.99906331300735474 0.026237187907099724
0.31319448351860046 0.99983894824981689 0.039585262537002563
0.40607813000679016 0.99992531538009644 0.053914356976747513
0.50414258241653442 1 0.067806079983711243
0.60645079612731934 1 0.080475829541683197
0.7130618691444397 1 0.090761654078960419
0.82409119606018066 1 0.099343381822109222
0.93741464614868164 1 0.10832377523183823
0.99943703413009644 1 0.11867015808820724
0 0 0
0 0 0
0.00014391132572200149 0.00069116329541429877 4.9202113586943597e-05
0.022714443504810333 0.0053985593840479851 0.00070555444108322263
0.077537596225738525 0.0064774756319820881 0.001555214636027813
0.13598558306694031 0.0061500398442149162 0.0028095918241888285
0.19472330808639526 0.0057480605319142342 0.0046835057437419891
0.25880536437034607 0.0062030567787587643 0.0053596943616867065
0.33181965351104736 0.0068272161297500134 0.004177093505859375
0.41382744908332825 0.0044479221105575562 0.00092752493219450116
0.5035814642906189 0.00049576105084270239 0
0.60038024187088013 0 0
0.70197159051895142 0 0
0 0 0
0 0 0
0 0 0
0.011003067716956139 0.00096990546444430947 0
0.057706106454133987 0.0011731615522876382 0
0.11286421865224838 0.00099029543343931437 2.3037780465529067e-06
0.17613047361373901 0.00024020625278353691 7.8029261203482747e-05
0.24475350975990295 0.00066423602402210236 0.00032888673013076186
0.3215239942073822 0.0030786702409386635 0.00017894670600071549
0.40744921565055847 0.0039112614467740059 3.6202225146553246e-06
0.50047093629837036 0.00058824126608669758 0
0.60052520036697388 0 0
0.70539206266403198 0 0
0 0 0
0 0 0
0 0 0
0.0086106099188327789 0 0
0.051054995507001877 0 0
0.10892152786254883 0 1.8759334125206806e-05
0.17667697370052338 0 5.5066277127480134e-05
0.25055894255638123 0.00020000981749035418 3.7698184769396903e-06
0.32909324765205383 0.0063529969193041325 0
0.4152553379535675 0.014616708271205425 0
0.50976139307022095 0.011987319216132164 0
0.61117523908615112 0.003964143805205822 0
0.71743547916412354 0.0013832690892741084 0
0 0.0074444040656089783 0
0 0.0085055334493517876 0
4.8020305257523432e-05 0.010877631604671478 0
0.013886949047446251 0.018413828685879707 0
0.059669792652130127 0.025009782984852791 0
0.12122310698032379 0.027791446074843407 8.6765667219879106e-06
0.191424161195755 0.02754649706184864 1.5318628356908448e-05
0.26832160353660583 0.027205074205994606 3.1415154921887734e-07
0.34851539134979248 0.041952542960643768 0
0.43478339910507202 0.054613750427961349 0
0.52959245443344116 0.055316627025604248 1.9253002392360941e-05
0.63163107633590698 0.0470912866294384 0
0.73827826976776123 0.041637703776359558 0
0 0.062497202306985855 0
0 0.068349160254001617 0
0.00013403799675870687 0.076636217534542084 1.3164445590518881e-05
0.016738727688789368 0.08830183744430542 0.00010350545198889449
0.069247394800186157 0.097456671297550201 0.00012061923189321533
0.13537028431892395 0.10541302710771561 0.00020618812413886189
0.20800808072090149 0.10818837583065033 0.0005900065298192203
0.28794491291046143 0.10920345783233643 0.00055901025189086795
0.37139970064163208 0.11939004808664322 0.00045010435860604048
0.46017336845397949 0.12975792586803436 0.0015328051522374153
0.55631285905838013 0.13241651654243469 0.0034646575804799795
0.65907555818557739 0.12922483682632446 0.00317408237606287
0.7658577561378479 0.12686115503311157 0.0025319268461316824
0 0.14442858099937439 0
0 0.15242710709571838 0
0.0010506872786208987 0.16498264670372009 0.00049508787924423814
0.024289509281516075 0.17871853709220886 0.0025850033853203058
0.079590022563934326 0.18955691158771515 0.003689066506922245
0.15031881630420685 0.19890323281288147 0.0042837103828787804
0.22718422114849091 0.20560725033283234 0.0059481151401996613
0.30976706743240356 0.21107237040996552 0.0076065510511398315
0.39661452174186707 0.21918384730815887 0.0094606885686516762
0.48833540081977844 0.22773458063602448 0.012623775750398636
0.58640027046203613 0.23277522623538971 0.016359142959117889
0.69033843278884888 0.23345182836055756 0.01787383109331131
0.7980571985244751 0.23472504317760468 0.019103121012449265
0 0.23924601078033447 0
0 0.24798130989074707 0
0.0060144909657537937 0.26143923401832581 0.0020634219981729984
0.037926841527223587 0.27676057815551758 0.008888917975127697
0.094743587076663971 0.29057756066322327 0.011829884722828865
0.167681023478508 0.30252864956855774 0.013088196516036987
0.24868664145469666 0.31224361062049866 0.015937251970171928
0.33427885174751282 0.32111090421676636 0.02065022848546505
0.42372885346412659 0.33007243275642395 0.025509808212518692
0.51783663034439087 0.33887186646461487 0.030024494975805283
0.61802458763122559 0.34543877840042114 0.034018706530332565
0.72416478395462036 0.34981018304824829 0.037355594336986542
0.83346551656723022 0.35495314002037048 0.041485626250505447
0 0.34451460838317871 0
0.00033470601192675531 0.35406926274299622 9.0505564003251493e-06
0.014103549532592297 0.36815831065177917 0.0062086666002869606
0.053169220685958862 0.38440790772438049 0.01790669746696949
0.11371050029993057 0.40037322044372559 0.022201716899871826
0.18950563669204712 0.41459909081459045 0.023843653500080109
0.27300673723220825 0.42699292302131653 0.027959158644080162
0.36078095436096191 0.43808704614639282 0.035287849605083466
0.45239078998565674 0.44865879416465759 0.043167188763618469
0.54838293790817261 0.4587041437625885 0.049362886697053909
0.65070414543151855 0.46751046180725098 0.054006300866603851
0.75998419523239136 0.47453588247299194 0.058871489018201828
0.871745765209198 0.48295101523399353 0.065278731286525726
0 0.45990315079689026 0
0.0013426985824480653 0.47137820720672607 0.00079275394091382623
0.024278707802295685 0.48648205399513245 0.013692773878574371
0.070266261696815491 0.50340491533279419 0.028195129707455635
0.13544009625911713 0.52028053998947144 0.034414269030094147
0.21381308138370514 0.53557801246643066 0.037045855075120926
0.29924610257148743 0.54936099052429199 0.042390786111354828
0.38884678483009338 0.56195586919784546 0.052052948623895645
0.48232182860374451 0.57392966747283936 0.062115132808685303
0.58038038015365601 0.58572858572006226 0.069686800241470337
0.68485581874847412 0.59662789106369019 0.07469603419303894
0.79761326313018799 0.60524040460586548 0.080865882337093353
0.91197246313095093 0.61607486009597778 0.089058548212051392
0 0.58477890491485596 0.00042003556154668331
0.0038415347225964069 0.59892058372497559 0.0059652440249919891
0.037108074873685837 0.61559087038040161 0.022838113829493523
0.090077176690101624 0.63316172361373901 0.038329374045133591
0.15929350256919861 0.64935547113418579 0.047621604055166245
0.23942172527313232 0.66441541910171509 0.053141277283430099
0.32623949646949768 0.67855823040008545 0.059927668422460556
0.41782793402671814 0.69215208292007446 0.070757247507572174
0.51392054557800293 0.70528459548950195 0.082497254014015198
0.61466717720031738 0.71887528896331787 0.091265931725502014
0.7214464545249939 0.73176676034927368 0.095607727766036987
0.83631950616836548 0.74091821908950806 0.10134799778461456
0.95125687122344971 0.75281351804733276 0.11192029714584351
0 0.71527379751205444 0.0060035553760826588
0.0089751444756984711 0.73315954208374023 0.016637854278087616
0.052360773086547852 0.75203126668930054 0.03271821141242981
0.11157398670911789 0.76977455615997314 0.048204414546489716
0.1844642162322998 0.784232497215271 0.060900460928678513
0.26602005958557129 0.79776400327682495 0.069450676441192627
0.3539334237575531 0.81114399433135986 0.077732384204864502
0.44731032848358154 0.82489126920700073 0.089300893247127533
0.54556947946548462 0.84003680944442749 0.10200409591197968
0.64825928211212158 0.85823088884353638 0.1114315539598465
0.75654882192611694 0.87500452995300293 0.11514798551797867
0.87220841646194458 0.88241052627563477 0.12029445916414261
0.97867286205291748 0.88835787773132324 0.13068895041942596
0 0.84761124849319458 0.019665168598294258
0.018937518820166588 0.86803954839706421 0.030503949150443077
0.069999709725379944 0.88927191495895386 0.043589722365140915
0.13331468403339386 0.90734994411468506 0.05759226530790329
0.20883533358573914 0.92052674293518066 0.071366265416145325
0.29240018129348755 0.93056279420852661 0.08287937194108963
0.38217794895172119 0.9402349591255188 0.093891650438308716
0.47757506370544434 0.95112854242324829 0.1064617708325386
0.57729268074035645 0.96386635303497314 0.11924565583467484
0.68107056617736816 0.97787833213806152 0.12909907102584839
0.79076319932937622 0.98710745573043823 0.13508112728595734
0.90583837032318115 0.98808103799819946 0.14154523611068726
0.99359631538391113 0.98558413982391357 0.151585653424263
0.0015643549850210547 0.97045975923538208 0.038374178111553192
0.035333506762981415 0.98349517583847046 0.047086946666240692
0.090691447257995605 0.99251878261566162 0.057346239686012268
0.15697956085205078 0.9972720742225647 0.068920865654945374
0.233770951628685 0.99956971406936646 0.081925049424171448
0.31948468089103699 1 0.09585997462272644
0.41173610091209412 1 0.10966750234365463
0.50910091400146484 1 0.12391761690378189
0.61071348190307617 1 0.13709436357021332
0.71646612882614136 1 0.14860694110393524
0.82644104957580566 1 0.15808583796024323
0.93855941295623779 1 0.16747532784938812
0.99954473972320557 1 0.17848525941371918
0 0 0.0013494155136868358
0 0 0.0038413254078477621
0.00046479469165205956 0.0010952819138765335 0.0065885209478437901
0.025391791015863419 0.0045415093190968037 0.008187687024474144
0.078880250453948975 0.0053027584217488766 0.0088267307728528976
0.13448131084442139 0.006646519061177969 0.011154309846460819
0.19399125874042511 0.0067317290231585503 0.0137748122215271
0.26210099458694458 0.0058357538655400276 0.015937281772494316
0.33762931823730469 0.0051619736477732658 0.014791182242333889
0.41963455080986023 0.0033044402953237295 0.010326220653951168
0.50922268629074097 0.00043484556954354048 0.0029698989819735289
0.60601025819778442 0 6.2531114963348955e-05
0.70712441205978394 0 0
0 0 0.0001554302143631503
0 0 0.00064326269784942269
0 0 0.00049152749124914408
0.0120341582223773 0.00064182654023170471 0.00015605852240696549
0.0580734983086586 0.00045855651842430234 0.00015605852240696549
0.11068826168775558 0.00098330923356115818 0.00042296765604987741
0.17391538619995117 0.00066181254805997014 0.0025327794719487429
0.24638240039348602 0.00023244222393259406 0.0049847173504531384
0.32474187016487122 0.0013104607351124287 0.0061047272756695747
0.41065046191215515 0.001309563172981143 0.0051443660631775856
0.50452029705047607 2.4683335141162388e-05 0.0028193604666739702
0.60493069887161255 0 0.00057760498020797968
0.70975887775421143 0 4.1138893720926717e-05
0 0 0
0 0 0.0001059139467542991
0 0 6.5223845012951642e-05
0.0092934099957346916 0 0
0.052350558340549469 0 3.1415154808200896e-05
0.1092318668961525 0 0.00024937649141065776
0.17579382658004761 0.00049327773740515113 0.00056762696476653218
0.25005844235420227 0.0029900942463427782 0.0016934263985604048
0.32905998826026917 0.0096772583201527596 0.0024802263360470533
0.41622865200042725 0.013366055674850941 0.0042316513136029243
0.5116686224937439 0.0096584390848875046 0.0044965557754039764
0.61430132389068604 0.0045496323145925999 0.0030606288928538561
0.72115594148635864 0.0043347678147256374 0.0014881957322359085
0 0.0076990313827991486 0.00019701790006365627
0 0.0095363091677427292 0.0011216556886211038
0 0.014081708155572414 0.0017761379713192582
0.014667032286524773 0.019192714244127274 0.0017053941264748573
0.06215393915772438 0.023880692198872566 0.0013907488901168108
0.12455864995718002 0.026647530496120453 0.0016972410958260298
0.19285400211811066 0.032651685178279877 0.0019046708475798368
0.26832106709480286 0.039894986897706985 0.002827872522175312
0.34780806303024292 0.050515014678239822 0.0041478774510324001
0.43515264987945557 0.056899350136518478 0.0068681007251143456
0.53118658065795898 0.054749403148889542 0.0094577120617032051
0.63447421789169312 0.049577973783016205 0.0076876021921634674
0.74201071262359619 0.051035098731517792 0.0049531823024153709
0 0.063832677900791168 0.00018101112800650299
0 0.068759456276893616 0.0027512344531714916
4.6973134885774925e-05 0.079105138778686523 0.0064695021137595177
0.018557021394371986 0.090684838593006134 0.0080689825117588043
0.071761593222618103 0.10099831223487854 0.0071885650977492332
0.13892194628715515 0.10946649312973022 0.007488893810659647
0.21120220422744751 0.11429394036531448 0.010851242579519749
0.28932997584342957 0.11963128298521042 0.012915472500026226
0.37261882424354553 0.12868861854076385 0.013440540060400963
0.46188452839851379 0.13416899740695953 0.017825840041041374
0.55866318941116333 0.13414770364761353 0.021989187225699425
0.66235023736953735 0.13214357197284698 0.020633891224861145
0.77022212743759155 0.13529618084430695 0.018487114459276199
0 0.14710673689842224 0.00022962981893215328
0 0.15429648756980896 0.0035460677463561296
0.0014796238392591476 0.1678488701581955 0.011323577724397182
0.026660993695259094 0.18245640397071838 0.017343843355774879
0.083046287298202515 0.19473734498023987 0.020254695788025856
0.15447486937046051 0.20467939972877502 0.023397631943225861
0.23159278929233551 0.21237553656101227 0.028554594144225121
0.31364738941192627 0.21962516009807587 0.033289037644863129
0.40006870031356812 0.22739613056182861 0.036126557737588882
0.49166440963745117 0.23323895037174225 0.039960328489542007
0.59003549814224243 0.23595064878463745 0.043415728956460953
0.69466263055801392 0.23748232424259186 0.044790692627429962
0.8029906153678894 0.24156928062438965 0.046716008335351944
0 0.24160319566726685 0.00020240334561094642
0.00041705861804075539 0.25086730718612671 0.0038092071190476418
0.0096084596589207649 0.2653745710849762 0.016747627407312393
0.041930105537176132 0.28152143955230713 0.028676185756921768
0.099380448460578918 0.29609382152557373 0.035917829722166061
0.17295491695404053 0.30817636847496033 0.041545495390892029
0.2539680004119873 0.3187621533870697 0.048225492238998413
0.33966270089149475 0.32857254147529602 0.055560708045959473
0.42911922931671143 0.33771058917045593 0.061889186501502991
0.52290290594100952 0.34540125727653503 0.066332064568996429
0.62326526641845703 0.35077697038650513 0.070072993636131287
0.7299659252166748 0.35540568828582764 0.073438011109828949
0.83972668647766113 0.36130118370056152 0.078078299760818481
0 0.34586170315742493 0.00018804213323164731
0.0042700073681771755 0.35684347152709961 0.0053685056045651436
0.022431347519159317 0.37245091795921326 0.024181785061955452
0.060283377766609192 0.38975256681442261 0.041524026542901993
0.11996118724346161 0.40589052438735962 0.052179943770170212
0.19496674835681915 0.42021721601486206 0.05966370552778244
0.27847763895988464 0.43285098671913147 0.067628704011440277
0.36661678552627563 0.44489312171936035 0.077197805047035217
0.45852664113044739 0.45619207620620728 0.085969142615795135
0.55496716499328613 0.46632081270217896 0.092542178928852081
0.65825146436691284 0.47460702061653137 0.097665630280971527
0.76815664768218994 0.4813520610332489 0.10280576348304749
0.88008058071136475 0.48902690410614014 0.10926871001720428
0 0.46061611175537109 0.003351608058437705
0.007059822790324688 0.47364062070846558 0.014319984242320061
0.03444945439696312 0.4905560314655304 0.037143722176551819
0.079495340585708618 0.50858914852142334 0.057128548622131348
0.14287345111370087 0.52561163902282715 0.069819025695323944
0.21970432996749878 0.54085850715637207 0.078633099794387817
0.30491533875465393 0.55514734983444214 0.087806731462478638
0.39502054452896118 0.56880879402160645 0.098673097789287567
0.48946887254714966 0.58211374282836914 0.10952614992856979
