assets/lut/alexjordan action magenta 01.cube
# Created by: G'MIC (https://gmic.eu)
TITLE "action_magenta_01"
# LUT size
LUT_3D_SIZE 13
# Data domain
DOMAIN_MIN 0.0 0.0 0.0
DOMAIN_MAX 1.0 1.0 1.0
# LUT data points
0.038182877004146576 0.030975895002484322 0.029567524790763855
0.075230933725833893 0.041516561061143875 0.037228602916002274
0.11986997723579407 0.049967251718044281 0.047695174813270569
0.17892095446586609 0.055626183748245239 0.05569794774055481
0.23761162161827087 0.061338432133197784 0.060139302164316177
0.2845950722694397 0.071132704615592957 0.06791706383228302
0.33926099538803101 0.078055165708065033 0.074980519711971283
0.39827820658683777 0.083564579486846924 0.080851189792156219
0.45349356532096863 0.09078478068113327 0.086877800524234772
0.50529813766479492 0.099513575434684753 0.094335652887821198
0.55621242523193359 0.10862031579017639 0.1043238490819931
0.60626012086868286 0.11733156442642212 0.11579232662916183
0.65446263551712036 0.12523165345191956 0.12485981732606888
0.081952981650829315 0.094628140330314636 0.057015705853700638
0.13468116521835327 0.10101061314344406 0.060570511966943741
0.19307668507099152 0.10551460087299347 0.065113440155982971
0.25310185551643372 0.11106424033641815 0.06887691468000412
0.307259202003479 0.1185765415430069 0.071565531194210052
0.35350599884986877 0.12860068678855896 0.077754899859428406
0.4034150242805481 0.13729889690876007 0.084889538586139679
0.45660820603370667 0.14494262635707855 0.090964987874031067
0.50554227828979492 0.15466028451919556 0.096549555659294128
0.55278760194778442 0.16518115997314453 0.1033170223236084
0.60069406032562256 0.17519946396350861 0.11202771216630936
0.6489795446395874 0.1842898428440094 0.12183728814125061
0.69593232870101929 0.19273076951503754 0.13032025098800659
0.10768193006515503 0.16516903042793274 0.071504227817058563
0.16860266029834747 0.16938269138336182 0.072714798152446747
0.23306436836719513 0.17290478944778442 0.0737471804022789
0.29435604810714722 0.17801724374294281 0.074862554669380188
0.34868431091308594 0.18571877479553223 0.076769210398197174
0.39920717477798462 0.19442826509475708 0.081964679062366486
0.44893136620521545 0.20316576957702637 0.088478356599807739
0.49829426407814026 0.21247917413711548 0.09463781863451004
0.54467171430587769 0.22297598421573639 0.10014829784631729
0.59084546566009521 0.23368629813194275 0.10698577016592026
0.63814675807952881 0.24359002709388733 0.11472360789775848
0.68598753213882446 0.25257289409637451 0.12281534820795059
0.73267596960067749 0.26082924008369446 0.13057172298431396
0.12371006608009338 0.2391827404499054 0.081543505191802979
0.18948449194431305 0.24211785197257996 0.081184595823287964
0.25594154000282288 0.24512666463851929 0.080235905945301056
0.31964537501335144 0.24982902407646179 0.079877488315105438
0.37677696347236633 0.2567499577999115 0.081441961228847504
0.42956149578094482 0.26507070660591125 0.085728228092193604
0.47944724559783936 0.27423012256622314 0.091264374554157257
0.526833176612854 0.28434029221534729 0.096591874957084656
0.57317984104156494 0.29477551579475403 0.10254380106925964
0.62079966068267822 0.30451726913452148 0.10961873829364777
0.66932755708694458 0.31358116865158081 0.11726970225572586
0.71774643659591675 0.32209920883178711 0.12437516450881958
0.76490658521652222 0.33003586530685425 0.13173791766166687
0.13809427618980408 0.31395545601844788 0.091967970132827759
0.20717121660709381 0.31611022353172302 0.090370699763298035
0.27536764740943909 0.3182767927646637 0.088132835924625397
0.34077227115631104 0.32219076156616211 0.086704656481742859
0.40019151568412781 0.32849282026290894 0.088187456130981445
0.45430076122283936 0.33667176961898804 0.092054300010204315
0.5045158863067627 0.34619686007499695 0.097150497138500214
0.55157065391540527 0.35648289322853088 0.10225330293178558
0.59837555885314941 0.36684083938598633 0.10811950266361237
0.64738243818283081 0.37574833631515503 0.11597681790590286
0.69698148965835571 0.3842962384223938 0.12375642359256744
0.74596202373504639 0.39245575666427612 0.13112093508243561
0.79342752695083618 0.4002804160118103 0.13924524188041687
0.15306822955608368 0.38858669996261597 0.10471575707197189
0.22488369047641754 0.38995170593261719 0.10224927961826324
0.29529505968093872 0.39130899310112 0.099590152502059937
0.36244803667068481 0.39417204260826111 0.09775078296661377
0.42357304692268372 0.39969205856323242 0.098999619483947754
0.47931453585624695 0.40758711099624634 0.10311435163021088
0.53045427799224854 0.41688346862792969 0.10851757228374481
0.57852941751480103 0.42687109112739563 0.11426333338022232
0.62577950954437256 0.43681401014328003 0.12064506858587265
0.67450249195098877 0.44585654139518738 0.12833297252655029
0.72377210855484009 0.45454895496368408 0.13612270355224609
0.77246218919754028 0.46283155679702759 0.143792524933815
0.81991034746170044 0.47074505686759949 0.15247558057308197
0.16985397040843964 0.46289786696434021 0.11994224786758423
0.24349574744701385 0.46337839961051941 0.11800955981016159
0.31707111001014709 0.46397387981414795 0.11543826013803482
0.3862101137638092 0.4660288393497467 0.11411093920469284
0.4492948055267334 0.4706692099571228 0.11534247547388077
0.5063510537147522 0.4778544008731842 0.11923933029174805
0.55864989757537842 0.48640796542167664 0.12516367435455322
0.60762429237365723 0.49592158198356628 0.13158769905567169
0.65517204999923706 0.50556766986846924 0.13844053447246552
0.70291328430175781 0.51493680477142334 0.14593009650707245
0.75104051828384399 0.52383530139923096 0.15367303788661957
0.79909592866897583 0.53249150514602661 0.16160464286804199
0.84618115425109863 0.54056191444396973 0.16949889063835144
0.18933171033859253 0.53577309846878052 0.13942407071590424
0.26585829257965088 0.5357099175453186 0.13739240169525146
0.34132200479507446 0.53578770160675049 0.13562330603599548
0.41225442290306091 0.5374494194984436 0.13460305333137512
0.47696256637573242 0.5413210391998291 0.13601915538311005
0.53542697429656982 0.54754543304443359 0.13965015113353729
0.58848577737808228 0.55540835857391357 0.14528940618038177
0.63774746656417847 0.56434953212738037 0.15199697017669678
0.68495446443557739 0.5738598108291626 0.15932510793209076
0.73174566030502319 0.58334511518478394 0.16701632738113403
0.77885705232620239 0.59255301952362061 0.17460331320762634
0.82635694742202759 0.60128194093704224 0.18226614594459534
0.87294650077819824 0.60953319072723389 0.19016915559768677
0.21246372163295746 0.60695958137512207 0.16220414638519287
0.29096141457557678 0.60692316293716431 0.16064180433750153
0.36758679151535034 0.60687476396560669 0.15887606143951416
0.43993404507637024 0.60800683498382568 0.15794457495212555
0.50590920448303223 0.6115419864654541 0.15914431214332581
0.56549221277236938 0.61705678701400757 0.16230295598506927
0.61913770437240601 0.62437117099761963 0.16787885129451752
0.66845983266830444 0.63291418552398682 0.17454244196414948
0.7152894139289856 0.64196926355361938 0.18215684592723846
0.76107138395309448 0.65143698453903198 0.18994531035423279
0.80740177631378174 0.66077220439910889 0.19750429689884186
0.85410362482070923 0.66968446969985962 0.20478770136833191
0.90001338720321655 0.67793649435043335 0.21206294000148773
0.23791936039924622 0.67695873975753784 0.18749441206455231
0.31705442070960999 0.67704200744628906 0.18614321947097778
0.39463627338409424 0.67708396911621094 0.1843925416469574
0.46779143810272217 0.67850148677825928 0.18319788575172424
0.53493571281433105 0.68153661489486694 0.18380756676197052
0.59546786546707153 0.68668603897094727 0.1866266131401062
0.64967715740203857 0.69350636005401611 0.19160439074039459
0.69921016693115234 0.70164585113525391 0.19823050498962402
0.74575293064117432 0.71077150106430054 0.20577606558799744
0.79113924503326416 0.71995359659194946 0.21341024339199066
0.83662807941436768 0.72881299257278442 0.2208189070224762
0.88229566812515259 0.73791420459747314 0.22775499522686005
0.9272383451461792 0.74628585577011108 0.23427625000476837
0.26295793056488037 0.74695104360580444 0.21371211111545563
0.34278881549835205 0.74733144044876099 0.21260267496109009
0.42061170935630798 0.74769490957260132 0.21082593500614166
0.4944603443145752 0.74915516376495361 0.20938506722450256
0.56270265579223633 0.75186538696289062 0.20923298597335815
0.62440359592437744 0.75651109218597412 0.21116580069065094
0.6794811487197876 0.76294106245040894 0.21566089987754822
0.72899144887924194 0.77084076404571533 0.22207753360271454
0.77554577589035034 0.77943867444992065 0.22941695153713226
0.82059168815612793 0.78846973180770874 0.23691979050636292
0.86535024642944336 0.79769885540008545 0.24389810860157013
0.90979039669036865 0.80628514289855957 0.25032418966293335
0.95355409383773804 0.81490182876586914 0.25606539845466614
0.28649058938026428 0.81711721420288086 0.23931662738323212
0.36655405163764954 0.8178558349609375 0.2389625608921051
0.44437932968139648 0.81875473260879517 0.23729859292507172
0.51869004964828491 0.81986445188522339 0.23559707403182983
0.58802396059036255 0.82266527414321899 0.23478849232196808
0.65119767189025879 0.82688122987747192 0.23593617975711823
0.70693349838256836 0.8329697847366333 0.23977647721767426
0.75680446624755859 0.84048712253570557 0.24605473875999451
0.80322414636611938 0.84895682334899902 0.25299742817878723
0.84824222326278687 0.85772490501403809 0.25985383987426758
0.89236801862716675 0.86653816699981689 0.26624134182929993
0.93574172258377075 0.87532502412796021 0.27192938327789307
0.97799569368362427 0.88375395536422729 0.27667099237442017
0.30761054158210754 0.88796794414520264 0.26365554332733154
0.38778096437454224 0.88865852355957031 0.26390469074249268
0.46553859114646912 0.88944470882415771 0.26279172301292419
0.53958398103713989 0.89149373769760132 0.26129898428916931
0.60945338010787964 0.89396953582763672 0.26039889454841614
0.67332154512405396 0.89803653955459595 0.26098689436912537
0.73005163669586182 0.90384787321090698 0.26429468393325806
0.78056991100311279 0.9111219048500061 0.26993623375892639
0.82772797346115112 0.91908448934555054 0.27614986896514893
0.87280124425888062 0.92766851186752319 0.28226810693740845
0.91660588979721069 0.93622070550918579 0.28781065344810486
0.95920765399932861 0.94490385055541992 0.29238793253898621
0.99475544691085815 0.95330750942230225 0.29620543122291565
0.042191717773675919 0.036067605018615723 0.050634961575269699
0.080914199352264404 0.047423899173736572 0.059565570205450058
0.13171820342540741 0.055355057120323181 0.073841527104377747
0.19191908836364746 0.059772253036499023 0.089200504124164581
0.24801324307918549 0.064793199300765991 0.10133229941129684
0.29828974604606628 0.072172172367572784 0.11275698989629745
0.35129013657569885 0.078938469290733337 0.12258192896842957
0.40683385729789734 0.08509509265422821 0.13085351884365082
0.46041497588157654 0.092614524066448212 0.13838110864162445
0.51192545890808105 0.10111553966999054 0.14690098166465759
0.56303417682647705 0.109749436378479 0.15832038223743439
0.6134343147277832 0.11836636066436768 0.17083892226219177
0.66222488880157471 0.12577520310878754 0.18102250993251801
0.086122192442417145 0.097899042069911957 0.09355531632900238
0.13848942518234253 0.10548519343137741 0.098295636475086212
0.20110593736171722 0.11111028492450714 0.10550618171691895
0.26188364624977112 0.1159975528717041 0.11347660422325134
0.31442385911941528 0.12253830581903458 0.12013380974531174
0.36202961206436157 0.13102678954601288 0.12848466634750366
0.41067007184028625 0.13945828378200531 0.136641725897789
0.46090283989906311 0.14771994948387146 0.14415042102336884
0.50970244407653809 0.1570969820022583 0.15088494122028351
0.55758267641067505 0.16674520075321198 0.15905514359474182
0.60606867074966431 0.17629826068878174 0.16906584799289703
0.65497654676437378 0.18582464754581451 0.18017329275608063
0.70256638526916504 0.19357381761074066 0.19004352390766144
0.1072094514966011 0.16935239732265472 0.11618740856647491
0.16806250810623169 0.17405389249324799 0.11841137707233429
0.23580308258533478 0.1777263730764389 0.12181499600410461
0.30030244588851929 0.18235750496387482 0.12605944275856018
0.35530868172645569 0.18912097811698914 0.13060888648033142
0.40503785014152527 0.1974092572927475 0.13708667457103729
0.45338171720504761 0.20628374814987183 0.14430007338523865
0.500954270362854 0.21557840704917908 0.15105536580085754
0.54762232303619385 0.22558067739009857 0.15799972414970398
0.59450054168701172 0.2356257289648056 0.16588056087493896
0.64244645833969116 0.24513913691043854 0.17495831847190857
0.69068372249603271 0.25404179096221924 0.18458254635334015
0.7380138635635376 0.26224252581596375 0.19392187893390656
0.1209283247590065 0.24404603242874146 0.13079315423965454
0.18727529048919678 0.24689480662345886 0.13170592486858368
0.25650200247764587 0.24962835013866425 0.13272334635257721
0.32238045334815979 0.25397986173629761 0.13485951721668243
0.38021641969680786 0.26071155071258545 0.13849826157093048
0.43254861235618591 0.26886585354804993 0.14378049969673157
0.48198983073234558 0.27763205766677856 0.15020520985126495
0.52913939952850342 0.28720253705978394 0.15636405348777771
0.57569628953933716 0.2971394956111908 0.1631697416305542
0.62371861934661865 0.30657756328582764 0.17137476801872253
0.67274296283721924 0.3155243992805481 0.18002553284168243
0.72132676839828491 0.32395938038825989 0.18891221284866333
0.76905721426010132 0.33205997943878174 0.19804677367210388
0.13590046763420105 0.3181702196598053 0.14579233527183533
0.20540030300617218 0.32017391920089722 0.14487756788730621
0.27528047561645508 0.32227909564971924 0.14441981911659241
0.34183767437934875 0.3263552188873291 0.14499939978122711
0.40163365006446838 0.3329017162322998 0.14779612421989441
0.45526337623596191 0.34096649289131165 0.15277601778507233
0.50595295429229736 0.34966921806335449 0.15887001156806946
0.55355256795883179 0.35914826393127441 0.16489259898662567
0.60066330432891846 0.3689194917678833 0.17164866626262665
0.64998400211334229 0.37779486179351807 0.18001469969749451
0.69979411363601685 0.38630032539367676 0.18870659172534943
0.74895823001861572 0.39471685886383057 0.19725650548934937
0.7969210147857666 0.40273663401603699 0.20665408670902252
0.15223218500614166 0.39182484149932861 0.16183397173881531
0.22397111356258392 0.39309597015380859 0.16096870601177216
0.2954750657081604 0.39463663101196289 0.159173384308815
0.36312440037727356 0.39796015620231628 0.15899859368801117
0.42423060536384583 0.40379077196121216 0.16129562258720398
0.48007604479789734 0.41133829951286316 0.1663297712802887
0.53171110153198242 0.41990846395492554 0.17278313636779785
0.58034813404083252 0.42917349934577942 0.17944793403148651
0.62813806533813477 0.43879550695419312 0.18640325963497162
0.67698830366134644 0.44785031676292419 0.19436812400817871
0.72623419761657715 0.45650899410247803 0.20257438719272614
0.77520734071731567 0.4652400016784668 0.21092024445533752
0.82315999269485474 0.47347450256347656 0.22002919018268585
0.17017272114753723 0.46498945355415344 0.18154571950435638
0.24454645812511444 0.46541589498519897 0.17942227423191071
0.31831303238868713 0.46621578931808472 0.17783939838409424
0.38761118054389954 0.46874293684959412 0.17733262479305267
0.45066636800765991 0.473582923412323 0.17960946261882782
0.50781929492950439 0.48052272200584412 0.18468776345252991
0.56033438444137573 0.48878452181816101 0.19138839840888977
0.60953563451766968 0.49753448367118835 0.19871355593204498
0.65734511613845825 0.5067371129989624 0.20611372590065002
0.70526212453842163 0.51623988151550293 0.21383626759052277
0.75354748964309692 0.52571922540664673 0.22168153524398804
0.80180966854095459 0.53471392393112183 0.22966715693473816
0.84953117370605469 0.54307669401168823 0.23839882016181946
0.19058802723884583 0.53731566667556763 0.20365624129772186
0.26794171333312988 0.53722649812698364 0.20177991688251495
0.34368613362312317 0.53733116388320923 0.2000015527009964
0.41494527459144592 0.53903138637542725 0.19969093799591064
0.47959089279174805 0.54310280084609985 0.20189030468463898
0.53769409656524658 0.54935175180435181 0.20668961107730865
0.59053683280944824 0.55708205699920654 0.21321073174476624
0.63989055156707764 0.566078782081604 0.22087414562702179
0.68731510639190674 0.57526969909667969 0.22869974374771118
0.73430681228637695 0.58469480276107788 0.23650629818439484
0.78171008825302124 0.59393513202667236 0.24421191215515137
0.82936722040176392 0.60302406549453735 0.25195640325546265
0.87679159641265869 0.61172264814376831 0.26004961133003235
0.21453772485256195 0.60794126987457275 0.228799968957901
0.29334944486618042 0.6075940728187561 0.22700819373130798
0.37097173929214478 0.6075369119644165 0.22529487311840057
0.44380366802215576 0.60890060663223267 0.22488565742969513
0.50948524475097656 0.61254185438156128 0.22665023803710938
0.56821733713150024 0.61824733018875122 0.23105216026306152
0.62133693695068359 0.62570714950561523 0.23742702603340149
0.67061531543731689 0.63402396440505981 0.24495901167392731
0.71767246723175049 0.64357841014862061 0.25291472673416138
0.76409602165222168 0.65312772989273071 0.26101511716842651
0.8108896017074585 0.66221165657043457 0.26870420575141907
0.85798382759094238 0.67089724540710449 0.27618169784545898
0.90467637777328491 0.67978847026824951 0.28363528847694397
0.23992602527141571 0.67820227146148682 0.25578224658966064
0.31989017128944397 0.67811375856399536 0.25428593158721924
0.3982049822807312 0.67806261777877808 0.25249898433685303
0.47187325358390808 0.67900151014328003 0.25165170431137085
0.53863877058029175 0.68225181102752686 0.2530820369720459
0.59817665815353394 0.68755990266799927 0.25682109594345093
0.65180641412734985 0.69457072019577026 0.26254183053970337
0.70111346244812012 0.70285177230834961 0.26995950937271118
0.74825501441955566 0.71147596836090088 0.27796348929405212
0.79430395364761353 0.72085165977478027 0.28592398762702942
0.84062200784683228 0.73039025068283081 0.29358562827110291
0.88706719875335693 0.73886239528656006 0.30079057812690735
0.93287259340286255 0.74765145778656006 0.30746003985404968
0.26521217823028564 0.74799871444702148 0.28349047899246216
0.3457038402557373 0.74782091379165649 0.28226485848426819
0.42395588755607605 0.74822056293487549 0.2805178165435791
0.4981587827205658 0.749675452709198 0.27952322363853455
0.56584107875823975 0.75257086753845215 0.28008458018302917
0.62669187784194946 0.75749987363815308 0.2830517590045929
0.68091875314712524 0.76405620574951172 0.28823196887969971
0.73127037286758423 0.77190393209457397 0.2952740490436554
0.77788567543029785 0.78059440851211548 0.30300083756446838
0.82420188188552856 0.78946202993392944 0.31076312065124512
0.87003952264785767 0.79819518327713013 0.31802371144294739
0.91570985317230225 0.80739396810531616 0.32486787438392639
0.96031802892684937 0.81551873683929443 0.33068034052848816
0.28903096914291382 0.81862694025039673 0.31016328930854797
0.36965134739875793 0.81881290674209595 0.30990102887153625
0.44787225127220154 0.81919461488723755 0.30832439661026001
0.52196669578552246 0.82049703598022461 0.30708074569702148
0.59064370393753052 0.82346922159194946 0.30709511041641235
0.65273797512054443 0.82804423570632935 0.30923965573310852
0.70827591419219971 0.83420747518539429 0.31386882066726685
0.75829774141311646 0.84171175956726074 0.32043242454528809
0.80599522590637207 0.84995412826538086 0.32755941152572632
0.85229551792144775 0.85856431722640991 0.33469191193580627
0.89776480197906494 0.86732667684555054 0.34144219756126404
0.94256103038787842 0.87581813335418701 0.34740790724754333
0.98487043380737305 0.8844980001449585 0.3525967001914978
0.31077730655670166 0.88891637325286865 0.33557954430580139
0.39081403613090515 0.88928234577178955 0.33597567677497864
0.4685148298740387 0.8905264139175415 0.33507552742958069
0.54324173927307129 0.8922417163848877 0.33387726545333862
0.61215102672576904 0.89493006467819214 0.3336997926235199
0.67530578374862671 0.89917987585067749 0.33535769581794739
0.73170310258865356 0.90509819984436035 0.3392215371131897
0.78304910659790039 0.91220515966415405 0.34493562579154968
0.83118492364883423 0.92010855674743652 0.35142701864242554
0.87762665748596191 0.92839908599853516 0.35770383477210999
0.92288494110107422 0.93684107065200806 0.36355116963386536
0.96684283018112183 0.94534379243850708 0.36864784359931946
0.99786490201950073 0.95368427038192749 0.37244477868080139
0.04690266028046608 0.040175508707761765 0.072232641279697418
0.088558599352836609 0.050598818808794022 0.084962807595729828
0.14154660701751709 0.058007258921861649 0.10316962748765945
0.2023615688085556 0.061837349086999893 0.12304237484931946
0.26128467917442322 0.06520698219537735 0.14092162251472473
0.31505009531974792 0.070444650948047638 0.15639267861843109
0.36588010191917419 0.077624410390853882 0.16918225586414337
0.41695863008499146 0.085277929902076721 0.18010282516479492
0.46815139055252075 0.093320183455944061 0.18983504176139832
0.51872938871383667 0.1017451137304306 0.19994407892227173
0.56952410936355591 0.11033247411251068 0.21217724680900574
0.61978745460510254 0.11834710836410522 0.22515065968036652
0.66865265369415283 0.12569430470466614 0.23607461154460907
0.08897845447063446 0.10086078941822052 0.13148736953735352
0.14158511161804199 0.10851787775754929 0.13886544108390808
0.20259156823158264 0.11503437906503677 0.14708000421524048
0.26430904865264893 0.11950445920228958 0.15793554484844208
0.32102978229522705 0.12429527193307877 0.16844470798969269
0.37165695428848267 0.13109587132930756 0.17890191078186035
0.41914442181587219 0.14010649919509888 0.18888780474662781
0.46643882989883423 0.14929851889610291 0.19783291220664978
0.51405549049377441 0.15879115462303162 0.20628179609775543
0.56217914819717407 0.16835403442382812 0.2156793624162674
0.61092245578765869 0.17674060165882111 0.22660185396671295
0.65985047817230225 0.18585537374019623 0.23846988379955292
0.70777034759521484 0.19359540939331055 0.24930146336555481
0.10642702877521515 0.17274090647697449 0.16348986327648163
0.16797737777233124 0.17751666903495789 0.16735094785690308
0.23633383214473724 0.18145598471164703 0.17204394936561584
0.3016645610332489 0.18568958342075348 0.17830783128738403
0.35895094275474548 0.19165346026420593 0.18545030057430267
0.40989971160888672 0.19917586445808411 0.19331939518451691
0.4575849175453186 0.20797589421272278 0.20139133930206299
0.50425928831100464 0.21739110350608826 0.20935189723968506
0.55074739456176758 0.22708241641521454 0.21739433705806732
0.59786891937255859 0.2366720587015152 0.22623389959335327
0.64598339796066284 0.24597305059432983 0.23642744123935699
0.6945350170135498 0.25447565317153931 0.24705182015895844
0.74210697412490845 0.26257002353668213 0.25735870003700256
0.11919690668582916 0.24745865166187286 0.18288679420948029
0.18626275658607483 0.25020861625671387 0.18528418242931366
0.25694271922111511 0.25287371873855591 0.18771030008792877
0.32378140091896057 0.25709903240203857 0.19219914078712463
0.38219335675239563 0.26380568742752075 0.19737423956394196
0.43467572331428528 0.27167654037475586 0.20398436486721039
0.48454254865646362 0.27982494235038757 0.2114381343126297
0.53234779834747314 0.28861182928085327 0.21896094083786011
0.57938897609710693 0.29801511764526367 0.22671400010585785
0.6271665096282959 0.30724382400512695 0.23531650006771088
0.675800621509552 0.31620478630065918 0.24485048651695251
0.72444170713424683 0.32491174340248108 0.25485736131668091
0.77221876382827759 0.33307495713233948 0.26484471559524536
0.1343962699174881 0.32114243507385254 0.20058028399944305
0.20459836721420288 0.32269954681396484 0.20171067118644714
0.27567380666732788 0.32492628693580627 0.20338548719882965
0.34269073605537415 0.32923334836959839 0.20583134889602661
0.40189799666404724 0.33637616038322449 0.20987486839294434
0.45581522583961487 0.34421154856681824 0.21596167981624603
0.50798320770263672 0.3518407940864563 0.22345897555351257
