assets/lut/alexjordan dark green 01.cube
# Created by: G'MIC (https://gmic.eu)
TITLE "dark_green_1"
# LUT size
LUT_3D_SIZE 13
# Data domain
DOMAIN_MIN 0.0 0.0 0.0
DOMAIN_MAX 1.0 1.0 1.0
# LUT data points
0.0089109530672430992 0.011641558259725571 0.016129827126860619
0.027008071541786194 0.013523491099476814 0.016448376700282097
0.044770453125238419 0.014622228220105171 0.016324495896697044
0.063392236828804016 0.015215600840747356 0.016534663736820221
0.083986498415470123 0.015189735218882561 0.017437266185879707
0.10639370232820511 0.014705882407724857 0.019147776067256927
0.1297602504491806 0.014624981209635735 0.021087346598505974
0.15372422337532043 0.014957726933062077 0.023127462714910507
0.17828470468521118 0.015856649726629257 0.025328243151307106
0.20324800908565521 0.017182309180498123 0.027639815583825111
0.22871336340904236 0.018615035340189934 0.030361460521817207
0.25500863790512085 0.020674478262662888 0.033477302640676498
0.2816462516784668 0.022873403504490852 0.036844216287136078
0.011642157100141048 0.037309296429157257 0.02055429108440876
0.031092759221792221 0.039828132838010788 0.02168743684887886
0.050312671810388565 0.041689988225698471 0.022387964650988579
0.070165731012821198 0.043119408190250397 0.023530563339591026
0.091664887964725494 0.043336875736713409 0.025228329002857208
0.11450907588005066 0.044154372066259384 0.027584420517086983
0.13825251162052155 0.045245766639709473 0.030022235587239265
0.16251690685749054 0.046601597219705582 0.032342005521059036
0.18717549741268158 0.048392277210950851 0.034582775086164474
0.21236269176006317 0.050677131861448288 0.037188243120908737
0.23810756206512451 0.052872467786073685 0.040212236344814301
0.26464381814002991 0.055302578955888748 0.04352322593331337
0.29157039523124695 0.057954825460910797 0.047254972159862518
0.014960823580622673 0.062574319541454315 0.024290705099701881
0.035106614232063293 0.065608426928520203 0.026150243356823921
0.055831190198659897 0.068657591938972473 0.028013775125145912
0.077116839587688446 0.0710868239402771 0.030169617384672165
0.099601343274116516 0.07284710556268692 0.032925639301538467
0.12309091538190842 0.074386954307556152 0.035983335226774216
0.14724336564540863 0.076213762164115906 0.038934055715799332
0.17166517674922943 0.078923530876636505 0.041418787091970444
0.19643250107765198 0.081982135772705078 0.04396120086312294
0.22194008529186249 0.084846600890159607 0.046739436686038971
0.24792966246604919 0.087725378572940826 0.050134800374507904
0.27467653155326843 0.090482257306575775 0.053844094276428223
0.30206987261772156 0.093567699193954468 0.057963233441114426
0.017857689410448074 0.089165918529033661 0.028148410841822624
0.039830047637224197 0.093112558126449585 0.030717318877577782
0.061741400510072708 0.097021661698818207 0.033531669527292252
0.084584899246692657 0.10050506889820099 0.036686617881059647
0.10783359408378601 0.10335230827331543 0.040147595107555389
0.13192680478096008 0.10590841621160507 0.043822944164276123
0.15641787648200989 0.10893777757883072 0.047391720116138458
0.18102644383907318 0.11276634037494659 0.050266250967979431
0.20613960921764374 0.1167294979095459 0.053016409277915955
0.23197269439697266 0.12016989290714264 0.056311946362257004
0.25827911496162415 0.12342019379138947 0.060162905603647232
0.28529280424118042 0.12664589285850525 0.064376369118690491
0.31290760636329651 0.12999822199344635 0.06892859935760498
0.023540915921330452 0.11951599270105362 0.032836824655532837
0.046021629124879837 0.12355539947748184 0.036052316427230835
0.068799890577793121 0.12804403901100159 0.039516910910606384
0.092349246144294739 0.13237263262271881 0.043412990868091583
0.11650653928518295 0.13618606328964233 0.047581914812326431
0.14100928604602814 0.1398535817861557 0.051598567515611649
0.16583940386772156 0.14393454790115356 0.055451277643442154
0.19088926911354065 0.14839987456798553 0.058940514922142029
0.21638266742229462 0.15286284685134888 0.062319483608007431
0.24238499999046326 0.15687075257301331 0.066205643117427826
0.26920613646507263 0.16032178699970245 0.07055383175611496
0.29657867550849915 0.16348062455654144 0.075349517166614532
0.32443267107009888 0.16715209186077118 0.080257833003997803
0.031064501032233238 0.15383228659629822 0.038715872913599014
0.05387796089053154 0.15761595964431763 0.042235445231199265
0.07732747495174408 0.16215431690216064 0.046255402266979218
0.10126186907291412 0.16679580509662628 0.050647195428609848
0.12567020952701569 0.17126400768756866 0.055246300995349884
0.1507330983877182 0.17570625245571136 0.059746220707893372
0.17588934302330017 0.18047372996807098 0.064050264656543732
0.20136487483978271 0.18558017909526825 0.068099543452262878
0.22725866734981537 0.19032377004623413 0.072141863405704498
0.25378268957138062 0.19450786709785461 0.076553106307983398
0.28089070320129395 0.19824525713920593 0.081447646021842957
0.30858534574508667 0.20170454680919647 0.086599595844745636
0.3366972804069519 0.20571146905422211 0.091928176581859589
0.040176451206207275 0.1907220333814621 0.045721180737018585
0.063156187534332275 0.19423829019069672 0.049589060246944427
0.086887255311012268 0.19856968522071838 0.053883031010627747
0.11104665696620941 0.20335625112056732 0.05878201499581337
0.13596425950527191 0.20839866995811462 0.063761569559574127
0.16115663945674896 0.21334938704967499 0.068563155829906464
0.1866828054189682 0.21825546026229858 0.07337622344493866
0.21262486279010773 0.22360688447952271 0.078209847211837769
0.23896382749080658 0.22864453494548798 0.082881450653076172
0.26594293117523193 0.23315222561359406 0.087728120386600494
0.2934262752532959 0.23725153505802155 0.092988662421703339
0.32146015763282776 0.24123930931091309 0.09847569465637207
0.34977450966835022 0.24546676874160767 0.10400769114494324
0.050072599202394485 0.22931757569313049 0.053813021630048752
0.0735321044921875 0.23279592394828796 0.057975530624389648
0.097330383956432343 0.23701132833957672 0.062734685838222504
0.12185652554035187 0.24167804419994354 0.067687064409255981
0.14691738784313202 0.24694094061851501 0.073329240083694458
0.17241159081459045 0.2520853579044342 0.078493706881999969
0.19839514791965485 0.25722968578338623 0.08385206013917923
0.22458188235759735 0.26283040642738342 0.089127227663993835
0.25147166848182678 0.26795291900634766 0.094388820230960846
0.27878853678703308 0.27265644073486328 0.099747903645038605
0.30658537149429321 0.27723610401153564 0.10533891618251801
0.3348250687122345 0.2817608118057251 0.11099892109632492
0.36342096328735352 0.28646939992904663 0.1167331337928772
0.060645323246717453 0.26912301778793335 0.063231825828552246
0.084380403161048889 0.27258539199829102 0.067611753940582275
0.10857035219669342 0.27678292989730835 0.072487987577915192
0.13327404856681824 0.28152954578399658 0.078000672161579132
0.15860231220722198 0.28660121560096741 0.083688683807849884
0.18431898951530457 0.29177245497703552 0.089367419481277466
0.21052873134613037 0.29738706350326538 0.095171958208084106
0.23731936514377594 0.30273640155792236 0.10087224841117859
0.26452732086181641 0.30799135565757751 0.10678260773420334
0.29207700490951538 0.31324625015258789 0.11243288964033127
0.32017633318901062 0.31821182370185852 0.11848259717226028
0.34862318634986877 0.32306817173957825 0.12430772930383682
0.37732261419296265 0.3280276358127594 0.13024798035621643
0.071710802614688873 0.30941742658615112 0.073789961636066437
0.095764905214309692 0.31317406892776489 0.078360676765441895
0.12025236338376999 0.31743144989013672 0.083372838795185089
0.14532497525215149 0.32206693291664124 0.089006297290325165
0.17073766887187958 0.32713690400123596 0.095008969306945801
0.196971595287323 0.33261567354202271 0.10095939040184021
0.22330816090106964 0.33797851204872131 0.10710262507200241
0.25037083029747009 0.34364977478981018 0.11349637061357498
0.2778225839138031 0.34916159510612488 0.1198807954788208
0.30574345588684082 0.35451489686965942 0.12603208422660828
0.33402371406555176 0.35986238718032837 0.13216467201709747
0.36260059475898743 0.36511582136154175 0.13839869201183319
0.39137163758277893 0.37040978670120239 0.14461767673492432
0.083023011684417725 0.35072982311248779 0.085441246628761292
0.10742037743330002 0.35455977916717529 0.09004540741443634
0.13229610025882721 0.35881969332695007 0.095405682921409607
0.15734925866127014 0.36353603005409241 0.10089056193828583
0.18318541347980499 0.36863595247268677 0.10707210749387741
0.20974449813365936 0.37399542331695557 0.11349616199731827
0.23637466132640839 0.37961077690124512 0.11993627995252609
0.26366725564002991 0.38524535298347473 0.12637466192245483
0.29139560461044312 0.39095070958137512 0.13298526406288147
0.31949320435523987 0.39653629064559937 0.13978160917758942
0.34789943695068359 0.40223342180252075 0.14638803899288177
0.37659576535224915 0.4077640175819397 0.15297321975231171
0.40555611252784729 0.41323727369308472 0.15936282277107239
0.094698168337345123 0.39262595772743225 0.097692288458347321
0.11948166042566299 0.39651155471801758 0.10253273695707321
0.14448592066764832 0.40079250931739807 0.10810697823762894
0.17015548050403595 0.40555053949356079 0.11353692412376404
0.19606247544288635 0.41070717573165894 0.11993318796157837
0.22280001640319824 0.41611272096633911 0.12637722492218018
0.24975089728832245 0.4217371940612793 0.13309729099273682
0.27719530463218689 0.42751681804656982 0.14018045365810394
0.30512598156929016 0.43332427740097046 0.14704662561416626
0.33329826593399048 0.4391506016254425 0.15403182804584503
0.36190223693847656 0.44494849443435669 0.16104541718959808
0.39067718386650085 0.4507688581943512 0.16805325448513031
0.41951128840446472 0.45640042424201965 0.17457646131515503
0.10667480528354645 0.43509677052497864 0.11091570556163788
0.13167630136013031 0.43907591700553894 0.11579329520463943
0.1572265625 0.44345507025718689 0.1212550476193428
0.1830250471830368 0.44817045331001282 0.12719722092151642
0.20926488935947418 0.45338597893714905 0.13342730700969696
0.23608195781707764 0.45881262421607971 0.14016093313694
0.26323568820953369 0.46445575356483459 0.1469779908657074
0.29080858826637268 0.47027236223220825 0.15389299392700195
0.31879532337188721 0.47614553570747375 0.16114109754562378
0.34722360968589783 0.48216420412063599 0.16835196316242218
0.37580403685569763 0.48810172080993652 0.17573980987071991
0.4047035276889801 0.49416381120681763 0.18286880850791931
0.43370670080184937 0.49995177984237671 0.18983522057533264
0.0072863409295678139 0.011122505180537701 0.039825424551963806
0.025952238589525223 0.01308650616556406 0.040344089269638062
0.04473583772778511 0.014626896008849144 0.040529526770114899
0.064087361097335815 0.014916692860424519 0.040855586528778076
0.085068285465240479 0.015144811943173409 0.041944991797208786
0.10753040760755539 0.014915525913238525 0.043588601052761078
0.13099981844425201 0.015280166640877724 0.045521561056375504
0.15488208830356598 0.015858294442296028 0.047749150544404984
0.17922697961330414 0.01714528352022171 0.050029784440994263
0.20411467552185059 0.01831035315990448 0.052560381591320038
0.22972181439399719 0.020294817164540291 0.05548693984746933
0.25564363598823547 0.022139096632599831 0.058678720146417618
0.28237512707710266 0.024377051740884781 0.062387324869632721
0.011164302006363869 0.037528272718191147 0.044366184622049332
0.030396765097975731 0.040143765509128571 0.045425429940223694
0.049804314970970154 0.042000759392976761 0.046229314059019089
0.07076716423034668 0.043305326253175735 0.047493040561676025
0.092589296400547028 0.044218041002750397 0.049289390444755554
0.11577882617712021 0.045578707009553909 0.051502302289009094
0.13962234556674957 0.04607594758272171 0.054026823490858078
0.16372659802436829 0.047794774174690247 0.05638185515999794
0.18832756578922272 0.049763519316911697 0.059038843959569931
0.21346153318881989 0.052112400531768799 0.061866551637649536
0.23923969268798828 0.054442957043647766 0.065124094486236572
0.26553824543952942 0.056937754154205322 0.068693272769451141
0.29256397485733032 0.059555713087320328 0.072606660425662994
0.014176701195538044 0.063736408948898315 0.048253618180751801
0.03467954695224762 0.066755928099155426 0.049961447715759277
0.055662777274847031 0.069566942751407623 0.051683701574802399
0.077313065528869629 0.071984127163887024 0.053922630846500397
0.10044491291046143 0.07368990033864975 0.056462500244379044
0.1243877038359642 0.075312130153179169 0.059445369988679886
0.14859521389007568 0.077632680535316467 0.062330387532711029
0.17301583290100098 0.08035171777009964 0.065124139189720154
0.19775578379631042 0.083564698696136475 0.067898660898208618
0.22299231588840485 0.086603261530399323 0.071075439453125
0.24922497570514679 0.089383579790592194 0.074738085269927979
0.27587148547172546 0.092302866280078888 0.078786812722682953
0.30313277244567871 0.095364511013031006 0.083079047501087189
0.018055740743875504 0.091312035918235779 0.052383765578269958
0.039742264896631241 0.094725035130977631 0.054605938494205475
0.061647854745388031 0.098480626940727234 0.0572994165122509
0.084649659693241119 0.10176175832748413 0.060341957956552505
0.10858800262212753 0.10467305034399033 0.063779599964618683
0.133133664727211 0.10731524229049683 0.067122004926204681
0.15768268704414368 0.1106366440653801 0.070700310170650482
0.1823934018611908 0.11463582515716553 0.073717527091503143
0.20735134184360504 0.1186620220541954 0.076805800199508667
0.23299212753772736 0.12232436984777451 0.080393381416797638
0.2595427930355072 0.12542301416397095 0.084660910069942474
0.28666147589683533 0.12830445170402527 0.089045412838459015
0.31428736448287964 0.13165055215358734 0.093878649175167084
0.023990854620933533 0.12174335867166519 0.057233698666095734
0.046080242842435837 0.12562717497348785 0.059965919703245163
0.069095686078071594 0.12985327839851379 0.063321419060230255
0.092718534171581268 0.13392886519432068 0.067078247666358948
0.11717770248651505 0.13768528401851654 0.07111707329750061
0.1420404464006424 0.14151686429977417 0.075283467769622803
0.16698484122753143 0.14578308165073395 0.078990325331687927
0.19197046756744385 0.15063941478729248 0.082461081445217133
0.21732698380947113 0.15523101389408112 0.086012743413448334
0.24354107677936554 0.15906505286693573 0.089943304657936096
0.27053582668304443 0.16227781772613525 0.094808869063854218
0.29801660776138306 0.1656443327665329 0.09977944940328598
0.32605960965156555 0.16913589835166931 0.10501331835985184
0.031700059771537781 0.15577097237110138 0.063017062842845917
0.054168716073036194 0.15959471464157104 0.066352277994155884
0.077463187277317047 0.16389128565788269 0.070287056267261505
0.10156954824924469 0.16841009259223938 0.074606113135814667
0.12643805146217346 0.17293673753738403 0.079193621873855591
0.15158280730247498 0.17766229808330536 0.083671122789382935
0.17685090005397797 0.18260586261749268 0.087899796664714813
0.20227672159671783 0.18772284686565399 0.091903463006019592
0.2282303124666214 0.1926661878824234 0.095970094203948975
0.25491759181022644 0.19679602980613708 0.10067648440599442
0.2823149561882019 0.20038522779941559 0.10568802803754807
0.31020316481590271 0.20394213497638702 0.11105111986398697
0.33850210905075073 0.20761457085609436 0.11645457148551941
0.040730495005846024 0.19245943427085876 0.070095688104629517
0.063704982399940491 0.19614315032958984 0.073791459202766418
0.087279543280601501 0.20049071311950684 0.078215733170509338
0.11165031045675278 0.20522674918174744 0.083030059933662415
0.13652719557285309 0.21000593900680542 0.087885387241840363
0.16193792223930359 0.21509741246700287 0.092820383608341217
0.18761491775512695 0.22061890363693237 0.097697824239730835
0.21361781656742096 0.22578302025794983 0.10238687694072723
0.24009110033512115 0.2308967113494873 0.10703561455011368
0.26728695631027222 0.2352704256772995 0.11204588413238525
0.29501640796661377 0.2393144965171814 0.11740513145923615
0.32315811514854431 0.24323536455631256 0.1228906661272049
0.35172024369239807 0.24740663170814514 0.12866184115409851
0.050888031721115112 0.23091885447502136 0.078324049711227417
0.074052907526493073 0.23456834256649017 0.082402065396308899
0.097946286201477051 0.23884014785289764 0.087151549756526947
0.12245375663042068 0.24363280832767487 0.09247366338968277
0.14759045839309692 0.24849966168403625 0.097829677164554596
0.1732134073972702 0.25381991267204285 0.1033104807138443
0.19923780858516693 0.25940287113189697 0.10860947519540787
0.22575274109840393 0.2646348774433136 0.11384189128875732
0.25276511907577515 0.26984283328056335 0.11899940669536591
0.28027337789535522 0.27471145987510681 0.12439289689064026
0.30827158689498901 0.27915439009666443 0.1300162672996521
0.33672556281089783 0.28355509042739868 0.13557353615760803
0.36535853147506714 0.28807690739631653 0.14147444069385529
0.061479233205318451 0.27041009068489075 0.088051877915859222
0.085101321339607239 0.27413854002952576 0.092428393661975861
0.10925626754760742 0.27842533588409424 0.097498439252376556
0.13400916755199432 0.28309577703475952 0.10295169055461884
0.15930145978927612 0.28808462619781494 0.10869528353214264
0.18521025776863098 0.29369083046913147 0.11451803147792816
0.21157500147819519 0.29903015494346619 0.12023235857486725
0.23847667872905731 0.30452412366867065 0.1262039840221405
0.26578435301780701 0.30989775061607361 0.13154676556587219
0.29367765784263611 0.31489512324333191 0.13754028081893921
0.32190236449241638 0.31977730989456177 0.14322541654109955
0.350473552942276 0.32476764917373657 0.14915411174297333
0.37921187281608582 0.32958775758743286 0.15520116686820984
0.072471678256988525 0.31082823872566223 0.099168546497821808
0.096445091068744659 0.31452050805091858 0.10357920080423355
0.1209610253572464 0.31877925992012024 0.10873869061470032
0.14587047696113586 0.3235805332660675 0.11456641554832458
0.17149823904037476 0.32883822917938232 0.12028102576732635
0.19760282337665558 0.3341124951839447 0.12638163566589355
0.22436502575874329 0.33975362777709961 0.13279837369918823
0.25151798129081726 0.34528511762619019 0.13921022415161133
0.27916976809501648 0.3506961464881897 0.14499527215957642
0.30723413825035095 0.35616540908813477 0.15111976861953735
0.33569183945655823 0.36141493916511536 0.15737003087997437
0.36434432864189148 0.36660531163215637 0.16348372399806976
0.39317780733108521 0.37176644802093506 0.16963791847229004
0.083865970373153687 0.35173127055168152 0.11117635667324066
0.10824581980705261 0.35567614436149597 0.11573190242052078
0.13301350176334381 0.36006110906600952 0.1211850643157959
0.15848112106323242 0.36482083797454834 0.12648144364356995
0.18426221609115601 0.37000641226768494 0.13279810547828674
0.21048024296760559 0.3755473792552948 0.1392369270324707
0.23743231594562531 0.38112667202949524 0.14567679166793823
0.26484951376914978 0.38681432604789734 0.15214504301548004
0.29266992211341858 0.39241746068000793 0.15873141586780548
0.32096803188323975 0.3980233371257782 0.16543230414390564
0.34952116012573242 0.40363803505897522 0.17197941243648529
0.37829890847206116 0.40914708375930786 0.17841143906116486
0.40717920660972595 0.41445845365524292 0.18481199443340302
0.09549376368522644 0.39349138736724854 0.12407121807336807
0.12021969258785248 0.39746367931365967 0.12870065867900848
0.14547795057296753 0.40192511677742004 0.13410143554210663
0.17107000946998596 0.40675002336502075 0.13980869948863983
0.19714300334453583 0.41198420524597168 0.14599211513996124
0.22367517650127411 0.41747328639030457 0.15248553454875946
0.25075247883796692 0.42313328385353088 0.15940190851688385
0.27833643555641174 0.42889818549156189 0.16612942516803741
0.30632928013801575 0.43469050526618958 0.17306651175022125
0.33467423915863037 0.44051066040992737 0.17984895408153534
0.36337462067604065 0.4463227391242981 0.18676468729972839
0.39223596453666687 0.45200243592262268 0.1936517059803009
0.42122524976730347 0.45766392350196838 0.20023240149021149
0.10743928700685501 0.43586611747741699 0.13750486075878143
0.13261990249156952 0.4398806095123291 0.14228424429893494
0.15802274644374847 0.44437143206596375 0.14762094616889954
0.18391191959381104 0.44924676418304443 0.15363158285617828
0.21016643941402435 0.45458483695983887 0.15995189547538757
0.23698118329048157 0.46007886528968811 0.16648833453655243
0.26426869630813599 0.4657408595085144 0.17338553071022034
0.29192447662353516 0.47161826491355896 0.18024799227714539
0.32005885243415833 0.47760513424873352 0.1875128298997879
0.34850433468818665 0.48345893621444702 0.19466204941272736
0.37717190384864807 0.48937293887138367 0.201785609126091
0.4061790406703949 0.49516463279724121 0.2088405042886734
0.43509191274642944 0.50102096796035767 0.21574877202510834
0.0059852898120880127 0.010219169780611992 0.063260234892368317
0.024980852380394936 0.012189588509500027 0.064079269766807556
0.044509079307317734 0.014029080048203468 0.064522810280323029
0.064627677202224731 0.014705882407724857 0.065228886902332306
0.086409881711006165 0.014705882407724857 0.066323161125183105
0.10905971378087997 0.015440219081938267 0.068056292831897736
0.13252896070480347 0.015872610732913017 0.070138461887836456
0.15638209879398346 0.016965290531516075 0.072558656334877014
0.18064107000827789 0.01798197440803051 0.07505141943693161
0.20550495386123657 0.019878178834915161 0.077870912849903107
0.23073594272136688 0.021638577803969383 0.08105507493019104
0.25689658522605896 0.023759745061397552 0.084335163235664368
0.28344956040382385 0.026086112484335899 0.088225796818733215
0.0095595112070441246 0.037524383515119553 0.067889973521232605
0.029438572004437447 0.040186174213886261 0.068944238126277924
0.049634147435426712 0.042161770164966583 0.070029795169830322
0.071317501366138458 0.043335888534784317 0.071396499872207642
0.093851439654827118 0.044869888573884964 0.07325521856546402
0.11738839000463486 0.045713089406490326 0.075584679841995239
0.14134486019611359 0.04701169952750206 0.078171990811824799
0.16549400985240936 0.048778623342514038 0.08089803159236908
0.18993523716926575 0.051337163895368576 0.08369164913892746
0.21493081748485565 0.053604274988174438 0.086832933127880096
0.24060197174549103 0.056104294955730438 0.090290799736976624
0.26698321104049683 0.058532144874334335 0.09416460245847702
0.29380768537521362 0.061317667365074158 0.098311752080917358
0.013508874922990799 0.065034963190555573 0.072154134511947632
0.033926151692867279 0.067853771150112152 0.073649324476718903
0.055472578853368759 0.07054486870765686 0.075403608381748199
0.077870644629001617 0.072840578854084015 0.077593259513378143
0.10160094499588013 0.074612155556678772 0.080223709344863892
0.12613965570926666 0.076391212642192841 0.083144277334213257
0.15045440196990967 0.078868001699447632 0.086188361048698425
0.17483523488044739 0.081935867667198181 0.08921833336353302
0.19949319958686829 0.085230760276317596 0.092438355088233948
0.22476156055927277 0.088363081216812134 0.09591781347990036
0.25075152516365051 0.091281205415725708 0.099817968904972076
0.27743083238601685 0.094032600522041321 0.10404554009437561
0.30469366908073425 0.097046948969364166 0.10856547951698303
0.018140396103262901 0.093550406396389008 0.076566673815250397
0.039610348641872406 0.09686773270368576 0.078523509204387665
0.061513863503932953 0.10028702765703201 0.081103108823299408
0.085142277181148529 0.10334264487028122 0.084055788815021515
0.10970279574394226 0.10604108870029449 0.087439455091953278
0.134820356965065 0.10891366004943848 0.090970657765865326
0.1596541702747345 0.112392857670784 0.094341650605201721
0.18418155610561371 0.1165284663438797 0.097686782479286194
0.20907267928123474 0.12069583684206009 0.10123283416032791
0.23474644124507904 0.12412012368440628 0.10511010885238647
0.26128664612770081 0.12735308706760406 0.10949739813804626
0.28851115703582764 0.13052107393741608 0.11424501985311508
0.31610751152038574 0.13381078839302063 0.11922822892665863
0.024699820205569267 0.12455415725708008 0.081659324467182159
