assets/lut/alexjordan cross process cp 18.cube
# Created by: G'MIC (https://gmic.eu)
TITLE "cross_process_cp_18"
# LUT size
LUT_3D_SIZE 5
# Data domain
DOMAIN_MIN 0.0 0.0 0.0
DOMAIN_MAX 1.0 1.0 1.0
# LUT data points
0.0030685125384479761 0.040071256458759308 0.086294256150722504
0.18419265747070312 0.050306372344493866 0.09234001487493515
0.35848686099052429 0.068842522799968719 0.1015901118516922
0.52604645490646362 0.092644289135932922 0.11840356886386871
0.68870621919631958 0.11327673494815826 0.13874644041061401
0.074182175099849701 0.24537625908851624 0.13262784481048584
0.26106485724449158 0.25978884100914001 0.14370074868202209
0.43237856030464172 0.28027579188346863 0.16023780405521393
0.59868305921554565 0.30500853061676025 0.17836372554302216
0.76074904203414917 0.32678914070129395 0.19679981470108032
0.16033953428268433 0.45535936951637268 0.18609979748725891
0.34062424302101135 0.47349506616592407 0.20185837149620056
0.50724887847900391 0.49373438954353333 0.21959193050861359
0.66938960552215576 0.51653122901916504 0.23722720146179199
0.82886022329330444 0.53791707754135132 0.25414344668388367
0.24338099360466003 0.66723930835723877 0.24409137666225433
0.42039236426353455 0.68791884183883667 0.26200255751609802
0.58367288112640381 0.70860433578491211 0.27978843450546265
0.74129372835159302 0.72984981536865234 0.29705113172531128
0.89694738388061523 0.74984997510910034 0.31366169452667236
0.31768724322319031 0.87999564409255981 0.30361491441726685
0.4936867356300354 0.90259987115859985 0.32310116291046143
0.65563720464706421 0.92383557558059692 0.34149438142776489
0.81088501214981079 0.94411909580230713 0.35882306098937988
0.96337401866912842 0.9629024863243103 0.37522768974304199
0.0092231454327702522 0.04803549125790596 0.20263762772083282
0.19728927314281464 0.061599627137184143 0.21144026517868042
0.37206351757049561 0.080216489732265472 0.223274827003479
0.53841888904571533 0.10304044932126999 0.23947188258171082
0.70079720020294189 0.12271469831466675 0.26349988579750061
0.090737119317054749 0.2575804591178894 0.25668814778327942
0.27476596832275391 0.27210327982902527 0.26753994822502136
0.4441775381565094 0.29080885648727417 0.28395679593086243
0.60835880041122437 0.31393834948539734 0.30312570929527283
0.76982200145721436 0.33536678552627563 0.32511654496192932
0.17698988318443298 0.46707543730735779 0.31829765439033508
0.3529755175113678 0.4845694899559021 0.33211791515350342
0.51743417978286743 0.50385439395904541 0.3494102954864502
0.67804855108261108 0.5257573127746582 0.36833271384239197
0.83740967512130737 0.54762238264083862 0.38838738203048706
0.26076984405517578 0.67902243137359619 0.3830450177192688
0.43357783555984497 0.69877052307128906 0.39951172471046448
0.59451347589492798 0.71879041194915771 0.41715094447135925
0.75104302167892456 0.74002617597579956 0.43549829721450806
0.90680611133575439 0.76127415895462036 0.45426514744758606
0.33608171343803406 0.89216494560241699 0.44886547327041626
0.50954431295394897 0.9139447808265686 0.46744522452354431
0.66946041584014893 0.93465793132781982 0.48607057332992554
0.82375252246856689 0.95534956455230713 0.50446605682373047
0.97629517316818237 0.97455096244812012 0.52287739515304565
0.019534481689333916 0.058277234435081482 0.33115091919898987
0.20516484975814819 0.073333948850631714 0.34204897284507751
0.38087046146392822 0.092286325991153717 0.35540172457695007
0.54831349849700928 0.11332029104232788 0.37275367975234985
0.71047621965408325 0.13142281770706177 0.39580768346786499
0.10393083095550537 0.26712518930435181 0.39050960540771484
0.28290590643882751 0.28327926993370056 0.40235656499862671
0.4522196352481842 0.30209600925445557 0.41814306378364563
0.61666440963745117 0.32317173480987549 0.43713858723640442
0.77749979496002197 0.34272053837776184 0.45969465374946594
0.18755941092967987 0.47636494040489197 0.45579731464385986
0.35932165384292603 0.49507272243499756 0.46949520707130432
0.52341943979263306 0.51403987407684326 0.48677054047584534
0.6851314902305603 0.53436052799224854 0.50643080472946167
0.84494799375534058 0.55568236112594604 0.52794367074966431
0.27038118243217468 0.68824630975723267 0.52520811557769775
0.44009211659431458 0.70837843418121338 0.54135382175445557
0.60014790296554565 0.72799068689346313 0.55963134765625
0.75793993473052979 0.74816977977752686 0.57937318086624146
0.91385740041732788 0.77036356925964355 0.59903919696807861
0.346295565366745 0.90171116590499878 0.59557253122329712
0.51763010025024414 0.92317575216293335 0.61442792415618896
0.67699563503265381 0.94356220960617065 0.63394427299499512
0.83185726404190063 0.96395969390869141 0.65412706136703491
0.98375672101974487 0.9819023609161377 0.67429971694946289
0.031770937144756317 0.071397177875041962 0.4700838029384613
0.21667201817035675 0.088019229471683502 0.48393577337265015
0.3911382257938385 0.10538268834352493 0.49968111515045166
0.55939948558807373 0.12525355815887451 0.51829153299331665
0.72207027673721313 0.1425902396440506 0.54041385650634766
0.11598389595746994 0.27716562151908875 0.53379148244857788
0.29313415288925171 0.29469859600067139 0.54833555221557617
0.46240922808647156 0.31337228417396545 0.56536000967025757
0.62843936681747437 0.33450561761856079 0.58516108989715576
0.79094207286834717 0.35442528128623962 0.60790705680847168
0.19648396968841553 0.48406520485877991 0.60172128677368164
0.36619183421134949 0.50415432453155518 0.61723178625106812
0.53083556890487671 0.52309036254882812 0.63563728332519531
0.69496375322341919 0.54338037967681885 0.65695500373840332
0.85684442520141602 0.56435084342956543 0.67972958087921143
0.27756586670875549 0.69554269313812256 0.67348062992095947
0.44591537117958069 0.71625524759292603 0.69109731912612915
0.60505580902099609 0.73626565933227539 0.71070533990859985
0.76595348119735718 0.75486284494400024 0.73351728916168213
0.92471039295196533 0.77613663673400879 0.75566035509109497
0.35252746939659119 0.90857887268066406 0.74628686904907227
0.52298623323440552 0.93048375844955444 0.76609194278717041
0.6816335916519165 0.95110058784484863 0.78781867027282715
0.83800464868545532 0.97055864334106445 0.81084883213043213
0.98912173509597778 0.98589730262756348 0.83308589458465576
0.038453586399555206 0.081905335187911987 0.61654704809188843
0.22374582290649414 0.098026558756828308 0.63383597135543823
0.39802089333534241 0.11438240855932236 0.65180563926696777
0.5665435791015625 0.13356995582580566 0.67138481140136719
0.72943127155303955 0.15038180351257324 0.69268345832824707
0.12333594262599945 0.2866254448890686 0.68466198444366455
0.30323383212089539 0.30295044183731079 0.70257467031478882
0.47282284498214722 0.32147222757339478 0.72137844562530518
0.63888275623321533 0.34361624717712402 0.74172067642211914
0.80093777179718018 0.36290061473846436 0.76400214433670044
0.20243102312088013 0.49126222729682922 0.75506722927093506
0.37669801712036133 0.50925135612487793 0.77389168739318848
0.54165589809417725 0.52939367294311523 0.79379189014434814
0.70513123273849487 0.55188119411468506 0.81562763452529907
0.86679941415786743 0.57194501161575317 0.83883494138717651
0.28046712279319763 0.70111453533172607 0.82765072584152222
0.4517771303653717 0.72183418273925781 0.84758216142654419
0.61229544878005981 0.74267488718032837 0.86902213096618652
0.77243196964263916 0.76300138235092163 0.89307326078414917
0.93211323022842407 0.78243517875671387 0.91709655523300171
0.35268634557723999 0.91338306665420532 0.90108615159988403
0.52446037530899048 0.93608689308166504 0.92303615808486938
0.68445289134979248 0.95731449127197266 0.94625699520111084
0.84108996391296387 0.9759407639503479 0.97117841243743896
0.99133259057998657 0.98905044794082642 0.99050843715667725
