assets/lut/alexjordan green light.cube
# Created by: G'MIC (https://gmic.eu)
TITLE "green_light"
# LUT size
LUT_3D_SIZE 5
# Data domain
DOMAIN_MIN 0.0 0.0 0.0
DOMAIN_MAX 1.0 1.0 1.0
# LUT data points
0.00010986327833961695 0.00068431178806349635 0.00016371783567592502
0.024550210684537888 0.013345994986593723 0.015202900394797325
0.11131224036216736 0.037646111100912094 0.026383673772215843
0.25797885656356812 0.047141265124082565 0.035043381154537201
0.45246374607086182 0.049266230314970016 0.017609793692827225
0.023724993690848351 0.13838362693786621 0.032302286475896835
0.11320000141859055 0.17008602619171143 0.02129782922565937
0.29702854156494141 0.18483783304691315 0.0020479389932006598
0.53242409229278564 0.18319633603096008 4.8469096327607986e-06
0.73992395401000977 0.18526865541934967 0.0032881791703402996
0 0.37817162275314331 0.0032203674782067537
0.10648788511753082 0.39040356874465942 0
0.37523022294044495 0.39104118943214417 0
0.66235798597335815 0.38524553179740906 0
0.87519842386245728 0.41913917660713196 0
1.4002182979311328e-05 0.63537949323654175 0
0.11637639254331589 0.6593785285949707 0.005998663604259491
0.45399516820907593 0.68688929080963135 0.015020826831459999
0.7990264892578125 0.71575605869293213 0.030487269163131714
0.99902164936065674 0.79548603296279907 0.045224942266941071
0.060392357409000397 0.97715336084365845 0.020603269338607788
0.29008963704109192 1 0.091379173099994659
0.65333372354507446 1 0.12027520686388016
0.9429745078086853 1 0.14756360650062561
1 1 0.17111082375049591
0.009780210442841053 0.014394663274288177 0.027967683970928192
0.03921915590763092 0.026547824963927269 0.047501716762781143
0.13292531669139862 0.041945721954107285 0.079672239720821381
0.29551494121551514 0.048058558255434036 0.11277217417955399
0.47902432084083557 0.050735294818878174 0.14566394686698914
0.018489314243197441 0.14934919774532318 0.11964757740497589
0.11647241562604904 0.17758664488792419 0.13533487915992737
0.31017720699310303 0.18511030077934265 0.13022880256175995
0.55460643768310547 0.17776888608932495 0.115251325070858
0.75364232063293457 0.18495360016822815 0.11780757457017899
0 0.3867182731628418 0.14944539964199066
0.097274303436279297 0.40279993414878845 0.13352625072002411
0.37602481245994568 0.39589497447013855 0.11429754644632339
0.66217124462127686 0.38565582036972046 0.091955952346324921
0.87626594305038452 0.41600653529167175 0.1208932176232338
0 0.64890772104263306 0.15227881073951721
0.12257110327482224 0.6711164116859436 0.16534730792045593
0.46614271402359009 0.69725173711776733 0.19077391922473907
0.81195336580276489 0.73999631404876709 0.22852320969104767
0.99989926815032959 0.81146049499511719 0.30559062957763672
0.054435998201370239 0.99127352237701416 0.29041656851768494
0.30371290445327759 1 0.35714045166969299
0.66197323799133301 1 0.38461574912071228
0.94858479499816895 1 0.37470552325248718
1 1 0.36424589157104492
0.0093387076631188393 0.012718155980110168 0.043741501867771149
0.050291530787944794 0.03190186619758606 0.088386163115501404
0.15945060551166534 0.045151460915803909 0.15078972280025482
0.33278578519821167 0.047344058752059937 0.21162690222263336
0.52633607387542725 0.042455263435840607 0.26997017860412598
0.020047521218657494 0.16039568185806274 0.22396935522556305
0.11625684797763824 0.18620701134204865 0.27623087167739868
0.31667348742485046 0.18602116405963898 0.29416102170944214
0.56631159782409668 0.17918361723423004 0.30374521017074585
0.7667427659034729 0.18395856022834778 0.32127144932746887
3.4466913348296657e-05 0.39008080959320068 0.34645801782608032
0.09890301525592804 0.4055270254611969 0.35945913195610046
0.37598976492881775 0.39424273371696472 0.34618222713470459
0.66510331630706787 0.38715630769729614 0.33632943034172058
0.87720757722854614 0.42195504903793335 0.36933788657188416
0.00049157236935570836 0.64772135019302368 0.38965871930122375
0.13255932927131653 0.68269556760787964 0.42028263211250305
0.48185369372367859 0.71491193771362305 0.44957879185676575
0.83736920356750488 0.76157212257385254 0.49983054399490356
1 0.8284267783164978 0.56887292861938477
0.066136032342910767 0.99494791030883789 0.55483239889144897
0.30378347635269165 1 0.61371010541915894
0.65258181095123291 1 0.62709987163543701
0.9121696949005127 0.99606978893280029 0.57890325784683228
0.99790996313095093 0.99810898303985596 0.56023705005645752
0.012617821805179119 0.015738379210233688 0.071615897119045258
0.065451554954051971 0.038848217576742172 0.14824478328227997
0.18519005179405212 0.050554655492305756 0.24039416015148163
0.36712107062339783 0.046219754964113235 0.32976314425468445
0.57089066505432129 0.031563013792037964 0.42212021350860596
0.019539462402462959 0.17180192470550537 0.35700708627700806
0.11134402453899384 0.19262027740478516 0.43360310792922974
0.32606565952301025 0.1888088583946228 0.48090633749961853
0.58360427618026733 0.1761457622051239 0.51049345731735229
0.7850043773651123 0.17604109644889832 0.54405558109283447
0.0045531177893280983 0.39449712634086609 0.56094604730606079
0.093085162341594696 0.4072721004486084 0.58577054738998413
0.37665596604347229 0.39477825164794922 0.58495891094207764
0.67487925291061401 0.39532303810119629 0.58461242914199829
0.89503520727157593 0.43325597047805786 0.63056850433349609
0.0016496097669005394 0.65704631805419922 0.63603872060775757
0.14874120056629181 0.68895357847213745 0.67344921827316284
0.50417852401733398 0.73095035552978516 0.71496438980102539
0.85757875442504883 0.78497594594955444 0.76586204767227173
1 0.84050732851028442 0.82219827175140381
0.082942426204681396 0.99905019998550415 0.82212978601455688
0.33892145752906799 1 0.8785625696182251
0.63860726356506348 1 0.8531833291053772
0.91174018383026123 1 0.8249097466468811
0.9978833794593811 0.99972695112228394 0.78829890489578247
0.017234638333320618 0.02684803307056427 0.12928636372089386
0.075343005359172821 0.04472249373793602 0.22801662981510162
0.20770712196826935 0.054568182677030563 0.3532487154006958
0.40158841013908386 0.042238421738147736 0.47497445344924927
0.60531103610992432 0.027403468266129494 0.58919870853424072
0.013671546243131161 0.17928864061832428 0.51193594932556152
0.11647544056177139 0.1957193911075592 0.6073186993598938
0.33499062061309814 0.18799950182437897 0.68177980184555054
0.5952298641204834 0.1735890656709671 0.72566640377044678
0.79862970113754272 0.1788666844367981 0.77405059337615967
0.00012960995081812143 0.39529916644096375 0.76601994037628174
0.10729944705963135 0.41045519709587097 0.81333017349243164
0.38168632984161377 0.40043514966964722 0.83005720376968384
0.6794622540473938 0.40234017372131348 0.83080506324768066
0.91942036151885986 0.45651647448539734 0.8939710259437561
0.00017794441373553127 0.66235566139221191 0.88957220315933228
0.17481693625450134 0.71341270208358765 0.93995511531829834
0.52602142095565796 0.75312972068786621 0.97216475009918213
0.87352597713470459 0.80343735218048096 0.99742299318313599
1 0.85272377729415894 0.9996001124382019
0.1004779264330864 0.99737071990966797 0.99827814102172852
0.35848385095596313 1 1
0.64710706472396851 1 1
0.88974404335021973 0.99901419878005981 0.99635595083236694
0.99897557497024536 0.99755316972732544 0.99037057161331177
