assets/lut/alexjordan red day 01.cube
# Created by: G'MIC (https://gmic.eu)
TITLE "red_day_01"
# LUT size
LUT_3D_SIZE 5
# Data domain
DOMAIN_MIN 0.0 0.0 0.0
DOMAIN_MAX 1.0 1.0 1.0
# LUT data points
0.011776120401918888 0.0058552012778818607 0.0042148064821958542
0.088896073400974274 0.018630368635058403 0.015686873346567154
0.31099164485931396 0.019913213327527046 0.018945029005408287
0.61467427015304565 0.013246109709143639 0.012370076030492783
0.90818989276885986 0.012801974080502987 0.0019793342798948288
0.057956516742706299 0.19614991545677185 0.0053116893395781517
0.2878577709197998 0.21001081168651581 0.00081612082431092858
0.53855264186859131 0.21139658987522125 0.00097216438734903932
0.77582806348800659 0.21027520298957825 2.5850184101727791e-05
0.98140454292297363 0.22764977812767029 0.0013474408769980073
0.046778466552495956 0.46075397729873657 0
0.29350998997688293 0.46001046895980835 0.0002057243837043643
0.53713297843933105 0.46189269423484802 0.0079024368897080421
0.76955628395080566 0.46444091200828552 0.017577212303876877
0.98279166221618652 0.47761517763137817 0.0084776338189840317
0.044791322201490402 0.71151024103164673 0.0005509320180863142
0.29136374592781067 0.71047794818878174 0.0018727021524682641
0.53760182857513428 0.7109944224357605 0.0076449224725365639
0.77069354057312012 0.71549206972122192 0.011676623485982418
0.98408395051956177 0.729045569896698 0.010451492853462696
0.042791746556758881 0.96710890531539917 0.00073529413202777505
0.28889197111129761 0.96446079015731812 0.0014495849609375
0.53594678640365601 0.9628676176071167 0.00082989863585680723
0.77054208517074585 0.96705728769302368 0.00064840877894312143
0.98453199863433838 0.97981816530227661 0.0040998570621013641
0.0052099940367043018 0.0046825781464576721 0.022283591330051422
0.11963622272014618 0.022628305479884148 0.085172824561595917
0.37520274519920349 0.013139867223799229 0.14529915153980255
0.67126017808914185 0.010540816001594067 0.17570652067661285
0.9429013729095459 0.018686302006244659 0.18414559960365295
0.061669457703828812 0.20649462938308716 0.1714155524969101
0.28922232985496521 0.21306966245174408 0.1789582222700119
0.53756701946258545 0.21210972964763641 0.18022175133228302
0.78756731748580933 0.21167236566543579 0.18253827095031738
0.98700982332229614 0.22810664772987366 0.1887061595916748
0.046568628400564194 0.46071740984916687 0.17510141432285309
0.29013851284980774 0.46312567591667175 0.17334525287151337
0.53671395778656006 0.46492788195610046 0.17965562641620636
0.77477490901947021 0.46802777051925659 0.18527129292488098
0.98768597841262817 0.47587829828262329 0.19054216146469116
0.043563347309827805 0.71147221326828003 0.17725051939487457
0.2894536554813385 0.71312803030014038 0.17770831286907196
0.5360906720161438 0.71694397926330566 0.18200123310089111
0.77232205867767334 0.7200201153755188 0.18445265293121338
0.98654824495315552 0.72885239124298096 0.19113187491893768
0.042647060006856918 0.96605390310287476 0.18130895495414734
0.28819501399993896 0.965859055519104 0.17886582016944885
0.53559768199920654 0.9672248363494873 0.17354731261730194
0.77265304327011108 0.96999609470367432 0.17235599458217621
0.98764955997467041 0.97876060009002686 0.18506346642971039
0.015537172555923462 0.011286522261798382 0.0586688332259655
0.15658767521381378 0.025689518079161644 0.19036972522735596
0.41353163123130798 0.017849581316113472 0.29945054650306702
0.69928896427154541 0.012220061384141445 0.35494664311408997
0.97460281848907471 0.021799005568027496 0.39066436886787415
0.067797072231769562 0.20893204212188721 0.36203712224960327
0.2973577082157135 0.21598364412784576 0.38566374778747559
0.54276251792907715 0.21935883164405823 0.38506802916526794
0.78231608867645264 0.21737653017044067 0.38407844305038452
0.99125057458877563 0.22778163850307465 0.3949609100818634
0.043054290115833282 0.46546086668968201 0.38872039318084717
0.28839868307113647 0.46780663728713989 0.38504680991172791
0.53962916135787964 0.47031313180923462 0.37960505485534668
0.77743518352508545 0.47058221697807312 0.37938758730888367
0.98962277173995972 0.47407853603363037 0.39294049143791199
0.042864721268415451 0.71557152271270752 0.39141139388084412
0.29000979661941528 0.71673643589019775 0.38729876279830933
0.5390326976776123 0.72021740674972534 0.38252881169319153
0.77632719278335571 0.72293436527252197 0.38309812545776367
0.99037343263626099 0.72764956951141357 0.39462447166442871
0.044286467134952545 0.96754145622253418 0.40038284659385681
0.29044502973556519 0.96761906147003174 0.39449065923690796
0.53698384761810303 0.97006279230117798 0.38620486855506897
0.77283179759979248 0.97276389598846436 0.38457193970680237
0.99065947532653809 0.97855395078659058 0.39623004198074341
0.036195762455463409 0.015236768871545792 0.15127553045749664
0.19391366839408875 0.023447329178452492 0.36034813523292542
0.4530518651008606 0.011987349949777126 0.50506174564361572
0.75256842374801636 0.0037377451080828905 0.5978817343711853
0.98426449298858643 0.015548900701105595 0.6379164457321167
0.07031906396150589 0.21177704632282257 0.5924418568611145
0.29978141188621521 0.21603186428546906 0.62316441535949707
0.54225271940231323 0.21863162517547607 0.62404090166091919
0.78670424222946167 0.21153564751148224 0.62193745374679565
0.99138808250427246 0.22369597852230072 0.63287085294723511
0.045905888080596924 0.46913415193557739 0.616554856300354
0.2922455370426178 0.4686274528503418 0.61698311567306519
0.54132962226867676 0.46998259425163269 0.61267876625061035
0.77671569585800171 0.4683869481086731 0.61190485954284668
0.98968595266342163 0.47159853577613831 0.62618261575698853
0.046933505684137344 0.71872669458389282 0.61968851089477539
0.29561612010002136 0.71714317798614502 0.61826759576797485
0.54402095079421997 0.72030866146087646 0.613494873046875
0.7806166410446167 0.72325402498245239 0.61924242973327637
0.99132269620895386 0.72730928659439087 0.62962090969085693
0.046741366386413574 0.9676591157913208 0.63707560300827026
0.29367896914482117 0.96830457448959351 0.63102716207504272
0.54048019647598267 0.97072595357894897 0.62099778652191162
0.77631741762161255 0.97401219606399536 0.62250536680221558
0.98981571197509766 0.97946655750274658 0.63633453845977783
0.042372085154056549 0.023529142141342163 0.29376381635665894
0.22350892424583435 0.016229217872023582 0.59708774089813232
0.49205231666564941 0.0053560445085167885 0.785797119140625
0.75605958700180054 0.0088269701227545738 0.85081356763839722
0.98970365524291992 0.024746360257267952 0.90753316879272461
0.058560345321893692 0.21313634514808655 0.87301307916641235
0.29974228143692017 0.21498580276966095 0.8883441686630249
0.54930144548416138 0.21232202649116516 0.91140890121459961
0.77613347768783569 0.22168923914432526 0.88301336765289307
0.99043166637420654 0.2331729531288147 0.90039205551147461
0.050015199929475784 0.46821284294128418 0.87970471382141113
0.29682242870330811 0.46627748012542725 0.89095890522003174
0.54525649547576904 0.46521314978599548 0.89005368947982788
0.77608621120452881 0.46748536825180054 0.88296568393707275
0.98967611789703369 0.47475025057792664 0.89335429668426514
0.052858106791973114 0.71770930290222168 0.87594211101531982
0.29937353730201721 0.71595782041549683 0.88543552160263062
0.54546570777893066 0.71762579679489136 0.8814052939414978
0.78062146902084351 0.72073745727539062 0.88613986968994141
0.99093139171600342 0.72777783870697021 0.89671748876571655
0.048249848186969757 0.96758580207824707 0.89152681827545166
0.29568654298782349 0.96758580207824707 0.89225691556930542
0.54126578569412231 0.97010868787765503 0.88430297374725342
0.77508676052093506 0.97309869527816772 0.89320206642150879
0.98701000213623047 0.98019683361053467 0.90451949834823608
