assets/lut/alexjordan night 01.cube
# Created by: G'MIC (https://gmic.eu)
TITLE "night_01"
# LUT size
LUT_3D_SIZE 5
# Data domain
DOMAIN_MIN 0.0 0.0 0.0
DOMAIN_MAX 1.0 1.0 1.0
# LUT data points
0.00015927483036648482 0 0
0 0 0
0 0 0
0 0 0
0.010835535824298859 0.00070049811620265245 0.00094592524692416191
2.1003274014219642e-05 0 0
0.0047210096381604671 0.004543050192296505 0.0019073036964982748
0.044365439563989639 0.023017389699816704 0.0047904369421303272
0.15857610106468201 0.052827812731266022 0.00046440571895800531
0.33288675546646118 0.073480822145938873 0.00015635770978406072
0.001482855062931776 0.12362748384475708 0
0.071330979466438293 0.17833396792411804 0.00058655085740610957
0.2058887779712677 0.21356417238712311 0.00068360869772732258
0.38116425275802612 0.24108953773975372 0.0058999154716730118
0.5786018967628479 0.26498633623123169 0.018863469362258911
0 0.4007018506526947 1.3463637515087612e-05
0.095396138727664948 0.43714496493339539 0.0045863878913223743
0.25935986638069153 0.46611425280570984 0.041006006300449371
0.44297757744789124 0.4958227276802063 0.072405949234962463
0.62519264221191406 0.52390682697296143 0.10123946517705917
0.0093798767775297165 0.66662555932998657 0.050814084708690643
0.14263662695884705 0.69786304235458374 0.078373044729232788
0.32833102345466614 0.73085516691207886 0.10806198418140411
0.53337979316711426 0.76168692111968994 0.13961502909660339
0.72989815473556519 0.79305940866470337 0.21644166111946106
0 0 0
0 0 0
0 0 0
0 0 0
0.0075352536514401436 0.00026137407985515893 0.00048949295887723565
0 0 0.00030158547451719642
0.0073508019559085369 0.0092349480837583542 0.0073185041546821594
0.066992603242397308 0.038310270756483078 0.029687859117984772
0.19484621286392212 0.062455210834741592 0.052112773060798645
0.37798100709915161 0.078052893280982971 0.053017605096101761
0.003844287246465683 0.14394325017929077 0.043941766023635864
0.079475924372673035 0.19364374876022339 0.06583983451128006
0.21820582449436188 0.2302747368812561 0.074229493737220764
0.39675036072731018 0.25467786192893982 0.097452886402606964
0.58855527639389038 0.27520406246185303 0.12399379909038544
1.4540728443535045e-05 0.4203026294708252 0.085747510194778442
0.095747672021389008 0.45430609583854675 0.1210436075925827
0.26441636681556702 0.48147761821746826 0.16447845101356506
0.44997194409370422 0.50939005613327026 0.19981366395950317
0.64140433073043823 0.53438663482666016 0.23594661056995392
0.0039174249395728111 0.68023884296417236 0.19312722980976105
0.14111980795860291 0.71158194541931152 0.22457729279994965
0.34146010875701904 0.74166077375411987 0.25262761116027832
0.5566331148147583 0.77022898197174072 0.27568283677101135
0.75471627712249756 0.79892563819885254 0.36494055390357971
0 0 0
0 0 0
0 0 0
0 0 0
0.030381221324205399 0.0025089937262237072 0.011054933071136475
0 0.00054541195277124643 0.0012063418980687857
0.018892699852585793 0.01906147412955761 0.029216093942523003
0.089769758284091949 0.049997769296169281 0.073407270014286041
0.22783477604389191 0.071936860680580139 0.11207590997219086
0.41429039835929871 0.087223052978515625 0.14012534916400909
0.010926354676485062 0.16816774010658264 0.12061544507741928
0.088339850306510925 0.20699135959148407 0.16068296134471893
0.23067896068096161 0.24134881794452667 0.18255069851875305
0.41117876768112183 0.26936140656471252 0.2084210067987442
0.59481501579284668 0.29210811853408813 0.25057795643806458
0.0030043807346373796 0.43630644679069519 0.21148833632469177
0.10546062886714935 0.46616408228874207 0.24972167611122131
0.27635127305984497 0.49580079317092896 0.29275986552238464
0.4656987190246582 0.52360516786575317 0.32275423407554626
0.65724396705627441 0.55302590131759644 0.34685349464416504
0.017383141443133354 0.69624942541122437 0.32620114088058472
0.16803430020809174 0.72859221696853638 0.34413242340087891
0.37261056900024414 0.75918745994567871 0.3707754909992218
0.58153581619262695 0.78453153371810913 0.4089432954788208
0.77744108438491821 0.81337577104568481 0.47718667984008789
0 0 0
0 0 0
0 0 0
0.0010487724794074893 9.7297219326719642e-05 0.00083636114140972495
0.063707239925861359 0.0045061898417770863 0.039797868579626083
0.00041590671753510833 0.0035531886387616396 0.0087414905428886414
0.027808858081698418 0.03021475113928318 0.066612496972084045
0.11003111302852631 0.060267131775617599 0.13969826698303223
0.25843790173530579 0.077925227582454681 0.20947490632534027
0.44425216317176819 0.092961512506008148 0.25965717434883118
0.0060390997678041458 0.18453268706798553 0.23072244226932526
0.086917772889137268 0.2243541032075882 0.28427219390869141
0.24207223951816559 0.25430956482887268 0.32825574278831482
0.41860997676849365 0.28006207942962646 0.36307018995285034
0.60456621646881104 0.30495244264602661 0.40724042057991028
0.0010196610819548368 0.44666388630867004 0.36371082067489624
0.10499228537082672 0.47819554805755615 0.40205836296081543
0.28967303037643433 0.50788575410842896 0.44416898488998413
0.4785626232624054 0.53619343042373657 0.47499740123748779
0.67235648632049561 0.56657737493515015 0.49219271540641785
0.031951393932104111 0.70833116769790649 0.47073346376419067
0.18913324177265167 0.74136090278625488 0.47771558165550232
0.3960936963558197 0.77204304933547974 0.50390839576721191
0.60274714231491089 0.8007393479347229 0.541481614112854
0.7962958812713623 0.82682770490646362 0.62357515096664429
0.00066763185895979404 9.8598706244956702e-05 0.00029579611145891249
0 0 0
0 0 0
0.0094436043873429298 0.00042419432429596782 0.011567074805498123
0.1063532680273056 0.0066208485513925552 0.089135728776454926
0.0016624450217932463 0.012943238019943237 0.038799628615379333
0.035296779125928879 0.042111281305551529 0.12711505591869354
0.13231463730335236 0.07221367210149765 0.23546230792999268
0.28720074892044067 0.085355184972286224 0.33449718356132507
0.4880547821521759 0.094793178141117096 0.40964260697364807
0.0077205882407724857 0.20204761624336243 0.36436480283737183
0.09517388790845871 0.23731543123722076 0.43456253409385681
0.24552817642688751 0.2646731436252594 0.49210062623023987
0.42287245392799377 0.29015061259269714 0.53195959329605103
0.61017155647277832 0.31759923696517944 0.56631571054458618
0.0081628691405057907 0.45747190713882446 0.52752947807312012
0.12562741339206696 0.48830583691596985 0.5744432806968689
0.30567017197608948 0.5180622935295105 0.60410594940185547
0.491941899061203 0.54878151416778564 0.62880158424377441
0.68777364492416382 0.57849395275115967 0.65052276849746704
0.065708696842193604 0.7242470383644104 0.62243890762329102
0.2224448174238205 0.75267130136489868 0.63397133350372314
0.42349806427955627 0.7819288969039917 0.6536596417427063
0.62034124135971069 0.81378340721130371 0.68791532516479492
0.81491708755493164 0.84592854976654053 0.74019825458526611
