assets/lut/alexjordan low key 01.cube
# Created by: G'MIC (https://gmic.eu)
TITLE "low_key_01"
# LUT size
LUT_3D_SIZE 7
# Data domain
DOMAIN_MIN 0.0 0.0 0.0
DOMAIN_MAX 1.0 1.0 1.0
# LUT data points
0.00010986327833961695 0.00039708754047751427 0
0.014541341923177242 0.0099209202453494072 0.0020259183365851641
0.057085327804088593 0.027553662657737732 0.018123552203178406
0.12030734121799469 0.042129144072532654 0.036898668855428696
0.21038228273391724 0.049358680844306946 0.046235296875238419
0.30913469195365906 0.054434772580862045 0.061708174645900726
0.41029268503189087 0.057411015033721924 0.081048168241977692
0.050179067999124527 0.076169140636920929 0.033296652138233185
0.097384855151176453 0.097580477595329285 0.038025815039873123
0.16417863965034485 0.10834193229675293 0.045335374772548676
0.24866342544555664 0.11591612547636032 0.054739110171794891
0.34591364860534668 0.12203504145145416 0.062367219477891922
0.45506161451339722 0.1248852014541626 0.072069369256496429
0.56897109746932983 0.1256420910358429 0.086373254656791687
0.073696017265319824 0.18520805239677429 0.050351548939943314
0.13920344412326813 0.20134937763214111 0.049090798944234848
0.21929991245269775 0.21005679666996002 0.046001166105270386
0.31723955273628235 0.21443457901477814 0.051954951137304306
0.4234243631362915 0.2181733101606369 0.060212649405002594
0.53622341156005859 0.22025509178638458 0.070177711546421051
0.64893150329589844 0.22188372910022736 0.087315022945404053
0.079611681401729584 0.30127939581871033 0.054255977272987366
0.15922644734382629 0.3140319287776947 0.054025597870349884
0.25109642744064331 0.3219471275806427 0.054215613752603531
0.35035973787307739 0.32804811000823975 0.056968435645103455
0.45267263054847717 0.33403602242469788 0.063945725560188293
0.5558396577835083 0.33941316604614258 0.076243475079536438
0.66269439458847046 0.34273186326026917 0.095520630478858948
0.092870436608791351 0.41762557625770569 0.066572494804859161
0.18122874200344086 0.42846068739891052 0.069305941462516785
0.2774750292301178 0.43645158410072327 0.072015516459941864
0.37482553720474243 0.44477912783622742 0.074303902685642242
0.47168734669685364 0.45329391956329346 0.079686842858791351
0.56822431087493896 0.46148443222045898 0.090884730219841003
0.67253512144088745 0.46599748730659485 0.1089378222823143
0.1119958758354187 0.53408414125442505 0.084645017981529236
0.20517335832118988 0.54390096664428711 0.090494416654109955
0.30263486504554749 0.55240863561630249 0.094910174608230591
0.39896228909492493 0.56148898601531982 0.09769846498966217
0.49388596415519714 0.57138723134994507 0.10234424471855164
0.5907052755355835 0.57985228300094604 0.1118786558508873
0.69236773252487183 0.58589553833007812 0.12721501290798187
0.13242779672145844 0.65151429176330566 0.1039968729019165
0.22826789319515228 0.6610991358757019 0.11258501559495926
0.32599401473999023 0.66975688934326172 0.11874163895845413
0.42264044284820557 0.67932438850402832 0.12306661903858185
0.51823598146438599 0.68902182579040527 0.12801216542720795
0.61514008045196533 0.69801539182662964 0.13642780482769012
0.71470493078231812 0.70513880252838135 0.14951199293136597
0.0013287563342601061 0.0028487560339272022 0.0012425740715116262
0.02192903496325016 0.018705181777477264 0.014900806359946728
0.072941094636917114 0.035659115761518478 0.040076807141304016
0.13635501265525818 0.04889330267906189 0.060950994491577148
0.2180684506893158 0.057640522718429565 0.081634297966957092
0.31550353765487671 0.062058839946985245 0.10483214259147644
0.42423486709594727 0.061557155102491379 0.12948928773403168
0.053335569798946381 0.085391461849212646 0.062314517796039581
0.10529746115207672 0.10443746298551559 0.078046746551990509
0.17243170738220215 0.11476603150367737 0.091206073760986328
0.25676161050796509 0.12108650803565979 0.1070438027381897
0.35067290067672729 0.12767185270786285 0.12150172889232635
0.45596402883529663 0.13163565099239349 0.13894486427307129
0.56256747245788574 0.13447780907154083 0.15819339454174042
0.068696148693561554 0.19353774189949036 0.0986366868019104
0.13755394518375397 0.20799839496612549 0.10368872433900833
0.22283431887626648 0.2149033397436142 0.11044657230377197
0.32155132293701172 0.21876205503940582 0.12222907692193985
0.425467848777771 0.22318771481513977 0.13558222353458405
0.53289413452148438 0.22610573470592499 0.15310302376747131
0.63652670383453369 0.23124769330024719 0.17212945222854614
0.068427018821239471 0.31021410226821899 0.1143677830696106
0.15133656561374664 0.32148951292037964 0.11732783913612366
0.2494022399187088 0.32757920026779175 0.12395345419645309
0.34950056672096252 0.33446070551872253 0.13052162528038025
0.45203116536140442 0.33929601311683655 0.14293164014816284
0.55551236867904663 0.34347075223922729 0.16166794300079346
0.65936410427093506 0.34786471724510193 0.1828601211309433
0.086299926042556763 0.4246518611907959 0.13786458969116211
0.17692787945270538 0.43425995111465454 0.14225134253501892
0.27772930264472961 0.44074860215187073 0.14860677719116211
0.3755125105381012 0.44927206635475159 0.15239129960536957
0.47229981422424316 0.45764413475990295 0.16038776934146881
0.571197509765625 0.46403095126152039 0.17506983876228333
0.67642968893051147 0.46828576922416687 0.19484265148639679
0.11121603101491928 0.53935861587524414 0.16321311891078949
0.20579332113265991 0.54803448915481567 0.17014844715595245
0.30563095211982727 0.55541551113128662 0.17633195221424103
0.40151938796043396 0.56486505270004272 0.17902414500713348
0.49586406350135803 0.57499474287033081 0.18378530442714691
0.59304344654083252 0.58357220888137817 0.19390982389450073
0.695770263671875 0.58970052003860474 0.21008767187595367
0.13558879494667053 0.65583354234695435 0.18750660121440887
0.23161378502845764 0.66469419002532959 0.19582830369472504
0.32990357279777527 0.67283773422241211 0.2021293044090271
0.42628014087677002 0.68217927217483521 0.20609152317047119
0.52110952138900757 0.69266802072525024 0.21043917536735535
0.61752480268478394 0.70234888792037964 0.21838827431201935
0.7176440954208374 0.70987826585769653 0.23178446292877197
0.0064934673719108105 0.0069581423886120319 0.006500663235783577
0.036822330206632614 0.025535404682159424 0.032308317720890045
0.087847582995891571 0.042435139417648315 0.063854247331619263
0.14910724759101868 0.056003376841545105 0.088895969092845917
0.23390254378318787 0.061941392719745636 0.11946947872638702
0.33440586924552917 0.064064741134643555 0.15035195648670197
0.44354039430618286 0.062502332031726837 0.17945818603038788
0.059203639626502991 0.09184042364358902 0.097521223127841949
0.11057870835065842 0.10916183888912201 0.12140963971614838
0.17622244358062744 0.12232597172260284 0.1399226188659668
0.26071903109550476 0.12929432094097137 0.16095186769962311
0.35662439465522766 0.13292978703975677 0.18384724855422974
0.46208253502845764 0.13564023375511169 0.20806457102298737
0.56724172830581665 0.13785465061664581 0.23044958710670471
0.066868938505649567 0.19786804914474487 0.16219620406627655
0.13856086134910583 0.21084299683570862 0.17302089929580688
0.22516658902168274 0.22045512497425079 0.1820426881313324
0.32353317737579346 0.22542676329612732 0.19752024114131927
0.42714354395866394 0.22791668772697449 0.21771405637264252
0.5309177041053772 0.23123350739479065 0.23904009163379669
0.62991267442703247 0.23786106705665588 0.25834649801254272
0.067960180342197418 0.31334167718887329 0.19547472894191742
0.15317569673061371 0.32403084635734558 0.20031347870826721
0.25160852074623108 0.33159244060516357 0.2067076712846756
0.3526424765586853 0.33837977051734924 0.21641042828559875
0.45530498027801514 0.34288898110389709 0.23338009417057037
0.55737006664276123 0.34644117951393127 0.25396087765693665
0.65869808197021484 0.35120892524719238 0.27425393462181091
0.086700260639190674 0.42829158902168274 0.22113379836082458
0.17813387513160706 0.43738868832588196 0.22665216028690338
0.27908408641815186 0.44421932101249695 0.2332204282283783
0.3779042661190033 0.45237559080123901 0.23909761011600494
0.47621932625770569 0.45917004346847534 0.2498725950717926
0.5780189037322998 0.46405225992202759 0.2668035626411438
0.68443912267684937 0.46809867024421692 0.28611648082733154
0.11322257667779922 0.54270786046981812 0.24784040451049805
0.20801006257534027 0.55128699541091919 0.25507381558418274
0.30780413746833801 0.55834096670150757 0.26158824563026428
0.40452641248703003 0.56731051206588745 0.2655968964099884
0.49963995814323425 0.57690328359603882 0.27139580249786377
0.59715813398361206 0.58558636903762817 0.28141516447067261
0.69940340518951416 0.59247392416000366 0.29651466012001038
0.13978593051433563 0.65890288352966309 0.27446356415748596
0.23560614883899689 0.6674492359161377 0.28275492787361145
0.33393049240112305 0.67517638206481934 0.28924566507339478
0.43062534928321838 0.68422430753707886 0.29373377561569214
0.52520143985748291 0.69486582279205322 0.29803645610809326
0.62061822414398193 0.70525079965591431 0.30500400066375732
0.7202451229095459 0.71369403600692749 0.31786009669303894
0.013471326790750027 0.013439343310892582 0.017466945573687553
0.044535364955663681 0.032653704285621643 0.053498540073633194
0.099525094032287598 0.046975918114185333 0.09453805536031723
0.1733262836933136 0.056791897863149643 0.13387753069400787
0.25817224383354187 0.062547393143177032 0.169512540102005
0.35624411702156067 0.063990451395511627 0.20228230953216553
0.46028858423233032 0.063386417925357819 0.23146362602710724
0.062602177262306213 0.09920395165681839 0.14208009839057922
0.11466441303491592 0.11295095831155777 0.17494881153106689
0.18355575203895569 0.1253863126039505 0.20084734261035919
0.26908177137374878 0.1343686431646347 0.2246408611536026
0.36319547891616821 0.13937856256961823 0.24989309906959534
0.46799579262733459 0.14062464237213135 0.27538666129112244
0.57726752758026123 0.14058244228363037 0.29944482445716858
0.069289743900299072 0.20209291577339172 0.23309892416000366
0.1428496390581131 0.21316780149936676 0.25098401308059692
0.22835215926170349 0.22385780513286591 0.26297619938850403
0.32408824563026428 0.23161324858665466 0.27747461199760437
0.42306384444236755 0.23668636381626129 0.29649007320404053
0.52587902545928955 0.24046714603900909 0.31652814149856567
0.63066738843917847 0.24322859942913055 0.3361036479473114
0.073546707630157471 0.31565466523170471 0.28012418746948242
0.15863099694252014 0.32611775398254395 0.28812932968139648
0.2544592022895813 0.33494833111763 0.29500725865364075
0.35434889793395996 0.34211191534996033 0.30543205142021179
0.45281347632408142 0.34832876920700073 0.32053428888320923
0.55343425273895264 0.35291987657546997 0.33955296874046326
0.65871989727020264 0.35631990432739258 0.35809734463691711
0.092037588357925415 0.43082424998283386 0.30801796913146973
0.18237760663032532 0.44055226445198059 0.31420174241065979
0.28089496493339539 0.44803714752197266 0.32078304886817932
0.37976312637329102 0.45591506361961365 0.32816469669342041
0.47695249319076538 0.46342909336090088 0.33911719918251038
0.58046495914459229 0.46671313047409058 0.35948136448860168
0.68417352437973022 0.47240638732910156 0.37540540099143982
0.11791733652353287 0.54608714580535889 0.33490470051765442
0.21147927641868591 0.55488556623458862 0.3419874906539917
0.30975773930549622 0.56214427947998047 0.34870404005050659
0.40732055902481079 0.57015299797058105 0.35480308532714844
0.50311148166656494 0.57949399948120117 0.36231639981269836
0.6010277271270752 0.58766305446624756 0.37388443946838379
0.70161467790603638 0.59538388252258301 0.38796705007553101
0.14487327635288239 0.66200906038284302 0.36310237646102905
0.23992438614368439 0.670726478099823 0.37137293815612793
0.3377460241317749 0.67814457416534424 0.37828424572944641
0.43503460288047791 0.68603098392486572 0.38435426354408264
0.52962476015090942 0.69660079479217529 0.38955569267272949
0.62493371963500977 0.70756286382675171 0.39727783203125
0.72430062294006348 0.71590739488601685 0.41056373715400696
0.014990623109042645 0.021777193993330002 0.038898468017578125
0.054216600954532623 0.03960958868265152 0.086295366287231445
0.11405129730701447 0.051178112626075745 0.13875584304332733
0.1923716813325882 0.058331388980150223 0.18823747336864471
0.27870857715606689 0.062549784779548645 0.23029698431491852
0.37041434645652771 0.066426627337932587 0.26292875409126282
0.46389663219451904 0.070123650133609772 0.28839561343193054
0.06222139298915863 0.10631448775529861 0.1973133385181427
0.11809222400188446 0.11955985426902771 0.23591078817844391
0.18991926312446594 0.12984620034694672 0.27001449465751648
0.27756989002227783 0.13725569844245911 0.30043759942054749
0.37138688564300537 0.14261633157730103 0.32692131400108337
0.4693509042263031 0.146946981549263 0.34828254580497742
0.56670552492141724 0.1515701562166214 0.36552461981773376
0.074100315570831299 0.20713157951831818 0.30768278241157532
0.14721733331680298 0.21812170743942261 0.33137112855911255
0.23197302222251892 0.22748848795890808 0.35001486539840698
0.32626062631607056 0.23540841042995453 0.36506390571594238
0.42241737246513367 0.24298703670501709 0.37956854701042175
0.52091950178146362 0.24893276393413544 0.39423272013664246
0.62128293514251709 0.2535737156867981 0.40825298428535461
0.08015798032283783 0.31979632377624512 0.3633173406124115
0.1640990674495697 0.33025592565536499 0.37409937381744385
0.25773206353187561 0.33847063779830933 0.38600060343742371
0.35555094480514526 0.34594926238059998 0.3953728973865509
0.45042771100997925 0.35537481307983398 0.40492528676986694
0.54841405153274536 0.36183056235313416 0.41950017213821411
0.65131819248199463 0.36579161882400513 0.43460777401924133
0.098100371658802032 0.43481579422950745 0.39402118325233459
0.1876249760389328 0.44466355443000793 0.40150260925292969
0.28454241156578064 0.45175015926361084 0.41114321351051331
0.38371127843856812 0.4587063193321228 0.42059075832366943
0.47918209433555603 0.46800017356872559 0.42913442850112915
0.57912898063659668 0.47345101833343506 0.44579610228538513
0.68127435445785522 0.47926470637321472 0.4622100293636322
0.12357009947299957 0.54990339279174805 0.42269214987754822
0.21604554355144501 0.55914276838302612 0.43059885501861572
0.31305643916130066 0.5665547251701355 0.43876361846923828
0.41106927394866943 0.57391279935836792 0.44684767723083496
0.50699126720428467 0.58293032646179199 0.45516785979270935
0.60512679815292358 0.59065687656402588 0.46841365098953247
0.7074277400970459 0.59679877758026123 0.48714011907577515
0.15003244578838348 0.66571420431137085 0.45327171683311462
0.24425758421421051 0.67483973503112793 0.46200981736183167
0.34102800488471985 0.68255680799484253 0.46907207369804382
0.43809106945991516 0.6904178261756897 0.47600641846656799
0.53363889455795288 0.69991075992584229 0.48313835263252258
0.63038885593414307 0.70910024642944336 0.49341166019439697
0.73061925172805786 0.71660065650939941 0.50887048244476318
0.024991068989038467 0.028575388714671135 0.070038273930549622
0.066817536950111389 0.045320905745029449 0.12937329709529877
0.12330780178308487 0.056785359978675842 0.18923278152942657
0.20092292129993439 0.062688760459423065 0.24649706482887268
0.29429468512535095 0.063337795436382294 0.29956042766571045
0.38945314288139343 0.06617177277803421 0.3408321738243103
0.48021712899208069 0.069990359246730804 0.36811050772666931
0.064301222562789917 0.11228859424591064 0.26480543613433838
0.12374132871627808 0.12454702705144882 0.31087028980255127
0.19527885317802429 0.13335169851779938 0.35106813907623291
0.28347510099411011 0.13920089602470398 0.38625198602676392
0.38341349363327026 0.14181798696517944 0.41627421975135803
0.4793533980846405 0.14774511754512787 0.43647068738937378
0.56642365455627441 0.15730883181095123 0.44602641463279724
0.074141740798950195 0.21220234036445618 0.39668503403663635
0.15070918202400208 0.2220531553030014 0.42388820648193359
0.23706759512424469 0.22927750647068024 0.44718220829963684
0.33150586485862732 0.23667363822460175 0.46187949180603027
0.43034854531288147 0.24337948858737946 0.47328701615333557
0.52607971429824829 0.25141668319702148 0.48323893547058105
0.61621367931365967 0.26101276278495789 0.48814976215362549
0.079764209687709808 0.32476800680160522 0.45829901099205017
0.16728335618972778 0.33424258232116699 0.46913683414459229
0.26195043325424194 0.34098726511001587 0.48384466767311096
0.35860916972160339 0.3492283821105957 0.48859325051307678
0.45528122782707214 0.35836750268936157 0.49434012174606323
0.55130279064178467 0.36637872457504272 0.50528037548065186
0.64621859788894653 0.37406471371650696 0.51422625780105591
0.10041547566652298 0.43943315744400024 0.48660045862197876
0.19110387563705444 0.44883975386619568 0.49648457765579224
0.28789255023002625 0.45574221014976501 0.50719940662384033
0.38727480173110962 0.46258246898651123 0.51494210958480835
0.48355937004089355 0.47179719805717468 0.52165061235427856
0.57883638143539429 0.48129260540008545 0.53111428022384644
0.67891031503677368 0.48644587397575378 0.54747730493545532
0.12778891623020172 0.55401444435119629 0.51405656337738037
0.21969205141067505 0.56376731395721436 0.52455443143844604
0.31582814455032349 0.57168781757354736 0.53290170431137085
0.41398108005523682 0.57881486415863037 0.54085421562194824
0.51080405712127686 0.58666008710861206 0.55018001794815063
0.60700267553329468 0.59536290168762207 0.56005680561065674
0.70921176671981812 0.60059493780136108 0.57936626672744751
0.15384717285633087 0.66963499784469604 0.54626280069351196
0.24768286943435669 0.6794123649597168 0.55580383539199829
0.34352999925613403 0.68787688016891479 0.56264793872833252
0.44041192531585693 0.69572716951370239 0.56955838203430176
0.53675323724746704 0.70378631353378296 0.57783573865890503
0.63313299417495728 0.71228063106536865 0.58706915378570557
0.73356270790100098 0.7189948558807373 0.60258907079696655
0.034557566046714783 0.034887604415416718 0.099165387451648712
0.07422657310962677 0.051390644162893295 0.17002688348293304
0.12915167212486267 0.062170889228582382 0.23964884877204895
0.20485030114650726 0.068530261516571045 0.30175447463989258
0.30329799652099609 0.066482245922088623 0.36377343535423279
0.40447816252708435 0.066421568393707275 0.41468465328216553
0.4972916841506958 0.068223752081394196 0.44821304082870483
0.064825259149074554 0.11819487810134888 0.32846975326538086
0.12702015042304993 0.12970401346683502 0.37882056832313538
0.19943100214004517 0.13659556210041046 0.42808109521865845
0.28746163845062256 0.14155463874340057 0.46767231822013855
0.3879241943359375 0.14514629542827606 0.4953940212726593
0.48527297377586365 0.15045247972011566 0.51753556728363037
0.57152408361434937 0.16033285856246948 0.52748018503189087
0.070343136787414551 0.21747235953807831 0.48339587450027466
0.15211515128612518 0.22580230236053467 0.51441854238510132
0.24143745005130768 0.23115625977516174 0.54204612970352173
0.33683720231056213 0.23740889132022858 0.55857527256011963
0.43582445383071899 0.2449989914894104 0.56549888849258423
0.53100240230560303 0.25359711050987244 0.57191693782806396
0.61855828762054443 0.26466363668441772 0.57488662004470825
0.074176788330078125 0.32934805750846863 0.55922591686248779
0.16850905120372772 0.3368588387966156 0.5746806263923645
0.26577171683311462 0.3432554304599762 0.58578312397003174
0.36352652311325073 0.35112974047660828 0.58956897258758545
0.46154984831809998 0.35955402255058289 0.59290719032287598
0.55744040012359619 0.3680560290813446 0.59969335794448853
0.6502002477645874 0.37690573930740356 0.60559898614883423
0.098507121205329895 0.44339671730995178 0.58774292469024658
0.19207051396369934 0.45214736461639404 0.60093116760253906
0.29026645421981812 0.45959389209747314 0.60857003927230835
0.38941255211830139 0.46701335906982422 0.61296069622039795
0.48747965693473816 0.47459518909454346 0.61928385496139526
0.58350318670272827 0.48313790559768677 0.62657266855239868
0.67991185188293457 0.49060305953025818 0.6362835168838501
0.12798108160495758 0.55794376134872437 0.61116474866867065
0.22112230956554413 0.56780022382736206 0.62411648035049438
0.31757071614265442 0.57645314931869507 0.63096505403518677
0.41573843359947205 0.58391815423965454 0.63684028387069702
0.51447850465774536 0.58985280990600586 0.64808696508407593
0.60997599363327026 0.59809917211532593 0.65469717979431152
0.70789617300033569 0.60573095083236694 0.66536760330200195
0.15508578717708588 0.67351925373077393 0.63935196399688721
0.24937206506729126 0.68383657932281494 0.65109497308731079
0.34518516063690186 0.6927606463432312 0.65778821706771851
0.44232505559921265 0.70061010122299194 0.66434383392333984
0.53954339027404785 0.70739662647247314 0.67325598001480103
0.6354406476020813 0.71566200256347656 0.68040776252746582
0.73357081413269043 0.72310429811477661 0.69096529483795166
