assets/lut/alexjordan harsh sunset.cube
# Created by: G'MIC (https://gmic.eu)
TITLE "harsh_sunset"
# LUT size
LUT_3D_SIZE 13
# Data domain
DOMAIN_MIN 0.0 0.0 0.0
DOMAIN_MAX 1.0 1.0 1.0
# LUT data points
0 0 0
0 0 0
0.00031208712607622147 0.00019851385150104761 0.00092463771579787135
0.0082843704149127007 0.0049194335006177425 0.0087127089500427246
0.021279053762555122 0.012907738797366619 0.014918607659637928
0.040749762207269669 0.019470455124974251 0.019771412014961243
0.069099992513656616 0.022828329354524612 0.023729706183075905
0.10614167898893356 0.022167699411511421 0.025047661736607552
0.15388430655002594 0.021393494680523872 0.024590061977505684
0.21488501131534576 0.017792122438549995 0.021179273724555969
0.29592731595039368 0.010970590636134148 0.014154905453324318
0.39434811472892761 0.0045461766421794891 0.0057697971351444721
0.51539868116378784 0.00020303165365476161 0.00047411452396772802
0.00067401962587609887 0.0013626248110085726 0.0017035390483215451
0.00098278571385890245 0.0023265762720257044 0.0020545062143355608
0.0061309216544032097 0.0071441950276494026 0.008408520370721817
0.01869545690715313 0.015420876443386078 0.017420226708054543
0.03355368971824646 0.021954614669084549 0.022349009290337563
0.05662517249584198 0.026864295825362206 0.026459876447916031
0.087965346872806549 0.028997952118515968 0.030012542381882668
0.12602204084396362 0.027064917609095573 0.028374137356877327
0.18403221666812897 0.025652313604950905 0.0253931675106287
0.2508063018321991 0.021458718925714493 0.021340418606996536
0.33105096220970154 0.012674682773649693 0.014141815714538097
0.43281614780426025 0.0033987755887210369 0.0042204465717077255
0.56712609529495239 0 2.1541820842685411e-06
0.017297662794589996 0.019970463588833809 0.019374249503016472
0.0175348911434412 0.02188212051987648 0.018997132778167725
0.027489859610795975 0.028087930753827095 0.026081385090947151
0.045549429953098297 0.035524003207683563 0.033399589359760284
0.069475926458835602 0.04085051640868187 0.036398690193891525
0.10499797016382217 0.043900061398744583 0.038883551955223083
0.15058600902557373 0.044827703386545181 0.039677951484918594
0.2049630731344223 0.042466241866350174 0.03295980766415596
0.28398275375366211 0.038089048117399216 0.024812033399939537
0.37596017122268677 0.030266242101788521 0.017680449411273003
0.47785064578056335 0.017307715490460396 0.010985595174133778
0.60670524835586548 0.0038269192446023226 0.0038604587316513062
0.75593060255050659 0 0
0.041519120335578918 0.052535261958837509 0.043058566749095917
0.042539499700069427 0.056118115782737732 0.043666467070579529
0.056397981941699982 0.062610059976577759 0.048555649816989899
0.083234377205371857 0.069867059588432312 0.051175031810998917
0.12157392501831055 0.074148140847682953 0.052005887031555176
0.17328013479709625 0.075086168944835663 0.050793081521987915
0.23774099349975586 0.073625735938549042 0.04462737962603569
0.31817594170570374 0.069243565201759338 0.033811859786510468
0.42223337292671204 0.061790212988853455 0.021685834974050522
0.54321300983428955 0.049337692558765411 0.011616665869951248
0.67462903261184692 0.030450155958533287 0.0056427302770316601
0.82858192920684814 0.012445935979485512 0.0019670971669256687
0.9595068097114563 0.0046809627674520016 0
0.052717678248882294 0.099277839064598083 0.057533174753189087
0.05858134850859642 0.1037423387169838 0.059106402099132538
0.078944005072116852 0.11108136922121048 0.060458134859800339
0.1171567291021347 0.11788137257099152 0.058636892586946487
0.17034435272216797 0.12072288990020752 0.056124981492757797
0.23779897391796112 0.11966286599636078 0.050777778029441833
0.32098951935768127 0.11572014540433884 0.040908575057983398
0.42340397834777832 0.10846497863531113 0.028569778427481651
0.54739081859588623 0.098000936210155487 0.015923848375678062
0.68541747331619263 0.082943528890609741 0.0060094497166574001
0.83401286602020264 0.06177183985710144 0.00077204982517287135
0.96986442804336548 0.040059901773929596 0
0.99994397163391113 0.031009359285235405 0
0.049038320779800415 0.15910886228084564 0.058628726750612259
0.061644118279218674 0.16246172785758972 0.059896104037761688
0.090679451823234558 0.17016686499118805 0.057533998042345047
0.13912034034729004 0.17693422734737396 0.052215050905942917
0.20488728582859039 0.17961518466472626 0.04587288573384285
0.28635925054550171 0.17737410962581635 0.038856387138366699
0.38484099507331848 0.17098411917686462 0.029297532513737679
0.50301444530487061 0.16125687956809998 0.018530184403061867
0.64112663269042969 0.1487547904253006 0.0085748713463544846
0.79237496852874756 0.13298691809177399 0.0016295489622280002
0.9398837685585022 0.11300206184387207 0
0.99957269430160522 0.092683933675289154 0
1 0.082089461386203766 0
0.035887625068426132 0.23127159476280212 0.048020664602518082
0.054212607443332672 0.23363268375396729 0.048610731959342957
0.090835645794868469 0.24092328548431396 0.044264446943998337
0.14819687604904175 0.24763943254947662 0.036277845501899719
0.22429649531841278 0.25022456049919128 0.027990363538265228
0.31635904312133789 0.24695853888988495 0.021759841591119766
0.42478883266448975 0.23903141915798187 0.015252730809152126
0.55155259370803833 0.22764003276824951 0.007497869897633791
0.69678175449371338 0.21424368023872375 0.0015725379344075918
0.85228157043457031 0.19931241869926453 9.6938192655215971e-06
0.98020994663238525 0.18110848963260651 0
1 0.1624215841293335 0
1 0.14993897080421448 0
0.019856022670865059 0.3153207004070282 0.030651196837425232
0.041664361953735352 0.31744647026062012 0.031086806207895279
0.082300476729869843 0.32311412692070007 0.027399325743317604
0.14579853415489197 0.32853913307189941 0.020178178325295448
0.2299199253320694 0.33029940724372864 0.012622683309018612
0.33008494973182678 0.32639977335929871 0.0084376018494367599
0.4448300302028656 0.31832835078239441 0.0044373306445777416
0.57402497529983521 0.30735293030738831 0.00079879758413881063
0.71801984310150146 0.29426485300064087 0
0.86424785852432251 0.27919372916221619 0
0.97663587331771851 0.2612922191619873 0
1 0.24299262464046478 0
1 0.22965195775032043 0
0.0054489285685122013 0.40672266483306885 0.013450891710817814
0.027241410687565804 0.4089568555355072 0.014698642306029797
0.068844780325889587 0.41311979293823242 0.013817117549479008
0.1359201967716217 0.4167136549949646 0.010082484222948551
0.22676579654216766 0.41710743308067322 0.0054736416786909103
0.33400243520736694 0.41343826055526733 0.0025120156351476908
0.45313739776611328 0.40626794099807739 0.00052309222519397736
0.58227217197418213 0.39664396643638611 0
0.72156155109405518 0.3847428560256958 0
0.85877346992492676 0.36917418241500854 0
0.95913839340209961 0.35054492950439453 0
0.99712014198303223 0.33244958519935608 0
0.99964994192123413 0.31863325834274292 0
0.00026047651772387326 0.50079959630966187 0.0024623048957437277
0.01536687184125185 0.50364720821380615 0.0043419930152595043
0.056060582399368286 0.50736355781555176 0.0061376681551337242
0.12588025629520416 0.50945842266082764 0.0057542687281966209
0.22238343954086304 0.50899720191955566 0.0037728403694927692
0.33508396148681641 0.50549471378326416 0.0022135716862976551
0.45767092704772949 0.49930337071418762 0.00055725994752719998
0.58798789978027344 0.49065873026847839 0
0.72745829820632935 0.47963002324104309 0
0.86445987224578857 0.46456801891326904 0
0.96044307947158813 0.44690284132957458 0
0.99455797672271729 0.42982268333435059 0
0.99817079305648804 0.41679143905639648 7.0010914896556642e-06
0 0.59481525421142578 0.00049959070747718215
0.013303150422871113 0.59837096929550171 0.0018033195519819856
0.054193414747714996 0.60224074125289917 0.0042929556220769882
0.1255481094121933 0.6043735146522522 0.0056819240562617779
0.22392839193344116 0.60343325138092041 0.0056566726416349411
0.3383948802947998 0.6003265380859375 0.004706947598606348
0.46206313371658325 0.59491193294525146 0.0024295132607221603
0.59336245059967041 0.58667206764221191 0.00010694615775719285
0.73579621315002441 0.57628655433654785 0
0.88090711832046509 0.56291753053665161 1.3912424947193358e-05
0.98073989152908325 0.54775452613830566 0.00080217845970764756
0.99991053342819214 0.53304463624954224 0.001645316369831562
1 0.52138388156890869 0.0020550745539367199
0.0014504377031698823 0.68861246109008789 0.0015579522587358952
0.024203551933169365 0.69243907928466797 0.0033280316274613142
0.069609440863132477 0.6965605616569519 0.0064043980091810226
0.14025542140007019 0.69872123003005981 0.0091041261330246925
0.23540537059307098 0.69850736856460571 0.010157596319913864
0.34679964184761047 0.69619119167327881 0.0095848683267831802
0.46868652105331421 0.69163912534713745 0.0067973867990076542
0.59807819128036499 0.68443071842193604 0.0020013696048408747
0.73798292875289917 0.67503291368484497 0.00042528638732619584
0.88334578275680542 0.66388976573944092 0.0023191564250737429
0.98373973369598389 0.65141928195953369 0.0072098379023373127
0.99999785423278809 0.63914871215820312 0.008542139083147049
1 0.62920570373535156 0.0084627941250801086
0.0099249742925167084 0.78338563442230225 0.0068077384494245052
0.043517272919416428 0.78722399473190308 0.0092186126857995987
0.093465454876422882 0.7912907600402832 0.012907379306852818
0.16386081278324127 0.79398936033248901 0.016111381351947784
0.25480088591575623 0.79443717002868652 0.017910467460751534
0.3621651828289032 0.79286730289459229 0.018021706491708755
0.48018500208854675 0.78905510902404785 0.015943653881549835
0.60627526044845581 0.78329777717590332 0.013056048192083836
0.73951882123947144 0.77556347846984863 0.011900135315954685
0.87006604671478271 0.7663731575012207 0.015603143721818924
0.96430271863937378 0.75635480880737305 0.020085697993636131
0.997455894947052 0.7464454174041748 0.020749006420373917
0.99984073638916016 0.73812323808670044 0.020246872678399086
0 0 0
0 0 0
0.0013172373874112964 0.00094248453387990594 0.0021686030086129904
0.012617821805179119 0.0085513396188616753 0.011905371211469173
0.0264129638671875 0.016435945406556129 0.018887808546423912
0.04550444707274437 0.021877633407711983 0.023083467036485672
0.074076585471630096 0.024158701300621033 0.026204591616988182
0.11498260498046875 0.023702464997768402 0.02782471664249897
0.1668742299079895 0.023569323122501373 0.028866143897175789
0.23362737894058228 0.019630881026387215 0.025825051590800285
0.32425835728645325 0.011835225857794285 0.017769383266568184
0.42249611020088196 0.0048304987139999866 0.0087339216843247414
0.53090298175811768 0.00027770997257903218 0.0019705977756530046
0.00088871974730864167 0.0022194806952029467 0.0022472904529422522
0.0014730566181242466 0.0036458931863307953 0.0033261766657233238
0.0086018284782767296 0.010041778907179832 0.011162581853568554
0.023057257756590843 0.018851261585950851 0.021444462239742279
0.040540881454944611 0.025465557351708412 0.027635088190436363
0.063517853617668152 0.029306059703230858 0.031248323619365692
0.093939311802387238 0.030316520482301712 0.032438974827528
0.13691483438014984 0.029065703973174095 0.031502217054367065
0.19507277011871338 0.027249488979578018 0.030166566371917725
0.26711899042129517 0.022098151966929436 0.02625802718102932
0.3612816333770752 0.012750528752803802 0.017836537212133408
0.46913966536521912 0.0041854260489344597 0.0081061273813247681
0.5907706618309021 3.5005457903025672e-05 0.0011866401182487607
0.018713153898715973 0.02339954674243927 0.022843783721327782
0.019380172714591026 0.025138510391116142 0.023451682180166245
0.030129166319966316 0.031631737947463989 0.030244207009673119
0.050269570201635361 0.039398461580276489 0.038362197577953339
0.077635638415813446 0.044727757573127747 0.043127112090587616
0.1135958805680275 0.047040589153766632 0.045559454709291458
0.15763148665428162 0.046776145696640015 0.043948512524366379
0.21439872682094574 0.043628618121147156 0.038049466907978058
0.29101118445396423 0.039458345621824265 0.031389754265546799
0.38450238108634949 0.030688520520925522 0.02403545007109642
0.50074785947799683 0.017938710749149323 0.0154024763032794
0.64229577779769897 0.0050208000466227531 0.0067803924903273582
0.7910265326499939 0 0.00088230206165462732
0.04307994619011879 0.057280026376247406 0.048822455108165741
0.044636253267526627 0.061236079782247543 0.050128322094678879
0.058972842991352081 0.067997366189956665 0.054565191268920898
0.088336080312728882 0.074600189924240112 0.058155015110969543
0.12922567129135132 0.078513845801353455 0.059240963310003281
0.18185326457023621 0.078636124730110168 0.058073438704013824
0.2466055154800415 0.076044358313083649 0.05194607749581337
0.32696262001991272 0.071219436824321747 0.041603490710258484
0.42725047469139099 0.063429906964302063 0.029941335320472717
0.5462956428527832 0.050831064581871033 0.01847502775490284
0.68949311971664429 0.033412154763936996 0.0094965165480971336
0.8583071231842041 0.015332793816924095 0.0033393560443073511
0.97988951206207275 0.0054803285747766495 3.3928365155588835e-05
0.058446336537599564 0.10449226200580597 0.06728120893239975
0.062633201479911804 0.1098707914352417 0.069123193621635437
0.082845099270343781 0.11730083078145981 0.070511460304260254
0.12326172739267349 0.12284997850656509 0.070149503648281097
0.1776423454284668 0.1254131942987442 0.066552072763442993
0.24660441279411316 0.1236785426735878 0.060503162443637848
0.33083117008209229 0.11889485269784927 0.050557289272546768
0.4331422746181488 0.11161880195140839 0.037618853151798248
0.55419778823852539 0.10118640214204788 0.023819029331207275
0.69015711545944214 0.086302660405635834 0.011070041917264462
0.84341740608215332 0.066251255571842194 0.0024218091275542974
0.98041707277297974 0.04529716819524765 0.00010292202932760119
1 0.033883668482303619 0
0.057509388774633408 0.16427408158779144 0.071398042142391205
0.067558899521827698 0.16900639235973358 0.072896100580692291
0.0950455442070961 0.17641358077526093 0.07167091965675354
0.1446349024772644 0.18229232728481293 0.067353703081607819
0.21170589327812195 0.18433739244937897 0.060251977294683456
0.29471567273139954 0.18141661584377289 0.051191680133342743
0.39459523558616638 0.17488175630569458 0.039915092289447784
0.51309859752655029 0.16553373634815216 0.027298646047711372
0.64998656511306763 0.15356309711933136 0.014869405888020992
0.79775744676589966 0.13790170848369598 0.0045953188091516495
0.94385552406311035 0.11823618412017822 0.00012452369264792651
0.99988144636154175 0.097837619483470917 0
1 0.084743425250053406 0
0.042757205665111542 0.23715889453887939 0.061554837971925735
0.059413790702819824 0.24035657942295074 0.062945693731307983
0.094654738903045654 0.24698932468891144 0.060128740966320038
0.15225274860858917 0.25268977880477905 0.05360870435833931
0.229660764336586 0.25436103343963623 0.044935338199138641
0.32366907596588135 0.25086432695388794 0.035608656704425812
0.43355932831764221 0.24336953461170197 0.025499889627099037
0.56120520830154419 0.23274886608123779 0.01492753904312849
0.70656710863113403 0.22034502029418945 0.0056105670519173145
0.85974359512329102 0.20543651282787323 0.00059792015235871077
0.98254609107971191 0.187032550573349 0
1 0.16745023429393768 0
1 0.15343032777309418 0
0.02506052702665329 0.32149988412857056 0.043424807488918304
0.045721661299467087 0.32362312078475952 0.045062210410833359
0.08574945479631424 0.32870614528656006 0.043575886636972427
0.14961273968219757 0.33313879370689392 0.037630971521139145
0.23500953614711761 0.33411785960197449 0.029830005019903183
0.33682698011398315 0.33020737767219543 0.021769385784864426
0.45226004719734192 0.32248738408088684 0.013462844304740429
0.5815587043762207 0.31215196847915649 0.0049290228635072708
0.72688931226730347 0.30006903409957886 0.00042040954576805234
0.87548863887786865 0.28568252921104431 0
0.983955979347229 0.26825046539306641 0
1 0.24907009303569794 0
1 0.23433737456798553 0
0.0096355509012937546 0.41343033313751221 0.02467549592256546
0.031758684664964676 0.41541537642478943 0.027761990204453468
0.073692932724952698 0.41858023405075073 0.028780335560441017
0.14138308167457581 0.42141515016555786 0.026223260909318924
0.23283353447914124 0.42133837938308716 0.020881772041320801
0.34128525853157043 0.41749987006187439 0.014710310846567154
0.46019089221954346 0.41043898463249207 0.0077598122879862785
0.58858597278594971 0.40074500441551208 0.001394997350871563
0.72967028617858887 0.3890831470489502 0
0.87021481990814209 0.37476131319999695 0
0.97048491239547729 0.35736992955207825 0
0.99978125095367432 0.33912020921707153 0
1 0.32444894313812256 0
0.0014150432543829083 0.50806176662445068 0.013097740709781647
0.020854471251368523 0.51015377044677734 0.017295088618993759
0.063484281301498413 0.51293623447418213 0.020645052194595337
0.13369198143482208 0.51452600955963135 0.020584763959050179
0.2295479029417038 0.51374083757400513 0.018493292853236198
0.34294646978378296 0.51017624139785767 0.013933802954852581
0.46533939242362976 0.50364381074905396 0.0079832933843135834
0.59395045042037964 0.49479866027832031 0.001952062826603651
0.73374325037002563 0.48347631096839905 9.3632115749642253e-05
0.87155169248580933 0.46946388483047485 3.9762609958415851e-05
0.96735721826553345 0.45313194394111633 0.00022316726972348988
0.99926084280014038 0.43630951642990112 0.00033350926241837442
1 0.42276036739349365 0.0006792853819206357
0.0001590504398336634 0.60201293230056763 0.011179695837199688
0.017882043495774269 0.60512566566467285 0.01496511697769165
0.062102105468511581 0.60827434062957764 0.019219027832150459
0.13355095684528351 0.6097835898399353 0.021333776414394379
0.23057912290096283 0.60902810096740723 0.020751744508743286
0.34493044018745422 0.6054157018661499 0.017776789143681526
0.46807420253753662 0.599720299243927 0.012303311377763748
0.59698593616485596 0.5915941596031189 0.0049884123727679253
0.73676145076751709 0.58106642961502075 0.0014907388249412179
0.87951552867889404 0.56830644607543945 0.0028840757440775633
0.97922646999359131 0.55363482236862183 0.0070383409038186073
1 0.53908944129943848 0.0091691557317972183
1 0.52701777219772339 0.010509789921343327
0.0013632531045004725 0.69570094347000122 0.01592559739947319
0.025692643597722054 0.69966417551040649 0.019171740859746933
0.073137588798999786 0.70324033498764038 0.023506943136453629
0.14477784931659698 0.70540511608123779 0.026425963267683983
0.23953510820865631 0.70512115955352783 0.027111787348985672
0.35109239816665649 0.70222944021224976 0.025300433859229088
0.47239062190055847 0.69717466831207275 0.020515935495495796
0.60066217184066772 0.6899065375328064 0.013416889123618603
0.73888331651687622 0.68070054054260254 0.0090939989313483238
0.88416707515716553 0.66965985298156738 0.01458447054028511
0.98509401082992554 0.65759128332138062 0.022751618176698685
1 0.6453126072883606 0.025421187281608582
1 0.63465136289596558 0.026299899443984032
0.0075389635749161243 0.79043370485305786 0.025215208530426025
0.042335778474807739 0.7944456934928894 0.028142606839537621
0.093037188053131104 0.79842209815979004 0.032231796532869339
0.16469119489192963 0.80111056566238403 0.035527665168046951
0.25665968656539917 0.8016510009765625 0.037193626165390015
0.36479207873344421 0.79943251609802246 0.036768294870853424
0.48439234495162964 0.79552167654037476 0.034014876931905746
0.6125447154045105 0.78957217931747437 0.030670210719108582
0.74924963712692261 0.7819054126739502 0.030444096773862839
0.88492095470428467 0.77295738458633423 0.036993633955717087
0.98081398010253906 0.76294952630996704 0.044358108192682266
0.99999785423278809 0.75283312797546387 0.045964423567056656
1 0.74364250898361206 0.045595701783895493
0 0 0
0 1.9746668840525672e-05 1.9746668840525672e-05
0.0038713791873306036 0.0027827993035316467 0.0041114059276878834
0.015992108732461929 0.011412167921662331 0.014403174631297588
0.029883574694395065 0.018281569704413414 0.021389111876487732
0.048453088849782944 0.022632405161857605 0.025490166619420052
0.076068967580795288 0.024482712149620056 0.028373135253787041
0.11750049889087677 0.025279669091105461 0.031548205763101578
0.17427496612071991 0.023996854200959206 0.033855348825454712
0.24633866548538208 0.019295606762170792 0.031987104564905167
0.3402462899684906 0.010803641751408577 0.024254368618130684
0.4460996687412262 0.0031005409546196461 0.013507289811968803
0.55949366092681885 0 0.0051049026660621166
0.0028854070696979761 0.0042508742772042751 0.0043536615557968616
0.0035201129503548145 0.0057092704810202122 0.0058684553951025009
0.012125590816140175 0.012843846343457699 0.014572801999747753
0.026883848011493683 0.021343769505620003 0.02503998763859272
0.044561214745044708 0.027178073301911354 0.031338170170783997
0.067927174270153046 0.029884457588195801 0.034536607563495636
0.097782567143440247 0.030392156913876534 0.035267729312181473
0.14267893135547638 0.030304552987217903 0.03580087423324585
0.20553641021251678 0.02847474068403244 0.037316564470529556
0.27795267105102539 0.022200446575880051 0.034135766327381134
0.38023287057876587 0.012488465756177902 0.024990186095237732
0.50092893838882446 0.0033996582496911287 0.012962760403752327
0.6296573281288147 0 0.0032684775069355965
0.02208232507109642 0.026461746543645859 0.027570836246013641
0.022938761860132217 0.028137506917119026 0.02856496162712574
0.03431205078959465 0.03469066321849823 0.035862643271684647
0.055553331971168518 0.042288836091756821 0.044832281768321991
0.084582522511482239 0.046988587826490402 0.050187774002552032
0.12300228327512741 0.048167582601308823 0.052658844739198685
0.16836953163146973 0.047455672174692154 0.050801880657672882
0.22772888839244843 0.045545168220996857 0.046516150236129761
0.30591538548469543 0.04071846604347229 0.042085729539394379
0.39741873741149902 0.031516894698143005 0.034439686685800552
0.52013564109802246 0.018434636294841766 0.023245807737112045
0.67014443874359131 0.0053213830105960369 0.011244261637330055
0.82107454538345337 0 0.0018962037283927202
0.046145807951688766 0.061968214809894562 0.056035134941339493
0.04910673201084137 0.065174341201782227 0.058264564722776413
0.064118929207324982 0.071677185595035553 0.063228055834770203
0.09455745667219162 0.077744409441947937 0.068652898073196411
0.13707253336906433 0.081050753593444824 0.070348985493183136
0.1921670138835907 0.080742597579956055 0.068946793675422668
0.25950029492378235 0.078312039375305176 0.063297241926193237
0.34245619177818298 0.073431320488452911 0.054256979376077652
0.44225764274597168 0.065500669181346893 0.043408606201410294
0.55942320823669434 0.052920024842023849 0.030884193256497383
0.7056087851524353 0.035644203424453735 0.018109295517206192
0.87526917457580566 0.018169358372688293 0.0072845458053052425
0.986602783203125 0.0068316143006086349 0.0004607705632224679
0.061949096620082855 0.10971072316169739 0.078421436250209808
0.067436277866363525 0.11446196585893631 0.080802708864212036
0.088255427777767181 0.12151721119880676 0.083586841821670532
0.12930043041706085 0.12693333625793457 0.08505374938249588
0.18507333099842072 0.1290852427482605 0.081596031785011292
0.25600022077560425 0.12719704210758209 0.074743367731571198
0.34295162558555603 0.12217399477958679 0.065017729997634888
0.44679176807403564 0.11491190642118454 0.052544582635164261
0.56731665134429932 0.10459552705287933 0.038401074707508087
0.70305067300796509 0.089827053248882294 0.02371450699865818
0.85693836212158203 0.070754043757915497 0.011121263727545738
0.98520493507385254 0.051093246787786484 0.002332096453756094
1 0.038543418049812317 7.180606644396903e-06
0.0603293776512146 0.17014014720916748 0.085892818868160248
0.070398397743701935 0.17475545406341553 0.088472716510295868
0.098733402788639069 0.18186670541763306 0.088787660002708435
0.14910979568958282 0.18754634261131287 0.086183704435825348
0.21789678931236267 0.1887923926115036 0.078978762030601501
0.30319768190383911 0.18544358015060425 0.068607315421104431
0.40530094504356384 0.17897270619869232 0.056613519787788391
0.52460962533950806 0.17004024982452393 0.042856134474277496
