assets/lut/alexjordan cross process cp 06.cube
# Created by: G'MIC (https://gmic.eu)
TITLE "cross_process_cp_6"
# LUT size
LUT_3D_SIZE 5
# Data domain
DOMAIN_MIN 0.0 0.0 0.0
DOMAIN_MAX 1.0 1.0 1.0
# LUT data points
0.023890268057584763 0.020288804545998573 0.035643842071294785
0.072330251336097717 0.047955889254808426 0.094955384731292725
0.17417562007904053 0.08218161016702652 0.15390843152999878
0.32459825277328491 0.10823627561330795 0.19467455148696899
0.49851864576339722 0.1280180811882019 0.23736792802810669
0.137295201420784 0.1852305680513382 0.22203679382801056
0.21890555322170258 0.23682059347629547 0.26053944230079651
0.36116087436676025 0.25090780854225159 0.2458340972661972
0.52194333076477051 0.24914132058620453 0.2175363153219223
0.64984577894210815 0.25380715727806091 0.20988667011260986
0.1189672127366066 0.37847831845283508 0.21739089488983154
0.20282165706157684 0.39824274182319641 0.21666170656681061
0.39737492799758911 0.41780412197113037 0.22089748084545135
0.63475567102432251 0.46429711580276489 0.26088190078735352
0.8244011402130127 0.52245712280273438 0.31330609321594238
0.18168485164642334 0.63937807083129883 0.28171667456626892
0.34326663613319397 0.71074962615966797 0.35125470161437988
0.58384394645690918 0.75404137372970581 0.39892327785491943
0.80013227462768555 0.78017419576644897 0.43036958575248718
0.94193297624588013 0.79710763692855835 0.45594602823257446
0.34891131520271301 0.93622291088104248 0.44810235500335693
0.48166269063949585 0.96315616369247437 0.48180323839187622
0.66953188180923462 0.96537041664123535 0.49508976936340332
0.84079432487487793 0.95857036113739014 0.4990692138671875
0.97479021549224854 0.97309696674346924 0.52072691917419434
0.036181893199682236 0.026797216385602951 0.059632815420627594
0.095112398266792297 0.064827427268028259 0.13451056182384491
0.20115765929222107 0.093889318406581879 0.20302882790565491
0.3678901195526123 0.11846672743558884 0.26442357897758484
0.53408253192901611 0.13352306187152863 0.30702629685401917
0.14814196527004242 0.20495674014091492 0.29334178566932678
0.22665412724018097 0.25031602382659912 0.3326282799243927
0.37042784690856934 0.25625738501548767 0.32047861814498901
0.52865147590637207 0.25108593702316284 0.29333490133285522
0.66226661205291748 0.25903284549713135 0.29875084757804871
0.11998826265335083 0.38708227872848511 0.29606673121452332
0.21332572400569916 0.41321399807929993 0.31152516603469849
0.42019832134246826 0.44104176759719849 0.33315607905387878
0.65955185890197754 0.48559042811393738 0.37739396095275879
0.85228025913238525 0.54781299829483032 0.43717145919799805
0.2055552750825882 0.66690659523010254 0.40325525403022766
0.36685001850128174 0.73898756504058838 0.47624200582504272
0.60251408815383911 0.77539867162704468 0.51691919565200806
0.81378281116485596 0.79220515489578247 0.53947353363037109
0.95600265264511108 0.81643146276473999 0.56722968816757202
0.35947877168655396 0.94646835327148438 0.5552864670753479
0.48895940184593201 0.96805888414382935 0.58632165193557739
0.67589205503463745 0.9695013165473938 0.59538549184799194
0.85032504796981812 0.96251147985458374 0.59603703022003174
0.98221403360366821 0.97894048690795898 0.61434698104858398
0.048303462564945221 0.040843050926923752 0.093915782868862152
0.11137869209051132 0.076827600598335266 0.18105210363864899
0.23105637729167938 0.10567121207714081 0.26695919036865234
0.40051248669624329 0.12618027627468109 0.33432364463806152
0.58058029413223267 0.14208002388477325 0.39178180694580078
0.15513928234577179 0.22437067329883575 0.37028929591178894
0.23266901075839996 0.26047289371490479 0.40261000394821167
0.37764328718185425 0.26401367783546448 0.40068089962005615
0.5444377064704895 0.25806304812431335 0.38979172706604004
0.68806213140487671 0.26531982421875 0.39924001693725586
0.11978612840175629 0.3926854133605957 0.38153809309005737
0.22440086305141449 0.42529961466789246 0.41180670261383057
0.44489991664886475 0.46667632460594177 0.45130446553230286
0.68031728267669678 0.51213085651397705 0.49876236915588379
0.86751264333724976 0.5678820013999939 0.55414873361587524
0.23444715142250061 0.69733494520187378 0.52790826559066772
0.39481443166732788 0.76391184329986572 0.59732776880264282
0.61626023054122925 0.78701478242874146 0.62686347961425781
0.82169914245605469 0.80255591869354248 0.64654725790023804
0.9633171558380127 0.82366055250167847 0.66820943355560303
0.37767612934112549 0.95710045099258423 0.66136640310287476
0.50359624624252319 0.97907960414886475 0.68819689750671387
0.68115830421447754 0.97263437509536743 0.689586341381073
0.85863441228866577 0.97110623121261597 0.69294720888137817
0.98821240663528442 0.98527979850769043 0.70747941732406616
0.063619546592235565 0.052528366446495056 0.13682563602924347
0.12891615927219391 0.090565577149391174 0.24206183850765228
0.25842037796974182 0.11649663746356964 0.33866521716117859
0.44426974654197693 0.13856776058673859 0.42403298616409302
0.59838318824768066 0.14500793814659119 0.46762987971305847
0.16055493056774139 0.236797034740448 0.4427243173122406
0.2389034777879715 0.27269318699836731 0.49096983671188354
0.38406693935394287 0.26766058802604675 0.48068130016326904
0.54982864856719971 0.2623310387134552 0.47077566385269165
0.7000008225440979 0.27527323365211487 0.49724957346916199
0.12302189320325851 0.40554916858673096 0.47789415717124939
0.23767763376235962 0.44715353846549988 0.52279704809188843
0.46655759215354919 0.48724612593650818 0.56960779428482056
0.70962750911712646 0.53948765993118286 0.62349355220794678
0.89843016862869263 0.59669786691665649 0.68080580234527588
0.2562083899974823 0.72314929962158203 0.65145611763000488
0.41266992688179016 0.78740549087524414 0.71426618099212646
0.63066327571868896 0.80159610509872437 0.73400747776031494
0.83256596326828003 0.811443030834198 0.74820518493652344
0.96755415201187134 0.8307381272315979 0.76559078693389893
0.38268816471099854 0.96454936265945435 0.76344776153564453
0.5050690770149231 0.98150026798248291 0.78284496068954468
0.68767571449279785 0.97971171140670776 0.78366267681121826
0.87267959117889404 0.98138213157653809 0.79000198841094971
0.99461895227432251 0.99129116535186768 0.80308753252029419
0.080035097897052765 0.068978868424892426 0.19369609653949738
0.15042616426944733 0.10445267707109451 0.31306952238082886
0.29714500904083252 0.13195432722568512 0.43099591135978699
0.47177085280418396 0.14364801347255707 0.50499457120895386
0.63100111484527588 0.15636523067951202 0.56577569246292114
0.16767586767673492 0.2538641095161438 0.5343022346496582
0.24168002605438232 0.27870386838912964 0.57337641716003418
0.39336082339286804 0.27319294214248657 0.57102078199386597
0.55650478601455688 0.26985028386116028 0.5656585693359375
0.72674715518951416 0.29282602667808533 0.61203461885452271
0.13789701461791992 0.41849157214164734 0.58012086153030396
0.25471296906471252 0.4649348258972168 0.63488674163818359
0.48895999789237976 0.50882184505462646 0.69208759069442749
0.73726695775985718 0.5649227499961853 0.74512243270874023
0.90662628412246704 0.60902166366577148 0.78811836242675781
0.28732964396476746 0.74493718147277832 0.77005988359451294
0.43801131844520569 0.7971002459526062 0.82348883152008057
0.65079563856124878 0.81916069984436035 0.84428852796554565
0.84192687273025513 0.81974005699157715 0.84593731164932251
0.98387092351913452 0.84485423564910889 0.87155216932296753
0.39484718441963196 0.97595202922821045 0.86448186635971069
0.52158623933792114 0.98769468069076538 0.88375335931777954
0.69856423139572144 0.98948913812637329 0.88429075479507446
0.8753395676612854 0.99003446102142334 0.88772249221801758
0.99954903125762939 0.99807631969451904 0.90704888105392456
