assets/lut/alexjordan bright green 01.cube
# Created by: G'MIC (https://gmic.eu)
TITLE "bright_green_01"
# LUT size
LUT_3D_SIZE 13
# Data domain
DOMAIN_MIN 0.0 0.0 0.0
DOMAIN_MAX 1.0 1.0 1.0
# LUT data points
0.022628126665949821 0.023373741656541824 0.021265260875225067
0.054975427687168121 0.033125035464763641 0.032029964029788971
0.089894220232963562 0.041733250021934509 0.039395097643136978
0.1321568638086319 0.048827271908521652 0.048447027802467346
0.18867357075214386 0.057130388915538788 0.060272589325904846
0.22849006950855255 0.061846684664487839 0.063792526721954346
0.26584836840629578 0.066354192793369293 0.068948782980442047
0.26041960716247559 0.065345972776412964 0.067376963794231415
0.2404705137014389 0.059896714985370636 0.063234098255634308
0.24652485549449921 0.060714166611433029 0.064004294574260712
0.24059072136878967 0.059347759932279587 0.061896935105323792
0.23670783638954163 0.058783046901226044 0.0617205910384655
0.24110470712184906 0.06039135530591011 0.062647067010402679
0.050324652343988419 0.078252710402011871 0.057193651795387268
0.091059543192386627 0.086460456252098083 0.066317573189735413
0.14317768812179565 0.092231482267379761 0.07087390124797821
0.19145859777927399 0.095700882375240326 0.072743929922580719
0.24636416137218475 0.10097282379865646 0.079279161989688873
0.30723842978477478 0.10591349750757217 0.084474749863147736
0.37253063917160034 0.1110316589474678 0.091407746076583862
0.38630190491676331 0.1097412109375 0.091137275099754333
0.37139561772346497 0.10496990382671356 0.088807441294193268
0.36894130706787109 0.10316011309623718 0.088486388325691223
0.35985735058784485 0.099566109478473663 0.085578173398971558
0.35590174794197083 0.098012082278728485 0.085642270743846893
0.34344097971916199 0.095928922295570374 0.08082849532365799
0.074823282659053802 0.16014045476913452 0.092241115868091583
0.10822358727455139 0.15277007222175598 0.092628628015518188
0.18018032610416412 0.15587639808654785 0.094202212989330292
0.24849534034729004 0.15905553102493286 0.096949979662895203
0.30556610226631165 0.16172845661640167 0.099579393863677979
0.36980661749839783 0.1646307110786438 0.10499288886785507
0.44072785973548889 0.16938541829586029 0.11368949711322784
0.48372167348861694 0.17074932157993317 0.12015777081251144
0.48848018050193787 0.16725301742553711 0.12170661240816116
0.48203852772712708 0.16192136704921722 0.11975190043449402
0.47756779193878174 0.15686652064323425 0.11629294604063034
0.47467777132987976 0.15350478887557983 0.11363751441240311
0.46316653490066528 0.1503998339176178 0.10927858203649521
0.10546743124723434 0.2516179084777832 0.12040913850069046
0.11663230508565903 0.23003418743610382 0.1114640012383461
0.18629883229732513 0.22695066034793854 0.11375152319669724
0.27171787619590759 0.22775194048881531 0.11992226541042328
0.34039315581321716 0.22743807733058929 0.12556250393390656
0.40703088045120239 0.22966288030147552 0.13176088035106659
0.47546166181564331 0.23390655219554901 0.14136259257793427
0.52954781055450439 0.23655110597610474 0.15075516700744629
0.55528080463409424 0.2349289208650589 0.15485259890556335
0.55694109201431274 0.22900134325027466 0.15312911570072174
0.55108553171157837 0.22135815024375916 0.14871223270893097
0.54742652177810669 0.21546000242233276 0.14455400407314301
0.53961247205734253 0.21098068356513977 0.14123648405075073
0.14440670609474182 0.34155231714248657 0.14963015913963318
0.13539718091487885 0.31078287959098816 0.13660538196563721
0.18133033812046051 0.30161839723587036 0.13744924962520599
0.26934418082237244 0.29844269156455994 0.14521345496177673
0.35331588983535767 0.29686704277992249 0.15349189937114716
0.42672997713088989 0.29896646738052368 0.16231472790241241
0.49421417713165283 0.30284297466278076 0.17314019799232483
0.55584937334060669 0.30648928880691528 0.18391323089599609
0.59903889894485474 0.30795502662658691 0.18980175256729126
0.60909712314605713 0.30323821306228638 0.18781478703022003
0.59966683387756348 0.29426488280296326 0.18192207813262939
0.59400981664657593 0.28516444563865662 0.17750988900661469
0.58934247493743896 0.27780434489250183 0.17499789595603943
0.18439288437366486 0.42677938938140869 0.18351413309574127
0.16247847676277161 0.39151817560195923 0.16922417283058167
0.18290142714977264 0.37724101543426514 0.166886106133461
0.26223468780517578 0.37015092372894287 0.17271775007247925
0.35762333869934082 0.36756184697151184 0.18185870349407196
0.43885630369186401 0.36905738711357117 0.19191621243953705
0.50598680973052979 0.37279745936393738 0.20302240550518036
0.57039022445678711 0.37726086378097534 0.21305058896541595
0.62413632869720459 0.38046497106552124 0.22043140232563019
0.64442586898803711 0.3779609203338623 0.22052386403083801
0.63692408800125122 0.36996185779571533 0.21462468802928925
0.63125979900360107 0.35931000113487244 0.21050336956977844
0.62826412916183472 0.34955945611000061 0.20822493731975555
0.22038142383098602 0.50385606288909912 0.21761111915111542
0.19792090356349945 0.46855828166007996 0.20287041366100311
0.20688022673130035 0.45089682936668396 0.19806404411792755
0.27025243639945984 0.44045355916023254 0.20141591131687164
0.36605745553970337 0.43572434782981873 0.20945660769939423
0.45377042889595032 0.43616458773612976 0.22005927562713623
0.52017605304718018 0.43929040431976318 0.23050278425216675
0.57981425523757935 0.44381007552146912 0.23896373808383942
0.63642036914825439 0.44760695099830627 0.24670162796974182
0.67394804954528809 0.44739815592765808 0.25131085515022278
0.67551356554031372 0.44211408495903015 0.2472902238368988
0.6686970591545105 0.43249189853668213 0.24243032932281494
0.66409891843795776 0.42187386751174927 0.23997549712657928
0.24805973470211029 0.57679462432861328 0.24856467545032501
0.23006562888622284 0.54527002573013306 0.23513972759246826
0.23511442542076111 0.52549022436141968 0.22932642698287964
0.28570210933685303 0.51070320606231689 0.22991722822189331
0.37561735510826111 0.50197207927703857 0.23629625141620636
0.46607592701911926 0.50055313110351562 0.24729934334754944
0.53523218631744385 0.50264948606491089 0.25666818022727966
0.5924530029296875 0.50689274072647095 0.26448094844818115
0.64873206615447998 0.51084089279174805 0.2719365656375885
0.6936069130897522 0.51296991109848022 0.27753248810768127
0.7074776291847229 0.51065576076507568 0.27628239989280701
0.70382499694824219 0.50274401903152466 0.27190575003623962
0.69782251119613647 0.49255555868148804 0.27012732625007629
0.26682171225547791 0.62583500146865845 0.26993563771247864
0.25529307126998901 0.60807055234909058 0.26228964328765869
0.2578219473361969 0.59523427486419678 0.25879839062690735
0.30122387409210205 0.58099913597106934 0.25867721438407898
0.3874366283416748 0.56897532939910889 0.26384907960891724
0.4797414243221283 0.56689494848251343 0.27433064579963684
0.55224531888961792 0.56690883636474609 0.28168132901191711
0.6084970235824585 0.5695793628692627 0.28914639353752136
0.66157525777816772 0.57255929708480835 0.29615950584411621
0.7107393741607666 0.57759189605712891 0.30605047941207886
0.73621797561645508 0.57761776447296143 0.30774334073066711
0.73721957206726074 0.57055598497390747 0.30398127436637878
0.73050200939178467 0.56136131286621094 0.30413970351219177
0.27794995903968811 0.64594453573226929 0.27953431010246277
0.2715364396572113 0.6427808403968811 0.27807790040969849
0.27153325080871582 0.64198040962219238 0.27948829531669617
0.30840495228767395 0.63735407590866089 0.28354272246360779
0.3955903947353363 0.63248932361602783 0.29344451427459717
0.4947628378868103 0.63287878036499023 0.30596926808357239
0.57309508323669434 0.63249439001083374 0.31545397639274597
0.63142430782318115 0.63328933715820312 0.32411068677902222
0.6821022629737854 0.63529413938522339 0.33334130048751831
0.73642927408218384 0.64510369300842285 0.35404741764068604
0.77145159244537354 0.64792174100875854 0.3620305061340332
0.7755393385887146 0.64116799831390381 0.35792350769042969
0.76618385314941406 0.63177591562271118 0.35520827770233154
0.28160777688026428 0.64678561687469482 0.27970418334007263
0.27739062905311584 0.6480332612991333 0.28062650561332703
0.27652844786643982 0.65153747797012329 0.28413420915603638
0.30602961778640747 0.65493804216384888 0.29231256246566772
0.38833746314048767 0.66153216361999512 0.30734044313430786
0.49136343598365784 0.66757845878601074 0.32452920079231262
0.57911008596420288 0.67293035984039307 0.34270218014717102
0.64693135023117065 0.68166857957839966 0.3629973828792572
0.70333260297775269 0.69106858968734741 0.38530021905899048
0.75871503353118896 0.7043299674987793 0.41278299689292908
0.80055248737335205 0.71248257160186768 0.43129435181617737
0.81286519765853882 0.71076077222824097 0.43360066413879395
0.80435073375701904 0.70175737142562866 0.42423024773597717
0.28423178195953369 0.64469045400619507 0.27849206328392029
0.28208115696907043 0.64457035064697266 0.27916651964187622
0.2821047306060791 0.6476595401763916 0.2830965518951416
0.30534112453460693 0.65201598405838013 0.29061359167098999
0.3745596706867218 0.66077816486358643 0.30475282669067383
0.46870452165603638 0.66721564531326294 0.32118877768516541
0.55821186304092407 0.67358118295669556 0.34122583270072937
0.63417434692382812 0.68972229957580566 0.3698713481426239
0.69769877195358276 0.70682191848754883 0.40040844678878784
0.75452053546905518 0.72311991453170776 0.43109819293022156
0.80306994915008545 0.7382158637046814 0.46029835939407349
0.82948511838912964 0.74547451734542847 0.47491705417633057
0.83126097917556763 0.74495875835418701 0.47314026951789856
0.28854519128799438 0.64686280488967896 0.27954903244972229
0.28988361358642578 0.64661717414855957 0.28125160932540894
0.29401171207427979 0.64718329906463623 0.28352522850036621
0.31551209092140198 0.64962393045425415 0.28907135128974915
0.37010395526885986 0.6555677056312561 0.29999557137489319
0.44882017374038696 0.66168117523193359 0.31469139456748962
0.53203386068344116 0.66932380199432373 0.33385565876960754
0.60768222808837891 0.68185865879058838 0.35875105857849121
0.67223197221755981 0.69578534364700317 0.38475134968757629
0.72876638174057007 0.71055042743682861 0.41165891289710999
0.78095310926437378 0.72844046354293823 0.44351422786712646
0.82018619775772095 0.74344640970230103 0.46994733810424805
0.83753371238708496 0.75507867336273193 0.48486033082008362
0.022793039679527283 0.025058476254343987 0.028780873864889145
0.053749009966850281 0.033709041774272919 0.038858823478221893
0.092918381094932556 0.042097803205251694 0.049680881202220917
0.13465060293674469 0.049739912152290344 0.059940487146377563
0.18675138056278229 0.057608138769865036 0.069756694138050079
0.25079461932182312 0.068516403436660767 0.081564880907535553
0.27887076139450073 0.070363856852054596 0.084998264908790588
0.26752617955207825 0.065591402351856232 0.08117346465587616
0.26139521598815918 0.064581148326396942 0.079707860946655273
0.25380229949951172 0.062156077474355698 0.076319359242916107
0.25421628355979919 0.063015028834342957 0.075237840414047241
0.25048574805259705 0.061834327876567841 0.074471928179264069
0.2575756311416626 0.064038313925266266 0.076495103538036346
0.052143320441246033 0.080413654446601868 0.067180335521697998
0.087013930082321167 0.085465781390666962 0.073382645845413208
0.13788117468357086 0.089527204632759094 0.079203270375728607
0.18695229291915894 0.093112260103225708 0.082055486738681793
0.2419755607843399 0.099040403962135315 0.087667770683765411
0.30516785383224487 0.10572484135627747 0.093808539211750031
0.36592006683349609 0.10980531573295593 0.097990445792675018
0.38274866342544556 0.10708954930305481 0.097149208188056946
0.37214839458465576 0.1031666174530983 0.095801346004009247
0.36123260855674744 0.099666491150856018 0.09390665590763092
0.35717344284057617 0.09810321033000946 0.092583298683166504
0.34817323088645935 0.094787716865539551 0.089323483407497406
0.33715122938156128 0.0926637202501297 0.084842324256896973
0.07953605055809021 0.16077469289302826 0.1024213582277298
0.10693151503801346 0.15144349634647369 0.099754899740219116
0.17349448800086975 0.15329162776470184 0.10257094353437424
0.24239997565746307 0.15432591736316681 0.1037151888012886
0.30128473043441772 0.15660443902015686 0.10428868979215622
0.36111414432525635 0.16004630923271179 0.1074756532907486
0.43033555150032043 0.16498786211013794 0.11334816366434097
0.47457149624824524 0.1662164032459259 0.1187322586774826
0.48307272791862488 0.16253842413425446 0.12168345600366592
0.47600755095481873 0.15685832500457764 0.12083324044942856
0.4716917872428894 0.15208640694618225 0.11830577254295349
0.46490561962127686 0.14816656708717346 0.11347901821136475
0.45190596580505371 0.14381676912307739 0.10780899971723557
0.10740615427494049 0.24505981802940369 0.12745825946331024
0.11683475226163864 0.22397337853908539 0.11655890941619873
0.17954325675964355 0.22087639570236206 0.11665655672550201
0.26138845086097717 0.21899992227554321 0.12014267593622208
0.33070471882820129 0.21771717071533203 0.1237255185842514
0.39519304037094116 0.22112223505973816 0.12796010076999664
0.4604681134223938 0.22551122307777405 0.13595066964626312
0.51488488912582397 0.22760172188282013 0.14472422003746033
0.54527455568313599 0.22638358175754547 0.14928171038627625
0.54990291595458984 0.22089174389839172 0.14820478856563568
0.54356098175048828 0.21302300691604614 0.14518789947032928
0.539378821849823 0.20749129354953766 0.1408163458108902
0.53253650665283203 0.20303381979465485 0.13809584081172943
0.14211191236972809 0.32942521572113037 0.15145885944366455
0.13244017958641052 0.29872012138366699 0.13582955300807953
0.17405803501605988 0.29108569025993347 0.13444367051124573
0.25832796096801758 0.28714001178741455 0.14050891995429993
0.34302452206611633 0.28529345989227295 0.14743977785110474
0.41463392972946167 0.28761571645736694 0.15446951985359192
0.47904112935066223 0.29087212681770325 0.16503296792507172
0.53880435228347778 0.2935296893119812 0.17676705121994019
0.58604532480239868 0.29523903131484985 0.18261910974979401
0.60216242074966431 0.29153338074684143 0.18185047805309296
0.59401673078536987 0.28356483578681946 0.17669107019901276
0.58740955591201782 0.27530393004417419 0.17275901138782501
0.58399033546447754 0.26823779940605164 0.17157384753227234
0.18093279004096985 0.41602736711502075 0.18191681802272797
0.15483500063419342 0.37991094589233398 0.16408728063106537
0.1700165718793869 0.36434963345527649 0.16000178456306458
0.25023740530014038 0.3572813868522644 0.16531407833099365
0.34644049406051636 0.35455462336540222 0.17331364750862122
0.42558664083480835 0.35547247529029846 0.18173328042030334
0.49096721410751343 0.35828468203544617 0.19248610734939575
0.55186635255813599 0.36204591393470764 0.20348481833934784
0.60790199041366577 0.36523783206939697 0.21240229904651642
0.6373477578163147 0.36421447992324829 0.21551603078842163
0.63234883546829224 0.35791337490081787 0.2106814831495285
0.62424784898757935 0.34822091460227966 0.20623064041137695
0.62270838022232056 0.33847466111183167 0.20463724434375763
0.21720175445079803 0.49077004194259644 0.21287840604782104
0.18924178183078766 0.45490235090255737 0.19432274997234344
0.18944190442562103 0.43626576662063599 0.18752691149711609
0.25140765309333801 0.42557403445243835 0.19046095013618469
0.34725898504257202 0.42109775543212891 0.19865955412387848
0.43408110737800598 0.42089903354644775 0.20871943235397339
0.50142580270767212 0.42333665490150452 0.21917100250720978
0.55950450897216797 0.42755436897277832 0.22840595245361328
0.61788487434387207 0.43201282620429993 0.23735691606998444
0.6629064679145813 0.43346688151359558 0.24488718807697296
0.66903764009475708 0.42958414554595947 0.24340814352035522
0.661063551902771 0.42050674557685852 0.23852472007274628
0.65771669149398804 0.4096076488494873 0.23553334176540375
0.24355609714984894 0.55938088893890381 0.24190351366996765
0.22084765136241913 0.52848517894744873 0.22552639245986938
0.21549957990646362 0.50838851928710938 0.21746166050434113
0.2606174647808075 0.49361199140548706 0.21720224618911743
0.35129818320274353 0.48632344603538513 0.22461377084255219
0.44343271851539612 0.48464703559875488 0.23630265891551971
0.51454645395278931 0.48613443970680237 0.24638260900974274
0.57266581058502197 0.4900398850440979 0.25421184301376343
0.63130867481231689 0.49470847845077515 0.26240497827529907
0.68200433254241943 0.49838167428970337 0.27086666226387024
0.70010077953338623 0.4975949227809906 0.27274221181869507
0.69604188203811646 0.48955053091049194 0.26779317855834961
0.69017314910888672 0.47836735844612122 0.2627221941947937
0.26682078838348389 0.62007135152816772 0.26831361651420593
0.25242632627487183 0.5994141697883606 0.25746190547943115
0.24369917809963226 0.58096694946289062 0.2503303587436676
0.27687883377075195 0.56381773948669434 0.24778531491756439
0.36229127645492554 0.55439728498458862 0.25406315922737122
0.45688629150390625 0.55162268877029419 0.26523235440254211
0.53253406286239624 0.55125415325164795 0.27361470460891724
0.59036237001419067 0.55284076929092407 0.27853059768676758
0.64467304944992065 0.55591386556625366 0.28511080145835876
0.6971583366394043 0.56130397319793701 0.29613420367240906
0.72742050886154175 0.56256306171417236 0.30189910531044006
0.72905665636062622 0.55481809377670288 0.29676985740661621
0.7215505838394165 0.54400384426116943 0.29090368747711182
0.28112101554870605 0.64772427082061768 0.27934932708740234
0.27670946717262268 0.64448744058609009 0.27839276194572449
0.26691171526908875 0.63497817516326904 0.27568334341049194
0.29177623987197876 0.6235005259513855 0.2756350040435791
0.3727295994758606 0.61905014514923096 0.28452911972999573
0.47290897369384766 0.61978632211685181 0.29761159420013428
0.5546913743019104 0.61886698007583618 0.30665150284767151
0.61276477575302124 0.61693358421325684 0.31070709228515625
0.66361868381500244 0.61813807487487793 0.3177165687084198
0.71932214498519897 0.62545585632324219 0.33520448207855225
0.76190590858459473 0.62819993495941162 0.34624728560447693
0.76744687557220459 0.62071084976196289 0.34136664867401123
0.75579714775085449 0.61055034399032593 0.33431467413902283
0.28236156702041626 0.64754760265350342 0.27825647592544556
0.27869576215744019 0.65141206979751587 0.28046023845672607
0.26937982439994812 0.65042483806610107 0.28232952952384949
0.28694629669189453 0.64735454320907593 0.28604224324226379
0.36564704775810242 0.65389996767044067 0.30050179362297058
0.47375068068504333 0.66351413726806641 0.32012814283370972
0.56429588794708252 0.66601896286010742 0.33511608839035034
0.62847620248794556 0.66658604145050049 0.3463803231716156
0.68282604217529297 0.67265516519546509 0.3621051013469696
0.7397078275680542 0.68441915512084961 0.38684231042861938
0.78730672597885132 0.69371050596237183 0.40924817323684692
0.80346643924713135 0.69189715385437012 0.41322475671768188
0.7956652045249939 0.6823195219039917 0.40353301167488098
0.28242197632789612 0.64676165580749512 0.2781980037689209
0.27843281626701355 0.64754080772399902 0.27866798639297485
0.26947104930877686 0.64750927686691284 0.28121250867843628
0.28081890940666199 0.64767313003540039 0.28470194339752197
0.34837174415588379 0.65728235244750977 0.29951849579811096
0.45037010312080383 0.6687321662902832 0.32012760639190674
0.54455685615539551 0.67365628480911255 0.33910647034645081
0.61875563859939575 0.68117713928222656 0.35947448015213013
0.68103665113449097 0.69551527500152588 0.38356649875640869
0.73877185583114624 0.71279615163803101 0.41343724727630615
0.79066455364227295 0.72968137264251709 0.44647875428199768
0.82197779417037964 0.73810791969299316 0.466045081615448
0.82609498500823975 0.734447181224823 0.4625248908996582
0.28580567240715027 0.64705431461334229 0.28056731820106506
0.28436678647994995 0.64705628156661987 0.28139024972915649
0.28030359745025635 0.64616918563842773 0.28221556544303894
0.29046204686164856 0.64543843269348145 0.28384137153625488
0.34243762493133545 0.65247052907943726 0.29545074701309204
0.42686960101127625 0.66114777326583862 0.31289583444595337
0.51518017053604126 0.66663748025894165 0.33088701963424683
0.59296876192092896 0.67570847272872925 0.35202133655548096
0.65903300046920776 0.69051510095596313 0.37595579028129578
0.71701842546463013 0.70816057920455933 0.40420758724212646
0.77121227979660034 0.72754102945327759 0.43807438015937805
0.81456547975540161 0.74347031116485596 0.46898755431175232
0.8346329927444458 0.75177121162414551 0.4819665253162384
0.026809049770236015 0.030889518558979034 0.040354888886213303
0.060992162674665451 0.037574723362922668 0.051195211708545685
0.10455941408872604 0.046080540865659714 0.065360516309738159
0.14509141445159912 0.054177600890398026 0.075898744165897369
0.19836117327213287 0.062642209231853485 0.09009532630443573
0.25940930843353271 0.071299068629741669 0.10305232554674149
0.28226706385612488 0.071367450058460236 0.10454513132572174
0.28909608721733093 0.070973940193653107 0.10390116274356842
0.28186604380607605 0.06953740119934082 0.10084834694862366
0.26886406540870667 0.066104844212532043 0.096088528633117676
0.271086186170578 0.065661318600177765 0.096931934356689453
0.27511706948280334 0.066072635352611542 0.098294518887996674
0.28554701805114746 0.06943976879119873 0.10015343874692917
0.056692309677600861 0.086698912084102631 0.08545144647359848
0.091210201382637024 0.088393956422805786 0.088323302567005157
0.14510609209537506 0.092688798904418945 0.096944816410541534
0.19643571972846985 0.097218334674835205 0.10209685564041138
0.25630822777748108 0.10403997451066971 0.11241844296455383
0.31504082679748535 0.10884906351566315 0.1175290122628212
0.36911079287528992 0.11103186756372452 0.11921721696853638
0.39627483487129211 0.11053548753261566 0.1191219687461853
0.38820564746856689 0.10710672289133072 0.11629218608140945
0.37379956245422363 0.10222760587930679 0.11235304921865463
0.36987096071243286 0.099796801805496216 0.11103890836238861
0.36423298716545105 0.097741581499576569 0.10836490988731384
0.35895615816116333 0.097110182046890259 0.10536455363035202
0.079192019999027252 0.1605326384305954 0.1224527433514595
0.10772383213043213 0.1530064195394516 0.11786890774965286
0.1754307746887207 0.15476000308990479 0.12168917059898376
0.2479451447725296 0.15740729868412018 0.12443675845861435
0.3123546838760376 0.16104736924171448 0.12735742330551147
0.37148949503898621 0.16322799026966095 0.12937979400157928
0.43426686525344849 0.16636542975902557 0.13185733556747437
0.47978132963180542 0.16696611046791077 0.13479648530483246
0.49158969521522522 0.16386500000953674 0.13539630174636841
0.48528975248336792 0.15776002407073975 0.13244143128395081
0.47788971662521362 0.15273155272006989 0.12960246205329895
0.46933934092521667 0.14839223027229309 0.12509997189044952
0.45865339040756226 0.1447589099407196 0.12114600092172623
0.10391692817211151 0.24623428285121918 0.14911143481731415
0.11619547009468079 0.22644244134426117 0.1361280232667923
0.17971940338611603 0.22152632474899292 0.13354834914207458
0.26174363493919373 0.22054457664489746 0.13429291546344757
0.33384016156196594 0.22144301235675812 0.13529162108898163
0.39716225862503052 0.22303684055805206 0.13906174898147583
0.45847266912460327 0.22512088716030121 0.14449162781238556
0.51341360807418823 0.22657407820224762 0.1500810980796814
0.54812920093536377 0.2255680114030838 0.15135495364665985
0.55553722381591797 0.22053313255310059 0.14908303320407867
0.54902279376983643 0.21367651224136353 0.14621458947658539
0.54173451662063599 0.2073633223772049 0.14339029788970947
0.53445959091186523 0.20208603143692017 0.14394509792327881
0.13999021053314209 0.33439525961875916 0.17082646489143372
0.13409586250782013 0.30331084132194519 0.15271630883216858
0.17758020758628845 0.29124820232391357 0.14729432761669159
0.25983145833015442 0.2865053117275238 0.14829953014850616
0.34263205528259277 0.28561383485794067 0.15088912844657898
0.41140878200531006 0.28662195801734924 0.15552432835102081
