assets/lut/alexjordan bright green 01.cube
# Created by: G'MIC (https://gmic.eu)
TITLE "bright_green_01"
# LUT size
LUT_3D_SIZE 5
# Data domain
DOMAIN_MIN 0.0 0.0 0.0
DOMAIN_MAX 1.0 1.0 1.0
# LUT data points
0.022628126665949821 0.023373741656541824 0.021265260875225067
0.1321568638086319 0.048827271908521652 0.048447027802467346
0.26584836840629578 0.066354192793369293 0.068948782980442047
0.24652485549449921 0.060714166611433029 0.064004294574260712
0.24110470712184906 0.06039135530591011 0.062647067010402679
0.10546743124723434 0.2516179084777832 0.12040913850069046
0.27171787619590759 0.22775194048881531 0.11992226541042328
0.47546166181564331 0.23390655219554901 0.14136259257793427
0.55694109201431274 0.22900134325027466 0.15312911570072174
0.53961247205734253 0.21098068356513977 0.14123648405075073
0.22038142383098602 0.50385606288909912 0.21761111915111542
0.27025243639945984 0.44045355916023254 0.20141591131687164
0.52017605304718018 0.43929040431976318 0.23050278425216675
0.67394804954528809 0.44739815592765808 0.25131085515022278
0.66409891843795776 0.42187386751174927 0.23997549712657928
0.27794995903968811 0.64594453573226929 0.27953431010246277
0.30840495228767395 0.63735407590866089 0.28354272246360779
0.57309508323669434 0.63249439001083374 0.31545397639274597
0.73642927408218384 0.64510369300842285 0.35404741764068604
0.76618385314941406 0.63177591562271118 0.35520827770233154
0.28854519128799438 0.64686280488967896 0.27954903244972229
0.31551209092140198 0.64962393045425415 0.28907135128974915
0.53203386068344116 0.66932380199432373 0.33385565876960754
0.72876638174057007 0.71055042743682861 0.41165891289710999
0.83753371238708496 0.75507867336273193 0.48486033082008362
0.034191504120826721 0.03597036749124527 0.053335767239332199
0.16173388063907623 0.060833830386400223 0.098223485052585602
0.2923910915851593 0.072307735681533813 0.12799200415611267
0.29240542650222778 0.070514053106307983 0.12452440708875656
0.3050072193145752 0.072112500667572021 0.12621060013771057
0.10468265414237976 0.25198543071746826 0.18137292563915253
0.26464283466339111 0.22237275540828705 0.16307872533798218
0.46092319488525391 0.22784979641437531 0.16852453351020813
0.56647956371307373 0.2228936105966568 0.16818070411682129
0.54301232099533081 0.20465078949928284 0.16342844069004059
0.21605479717254639 0.49090760946273804 0.2475893646478653
0.24981397390365601 0.42564189434051514 0.20268933475017548
0.49315154552459717 0.41550856828689575 0.2132687121629715
0.65507358312606812 0.4239489734172821 0.23688375949859619
0.65876859426498413 0.40325066447257996 0.23006801307201385
0.28461810946464539 0.65329891443252563 0.3155721127986908
0.29385533928871155 0.62037426233291626 0.28751024603843689
0.53682577610015869 0.60291606187820435 0.30311208963394165
0.70240402221679688 0.61110752820968628 0.32660830020904541
0.75073182582855225 0.59756439924240112 0.3221287727355957
0.28638139367103577 0.64953404664993286 0.30282124876976013
0.27591040730476379 0.64322954416275024 0.28706073760986328
0.50421345233917236 0.67028725147247314 0.33618810772895813
0.71255022287368774 0.70832347869873047 0.4039129912853241
0.83236396312713623 0.75026458501815796 0.48276826739311218
0.041517578065395355 0.043399795889854431 0.080931298434734344
0.18559807538986206 0.067240804433822632 0.1466166228055954
0.33738863468170166 0.081486612558364868 0.19761183857917786
0.3419441282749176 0.081296704709529877 0.19689963757991791
0.33239278197288513 0.078751072287559509 0.19078367948532104
0.1253892183303833 0.26796075701713562 0.28536713123321533
0.27324992418289185 0.23301191627979279 0.26314786076545715
0.47693583369255066 0.23349381983280182 0.27384546399116516
0.59057354927062988 0.23072075843811035 0.28278630971908569
0.562217116355896 0.21075853705406189 0.26387688517570496
0.22728513181209564 0.49733680486679077 0.36485391855239868
0.26099380850791931 0.4330945611000061 0.31195619702339172
0.50213223695755005 0.42538899183273315 0.31010466814041138
0.66170740127563477 0.43260860443115234 0.32003358006477356
0.66945695877075195 0.41024360060691833 0.30432531237602234
0.29987901449203491 0.67446142435073853 0.43384328484535217
0.31241217255592346 0.62771272659301758 0.38374298810958862
0.54192632436752319 0.60667145252227783 0.37974849343299866
0.7051810622215271 0.61445659399032593 0.39916223287582397
0.76643174886703491 0.60973614454269409 0.39952319860458374
0.29911544919013977 0.67086136341094971 0.3998408317565918
0.29945722222328186 0.66777694225311279 0.37735646963119507
0.51902741193771362 0.68950557708740234 0.40968787670135498
0.72949045896530151 0.73183739185333252 0.48339834809303284
0.85187298059463501 0.77172011137008667 0.54906946420669556
0.037339631468057632 0.039677415043115616 0.075092583894729614
0.1760588139295578 0.06597977876663208 0.14159318804740906
0.34350878000259399 0.082986481487751007 0.20080187916755676
0.33772745728492737 0.078560426831245422 0.19593244791030884
0.33158832788467407 0.075304783880710602 0.19251121580600739
0.12379127740859985 0.26387414336204529 0.30297690629959106
0.27365627884864807 0.23155947029590607 0.30439901351928711
0.4792848527431488 0.2339290976524353 0.33200696110725403
0.60494899749755859 0.23429830372333527 0.34595197439193726
0.57541918754577637 0.21266943216323853 0.32874181866645813
0.22713173925876617 0.5022733211517334 0.43518352508544922
0.26509484648704529 0.44118514657020569 0.40255820751190186
0.50674581527709961 0.43203628063201904 0.40902841091156006
0.6769527792930603 0.44266656041145325 0.42391172051429749
0.68704169988632202 0.4209263026714325 0.41159918904304504
0.30767336487770081 0.68226009607315063 0.52836358547210693
0.31207749247550964 0.63273268938064575 0.48917904496192932
0.5500912070274353 0.62110042572021484 0.48889574408531189
0.70801758766174316 0.6234734058380127 0.49844875931739807
0.78152787685394287 0.62287020683288574 0.50064259767532349
0.3069441020488739 0.68378645181655884 0.51166212558746338
0.29880312085151672 0.67832261323928833 0.48379826545715332
0.54524600505828857 0.71753311157226562 0.52650648355484009
0.74933433532714844 0.75401914119720459 0.58154791593551636
0.86752718687057495 0.80061221122741699 0.64499855041503906
0.034064363688230515 0.037765413522720337 0.072311341762542725
0.17669931054115295 0.065795242786407471 0.14197152853012085
0.3252473771572113 0.079115591943264008 0.19369636476039886
0.35860159993171692 0.08468329906463623 0.20702996850013733
0.34973445534706116 0.07779192179441452 0.20369188487529755
0.11859886348247528 0.25132721662521362 0.29473721981048584
0.26174268126487732 0.22514285147190094 0.29841214418411255
0.46806067228317261 0.22348667681217194 0.32411113381385803
0.58909898996353149 0.22270661592483521 0.34255319833755493
0.57499116659164429 0.20573517680168152 0.33181044459342957
0.22661195695400238 0.49050825834274292 0.42947500944137573
0.25815889239311218 0.43236163258552551 0.40190517902374268
0.49503400921821594 0.42046138644218445 0.40846222639083862
0.66201496124267578 0.43171036243438721 0.43240094184875488
0.69265365600585938 0.41703304648399353 0.42942187190055847
0.30618762969970703 0.67802888154983521 0.52980107069015503
0.30023494362831116 0.62134593725204468 0.50271987915039062
0.54313808679580688 0.61292952299118042 0.51699000597000122
0.7110595703125 0.62413030862808228 0.54209917783737183
0.78636199235916138 0.62489086389541626 0.55296403169631958
0.31206175684928894 0.69444239139556885 0.54168343544006348
0.31509363651275635 0.6945992112159729 0.5418086051940918
0.560283362865448 0.73256063461303711 0.59593671560287476
0.75879722833633423 0.76623678207397461 0.65440434217453003
0.88896435499191284 0.82193398475646973 0.7263103723526001
