assets/lut/alexjordan moonlight 01.cube
# Created by: G'MIC (https://gmic.eu)
TITLE "moonlight_01"
# LUT size
LUT_3D_SIZE 5
# Data domain
DOMAIN_MIN 0.0 0.0 0.0
DOMAIN_MAX 1.0 1.0 1.0
# LUT data points
0 0 0
0.015953917056322098 0 0
0.080601394176483154 0.0006779390387237072 0.00031319411937147379
0.23010919988155365 0 0
0.46427416801452637 0 0
0 0.039656050503253937 0
0.012056268751621246 0.047766488045454025 0
0.09768407791852951 0.04908713698387146 0
0.26060393452644348 0.032641496509313583 0
0.50667291879653931 0.014876975677907467 0.00035647224285639822
0 0.14414209127426147 0
0.013357752934098244 0.17266868054866791 0
0.1054845005273819 0.19337479770183563 0.0024858512915670872
0.29292336106300354 0.20152692496776581 0.010177881456911564
0.56274080276489258 0.20373700559139252 0.021672088652849197
0 0.35024565458297729 0
0.017200380563735962 0.39943009614944458 0
0.11948437988758087 0.44120436906814575 0.014806216582655907
0.32945424318313599 0.47496902942657471 0.044834420084953308
0.62908446788787842 0.49277600646018982 0.068206712603569031
0 0.6805272102355957 0
0.030561080202460289 0.7360273003578186 0
0.16365012526512146 0.79711276292800903 0.024541832506656647
0.39275124669075012 0.85828840732574463 0.077110514044761658
0.69610011577606201 0.8950534462928772 0.13125638663768768
0 0.0011499143438413739 0.052658770233392715
0.012225117534399033 0.00070944393519312143 0.050294645130634308
0.083313554525375366 0 0.036784723401069641
0.22613462805747986 0 0.0083215450868010521
0.45629429817199707 0 0.00011201746383449063
0 0.037268109619617462 0.04279804602265358
0.0077575533650815487 0.049014627933502197 0.052851162850856781
0.10006434470415115 0.046212904155254364 0.055489722639322281
0.26822593808174133 0.04089030995965004 0.037221018224954605
0.51455479860305786 0.032750852406024933 0.018143881112337112
0 0.15227808058261871 0.030538715422153473
0.014848342165350914 0.18110881745815277 0.044667501002550125
0.11255758255720139 0.20309758186340332 0.070222325623035431
0.30534496903419495 0.2144569605588913 0.076733037829399109
0.579143226146698 0.21342256665229797 0.08142583817243576
0 0.36942508816719055 0.026766609400510788
0.011636561714112759 0.41776138544082642 0.036172814667224884
0.13347503542900085 0.45984119176864624 0.084140628576278687
0.35070466995239258 0.49920594692230225 0.11978089809417725
0.65578490495681763 0.51625972986221313 0.14175260066986084
0 0.6926378607749939 0.03871549665927887
0.010628284886479378 0.7596239447593689 0.045954219996929169
0.15968851745128632 0.82836920022964478 0.10863491892814636
0.39930939674377441 0.90219765901565552 0.17092321813106537
0.71148991584777832 0.93202191591262817 0.23094139993190765
0 0 0.22054432332515717
0.0054880478419363499 0 0.21286332607269287
0.069774061441421509 3.4466913348296657e-05 0.19155699014663696
0.2177300900220871 0 0.15411040186882019
0.44349128007888794 0 0.12994635105133057
0 0.032666239887475967 0.21412740647792816
0.0038856505416333675 0.043380275368690491 0.23153446614742279
0.087302505970001221 0.047892417758703232 0.23474331200122833
0.26084443926811218 0.037451140582561493 0.2138744443655014
0.50882869958877563 0.028112912550568581 0.19792649149894714
0 0.15156462788581848 0.19942298531532288
0.013563492335379124 0.18244642019271851 0.22683890163898468
0.11239761859178543 0.20696108043193817 0.25671479105949402
0.31023973226547241 0.21648137271404266 0.26639857888221741
0.5874754786491394 0.21949134767055511 0.2699180543422699
0 0.37564808130264282 0.18723952770233154
0.015273449011147022 0.42412558197975159 0.22466054558753967
0.13984055817127228 0.47401773929595947 0.27547484636306763
0.36216169595718384 0.51044481992721558 0.31509551405906677
0.67190605401992798 0.5308411717414856 0.34091070294380188
0 0.70353978872299194 0.19702717661857605
0.025296678766608238 0.77253562211990356 0.24003463983535767
0.1730048805475235 0.84870386123657227 0.30942171812057495
0.41662535071372986 0.91409885883331299 0.37569788098335266
0.73352575302124023 0.94710487127304077 0.44052264094352722
0 4.3756823288276792e-05 0.50755739212036133
0 0 0.50822204351425171
0.043905608355998993 0.00046687407302670181 0.49364468455314636
0.19428730010986328 0 0.44669324159622192
0.42484626173973083 0 0.40399572253227234
0 0.021514443680644035 0.53034126758575439
0.00038909912109375 0.032188042998313904 0.55304175615310669
0.063939802348613739 0.047122400254011154 0.55705064535140991
0.23740068078041077 0.036521252244710922 0.52959811687469482
0.49045810103416443 0.029228748753666878 0.50855576992034912
0 0.13907438516616821 0.52125692367553711
0.0075501683168113232 0.17332597076892853 0.55455058813095093
0.10085387527942657 0.20015799999237061 0.59169191122055054
0.30307275056838989 0.21281376481056213 0.59691500663757324
0.58517807722091675 0.21898509562015533 0.59484720230102539
0 0.36630064249038696 0.49628165364265442
0.014874656684696674 0.42140007019042969 0.55497610569000244
0.13658083975315094 0.47586503624916077 0.61604583263397217
0.36258035898208618 0.51742440462112427 0.65608388185501099
0.67503398656845093 0.53945654630661011 0.67676734924316406
0.00011571248614927754 0.70827674865722656 0.4797971248626709
0.032033808529376984 0.78571951389312744 0.56588923931121826
0.18388174474239349 0.86208724975585938 0.64637905359268188
0.42784714698791504 0.93822461366653442 0.71368396282196045
0.74760085344314575 0.96493738889694214 0.78107047080993652
0 0 0.9295583963394165
0 0 0.94058889150619507
0.036204751580953598 0 0.93591427803039551
0.19378574192523956 0 0.88798916339874268
0.43155935406684875 0 0.86017411947250366
0 0.0042500663548707962 0.96150082349777222
0.0010411730036139488 0.011188850738108158 0.98157060146331787
0.055661953985691071 0.036294706165790558 0.98352420330047607
0.22875118255615234 0.019303310662508011 0.96688014268875122
0.48327025771141052 0.0041451845318078995 0.95767545700073242
0 0.12397757172584534 0.96415948867797852
0.013176996260881424 0.14955915510654449 0.98708593845367432
0.10074722021818161 0.18647864460945129 0.99611169099807739
0.29807019233703613 0.19815713167190552 0.99654793739318848
0.57763195037841797 0.20721383392810822 0.9957084059715271
0 0.34913718700408936 0.9583321213722229
0.020400656387209892 0.40531787276268005 0.99020034074783325
0.13970643281936646 0.46727684140205383 1
0.36483621597290039 0.5082930326461792 1
0.67340493202209473 0.54144251346588135 1
0.0026302712503820658 0.70306789875030518 0.94944339990615845
0.043260477483272552 0.78379935026168823 0.99223822355270386
0.19586057960987091 0.86030411720275879 1
0.44103166460990906 0.93011975288391113 1
0.75435996055603027 0.97026187181472778 1
