assets/lut/alexjordan only red.cube
# Created by: G'MIC (https://gmic.eu)
TITLE "only_red"
# LUT size
LUT_3D_SIZE 5
# Data domain
DOMAIN_MIN 0.0 0.0 0.0
DOMAIN_MAX 1.0 1.0 1.0
# LUT data points
0.039117161184549332 0.02977987565100193 0.030169019475579262
0.24072307348251343 0.04028751328587532 0.031208666041493416
0.47082003951072693 0.044318463653326035 0.044802989810705185
0.69335842132568359 0.048118636012077332 0.053107377141714096
0.9116787314414978 0.056377515196800232 0.052758354693651199
0.1876712441444397 0.21026115119457245 0.18664470314979553
0.25449267029762268 0.25790134072303772 0.2295859307050705
0.4655454158782959 0.28122970461845398 0.099018707871437073
0.73301464319229126 0.27708780765533447 0.05165264755487442
0.97286933660507202 0.28004422783851624 0.051989417523145676
0.34212836623191833 0.38930866122245789 0.34228259325027466
0.41432139277458191 0.4370148777961731 0.38635870814323425
0.4811827540397644 0.48222818970680237 0.42958050966262817
0.63635939359664917 0.52145135402679443 0.30010563135147095
0.90567147731781006 0.52895134687423706 0.15468211472034454
0.49830710887908936 0.5682748556137085 0.49779459834098816
0.5691257119178772 0.61593866348266602 0.54370272159576416
0.63841032981872559 0.66160786151885986 0.58990532159805298
0.70580238103866577 0.7080681324005127 0.63060164451599121
0.82901459932327271 0.75433057546615601 0.53910857439041138
0.65365505218505859 0.75086623430252075 0.65250390768051147
0.72597658634185791 0.79725122451782227 0.69988721609115601
0.79482042789459229 0.84281414747238159 0.74691188335418701
0.86245203018188477 0.88803726434707642 0.78986191749572754
0.93562304973602295 0.93463659286499023 0.83257377147674561
0.048270177096128464 0.046349797397851944 0.078026562929153442
0.12423683702945709 0.089226320385932922 0.12536135315895081
0.25979733467102051 0.11711093783378601 0.18434405326843262
0.49183884263038635 0.11296192556619644 0.2353655993938446
0.72721141576766968 0.11313176155090332 0.25861835479736328
0.20131403207778931 0.22784316539764404 0.22698274254798889
0.27558097243309021 0.27164864540100098 0.26916569471359253
0.48651218414306641 0.27886101603507996 0.27635785937309265
0.71063393354415894 0.28335949778556824 0.28267523646354675
0.93335098028182983 0.28908258676528931 0.28968515992164612
0.35684019327163696 0.40775018930435181 0.38309544324874878
0.42877495288848877 0.45186489820480347 0.42696774005889893
0.49783593416213989 0.49811011552810669 0.46836355328559875
0.7081339955329895 0.5223577618598938 0.33824753761291504
0.97182905673980713 0.52026486396789551 0.28602328896522522
0.51166611909866333 0.58708548545837402 0.53694790601730347
0.58291745185852051 0.63106679916381836 0.58390969038009644
0.6544569730758667 0.67732048034667969 0.62838971614837646
0.72158169746398926 0.72386103868484497 0.67276996374130249
0.87788724899291992 0.76252979040145874 0.55338126420974731
0.66989195346832275 0.76463586091995239 0.69334834814071655
0.7410854697227478 0.81068325042724609 0.73881393671035767
0.81009066104888916 0.85620296001434326 0.78457599878311157
0.87918365001678467 0.90252500772476196 0.82918751239776611
0.94928085803985596 0.94876134395599365 0.87205451726913452
0.063779093325138092 0.063945278525352478 0.12302766740322113
0.14048875868320465 0.10623452812433243 0.17160794138908386
0.22095479071140289 0.14838017523288727 0.21782054007053375
0.31497830152511597 0.18726043403148651 0.27328985929489136
0.48728236556053162 0.20191150903701782 0.34091445803642273
0.21592077612876892 0.24261395633220673 0.27161124348640442
0.29031386971473694 0.28770819306373596 0.31688901782035828
0.36416420340538025 0.33168333768844604 0.36628478765487671
0.50455158948898315 0.35747578740119934 0.42673754692077637
0.73315131664276123 0.35199263691902161 0.47708716988563538
0.37225580215454102 0.42202267050743103 0.42191526293754578
0.4406275749206543 0.46809795498847961 0.4679141640663147
0.52020347118377686 0.51264578104019165 0.51183134317398071
0.72920918464660645 0.52161890268325806 0.51564252376556396
0.94676798582077026 0.52402377128601074 0.52649754285812378
0.52673584222793579 0.60127717256546021 0.57692104578018188
0.59786581993103027 0.64729827642440796 0.62225377559661865
0.66873860359191895 0.69365233182907104 0.66772353649139404
0.73893439769744873 0.74003088474273682 0.70725899934768677
0.94644051790237427 0.76348733901977539 0.58850359916687012
0.68130970001220703 0.77852350473403931 0.73365312814712524
0.75445020198822021 0.82650613784790039 0.77815490961074829
0.82403504848480225 0.87294584512710571 0.82433921098709106
0.89555841684341431 0.91783815622329712 0.8695605993270874
0.96720141172409058 0.96446710824966431 0.91131281852722168
0.078244075179100037 0.07516905665397644 0.1693115234375
0.15318471193313599 0.12231126427650452 0.21551699936389923
0.23267903923988342 0.16451330482959747 0.26526910066604614
0.31507006287574768 0.20701427757740021 0.31380912661552429
0.40306466817855835 0.24700362980365753 0.36278578639030457
0.22968502342700958 0.257733553647995 0.31636327505111694
0.30194857716560364 0.3018498420715332 0.36212080717086792
0.37993541359901428 0.3461519181728363 0.4125039279460907
0.46115970611572266 0.38922750949859619 0.46080046892166138
0.55724149942398071 0.42814713716506958 0.51211762428283691
0.38275307416915894 0.43775853514671326 0.46590134501457214
0.45664176344871521 0.48259294033050537 0.51170909404754639
0.53044813871383667 0.52986818552017212 0.55855244398117065
0.60722059011459351 0.57070684432983398 0.60734593868255615
0.74685323238372803 0.59856462478637695 0.66724705696105957
0.54086369276046753 0.61795759201049805 0.61852312088012695
0.61122500896453857 0.66277986764907837 0.66249758005142212
0.68213093280792236 0.70821326971054077 0.70835590362548828
0.75763899087905884 0.75353008508682251 0.7538260817527771
0.96625298261642456 0.76246976852416992 0.75644421577453613
0.69847363233566284 0.79628700017929077 0.77420926094055176
0.76753109693527222 0.84169262647628784 0.81850230693817139
0.83780956268310547 0.89007121324539185 0.86393982172012329
0.91239792108535767 0.93429690599441528 0.90617591142654419
0.98200398683547974 0.97819423675537109 0.94947445392608643
0.094216123223304749 0.092943109571933746 0.2143837958574295
0.16843195259571075 0.13458934426307678 0.2637723982334137
0.24410828948020935 0.17958013713359833 0.31166771054267883
0.32618823647499084 0.22530989348888397 0.36308377981185913
0.40936601161956787 0.26725780963897705 0.41020011901855469
0.24624191224575043 0.27250102162361145 0.36319205164909363
0.31999179720878601 0.31844434142112732 0.40966808795928955
0.39396867156028748 0.36296063661575317 0.45740261673927307
0.47323080897331238 0.40593725442886353 0.50762832164764404
0.55233305692672729 0.44939815998077393 0.55478280782699585
0.39759910106658936 0.45516544580459595 0.50951689481735229
0.46910828351974487 0.49934989213943481 0.55873018503189087
0.54540908336639404 0.54450398683547974 0.60365253686904907
0.61943912506103516 0.58751451969146729 0.6529114842414856
0.70351135730743408 0.62856811285018921 0.70222920179367065
0.55446398258209229 0.63414847850799561 0.66058456897735596
0.62654006481170654 0.68028372526168823 0.707183837890625
0.69684457778930664 0.72297745943069458 0.75224059820175171
0.77299457788467407 0.77053821086883545 0.80025744438171387
0.84889847040176392 0.81320542097091675 0.84695243835449219
0.70982104539871216 0.81431704759597778 0.8149116039276123
0.78265225887298584 0.85959649085998535 0.86078900098800659
0.85242998600006104 0.90361219644546509 0.90522611141204834
0.92601323127746582 0.95058625936508179 0.95073580741882324
0.99271857738494873 0.98967993259429932 0.99094736576080322
