assets/lut/alexjordan cross process cp 18.cube
# Created by: G'MIC (https://gmic.eu)
TITLE "cross_process_cp_18"
# LUT size
LUT_3D_SIZE 13
# Data domain
DOMAIN_MIN 0.0 0.0 0.0
DOMAIN_MAX 1.0 1.0 1.0
# LUT data points
0.0030685125384479761 0.040071256458759308 0.086294256150722504
0.054501492530107498 0.044505443423986435 0.089862838387489319
0.12168891727924347 0.046844363212585449 0.090688787400722504
0.18419265747070312 0.050306372344493866 0.09234001487493515
0.24373361468315125 0.055237174034118652 0.094010010361671448
0.30165892839431763 0.061629787087440491 0.097467012703418732
0.35848686099052429 0.068842522799968719 0.1015901118516922
0.41472753882408142 0.076571352779865265 0.10652565956115723
0.47062373161315918 0.084591932594776154 0.11186538636684418
0.52604645490646362 0.092644289135932922 0.11840356886386871
0.5810198187828064 0.1004490852355957 0.12513521313667297
0.63538068532943726 0.10750319808721542 0.13228759169578552
0.68870621919631958 0.11327673494815826 0.13874644041061401
0.018033495172858238 0.10770650953054428 0.10159871727228165
0.084167465567588806 0.11211328208446503 0.10534427314996719
0.14955304563045502 0.11536914855241776 0.10721785575151443
0.21061448752880096 0.11956549435853958 0.10890564322471619
0.26961201429367065 0.12502585351467133 0.11190783977508545
0.3272705078125 0.13182531297206879 0.11589741706848145
0.38393482565879822 0.13932505249977112 0.120850570499897
0.44014304876327515 0.1474788635969162 0.12632304430007935
0.49587607383728027 0.15574659407138824 0.13208943605422974
0.55126857757568359 0.16402959823608398 0.13857375085353851
0.60616141557693481 0.17198142409324646 0.14549274742603302
0.66045516729354858 0.17927515506744385 0.15220393240451813
0.71389555931091309 0.18530844151973724 0.15855100750923157
0.044692873954772949 0.17622856795787811 0.11671122908592224
0.11194368451833725 0.1807413250207901 0.12031831592321396
0.17557914555072784 0.18465179204940796 0.12312816828489304
0.23544830083847046 0.18921667337417603 0.12554259598255157
0.29402872920036316 0.19516827166080475 0.12978562712669373
0.35162681341171265 0.20201820135116577 0.13472011685371399
0.40832662582397461 0.20970533788204193 0.14035522937774658
0.46430689096450806 0.21791756153106689 0.14621749520301819
0.51998186111450195 0.22634603083133698 0.15222965180873871
0.57520902156829834 0.23469458520412445 0.15850123763084412
0.63001984357833862 0.24273410439491272 0.16514268517494202
0.68410956859588623 0.25005719065666199 0.17167346179485321
0.73764795064926147 0.256308913230896 0.17780639231204987
0.074182175099849701 0.24537625908851624 0.13262784481048584
0.13939422369003296 0.25039872527122498 0.13652858138084412
0.20161338150501251 0.25488191843032837 0.13993166387081146
0.26106485724449158 0.25978884100914001 0.14370074868202209
0.31912875175476074 0.26579111814498901 0.14852447807788849
0.37610974907875061 0.27267134189605713 0.15404996275901794
0.43237856030464172 0.28027579188346863 0.16023780405521393
0.48809134960174561 0.28832954168319702 0.16622242331504822
0.5435798168182373 0.29670801758766174 0.17232497036457062
0.59868305921554565 0.30500853061676025 0.17836372554302216
0.65332567691802979 0.31299158930778503 0.18465360999107361
0.70734202861785889 0.32030120491981506 0.19094595313072205
0.76074904203414917 0.32678914070129395 0.19679981470108032
0.10303331166505814 0.31507334113121033 0.14970400929450989
0.16696058213710785 0.3204386830329895 0.15398047864437103
0.2281821221113205 0.3255561888217926 0.15823689103126526
0.28729501366615295 0.33094137907028198 0.16259071230888367
0.34468930959701538 0.33691602945327759 0.1678558886051178
0.40113118290901184 0.34365376830101013 0.17375011742115021
0.45673522353172302 0.35106286406517029 0.1801287978887558
0.51208293437957764 0.35896837711334229 0.18620547652244568
0.56717443466186523 0.36713838577270508 0.19225382804870605
0.62207257747650146 0.37537762522697449 0.19808116555213928
0.67649513483047485 0.38319069147109985 0.20408342778682709
0.73028498888015747 0.39051616191864014 0.21010838449001312
0.78346788883209229 0.39706721901893616 0.21567149460315704
0.13186079263687134 0.38513895869255066 0.16750174760818481
0.19475109875202179 0.39089438319206238 0.17224845290184021
0.2552456259727478 0.39642515778541565 0.17706649005413055
0.31376633048057556 0.40204048156738281 0.18210338056087494
0.37081533670425415 0.40828666090965271 0.18758106231689453
0.42667531967163086 0.41505977511405945 0.19352947175502777
0.48180961608886719 0.42224204540252686 0.19986532628536224
0.53663802146911621 0.42994940280914307 0.20590732991695404
0.59121382236480713 0.43789637088775635 0.21192072331905365
0.64559203386306763 0.44580832123756409 0.21766461431980133
0.69964933395385742 0.45353144407272339 0.2235046923160553
0.75303643941879272 0.46079719066619873 0.22945652902126312
0.80614417791366577 0.4674590528011322 0.23491229116916656
0.16033953428268433 0.45535936951637268 0.18609979748725891
0.22255583107471466 0.46141853928565979 0.19123487174510956
0.28249076008796692 0.46749433875083923 0.19626528024673462
0.34062424302101135 0.47349506616592407 0.20185837149620056
0.39708593487739563 0.47984343767166138 0.20738251507282257
0.4525296688079834 0.48654884099960327 0.21344859898090363
0.50724887847900391 0.49373438954353333 0.21959193050861359
0.56160706281661987 0.50116086006164551 0.22552287578582764
0.61566388607025146 0.50888144969940186 0.23154520988464355
0.66938960552215576 0.51653122901916504 0.23722720146179199
0.72284424304962158 0.52403074502944946 0.24291554093360901
0.77603697776794434 0.53126859664916992 0.24886408448219299
0.82886022329330444 0.53791707754135132 0.25414344668388367
0.18859009444713593 0.52574127912521362 0.20525716245174408
0.2502569854259491 0.53217488527297974 0.21054932475090027
0.30978545546531677 0.53856748342514038 0.21622878313064575
0.3674280047416687 0.54495799541473389 0.22169455885887146
0.42353340983390808 0.55144846439361572 0.2274942547082901
0.47860854864120483 0.55821233987808228 0.23335961997509003
0.53290081024169922 0.5652538537979126 0.23951274156570435
0.58674889802932739 0.57255750894546509 0.24520981311798096
0.64018261432647705 0.58002573251724243 0.25137388706207275
0.69343817234039307 0.58748215436935425 0.25679656863212585
0.74636447429656982 0.59481620788574219 0.2628580629825592
0.79907995462417603 0.60185402631759644 0.26819601655006409
0.85159820318222046 0.60840272903442383 0.27380383014678955
0.21628561615943909 0.59647226333618164 0.22455863654613495
0.27768626809120178 0.60325604677200317 0.23024773597717285
0.33677133917808533 0.60982292890548706 0.23609188199043274
0.39420035481452942 0.61644017696380615 0.24169072508811951
0.4498867392539978 0.62305885553359985 0.24764536321163177
0.50457155704498291 0.62992012500762939 0.25358155369758606
0.55846560001373291 0.63692528009414673 0.25937327742576599
0.61171448230743408 0.6440621018409729 0.26546117663383484
0.66465741395950317 0.65136855840682983 0.27109339833259583
0.71740394830703735 0.6586717963218689 0.27699422836303711
0.76985257863998413 0.6657487154006958 0.28254711627960205
0.82218360900878906 0.67255222797393799 0.28809258341789246
0.87423604726791382 0.67902070283889771 0.29366108775138855
0.24338099360466003 0.66723930835723877 0.24409137666225433
0.30459201335906982 0.67432868480682373 0.2501952052116394
0.36366367340087891 0.68113654851913452 0.25606012344360352
0.42039236426353455 0.68791884183883667 0.26200255751609802
0.47590699791908264 0.69472587108612061 0.26789221167564392
0.53017616271972656 0.70161008834838867 0.27378541231155396
0.58367288112640381 0.70860433578491211 0.27978843450546265
0.63668167591094971 0.71565639972686768 0.28556355834007263
0.68906313180923462 0.72281008958816528 0.29138481616973877
0.74129372835159302 0.72984981536865234 0.29705113172531128
0.79326796531677246 0.73679494857788086 0.30270051956176758
0.84515762329101562 0.74354380369186401 0.3081936240196228
0.89694738388061523 0.74984997510910034 0.31366169452667236
0.26970353722572327 0.7380908727645874 0.26382723450660706
0.33063465356826782 0.74536800384521484 0.27015426754951477
0.38940003514289856 0.75245481729507446 0.27628383040428162
0.44591608643531799 0.75949442386627197 0.28228640556335449
0.50116509199142456 0.7664228081703186 0.28829652070999146
0.55526000261306763 0.7733578085899353 0.29426741600036621
0.60860413312911987 0.78030592203140259 0.30020579695701599
0.66098463535308838 0.78730690479278564 0.30604439973831177
0.71320068836212158 0.79429179430007935 0.31180545687675476
0.76494204998016357 0.80120110511779785 0.31747192144393921
0.81655162572860718 0.80793613195419312 0.32308697700500488
0.86804264783859253 0.81458300352096558 0.32858690619468689
0.9192696213722229 0.82081538438796997 0.33404892683029175
0.29451963305473328 0.80899906158447266 0.28379437327384949
0.3554559051990509 0.81648123264312744 0.29012048244476318
0.41390854120254517 0.82389342784881592 0.29643511772155762
0.47048196196556091 0.83098453283309937 0.30274832248687744
0.52554571628570557 0.83810549974441528 0.30884015560150146
0.57947629690170288 0.845054030418396 0.31487736105918884
0.63253688812255859 0.8520352840423584 0.32078045606613159
0.68490380048751831 0.85897630453109741 0.32668569684028625
0.73670786619186401 0.86586189270019531 0.33239561319351196
0.78822344541549683 0.87265968322753906 0.33808296918869019
0.83944040536880493 0.87924438714981079 0.34360721707344055
0.89050930738449097 0.88568329811096191 0.34914809465408325
0.94155341386795044 0.89178645610809326 0.35462847352027893
0.31768724322319031 0.87999564409255981 0.30361491441726685
0.37853386998176575 0.88772344589233398 0.31033569574356079
0.43692037463188171 0.89519584178924561 0.31683486700057983
0.4936867356300354 0.90259987115859985 0.32310116291046143
0.54873394966125488 0.90979146957397461 0.32936996221542358
0.60271292924880981 0.91682010889053345 0.33544537425041199
0.65563720464706421 0.92383557558059692 0.34149438142776489
0.70791172981262207 0.93075388669967651 0.34731623530387878
0.75954931974411011 0.93748444318771362 0.35315713286399841
0.81088501214981079 0.94411909580230713 0.35882306098937988
0.86190217733383179 0.95056444406509399 0.36435431241989136
0.91269880533218384 0.95679378509521484 0.369852215051651
0.96337401866912842 0.9629024863243103 0.37522768974304199
0.0042201620526611805 0.042645875364542007 0.12499716132879257
0.058888230472803116 0.047198500484228134 0.12814606726169586
0.12722344696521759 0.050021857023239136 0.12950992584228516
0.19024001061916351 0.053692732006311417 0.1317177414894104
0.24960750341415405 0.058917969465255737 0.13393679261207581
0.30733701586723328 0.06541423499584198 0.13750435411930084
0.36407250165939331 0.072735682129859924 0.14182080328464508
0.42023694515228271 0.080553241074085236 0.14659450948238373
0.47583094239234924 0.088605813682079315 0.15240398049354553
0.53110939264297485 0.096583150327205658 0.1586589515209198
0.58608293533325195 0.10437783598899841 0.16604974865913391
0.64029055833816528 0.111359603703022 0.17367072403430939
0.69372522830963135 0.11717008799314499 0.18070559203624725
0.020977813750505447 0.11124631017446518 0.14070476591587067
0.088264629244804382 0.11600060760974884 0.14376595616340637
0.15451465547084808 0.11934884637594223 0.14597113430500031
0.21600724756717682 0.12325445562601089 0.14809568226337433
0.27509614825248718 0.12875215709209442 0.15164674818515778
0.3324829638004303 0.13550610840320587 0.15621599555015564
0.38917139172554016 0.14304377138614655 0.16114793717861176
0.44503352046012878 0.15110437572002411 0.16653910279273987
0.50065392255783081 0.1593601405620575 0.17268408834934235
0.55580621957778931 0.16772148013114929 0.17919276654720306
0.61064857244491577 0.17564140260219574 0.18636554479598999
0.66489690542221069 0.18294952809810638 0.19379448890686035
0.71840524673461914 0.18918332457542419 0.20086100697517395
0.049837972968816757 0.18042375147342682 0.15656164288520813
0.11699426919221878 0.1850893646478653 0.15965510904788971
0.18065120279788971 0.18898777663707733 0.1625770628452301
0.24073801934719086 0.19320765137672424 0.165570467710495
0.29935565590858459 0.19875261187553406 0.16970773041248322
0.3567100465297699 0.20565153658390045 0.17520315945148468
0.41316533088684082 0.21327801048755646 0.18086518347263336
0.46903368830680847 0.22138229012489319 0.18679799139499664
0.52437227964401245 0.22979657351970673 0.19293567538261414
0.57948780059814453 0.23812003433704376 0.1996673196554184
0.63403689861297607 0.24614186584949493 0.20653043687343597
0.68816959857940674 0.25355422496795654 0.21359767019748688
0.7418673038482666 0.25995585322380066 0.22031824290752411
0.079970970749855042 0.2497713565826416 0.1736719161272049
0.14488115906715393 0.25458106398582458 0.17717380821704865
0.20690526068210602 0.25901857018470764 0.1803080290555954
0.26615419983863831 0.26369503140449524 0.18425874412059784
0.32393136620521545 0.26940515637397766 0.18898138403892517
0.3809015154838562 0.27617144584655762 0.19494396448135376
0.43693891167640686 0.28371080756187439 0.2009233683347702
0.49249091744422913 0.29179951548576355 0.20732498168945312
0.54771876335144043 0.30009225010871887 0.21350587904453278
0.60258209705352783 0.30831518769264221 0.21996007859706879
0.65714806318283081 0.31628626585006714 0.22667458653450012
0.7111087441444397 0.3237508237361908 0.23324799537658691
0.76461023092269897 0.33035829663276672 0.23992815613746643
0.1093214750289917 0.31942504644393921 0.1916988343000412
0.17269958555698395 0.32467412948608398 0.19554531574249268
0.23359028995037079 0.32956159114837646 0.19951610267162323
0.29228755831718445 0.33470776677131653 0.203953817486763
0.34945300221443176 0.34056940674781799 0.20921693742275238
0.40565893054008484 0.34719449281692505 0.21521030366420746
0.461130291223526 0.35454016923904419 0.2215113490819931
0.51629441976547241 0.36245349049568176 0.22778533399105072
0.57121020555496216 0.37054282426834106 0.23405107855796814
0.62572979927062988 0.37863972783088684 0.24028624594211578
0.68001818656921387 0.38648140430450439 0.2466759979724884
0.73379230499267578 0.39388751983642578 0.25314682722091675
0.78713023662567139 0.40055349469184875 0.25949123501777649
0.13828480243682861 0.38934093713760376 0.21055248379707336
0.20059268176555634 0.39499738812446594 0.21503373980522156
0.26068568229675293 0.40037396550178528 0.21941103041172028
0.31875708699226379 0.40585160255432129 0.224293053150177
0.37543365359306335 0.41189995408058167 0.22978487610816956
0.43107974529266357 0.41856896877288818 0.23573404550552368
0.48600247502326965 0.42573991417884827 0.24199147522449493
0.54062885046005249 0.43334087729454041 0.24826271831989288
0.59499341249465942 0.44126665592193604 0.25445318222045898
0.64916330575942993 0.44908890128135681 0.26059123873710632
0.70302051305770874 0.45685186982154846 0.2667546272277832
0.75654381513595581 0.46419396996498108 0.27292561531066895
0.80964195728302002 0.47096136212348938 0.27920258045196533
0.16694794595241547 0.4595891535282135 0.22993114590644836
0.22849950194358826 0.46557444334030151 0.23482352495193481
0.28799572587013245 0.47134986519813538 0.23975653946399689
0.34554442763328552 0.47725886106491089 0.24492520093917847
0.40174165368080139 0.48347693681716919 0.25054612755775452
0.45689836144447327 0.49010485410690308 0.25645920634269714
0.51133978366851807 0.49714222550392151 0.26260834932327271
0.56549078226089478 0.50454604625701904 0.26873666048049927
0.61923360824584961 0.51220834255218506 0.27489361166954041
0.67289280891418457 0.51988762617111206 0.28091198205947876
0.72632110118865967 0.52757036685943604 0.28703314065933228
0.7794492244720459 0.53476935625076294 0.29300758242607117
0.83240896463394165 0.54152321815490723 0.29903507232666016
0.19522957503795624 0.53007954359054565 0.24994224309921265
0.25633648037910461 0.53639394044876099 0.25515824556350708
0.31535616517066956 0.54246175289154053 0.26029375195503235
0.37253352999687195 0.54866659641265869 0.26581725478172302
0.42827719449996948 0.55507832765579224 0.27139809727668762
0.48299333453178406 0.56170260906219482 0.27728018164634705
0.536948561668396 0.56869184970855713 0.28331023454666138
0.59053719043731689 0.5760001540184021 0.28948250412940979
0.64389455318450928 0.58341389894485474 0.29541146755218506
0.69693154096603394 0.59091442823410034 0.30141732096672058
0.74980694055557251 0.59839034080505371 0.30742385983467102
0.80255919694900513 0.60553783178329468 0.31336468458175659
0.8551669716835022 0.61229091882705688 0.31930166482925415
0.22321255505084991 0.60070008039474487 0.27001208066940308
0.28399541974067688 0.60733026266098022 0.27558773756027222
0.34269523620605469 0.61372619867324829 0.28105983138084412
0.39940354228019714 0.62020695209503174 0.28668114542961121
0.45475080609321594 0.62670385837554932 0.29236036539077759
0.50906318426132202 0.63347375392913818 0.29834768176078796
0.56266140937805176 0.6404259204864502 0.30431768298149109
0.61578994989395142 0.64756369590759277 0.31024935841560364
0.6684691309928894 0.65484434366226196 0.31625032424926758
0.72110825777053833 0.66214877367019653 0.32216787338256836
0.77343994379043579 0.66932940483093262 0.32797497510910034
0.82580715417861938 0.67645871639251709 0.33397191762924194
0.8779604434967041 0.6830858588218689 0.33977377414703369
0.25051233172416687 0.67141819000244141 0.2904452383518219
0.31106647849082947 0.67833948135375977 0.29621982574462891
0.36944231390953064 0.68499177694320679 0.30203926563262939
0.42594879865646362 0.69169670343399048 0.30766722559928894
0.48097836971282959 0.6984633207321167 0.31357768177986145
0.53496956825256348 0.70519781112670898 0.31945297122001648
0.58815562725067139 0.71218234300613403 0.32546728849411011
0.64083367586135864 0.71920359134674072 0.3313274085521698
0.6931806206703186 0.72633624076843262 0.33720925450325012
0.74531245231628418 0.7335020899772644 0.34310171008110046
0.79715949296951294 0.74054127931594849 0.34881865978240967
0.84903758764266968 0.74748748540878296 0.35474136471748352
0.90089815855026245 0.75409197807312012 0.36059725284576416
0.27699759602546692 0.74233543872833252 0.31087556481361389
0.33733195066452026 0.7494436502456665 0.31698530912399292
0.39555969834327698 0.75641196966171265 0.32289722561836243
0.45183101296424866 0.76331430673599243 0.32888883352279663
0.5066336989402771 0.77014607191085815 0.33483785390853882
0.56030571460723877 0.77710616588592529 0.34070917963981628
0.61331874132156372 0.78406274318695068 0.34669247269630432
0.66560810804367065 0.79097455739974976 0.35265693068504333
0.71753227710723877 0.79795891046524048 0.35848388075828552
0.76922088861465454 0.80496507883071899 0.36430221796035767
0.82078361511230469 0.8118317723274231 0.37010970711708069
0.87221002578735352 0.81858694553375244 0.37583589553833008
0.92362189292907715 0.8250732421875 0.38165116310119629
0.30205610394477844 0.81330180168151855 0.3313659131526947
0.36242964863777161 0.82068794965744019 0.33782774209976196
0.42053228616714478 0.82789236307144165 0.34394147992134094
0.47665974497795105 0.83495104312896729 0.35006767511367798
0.53139710426330566 0.84196585416793823 0.35610824823379517
0.58461064100265503 0.84891432523727417 0.36215144395828247
0.63766860961914062 0.85572850704193115 0.36811411380767822
0.68984323740005493 0.86272925138473511 0.37400421500205994
0.74147909879684448 0.86971288919448853 0.37992116808891296
0.7928473949432373 0.87650227546691895 0.385640949010849
0.84402209520339966 0.88323545455932617 0.39148968458175659
0.89513278007507324 0.88984048366546631 0.39726218581199646
0.94622135162353516 0.89618992805480957 0.40286546945571899
0.32524970173835754 0.88442003726959229 0.35206830501556396
0.38573518395423889 0.89205682277679443 0.35855814814567566
0.44380706548690796 0.89938437938690186 0.36504799127578735
0.50024056434631348 0.90660935640335083 0.37128648161888123
0.5549890398979187 0.91369473934173584 0.37739205360412598
0.60854578018188477 0.92071330547332764 0.38353341817855835
0.66126257181167603 0.92766815423965454 0.38959133625030518
0.71327370405197144 0.93461418151855469 0.39552533626556396
0.76479548215866089 0.94142061471939087 0.40140405297279358
0.81597107648849487 0.94817912578582764 0.4071880578994751
0.86689573526382446 0.95475095510482788 0.41300424933433533
0.91777920722961426 0.96113681793212891 0.41875994205474854
0.96854978799819946 0.96733683347702026 0.42442238330841064
0.0062502096407115459 0.045150682330131531 0.16307035088539124
0.063550777733325958 0.049949511885643005 0.16615293920040131
0.13111388683319092 0.053519845008850098 0.16814632713794708
0.19431209564208984 0.057535521686077118 0.17085102200508118
0.25398141145706177 0.062841467559337616 0.17405593395233154
0.31183543801307678 0.06925683468580246 0.17779059708118439
0.36852100491523743 0.076507493853569031 0.18208347260951996
0.42455080151557922 0.084258422255516052 0.1870197206735611
0.48000666499137878 0.092080600559711456 0.19239921867847443
0.53514295816421509 0.099918410181999207 0.19877901673316956
0.58994734287261963 0.10751550644636154 0.20627018809318542
0.6440509557723999 0.1143500953912735 0.21425338089466095
0.6975821852684021 0.12024275958538055 0.22184659540653229
0.025581344962120056 0.11477288603782654 0.17933414876461029
0.093091912567615509 0.11974907666444778 0.18213397264480591
0.1587710827589035 0.12360528856515884 0.18497420847415924
0.2204558253288269 0.12755446135997772 0.18794943392276764
0.27948153018951416 0.13277736306190491 0.19196014106273651
0.33682253956794739 0.13929113745689392 0.19643142819404602
0.39329728484153748 0.14664642512798309 0.20145262777805328
0.44907444715499878 0.15458026528358459 0.20704931020736694
0.50441080331802368 0.1626773327589035 0.21268954873085022
0.55944287776947021 0.1707381010055542 0.21943648159503937
0.61407530307769775 0.17854192852973938 0.22683918476104736
0.66822290420532227 0.18570736050605774 0.23460054397583008
0.72180914878845215 0.19196087121963501 0.24229040741920471
0.055499628186225891 0.18442581593990326 0.19670660793781281
0.12201084941625595 0.18940919637680054 0.19887849688529968
0.18543398380279541 0.19344219565391541 0.2021612823009491
0.24568115174770355 0.19760274887084961 0.20597144961357117
0.30394154787063599 0.2028987854719162 0.21063840389251709
0.36094564199447632 0.20943871140480042 0.21578343212604523
0.41713124513626099 0.21687299013137817 0.22151708602905273
0.47275614738464355 0.22479046881198883 0.22737589478492737
0.52795016765594482 0.23298786580562592 0.23361934721469879
0.58275759220123291 0.24111996591091156 0.24027693271636963
0.63732278347015381 0.24890376627445221 0.24752123653888702
0.69142001867294312 0.25619056820869446 0.2549901008605957
0.74496209621429443 0.26272624731063843 0.2622809112071991
0.085521802306175232 0.25388076901435852 0.21464936435222626
0.14989824593067169 0.25893399119377136 0.21767282485961914
0.21173675358295441 0.2633909285068512 0.22118958830833435
0.27079552412033081 0.2679617702960968 0.22537794709205627
0.32844328880310059 0.27342164516448975 0.23036311566829681
0.38502401113510132 0.27996131777763367 0.23599784076213837
0.44088166952133179 0.28731065988540649 0.24207070469856262
0.49617305397987366 0.29509076476097107 0.24822932481765747
0.55114328861236572 0.30316314101219177 0.25463017821311951
0.60580432415008545 0.31123262643814087 0.26130291819572449
0.66002941131591797 0.3190883994102478 0.26820170879364014
0.71394723653793335 0.32642623782157898 0.27526944875717163
0.7675100564956665 0.33302238583564758 0.28241705894470215
0.11491343379020691 0.32344698905944824 0.23387391865253448
0.17772592604160309 0.32872617244720459 0.23739270865917206
0.23822475969791412 0.33361715078353882 0.241244837641716
0.29664355516433716 0.33870261907577515 0.24576973915100098
0.35358506441116333 0.34441959857940674 0.25094577670097351
0.40953072905540466 0.35088962316513062 0.25687634944915771
0.46493637561798096 0.35800638794898987 0.26304236054420471
0.51980996131896973 0.36572951078414917 0.26934215426445007
