assets/lut/alexjordan red day 01.cube
# Created by: G'MIC (https://gmic.eu)
TITLE "red_day_01"
# LUT size
LUT_3D_SIZE 13
# Data domain
DOMAIN_MIN 0.0 0.0 0.0
DOMAIN_MAX 1.0 1.0 1.0
# LUT data points
0.011776120401918888 0.0058552012778818607 0.0042148064821958542
0.025711329653859138 0.011271398514509201 0.0055678724311292171
0.049181502312421799 0.017239455133676529 0.008685646578669548
0.088896073400974274 0.018630368635058403 0.015686873346567154
0.14035512506961823 0.02052408829331398 0.021995140239596367
0.21232499182224274 0.021332774311304092 0.023500854149460793
0.31099164485931396 0.019913213327527046 0.018945029005408287
0.41987478733062744 0.01688670739531517 0.013572139665484428
0.51899224519729614 0.014919924549758434 0.012568440288305283
0.61467427015304565 0.013246109709143639 0.012370076030492783
0.72698497772216797 0.0082467766478657722 0.0067473319359123707
0.82948637008666992 0.0072495853528380394 0.0028715843800455332
0.90818989276885986 0.012801974080502987 0.0019793342798948288
0.042487245053052902 0.041169259697198868 0.017064576968550682
0.083037391304969788 0.054522749036550522 0.020855637267231941
0.13209974765777588 0.064112812280654907 0.022321783006191254
0.19326089322566986 0.065697871148586273 0.02490253746509552
0.26381289958953857 0.066103227436542511 0.026533015072345734
0.34784892201423645 0.067090325057506561 0.019158007577061653
0.45158344507217407 0.06603538990020752 0.0084973499178886414
0.5502326488494873 0.063514932990074158 0.0036927016917616129
0.64133000373840332 0.060592096298933029 0.0021167530212551355
0.72679817676544189 0.058761041611433029 0.002067506080493331
0.81963330507278442 0.055428300052881241 0.0011581720318645239
0.90150552988052368 0.058397166430950165 0.00062004540814086795
0.96295309066772461 0.070554442703723907 0.0012205236125737429
0.059961758553981781 0.1072310209274292 0.017490595579147339
0.11618625372648239 0.12050817161798477 0.014886205084621906
0.18309350311756134 0.12971039116382599 0.010887041687965393
0.26091012358665466 0.13097093999385834 0.010804329998791218
0.34508892893791199 0.12872828543186188 0.01375757809728384
0.42952713370323181 0.13055649399757385 0.0094701731577515602
0.52052587270736694 0.1311364471912384 0.0034580903593450785
0.60994863510131836 0.13056658208370209 0.00099723669700324535
0.69352847337722778 0.12842829525470734 0.00012386546586640179
0.77341204881668091 0.12731461226940155 2.297794162586797e-05
0.85151195526123047 0.12804533541202545 1.2925092050863896e-05
0.92174726724624634 0.13370504975318909 0.0002145206235582009
0.98176056146621704 0.14506947994232178 0.0010340074077248573
0.057956516742706299 0.19614991545677185 0.0053116893395781517
0.12685941159725189 0.20288082957267761 0.0036573223769664764
0.20379318296909332 0.20896562933921814 0.0011872535105794668
0.2878577709197998 0.21001081168651581 0.00081612082431092858
0.37461027503013611 0.20844081044197083 0.002671350259333849
0.45685002207756042 0.20942726731300354 0.0025211409665644169
0.53855264186859131 0.21139658987522125 0.00097216438734903932
0.62117660045623779 0.21126726269721985 0.00016479492478538305
0.69945734739303589 0.21036431193351746 0
0.77582806348800659 0.21027520298957825 2.5850184101727791e-05
0.84980660676956177 0.21249069273471832 0.00029943129629828036
0.91726803779602051 0.21914069354534149 0.00072631833609193563
0.98140454292297363 0.22764977812767029 0.0013474408769980073
0.049644693732261658 0.28932604193687439 0.00024126838252414018
0.12669931352138519 0.29114055633544922 0.00015869140042923391
0.20926979184150696 0.29278048872947693 1.4361213516167481e-06
0.29450291395187378 0.29303452372550964 0
0.37852323055267334 0.29257535934448242 0.00029602050199173391
0.45870515704154968 0.29439806938171387 0.00070854637306183577
0.53692567348480225 0.29669997096061707 0.0004035501042380929
0.61725848913192749 0.29638257622718811 0.0012452368391677737
0.69416952133178711 0.29604515433311462 0.0015127144288271666
0.76959508657455444 0.29650023579597473 0.0016292198561131954
0.84360367059707642 0.2989959716796875 0.001953065162524581
0.9132915735244751 0.30442044138908386 0.0021008062176406384
0.9804147481918335 0.31125944852828979 0.0025875016581267118
0.047131437808275223 0.37663137912750244 0
0.12595649063587189 0.37686431407928467 0
0.20991426706314087 0.37669885158538818 0
0.29452723264694214 0.37652420997619629 0
0.3772832453250885 0.37687563896179199 0.00027232451247982681
0.45673653483390808 0.37850227952003479 0.0012138965539634228
0.53630012273788452 0.37987372279167175 0.0029244665056467056
0.61508548259735107 0.37987256050109863 0.0066354940645396709
0.69290095567703247 0.37973600625991821 0.0092047601938247681
0.76863855123519897 0.38082772493362427 0.0083466619253158569
0.84199905395507812 0.38370031118392944 0.0067801531404256821
0.91333383321762085 0.3884425163269043 0.005632348358631134
0.98141264915466309 0.39422103762626648 0.005438830703496933
0.046778466552495956 0.46075397729873657 0
0.1265941709280014 0.46063494682312012 0
0.20984813570976257 0.46016198396682739 0
0.29350998997688293 0.46001046895980835 0.0002057243837043643
0.3761669397354126 0.46048423647880554 0.0012189080007374287
0.4567553699016571 0.46111661195755005 0.0033078512642532587
0.53713297843933105 0.46189269423484802 0.0079024368897080421
0.61725759506225586 0.46211615204811096 0.015471708960831165
0.69552981853485107 0.46263816952705383 0.020454511046409607
0.76955628395080566 0.46444091200828552 0.017577212303876877
0.84289813041687012 0.46756282448768616 0.01306445524096489
0.91453099250793457 0.4719448983669281 0.010108663700520992
0.98279166221618652 0.47761517763137817 0.0084776338189840317
0.046586323529481888 0.54365897178649902 0
0.12673166394233704 0.54295825958251953 9.8733344202628359e-06
0.20972698926925659 0.54295343160629272 0.00036315916804596782
0.29263544082641602 0.54295343160629272 0.0010440602200105786
0.37558600306510925 0.54321825504302979 0.0023640352301299572
0.45704177021980286 0.54401689767837524 0.0055689346045255661
0.53758531808853149 0.54462951421737671 0.011133605614304543
0.61823111772537231 0.54508125782012939 0.018434083089232445
0.69558823108673096 0.54588884115219116 0.022747159004211426
0.77045977115631104 0.54798167943954468 0.020782919600605965
0.84371066093444824 0.5512811541557312 0.016342118382453918
0.91549515724182129 0.55568063259124756 0.012812820263206959
0.98348850011825562 0.56104284524917603 0.011137450113892555
0.046282749623060226 0.62705743312835693 4.5955883251735941e-05
0.12620677053928375 0.62683820724487305 0.00056116440100595355
0.20890690386295319 0.62683820724487305 0.0009455063845962286
0.29200068116188049 0.62683820724487305 0.0017097024247050285
0.37485334277153015 0.62683820724487305 0.0031514486763626337
0.45699930191040039 0.62705016136169434 0.0061119380407035351
0.53766703605651855 0.62738418579101562 0.010548909194767475
0.61837232112884521 0.62803143262863159 0.015284803695976734
0.69558823108673096 0.62945175170898438 0.018132932484149933
0.77069354057312012 0.63167405128479004 0.01770700141787529
0.84401577711105347 0.6351999044418335 0.015137676149606705
0.91611027717590332 0.63956320285797119 0.012921995483338833
0.98389482498168945 0.64497393369674683 0.01145833358168602
0.044791322201490402 0.71151024103164673 0.0005509320180863142
0.12551113963127136 0.71055126190185547 0.00076688878471031785
0.20793455839157104 0.71047794818878174 0.0013810101663693786
0.29136374592781067 0.71047794818878174 0.0018727021524682641
0.37409952282905579 0.71047794818878174 0.0031370425131171942
0.45651897788047791 0.71060824394226074 0.0051769032143056393
0.53760182857513428 0.7109944224357605 0.0076449224725365639
0.61835819482803345 0.71166670322418213 0.010130668990314007
0.69558823108673096 0.71283417940139771 0.011583246290683746
0.77069354057312012 0.71549206972122192 0.011676623485982418
0.84404671192169189 0.71900546550750732 0.011358343064785004
0.91639429330825806 0.72374850511550903 0.010613295249640942
0.98408395051956177 0.729045569896698 0.010451492853462696
0.043822254985570908 0.79609459638595581 0.00073529413202777505
0.12505023181438446 0.79523462057113647 0.00095735437935218215
0.20722414553165436 0.79461288452148438 0.0014705882640555501
0.29086565971374512 0.79402381181716919 0.0018026912584900856
0.37336906790733337 0.79396063089370728 0.0023956599179655313
0.45618641376495361 0.79406797885894775 0.0035357754677534103
0.53730875253677368 0.79430466890335083 0.0045370515435934067
0.61802965402603149 0.79501140117645264 0.0052841184660792351
0.69558823108673096 0.79644143581390381 0.005755316000431776
0.77083474397659302 0.79906606674194336 0.0063402662053704262
0.84420561790466309 0.80292433500289917 0.0066793705336749554
0.91662013530731201 0.80793535709381104 0.0073879016563296318
0.98421460390090942 0.81363517045974731 0.0081061571836471558
0.043443210422992706 0.88134646415710449 0.00073529413202777505
0.12469124794006348 0.88030308485031128 0.001134715392254293
0.20700438320636749 0.87953931093215942 0.0014705882640555501
0.28973191976547241 0.87893688678741455 0.00148836022708565
0.37298750877380371 0.87871754169464111 0.0017556583043187857
0.4550497829914093 0.878459632396698 0.0018956800922751427
0.53684931993484497 0.87828266620635986 0.0019321216968819499
0.61774617433547974 0.87863659858703613 0.0020768856629729271
0.69558823108673096 0.87980145215988159 0.002147480146959424
0.77116650342941284 0.88284140825271606 0.0023706923238933086
0.84441858530044556 0.88711118698120117 0.003287147032096982
0.91681843996047974 0.89239645004272461 0.004473996814340353
0.98438501358032227 0.89840942621231079 0.0058697122149169445
0.042791746556758881 0.96710890531539917 0.00073529413202777505
0.12437149882316589 0.96600759029388428 0.0010997098870575428
0.20633655786514282 0.96492552757263184 0.0014705882640555501
0.28889197111129761 0.96446079015731812 0.0014495849609375
0.37199163436889648 0.96390867233276367 0.0012418859405443072
0.45431157946586609 0.96324837207794189 0.0010645249858498573
0.53594678640365601 0.9628676176071167 0.00082989863585680723
0.61641883850097656 0.96305876970291138 0.00041091020102612674
0.69540619850158691 0.96450704336166382 0.00028722427668981254
0.77054208517074585 0.96705728769302368 0.00064840877894312143
0.8442845344543457 0.97078186273574829 0.0014375573955476284
0.91687440872192383 0.97519147396087646 0.002409317996352911
0.98453199863433838 0.97981816530227661 0.0040998570621013641
0.0025282916612923145 0.0011465783463791013 0.0026873121969401836
0.018884396180510521 0.0065927840769290924 0.011842525564134121
0.049091339111328125 0.014304771088063717 0.024213019758462906
0.097298175096511841 0.016382120549678802 0.037949040532112122
0.15682476758956909 0.019038420170545578 0.047686424106359482
0.23670870065689087 0.019141044467687607 0.053562719374895096
0.33797666430473328 0.016049778088927269 0.055683284997940063
0.44287428259849548 0.013982032425701618 0.056828100234270096
0.53901273012161255 0.013303958810865879 0.060285992920398712
0.63279139995574951 0.013064440339803696 0.06383851170539856
0.74374735355377197 0.0080588841810822487 0.057757899165153503
0.8461451530456543 0.0070694419555366039 0.05083610862493515
0.92606395483016968 0.012004044838249683 0.048896219581365585
0.035910990089178085 0.037714745849370956 0.034990169107913971
0.08348400890827179 0.051588393747806549 0.050397850573062897
0.13834317028522491 0.06180146336555481 0.058518234640359879
0.20148883759975433 0.06410738080739975 0.062425844371318817
0.27326709032058716 0.06534971296787262 0.064618036150932312
0.36002308130264282 0.06559695303440094 0.061253596097230911
0.46180686354637146 0.063852407038211823 0.054579909890890121
0.56167691946029663 0.061580300331115723 0.049379341304302216
0.65443187952041626 0.059297211468219757 0.047150824218988419
0.7400858998298645 0.057891905307769775 0.048142451792955399
0.83035117387771606 0.05513928085565567 0.046755682677030563
0.91142565011978149 0.057991821318864822 0.04489448294043541
0.97494679689407349 0.069780044257640839 0.046850375831127167
0.061006642878055573 0.11025429517030716 0.056630510836839676
0.12026836723089218 0.1215483695268631 0.06052132323384285
0.1881619393825531 0.12972155213356018 0.057928137481212616
0.26390361785888672 0.13088168203830719 0.056468993425369263
0.34569832682609558 0.13016851246356964 0.059609431773424149
0.43259552121162415 0.13018471002578735 0.056961238384246826
0.52454298734664917 0.1305147111415863 0.049489669501781464
0.61478126049041748 0.13025698065757751 0.043430253863334656
0.70081138610839844 0.12789730727672577 0.040006302297115326
0.78149116039276123 0.12657265365123749 0.040291357785463333
0.85761028528213501 0.12731952965259552 0.042126346379518509
0.92732930183410645 0.13304668664932251 0.04377441480755806
0.98703795671463013 0.14415603876113892 0.046428263187408447
0.058846909552812576 0.19918341934680939 0.049785465002059937
0.12818427383899689 0.20543497800827026 0.047943025827407837
0.20508517324924469 0.21045958995819092 0.041599005460739136
0.28748264908790588 0.2111230194568634 0.039766542613506317
0.37223738431930542 0.20894455909729004 0.046281643211841583
0.4553578794002533 0.20913621783256531 0.046901673078536987
0.53890597820281982 0.21114209294319153 0.042544856667518616
0.62248116731643677 0.21192070841789246 0.040020108222961426
0.7029118537902832 0.2106688916683197 0.038514994084835052
0.7809072732925415 0.21013429760932922 0.03920886293053627
0.85423153638839722 0.21181537210941315 0.042593862861394882
0.92161023616790771 0.21811366081237793 0.045001745223999023
0.98530375957489014 0.22656421363353729 0.047609232366085052
0.049187678843736649 0.29124334454536438 0.036229509860277176
0.12596382200717926 0.2931477427482605 0.03558247908949852
0.20838357508182526 0.29446819424629211 0.032716430723667145
0.29254952073097229 0.29422178864479065 0.032989859580993652
0.37576717138290405 0.29300260543823242 0.038104847073554993
0.45600616931915283 0.29409262537956238 0.040427803993225098
0.53572720289230347 0.2967718243598938 0.040086336433887482
0.61698305606842041 0.29722017049789429 0.042843177914619446
0.69610273838043213 0.29682072997093201 0.044457528740167618
0.77309322357177734 0.2968137264251709 0.045809950679540634
0.84773451089859009 0.29839560389518738 0.048293933272361755
0.9177430272102356 0.30362236499786377 0.049960266798734665
0.98394626379013062 0.31013110280036926 0.051724854856729507
0.046394765377044678 0.37796312570571899 0.031992759555578232
0.12489115446805954 0.37856775522232056 0.032070834189653397
0.20849789679050446 0.37815546989440918 0.031839948147535324
0.29241576790809631 0.37745708227157593 0.03335997462272644
0.37468510866165161 0.37724298238754272 0.037807419896125793
0.45524823665618896 0.37884747982025146 0.042583674192428589
0.53417670726776123 0.38033920526504517 0.047574479132890701
0.61448103189468384 0.38084027171134949 0.054300300776958466
0.69350147247314453 0.38086828589439392 0.058645524084568024
0.7706226110458374 0.38148850202560425 0.059033233672380447
0.84570133686065674 0.38358676433563232 0.058401685208082199
0.91743141412734985 0.38780069351196289 0.05773550271987915
0.98434394598007202 0.39324814081192017 0.057895734906196594
0.046568628400564194 0.46078431606292725 0.033797677606344223
0.12574470043182373 0.46078431606292725 0.034219074994325638
0.20863480865955353 0.46078431606292725 0.03515937551856041
0.29207482933998108 0.46078431606292725 0.037450257688760757
0.37422150373458862 0.46098065376281738 0.042323648929595947
0.4553733766078949 0.46197783946990967 0.049180258065462112
0.53562432527542114 0.4632243812084198 0.057456400245428085
0.6152375340461731 0.4639580249786377 0.066040709614753723
0.69542986154556274 0.46435344219207764 0.071034990251064301
0.77110695838928223 0.46551203727722168 0.070393703877925873
0.84529793262481689 0.46794965863227844 0.067462906241416931
0.9177359938621521 0.47177630662918091 0.064728789031505585
0.98481804132461548 0.47668889164924622 0.063374660909175873
0.046568628400564194 0.54309731721878052 0.03676045686006546
0.12614007294178009 0.54295361042022705 0.037878956645727158
0.20883181691169739 0.54295343160629272 0.039409980177879333
0.29188263416290283 0.54349762201309204 0.042304858565330505
0.37398955225944519 0.54450112581253052 0.047250993549823761
0.45571181178092957 0.54531610012054443 0.054454535245895386
0.53681129217147827 0.54597264528274536 0.062812700867652893
0.61685484647750854 0.54651004076004028 0.07089155912399292
0.69558823108673096 0.54757988452911377 0.075154110789299011
0.77131450176239014 0.54939526319503784 0.074552334845066071
0.84516185522079468 0.55195516347885132 0.071698330342769623
0.91767001152038574 0.55569535493850708 0.068808294832706451
0.98511266708374023 0.5604967474937439 0.066911168396472931
0.04505055770277977 0.6268390417098999 0.038976572453975677
0.12553681433200836 0.62683820724487305 0.040511321276426315
0.20806987583637238 0.62683820724487305 0.042669482529163361
0.29128754138946533 0.62693804502487183 0.045506555587053299
0.3736722469329834 0.62759894132614136 0.050203345715999603
0.4558565616607666 0.62843042612075806 0.056301835924386978
0.53704738616943359 0.6291964054107666 0.063142739236354828
0.61757463216781616 0.63001137971878052 0.068983264267444611
0.69558823108673096 0.63101834058761597 0.072185531258583069
0.77114295959472656 0.63303083181381226 0.072263740003108978
0.84494209289550781 0.63596969842910767 0.070410996675491333
0.91750812530517578 0.63985192775726318 0.069123469293117523
0.98513036966323853 0.64453303813934326 0.0678434818983078
0.043000120669603348 0.71084630489349365 0.040552131831645966
0.12473080307245255 0.71047794818878174 0.04228617250919342
0.20710960030555725 0.71047794818878174 0.044221300631761551
0.29066750407218933 0.71075940132141113 0.047009933739900589
0.37328234314918518 0.71149027347564697 0.050577528774738312
0.45562592148780823 0.71214920282363892 0.055046543478965759
0.53704321384429932 0.71258121728897095 0.05933818593621254
0.61766731739044189 0.71324652433395386 0.062949314713478088
0.69558823108673096 0.71456450223922729 0.065184570848941803
0.77101713418960571 0.71664559841156006 0.065781779587268829
0.84472465515136719 0.71990454196929932 0.065735623240470886
0.91729897260665894 0.7241407036781311 0.065556801855564117
0.98493963479995728 0.72889989614486694 0.066195257008075714
0.042658548802137375 0.79554092884063721 0.041799880564212799
0.12438821047544479 0.79515701532363892 0.043432917445898056
0.20674709975719452 0.79480290412902832 0.044914126396179199
0.28967764973640442 0.79505062103271484 0.046985011547803879
0.37309682369232178 0.79542338848114014 0.048981025815010071
0.45520582795143127 0.79591310024261475 0.051420040428638458
0.53693485260009766 0.79624372720718384 0.053519334644079208
0.6178208589553833 0.79675400257110596 0.054806340485811234
0.69558823108673096 0.79761123657226562 0.055856324732303619
0.77161842584609985 0.80006635189056396 0.056890867650508881
0.84499812126159668 0.80367934703826904 0.058506686240434647
0.91735708713531494 0.8082616925239563 0.060503341257572174
0.98492699861526489 0.81344306468963623 0.06285635381937027
0.042653702199459076 0.8807990550994873 0.042819708585739136
0.12438780814409256 0.87984001636505127 0.044174313545227051
0.20637914538383484 0.87953430414199829 0.045064784586429596
0.28949955105781555 0.87936723232269287 0.045895624905824661
0.37261268496513367 0.87938827276229858 0.046674061566591263
0.45502236485481262 0.87954753637313843 0.0470401830971241
0.53688508272171021 0.87965875864028931 0.046892113983631134
0.61795127391815186 0.87986212968826294 0.04623953253030777
0.69558823108673096 0.88116180896759033 0.046083696186542511
0.77204340696334839 0.88353252410888672 0.047682370990514755
0.84525245428085327 0.8874967098236084 0.050800159573554993
0.91779935359954834 0.89239972829818726 0.054498814046382904
0.98547035455703735 0.89789867401123047 0.058488495647907257
0.042647060006856918 0.96618497371673584 0.043595273047685623
0.12425248324871063 0.96560108661651611 0.044758785516023636
0.20628677308559418 0.96448820829391479 0.044791664928197861
0.28877988457679749 0.96446079015731812 0.044646978378295898
0.37214630842208862 0.96422666311264038 0.044034533202648163
0.45441991090774536 0.96396154165267944 0.042966552078723907
0.53628265857696533 0.96380388736724854 0.041315160691738129
0.61721736192703247 0.9640202522277832 0.03943919762969017
0.69558823108673096 0.96500736474990845 0.038301624357700348
0.77210986614227295 0.96737945079803467 0.040441043674945831
0.84555411338806152 0.97078639268875122 0.044478815048933029
0.91816884279251099 0.97486788034439087 0.049314625561237335
0.98590809106826782 0.97922408580780029 0.054464228451251984
0.0033443975262343884 0.0023481929674744606 0.011692585423588753
0.021974362432956696 0.0072879567742347717 0.024704219773411751
0.059046339243650436 0.014638668857514858 0.044193536043167114
0.10752671211957932 0.020355643704533577 0.060898426920175552
0.16931198537349701 0.022600511088967323 0.073943987488746643
0.25537487864494324 0.019214659929275513 0.087106220424175262
0.35665038228034973 0.014369949698448181 0.098794437944889069
0.45808279514312744 0.012687264010310173 0.10740793496370316
0.55394303798675537 0.012856652028858662 0.11499916762113571
0.6495048999786377 0.012658571824431419 0.12071114033460617
0.75209659337997437 0.010394137352705002 0.12040336430072784
0.84995836019515991 0.010576151311397552 0.11777086555957794
0.93411517143249512 0.014782610349357128 0.11637569963932037
0.040859252214431763 0.044290803372859955 0.068686001002788544
0.087640367448329926 0.054839715361595154 0.083767235279083252
0.14676320552825928 0.063225552439689636 0.097917042672634125
0.209429070353508 0.066777534782886505 0.10482706129550934
0.27978366613388062 0.068196840584278107 0.10800530016422272
0.36666342616081238 0.066173523664474487 0.11082524061203003
0.46432942152023315 0.063236460089683533 0.11279531568288803
0.56159138679504395 0.062142152339220047 0.11377397179603577
0.65393590927124023 0.061614211648702621 0.11510507762432098
0.74146497249603271 0.060952384024858475 0.11741778999567032
0.8253711462020874 0.060766212642192841 0.11886967718601227
0.90455543994903564 0.064765512943267822 0.11825583875179291
0.97519880533218384 0.074060536921024323 0.11794466525316238
0.065081574022769928 0.11719619482755661 0.10591010004281998
0.12306352704763412 0.12570714950561523 0.11249823123216629
0.19303704798221588 0.13082414865493774 0.11505746096372604
0.26755771040916443 0.13223910331726074 0.11600019037723541
0.34585970640182495 0.13172870874404907 0.11778201162815094
0.4312623143196106 0.13113404810428619 0.11749947071075439
0.52103453874588013 0.13052637875080109 0.11566992104053497
0.60931205749511719 0.13101001083850861 0.11447073519229889
0.69746428728103638 0.13036800920963287 0.11362166702747345
0.78017514944076538 0.12906369566917419 0.11422448605298996
0.85295587778091431 0.13083510100841522 0.11782802641391754
0.92189151048660278 0.13697503507137299 0.11903513222932816
0.98642289638519287 0.14641840755939484 0.11845003068447113
0.062031015753746033 0.20322328805923462 0.11057797819375992
0.12936785817146301 0.20851686596870422 0.11252742260694504
0.20703861117362976 0.2115505039691925 0.11058862507343292
0.288095623254776 0.21149489283561707 0.10998811572790146
0.36996012926101685 0.20927643775939941 0.11320369690656662
0.45256155729293823 0.20896047353744507 0.11429914832115173
0.5366283655166626 0.2111012190580368 0.11207687109708786
0.61976361274719238 0.21299080550670624 0.11137635260820389
0.70314383506774902 0.21224226057529449 0.1107683852314949
0.78327679634094238 0.21071787178516388 0.11216720938682556
0.85536140203475952 0.21281473338603973 0.11570818722248077
0.92309486865997314 0.2187211662530899 0.11767558753490448
0.98680680990219116 0.22665944695472717 0.11868158727884293
0.052173435688018799 0.29192242026329041 0.10461385548114777
0.12694068253040314 0.29441529512405396 0.10508792102336884
