assets/lut/alexjordan only red and blue.cube
# Created by: G'MIC (https://gmic.eu)
TITLE "only_red_and_blue"
# LUT size
LUT_3D_SIZE 5
# Data domain
DOMAIN_MIN 0.0 0.0 0.0
DOMAIN_MAX 1.0 1.0 1.0
# LUT data points
0.027541859075427055 0.034157097339630127 0.032485019415616989
0.25188940763473511 0.038286756724119186 0.039101351052522659
0.49404656887054443 0.034997813403606415 0.034839000552892685
0.74826139211654663 0.031101631000638008 0.029283950105309486
0.92991310358047485 0.044179324060678482 0.022443121299147606
0.20324800908565521 0.2046230137348175 0.20487955212593079
0.27630579471588135 0.26814061403274536 0.077730186283588409
0.50839555263519287 0.27566283941268921 0.033203348517417908
0.75582700967788696 0.27319738268852234 0.031087180599570274
0.98829227685928345 0.27281564474105835 0.029724391177296638
0.37777301669120789 0.37720111012458801 0.37783339619636536
0.41279950737953186 0.43589481711387634 0.38002842664718628
0.51359617710113525 0.5040397047996521 0.12432534992694855
0.7518770694732666 0.51465475559234619 0.024203460663557053
0.99175733327865601 0.51191407442092896 0.026043146848678589
0.54811042547225952 0.55153745412826538 0.54663336277008057
0.59570783376693726 0.5996706485748291 0.60113304853439331
0.61621993780136108 0.68371212482452393 0.42445674538612366
0.74032491445541382 0.75088495016098022 0.12145324051380157
0.98311203718185425 0.75277519226074219 0.045322928577661514
0.72231411933898926 0.72417014837265015 0.72216975688934326
0.77162867784500122 0.77307182550430298 0.775299072265625
0.79344683885574341 0.83891391754150391 0.75125181674957275
0.81280702352523804 0.93912780284881592 0.42812395095825195
0.98933881521224976 0.97479236125946045 0.19372698664665222
0.045148469507694244 0.025794385001063347 0.29529440402984619
0.12129073590040207 0.091818176209926605 0.13092735409736633
0.22828437387943268 0.12753288447856903 0.1697956919670105
0.5136113166809082 0.10970970243215561 0.22436967492103577
0.80769360065460205 0.088519014418125153 0.26179653406143188
0.071372024714946747 0.26140615344047546 0.26931524276733398
0.27570036053657532 0.2729613184928894 0.2768339216709137
0.50989967584609985 0.27401500940322876 0.27750483155250549
0.77121251821517944 0.26564988493919373 0.28860870003700256
0.99639135599136353 0.26662060618400574 0.29157081246376038
0.36315116286277771 0.40472525358200073 0.38654395937919617
0.44441443681716919 0.44592291116714478 0.44828405976295471
0.51307457685470581 0.50545632839202881 0.31824442744255066
0.75306880474090576 0.51372551918029785 0.2712823748588562
0.99137300252914429 0.51364016532897949 0.27265983819961548
0.55740737915039062 0.5714535117149353 0.55841183662414551
0.6142812967300415 0.61924433708190918 0.61772149801254272
0.65656799077987671 0.67609161138534546 0.62616783380508423
0.74844932556152344 0.74858427047729492 0.35238850116729736
0.98568713665008545 0.75600343942642212 0.26266983151435852
0.72856742143630981 0.74411672353744507 0.73375612497329712
0.78820228576660156 0.79136484861373901 0.78813546895980835
0.84111350774765015 0.83910453319549561 0.84219962358474731
0.85192841291427612 0.92853152751922607 0.65398913621902466
0.98993891477584839 0.98318582773208618 0.36592128872871399
0.028879277408123016 0.029789015650749207 0.52530503273010254
0.26881489157676697 0.035323768854141235 0.49400427937507629
0.19787077605724335 0.15792167186737061 0.1975812166929245
0.23278699815273285 0.21367351710796356 0.23144236207008362
0.40179106593132019 0.22721919417381287 0.30982983112335205
0.024840051308274269 0.27609580755233765 0.51996046304702759
0.27042362093925476 0.27476039528846741 0.51552063226699829
0.36376360058784485 0.33133742213249207 0.37770432233810425
0.46513399481773376 0.36948871612548828 0.41109496355056763
0.77071869373321533 0.34367048740386963 0.47846508026123047
0.085443653166294098 0.49937045574188232 0.5083194375038147
0.32261741161346436 0.49796313047409058 0.50866830348968506
0.51424789428710938 0.51400703191757202 0.51485574245452881
0.73664391040802002 0.51844257116317749 0.52430790662765503
0.98430079221725464 0.51319593191146851 0.519977867603302
0.39164993166923523 0.64127957820892334 0.57100456953048706
0.59279060363769531 0.64656805992126465 0.62664443254470825
0.68413138389587402 0.68651854991912842 0.68951559066772461
0.75205832719802856 0.74978721141815186 0.563160240650177
0.99029719829559326 0.75185704231262207 0.50325429439544678
0.70288479328155518 0.7738984227180481 0.73924612998962402
0.79883337020874023 0.81182056665420532 0.7996448278427124
0.85849487781524658 0.86017149686813354 0.86206316947937012
0.89866888523101807 0.91823333501815796 0.85400581359863281
0.98929876089096069 0.98700791597366333 0.55948609113693237
0.020101778209209442 0.031575057655572891 0.76504874229431152
0.28758791089057922 0.0268123559653759 0.78717851638793945
0.45923954248428345 0.058110885322093964 0.67277151346206665
0.27390399575233459 0.22479921579360962 0.27327850461006165
0.30172023177146912 0.2836950421333313 0.29846718907356262
0.025861179456114769 0.27542898058891296 0.76385766267776489
0.26723870635032654 0.27416595816612244 0.7575000524520874
0.53017568588256836 0.26664769649505615 0.76678073406219482
0.4369964599609375 0.40145629644393921 0.43671384453773499
0.47879740595817566 0.45341187715530396 0.47166818380355835
0.027008356526494026 0.51632833480834961 0.76394867897033691
0.26860925555229187 0.51401424407958984 0.76242643594741821
0.51627403497695923 0.5099448561668396 0.76202213764190674
0.5978018045425415 0.57526606321334839 0.60559529066085815
0.70484018325805664 0.61119699478149414 0.64757496118545532
0.063719764351844788 0.74597698450088501 0.73918527364730835
0.29767754673957825 0.74801504611968994 0.74464559555053711
0.55214011669158936 0.74467241764068604 0.75252217054367065
0.75505024194717407 0.75438487529754639 0.75669312477111816
0.98518794775009155 0.75075763463973999 0.76326590776443481
0.37696123123168945 0.89317446947097778 0.76649969816207886
0.62479889392852783 0.88533109426498413 0.81215572357177734
0.84490472078323364 0.88544517755508423 0.86679267883300781
0.92579233646392822 0.92762488126754761 0.9308965802192688
0.99142318964004517 0.98539578914642334 0.79936027526855469
0.0097216442227363586 0.029451975598931313 0.98693609237670898
0.27267852425575256 0.02840893343091011 0.99389123916625977
0.57512474060058594 0.012790829874575138 0.99997198581695557
0.50319719314575195 0.13957494497299194 0.6793704628944397
0.34779593348503113 0.28128674626350403 0.37098568677902222
0.022702476009726524 0.2709597647190094 0.99330598115921021
0.28200402855873108 0.26583448052406311 0.9956972599029541
0.58224064111709595 0.24329401552677155 1
0.69277787208557129 0.3033653199672699 0.8762848973274231
0.50788897275924683 0.46692517399787903 0.50960320234298706
0.021597769111394882 0.5156862735748291 0.99690943956375122
0.26747393608093262 0.51301008462905884 0.99459004402160645
0.51644223928451538 0.5097200870513916 0.99148142337799072
0.77584600448608398 0.50530683994293213 0.98953574895858765
0.68479907512664795 0.64008080959320068 0.69319570064544678
0.018119033426046371 0.7609294056892395 0.99383836984634399
0.2424418032169342 0.76203972101211548 0.99245560169219971
0.50264376401901245 0.75312304496765137 0.98908209800720215
0.75332236289978027 0.75253981351852417 0.98897731304168701
0.834056556224823 0.81589788198471069 0.84754395484924316
0.14145022630691528 0.96690165996551514 0.97345519065856934
0.32926604151725769 0.97958976030349731 0.98090636730194092
0.53076469898223877 0.98574948310852051 0.98236727714538574
0.77109229564666748 0.98542064428329468 0.98730427026748657
0.99216502904891968 0.98960530757904053 0.98621886968612671
