assets/lut/alexjordan orange dark 07.cube
# Created by: G'MIC (https://gmic.eu)
TITLE "orange_dark_7"
# LUT size
LUT_3D_SIZE 5
# Data domain
DOMAIN_MIN 0.0 0.0 0.0
DOMAIN_MAX 1.0 1.0 1.0
# LUT data points
0.0054820193909108639 0.0054820193909108639 0.0051708593964576721
0.01489969901740551 0.01395130529999733 0.012016146443784237
0.061136104166507721 0.018550558015704155 0.018570499494671822
0.11867036670446396 0.023529412224888802 0.023529412224888802
0.1191592812538147 0.023529412224888802 0.023529412224888802
0.059221036732196808 0.080578193068504333 0.056969676166772842
0.14453746378421783 0.1173974871635437 0.077934831380844116
0.36509889364242554 0.13303941488265991 0.08156287670135498
0.46805843710899353 0.14386850595474243 0.082761250436306
0.5562865138053894 0.18880638480186462 0.10710148513317108
0.072250440716743469 0.34845030307769775 0.061813056468963623
0.26646104454994202 0.40387353301048279 0.098391331732273102
0.54291480779647827 0.44011428952217102 0.14657238125801086
0.76079386472702026 0.48527655005455017 0.18617084622383118
0.77235531806945801 0.52517092227935791 0.20932528376579285
0.17147104442119598 0.74818253517150879 0.14534792304039001
0.46421876549720764 0.82074743509292603 0.25786861777305603
0.76906347274780273 0.90046703815460205 0.32121533155441284
0.88075399398803711 0.93900024890899658 0.35571581125259399
0.88573354482650757 0.95668637752532959 0.37320378422737122
0.33675873279571533 0.88048893213272095 0.29671457409858704
0.60974931716918945 0.93804085254669189 0.36554530262947083
0.88991737365722656 0.98084467649459839 0.42178046703338623
0.89954334497451782 0.98594093322753906 0.44123002886772156
0.90360492467880249 0.98808825016021729 0.48224151134490967
0.0070706685073673725 0.0074051055125892162 0.0061958762817084789
0.020019441843032837 0.015638537704944611 0.016440896317362785
0.091156631708145142 0.025621421635150909 0.03123169019818306
0.137868732213974 0.027606125921010971 0.034354116767644882
0.1349949985742569 0.027389137074351311 0.032873641699552536
0.067275583744049072 0.096254996955394745 0.081663317978382111
0.1650211364030838 0.13285638391971588 0.11142187565565109
0.39916488528251648 0.15128660202026367 0.1231175884604454
0.53421193361282349 0.17654511332511902 0.14202772080898285
0.60277324914932251 0.2128579318523407 0.1731727123260498
0.075890257954597473 0.37891972064971924 0.12453312426805496
0.29419007897377014 0.42898127436637878 0.19150176644325256
0.56946134567260742 0.47662192583084106 0.2587675154209137
0.77971935272216797 0.51763969659805298 0.29716059565544128
0.79053062200546265 0.55243855714797974 0.3196258544921875
0.23555436730384827 0.77230352163314819 0.29823487997055054
0.50162363052368164 0.8627936840057373 0.39165431261062622
0.80705279111862183 0.93368059396743774 0.46026664972305298
0.9019235372543335 0.97208243608474731 0.49639281630516052
0.90441650152206421 0.9777643084526062 0.51323109865188599
0.36025658249855042 0.89672398567199707 0.43987154960632324
0.65037095546722412 0.95978063344955444 0.52898949384689331
0.9100806713104248 0.99741494655609131 0.58489525318145752
0.91667407751083374 0.996265709400177 0.60921353101730347
0.91848075389862061 0.99995851516723633 0.63423275947570801
0.011713439598679543 0.012020215392112732 0.013086521066725254
0.031827155500650406 0.021752271801233292 0.031143173575401306
0.1254919022321701 0.032313987612724304 0.067296542227268219
0.16289687156677246 0.032200217247009277 0.072503544390201569
0.1759326159954071 0.036196749657392502 0.07142745703458786
0.073123335838317871 0.10939747095108032 0.14601986110210419
0.18483127653598785 0.14982225000858307 0.20409353077411652
0.42332339286804199 0.16378355026245117 0.22969397902488708
0.59209668636322021 0.19942957162857056 0.24628609418869019
0.63684332370758057 0.23443827033042908 0.27555388212203979
0.093013167381286621 0.4048478901386261 0.28692540526390076
0.32245463132858276 0.45454114675521851 0.34935706853866577
0.60212951898574829 0.51176744699478149 0.40838554501533508
0.79731440544128418 0.55273467302322388 0.44413232803344727
0.81005591154098511 0.58912640810012817 0.47748866677284241
0.27166292071342468 0.81212574243545532 0.47164362668991089
0.53579264879226685 0.89464110136032104 0.55902361869812012
0.84118235111236572 0.96335172653198242 0.63355892896652222
0.91657352447509766 0.98074537515640259 0.67003893852233887
0.92302066087722778 0.99640512466430664 0.69874387979507446
0.39287292957305908 0.91369104385375977 0.63453084230422974
0.68302977085113525 0.97521686553955078 0.71867048740386963
0.92646950483322144 1 0.78310835361480713
0.93070703744888306 1 0.81164097785949707
0.93185794353485107 1 0.84014320373535156
0.015550171956419945 0.015686692669987679 0.017458492890000343
0.045210760086774826 0.027018588036298752 0.069388158619403839
0.15944518148899078 0.038573905825614929 0.1471562385559082
0.19694918394088745 0.036794476211071014 0.15152774751186371
0.21864442527294159 0.044514182955026627 0.14133884012699127
0.078810796141624451 0.12468358874320984 0.27851581573486328
0.20341216027736664 0.16193489730358124 0.37978678941726685
0.43832811713218689 0.18193440139293671 0.40694192051887512
0.6360047459602356 0.22622768580913544 0.39962649345397949
0.67011570930480957 0.25355428457260132 0.4258979856967926
0.097614198923110962 0.41703552007675171 0.53262132406234741
0.35494628548622131 0.4795348048210144 0.54056614637374878
0.63932371139526367 0.54693853855133057 0.59537339210510254
0.8144305944442749 0.58494400978088379 0.63749831914901733
0.82486242055892944 0.61469292640686035 0.66967660188674927
0.30831283330917358 0.84073364734649658 0.68083775043487549
0.5651049017906189 0.9265255331993103 0.77123767137527466
0.87790119647979736 0.98387938737869263 0.85487335920333862
0.93332004547119141 0.99493396282196045 0.88819295167922974
0.93441981077194214 0.99495214223861694 0.9120296835899353
0.41082727909088135 0.92691481113433838 0.83056426048278809
0.70646995306015015 0.98445737361907959 0.89664775133132935
0.93675845861434937 1 0.93440902233123779
0.93725490570068359 1 0.93324929475784302
0.93725490570068359 1 0.93706810474395752
0.01716034859418869 0.01791413314640522 0.030012287199497223
0.056144818663597107 0.02946370467543602 0.12137822061777115
0.1740274578332901 0.040655158460140228 0.20050247013568878
0.2175963819026947 0.038780931383371353 0.21668891608715057
0.32518580555915833 0.066089645028114319 0.27371358871459961
0.082170777022838593 0.12862752377986908 0.33850419521331787
0.21241429448127747 0.1682475358247757 0.4737553596496582
0.44575068354606628 0.20392557978630066 0.57568150758743286
0.66714328527450562 0.24463202059268951 0.58443218469619751
0.69255924224853516 0.27193790674209595 0.62260150909423828
0.11901985853910446 0.42893791198730469 0.66709607839584351
0.37982574105262756 0.50396913290023804 0.7486649751663208
0.65538901090621948 0.56368720531463623 0.78879934549331665
0.82599139213562012 0.61496567726135254 0.82181298732757568
0.83859694004058838 0.65206533670425415 0.83331853151321411
0.31776469945907593 0.86245781183242798 0.81059724092483521
0.58976101875305176 0.94681406021118164 0.87822026014328003
0.89674270153045654 0.99210035800933838 0.92994403839111328
0.93614476919174194 0.99642574787139893 0.93666559457778931
0.93717086315155029 0.99858772754669189 0.93717086315155029
0.43416088819503784 0.93231850862503052 0.84654730558395386
0.73034524917602539 0.99061405658721924 0.9058348536491394
0.93716961145401001 1 0.93725490570068359
0.93333333730697632 0.99929028749465942 0.93725490570068359
0.93725490570068359 0.99994397163391113 0.93725490570068359
