assets/lut/alexjordan green day 02.cube
# Created by: G'MIC (https://gmic.eu)
TITLE "green_day_02"
# LUT size
LUT_3D_SIZE 5
# Data domain
DOMAIN_MIN 0.0 0.0 0.0
DOMAIN_MAX 1.0 1.0 1.0
# LUT data points
0 0 0
0 0 0
0 0 0
0 0 0
0.012244849465787411 0 0
0.0074183144606649876 0 0.0075355828739702702
0.0080252699553966522 0.0090931607410311699 0.00056640023831278086
0.098949477076530457 0.038926545530557632 0.0053779301233589649
0.31621652841567993 0.057024549692869186 0.0022961185313761234
0.67091488838195801 0.049444429576396942 0.00041442571091465652
0.0095727657899260521 0.19539180397987366 0
0.095261171460151672 0.24989844858646393 0
0.27663341164588928 0.30072230100631714 0
0.52912825345993042 0.33421504497528076 0.0024950513616204262
0.83552008867263794 0.3571726381778717 0.010357082821428776
0.0024526407942175865 0.55494183301925659 0
0.12672512233257294 0.61235147714614868 0.0011872235918417573
0.34048199653625488 0.66860777139663696 0.01845315657556057
0.61568522453308105 0.71119433641433716 0.020677439868450165
0.94392025470733643 0.75821894407272339 0.045537851750850677
0.026459921151399612 0.95188069343566895 0
0.19460971653461456 0.98921018838882446 0.013405429199337959
0.42789450287818909 1 0.041712474077939987
0.71854203939437866 1 0.077077202498912811
0.99867141246795654 1 0.11889556050300598
0 0 0
0 0 0
0 0 0
0 0 0
0.041047532111406326 0 0.0047226701863110065
0 1.4540728443535045e-05 7.2299735620617867e-05
0.026170363649725914 0.016554499045014381 0.02140401117503643
0.13348811864852905 0.052307069301605225 0.048796724528074265
0.36199465394020081 0.067098788917064667 0.059615761041641235
0.71530336141586304 0.057311337441205978 0.061088532209396362
0.0092975841835141182 0.21899628639221191 0.038068149238824844
0.091464132070541382 0.27818331122398376 0.062401656061410904
0.28883463144302368 0.32127320766448975 0.087855622172355652
0.54660415649414062 0.34959420561790466 0.10931351780891418
0.84723997116088867 0.37629944086074829 0.12862814962863922
0.0043901032768189907 0.57206940650939941 0.058602083474397659
0.1303163468837738 0.6427990198135376 0.10673729330301285
0.3573971688747406 0.69060462713241577 0.15811318159103394
0.6396632194519043 0.73416930437088013 0.19354568421840668
0.96639800071716309 0.76978409290313721 0.22135092318058014
0.019567288458347321 0.97102087736129761 0.10013092309236526
0.20276463031768799 0.99843734502792358 0.1755184531211853
0.45074808597564697 1 0.23075111210346222
0.74568802118301392 1 0.27809622883796692
0.99956142902374268 1 0.31662386655807495
0 0 0
0 0 0
0 0 0
6.8933826696593314e-05 0 5.1700368203455582e-05
0.099535755813121796 0 0.035218361765146255
0.0021392672788351774 0.0041128122247755527 0.0081642000004649162
0.037806417793035507 0.031990904361009598 0.071398071944713593
0.16094084084033966 0.061964806169271469 0.14942385256290436
0.40759745240211487 0.070211209356784821 0.21215666830539703
0.76499098539352417 0.058349549770355225 0.25058636069297791
0.0054601184092462063 0.23406301438808441 0.2007737010717392
0.097780399024486542 0.29444199800491333 0.24749219417572021
0.30143773555755615 0.33595478534698486 0.28427249193191528
0.55615991353988647 0.36891570687294006 0.30917975306510925
0.87377738952636719 0.39265310764312744 0.33710610866546631
0.011490526609122753 0.58960139751434326 0.25462111830711365
0.14920127391815186 0.65831190347671509 0.30728602409362793
0.38151064515113831 0.70761770009994507 0.36107373237609863
0.65857136249542236 0.75847959518432617 0.40071776509284973
0.9779772162437439 0.80458682775497437 0.43481728434562683
0.020878465846180916 0.98373317718505859 0.32197174429893494
0.21703079342842102 0.99978494644165039 0.38543415069580078
0.4765360951423645 1 0.44518738985061646
0.78021013736724854 1 0.49415910243988037
1 1 0.53690880537033081
0 0 0
0 0 0
0 0 0
0.0098540661856532097 0.00015887092740740627 0.0099177639931440353
0.17965111136436462 0 0.11576434969902039
0.0055533763952553272 0.0077821919694542885 0.026818249374628067
0.049787618219852448 0.046603169292211533 0.18043281137943268
0.19295038282871246 0.066854692995548248 0.31637111306190491
0.44449588656425476 0.069603085517883301 0.42120546102523804
0.76991534233093262 0.07478015124797821 0.46873012185096741
0.0018868091283366084 0.24956266582012177 0.41569274663925171
0.10252667963504791 0.30295494198799133 0.48230388760566711
0.31387969851493835 0.35155722498893738 0.50978201627731323
0.57544362545013428 0.37851360440254211 0.5442318320274353
0.87200480699539185 0.41466069221496582 0.56365573406219482
0.011380139738321304 0.61098045110702515 0.48783037066459656
0.16104504466056824 0.66960841417312622 0.54382306337356567
0.3992098867893219 0.73377346992492676 0.59621560573577881
0.68024075031280518 0.78736191987991333 0.63649243116378784
0.98517316579818726 0.81954789161682129 0.67101895809173584
0.02779713086783886 0.99163526296615601 0.56482446193695068
0.23136211931705475 1 0.62761110067367554
0.49023839831352234 1 0.68679279088973999
0.79879993200302124 1 0.73406869173049927
1 1 0.77924525737762451
0 0 0
0 0 0
0 0 0
0.039592921733856201 0 0.062186669558286667
0.27921119332313538 0.00035394408041611314 0.26031434535980225
0.010446092113852501 0.021112104877829552 0.11807473748922348
0.061467487365007401 0.052820123732089996 0.33610254526138306
0.22242926061153412 0.069580420851707458 0.55038231611251831
0.47770991921424866 0.066611737012863159 0.67268049716949463
0.80075973272323608 0.068477794528007507 0.74450010061264038
0.0076730465516448021 0.26291096210479736 0.68490713834762573
0.11756208539009094 0.31281384825706482 0.74197858572006226
0.33350390195846558 0.3596949577331543 0.77516412734985352
0.61111509799957275 0.38245958089828491 0.83200281858444214
0.89873874187469482 0.42656859755516052 0.84512233734130859
0.026023656129837036 0.62897706031799316 0.76815450191497803
0.17991653084754944 0.68396717309951782 0.81289571523666382
0.41573464870452881 0.74163413047790527 0.86271697282791138
0.69830292463302612 0.79526931047439575 0.90789705514907837
0.99374961853027344 0.84023332595825195 0.94244629144668579
0.064358606934547424 0.99194413423538208 0.83119183778762817
0.2601475715637207 1 0.89671158790588379
0.51201492547988892 1 0.957497239112854
0.81204944849014282 1 0.99086439609527588
1 0.99920558929443359 0.99986428022384644
