assets/lut/alexjordan film 9879.cube
# Created by: G'MIC (https://gmic.eu)
TITLE "film_9879"
# LUT size
LUT_3D_SIZE 7
# Data domain
DOMAIN_MIN 0.0 0.0 0.0
DOMAIN_MAX 1.0 1.0 1.0
# LUT data points
0.026714758947491646 0.018905684351921082 0.019125232473015785
0.13181692361831665 0.030230429023504257 0.033412393182516098
0.21556264162063599 0.046969141811132431 0.048714522272348404
0.2957664430141449 0.060352489352226257 0.06339765340089798
0.3817436695098877 0.06957448273897171 0.073994025588035583
0.46615809202194214 0.082131221890449524 0.083153761923313141
0.54733240604400635 0.097318224608898163 0.10051439702510834
0.081155769526958466 0.13125975430011749 0.076943479478359222
0.18268197774887085 0.13973619043827057 0.090839490294456482
0.26233118772506714 0.15827359259128571 0.10345318168401718
0.34409138560295105 0.17057548463344574 0.11675799638032913
0.43490371108055115 0.17711937427520752 0.12658989429473877
0.52210527658462524 0.1895335465669632 0.13545885682106018
0.60539907217025757 0.20535063743591309 0.15557537972927094
0.14127160608768463 0.23602524399757385 0.13628458976745605
0.23804987967014313 0.24350865185260773 0.14497284591197968
0.31602963805198669 0.26003947854042053 0.15816211700439453
0.40093317627906799 0.2721254825592041 0.17342160642147064
0.49792715907096863 0.28561839461326599 0.1888086348772049
0.59212416410446167 0.30608215928077698 0.20661537349224091
0.67724484205245972 0.32978874444961548 0.22900430858135223
0.16924948990345001 0.35888195037841797 0.16191413998603821
0.26974049210548401 0.37016022205352783 0.17309480905532837
0.355977863073349 0.39288365840911865 0.1976446807384491
0.44763031601905823 0.41552460193634033 0.22122283279895782
0.55302464962005615 0.44024282693862915 0.24498969316482544
0.65918523073196411 0.46963787078857422 0.27521619200706482
0.74580860137939453 0.5024217963218689 0.30028057098388672
0.23116356134414673 0.50332468748092651 0.22499454021453857
0.33682405948638916 0.52594929933547974 0.24200315773487091
0.42888134717941284 0.55834686756134033 0.27339464426040649
0.53102147579193115 0.59095531702041626 0.30639585852622986
0.64340126514434814 0.62304198741912842 0.33505821228027344
0.75490802526473999 0.65551948547363281 0.37075996398925781
0.84538447856903076 0.68661731481552124 0.40091732144355774
0.34803155064582825 0.66287326812744141 0.34221756458282471
0.46988070011138916 0.69060039520263672 0.37314924597740173
0.56132936477661133 0.72375369071960449 0.40133541822433472
0.66386294364929199 0.75686776638031006 0.43658071756362915
0.77762436866760254 0.78813105821609497 0.4690220057964325
0.87884742021560669 0.81594747304916382 0.49419352412223816
0.96887350082397461 0.83955645561218262 0.52168285846710205
0.43373826146125793 0.83966517448425293 0.4258066713809967
0.55046600103378296 0.86878466606140137 0.45581930875778198
0.64309161901473999 0.89917033910751343 0.48148244619369507
0.73842567205429077 0.92517590522766113 0.50978368520736694
0.83919650316238403 0.94441127777099609 0.53507572412490845
0.92397642135620117 0.96034067869186401 0.54578042030334473
0.99015867710113525 0.97434121370315552 0.54734551906585693
0.0362892746925354 0.02669881097972393 0.10875541716814041
0.13759203255176544 0.037279434502124786 0.1201665997505188
0.21911454200744629 0.053183715790510178 0.13682469725608826
0.2983364462852478 0.065809436142444611 0.14995911717414856
0.38568821549415588 0.075155787169933319 0.15346391499042511
0.47026717662811279 0.087650015950202942 0.16537155210971832
0.5483325719833374 0.10220593959093094 0.18508259952068329
0.090166725218296051 0.13833621144294739 0.16063861548900604
0.18866117298603058 0.14672711491584778 0.17251153290271759
0.26703521609306335 0.16306208074092865 0.18638560175895691
0.34644713997840881 0.17445266246795654 0.19785657525062561
0.43950647115707397 0.18221817910671234 0.20699670910835266
0.52729147672653198 0.19453217089176178 0.21668523550033569
0.60469669103622437 0.21136079728603363 0.23388203978538513
0.14735260605812073 0.2448686957359314 0.21988862752914429
0.24538032710552216 0.25031253695487976 0.22815099358558655
0.3218311071395874 0.26579764485359192 0.2397727370262146
0.40541753172874451 0.27879819273948669 0.25434017181396484
0.50444167852401733 0.29396098852157593 0.27241712808609009
0.6011778712272644 0.31484109163284302 0.29307487607002258
0.68686306476593018 0.34151065349578857 0.31438842415809631
0.17167240381240845 0.36594113707542419 0.24570579826831818
0.2782646119594574 0.3771565854549408 0.26003924012184143
0.36435234546661377 0.40199616551399231 0.28158974647521973
0.4565868079662323 0.42732757329940796 0.30679827928543091
0.5643850564956665 0.45223081111907959 0.3336544930934906
0.66860109567642212 0.48275971412658691 0.36079776287078857
0.76537656784057617 0.51439386606216431 0.3943411111831665
0.22858555614948273 0.51537531614303589 0.30363515019416809
0.34383741021156311 0.53805071115493774 0.32927453517913818
0.44293606281280518 0.56975990533828735 0.36430779099464417
0.54495644569396973 0.6043897271156311 0.39675775170326233
0.65975373983383179 0.6349751353263855 0.42798128724098206
0.76547461748123169 0.668559730052948 0.45731720328330994
0.85554748773574829 0.69811093807220459 0.48794186115264893
0.35251861810684204 0.67960721254348755 0.42857688665390015
0.47172993421554565 0.70783835649490356 0.45920279622077942
0.56934422254562378 0.73846381902694702 0.49376025795936584
0.67281955480575562 0.7677154541015625 0.52607423067092896
0.78656554222106934 0.79585379362106323 0.55542123317718506
0.89148151874542236 0.82504540681838989 0.58376932144165039
0.97321110963821411 0.84846395254135132 0.60453504323959351
0.44597181677818298 0.86029666662216187 0.51442897319793701
0.55767858028411865 0.89087164402008057 0.5405193567276001
0.64517760276794434 0.91895008087158203 0.56646645069122314
0.73704087734222412 0.9401736855506897 0.59120935201644897
0.83897602558135986 0.95294159650802612 0.61544537544250488
0.92538642883300781 0.96633851528167725 0.62540948390960693
0.99395406246185303 0.97942537069320679 0.63030511140823364
0.044287960976362228 0.034411635249853134 0.20651189982891083
0.13992692530155182 0.042909104377031326 0.21779678761959076
0.21919466555118561 0.057917188853025436 0.23149162530899048
0.29987075924873352 0.070400059223175049 0.24397619068622589
0.39171573519706726 0.080398783087730408 0.24947811663150787
0.47793105244636536 0.092634119093418121 0.25945445895195007
0.55391603708267212 0.10814511030912399 0.27834790945053101
0.099338293075561523 0.14300537109375 0.25732541084289551
0.1942935436964035 0.15017224848270416 0.27101889252662659
0.2701103687286377 0.16450703144073486 0.28509616851806641
0.34983491897583008 0.17683851718902588 0.29375717043876648
0.44632688164710999 0.18549826741218567 0.30546101927757263
0.53599077463150024 0.19808492064476013 0.31590011715888977
0.61345160007476807 0.21777498722076416 0.32963958382606506
0.15218997001647949 0.24975143373012543 0.3158690333366394
0.248914435505867 0.25595241785049438 0.32751494646072388
0.32826843857765198 0.26844096183776855 0.3386586606502533
0.41095373034477234 0.2857964038848877 0.34937876462936401
0.51265919208526611 0.3005908727645874 0.36929100751876831
0.60944855213165283 0.32213100790977478 0.39279600977897644
0.69475209712982178 0.35087254643440247 0.41335484385490417
0.18372486531734467 0.37043240666389465 0.34614646434783936
0.2848936915397644 0.38556334376335144 0.35870516300201416
0.3724677562713623 0.41026484966278076 0.38260453939437866
0.46789878606796265 0.43719643354415894 0.41127684712409973
0.57621216773986816 0.46277564764022827 0.43589749932289124
0.67921632528305054 0.49209734797477722 0.46312430500984192
0.77433258295059204 0.52500969171524048 0.49356850981712341
0.24409885704517365 0.52336221933364868 0.40218576788902283
0.35593873262405396 0.54863125085830688 0.42735806107521057
0.45403012633323669 0.58338946104049683 0.46419748663902283
0.55946642160415649 0.61691123247146606 0.50130593776702881
0.67216044664382935 0.64675408601760864 0.53184771537780762
0.77746844291687012 0.67696928977966309 0.56035053730010986
0.8688170313835144 0.70754027366638184 0.5893099308013916
0.36996743083000183 0.68913519382476807 0.53517872095108032
0.48216786980628967 0.71904271841049194 0.55804318189620972
0.58378416299819946 0.75113707780838013 0.59764111042022705
0.68585926294326782 0.78040534257888794 0.62473565340042114
0.79509270191192627 0.80575191974639893 0.65471959114074707
0.89663010835647583 0.83235955238342285 0.68092834949493408
0.9830704927444458 0.85515737533569336 0.70610529184341431
0.45927238464355469 0.87452524900436401 0.61036306619644165
0.56765162944793701 0.90353477001190186 0.63390713930130005
0.65959423780441284 0.92856746912002563 0.66234177350997925
0.74905973672866821 0.94769763946533203 0.68172752857208252
0.83986091613769531 0.96024602651596069 0.69810926914215088
0.92422616481781006 0.97192025184631348 0.70731842517852783
0.99513685703277588 0.98324418067932129 0.71370309591293335
0.050061572343111038 0.042663142085075378 0.28037267923355103
0.14377973973751068 0.051316577941179276 0.28996896743774414
0.2231326550245285 0.065893895924091339 0.29903686046600342
0.30544701218605042 0.078580789268016815 0.30886602401733398
0.39921367168426514 0.087932869791984558 0.31823819875717163
0.48733305931091309 0.098352216184139252 0.32710671424865723
0.56083804368972778 0.11234066635370255 0.34773686528205872
0.10475446283817291 0.14880760014057159 0.32744383811950684
0.1986161470413208 0.15681916475296021 0.33847740292549133
0.27517688274383545 0.17107632756233215 0.34904894232749939
0.35523951053619385 0.18327537178993225 0.35868886113166809
0.45216217637062073 0.19246207177639008 0.37356671690940857
0.54212898015975952 0.20472051203250885 0.38377675414085388
0.61920422315597534 0.22284811735153198 0.39824244379997253
0.15611490607261658 0.2524314820766449 0.38346871733665466
0.25300693511962891 0.26231527328491211 0.39155030250549316
0.33483001589775085 0.27768313884735107 0.40456900000572205
0.41739562153816223 0.29487442970275879 0.4184437096118927
0.52126669883728027 0.30894908308982849 0.44124791026115417
0.61728483438491821 0.33103197813034058 0.46503260731697083
0.69916754961013794 0.36002704501152039 0.48435476422309875
0.19167302548885345 0.37913945317268372 0.41584092378616333
0.2921813428401947 0.39566916227340698 0.42694619297981262
0.38238126039505005 0.42263203859329224 0.45472797751426697
0.47657796740531921 0.44997435808181763 0.48273235559463501
0.58657479286193848 0.47184461355209351 0.50867700576782227
0.68903952836990356 0.50191229581832886 0.53751963376998901
0.78215199708938599 0.53678113222122192 0.56793928146362305
0.26425814628601074 0.5328061580657959 0.48219513893127441
0.37217947840690613 0.55783760547637939 0.50266695022583008
0.46684512495994568 0.59648662805557251 0.53819435834884644
0.57089030742645264 0.62975561618804932 0.573231041431427
0.68069136142730713 0.65623980760574341 0.60252672433853149
0.78396999835968018 0.68687975406646729 0.62955033779144287
0.88251066207885742 0.71711939573287964 0.66511088609695435
0.38688108325004578 0.70012003183364868 0.60900479555130005
0.50321894884109497 0.72571229934692383 0.63648593425750732
0.60134798288345337 0.76074165105819702 0.67631304264068604
0.70237785577774048 0.79111754894256592 0.70191365480422974
0.80769568681716919 0.81741398572921753 0.73177599906921387
0.90987902879714966 0.84266763925552368 0.75576776266098022
0.98690533638000488 0.86394447088241577 0.77061605453491211
0.46955797076225281 0.88842242956161499 0.68443256616592407
0.57987058162689209 0.91261380910873413 0.71136081218719482
0.6721423864364624 0.93587738275527954 0.73811852931976318
0.76037538051605225 0.95578587055206299 0.75270110368728638
0.85048913955688477 0.96972191333770752 0.76611620187759399
0.93612974882125854 0.97833943367004395 0.77813863754272461
0.99796378612518311 0.98705816268920898 0.78175115585327148
0.05725879967212677 0.048092231154441833 0.33381631970405579
0.15221308171749115 0.055989298969507217 0.34475737810134888
0.23119007050991058 0.072218097746372223 0.35112473368644714
0.31182345747947693 0.08635856956243515 0.35800987482070923
0.40258771181106567 0.094612047076225281 0.3653971254825592
0.48986697196960449 0.10324316471815109 0.37560632824897766
0.56488150358200073 0.11515934020280838 0.39796072244644165
0.10971496999263763 0.15619546175003052 0.37577635049819946
0.20639391243457794 0.16275122761726379 0.38872238993644714
0.2849629819393158 0.17744508385658264 0.39819607138633728
0.364471435546875 0.19098258018493652 0.4090791642665863
0.45648711919784546 0.20169119536876678 0.41919401288032532
0.54449570178985596 0.21398183703422546 0.43008643388748169
0.62300682067871094 0.22974644601345062 0.4530702531337738
0.16135604679584503 0.25894266366958618 0.43150424957275391
0.26213562488555908 0.26885029673576355 0.44218906760215759
0.34411829710006714 0.28711965680122375 0.45721691846847534
0.42853039503097534 0.30485832691192627 0.4770737886428833
0.52901887893676758 0.3227994441986084 0.49565795063972473
0.62792539596557617 0.34485083818435669 0.51878958940505981
0.70844852924346924 0.37289232015609741 0.54105055332183838
0.19584043323993683 0.39032980799674988 0.46521720290184021
0.30467551946640015 0.40594673156738281 0.48343744874000549
0.39502322673797607 0.43582326173782349 0.51027297973632812
0.48918402194976807 0.46298667788505554 0.54062741994857788
0.59747433662414551 0.48633906245231628 0.56481802463531494
0.70756608247756958 0.51762205362319946 0.59864670038223267
0.79561328887939453 0.55404949188232422 0.62720364332199097
0.26787194609642029 0.54831188917160034 0.53605645895004272
0.38259559869766235 0.57208716869354248 0.56209325790405273
0.48203858733177185 0.61013376712799072 0.59730899333953857
0.58272850513458252 0.64305424690246582 0.6294320821762085
0.69055670499801636 0.66785305738449097 0.65427488088607788
0.79804021120071411 0.70140343904495239 0.68756026029586792
0.89036327600479126 0.73433411121368408 0.71983867883682251
0.39304208755493164 0.71492850780487061 0.66383183002471924
0.51310926675796509 0.73924773931503296 0.69744056463241577
0.61122304201126099 0.77447110414505005 0.7327573299407959
0.71197503805160522 0.80370199680328369 0.76067149639129639
0.8165242075920105 0.82906752824783325 0.78425490856170654
0.92120915651321411 0.85343426465988159 0.80920344591140747
0.98691999912261963 0.87351828813552856 0.82366585731506348
0.47592431306838989 0.90205603837966919 0.7448546290397644
0.58684080839157104 0.92443764209747314 0.7731858491897583
0.67320996522903442 0.946827232837677 0.79393309354782104
0.76210576295852661 0.96569448709487915 0.80670040845870972
0.85483241081237793 0.97681605815887451 0.8177870512008667
0.93797248601913452 0.9820713996887207 0.82934188842773438
0.99627989530563354 0.98906391859054565 0.83707064390182495
0.065783239901065826 0.052809949964284897 0.3997214138507843
0.16000775992870331 0.06006438285112381 0.41055658459663391
0.23847717046737671 0.075260460376739502 0.4182259738445282
0.3176751434803009 0.089564457535743713 0.42523789405822754
0.40579709410667419 0.098210565745830536 0.43314635753631592
0.49260073900222778 0.10726605355739594 0.44535526633262634
0.57164812088012695 0.12144280225038528 0.46606585383415222
0.11939206719398499 0.16080892086029053 0.44661951065063477
0.21453301608562469 0.16822534799575806 0.4590868353843689
0.29416736960411072 0.180467888712883 0.47116097807884216
0.37418457865715027 0.19528868794441223 0.48264965415000916
0.46585038304328918 0.20625801384449005 0.49366965889930725
0.55516165494918823 0.21866342425346375 0.50867980718612671
0.63287663459777832 0.23882566392421722 0.53084099292755127
0.17024539411067963 0.26561382412910461 0.50130623579025269
0.26928693056106567 0.27479773759841919 0.51426553726196289
0.35209572315216064 0.29166397452354431 0.53122305870056152
0.4381391704082489 0.31208309531211853 0.55131691694259644
0.53871190547943115 0.33141273260116577 0.56925177574157715
0.64106971025466919 0.35328039526939392 0.5961611270904541
0.72627526521682739 0.38372117280960083 0.62547105550765991
0.20836515724658966 0.3988063633441925 0.54521149396896362
0.31413331627845764 0.41630071401596069 0.56110215187072754
0.40332993865013123 0.44489988684654236 0.58686041831970215
0.49769309163093567 0.47254112362861633 0.61599695682525635
0.60818123817443848 0.4993930459022522 0.63946127891540527
0.72231411933898926 0.53111028671264648 0.67646491527557373
0.8183746337890625 0.5662848949432373 0.71454548835754395
0.27688828110694885 0.56141877174377441 0.61823749542236328
0.39554485678672791 0.58696889877319336 0.6460951566696167
0.49357262253761292 0.62328583002090454 0.68143922090530396
0.5922921895980835 0.65509516000747681 0.71154522895812988
0.70756775140762329 0.68269175291061401 0.73932462930679321
0.81758695840835571 0.71611678600311279 0.77197742462158203
0.9070136547088623 0.74717456102371216 0.80436879396438599
0.4089265763759613 0.72366619110107422 0.74691218137741089
0.53070318698883057 0.75124788284301758 0.78189188241958618
0.62906312942504883 0.78855437040328979 0.81772977113723755
0.72606080770492554 0.81649738550186157 0.84372282028198242
0.83306562900543213 0.84083372354507446 0.86838847398757935
0.929878830909729 0.86265915632247925 0.88695442676544189
0.99463558197021484 0.88130903244018555 0.90757924318313599
0.48925518989562988 0.90661293268203735 0.82402783632278442
0.59950250387191772 0.93449145555496216 0.84943515062332153
0.68563681840896606 0.95659607648849487 0.86990231275558472
0.77019548416137695 0.97140258550643921 0.88241207599639893
0.86172837018966675 0.97953087091445923 0.89287489652633667
0.94267755746841431 0.98463314771652222 0.90199035406112671
0.99821770191192627 0.99080419540405273 0.91529911756515503
0.067500635981559753 0.059865240007638931 0.47363060712814331
0.15949469804763794 0.069157525897026062 0.48497283458709717
0.2395416796207428 0.081258617341518402 0.49524739384651184
0.32055681943893433 0.094754569232463837 0.50482743978500366
0.41008713841438293 0.10380711406469345 0.51531821489334106
0.49985834956169128 0.11518111824989319 0.52923238277435303
0.58295202255249023 0.13259038329124451 0.54778629541397095
0.12181725353002548 0.16912810504436493 0.52343654632568359
0.21614652872085571 0.17799815535545349 0.53774726390838623
0.29775649309158325 0.18825511634349823 0.55238908529281616
0.37911185622215271 0.20489129424095154 0.56588619947433472
0.47434207797050476 0.21550476551055908 0.58041667938232422
0.56823599338531494 0.22998766601085663 0.59886699914932251
0.65122729539871216 0.25454160571098328 0.62020045518875122
0.17281068861484528 0.27750006318092346 0.57534980773925781
0.27339845895767212 0.28364306688308716 0.59360229969024658
0.35860106348991394 0.29887109994888306 0.61176306009292603
0.44503265619277954 0.32437732815742493 0.62951564788818359
0.54685956239700317 0.34372547268867493 0.65148115158081055
0.64975523948669434 0.36589601635932922 0.68017387390136719
0.73738819360733032 0.40026330947875977 0.70819759368896484
0.21567539870738983 0.41311678290367126 0.62037432193756104
0.32413667440414429 0.4258066713809967 0.64205193519592285
0.41452571749687195 0.45447134971618652 0.66627734899520874
0.5096244215965271 0.4842853844165802 0.69374674558639526
0.61900538206100464 0.51205003261566162 0.72170352935791016
0.72765630483627319 0.54412388801574707 0.75662708282470703
0.82155478000640869 0.57879042625427246 0.79050296545028687
0.29202654957771301 0.57393079996109009 0.69953203201293945
0.40814882516860962 0.60049307346343994 0.72593313455581665
0.50733089447021484 0.63521659374237061 0.76037925481796265
0.60855412483215332 0.66476452350616455 0.7939760684967041
0.72274965047836304 0.6940961480140686 0.82283210754394531
0.82700890302658081 0.72646534442901611 0.85227686166763306
0.91607069969177246 0.75414067506790161 0.88219499588012695
0.41923078894615173 0.73363852500915527 0.82679575681686401
0.53954523801803589 0.76422607898712158 0.85834640264511108
0.63789862394332886 0.80024194717407227 0.89204376935958862
0.7332528829574585 0.82938486337661743 0.91821306943893433
0.84400659799575806 0.85303038358688354 0.94491064548492432
0.93790799379348755 0.87032556533813477 0.9596177339553833
0.99884432554244995 0.88565528392791748 0.97704982757568359
0.49172011017799377 0.91139209270477295 0.89835375547409058
0.60270059108734131 0.94146394729614258 0.92258024215698242
0.69007331132888794 0.96230012178421021 0.94350814819335938
0.77068197727203369 0.97532737255096436 0.95477843284606934
0.85982918739318848 0.98247712850570679 0.96350950002670288
0.94481855630874634 0.9874337911605835 0.9764973521232605
0.99693834781646729 0.99153518676757812 0.98344558477401733
