assets/lut/alexjordan moonlight 01.cube
# Created by: G'MIC (https://gmic.eu)
TITLE "moonlight_01"
# LUT size
LUT_3D_SIZE 13
# Data domain
DOMAIN_MIN 0.0 0.0 0.0
DOMAIN_MAX 1.0 1.0 1.0
# LUT data points
0 0 0
8.3429673395585269e-05 0 0
0.0052686203271150589 0 0
0.015953917056322098 0 0
0.031141767278313637 0 0.00023893469187896699
0.052319739013910294 0.00034344242885708809 0.0012218699557706714
0.080601394176483154 0.0006779390387237072 0.00031319411937147379
0.11970781534910202 0 0
0.16971588134765625 0 0
0.23010919988155365 0 0
0.30038410425186157 0 0
0.37900018692016602 0 0
0.46427416801452637 0 0
0 0.0057569467462599277 0
0 0.0052083334885537624 0
0.0035895253531634808 0.0052620084024965763 0
0.015557263046503067 0.0057116341777145863 0
0.033667575567960739 0.0062966141849756241 0.0003351548220962286
0.05659058690071106 0.007044564001262188 0.0007833592826500535
0.087501108646392822 0.0063450532034039497 3.2582003768766299e-05
0.12739899754524231 0.0024672863073647022 0
0.17709261178970337 0.00010992312309099361 0
0.23775032162666321 0 0
0.30886822938919067 0 0
0.38890606164932251 0 0
0.47540602087974548 0 0
0 0.019740909337997437 0
0 0.019580662250518799 0
0.0021655212622135878 0.022251637652516365 0
0.01430378295481205 0.022903621196746826 0
0.033718753606081009 0.023599976673722267 0
0.059835620224475861 0.023825567215681076 0
0.093399390578269958 0.021712044253945351 0
0.13562864065170288 0.016945812851190567 0
0.18686899542808533 0.010427048429846764 0
0.24827052652835846 0.0041776020079851151 0
0.32100698351860046 0.00083292042836546898 0
0.40221673250198364 0 0
0.48992577195167542 0 0
0 0.039656050503253937 0
0 0.041134525090456009 0
0.0010170431341975927 0.044325284659862518 0
0.012056268751621246 0.047766488045454025 0
0.032318219542503357 0.050483044236898422 0
0.060920774936676025 0.051026258617639542 0
0.09768407791852951 0.04908713698387146 0
0.14223913848400116 0.044678304344415665 0
0.19646424055099487 0.03928496316075325 0
0.26060393452644348 0.032641496509313583 0
0.33487775921821594 0.02503255195915699 0
0.41765353083610535 0.017592770978808403 0
0.50667291879653931 0.014876975677907467 0.00035647224285639822
0 0.066453956067562103 0
0 0.069556385278701782 0
0.00056825525825843215 0.074804224073886871 0
0.01033356599509716 0.080630116164684296 0
0.030976522713899612 0.084875695407390594 0
0.061011012643575668 0.087565869092941284 0
0.099844090640544891 0.087022654712200165 8.6167283370741643e-06
0.14777147769927979 0.084580138325691223 0.00019459443865343928
0.20505522191524506 0.081374749541282654 0.00016551298904232681
0.27262532711029053 0.077463500201702118 0
0.34965294599533081 0.072277620434761047 0
0.43421190977096558 0.066839031875133514 0.00015507118951063603
0.52497357130050659 0.065496675670146942 0.0037344240117818117
0 0.10085903853178024 0
0 0.10563416033983231 0
0.00080057780724018812 0.11358091980218887 0
0.010680224746465683 0.12178125977516174 0
0.031359609216451645 0.12826384603977203 0
0.062160402536392212 0.13260290026664734 0
0.10265224426984787 0.13473165035247803 0.00052979413885623217
0.15264643728733063 0.13595347106456757 0.002039935439825058
0.21286703646183014 0.13558329641819 0.0027405384462326765
0.28327077627182007 0.13415446877479553 0.0020336376037448645
0.36304518580436707 0.13182160258293152 0.0015519235748797655
0.45019441843032837 0.12902459502220154 0.0042122486047446728
0.54393893480300903 0.12936049699783325 0.010821457952260971
0 0.14414209127426147 0
0 0.15157483518123627 0
0.0025554283056408167 0.1620253324508667 0
0.013357752934098244 0.17266868054866791 0
0.03357015922665596 0.18158429861068726 0
0.064324907958507538 0.188481405377388 0.00012539133604150265
0.1054845005273819 0.19337479770183563 0.0024858512915670872
0.15723420679569244 0.19703683257102966 0.0068091447465121746
0.21984648704528809 0.19969609379768372 0.0094893807545304298
0.29292336106300354 0.20152692496776581 0.010177881456911564
0.37542909383773804 0.20180459320545197 0.011208029463887215
0.4660397469997406 0.20125027000904083 0.014932220801711082
0.56274080276489258 0.20373700559139252 0.021672088652849197
0 0.1979021430015564 0
0.00037280810647644103 0.20802305638790131 0
0.004893867764621973 0.22167952358722687 0
0.016087235882878304 0.23508559167385101 0
0.036348365247249603 0.24661630392074585 0
0.067341223359107971 0.25584492087364197 0.00057911593466997147
0.10908085107803345 0.26343068480491638 0.0063630049116909504
0.16230097413063049 0.26986125111579895 0.013787288218736649
0.22707408666610718 0.27539655566215515 0.0187046118080616
0.30298179388046265 0.27992871403694153 0.021613461896777153
0.38844257593154907 0.28298446536064148 0.024345189332962036
0.48282551765441895 0.2846241295337677 0.028633521869778633
0.5831952691078186 0.2882835865020752 0.035620968788862228
0 0.26509001851081848 0
0.00050796807045117021 0.27831864356994629 0
0.0052732881158590317 0.29467946290969849 0
0.017263839021325111 0.31032055616378784 0
0.038487497717142105 0.3241635262966156 0
0.070495679974555969 0.33585053682327271 0.0013832839904353023
0.11329839378595352 0.34578025341033936 0.010846934281289577
0.16806027293205261 0.35455784201622009 0.021657127887010574
0.23545040190219879 0.3631325364112854 0.029060782864689827
0.31479021906852722 0.37058284878730774 0.033649876713752747
0.4041869044303894 0.37583193182945251 0.037736225873231888
0.50232386589050293 0.37893876433372498 0.043200667947530746
0.60582250356674194 0.38355863094329834 0.05147138237953186
0 0.35024565458297729 0
7.4872783443424851e-05 0.36423352360725403 0
0.0037511938717216253 0.38201886415481567 0
0.017200380563735962 0.39943009614944458 0
0.040681399405002594 0.41526064276695251 0
0.074568234384059906 0.42906075716018677 0.0020633023232221603
0.11948437988758087 0.44120436906814575 0.014806216582655907
0.17598360776901245 0.45265454053878784 0.028877587988972664
0.24624152481555939 0.4643276035785675 0.038769412785768509
0.32945424318313599 0.47496902942657471 0.044834420084953308
0.42241412401199341 0.48237812519073486 0.050535839051008224
0.52363765239715576 0.48704758286476135 0.057973422110080719
0.62908446788787842 0.49277600646018982 0.068206712603569031
0 0.4504607617855072 0
0 0.46477150917053223 0
0.0024859260302037001 0.48277696967124939 0
0.017921432852745056 0.50156301259994507 0
0.043979614973068237 0.51903963088989258 0
0.0811614990234375 0.53502404689788818 0.0023859210778027773
0.12943071126937866 0.54983651638031006 0.016882773488759995
0.18907386064529419 0.56457060575485229 0.033231653273105621
0.26166927814483643 0.5794299840927124 0.045677334070205688
0.34744659066200256 0.59329164028167725 0.054648097604513168
0.44257703423500061 0.60358220338821411 0.063176445662975311
0.54474395513534546 0.61075764894485474 0.073252491652965546
0.65111494064331055 0.61802840232849121 0.086316891014575958
0 0.56138741970062256 0
2.1392224880401045e-06 0.57635772228240967 0
0.0033548392821103334 0.59514504671096802 0
0.021050801500678062 0.61502933502197266 0
0.050827775150537491 0.63382589817047119 0
0.091970227658748627 0.65205484628677368 0.003031113650649786
0.14407500624656677 0.6698000431060791 0.019066035747528076
0.2070726603269577 0.68784403800964355 0.036727890372276306
0.28217935562133789 0.70602190494537354 0.051882889121770859
0.36830002069473267 0.7228209376335144 0.06462598592042923
0.46386262774467468 0.73607587814331055 0.076838292181491852
0.56636154651641846 0.74555891752243042 0.090308830142021179
0.67290902137756348 0.75410395860671997 0.10647581517696381
0 0.6805272102355957 0
0.00078159407712519169 0.69613033533096313 0
0.0087834075093269348 0.71533370018005371 0
0.030561080202460289 0.7360273003578186 0
0.063821859657764435 0.75639081001281738 5.7564528106013313e-05
0.10830214619636536 0.77682816982269287 0.0063883312977850437
0.16365012526512146 0.79711276292800903 0.024541832506656647
0.22969284653663635 0.81813973188400269 0.043493457138538361
0.30623355507850647 0.83896303176879883 0.061082996428012848
0.39275124669075012 0.85828840732574463 0.077110514044761658
0.48795866966247559 0.87413066625595093 0.093520954251289368
0.5898137092590332 0.88562768697738647 0.11073886603116989
0.69610011577606201 0.8950534462928772 0.13125638663768768
0 0 0.0012967278016731143
0 0 0.0017126494785770774
0.0035516028292477131 0 0.0025553384330123663
0.013798552565276623 0 0.004905057605355978
0.030024509876966476 0 0.0067270617000758648
0.052052933722734451 0 0.0063137277029454708
0.081945769488811493 0 0.0030103346798568964
0.12024804204702377 0 5.8746336435433477e-05
0.16794386506080627 0 0
0.22702454030513763 0 0
0.29673779010772705 0 0
0.37504938244819641 0 0
0.46005100011825562 0 0
0 0.0065642115660011768 0.00067401962587609887
0 0.0060332952998578548 0.00091581157175824046
0.0024148828815668821 0.0064029917120933533 0.0024072236847132444
0.013415182940661907 0.0069992514327168465 0.0048659681342542171
0.031306412070989609 0.0071227429434657097 0.0067498600110411644
0.056944709271192551 0.0062936670146882534 0.0061645358800888062
0.08965783566236496 0.003344367491081357 0.0026557922828942537
0.12978808581829071 0.001018030452542007 0.00014859368093311787
0.17780773341655731 0.00032384536461904645 0
0.23707498610019684 0 0
0.30754262208938599 0 0
0.38758188486099243 0 0
0.47369870543479919 0 0
0 0.019372183829545975 0.00026493446785025299
0 0.019723989069461823 0.00064884260063990951
0.0011042875703424215 0.022575633600354195 0.0017664891202002764
0.011960107833147049 0.023215947672724724 0.0035633461084216833
0.031807500869035721 0.024172315374016762 0.004851367324590683
0.060041181743144989 0.023812133818864822 0.0039239469915628433
0.095517836511135101 0.019720803946256638 0.0026294034905731678
0.13818669319152832 0.015622053295373917 0.001489796326495707
0.18866226077079773 0.011827461421489716 0.00043614706373773515
0.24968148767948151 0.0069069359451532364 0
0.3217366635799408 0.0024714600294828415 0
0.40279325842857361 0.00047366571379825473 0
0.49033406376838684 0.00010531556472415105 0
0 0.038835369050502777 0
0 0.040810335427522659 0.0002300486812600866
0.00026014738250523806 0.044691480696201324 0.00094339705538004637
0.0097649665549397469 0.04861488938331604 0.0022057029418647289
0.030705051496624947 0.051340378820896149 0.0028501623310148716
0.060539215803146362 0.051895603537559509 0.003124042646959424
0.09860491007566452 0.048921007663011551 0.0037477381993085146
0.14419317245483398 0.044808406382799149 0.0040785996243357658
0.19842393696308136 0.040856022387742996 0.0028346641920506954
0.26270255446434021 0.036105062812566757 0.00050292670493945479
0.33718687295913696 0.029784558340907097 0
0.41976839303970337 0.023302819579839706 0
0.50829875469207764 0.020633084699511528 0
0 0.065543234348297119 0
0 0.069652348756790161 0
0 0.075598500669002533 0.00036202225601300597
0.0074502835050225258 0.081827066838741302 0.0014696907019242644
0.028768261894583702 0.086441546678543091 0.0025783164892345667
0.059909701347351074 0.088086642324924469 0.0045931050553917885
0.10026201605796814 0.087962359189987183 0.006520634051412344
0.14926056563854218 0.085894368588924408 0.0078517543151974678
0.20715956389904022 0.083756431937217712 0.0067060883156955242
0.27506479620933533 0.080743126571178436 0.0031025158241391182
0.35245838761329651 0.076519250869750977 0.00068366853520274162
0.43712368607521057 0.071309074759483337 0.00078647088957950473
0.52743446826934814 0.069483689963817596 0.0041296416893601418
0 0.10057026147842407 0
0 0.10682232677936554 0
4.1737275751074776e-05 0.11541848629713058 2.9620001441799104e-05
0.0077986326068639755 0.12375999987125397 0.0007120020454749465
0.029117763042449951 0.13021945953369141 0.0028512394055724144
0.061152826994657516 0.13448798656463623 0.0061729429289698601
0.10293287038803101 0.13679777085781097 0.010229222476482391
0.15393067896366119 0.13790954649448395 0.012805595062673092
0.21503621339797974 0.13838060200214386 0.012383883818984032
0.28610986471176147 0.13788115978240967 0.0096856663003563881
0.36651575565338135 0.13597925007343292 0.007094409316778183
0.45408138632774353 0.13262021541595459 0.0092922430485486984
0.5469164252281189 0.13196565210819244 0.015876036137342453
0 0.14549911022186279 0
0 0.15406681597232819 0
0.0010683246655389667 0.1650785505771637 0
0.011234492994844913 0.17568476498126984 0.00020388435223139822
0.031968209892511368 0.18442484736442566 0.002573738805949688
0.063733808696269989 0.19117595255374908 0.0080231307074427605
0.10614444315433502 0.19638542830944061 0.014537915587425232
0.15906009078025818 0.20046812295913696 0.01918112114071846
0.22245591878890991 0.20367228984832764 0.021288823336362839
0.29625234007835388 0.20573300123214722 0.020979622378945351
0.37949439883232117 0.20594589412212372 0.020699430257081985
0.47042062878608704 0.20486240088939667 0.023611346259713173
0.56735986471176147 0.2058832049369812 0.030530324205756187
0 0.20131100714206696 1.0696111530705821e-05
0 0.21244747936725616 0
0.0028395857661962509 0.22627326846122742 0
0.014309393242001534 0.2392391711473465 2.9620001441799104e-05
0.034975957125425339 0.25033062696456909 0.0020533392671495676
0.06698068231344223 0.25952386856079102 0.00991032924503088
0.11024834215641022 0.2672392725944519 0.019475346431136131
0.16482630372047424 0.27405837178230286 0.027015730738639832
0.23050865530967712 0.28010919690132141 0.031886380165815353
0.30688542127609253 0.28479984402656555 0.034466374665498734
0.39346575736999512 0.28744828701019287 0.036390669643878937
0.48834636807441711 0.28853407502174377 0.040056623518466949
0.58891606330871582 0.29125118255615234 0.047400575131177902
0 0.27037131786346436 0.00013691023923456669
0 0.28385686874389648 0
0.002268877113237977 0.30008319020271301 0
0.014723191037774086 0.31546548008918762 0
0.036483239382505417 0.32896053791046143 0.0017663544276729226
0.070148169994354248 0.3403562605381012 0.011439887806773186
0.11503139138221741 0.35051256418228149 0.024246769025921822
0.17155060172080994 0.35993736982345581 0.035310439765453339
0.23992633819580078 0.36902773380279541 0.043032702058553696
0.31962031126022339 0.37686434388160706 0.047851696610450745
0.40978479385375977 0.38199079036712646 0.051524337381124496
0.50844281911849976 0.38483530282974243 0.056761078536510468
0.61222302913665771 0.38889849185943604 0.065083324909210205
0 0.35512974858283997 1.9253002392360941e-05
0 0.36974227428436279 0
0.00054050522157922387 0.38760527968406677 0
0.012269801460206509 0.40523704886436462 0
0.037074640393257141 0.42082405090332031 0.001452083233743906
0.073082119226455688 0.4348180890083313 0.012605899013578892
0.1209721714258194 0.44733312726020813 0.028425494208931923
0.18023000657558441 0.45969906449317932 0.042724654078483582
0.25128665566444397 0.47229063510894775 0.053144343197345734
0.33436727523803711 0.48342445492744446 0.06029999628663063
0.42786607146263123 0.49134597182273865 0.066144578158855438
0.52947342395782471 0.49584975838661194 0.073099248111248016
0.63538950681686401 0.50084072351455688 0.083748131990432739
0 0.45413362979888916 0
0 0.46991056203842163 0
2.9021617592661642e-05 0.48891779780387878 0
0.0099660390987992287 0.50808745622634888 0
0.038160946220159531 0.52581185102462769 0.0011732063721865416
0.078039892017841339 0.54214233160018921 0.013623959384858608
0.12912070751190186 0.55766779184341431 0.031679686158895493
0.191484734416008 0.57356858253479004 0.048504535108804703
0.26538228988647461 0.58992505073547363 0.061914689838886261
0.35095489025115967 0.60490840673446655 0.071936331689357758
0.44653570652008057 0.61591440439224243 0.080696403980255127
0.549693763256073 0.62233024835586548 0.090775556862354279
0.65690320730209351 0.6280205249786377 0.10424503684043884
0 0.56452125310897827 0
0 0.58113783597946167 0
3.6995083064539358e-05 0.6016424298286438 0
0.010474245995283127 0.62241876125335693 0
0.042071893811225891 0.6418415904045105 0.001618119771592319
0.086099825799465179 0.66068947315216064 0.015342278406023979
0.14096297323703766 0.6791534423828125 0.03506031259894371
0.20639662444591522 0.69874221086502075 0.054230708628892899
0.28265967965126038 0.71914339065551758 0.070503026247024536
0.36958885192871094 0.73792707920074463 0.084096990525722504
0.4658145010471344 0.75220334529876709 0.096822269260883331
0.56963258981704712 0.76041138172149658 0.11070288717746735
0.67719215154647827 0.7661445140838623 0.12788225710391998
0 0.68301564455032349 0.00022753547818865627
0 0.70108544826507568 0
0.00079466874012723565 0.72259736061096191 0
0.016941189765930176 0.74462026357650757 6.6315893491264433e-05
0.052313875406980515 0.76542544364929199 0.0043499963358044624
0.099676869809627533 0.78662270307540894 0.021530823782086372
0.15770603716373444 0.80816233158111572 0.042542446404695511
0.22579340636730194 0.83086681365966797 0.063146106898784637
0.30378159880638123 0.85425657033920288 0.082173921167850494
0.39134976267814636 0.87610208988189697 0.099319040775299072
0.48754420876502991 0.89323598146438599 0.1160937175154686
0.59073919057846069 0.9028555154800415 0.13417574763298035
0.69848883152008057 0.90892153978347778 0.15522891283035278
0 0.00056023692013695836 0.020325006917119026
0 0.0001068115234375 0.020115422084927559
0.0033293182495981455 6.4625462982803583e-05 0.02107207290828228
0.012741582468152046 0.00034592571319080889 0.022849766537547112
0.029915798455476761 0.00027088838396593928 0.02234332449734211
0.052511595189571381 0 0.018633225932717323
0.083496332168579102 0 0.013128572143614292
0.12136414647102356 0 0.0061561884358525276
0.16770610213279724 0 0.0010769114596769214
0.22584626078605652 0 0
0.29547381401062012 0 0
0.37343993782997131 0 0
0.45797029137611389 0 0
0 0.0069041983224451542 0.017900878563523293
0 0.0068103717640042305 0.018971985206007957
0.0018689024727791548 0.0073358272202312946 0.02095336839556694
0.012261723168194294 0.0082995845004916191 0.023323927074670792
0.03055858239531517 0.0078753456473350525 0.023069074377417564
0.057079002261161804 0.0056958664208650589 0.020234186202287674
0.091393716633319855 0.0019596773199737072 0.015366303734481335
0.13212414085865021 0.00080606795381754637 0.009554215706884861
0.17944720387458801 0.0010799333686009049 0.0040232189930975437
0.23815791308879852 0.00017097323143389076 0.00049130310071632266
0.30869385600090027 0 0
0.38815882802009583 0 0
0.47387480735778809 0 0
0 0.019492758437991142 0.015750421211123466
0 0.019964555278420448 0.017355721443891525
0.00079712213482707739 0.022725183516740799 0.020021984353661537
0.011118002235889435 0.023691214621067047 0.02249176986515522
0.031160213053226471 0.024387629702687263 0.023168871179223061
0.060277469456195831 0.02280680276453495 0.020982749760150909
0.097324907779693604 0.018103266134858131 0.018626628443598747
0.14075580239295959 0.015411810949444771 0.014937307685613632
0.19135177135467529 0.01419225987046957 0.010100196115672588
0.25244075059890747 0.010423517785966396 0.0036852967459708452
0.32418683171272278 0.0054332059808075428 0.00033135508419945836
0.40535727143287659 0.0024178896564990282 0
0.49245676398277283 0.0015270906733348966 0
0 0.03856271505355835 0.012598134577274323
0 0.04094180092215538 0.014710834249854088
5.340576171875e-05 0.04516308382153511 0.018003171309828758
0.0086016785353422165 0.049162320792675018 0.020949285477399826
0.030051376670598984 0.051144946366548538 0.022418901324272156
0.060539215803146362 0.050842404365539551 0.022617176175117493
0.099794588983058929 0.047993291169404984 0.02239379845559597
0.14662201702594757 0.045107629150152206 0.020980775356292725
0.20152543485164642 0.04241383820772171 0.017036708071827888
0.26589876413345337 0.039523493498563766 0.010532678104937077
0.34038847684860229 0.034591317176818848 0.0038237329572439194
0.4230918288230896 0.029731705784797668 0.0012256248155608773
0.511649489402771 0.027916926890611649 0.0014683293411508203
0 0.065684422850608826 0.0096208164468407631
0 0.070338018238544464 0.011390446685254574
0 0.076545864343643188 0.015114249661564827
0.007763971108943224 0.082226499915122986 0.019419576972723007
0.02933165617287159 0.08687947690486908 0.022940108552575111
0.061251785606145859 0.088400930166244507 0.025444658473134041
0.10239741206169128 0.088575921952724457 0.027023015543818474
0.15175798535346985 0.087406843900680542 0.026868991553783417
0.21017655730247498 0.086213909089565277 0.024136696010828018
0.27845385670661926 0.08397693932056427 0.018660286441445351
0.35583481192588806 0.080193489789962769 0.012932242825627327
0.44095414876937866 0.076016969978809357 0.010624201036989689
0.53153383731842041 0.074873261153697968 0.013820976950228214
0 0.10227647423744202 0.0073268814012408257
0 0.10892069339752197 0.0080715855583548546
0.00025954900775104761 0.1173606738448143 0.01148611307144165
0.0092452550306916237 0.12541121244430542 0.016890671104192734
0.030745606869459152 0.1317189633846283 0.02275237999856472
0.063255399465560913 0.13608722388744354 0.027858644723892212
0.10517998784780502 0.13909557461738586 0.031705863773822784
0.15680859982967377 0.14068266749382019 0.033669505268335342
0.21840786933898926 0.14184175431728363 0.032625805586576462
0.28978687524795532 0.14149785041809082 0.029029831290245056
0.37049600481987 0.13924017548561096 0.025613149628043175
0.45858129858970642 0.13634437322616577 0.025789761915802956
0.55200505256652832 0.13594730198383331 0.030916132032871246
0 0.14921237528324127 0.0063668494112789631
0 0.15809275209903717 0.0048808678984642029
0.0016975553007796407 0.16886962950229645 0.0071213068440556526
0.012465398758649826 0.17889834940433502 0.013122603297233582
0.033631537109613419 0.18734833598136902 0.021493948996067047
0.066143348813056946 0.19421464204788208 0.029557919129729271
0.10925744473934174 0.19990590214729309 0.03637218102812767
0.16286219656467438 0.20467959344387054 0.041118726134300232
0.22687134146690369 0.20836521685123444 0.042874488979578018
0.30109617114067078 0.21018090844154358 0.042252693325281143
0.38491255044937134 0.209969162940979 0.041296835988759995
0.47646364569664001 0.20872095227241516 0.043044354766607285
0.57353770732879639 0.20969507098197937 0.049240712076425552
0 0.20742359757423401 0.0057742102071642876
0 0.2188585102558136 0.0025394514668732882
0.0030819911044090986 0.23208142817020416 0.0034944124054163694
0.014924516901373863 0.24417179822921753 0.0095241768285632133
0.036485545337200165 0.25470653176307678 0.019772129133343697
0.06966584175825119 0.26382431387901306 0.031057484447956085
0.11441749334335327 0.27180647850036621 0.041109826415777206
0.17023268342018127 0.27918511629104614 0.049171596765518188
0.2364850789308548 0.28565186262130737 0.054156016558408737
0.31339338421821594 0.29028889536857605 0.056539975106716156
0.40046107769012451 0.29266458749771118 0.058090869337320328
0.49596342444419861 0.2935146689414978 0.061021078377962112
0.59657841920852661 0.29594162106513977 0.068303517997264862
0 0.27817437052726746 0.0058065080083906651
0 0.29177743196487427 0.0018071940867230296
0.0017099417746067047 0.30726966261863708 0.0022362354211509228
0.014602436684072018 0.32162925601005554 0.0073207183741033077
0.037674173712730408 0.33442199230194092 0.018547656014561653
0.073089644312858582 0.34578242897987366 0.032287836074829102
0.12051384150981903 0.35606884956359863 0.045803338289260864
0.17877423763275146 0.36597621440887451 0.05723324790596962
0.24771702289581299 0.37567278742790222 0.065375521779060364
0.32744607329368591 0.38377359509468079 0.070713818073272705
0.41779088973999023 0.38885167241096497 0.074256643652915955
0.51725322008132935 0.39168369770050049 0.078865602612495422
0.62106204032897949 0.39535614848136902 0.08696245402097702
0 0.3627626895904541 0.0050276662223041058
0 0.37765610218048096 0.0017175113316625357
0.0001659019326325506 0.39499229192733765 0.0018906537443399429
0.010747288353741169 0.41199049353599548 0.0063061881810426712
0.037597864866256714 0.42729943990707397 0.017931755632162094
0.076125890016555786 0.4410555362701416 0.033819999545812607
