assets/lut/alexjordan film high contrast.cube
# Created by: G'MIC (https://gmic.eu)
TITLE "film_high_contrast"
# LUT size
LUT_3D_SIZE 7
# Data domain
DOMAIN_MIN 0.0 0.0 0.0
DOMAIN_MAX 1.0 1.0 1.0
# LUT data points
0.0084070991724729538 0.0070541379973292351 0.075146496295928955
0.073753923177719116 0.00029368681134656072 0.060094226151704788
0.14720256626605988 0 0.045567307621240616
0.22089876234531403 0 0.03290272131562233
0.29537537693977356 0 0.022881107404828072
0.37421932816505432 0 0.017553158104419708
0.45905366539955139 0 0.016481228172779083
0 0.055369611829519272 0.03846881166100502
0.045037753880023956 0.045902807265520096 0.0322226881980896
0.12912684679031372 0.04161376878619194 0.027557613328099251
0.21280093491077423 0.038990650326013565 0.024815203621983528
0.30059036612510681 0.041499882936477661 0.024809684604406357
0.3919643759727478 0.044899541884660721 0.032259069383144379
0.50013971328735352 0.067617006599903107 0.055714923888444901
0 0.12567102909088135 0.022391030564904213
0.038682062178850174 0.12665750086307526 0.026059841737151146
0.13741147518157959 0.13908042013645172 0.038781497627496719
0.24791733920574188 0.16020162403583527 0.061061784625053406
0.35643118619918823 0.18357944488525391 0.082717776298522949
0.47658419609069824 0.21884115040302277 0.11682862043380737
0.62026768922805786 0.27293699979782104 0.17335745692253113
0.0065212324261665344 0.25258076190948486 0.064092136919498444
0.1077418327331543 0.27983438968658447 0.092615582048892975
0.23270700871944427 0.32184907793998718 0.1338009238243103
0.37429308891296387 0.37474837899208069 0.18717165291309357
0.50854241847991943 0.42363831400871277 0.23534764349460602
0.64005941152572632 0.47063919901847839 0.28075161576271057
0.76927745342254639 0.51140099763870239 0.3221791684627533
0.12809073925018311 0.4726814329624176 0.19797345995903015
0.26795664429664612 0.52471095323562622 0.25074222683906555
0.40526303648948669 0.57827627658843994 0.30225306749343872
0.53182715177536011 0.61929804086685181 0.34310147166252136
0.65686696767807007 0.65907347202301025 0.38297411799430847
0.77380871772766113 0.69136494398117065 0.41449171304702759
0.87702983617782593 0.70731770992279053 0.43096157908439636
0.28545057773590088 0.71920168399810791 0.35559189319610596
0.41422423720359802 0.75942093133926392 0.39754897356033325
0.52983826398849487 0.78827935457229614 0.4265037477016449
0.63502669334411621 0.80697000026702881 0.44671109318733215
0.74292385578155518 0.82990384101867676 0.4699980616569519
0.84963029623031616 0.85207730531692505 0.49138405919075012
0.94907504320144653 0.86609327793121338 0.50385522842407227
0.38388934731483459 0.91036689281463623 0.4547819197177887
0.49998140335083008 0.93574118614196777 0.48455271124839783
0.59983491897583008 0.94601017236709595 0.49802377820014954
0.69424152374267578 0.95252281427383423 0.50720864534378052
0.79964137077331543 0.97225379943847656 0.52718150615692139
0.90594488382339478 0.98840802907943726 0.54732191562652588
0.99671584367752075 0.99656975269317627 0.56210362911224365
0.0071169533766806126 0.0034343944862484932 0.13857041299343109
0.073216699063777924 1.0052849575004075e-05 0.1271049827337265
0.14995422959327698 0 0.11445538699626923
0.22357065975666046 0 0.10322153568267822
0.30046349763870239 0 0.096964038908481598
0.38431820273399353 8.2576980275916867e-06 0.096503026783466339
0.47084519267082214 0.0022112827282398939 0.096661783754825592
0 0.052271511405706406 0.10455343127250671
0.045164428651332855 0.0453505739569664 0.099977187812328339
0.12899652123451233 0.041767824441194534 0.093731239438056946
0.21090298891067505 0.035541296005249023 0.089759156107902527
0.299897700548172 0.039450179785490036 0.094286583364009857
0.39482304453849792 0.051206760108470917 0.10565610229969025
0.50152558088302612 0.075249329209327698 0.12640300393104553
0 0.12927354872226715 0.095286518335342407
0.044464591890573502 0.13246691226959229 0.099799439311027527
0.14179182052612305 0.14453406631946564 0.11055123060941696
0.24800483882427216 0.16067516803741455 0.12854290008544922
0.36585980653762817 0.19064076244831085 0.16088704764842987
0.49038615822792053 0.2328285425901413 0.19916212558746338
0.63094687461853027 0.28434953093528748 0.25184440612792969
0.028605757281184196 0.27016562223434448 0.15117062628269196
0.12687823176383972 0.29717755317687988 0.17985720932483673
0.25205942988395691 0.33999896049499512 0.22133877873420715
0.38930898904800415 0.39051783084869385 0.27059775590896606
0.52665925025939941 0.44096022844314575 0.3218609094619751
0.65784239768981934 0.48857253789901733 0.36603519320487976
0.7885286808013916 0.53095865249633789 0.40841004252433777
0.15557961165904999 0.49294313788414001 0.28719380497932434
0.29040277004241943 0.54780399799346924 0.34321171045303345
0.42134609818458557 0.59457612037658691 0.38882008194923401
0.5481451153755188 0.63517540693283081 0.42917943000793457
0.66920894384384155 0.67102068662643433 0.46521803736686707
0.78385359048843384 0.70084506273269653 0.49327939748764038
0.89348560571670532 0.72306209802627563 0.51535278558731079
0.29476001858711243 0.7249111533164978 0.43115872144699097
0.42326086759567261 0.76797360181808472 0.47628512978553772
0.53630298376083374 0.79489660263061523 0.50346082448959351
0.64238446950912476 0.81375110149383545 0.52471530437469482
0.7491450309753418 0.83458125591278076 0.54680043458938599
0.85748922824859619 0.85831743478775024 0.56908160448074341
0.96134549379348755 0.87650704383850098 0.58507609367370605
0.39282089471817017 0.91560620069503784 0.53202617168426514
0.50565081834793091 0.93920290470123291 0.55933922529220581
0.60379570722579956 0.94842374324798584 0.5718543529510498
0.6988755464553833 0.95530837774276733 0.58194541931152344
0.80346763134002686 0.97369176149368286 0.60143065452575684
0.91046959161758423 0.98969489336013794 0.62200212478637695
0.9984050989151001 0.99778926372528076 0.63860231637954712
0.0082377111539244652 0.0031306247692555189 0.20571056008338928
0.073161765933036804 0 0.1957523375749588
0.15148450434207916 0 0.18448737263679504
0.22644397616386414 0 0.17516134679317474
0.30164417624473572 0 0.16686630249023438
0.38290226459503174 0 0.16299626231193542
0.47150680422782898 0 0.16463176906108856
0 0.051321022212505341 0.1744530200958252
0.040567018091678619 0.045957677066326141 0.16742268204689026
0.1289772093296051 0.042904019355773926 0.16349363327026367
0.21595612168312073 0.039501775056123734 0.16313473880290985
0.30365845561027527 0.044370777904987335 0.1674676388502121
0.40310490131378174 0.060094960033893585 0.18205191195011139
0.51561319828033447 0.079334825277328491 0.20849747955799103
0.0016235351795330644 0.13056358695030212 0.16801521182060242
0.045496847480535507 0.13801509141921997 0.17375154793262482
0.14996114373207092 0.15210409462451935 0.18752904236316681
0.2629876434803009 0.17343118786811829 0.21077786386013031
0.38333243131637573 0.20985874533653259 0.2454809695482254
0.51500779390335083 0.25601106882095337 0.2913835346698761
0.65382438898086548 0.30368545651435852 0.34311234951019287
0.048389703035354614 0.28226521611213684 0.23083047568798065
0.14233556389808655 0.31199967861175537 0.26350539922714233
0.27283421158790588 0.35779473185539246 0.30919218063354492
0.41046053171157837 0.40965461730957031 0.35900425910949707
0.54934757947921753 0.46549689769744873 0.41224738955497742
0.6807025671005249 0.51177644729614258 0.45655453205108643
0.80858314037322998 0.55016583204269409 0.49638092517852783
0.17491117119789124 0.51127886772155762 0.37310388684272766
0.30698215961456299 0.56381034851074219 0.4269053041934967
0.43976536393165588 0.61170047521591187 0.47456037998199463
0.56469357013702393 0.65113580226898193 0.51404249668121338
0.68216526508331299 0.6836581826210022 0.54604899883270264
0.79604780673980713 0.71235448122024536 0.57345759868621826
0.90706318616867065 0.73559212684631348 0.59671717882156372
0.30741935968399048 0.73711496591567993 0.51183843612670898
0.43237084150314331 0.77669072151184082 0.55306357145309448
0.54610311985015869 0.8040473461151123 0.58157867193222046
0.65382081270217896 0.82477527856826782 0.60466980934143066
0.75891965627670288 0.84361600875854492 0.62511354684829712
0.86490339040756226 0.86413687467575073 0.64475166797637939
0.96985304355621338 0.88305544853210449 0.66154253482818604
0.40082132816314697 0.92155075073242188 0.60797607898712158
0.50877600908279419 0.94105064868927002 0.6309317946434021
0.60880118608474731 0.95288562774658203 0.64551389217376709
0.70869392156600952 0.96487611532211304 0.66044449806213379
0.81088036298751831 0.97896957397460938 0.67760515213012695
0.91482281684875488 0.99135905504226685 0.69500511884689331
0.99909865856170654 0.99839156866073608 0.71128934621810913
0.0079924790188670158 0.0059320186264812946 0.27583801746368408
0.074161723256111145 2.0823759768973105e-05 0.26489964127540588
0.15128360688686371 0 0.25343155860900879
0.22485661506652832 0 0.24276484549045563
0.29938128590583801 0 0.23286259174346924
0.38468483090400696 0.00050217873649671674 0.23168852925300598
0.47991722822189331 0.0027986564673483372 0.23991374671459198
0 0.051747534424066544 0.24015483260154724
0.042508218437433243 0.045747645199298859 0.23572832345962524
0.13317695260047913 0.046601701527833939 0.23581871390342712
0.22002677619457245 0.045258015394210815 0.2368437796831131
0.30756610631942749 0.051453907042741776 0.239506796002388
0.41419214010238647 0.073735855519771576 0.26004064083099365
0.5353543758392334 0.10065931081771851 0.29537257552146912
0.00031678442610427737 0.13136294484138489 0.23426297307014465
0.053632684051990509 0.14184710383415222 0.24593451619148254
0.16180732846260071 0.16092042624950409 0.26537990570068359
0.27841758728027344 0.18933890759944916 0.29380711913108826
0.39663970470428467 0.22487488389015198 0.32655513286590576
0.53432035446166992 0.27582967281341553 0.37855082750320435
0.67515206336975098 0.32577812671661377 0.43329161405563354
0.039029680192470551 0.28623741865158081 0.3036365807056427
0.15626096725463867 0.3286089301109314 0.34856352210044861
0.29012283682823181 0.37343838810920715 0.39308926463127136
0.42753589153289795 0.42603737115859985 0.44293433427810669
0.56180179119110107 0.47808963060379028 0.49204468727111816
0.69701063632965088 0.52804732322692871 0.54137331247329712
0.82322746515274048 0.56579291820526123 0.58081185817718506
0.18585221469402313 0.53107911348342896 0.46142429113388062
0.32811653614044189 0.58682966232299805 0.51730549335479736
0.45548573136329651 0.62740248441696167 0.55837124586105347
0.57787007093429565 0.66381484270095825 0.59442877769470215
0.69511359930038452 0.69618898630142212 0.62645679712295532
0.80846774578094482 0.72339224815368652 0.65390694141387939
0.91714674234390259 0.74464434385299683 0.67564010620117188
0.32718262076377869 0.75854706764221191 0.60251569747924805
0.44513913989067078 0.78945481777191162 0.63550692796707153
0.55697071552276611 0.81414920091629028 0.66123801469802856
0.66624349355697632 0.83676069974899292 0.6846732497215271
0.77043241262435913 0.85436701774597168 0.70353692770004272
0.87147611379623413 0.86861079931259155 0.71845787763595581
0.97337448596954346 0.88439649343490601 0.73340386152267456
0.41130921244621277 0.93171602487564087 0.68818855285644531
0.51298326253890991 0.94431602954864502 0.70439422130584717
0.61364603042602539 0.95698165893554688 0.7191162109375
0.71741342544555664 0.97320115566253662 0.73751741647720337
0.81822472810745239 0.98441857099533081 0.75264197587966919
0.91771596670150757 0.99230432510375977 0.7657884955406189
0.99918264150619507 0.99800992012023926 0.77983063459396362
0.0067123710177838802 0.0030581455212086439 0.33790922164916992
0.071570530533790588 7.5396369538793806e-06 0.32859712839126587
0.14658860862255096 0 0.31887617707252502
0.21945972740650177 0 0.30619710683822632
0.29665157198905945 0 0.29745674133300781
0.38831770420074463 0.0034827138297259808 0.3021731972694397
0.48509478569030762 0.012075251899659634 0.31233850121498108
0.00030320111545734107 0.051360603421926498 0.30810290575027466
0.05118967592716217 0.045849580317735672 0.30433744192123413
0.13261532783508301 0.04513244703412056 0.30457144975662231
0.2195671945810318 0.049097351729869843 0.30669596791267395
0.31275090575218201 0.059019215404987335 0.31389778852462769
0.42270788550376892 0.083954021334648132 0.3373076319694519
0.53983926773071289 0.10990916192531586 0.36817345023155212
0.0021721783559769392 0.13850228488445282 0.31045472621917725
0.072263307869434357 0.1520334929227829 0.32453969120979309
0.17298711836338043 0.17108863592147827 0.3446868360042572
0.28882169723510742 0.20178771018981934 0.3761352002620697
0.41487696766853333 0.24202392995357513 0.41610795259475708
0.55495738983154297 0.29568800330162048 0.46991372108459473
0.69092863798141479 0.34341663122177124 0.51897066831588745
0.048059292137622833 0.30206215381622314 0.38819628953933716
0.17964032292366028 0.35218560695648193 0.43887552618980408
0.30999067425727844 0.39690876007080078 0.48303461074829102
0.44919782876968384 0.44933199882507324 0.5338515043258667
0.58169955015182495 0.49682003259658813 0.58138376474380493
0.71888238191604614 0.54933607578277588 0.63366484642028809
0.83957898616790771 0.58295881748199463 0.66727513074874878
0.2063414603471756 0.55432707071304321 0.55384832620620728
0.3446628749370575 0.60474652051925659 0.60527551174163818
0.46940043568611145 0.64339667558670044 0.6428229808807373
0.59416919946670532 0.68073439598083496 0.67912101745605469
0.70879501104354858 0.70886713266372681 0.70821475982666016
0.81983441114425659 0.73347783088684082 0.73411256074905396
0.92541253566741943 0.75270771980285645 0.75344860553741455
0.34558507800102234 0.77717816829681396 0.69112038612365723
0.45515412092208862 0.79918837547302246 0.71646583080291748
0.56568938493728638 0.8227992057800293 0.74025577306747437
0.67656826972961426 0.84712505340576172 0.76368862390518188
0.77851158380508423 0.86186909675598145 0.77927589416503906
0.87542682886123657 0.87135767936706543 0.79032796621322632
0.97401678562164307 0.88485699892044067 0.80282187461853027
0.42114132642745972 0.94148373603820801 0.7681310772895813
0.51809847354888916 0.94916427135467529 0.77991944551467896
0.62076842784881592 0.96412497758865356 0.79597967863082886
0.72512590885162354 0.97978520393371582 0.81378543376922607
0.82317721843719482 0.98769539594650269 0.82553398609161377
0.91849291324615479 0.99255102872848511 0.83436518907546997
0.99898898601531982 0.99752557277679443 0.84639447927474976
0.0015500686131417751 0 0.39136680960655212
0.064946085214614868 0 0.38787242770195007
0.14441311359405518 0.00014343261136673391 0.38540470600128174
0.22206525504589081 0.00023806703393347561 0.37685668468475342
0.29823854565620422 0 0.36664023995399475
0.39288061857223511 0.0027867634780704975 0.37437593936920166
0.48889496922492981 0.012941427528858185 0.38425964117050171
0.0001452277647331357 0.04888521134853363 0.37487667798995972
0.051568798720836639 0.048977691680192947 0.37396445870399475
0.13579480350017548 0.053329199552536011 0.37851241230964661
0.23182323575019836 0.06209196150302887 0.38837358355522156
0.3312370777130127 0.071796402335166931 0.40115201473236084
0.43994435667991638 0.095597304403781891 0.42324718832969666
0.54876422882080078 0.11888137459754944 0.44556021690368652
0.0059036402963101864 0.14802001416683197 0.38912928104400635
0.083277590572834015 0.16458967328071594 0.40383327007293701
0.18391051888465881 0.18222676217556 0.4249701201915741
0.31274831295013428 0.22248990833759308 0.46870577335357666
0.44426810741424561 0.26571360230445862 0.51447445154190063
0.57888352870941162 0.31469142436981201 0.5628853440284729
0.7043464183807373 0.35605958104133606 0.60158491134643555
0.062620185315608978 0.31666752696037292 0.47098550200462341
0.19715362787246704 0.36778992414474487 0.52215754985809326
0.32711884379386902 0.41187971830368042 0.56672424077987671
0.46524566411972046 0.46281570196151733 0.6188846230506897
0.5995604395866394 0.51088196039199829 0.66829836368560791
0.73342114686965942 0.56017535924911499 0.71677452325820923
0.85125851631164551 0.59346836805343628 0.74798440933227539
0.22219280898571014 0.56768929958343506 0.6353074312210083
0.3579978346824646 0.61561363935470581 0.68445676565170288
0.48200950026512146 0.65407419204711914 0.72229576110839844
0.60408663749694824 0.68921399116516113 0.75710457563400269
0.71858102083206177 0.7168390154838562 0.78628599643707275
0.82970094680786133 0.74203097820281982 0.81245046854019165
0.93414956331253052 0.7616201639175415 0.83068770170211792
0.35558068752288818 0.78642600774765015 0.76880264282226562
0.4670526385307312 0.81037884950637817 0.79497486352920532
0.57697820663452148 0.83385574817657471 0.81887590885162354
0.68522268533706665 0.85556870698928833 0.839915931224823
0.78464478254318237 0.86801767349243164 0.85321700572967529
0.88106554746627808 0.8773728609085083 0.86376297473907471
0.97883105278015137 0.8911316990852356 0.87586933374404907
0.43128234148025513 0.95269131660461426 0.84734469652175903
0.52813506126403809 0.96012824773788452 0.8585854172706604
0.63175857067108154 0.97536081075668335 0.87574803829193115
0.73342609405517578 0.98667532205581665 0.89058655500411987
0.82747608423233032 0.9911157488822937 0.89804548025131226
0.91874998807907104 0.99356424808502197 0.90288901329040527
0.99898898601531982 0.99814361333847046 0.91371303796768188
0 0 0.45323637127876282
0.062036819756031036 0 0.45406496524810791
0.15077939629554749 0.0027045304886996746 0.45930176973342896
0.23242262005805969 0.004589080810546875 0.45551630854606628
0.30303895473480225 0 0.44037267565727234
0.39560028910636902 0.0013666639570146799 0.44685256481170654
0.49530106782913208 0.016001876443624496 0.46042391657829285
0 0.050630293786525726 0.44849637150764465
0.061634227633476257 0.056004900485277176 0.45475113391876221
0.15733557939529419 0.072456300258636475 0.46829444169998169
0.25708666443824768 0.083285674452781677 0.48164042830467224
0.35417348146438599 0.08550339937210083 0.4927046000957489
0.46175819635391235 0.11235677450895309 0.51374721527099609
0.5678175687789917 0.14001072943210602 0.53284180164337158
0.0074687134474515915 0.16298922896385193 0.47483131289482117
0.10422590374946594 0.1872151792049408 0.49862262606620789
0.22076907753944397 0.21741649508476257 0.53078103065490723
0.34687519073486328 0.25253745913505554 0.57105052471160889
0.47220739722251892 0.28829744458198547 0.61040133237838745
0.60243469476699829 0.33619791269302368 0.65475863218307495
0.73205244541168213 0.38785150647163391 0.69728165864944458
0.078748367726802826 0.33665812015533447 0.56091654300689697
0.216612309217453 0.38849243521690369 0.61226183176040649
0.35829678177833557 0.44247519969940186 0.6665726900100708
0.48711216449737549 0.48176327347755432 0.70933371782302856
0.61303400993347168 0.5202752947807312 0.75001221895217896
0.74231892824172974 0.56654411554336548 0.79391592741012573
0.86250162124633789 0.6065678596496582 0.82749515771865845
0.24486227333545685 0.58911138772964478 0.72508615255355835
0.36660447716712952 0.62457656860351562 0.76126253604888916
0.49363487958908081 0.66491192579269409 0.80235773324966431
0.61186486482620239 0.6955341100692749 0.83364427089691162
0.72395110130310059 0.72050613164901733 0.8600267767906189
0.83415514230728149 0.7455284595489502 0.88456505537033081
0.93843227624893188 0.76759982109069824 0.9030228853225708
0.36924430727958679 0.80094289779663086 0.85024398565292358
0.47814199328422546 0.82238531112670898 0.8736690878868103
0.58596545457839966 0.84402620792388916 0.89572453498840332
0.69129890203475952 0.86258012056350708 0.91449368000030518
0.78984689712524414 0.87428414821624756 0.92695432901382446
0.88538157939910889 0.88360607624053955 0.93615013360977173
0.9822845458984375 0.89783287048339844 0.94781100749969482
0.44407904148101807 0.96835100650787354 0.92968142032623291
0.54515206813812256 0.978007972240448 0.94430756568908691
0.64477622509002686 0.98677802085876465 0.95765644311904907
0.74184679985046387 0.992786705493927 0.96788889169692993
0.83241647481918335 0.99470531940460205 0.97251665592193604
0.91942381858825684 0.99541962146759033 0.97292131185531616
0.9990193247795105 0.99904733896255493 0.98235291242599487
