assets/lut/alexjordan contrast with highlights protection.cube
# Created by: G'MIC (https://gmic.eu)
TITLE "contrast_with_highlights_protection"
# LUT size
LUT_3D_SIZE 13
# Data domain
DOMAIN_MIN 0.0 0.0 0.0
DOMAIN_MAX 1.0 1.0 1.0
# LUT data points
0 0 0
0 0 0
0 0 0
0 0 0
0 0 0
0.0028739480767399073 0.00039654900319874287 0.00075973808998242021
0.026299361139535904 0.004179591778665781 0.0044009936973452568
0.072816304862499237 0.012021083384752274 0.0093671316280961037
0.13208350539207458 0.023115435615181923 0.017963888123631477
0.19856424629688263 0.03442179411649704 0.030456079170107841
0.28710871934890747 0.041218344122171402 0.039591606706380844
0.38720044493675232 0.046067554503679276 0.04510333389043808
0.47375369071960449 0.05401470884680748 0.051352363079786301
0.00070030364440754056 0 0.0027231702115386724
2.1721334633184597e-05 2.1721334633184597e-05 0.00080240285024046898
0.0035576615482568741 0.0021937801502645016 0.00025522569194436073
0.022784050554037094 0.01079711876809597 0.0020349540282040834
0.05913938581943512 0.023848649114370346 0.0083763571456074715
0.11002373695373535 0.038076348602771759 0.015059617348015308
0.18274791538715363 0.052378695458173752 0.021773887798190117
0.25729620456695557 0.065365076065063477 0.025986853986978531
0.32946160435676575 0.076459415256977081 0.029373707249760628
0.40463072061538696 0.086116045713424683 0.035998072475194931
0.487772136926651 0.093934029340744019 0.044193238019943237
0.57818418741226196 0.10039729624986649 0.047958195209503174
0.65358912944793701 0.11049962043762207 0.05132782831788063
0.0063742692582309246 0.023660263046622276 0.0098758023232221603
0.021184720098972321 0.042465388774871826 0.0098068984225392342
0.055096779018640518 0.061644069850444794 0.0063902311958372593
0.11283501982688904 0.082958266139030457 0.0071774651296436787
0.18088734149932861 0.10044030845165253 0.010032833553850651
0.25169932842254639 0.11356481164693832 0.0094626480713486671
0.32716798782348633 0.12551538646221161 0.011873805895447731
0.40151545405387878 0.13601905107498169 0.018178123980760574
0.4763047993183136 0.14568904042243958 0.025010261684656143
0.54986697435379028 0.15575245022773743 0.034390095621347427
0.61812686920166016 0.16716207563877106 0.046989306807518005
0.69269627332687378 0.17674213647842407 0.053291499614715576
0.76908618211746216 0.1853739470243454 0.056015674024820328
0.015343026258051395 0.12910284101963043 0.0082738986238837242
0.053814053535461426 0.15399907529354095 0.0093297027051448822
0.1060849204659462 0.16813987493515015 0.0051391753368079662
0.17532762885093689 0.18144890666007996 0.001598986447788775
0.25567740201950073 0.1933516263961792 0.00065769866341724992
0.33997493982315063 0.20296435058116913 0.00050048826960846782
0.41868835687637329 0.21225015819072723 0.0018249661661684513
0.49041664600372314 0.22129777073860168 0.0083594378083944321
0.56045496463775635 0.23091764748096466 0.020701883360743523
0.62661212682723999 0.24271440505981445 0.039040718227624893
0.68564385175704956 0.25687387585639954 0.059387579560279846
0.74662083387374878 0.2695775032043457 0.074928119778633118
0.8163989782333374 0.27855882048606873 0.085583783686161041
0.019894963130354881 0.25203180313110352 0.0037893408443778753
0.0691804438829422 0.26820647716522217 0.0040131364949047565
0.13297222554683685 0.27823582291603088 0.0017234502593055367
0.20973549783229828 0.28606083989143372 6.498448783531785e-05
0.29554891586303711 0.29336655139923096 0
0.38298526406288147 0.30043983459472656 1.0052849575004075e-05
0.46372956037521362 0.30783817172050476 0.0014662051107734442
0.53578072786331177 0.31582072377204895 0.0090916650369763374
0.60362875461578369 0.32586047053337097 0.02759278193116188
0.6691475510597229 0.33808684349060059 0.054013047367334366
0.72822743654251099 0.3525250256061554 0.081397607922554016
0.78433603048324585 0.36603975296020508 0.10419373214244843
0.84566807746887207 0.37629953026771545 0.12158125638961792
0.02963104285299778 0.36213228106498718 0.0060432585887610912
0.08153080940246582 0.37451088428497314 0.0037408866919577122
0.14979748427867889 0.38262423872947693 0.0016338273417204618
0.230802983045578 0.3886587917804718 0.00036531337536871433
0.31851255893707275 0.39401322603225708 0.00037393008824437857
0.40575537085533142 0.39976099133491516 0.0019326602341607213
0.48709556460380554 0.40620782971382141 0.009130110964179039
0.56104016304016113 0.41399577260017395 0.025935005396604538
0.63085287809371948 0.42366853356361389 0.051396269351243973
0.69911503791809082 0.43535929918289185 0.081750564277172089
0.76178187131881714 0.44803497195243835 0.11036960035562515
0.82051664590835571 0.46014976501464844 0.13394168019294739
0.87950879335403442 0.46962213516235352 0.15250200033187866
0.05025806650519371 0.46014124155044556 0.022668801248073578
0.1006234735250473 0.47237229347229004 0.013611797243356705
0.16917321085929871 0.48107388615608215 0.0089330337941646576
0.25191831588745117 0.4880622923374176 0.0074639711529016495
0.33858659863471985 0.49271172285079956 0.0092870378866791725
0.4239317774772644 0.49725872278213501 0.018343651667237282
0.50491553544998169 0.50280630588531494 0.036000076681375504
0.58057636022567749 0.5099063515663147 0.059854753315448761
0.65273553133010864 0.51867210865020752 0.087471082806587219
0.72175079584121704 0.52817249298095703 0.11678969115018845
0.78633147478103638 0.53721803426742554 0.14137245714664459
0.84786689281463623 0.54704409837722778 0.16069516539573669
0.90801942348480225 0.55494517087936401 0.17710909247398376
0.081585541367530823 0.55161964893341064 0.058032464236021042
0.13202756643295288 0.56495702266693115 0.046660792082548141
0.20041550695896149 0.57620155811309814 0.040830366313457489
0.2806830108165741 0.58383244276046753 0.040690507739782333
0.36241826415061951 0.58689802885055542 0.043973300606012344
0.44238319993019104 0.5890578031539917 0.054785516113042831
0.52077645063400269 0.5926438570022583 0.072909757494926453
0.59570217132568359 0.59785020351409912 0.095679774880409241
0.66688615083694458 0.60359543561935425 0.12101172655820847
0.73378044366836548 0.60903042554855347 0.14624068140983582
0.79630023241043091 0.61326789855957031 0.163819819688797
0.8578147292137146 0.61861783266067505 0.17727406322956085
0.91972243785858154 0.62585526704788208 0.19238615036010742
0.12136361747980118 0.63703501224517822 0.10297978669404984
0.1770048588514328 0.6527332067489624 0.096635349094867706
0.24433930218219757 0.66567987203598022 0.093024246394634247
0.31565994024276733 0.67024624347686768 0.088667236268520355
0.38716080784797668 0.66964668035507202 0.086734816431999207
0.45999741554260254 0.66914612054824829 0.092098340392112732
0.53286635875701904 0.67066442966461182 0.10585517436265945
0.6039307713508606 0.6727789044380188 0.12383350729942322
0.66995865106582642 0.67277401685714722 0.1405738890171051
0.73095214366912842 0.67106622457504272 0.15450379252433777
0.78964006900787354 0.66948139667510986 0.16514402627944946
0.84971928596496582 0.67264682054519653 0.17807145416736603
0.91278910636901855 0.68046480417251587 0.196563720703125
0.16165518760681152 0.71388155221939087 0.14785793423652649
0.21891674399375916 0.72758668661117554 0.14445239305496216
0.28237950801849365 0.73756128549575806 0.13994660973548889
0.34317117929458618 0.73747849464416504 0.12951242923736572
0.40621039271354675 0.73558390140533447 0.12202371656894684
0.47236961126327515 0.73523974418640137 0.12234070897102356
0.53929871320724487 0.73543769121170044 0.12966533005237579
0.60409724712371826 0.73355311155319214 0.14000380039215088
0.66289108991622925 0.72599679231643677 0.14459055662155151
0.71771955490112305 0.71716576814651489 0.14671520888805389
0.77406901121139526 0.71328449249267578 0.15290611982345581
0.83542650938034058 0.71808403730392456 0.16973966360092163
0.90234988927841187 0.73008936643600464 0.19547201693058014
0.19748339056968689 0.78543704748153687 0.18734645843505859
0.24933601915836334 0.7908250093460083 0.18043628334999084
0.30338212847709656 0.79060983657836914 0.16993629932403564
0.35894373059272766 0.78793221712112427 0.15769690275192261
0.42075046896934509 0.79101955890655518 0.15094944834709167
0.48361295461654663 0.79437476396560669 0.14792826771736145
0.54458904266357422 0.79417401552200317 0.14758627116680145
0.60166960954666138 0.78760224580764771 0.14763875305652618
0.65443521738052368 0.77409821748733521 0.14466458559036255
0.70795136690139771 0.76341545581817627 0.14433491230010986
0.76695334911346436 0.76263254880905151 0.15299855172634125
0.83096355199813843 0.77063030004501343 0.17223714292049408
0.90035557746887207 0.78543025255203247 0.19935397803783417
0.2326153963804245 0.86117208003997803 0.22511178255081177
0.27970549464225769 0.86017495393753052 0.21502624452114105
0.32875007390975952 0.85401111841201782 0.20242851972579956
0.38239666819572449 0.84981155395507812 0.19126506149768829
0.44262963533401489 0.85392165184020996 0.18465691804885864
0.50177347660064697 0.85870170593261719 0.17768177390098572
0.55797624588012695 0.85898053646087646 0.17043130099773407
0.61124730110168457 0.85183751583099365 0.16506285965442657
0.66258949041366577 0.83759808540344238 0.16263438761234283
0.71719712018966675 0.82782864570617676 0.16500738263130188
0.77774453163146973 0.82891178131103516 0.17526786029338837
0.84219664335250854 0.83761894702911377 0.19214245676994324
0.91101664304733276 0.85172778367996216 0.21450260281562805
0.27191281318664551 0.94569289684295654 0.26488259434700012
0.31794869899749756 0.94366723299026489 0.2552909255027771
0.36720818281173706 0.93737119436264038 0.24552024900913239
0.42056182026863098 0.9321141242980957 0.23673138022422791
0.47628733515739441 0.93229448795318604 0.22754327952861786
0.53087860345840454 0.93474698066711426 0.21629811823368073
0.58341532945632935 0.93523532152175903 0.20508080720901489
0.63588380813598633 0.93054568767547607 0.19858632981777191
0.68974244594573975 0.92003864049911499 0.20084093511104584
0.745106041431427 0.91166782379150391 0.20577317476272583
0.80343014001846313 0.9106820821762085 0.21239854395389557
0.8656841516494751 0.91700929403305054 0.2237577885389328
0.93218648433685303 0.92867213487625122 0.2402806282043457
0 0 0
0 0 0
0 0 0
0 0 0
6.8933826696593314e-05 0 0
0.0068688336759805679 0.0011674768757075071 0.0021428875625133514
0.0348549485206604 0.005978049710392952 0.0092294877395033836
0.087469376623630524 0.013777400366961956 0.021288000047206879
0.15548187494277954 0.023643434047698975 0.038419939577579498
0.22742506861686707 0.033674620091915131 0.055370062589645386
0.30846574902534485 0.04241325706243515 0.06972581148147583
0.40072298049926758 0.048736110329627991 0.080627933144569397
0.49653506278991699 0.054259326308965683 0.090550921857357025
0 0 0.0012639663182199001
0.00030541513115167618 0.00077176559716463089 0.0019479489419609308
0.0061590457335114479 0.0043894750997424126 0.0032377354800701141
0.030879465863108635 0.013922448270022869 0.010664188303053379
0.074216835200786591 0.027480600401759148 0.024223087355494499
0.13199067115783691 0.041701074689626694 0.036645371466875076
0.20286205410957336 0.054637536406517029 0.04723459854722023
0.27907553315162659 0.065502360463142395 0.057260803878307343
0.35532638430595398 0.074872694909572601 0.067671693861484528
0.43010297417640686 0.084347881376743317 0.079325638711452484
0.50469446182250977 0.09466901421546936 0.090601377189159393
0.58648240566253662 0.10333850234746933 0.098374404013156891
0.66872483491897583 0.11160984635353088 0.10554712265729904
0.0068907942622900009 0.036570202559232712 0.027056315913796425
0.025066494941711426 0.052831254899501801 0.031964275985956192
0.065416641533374786 0.070585750043392181 0.034416064620018005
0.12876632809638977 0.089363545179367065 0.04095865786075592
0.19984044134616852 0.10388403385877609 0.048282608389854431
0.27394953370094299 0.11517342925071716 0.051671091467142105
0.3503839373588562 0.12558741867542267 0.055435735732316971
0.42680221796035767 0.13458624482154846 0.064842969179153442
0.50242704153060913 0.14299078285694122 0.07574193924665451
0.57246655225753784 0.15331226587295532 0.089120112359523773
0.63300091028213501 0.16667875647544861 0.10408408939838409
0.69879448413848877 0.17879915237426758 0.11437373608350754
0.77488154172897339 0.18760423362255096 0.12100698798894882
0.012883040122687817 0.14110507071018219 0.046146992594003677
0.051576681435108185 0.160600945353508 0.050391927361488342
0.11130820214748383 0.17531260848045349 0.047607272863388062
0.18669898808002472 0.1880204826593399 0.039763372391462326
0.27052950859069824 0.1969694048166275 0.036260955035686493
0.35789620876312256 0.20479145646095276 0.037995986640453339
0.4392293393611908 0.21283483505249023 0.044874273240566254
0.51385647058486938 0.22018295526504517 0.059336747974157333
0.58428448438644409 0.22859328985214233 0.07577158510684967
0.64737600088119507 0.24027669429779053 0.095925077795982361
0.69926631450653076 0.25560343265533447 0.11905042082071304
0.75195872783660889 0.27011784911155701 0.13778959214687347
0.82064461708068848 0.27984327077865601 0.14987866580486298
0.013173750601708889 0.26084122061729431 0.048774957656860352
0.062228932976722717 0.27560189366340637 0.050557512789964676
0.13009984791278839 0.28539204597473145 0.044496752321720123
0.21187390387058258 0.29266753792762756 0.033285778015851974
0.30228596925735474 0.29834800958633423 0.027567485347390175
0.39395639300346375 0.30398917198181152 0.031792793422937393
0.47861352562904358 0.30988463759422302 0.044006779789924622
0.55491518974304199 0.31624451279640198 0.062387235462665558
0.62466633319854736 0.32470050454139709 0.083655141294002533
0.68788516521453857 0.3362673819065094 0.10959708690643311
0.7421107292175293 0.35039389133453369 0.13830612599849701
0.79253190755844116 0.36444911360740662 0.16320130228996277
0.85021114349365234 0.37532287836074829 0.18205355107784271
0.019932795315980911 0.37058451771736145 0.057270530611276627
0.070734255015850067 0.38246005773544312 0.053388245403766632
0.14094160497188568 0.39028656482696533 0.046467170119285583
0.22593845427036285 0.39611360430717468 0.038635030388832092
0.31858748197555542 0.40056702494621277 0.036594003438949585
0.41027456521987915 0.40491509437561035 0.044757019728422165
0.49589461088180542 0.40963751077651978 0.061116177588701248
0.57495039701461792 0.41566970944404602 0.081886619329452515
0.6484258770942688 0.42400017380714417 0.10638607293367386
0.71572226285934448 0.43415093421936035 0.13448816537857056
0.77532058954238892 0.44515275955200195 0.16293793916702271
0.82942730188369751 0.45675823092460632 0.18807099759578705
0.88495296239852905 0.46631923317909241 0.20818297564983368
0.037996686995029449 0.46854233741760254 0.079944983124732971
0.087629310786724091 0.4803721010684967 0.070546455681324005
0.15754562616348267 0.48962080478668213 0.063414059579372406
0.24356739223003387 0.49691125750541687 0.059938244521617889
0.33473768830299377 0.50125986337661743 0.062085065990686417
0.42430216073989868 0.50458657741546631 0.073036342859268188
0.50926047563552856 0.50797742605209351 0.090858399868011475
0.58969211578369141 0.51344835758209229 0.11220764368772507
0.6655198335647583 0.52066910266876221 0.13683168590068817
0.73524767160415649 0.52801007032394409 0.1634996235370636
0.79783183336257935 0.53519469499588013 0.18862594664096832
0.85559892654418945 0.54296684265136719 0.21041424572467804
0.9123198390007019 0.54980993270874023 0.2290235310792923
0.068022981286048889 0.55916225910186768 0.11520777642726898
0.11836495250463486 0.57302850484848022 0.1046975702047348
0.18785865604877472 0.58566570281982422 0.098981909453868866
0.2715853750705719 0.59480196237564087 0.098126702010631561
0.35720372200012207 0.59757620096206665 0.10031920671463013
0.44117748737335205 0.59848105907440186 0.10897877812385559
0.5228269100189209 0.60044163465499878 0.12382520735263824
0.6016344428062439 0.603779137134552 0.14203019440174103
0.67596030235290527 0.60802227258682251 0.16289950907230377
0.7439887523651123 0.61055052280426025 0.18551379442214966
0.80560910701751709 0.61288964748382568 0.20629045367240906
0.86400169134140015 0.61632192134857178 0.22517131268978119
0.92191171646118164 0.6211472749710083 0.2431957870721817
0.10731492936611176 0.64248085021972656 0.15870040655136108
0.16188158094882965 0.6591523289680481 0.15208880603313446
0.23088946938514709 0.67489707469940186 0.14810886979103088
0.30654421448707581 0.68289607763290405 0.14412681758403778
0.38088294863700867 0.68176794052124023 0.14000976085662842
0.45625767111778259 0.67955505847930908 0.14257471263408661
0.5321614146232605 0.67947608232498169 0.15128512680530548
0.60620653629302979 0.68003851175308228 0.16328403353691101
0.67619830369949341 0.67961180210113525 0.17639628052711487
0.73931682109832764 0.67599880695343018 0.19207635521888733
0.79777443408966064 0.67319262027740479 0.20913492143154144
0.85557281970977783 0.67426079511642456 0.22848668694496155
0.9153638482093811 0.67942100763320923 0.24967333674430847
0.14718833565711975 0.71601295471191406 0.201944500207901
0.20269182324409485 0.73040997982025146 0.19702638685703278
0.26717376708984375 0.74377143383026123 0.19146107137203217
0.33303061127662659 0.74887621402740479 0.18236002326011658
0.39808216691017151 0.74660509824752808 0.1729561984539032
0.4659726619720459 0.7444300651550293 0.16928079724311829
0.53501409292221069 0.74292021989822388 0.17151962220668793
0.60264331102371216 0.74032318592071533 0.17600430548191071
0.66653072834014893 0.73443782329559326 0.18072046339511871
0.72543805837631226 0.72651046514511108 0.18907365202903748
0.78252577781677246 0.72183024883270264 0.2035340815782547
0.8416132926940918 0.7240898609161377 0.2253100723028183
0.90459537506103516 0.73223400115966797 0.25125142931938171
0.18329113721847534 0.78443318605422974 0.23979339003562927
0.23437026143074036 0.79119205474853516 0.23238781094551086
0.29089111089706421 0.79674595594406128 0.22293004393577576
0.35004901885986328 0.79847598075866699 0.21106718480587006
0.41211780905723572 0.79984259605407715 0.20122787356376648
0.47536709904670715 0.80079537630081177 0.19414167106151581
0.53819155693054199 0.79967761039733887 0.189745232462883
0.59930336475372314 0.79394835233688354 0.1884939968585968
0.65812391042709351 0.78414273262023926 0.18925647437572479
0.71579772233963013 0.77552920579910278 0.19491074979305267
0.77482694387435913 0.7731928825378418 0.20743635296821594
0.83667314052581787 0.77798926830291748 0.22809259593486786
0.90305840969085693 0.7889256477355957 0.25326448678970337
0.22029712796211243 0.86126077175140381 0.27632266283035278
0.2676314115524292 0.86289316415786743 0.26727393269538879
0.31988167762756348 0.8617737889289856 0.25716352462768555
0.37684047222137451 0.85936522483825684 0.24769395589828491
0.43637418746948242 0.8608202338218689 0.23816774785518646
0.49477508664131165 0.86337000131607056 0.22729530930519104
0.55215895175933838 0.86291921138763428 0.21834841370582581
0.60915195941925049 0.8572813868522644 0.21467189490795135
0.66718035936355591 0.84774798154830933 0.21762719750404358
0.72515678405761719 0.84003949165344238 0.2233445942401886
0.78433364629745483 0.83874577283859253 0.23114013671875
0.84670037031173706 0.84427899122238159 0.24574612081050873
0.91369098424911499 0.85529887676239014 0.26543548703193665
0.26203960180282593 0.94942724704742432 0.31631878018379211
0.30897003412246704 0.95143920183181763 0.30810847878456116
0.36092782020568848 0.9468156099319458 0.30123111605644226
0.41751927137374878 0.9405287504196167 0.29539120197296143
0.47344467043876648 0.93835693597793579 0.28523093461990356
0.52626943588256836 0.9388623833656311 0.27048945426940918
0.57954472303390503 0.9385794997215271 0.2588513195514679
0.63523191213607788 0.93468797206878662 0.25567436218261719
0.69447314739227295 0.9280019998550415 0.26254379749298096
0.75241374969482422 0.92153775691986084 0.26767054200172424
0.80863833427429199 0.91897833347320557 0.26887291669845581
0.86897891759872437 0.92267543077468872 0.27547633647918701
0.9344145655632019 0.93224573135375977 0.28900006413459778
0 0 0
0 0 0
0 0 0
0 0 0
0.0008324118098244071 0.00015707577404100448 0.00038685518666170537
0.01293207798153162 0.0029246460180729628 0.0058244592510163784
0.045680131763219833 0.0090085044503211975 0.017997518181800842
0.10402375459671021 0.01674957200884819 0.038065742701292038
0.18085744976997375 0.025341393426060677 0.062414940446615219
0.25952640175819397 0.033887960016727448 0.084629207849502563
0.33884546160697937 0.042872767895460129 0.10403451323509216
0.42854073643684387 0.049312502145767212 0.12069974094629288
0.527171790599823 0.053588837385177612 0.13585628569126129
0 0 0.0007449430413544178
0.0013096379116177559 0.0018191618146374822 0.0045088226906955242
0.011030219495296478 0.0077265421859920025 0.011718375608325005
0.03920409083366394 0.018624966964125633 0.025423940271139145
0.087942354381084442 0.032727140933275223 0.046465422958135605
0.1527177095413208 0.046494681388139725 0.068886637687683105
0.2241797149181366 0.057702083140611649 0.08505142480134964
0.30115193128585815 0.066338576376438141 0.10032236576080322
0.38291522860527039 0.073663733899593353 0.11458397656679153
0.46165463328361511 0.082231692969799042 0.12931463122367859
0.53101432323455811 0.093840219080448151 0.14329679310321808
0.60817903280258179 0.10381695628166199 0.15570865571498871
0.69155138731002808 0.1116996631026268 0.1673545241355896
0.0072177066467702389 0.040201824158430099 0.043609619140625
0.02947763167321682 0.059707537293434143 0.061203930526971817
0.074782170355319977 0.07825952023267746 0.075276561081409454
0.1392190009355545 0.094968356192111969 0.08808734267950058
0.21161022782325745 0.10651728510856628 0.10105413943529129
0.28985694050788879 0.11627461761236191 0.1121925488114357
0.36882036924362183 0.12565344572067261 0.11887610703706741
0.44821348786354065 0.13336724042892456 0.12784482538700104
0.52888911962509155 0.14025282859802246 0.13943482935428619
0.60227328538894653 0.14970675110816956 0.15368945896625519
0.65980428457260132 0.16385339200496674 0.16853271424770355
0.72110402584075928 0.17739924788475037 0.18119394779205322
0.79073500633239746 0.18809889256954193 0.19185841083526611
0.012106427922844887 0.14500810205936432 0.094268709421157837
0.050669293850660324 0.16500377655029297 0.10722336173057556
0.1135539785027504 0.18041224777698517 0.11178853362798691
0.19265143573284149 0.19179223477840424 0.11092189699411392
0.27906158566474915 0.19763988256454468 0.11204016953706741
0.36761051416397095 0.20396734774112701 0.11634811758995056
0.45206508040428162 0.21184228360652924 0.12214874476194382
0.53235268592834473 0.21846838295459747 0.13318400084972382
0.60778868198394775 0.22593775391578674 0.14748074114322662
0.67395615577697754 0.23666028678417206 0.16583023965358734
0.72701847553253174 0.25113898515701294 0.18618063628673553
0.77886044979095459 0.26596269011497498 0.20397350192070007
0.8397829532623291 0.27732148766517639 0.21743953227996826
0.011922335252165794 0.26276060938835144 0.11826732754707336
0.057398583739995956 0.27866148948669434 0.12380965054035187
0.12558761239051819 0.28945624828338623 0.12065226584672928
0.21035245060920715 0.29673373699188232 0.11274322867393494
0.30439415574073792 0.30004745721817017 0.10884848237037659
0.39897280931472778 0.30449306964874268 0.11258556693792343
0.48742100596427917 0.30991986393928528 0.1223461702466011
0.56995022296905518 0.31520634889602661 0.13783258199691772
0.64537805318832397 0.32260814309120178 0.1559939980506897
0.71121108531951904 0.33275240659713745 0.17818877100944519
0.76634746789932251 0.34530273079872131 0.20253130793571472
0.81639450788497925 0.35884568095207214 0.22470910847187042
0.8713030219078064 0.37026122212409973 0.24243287742137909
0.016538059338927269 0.37384644150733948 0.13406191766262054
0.064038597047328949 0.38608518242835999 0.13235959410667419
0.13302087783813477 0.39445739984512329 0.1263556033372879
