assets/lut/alexjordan subtle green.cube
# Created by: G'MIC (https://gmic.eu)
TITLE "subtle_green"
# LUT size
LUT_3D_SIZE 7
# Data domain
DOMAIN_MIN 0.0 0.0 0.0
DOMAIN_MAX 1.0 1.0 1.0
# LUT data points
0.017282867804169655 0.019645152613520622 0.024916375055909157
0.033777859061956406 0.029939403757452965 0.029394486919045448
0.057123716920614243 0.036478947848081589 0.038973670452833176
0.090488433837890625 0.044046394526958466 0.045030243694782257
0.15658248960971832 0.052699580788612366 0.052155319601297379
0.25588804483413696 0.056928746402263641 0.054981082677841187
0.39722746610641479 0.063331827521324158 0.064156010746955872
0.04013347253203392 0.063486166298389435 0.043078672140836716
0.068955697119235992 0.071066148579120636 0.050342004746198654
0.11367422342300415 0.079028859734535217 0.058667603880167007
0.16263735294342041 0.088295087218284607 0.070352338254451752
0.2426837831735611 0.09250970184803009 0.076395757496356964
0.34741711616516113 0.091104902327060699 0.074438177049160004
0.48408353328704834 0.093336157500743866 0.07525903731584549
0.044637162238359451 0.13911376893520355 0.044509004801511765
0.080843411386013031 0.15567737817764282 0.042664561420679092
0.16613394021987915 0.16519033908843994 0.039735201746225357
0.27853873372077942 0.16740542650222778 0.048912018537521362
0.38698837161064148 0.17532549798488617 0.073448255658149719
0.50325620174407959 0.18272556364536285 0.084831953048706055
0.64515286684036255 0.18844841420650482 0.096741542220115662
0.016297986730933189 0.27007362246513367 0.0105298962444067
0.052694912999868393 0.29493343830108643 0.0076182945631444454
0.15806283056735992 0.30973151326179504 0.010267489589750767
0.31415265798568726 0.31143638491630554 0.014155877754092216
0.49562516808509827 0.30908119678497314 0.027577942237257957
0.65606850385665894 0.31492787599563599 0.069030940532684326
0.81079697608947754 0.32345843315124512 0.11320158839225769
0.00055580888874828815 0.44406187534332275 0
0.033432994037866592 0.47527524828910828 0
0.13898313045501709 0.49738296866416931 0.0069810757413506508
0.30297636985778809 0.50800246000289917 0.015112977474927902
0.5156397819519043 0.51175546646118164 0.013616285286843777
0.76056796312332153 0.50950890779495239 0.029150225222110748
0.98334866762161255 0.5114743709564209 0.061319790780544281
0 0.66845101118087769 0.00385896279476583
0.017851617187261581 0.70465987920761108 1.6724829038139433e-05
0.10250189155340195 0.74084627628326416 0
0.26504665613174438 0.76291275024414062 5.7444853155175224e-05
0.49200177192687988 0.7758757472038269 0
0.7802814245223999 0.77526253461837769 0.00074971519643440843
0.99943578243255615 0.77244675159454346 0.045742258429527283
0.007709757424890995 0.93045759201049805 0.048146266490221024
0.021539067849516869 0.96654844284057617 0.032101813703775406
0.091189727187156677 0.99104887247085571 0.027527512982487679
0.27495601773262024 0.99759232997894287 0.076786771416664124
0.56554347276687622 0.99656343460083008 0.25914499163627625
0.86516183614730835 0.9904099702835083 0.60429799556732178
0.99797499179840088 0.99205249547958374 0.92805135250091553
0.025411119684576988 0.022389177232980728 0.035460870712995529
0.043302394449710846 0.032896451652050018 0.04416230320930481
0.067347340285778046 0.040795180946588516 0.050469700247049332
0.10122723877429962 0.048024464398622513 0.055573288351297379
0.17057619988918304 0.061399243772029877 0.069027543067932129
0.2693939208984375 0.067989632487297058 0.073402345180511475
0.41250640153884888 0.064886443316936493 0.07789350301027298
0.04593740776181221 0.064557291567325592 0.062877476215362549
0.07281600683927536 0.074144534766674042 0.073687702417373657
0.11267036199569702 0.085517361760139465 0.082847908139228821
0.16855421662330627 0.092940717935562134 0.092445239424705505
0.24980734288692474 0.097401216626167297 0.10098090022802353
0.36819559335708618 0.099781841039657593 0.10168395936489105
0.51575565338134766 0.097591400146484375 0.097681649029254913
0.047196704894304276 0.14474959671497345 0.075601272284984589
0.084076918661594391 0.16257978975772858 0.080086715519428253
0.17183466255664825 0.1723083108663559 0.082400411367416382
0.27377834916114807 0.17816191911697388 0.10230813175439835
0.37584692239761353 0.18567250669002533 0.1233072504401207
0.50512838363647461 0.19190125167369843 0.13373617827892303
0.64900022745132446 0.19730271399021149 0.13891385495662689
0.0095765655860304832 0.28137147426605225 0.0434417724609375
0.056170430034399033 0.30401533842086792 0.051342308521270752
0.16770915687084198 0.31959527730941772 0.058530095964670181
0.32157650589942932 0.32345086336135864 0.072548598051071167
0.49661672115325928 0.31992241740226746 0.094670280814170837
0.65564471483230591 0.32773274183273315 0.1317804753780365
0.79914432764053345 0.34304285049438477 0.17263580858707428
0 0.45644479990005493 0.016258105635643005
0.034788064658641815 0.487111896276474 0.029715040698647499
0.14511536061763763 0.51103627681732178 0.050184886902570724
0.31237202882766724 0.52477717399597168 0.059758864343166351
0.53039276599884033 0.52627986669540405 0.06754448264837265
0.77598762512207031 0.52391630411148071 0.079582944512367249
0.9802316427230835 0.52837294340133667 0.11892222613096237
0 0.68034279346466064 0.0005100923590362072
0.01421037595719099 0.71949994564056396 0.0067131789401173592
0.10576879233121872 0.756236732006073 0.016504503786563873
0.27415564656257629 0.78164869546890259 0.018910635262727737
0.50774282217025757 0.79268455505371094 0.033391498029232025
0.78597700595855713 0.79671174287796021 0.029906447976827621
0.99967497587203979 0.79134738445281982 0.12930218875408173
0.0021843404974788427 0.94951713085174561 0.0035151313059031963
0.010432015173137188 0.9799034595489502 0.0075030308216810226
0.093552760779857635 0.996379554271698 0.029465485364198685
0.3028925359249115 0.99991869926452637 0.11194751411676407
0.63681435585021973 0.99606567621231079 0.36627575755119324
0.9181818962097168 0.99175488948822021 0.75112169981002808
0.99844259023666382 0.99752545356750488 0.97364753484725952
0.028695005923509598 0.023695269599556923 0.055528827011585236
0.046303544193506241 0.032468356192111969 0.068813607096672058
0.083478443324565887 0.037689913064241409 0.081064067780971527
0.13685883581638336 0.045591630041599274 0.090557590126991272
0.20445390045642853 0.05758851021528244 0.09747372567653656
0.29643651843070984 0.05670204758644104 0.10172530263662338
0.43992429971694946 0.050151601433753967 0.10795392841100693
0.04597797617316246 0.066540420055389404 0.10415607690811157
0.077434077858924866 0.074608117341995239 0.12591898441314697
0.13836498558521271 0.079566076397895813 0.13861432671546936
0.20805650949478149 0.088877208530902863 0.14036639034748077
0.28698712587356567 0.096441812813282013 0.14162836968898773
0.39989581704139709 0.097807668149471283 0.14360684156417847
0.53634154796600342 0.092959538102149963 0.14026004076004028
0.043457463383674622 0.14757722616195679 0.1472017914056778
0.084669552743434906 0.16533041000366211 0.16567681729793549
0.17257185280323029 0.17587147653102875 0.17367632687091827
0.26265749335289001 0.18732976913452148 0.1850380152463913
0.36597877740859985 0.19730603694915771 0.197891965508461
0.50076615810394287 0.20429606735706329 0.20466601848602295
0.64571452140808105 0.20640857517719269 0.20418637990951538
0.0068410239182412624 0.28582555055618286 0.13720007240772247
0.058930743485689163 0.30775365233421326 0.15513592958450317
0.1710675060749054 0.32406431436538696 0.16430862247943878
0.32522541284561157 0.32901415228843689 0.18289521336555481
0.47829383611679077 0.33334219455718994 0.21495118737220764
0.62338238954544067 0.3468296229839325 0.24505309760570526
0.77513062953948975 0.36236447095870972 0.2661588191986084
0 0.46377834677696228 0.10751360654830933
0.038114927709102631 0.49440780282020569 0.13162629306316376
0.14936459064483643 0.52107256650924683 0.15390349924564362
0.32061576843261719 0.53574329614639282 0.16562919318675995
0.53915786743164062 0.53761476278305054 0.16969014704227448
0.77280431985855103 0.53512477874755859 0.21353769302368164
0.96026933193206787 0.54932034015655518 0.2607734203338623
0 0.68993794918060303 0.064355365931987762
0.017166197299957275 0.73034811019897461 0.094926975667476654
0.11194601655006409 0.76915532350540161 0.1195250004529953
0.29469999670982361 0.79113888740539551 0.14430466294288635
0.51876795291900635 0.80555611848831177 0.14584359526634216
0.80608844757080078 0.80321609973907471 0.17010857164859772
0.99984526634216309 0.80817943811416626 0.31051024794578552
0.0044818655587732792 0.95907080173492432 0.047329846769571304
0.020155513659119606 0.98571872711181641 0.079770058393478394
0.12780065834522247 0.99762409925460815 0.13882848620414734
0.34250572323799133 1 0.23227576911449432
0.66899269819259644 0.99994468688964844 0.49337318539619446
0.95687592029571533 0.99387443065643311 0.86676573753356934
0.99974775314331055 0.99956178665161133 0.99607670307159424
0.030335206538438797 0.025134382769465446 0.091604791581630707
0.047632582485675812 0.033925555646419525 0.11404891312122345
0.086807325482368469 0.037755854427814484 0.13818491995334625
0.17143882811069489 0.036715757101774216 0.1600458025932312
0.27278110384941101 0.033015068620443344 0.17327193915843964
0.3834366500377655 0.02452373132109642 0.16894391179084778
0.53254175186157227 0.023132383823394775 0.169638991355896
0.047776270657777786 0.066200986504554749 0.17278489470481873
0.076794564723968506 0.074444912374019623 0.20864668488502502
0.13810728490352631 0.078395485877990723 0.23434071242809296
0.25357767939567566 0.071874432265758514 0.24297025799751282
0.3762507438659668 0.069037295877933502 0.23747538030147552
0.49432164430618286 0.068046152591705322 0.22276028990745544
0.6152418851852417 0.071306608617305756 0.21256804466247559
0.040458168834447861 0.14802418649196625 0.26195767521858215
0.081377215683460236 0.16445912420749664 0.29514959454536438
0.17765533924102783 0.1719093918800354 0.31432217359542847
0.31907752156257629 0.16952630877494812 0.31864464282989502
0.44033128023147583 0.18240800499916077 0.29967665672302246
0.55063849687576294 0.20010173320770264 0.29089254140853882
0.68733137845993042 0.20259988307952881 0.28830289840698242
0.0076212715357542038 0.28607174754142761 0.28188371658325195
0.057564124464988708 0.30891555547714233 0.30877232551574707
0.16933645308017731 0.32379397749900818 0.32551160454750061
0.32427865266799927 0.33194398880004883 0.33214840292930603
0.4594571590423584 0.34537547826766968 0.34699606895446777
0.60397958755493164 0.36296114325523376 0.36465919017791748
0.75956088304519653 0.37719163298606873 0.37657612562179565
0.00046546786325052381 0.46724984049797058 0.25924575328826904
0.038804925978183746 0.50073331594467163 0.28438097238540649
0.15230706334114075 0.52617770433425903 0.30881187319755554
0.32468059659004211 0.53986853361129761 0.32460421323776245
0.5408632755279541 0.54377549886703491 0.33490902185440063
0.74510163068771362 0.55175662040710449 0.38629701733589172
0.9097248911857605 0.57378900051116943 0.43740928173065186
0.0030648773536086082 0.69363003969192505 0.22060389816761017
0.013229249976575375 0.74154794216156006 0.24564611911773682
0.12096087634563446 0.77883744239807129 0.27884462475776672
0.30510252714157104 0.80048102140426636 0.30721208453178406
0.52950018644332886 0.81146550178527832 0.31453394889831543
0.82329750061035156 0.81278938055038452 0.34950742125511169
0.99709898233413696 0.81884384155273438 0.48241943120956421
0.0083246864378452301 0.95958513021469116 0.20522008836269379
0.017186647281050682 0.9904550313949585 0.23371338844299316
0.16615137457847595 0.99812442064285278 0.31456694006919861
0.42702677845954895 1 0.43916669487953186
0.78134500980377197 0.99744284152984619 0.70754539966583252
0.97901248931884766 0.99559146165847778 0.94586181640625
1 1 1
0.028435321524739265 0.026722462847828865 0.15066526830196381
0.048006333410739899 0.035386446863412857 0.18473082780838013
0.08858954906463623 0.038539469242095947 0.23789450526237488
0.17089001834392548 0.030352199450135231 0.26642420887947083
0.30766665935516357 0.013142365030944347 0.3054099977016449
0.4992125928401947 0.0024775038473308086 0.32386612892150879
0.69797009229660034 0.0058294855989515781 0.30720323324203491
0.040622398257255554 0.063266724348068237 0.2776024341583252
0.070770636200904846 0.070929557085037231 0.32812961935997009
0.13238595426082611 0.073382511734962463 0.37487789988517761
0.24962776899337769 0.064374558627605438 0.40166178345680237
0.42899066209793091 0.043835286051034927 0.42342230677604675
0.631172776222229 0.028819065541028976 0.40558931231498718
0.80057156085968018 0.03662172332406044 0.37225145101547241
0.035547938197851181 0.14385199546813965 0.4359470009803772
0.076305091381072998 0.15964528918266296 0.48056083917617798
0.1672750860452652 0.16603624820709229 0.5161101222038269
0.31781703233718872 0.16284716129302979 0.52470678091049194
0.52012574672698975 0.15103304386138916 0.51658540964126587
0.69597411155700684 0.15155898034572601 0.47773340344429016
0.83874630928039551 0.16706003248691559 0.43775993585586548
0.014867520891129971 0.28125375509262085 0.48859795928001404
0.059788811951875687 0.30600693821907043 0.51857101917266846
0.16523672640323639 0.32099199295043945 0.54269969463348389
0.32554417848587036 0.32817921042442322 0.54518932104110718
0.53453701734542847 0.32354488968849182 0.53532153367996216
0.68953180313110352 0.34493353962898254 0.51367074251174927
0.84595769643783569 0.36632367968559265 0.49802294373512268
0.0077108643017709255 0.46556052565574646 0.46906039118766785
0.047477632761001587 0.49953919649124146 0.49716624617576599
0.1579241007566452 0.52502048015594482 0.52256506681442261
0.32761237025260925 0.54053765535354614 0.53829598426818848
0.54077011346817017 0.54503482580184937 0.54962325096130371
0.71659326553344727 0.56994712352752686 0.56689733266830444
0.90506243705749512 0.59175616502761841 0.58726990222930908
0.0047948798164725304 0.69594025611877441 0.43016865849494934
0.023297403007745743 0.74145656824111938 0.46507018804550171
0.13079157471656799 0.77904754877090454 0.49741217494010925
0.30908381938934326 0.80407190322875977 0.52355766296386719
0.53911364078521729 0.81817972660064697 0.53555333614349365
0.81865918636322021 0.82175588607788086 0.58163487911224365
0.99542808532714844 0.84235399961471558 0.71055561304092407
0.0055993171408772469 0.96550709009170532 0.40313589572906494
0.021991414949297905 0.99184340238571167 0.439045250415802
0.19961223006248474 0.99775481224060059 0.52160120010375977
0.49700659513473511 0.99947744607925415 0.64781183004379272
0.86573749780654907 0.9974440336227417 0.86840993165969849
0.99268388748168945 0.99895799160003662 0.98701769113540649
1 1 1
0.029738571494817734 0.029622664675116539 0.25233951210975647
0.045651067048311234 0.033151842653751373 0.29514527320861816
0.087609328329563141 0.034863699227571487 0.37069633603096008
0.17298786342144012 0.023842545226216316 0.42138373851776123
0.3286266028881073 0.0042138793505728245 0.5025709867477417
0.54153680801391602 0 0.53561866283416748
0.80460906028747559 0 0.52905368804931641
0.032652821391820908 0.057623036205768585 0.42675024271011353
0.062575213611125946 0.064323514699935913 0.50501441955566406
0.12430526316165924 0.066783875226974487 0.57677406072616577
0.24269968271255493 0.056617423892021179 0.62986475229263306
0.43043118715286255 0.03255138173699379 0.68244844675064087
0.66384327411651611 0.01567554846405983 0.66733288764953613
0.93139731884002686 0.010080494917929173 0.62923586368560791
0.024667477235198021 0.13690075278282166 0.66565525531768799
0.064168162643909454 0.15183581411838531 0.73108291625976562
0.15392613410949707 0.15893524885177612 0.78116333484649658
0.30297839641571045 0.15426895022392273 0.8054925799369812
0.51173198223114014 0.13732506334781647 0.80082964897155762
0.76682847738265991 0.11992652714252472 0.76761215925216675
0.98807156085968018 0.12130077928304672 0.70667415857315063
0.011203496716916561 0.27414780855178833 0.750294029712677
0.054468806833028793 0.29819563031196594 0.78957611322402954
0.15658557415008545 0.31532967090606689 0.81731361150741577
0.31660473346710205 0.32125994563102722 0.83167630434036255
0.53274726867675781 0.31731951236724854 0.81377452611923218
0.79598522186279297 0.30521571636199951 0.80418175458908081
0.99442362785339355 0.31128022074699402 0.75396037101745605
0.0063057695515453815 0.46057417988777161 0.73673909902572632
0.044970672577619553 0.4930824339389801 0.77420330047607422
0.15641692280769348 0.5186886191368103 0.80185776948928833
0.32718142867088318 0.53347134590148926 0.8209606409072876
0.53976470232009888 0.54323780536651611 0.82425731420516968
0.81349188089370728 0.53995019197463989 0.82165718078613281
0.9816586971282959 0.567391037940979 0.79450589418411255
0.00047885670210234821 0.69796878099441528 0.69362902641296387
0.0091637857258319855 0.74401628971099854 0.7447819709777832
0.12284865975379944 0.78089189529418945 0.78332322835922241
0.30540287494659424 0.80354911088943481 0.80681020021438599
0.53923720121383667 0.8189924955368042 0.81716519594192505
0.82150208950042725 0.82484632730484009 0.82966893911361694
0.97960776090621948 0.86930584907531738 0.87785559892654419
0.0028826994821429253 0.97157424688339233 0.65190494060516357
0.025162894278764725 0.99282008409500122 0.70126241445541382
0.24822279810905457 0.99624902009963989 0.76563650369644165
0.56944787502288818 0.99967706203460693 0.84138131141662598
0.9243200421333313 0.99567615985870361 0.96119827032089233
0.99898374080657959 0.99983501434326172 0.99888896942138672
1 1 1
0.026383299380540848 0.024078009650111198 0.38778260350227356
0.042195681482553482 0.028194248676300049 0.45292994379997253
0.089684523642063141 0.024045202881097794 0.54218918085098267
0.19175456464290619 0.010689634829759598 0.65404069423675537
0.34378799796104431 7.3242190410383046e-05 0.75003373622894287
0.55001646280288696 0 0.79523032903671265
0.83633238077163696 0 0.82363498210906982
0.027249878272414207 0.050336651504039764 0.63194781541824341
0.0527203269302845 0.054028797894716263 0.71509736776351929
0.12093445658683777 0.056104127317667007 0.80406302213668823
0.24991892278194427 0.046003036201000214 0.89935743808746338
0.42655190825462341 0.0269597377628088 0.95979738235473633
0.65349960327148438 0.018154637888073921 0.95463740825653076
0.95897948741912842 0.0057512172497808933 0.95458710193634033
0.02038656547665596 0.12605379521846771 0.93749451637268066
0.056948196142911911 0.13907758891582489 0.98879927396774292
0.14730368554592133 0.14838162064552307 0.99922585487365723
0.29850924015045166 0.14529882371425629 1
0.49870464205741882 0.13201624155044556 1
0.76146155595779419 0.11816360056400299 0.99958068132400513
0.99865239858627319 0.11130206286907196 0.98556709289550781
0.0065938164480030537 0.26837337017059326 0.99651378393173218
0.048522215336561203 0.28755074739456177 1
0.14876715838909149 0.3049197793006897 1
0.31077873706817627 0.31196433305740356 1
0.52219009399414062 0.31280988454818726 1
0.79697012901306152 0.29986831545829773 0.99992424249649048
1 0.28826895356178284 0.98926162719726562
0.00095777324168011546 0.45563104748725891 0.99714946746826172
0.034412909299135208 0.48642507195472717 1
0.14166323840618134 0.51274830102920532 1
0.31438365578651428 0.52795565128326416 1
0.53174728155136108 0.53887832164764404 1
0.80751723051071167 0.53006505966186523 0.99987506866455078
0.99526864290237427 0.51986837387084961 0.99996268749237061
0 0.69041651487350464 0.98764908313751221
0.0063939262181520462 0.73803913593292236 0.99942481517791748
0.11793193221092224 0.77730238437652588 1
0.30767673254013062 0.79841011762619019 0.99956017732620239
0.55548840761184692 0.81765484809875488 1
0.83673453330993652 0.82947784662246704 0.99860018491744995
0.99607014656066895 0.86853158473968506 0.99770599603652954
0.0077074239961802959 0.96661579608917236 0.96690529584884644
0.059496320784091949 0.98845356702804565 0.98556804656982422
0.31328859925270081 0.99552911520004272 0.98314160108566284
0.71350318193435669 0.99412363767623901 0.99515479803085327
0.95523631572723389 0.99599176645278931 0.99809771776199341
0.99997663497924805 1 1
1 1 1
