assets/lut/alexjordan conflict 01.cube
# Created by: G'MIC (https://gmic.eu)
TITLE "conflict_01"
# LUT size
LUT_3D_SIZE 13
# Data domain
DOMAIN_MIN 0.0 0.0 0.0
DOMAIN_MAX 1.0 1.0 1.0
# LUT data points
0 0 0.029975337907671928
0.015613301657140255 0.00039692298742011189 0.028279935941100121
0.079594947397708893 0.00012893676466774195 0.02352466993033886
0.1605180948972702 0 0.021303154528141022
0.24519893527030945 0 0.020892811939120293
0.33093872666358948 0 0.021592637524008751
0.41606530547142029 0 0.022093290463089943
0.50006651878356934 0 0.022093290463089943
0.58381575345993042 0 0.022484378889203072
0.66810941696166992 0 0.022728055715560913
0.75303006172180176 0 0.022576365619897842
0.8390204906463623 0 0.021417101845145226
0.92616069316864014 0 0.019388925284147263
8.6346793978009373e-05 0.011985793709754944 0.029570052400231361
0.017361436039209366 0.013111802749335766 0.02925536222755909
0.081949852406978607 0.013526617549359798 0.026522273197770119
0.16634625196456909 0.01801789179444313 0.024549297988414764
0.25160935521125793 0.016745293512940407 0.02444019727408886
0.33756420016288757 0.012513778172433376 0.024598978459835052
0.42238745093345642 0.010804584249854088 0.024632353335618973
0.50543671846389771 0.01145038940012455 0.02495027519762516
0.58844822645187378 0.012389522977173328 0.025565607473254204
0.67199254035949707 0.013142619282007217 0.026253659278154373
0.75641214847564697 0.013274547643959522 0.026438994333148003
0.84163439273834229 0.013239153660833836 0.026322308927774429
0.92847764492034912 0.013112745247781277 0.024740839377045631
4.6673944780195598e-06 0.080359935760498047 0.027709318324923515
0.01432062778621912 0.081015311181545258 0.028671190142631531
0.083327271044254303 0.080910690128803253 0.026938075199723244
0.16989733278751373 0.084057599306106567 0.026604341343045235
0.25421512126922607 0.084011688828468323 0.027382181957364082
0.34017565846443176 0.081063017249107361 0.027648027986288071
0.42521858215332031 0.079579323530197144 0.027659697458148003
0.50882065296173096 0.080512270331382751 0.027717500925064087
0.59194529056549072 0.082075051963329315 0.027838433161377907
0.67549455165863037 0.083258926868438721 0.028919490054249763
0.75957804918289185 0.083457797765731812 0.029987543821334839
0.84484034776687622 0.083457797765731812 0.030147403478622437
0.93113702535629272 0.083457797765731812 0.029159275814890862
0.00051179772708564997 0.16930633783340454 0.027262803167104721
0.021887147799134254 0.17208752036094666 0.028429262340068817
0.087435990571975708 0.17112913727760315 0.028195369988679886
0.1706298440694809 0.16944678127765656 0.029095817357301712
0.25505101680755615 0.16727225482463837 0.030114522203803062
0.34117233753204346 0.16557851433753967 0.029569214209914207
0.42646148800849915 0.16481210291385651 0.028859186917543411
0.51074022054672241 0.16397838294506073 0.029206130653619766
0.594460129737854 0.16402582824230194 0.030389135703444481
0.67834609746932983 0.16445581614971161 0.030882352963089943
0.76265603303909302 0.16493344306945801 0.031552631407976151
0.84781432151794434 0.16486577689647675 0.033059827983379364
0.9339594841003418 0.16486577689647675 0.031409125775098801
0.0017805211246013641 0.25442847609519958 0.027785357087850571
0.032882750034332275 0.25761264562606812 0.029978493228554726
0.094617806375026703 0.25682324171066284 0.030851954594254494
0.17310731112957001 0.25400283932685852 0.032242391258478165
0.25753319263458252 0.251108318567276 0.033390417695045471
0.3429940938949585 0.25054758787155151 0.032442547380924225
0.42787894606590271 0.25031772255897522 0.031249580904841423
0.51243150234222412 0.24958162009716034 0.030893243849277496
0.59665399789810181 0.24935545027256012 0.030981924384832382
0.68107032775878906 0.24915631115436554 0.032225813716650009
0.76575875282287598 0.24867050349712372 0.034553647041320801
0.85107624530792236 0.24789273738861084 0.034803923219442368
0.93744772672653198 0.24767157435417175 0.032675590366125107
0.0029360603075474501 0.33664426207542419 0.02874286100268364
0.040946751832962036 0.33912011981010437 0.03105182945728302
0.10213673859834671 0.33867144584655762 0.033819608390331268
0.17718973755836487 0.33650860190391541 0.034824788570404053
0.25958654284477234 0.33426335453987122 0.035134829580783844
0.34437203407287598 0.33381539583206177 0.034951783716678619
0.42930176854133606 0.33434531092643738 0.034708105027675629
0.51419323682785034 0.33450713753700256 0.034401673823595047
0.5990336537361145 0.33443710207939148 0.03441976010799408
0.68382495641708374 0.33426925539970398 0.034775424748659134
0.76885902881622314 0.33353647589683533 0.034803923219442368
0.85456454753875732 0.3325473964214325 0.034797504544258118
0.94118410348892212 0.33167538046836853 0.032352566719055176
0.004041619598865509 0.41766425967216492 0.029669802635908127
0.046501848846673965 0.4195382297039032 0.032568030059337616
0.10842959582805634 0.41938284039497375 0.034994777292013168
0.18100905418395996 0.41794997453689575 0.037419084459543228
0.26159274578094482 0.41700392961502075 0.03864147886633873
0.34565591812133789 0.41716259717941284 0.038416318595409393
0.43081071972846985 0.41777953505516052 0.037255365401506424
0.51619702577590942 0.41836380958557129 0.035838034003973007
0.60147082805633545 0.41864013671875 0.034884881228208542
0.6867637038230896 0.41859033703804016 0.034803923219442368
0.7721979022026062 0.41803550720214844 0.034803923219442368
0.85815495252609253 0.41701900959014893 0.034706879407167435
0.94485479593276978 0.41618704795837402 0.031965367496013641
0.0051228692755103111 0.49885267019271851 0.02997201681137085
0.051420621573925018 0.50028163194656372 0.033479921519756317
0.11390641331672668 0.5001060962677002 0.036221988499164581
0.18537460267543793 0.49925136566162109 0.038676872849464417
0.26431316137313843 0.49911266565322876 0.038891751319169998
0.34788098931312561 0.49992525577545166 0.038994524627923965
0.43311786651611328 0.50108742713928223 0.038798358291387558
0.51878899335861206 0.50196367502212524 0.038718681782484055
0.60440278053283691 0.50257080793380737 0.038080837577581406
0.68998795747756958 0.50260543823242188 0.036336846649646759
0.7756766676902771 0.50197106599807739 0.034970615059137344
0.86182796955108643 0.50129556655883789 0.03461722657084465
0.94862639904022217 0.4999631941318512 0.031779449433088303
0.0064501296728849411 0.58063578605651855 0.029698973521590233
0.056135065853595734 0.58197999000549316 0.033448223024606705
0.11965152621269226 0.58231693506240845 0.036923069506883621
0.19077184796333313 0.58234089612960815 0.038905814290046692
0.26871296763420105 0.58245682716369629 0.040548570454120636
0.35149896144866943 0.58352094888687134 0.041380833834409714
0.43638712167739868 0.58439719676971436 0.041038304567337036
0.52197694778442383 0.58487308025360107 0.039818305522203445
0.60772663354873657 0.58603143692016602 0.038863476365804672
0.69337987899780273 0.58632057905197144 0.03843066468834877
0.77930885553359985 0.58510023355484009 0.036436956375837326
0.86549854278564453 0.58474266529083252 0.034574948251247406
0.95245635509490967 0.58427822589874268 0.031779449433088303
0.0083038331940770149 0.66393125057220459 0.028899293392896652
0.061129238456487656 0.66479873657226562 0.032619372010231018
0.12578004598617554 0.66533839702606201 0.036213818937540054
0.19699288904666901 0.66573995351791382 0.038879066705703735
0.27428677678108215 0.66611099243164062 0.0408211350440979
0.35600489377975464 0.66733682155609131 0.041834931820631027
0.44041329622268677 0.66847771406173706 0.041850488632917404
0.52582186460494995 0.6688883900642395 0.041579782962799072
0.61137652397155762 0.66965043544769287 0.040203243494033813
0.6969153881072998 0.66963177919387817 0.038785763084888458
0.7828560471534729 0.66914761066436768 0.037037644535303116
0.86924469470977783 0.6687692403793335 0.034454226493835449
0.95649361610412598 0.66867470741271973 0.031517688184976578
0.010580324567854404 0.74779188632965088 0.027157353237271309
0.066225685179233551 0.74869436025619507 0.031160451471805573
0.13186320662498474 0.74966204166412354 0.034682523459196091
0.20326083898544312 0.75001978874206543 0.037778414785861969
0.27997285127639771 0.75077360868453979 0.040024880319833755
0.36108848452568054 0.75188130140304565 0.041315879672765732
0.44493833184242249 0.75266546010971069 0.041744694113731384
0.52991515398025513 0.75356084108352661 0.041500434279441833
0.61510026454925537 0.75369822978973389 0.040513865649700165
0.70055633783340454 0.75370138883590698 0.038611080497503281
0.78654015064239502 0.75362306833267212 0.036660615354776382
0.87314587831497192 0.75333207845687866 0.033678989857435226
0.96067714691162109 0.75305670499801636 0.030573900789022446
0.013307803310453892 0.83259451389312744 0.024762636050581932
0.0719175785779953 0.833568274974823 0.028871409595012665
0.13799713551998138 0.83423405885696411 0.032357953488826752
0.20961117744445801 0.83491593599319458 0.035570766776800156
0.28588622808456421 0.83589470386505127 0.037959694862365723
0.3662201464176178 0.83661562204360962 0.039732541888952255
0.44939935207366943 0.83738583326339722 0.040450271219015121
0.53381627798080444 0.83797484636306763 0.04033844918012619
0.61883163452148438 0.83812570571899414 0.039252173155546188
0.70437359809875488 0.83815199136734009 0.037342265248298645
0.79052048921585083 0.83814769983291626 0.035094615072011948
0.87749654054641724 0.83801507949829102 0.03216121718287468
0.9649927020072937 0.83801507949829102 0.0288364477455616
0.016981013119220734 0.91802430152893066 0.021262673661112785
0.077825240790843964 0.91899508237838745 0.025669831782579422
0.14475458860397339 0.91940867900848389 0.029334677383303642
0.21641512215137482 0.92076599597930908 0.032237183302640915
0.29229176044464111 0.92132353782653809 0.034707251936197281
0.37183591723442078 0.9217873215675354 0.036466963589191437
0.45409804582595825 0.92270040512084961 0.037371542304754257
0.53808361291885376 0.9229283332824707 0.037361428141593933
0.6229512095451355 0.92310571670532227 0.036515988409519196
0.70866578817367554 0.92321538925170898 0.03474673256278038
0.79506665468215942 0.92321538925170898 0.032516852021217346
0.88224858045578003 0.92321538925170898 0.029697388410568237
0.96921294927597046 0.92321538925170898 0.026115387678146362
0 0 0.10177309811115265
0.014575195498764515 0 0.099848411977291107
0.079309366643428802 0 0.096464104950428009
0.16200163960456848 0 0.094938866794109344
0.24696379899978638 0 0.095379352569580078
0.33259135484695435 0 0.096100747585296631
0.41723230481147766 0 0.096633732318878174
0.50117695331573486 0 0.096993662416934967
0.58467894792556763 0 0.097447380423545837
0.66838288307189941 0 0.09785538911819458
0.75303435325622559 0 0.09785538911819458
0.83904409408569336 0 0.097271576523780823
0.92593562602996826 0 0.094904042780399323
0 0.014480650424957275 0.10147691518068314
0.017148366197943687 0.016989180818200111 0.10078728199005127
0.086540639400482178 0.01502691488713026 0.099884495139122009
0.17140249907970428 0.014671804383397102 0.098846420645713806
0.25520774722099304 0.013304990716278553 0.099322102963924408
0.34019643068313599 0.010110458359122276 0.10004682093858719
0.42427223920822144 0.0086060464382171631 0.10020967572927475
0.50714349746704102 0.0096304947510361671 0.10025332868099213
0.58961653709411621 0.010862313210964203 0.10078269988298416
0.67291426658630371 0.011516047641634941 0.10182089358568192
0.75691968202590942 0.012953843921422958 0.10246305167675018
0.84206968545913696 0.013112745247781277 0.1024770513176918
0.92839968204498291 0.013112745247781277 0.10112953931093216
0 0.083598196506500244 0.10030520707368851
0.016663210466504097 0.083968080580234528 0.10047867894172668
0.088854186236858368 0.082357652485370636 0.10025946050882339
0.17450396716594696 0.083027616143226624 0.10092966258525848
0.25795191526412964 0.082060962915420532 0.10266392678022385
0.34344661235809326 0.079030372202396393 0.10286190360784531
0.42791399359703064 0.07784329354763031 0.10269057005643845
0.51080912351608276 0.078630872070789337 0.10332082211971283
0.59360170364379883 0.080246992409229279 0.10405281186103821
0.6767195463180542 0.081746086478233337 0.10459261387586594
0.76060777902603149 0.083243504166603088 0.10612992197275162
0.84540456533432007 0.083333335816860199 0.1068093404173851
0.93153482675552368 0.083333335816860199 0.1056506559252739
0.00014163747255224735 0.17123901844024658 0.10125198215246201
0.022839011624455452 0.17278645932674408 0.10348261147737503
0.090952210128307343 0.17184773087501526 0.10325618088245392
0.17438490688800812 0.17012414336204529 0.10486570000648499
0.2591230571269989 0.16735121607780457 0.10625429451465607
0.345051109790802 0.16577304899692535 0.10520348697900772
0.42950302362442017 0.16503739356994629 0.10429780185222626
0.51323938369750977 0.16377909481525421 0.10446349531412125
0.59635800123214722 0.16364407539367676 0.1056496724486351
0.679892897605896 0.16407367587089539 0.10754303634166718
0.76386129856109619 0.16474480926990509 0.10812518745660782
0.84873133897781372 0.16505888104438782 0.10870478302240372
0.93456792831420898 0.16488191485404968 0.1081874743103981
0.00054500804981216788 0.25623264908790588 0.10392726957798004
0.030387908220291138 0.25924268364906311 0.10563810914754868
0.095537327229976654 0.25833296775817871 0.10719709098339081
0.17639215290546417 0.25516405701637268 0.10865540057420731
0.26212862133979797 0.25156807899475098 0.10986235737800598
0.34722349047660828 0.25122144818305969 0.10886526852846146
0.43112555146217346 0.25156596302986145 0.10782609879970551
0.51497024297714233 0.25062993168830872 0.10784658044576645
0.59884345531463623 0.24975490570068359 0.10805962979793549
0.68274384737014771 0.24975432455539703 0.10812943428754807
0.76706397533416748 0.24949178099632263 0.10930719971656799
0.85206395387649536 0.24875634908676147 0.11075838655233383
0.93806010484695435 0.24804480373859406 0.10918547958135605
0.0012436063261702657 0.33808359503746033 0.10583769530057907
0.036941736936569214 0.34106701612472534 0.10838120430707932
0.10135748237371445 0.34048649668693542 0.11069332808256149
0.17910008132457733 0.33782637119293213 0.1119738295674324
0.26290911436080933 0.33572715520858765 0.11234866827726364
0.34783479571342468 0.33547493815422058 0.11201818287372589
0.43239092826843262 0.33600530028343201 0.11126592010259628
0.51672959327697754 0.3359617292881012 0.11027773469686508
0.60101503133773804 0.33593261241912842 0.10981877893209457
0.68551033735275269 0.33579707145690918 0.11009885370731354
0.77026617527008057 0.33480176329612732 0.11134377121925354
0.85554057359695435 0.33365321159362793 0.11187371611595154
0.9415772557258606 0.33253008127212524 0.10997000336647034
0.0020446029957383871 0.41890576481819153 0.10782256722450256
0.042414166033267975 0.42094159126281738 0.11103237420320511
0.10630843043327332 0.42064395546913147 0.11282356083393097
0.18102981150150299 0.41925725340843201 0.11519775539636612
0.26325580477714539 0.41819703578948975 0.1158541813492775
0.34797346591949463 0.41830059885978699 0.11547296494245529
0.43330034613609314 0.4190833568572998 0.11419539898633957
0.51850849390029907 0.41983342170715332 0.11286298185586929
0.60348010063171387 0.4203592836856842 0.11207936704158783
0.68842548131942749 0.42025056481361389 0.11200980097055435
0.77348244190216064 0.41912400722503662 0.11200980097055435
0.85896086692810059 0.41802147030830383 0.11200980097055435
0.94522196054458618 0.41689255833625793 0.11087718605995178
0.0031093521974980831 0.49987852573394775 0.10895147919654846
0.04720325767993927 0.5013929009437561 0.11223707348108292
0.11113486438989639 0.50136816501617432 0.11547286063432693
0.18418538570404053 0.50038272142410278 0.11633259057998657
0.26460984349250793 0.50023126602172852 0.11764038354158401
0.34900176525115967 0.50112295150756836 0.11763407289981842
0.43467342853546143 0.50205254554748535 0.11659085005521774
0.52041745185852051 0.50263345241546631 0.1159517914056778
0.60598385334014893 0.50287848711013794 0.1154453381896019
0.69132065773010254 0.50285375118255615 0.1144157275557518
0.77661275863647461 0.50262659788131714 0.11327887326478958
0.86240768432617188 0.50169968605041504 0.11209781467914581
0.94886451959609985 0.50065088272094727 0.11167141795158386
0.0043864231556653976 0.58160680532455444 0.10945341736078262
0.051716599613428116 0.58306360244750977 0.11316552013158798
0.11629563570022583 0.58320039510726929 0.11607353389263153
0.18869774043560028 0.58292728662490845 0.11885438859462738
0.26778140664100647 0.58328413963317871 0.1198524609208107
0.35135310888290405 0.58386754989624023 0.1198529377579689
0.43685519695281982 0.58471196889877319 0.1198413297533989
0.52291059494018555 0.58525484800338745 0.11909113824367523
0.60868972539901733 0.5858004093170166 0.11755252629518509
0.69428408145904541 0.58582723140716553 0.11616852879524231
0.77974975109100342 0.58519262075424194 0.11589282006025314
0.86564356088638306 0.58474266529083252 0.11420007050037384
0.95206707715988159 0.58434045314788818 0.11190024018287659
0.0057286578230559826 0.66449099779129028 0.10893475264310837
0.056356050074100494 0.66553741693496704 0.11317544430494308
0.12174434214830399 0.66574752330780029 0.11639279872179031
0.19386236369609833 0.66595292091369629 0.11940997093915939
0.27201956510543823 0.66692453622817993 0.1199844628572464
0.35465025901794434 0.6674504280090332 0.12074314057826996
0.43985295295715332 0.66865640878677368 0.12078437209129333
0.525593101978302 0.66870874166488647 0.1201830580830574
0.61132597923278809 0.66873985528945923 0.11984682083129883
0.69705712795257568 0.66872894763946533 0.11895605176687241
0.78271102905273438 0.66868972778320312 0.11666928231716156
0.86882275342941284 0.66868871450424194 0.11534640938043594
0.95566374063491821 0.6684841513633728 0.1124078631401062
0.0074586756527423859 0.74820190668106079 0.10758513212203979
0.06122729554772377 0.74947953224182129 0.11215636134147644
0.12714119255542755 0.74985843896865845 0.11584943532943726
0.19913974404335022 0.75043833255767822 0.11890406906604767
0.27668416500091553 0.7508014440536499 0.1202986016869545
0.35856860876083374 0.75188130140304565 0.1218561977148056
0.44307580590248108 0.75233656167984009 0.12265859544277191
0.52865046262741089 0.75281417369842529 0.12202538549900055
0.61413365602493286 0.75289905071258545 0.12057560682296753
0.69965821504592896 0.75279462337493896 0.11964941769838333
0.7856752872467041 0.75256872177124023 0.11786282062530518
0.87218606472015381 0.75240600109100342 0.11541873961687088
0.9593082070350647 0.75227707624435425 0.11228028684854507
0.0098143480718135834 0.83281189203262329 0.10506583005189896
0.06619039922952652 0.83379071950912476 0.11006385833024979
0.13275535404682159 0.83456683158874512 0.11411509662866592
0.20461970567703247 0.83500951528549194 0.11734716594219208
0.28150671720504761 0.83570259809494019 0.11956242471933365
0.36262035369873047 0.83643382787704468 0.12108031660318375
0.44639453291893005 0.83706194162368774 0.12181068956851959
0.53141981363296509 0.83728307485580444 0.1217268705368042
0.6168820858001709 0.83736789226531982 0.12078353017568588
0.70256716012954712 0.83736789226531982 0.11938431859016418
0.78884559869766235 0.83722704648971558 0.117522232234478
0.87563717365264893 0.83706915378570557 0.11460143327713013
0.96326202154159546 0.83706915378570557 0.11091019958257675
0.012783304788172245 0.91811275482177734 0.10138175636529922
0.071842119097709656 0.91899508237838745 0.10664168745279312
0.13882540166378021 0.91955107450485229 0.11111807823181152
0.21059949696063995 0.92043828964233398 0.11463823169469833
0.28699028491973877 0.92129474878311157 0.11716217547655106
0.36718025803565979 0.92139571905136108 0.11888707429170609
0.45018908381462097 0.92200732231140137 0.11972922831773758
0.53470462560653687 0.92240560054779053 0.11984493583440781
0.62015247344970703 0.92245614528656006 0.11906406283378601
0.70603245496749878 0.92245614528656006 0.11776699125766754
0.79259246587753296 0.92249411344528198 0.1155695915222168
0.87982594966888428 0.92261797189712524 0.11250002682209015
0.96711462736129761 0.92265081405639648 0.10830873996019363
0 0 0.17457006871700287
0.013913008384406567 0.00044497320777736604 0.17368359863758087
0.077127344906330109 0.00019309847266413271 0.17303583025932312
0.16020412743091583 0 0.17264844477176666
0.24571138620376587 0 0.17273128032684326
0.33157035708427429 0 0.17336352169513702
0.41640192270278931 0 0.17352941632270813
0.50046336650848389 0 0.17355221509933472
0.58419167995452881 0 0.17384332418441772
0.6683342456817627 0 0.17432905733585358
0.75303977727890015 0 0.17461320757865906
0.83907401561737061 0 0.17405171692371368
0.92586737871170044 0 0.17206251621246338
0 0.014166409149765968 0.17690971493721008
0.02166646346449852 0.019273137673735619 0.17654862999916077
0.087240390479564667 0.018936799839138985 0.1760307103395462
0.17022308707237244 0.015071315690875053 0.17579656839370728
0.25470173358917236 0.012639199383556843 0.17643970251083374
0.33964118361473083 0.0099340705201029778 0.17670710384845734
0.4235852062702179 0.0089279022067785263 0.1770225316286087
0.50677210092544556 0.0094990301877260208 0.1771179735660553
0.58969128131866455 0.010828474536538124 0.17735092341899872
0.67311376333236694 0.010846755467355251 0.17767314612865448
0.75721448659896851 0.012137544341385365 0.17835262417793274
0.84253323078155518 0.013112745247781277 0.17861054837703705
0.92892259359359741 0.013112745247781277 0.17738234996795654
0 0.083167403936386108 0.17749227583408356
0.017684696242213249 0.086524322628974915 0.17815133929252625
0.087397664785385132 0.084967233240604401 0.17782987654209137
0.17279417812824249 0.082723356783390045 0.1782958060503006
0.25872185826301575 0.080563656985759735 0.17905049026012421
0.34400966763496399 0.078507818281650543 0.17885874211788177
0.42806187272071838 0.077678292989730835 0.17833557724952698
0.51106244325637817 0.078784406185150146 0.17848731577396393
0.59404838085174561 0.080129332840442657 0.17946262657642365
0.67737609148025513 0.08124464750289917 0.18076667189598083
0.76130431890487671 0.083008080720901489 0.18141545355319977
0.84609353542327881 0.08344762772321701 0.18183617293834686
0.93203490972518921 0.083703286945819855 0.18125489354133606
0 0.16936428844928741 0.17945142090320587
0.018276378512382507 0.17262104153633118 0.18125362694263458
0.088281281292438507 0.17125056684017181 0.18127112090587616
0.1743905246257782 0.16859780251979828 0.18151122331619263
0.26090136170387268 0.16673476994037628 0.18182268738746643
0.34640252590179443 0.16524583101272583 0.18145440518856049
0.43049028515815735 0.16469123959541321 0.18136401474475861
0.51404464244842529 0.16452500224113464 0.18134607374668121
0.59739094972610474 0.16442373394966125 0.18138918280601501
0.6809314489364624 0.16475997865200043 0.18197047710418701
0.76496177911758423 0.16544920206069946 0.18361958861351013
0.84974068403244019 0.16565929353237152 0.1846277117729187
0.93552738428115845 0.16572082042694092 0.18395677208900452
0 0.254486083984375 0.18139740824699402
0.024470968171954155 0.25832709670066833 0.18294592201709747
0.09370054304599762 0.25756734609603882 0.18441405892372131
0.17788101732730865 0.25517141819000244 0.18515726923942566
0.26389327645301819 0.25340756773948669 0.18522836267948151
0.34867236018180847 0.25282102823257446 0.18469648063182831
0.43283215165138245 0.25193911790847778 0.18395587801933289
0.51645851135253906 0.25179579854011536 0.18359434604644775
0.60022711753845215 0.25093171000480652 0.18387331068515778
0.68420654535293579 0.25010669231414795 0.18468368053436279
0.76845121383666992 0.25003612041473389 0.18524535000324249
0.85328477621078491 0.2497657984495163 0.18529412150382996
0.93900030851364136 0.24914094805717468 0.18528634309768677
0.00016120461805257946 0.33733054995536804 0.18373049795627594
0.032079689204692841 0.34066757559776306 0.18563878536224365
0.10017595440149307 0.34056839346885681 0.18762694299221039
