assets/lut/alexjordan cross process cp 16.cube
# Created by: G'MIC (https://gmic.eu)
TITLE "cross_process_cp_16"
# LUT size
LUT_3D_SIZE 13
# Data domain
DOMAIN_MIN 0.0 0.0 0.0
DOMAIN_MAX 1.0 1.0 1.0
# LUT data points
0 0 0
0 0 0
0 0 0
0 0 0
0.00071536796167492867 9.1911766503471881e-05 0.00043676039786078036
0.0085986116901040077 0.0015806908486410975 0.0049623078666627407
0.028595583513379097 0.004775357898324728 0.014259607531130314
0.062769994139671326 0.0092988703399896622 0.026391811668872833
0.10821986198425293 0.015577428042888641 0.040178097784519196
0.1623765230178833 0.023865299299359322 0.056130159646272659
0.22516727447509766 0.032142668962478638 0.073378361761569977
0.29210615158081055 0.03889961913228035 0.087993830442428589
0.36140602827072144 0.043332252651453018 0.095860831439495087
0 0 0
0.0004694770323112607 0.00021458046103361994 0.00093829585239291191
0.0060866260901093483 0.0033807193394750357 0.0066605811007320881
0.0214260034263134 0.012197262607514858 0.01795654371380806
0.049277033656835556 0.026104811578989029 0.03447374701499939
0.085313968360424042 0.038540828973054886 0.051684405654668808
0.12715345621109009 0.046557273715734482 0.06629287451505661
0.17629252374172211 0.054120440036058426 0.077944785356521606
0.23367822170257568 0.061960902065038681 0.088827423751354218
0.30001839995384216 0.069469660520553589 0.10136689990758896
0.37439662218093872 0.075730070471763611 0.11386311799287796
0.45172539353370667 0.080294378101825714 0.12049435079097748
0.52674919366836548 0.083813823759555817 0.12134287506341934
0.0080697154626250267 0.019683478400111198 0.021941915154457092
0.02755553275346756 0.03476962074637413 0.038817446678876877
0.053188368678092957 0.051325585693120956 0.056027505546808243
0.085840098559856415 0.067309267818927765 0.071981169283390045
0.12592288851737976 0.082167588174343109 0.086451523005962372
0.17147587239742279 0.092970259487628937 0.099073879420757294
0.22260226309299469 0.10038802027702332 0.10878460109233856
0.28224948048591614 0.10737614333629608 0.11529392749071121
0.35120448470115662 0.1141437441110611 0.12121772021055222
0.42931205034255981 0.11993022263050079 0.12921030819416046
0.51486688852310181 0.12423112243413925 0.13582342863082886
0.60248827934265137 0.1261400431394577 0.13558682799339294
0.68288099765777588 0.12863962352275848 0.13138127326965332
0.034757263958454132 0.087718620896339417 0.077889971435070038
0.063266530632972717 0.10511784255504608 0.090864948928356171
0.097383908927440643 0.1214732900261879 0.10256989300251007
0.14015506207942963 0.13606643676757812 0.11358130723237991
0.19069650769233704 0.14771728217601776 0.12348593771457672
0.24530050158500671 0.156410813331604 0.13032831251621246
0.30530300736427307 0.16327977180480957 0.13366766273975372
0.37404769659042358 0.16949936747550964 0.1347426176071167
0.45194768905639648 0.17481927573680878 0.13578394055366516
0.53890764713287354 0.17905548214912415 0.13855686783790588
0.63256722688674927 0.18176145851612091 0.13995935022830963
0.72814959287643433 0.18199554085731506 0.13661642372608185
0.81294512748718262 0.18308207392692566 0.13076023757457733
0.042636167258024216 0.17007535696029663 0.11913996934890747
0.081215940415859222 0.1857113242149353 0.12747290730476379
0.12542724609375 0.20069816708564758 0.13301827013492584
0.17796418070793152 0.21333786845207214 0.13768859207630157
0.23759479820728302 0.22270958125591278 0.14207154512405396
0.30101007223129272 0.22999866306781769 0.14399364590644836
0.36986064910888672 0.23654447495937347 0.14333613216876984
0.44611507654190063 0.24185052514076233 0.14091998338699341
0.53030616044998169 0.24593153595924377 0.13814187049865723
0.6216692328453064 0.24945342540740967 0.13768388330936432
0.71874368190765381 0.25113371014595032 0.13737502694129944
0.81643211841583252 0.25120463967323303 0.13409093022346497
0.90197998285293579 0.25141799449920654 0.12954647839069366
0.034780405461788177 0.26341649889945984 0.14421747624874115
0.083890400826931 0.27606168389320374 0.14803476631641388
0.13849321007728577 0.28850990533828735 0.14751766622066498
0.1993865966796875 0.29848507046699524 0.14561423659324646
0.26613333821296692 0.30609878897666931 0.14441058039665222
0.33783286809921265 0.3127845823764801 0.14392247796058655
0.41484907269477844 0.31922098994255066 0.14354068040847778
0.49754667282104492 0.32452979683876038 0.14157967269420624
0.58486300706863403 0.32827171683311462 0.13872306048870087
0.67709797620773315 0.33111226558685303 0.13679978251457214
0.77285689115524292 0.33304035663604736 0.1361173689365387
0.86713385581970215 0.33307617902755737 0.1344519704580307
0.95032578706741333 0.33193635940551758 0.13161443173885345
0.024237599223852158 0.36356574296951294 0.15450207889080048
0.081205613911151886 0.3739757239818573 0.1547461599111557
0.14348243176937103 0.38327893614768982 0.15056332945823669
0.21027456223964691 0.39035525918006897 0.14414338767528534
0.28258061408996582 0.39590701460838318 0.13839152455329895
0.3610461950302124 0.40197917819023132 0.1380431056022644
0.44474270939826965 0.40848711133003235 0.14094489812850952
0.53156310319900513 0.41419956088066101 0.14266420900821686
0.62029719352722168 0.41808658838272095 0.14181086421012878
0.71072691679000854 0.42014297842979431 0.13984337449073792
0.8025050163269043 0.42087024450302124 0.13853693008422852
0.89202076196670532 0.42020449042320251 0.13723628222942352
0.97125536203384399 0.41654664278030396 0.13413187861442566
0.020858615636825562 0.46728527545928955 0.15242685377597809
0.080651931464672089 0.47568246722221375 0.15328797698020935
0.14718341827392578 0.48232871294021606 0.14961643517017365
0.21823637187480927 0.48656085133552551 0.14206565916538239
0.29374268651008606 0.48948082327842712 0.13443678617477417
0.37618342041969299 0.49399706721305847 0.13478124141693115
0.46370601654052734 0.49990516901016235 0.1408170610666275
0.55278724431991577 0.50552427768707275 0.14560139179229736
0.64106845855712891 0.50873607397079468 0.14658364653587341
0.72822809219360352 0.50941258668899536 0.14442864060401917
0.8147587776184082 0.50840336084365845 0.14172448217868805
0.89873164892196655 0.50580126047134399 0.13888150453567505
0.97467559576034546 0.49877053499221802 0.13381043076515198
0.021407227963209152 0.56921935081481934 0.14692485332489014
0.083684496581554413 0.57610738277435303 0.15055103600025177
0.15261909365653992 0.58083230257034302 0.15026286244392395
0.22636282444000244 0.58265584707260132 0.14541032910346985
0.30400773882865906 0.58303189277648926 0.13929137587547302
0.38661846518516541 0.58396190404891968 0.13851180672645569
0.47375151515007019 0.58724415302276611 0.14291194081306458
0.56215900182723999 0.59122318029403687 0.14782644808292389
0.64835083484649658 0.59272414445877075 0.14858458936214447
0.7310752272605896 0.58984071016311646 0.1444469541311264
0.81211429834365845 0.58567118644714355 0.13894711434841156
0.89096689224243164 0.58050656318664551 0.13366113603115082
0.96478641033172607 0.57049441337585449 0.12608112394809723
0.02249361015856266 0.66355991363525391 0.14344041049480438
0.087103836238384247 0.66961914300918579 0.14979447424411774
0.15796011686325073 0.67293381690979004 0.15270799398422241
0.23273757100105286 0.6729273796081543 0.15097393095493317
0.30938908457756042 0.66894173622131348 0.14525501430034637
0.38965308666229248 0.66480547189712524 0.14078719913959503
0.47283560037612915 0.66318798065185547 0.1405138373374939
0.55789124965667725 0.66349172592163086 0.14203058183193207
0.64041310548782349 0.66135179996490479 0.14047412574291229
0.71860110759735107 0.65495896339416504 0.13328935205936432
0.79509037733078003 0.6470833420753479 0.12473525851964951
0.87036025524139404 0.63886487483978271 0.11662539094686508
0.94258314371109009 0.62830048799514771 0.10803887993097305
0.020990423858165741 0.74669343233108521 0.14130452275276184
0.086792841553688049 0.75148868560791016 0.14750562608242035
0.15841309726238251 0.75329029560089111 0.15139420330524445
0.2325395792722702 0.75047701597213745 0.15068288147449493
0.30627655982971191 0.74146139621734619 0.1428375244140625
0.38128608465194702 0.73114138841629028 0.13364385068416595
0.45901653170585632 0.72356784343719482 0.12765608727931976
0.53852647542953491 0.71797776222229004 0.12331657856702805
0.61640799045562744 0.71167576313018799 0.1176282986998558
0.69181358814239502 0.70308244228363037 0.10888531059026718
0.76618367433547974 0.69406282901763916 0.099260486662387848
0.84014922380447388 0.685080885887146 0.090501405298709869
0.91218191385269165 0.67561149597167969 0.082346551120281219
0.016097454354166985 0.81878417730331421 0.13429954648017883
0.080474063754081726 0.82081782817840576 0.1388663649559021
0.15052548050880432 0.81858748197555542 0.1402340829372406
0.22168488800525665 0.81125771999359131 0.13704679906368256
0.2921653687953949 0.79808920621871948 0.12697327136993408
0.36312741041183472 0.78355532884597778 0.11456014961004257
0.4359649121761322 0.77105540037155151 0.10398456454277039
0.50933152437210083 0.75979208946228027 0.094396598637104034
0.58251088857650757 0.74953025579452515 0.084848247468471527
0.65652191638946533 0.74052155017852783 0.075471855700016022
0.73105734586715698 0.73245936632156372 0.066964484751224518
0.80467629432678223 0.72506856918334961 0.059243686497211456
0.87741535902023315 0.71764439344406128 0.052450772374868393
0.0093402937054634094 0.880973219871521 0.12030931562185287
0.068249888718128204 0.87946373224258423 0.12232812494039536
0.13567937910556793 0.87271887063980103 0.12031400948762894
0.20347389578819275 0.86082971096038818 0.11327767372131348
0.27078309655189514 0.84453397989273071 0.10120496898889542
0.3386167585849762 0.82738566398620605 0.087391212582588196
0.40746310353279114 0.81189149618148804 0.074051231145858765
0.4765809178352356 0.7974402904510498 0.061324503272771835
0.5466533899307251 0.78457456827163696 0.049284528940916061
0.61962610483169556 0.77559638023376465 0.040138587355613708
0.69378888607025146 0.76906400918960571 0.032798841595649719
0.76858484745025635 0.76334595680236816 0.026759892702102661
0.8416907787322998 0.75799548625946045 0.02111237496137619
0 0 0
0 0 0
0 0 0
0 0 0
0.0016913320869207382 1.4361213516167481e-06 0.0014057233929634094
0.012442165985703468 0.001586973899975419 0.009523085318505764
0.035867311060428619 0.0056230584159493446 0.023909550160169601
0.073697231709957123 0.01125310268253088 0.041017539799213409
0.1206190213561058 0.018880164250731468 0.056641042232513428
0.17613723874092102 0.02789459191262722 0.071822404861450195
0.24021294713020325 0.035512436181306839 0.087408237159252167
0.31165856122970581 0.040616054087877274 0.10309798270463943
0.38620179891586304 0.042897019535303116 0.11433795094490051
2.1721334633184597e-05 0 2.1721334633184597e-05
0.0018068948993459344 0.00072437361814081669 0.0026814627926796675
0.0096450056880712509 0.004695503506809473 0.011235808953642845
0.026919988915324211 0.013174288906157017 0.024879515171051025
0.056450996547937393 0.025521043688058853 0.043771274387836456
0.093780741095542908 0.038751579821109772 0.063717812299728394
0.13707275688648224 0.048563294112682343 0.081112474203109741
0.18760776519775391 0.057023409754037857 0.095649957656860352
0.24649856984615326 0.064964830875396729 0.10849389433860779
0.314748615026474 0.072058297693729401 0.12081167101860046
0.39152279496192932 0.077248230576515198 0.13203400373458862
0.47377112507820129 0.08044762909412384 0.1405428946018219
0.55323278903961182 0.08232453465461731 0.14512592554092407
0.013423964381217957 0.026636743918061256 0.030663508921861649
0.03324439749121666 0.04198068380355835 0.049999579787254333
0.059283822774887085 0.057071026414632797 0.069105766713619232
0.09271056205034256 0.071951188147068024 0.085420124232769012
0.13336557149887085 0.085459567606449127 0.1003643125295639
0.17995631694793701 0.095733076333999634 0.11487144231796265
0.23239631950855255 0.10350477695465088 0.12695474922657013
0.29318538308143616 0.11041394621133804 0.13652224838733673
0.36353626847267151 0.11680130660533905 0.145144984126091
0.44368937611579895 0.12175688147544861 0.15346875786781311
0.53227353096008301 0.12475340813398361 0.15965819358825684
0.62405234575271606 0.12527716159820557 0.16199399530887604
0.70807546377182007 0.12746714055538177 0.16172325611114502
0.037423871457576752 0.097217097878456116 0.092393107712268829
0.06530887633562088 0.11397065967321396 0.10696040093898773
0.10125820338726044 0.12898676097393036 0.12116648256778717
0.14588092267513275 0.14324009418487549 0.13258709013462067
0.19703139364719391 0.15411002933979034 0.14234721660614014
0.25251656770706177 0.16118870675563812 0.15079057216644287
0.31390362977981567 0.16716626286506653 0.15640765428543091
0.38331496715545654 0.17255045473575592 0.16009536385536194
0.46235555410385132 0.17731259763240814 0.16342313587665558
0.55083739757537842 0.18095138669013977 0.16704903542995453
0.64715814590454102 0.18266434967517853 0.16931930184364319
0.74473851919174194 0.18276029825210571 0.16902561485767365
0.83162850141525269 0.18391664326190948 0.16710320115089417
0.043612163513898849 0.17841422557830811 0.13974994421005249
0.081705160439014435 0.19372883439064026 0.1491779088973999
0.12756595015525818 0.20824028551578522 0.15623138844966888
0.18183343112468719 0.22058437764644623 0.16166862845420837
0.24213127791881561 0.22929254174232483 0.16615913808345795
0.30661249160766602 0.23516128957271576 0.16907766461372375
0.3763795793056488 0.24042388796806335 0.17019516229629517
0.45302492380142212 0.24496577680110931 0.16960729658603668
0.53732949495315552 0.24862381815910339 0.1689085066318512
0.62957900762557983 0.25122565031051636 0.16890910267829895
0.72850883007049561 0.25318291783332825 0.1694476306438446
0.82765728235244751 0.25349640846252441 0.16864477097988129
0.91523301601409912 0.25402778387069702 0.16776961088180542
0.035145808011293411 0.27023854851722717 0.16938763856887817
0.083215393126010895 0.28298652172088623 0.173823282122612
0.13853819668292999 0.29506391286849976 0.17485880851745605
0.20115451514720917 0.3046843409538269 0.1744702011346817
0.26928859949111938 0.31170803308486938 0.17351983487606049
0.34220874309539795 0.31735384464263916 0.1732533723115921
0.41972386837005615 0.3227078914642334 0.173518106341362
0.50208544731140137 0.32742476463317871 0.17255382239818573
0.58896780014038086 0.33059167861938477 0.1698872298002243
0.68048018217086792 0.33260485529899597 0.16767014563083649
0.77835577726364136 0.33397641777992249 0.16814504563808441
0.87566488981246948 0.33479073643684387 0.16889768838882446
0.96197295188903809 0.33415466547012329 0.16935370862483978
0.022509137168526649 0.36976248025894165 0.18288739025592804
0.077607281506061554 0.37992134690284729 0.18360286951065063
0.14064829051494598 0.38903963565826416 0.18101294338703156
0.2100188285112381 0.39581531286239624 0.17652781307697296
0.28461399674415588 0.40082308650016785 0.17263461649417877
0.3642420768737793 0.4059964120388031 0.17221330106258392
0.44818353652954102 0.41183018684387207 0.17407330870628357
0.53487741947174072 0.41711130738258362 0.175336554646492
0.62262117862701416 0.42021355032920837 0.17363186180591583
0.71201211214065552 0.42133441567420959 0.1702733188867569
0.80542343854904175 0.42209413647651672 0.1696247011423111
0.89859914779663086 0.4215857982635498 0.17118334770202637
0.97986650466918945 0.41840794682502747 0.17164908349514008
0.015717016533017159 0.47275456786155701 0.18534044921398163
0.073561377823352814 0.48091596364974976 0.18535560369491577
0.14168752729892731 0.48723003268241882 0.18247169256210327
0.21614725887775421 0.49136197566986084 0.17722083628177643
0.29491931200027466 0.49418669939041138 0.17221851646900177
0.37873086333274841 0.49800214171409607 0.17225244641304016
0.46660402417182922 0.50345528125762939 0.1765858381986618
0.55569446086883545 0.50878965854644775 0.18062971532344818
0.64316838979721069 0.51142066717147827 0.18046444654464722
0.72964954376220703 0.51085638999938965 0.17682026326656342
0.81727081537246704 0.5092848539352417 0.17370223999023438
0.90382879972457886 0.50589871406555176 0.17212922871112823
0.98137879371643066 0.49903929233551025 0.16902156174182892
0.014930066652595997 0.57425457239151001 0.18407697975635529
0.07503027468919754 0.58078068494796753 0.18600364029407501
0.14580084383487701 0.58483964204788208 0.18491989374160767
0.22258071601390839 0.58642423152923584 0.18104307353496552
0.30332395434379578 0.58641344308853149 0.17676237225532532
0.38811174035072327 0.58734315633773804 0.17596481740474701
0.47631293535232544 0.59067565202713013 0.18012601137161255
0.5650181770324707 0.59423118829727173 0.18389864265918732
0.65081483125686646 0.59482765197753906 0.18385224044322968
0.73320984840393066 0.5913311243057251 0.17859789729118347
0.8143608570098877 0.58571553230285645 0.17182806134223938
0.89409661293029785 0.5787428617477417 0.16615791618824005
0.97042334079742432 0.56919747591018677 0.15988220274448395
0.016335431486368179 0.66880857944488525 0.18487849831581116
0.079036504030227661 0.67396295070648193 0.18748019635677338
0.15080069005489349 0.67584264278411865 0.18831688165664673
0.22773405909538269 0.67454695701599121 0.18573854863643646
0.30735602974891663 0.67054790258407593 0.18086810410022736
0.38985481858253479 0.6665993332862854 0.17788578569889069
0.47477051615715027 0.66563087701797485 0.17766730487346649
0.56000316143035889 0.66527116298675537 0.17886872589588165
0.64250731468200684 0.66244626045227051 0.17600895464420319
0.72032719850540161 0.65508145093917847 0.16757781803607941
0.79637783765792847 0.64581561088562012 0.15755823254585266
0.87230849266052246 0.63625562191009521 0.14881300926208496
0.94690638780593872 0.62578034400939941 0.14107504487037659
0.016363151371479034 0.75261491537094116 0.18420551717281342
0.08025563508272171 0.75552487373352051 0.18709009885787964
0.15165078639984131 0.75466811656951904 0.18766744434833527
0.22660598158836365 0.74958157539367676 0.18406026065349579
0.3028627336025238 0.74048173427581787 0.17639926075935364
0.38038128614425659 0.73120415210723877 0.1686394214630127
0.46029365062713623 0.7243274450302124 0.16355134546756744
0.54038828611373901 0.71884745359420776 0.15955273807048798
0.61786675453186035 0.71180981397628784 0.15279053151607513
0.69247806072235107 0.70197409391403198 0.1426672488451004
0.766277015209198 0.69123035669326782 0.13141851127147675
0.84040147066116333 0.68125545978546143 0.12203796952962875
0.91454249620437622 0.6719849705696106 0.11475475877523422
0.013544867746531963 0.82485705614089966 0.17820367217063904
0.07577408105134964 0.82475942373275757 0.17995119094848633
0.14515167474746704 0.81976723670959473 0.17770624160766602
0.21638867259025574 0.8095172643661499 0.17094507813453674
0.28828549385070801 0.79524314403533936 0.15984517335891724
0.36104950308799744 0.78105604648590088 0.14815057814121246
0.43581396341323853 0.76965534687042236 0.13858212530612946
0.51050013303756714 0.75968116521835327 0.12984864413738251
0.58409029245376587 0.74926483631134033 0.12002053111791611
0.65689569711685181 0.73869842290878296 0.10916239768266678
0.73022180795669556 0.72867000102996826 0.098897106945514679
0.80434644222259521 0.72008895874023438 0.090581305325031281
0.87855017185211182 0.71320998668670654 0.084634937345981598
0.0080523174256086349 0.88678139448165894 0.1644403338432312
0.06513715535402298 0.88287270069122314 0.16382977366447449
0.13191767036914825 0.87348437309265137 0.15859811007976532
0.19933854043483734 0.85892283916473389 0.14843882620334625
0.26689687371253967 0.84048700332641602 0.13432253897190094
0.33590811491012573 0.82294058799743652 0.1200333833694458
0.40655684471130371 0.80880832672119141 0.107819564640522
0.47747859358787537 0.79614627361297607 0.096142753958702087
0.54827654361724854 0.78391629457473755 0.084480732679367065
0.62022155523300171 0.77351325750350952 0.07401932030916214
0.69341623783111572 0.76507973670959473 0.065180115401744843
0.76803743839263916 0.75837820768356323 0.058496963232755661
0.84295159578323364 0.75355058908462524 0.053803730756044388
0 0 0
0 0 0
0 0 0
1.6156365745700896e-05 0 1.6156365745700896e-05
0.0033498576376587152 1.4361213288793806e-05 0.0028898350428789854
0.017345713451504707 0.0018751855241134763 0.014565382152795792
0.04532928392291069 0.0067410785704851151 0.03385886549949646
0.086270183324813843 0.013737008906900883 0.054187744855880737
0.13474859297275543 0.022589350119233131 0.07175801694393158
0.1910976767539978 0.031616032123565674 0.086552985012531281
0.25605103373527527 0.038560830056667328 0.10038969665765762
0.33007049560546875 0.042631890624761581 0.11670997738838196
0.40748444199562073 0.044361412525177002 0.13079617917537689
0.00037288290332071483 4.5417335059028119e-05 0.00026641547447070479
0.0038331274408847094 0.0015866447938606143 0.0048591615632176399
0.013213003985583782 0.0063453675247728825 0.016104783862829208
0.032536990940570831 0.014517346397042274 0.031692162156105042
0.06363784521818161 0.026367995887994766 0.052162468433380127
0.10264768451452255 0.04012623056769371 0.074737682938575745
0.14788749814033508 0.051245804876089096 0.095164217054843903
0.19973765313625336 0.060533709824085236 0.11238400638103485
0.25998044013977051 0.068687289953231812 0.1274116188287735
0.32925853133201599 0.075431331992149353 0.14006185531616211
0.40743571519851685 0.079778648912906647 0.15010856091976166
0.49205324053764343 0.081521131098270416 0.15959841012954712
0.5745663046836853 0.082426346838474274 0.16723731160163879
0.02034962922334671 0.032979972660541534 0.039129909127950668
0.039934691041707993 0.047578040510416031 0.060878321528434753
0.06527072936296463 0.061824396252632141 0.082131706178188324
0.099268011748790741 0.075774908065795898 0.099097982048988342
0.14081895351409912 0.088379800319671631 0.11507828533649445
0.18854138255119324 0.098717093467712402 0.13092315196990967
0.24236778914928436 0.10712476074695587 0.14501564204692841
0.30422571301460266 0.11447318643331528 0.15733940899372101
0.37539377808570862 0.12062090635299683 0.16870149970054626
0.45612597465515137 0.12524835765361786 0.17831110954284668
0.54565906524658203 0.12734350562095642 0.18416260182857513
0.63974058628082275 0.1273961067199707 0.18809545040130615
0.72718024253845215 0.12807346880435944 0.19082058966159821
0.042024664580821991 0.10409936308860779 0.10747651010751724
0.070435531437397003 0.12030137330293655 0.12413494288921356
0.10660446435213089 0.13504254817962646 0.14000533521175385
0.15206807851791382 0.14797386527061462 0.15302306413650513
0.20408427715301514 0.1581842452287674 0.16354528069496155
0.26020392775535583 0.16544452309608459 0.17229299247264862
0.32205814123153687 0.17148394882678986 0.17943108081817627
0.39192268252372742 0.17687499523162842 0.18572518229484558
0.47096523642539978 0.18154065310955048 0.19161488115787506
0.55972874164581299 0.18481168150901794 0.1968214362859726
0.65595173835754395 0.18612277507781982 0.20007072389125824
0.75440257787704468 0.1859932541847229 0.2018962949514389
0.84261882305145264 0.18708503246307373 0.20300665497779846
0.046086166054010391 0.18593072891235352 0.15974338352680206
0.084692187607288361 0.20090170204639435 0.17069467902183533
0.13117450475692749 0.21488341689109802 0.18003745377063751
0.18649183213710785 0.22626848518848419 0.18740743398666382
0.24782842397689819 0.23413525521755219 0.19286727905273438
0.31253209710121155 0.23977963626384735 0.19607417285442352
0.38237500190734863 0.24471354484558105 0.19821059703826904
0.45879298448562622 0.24933657050132751 0.19968186318874359
0.54269099235534668 0.2530302107334137 0.2007707953453064
0.63433384895324707 0.25546562671661377 0.20197747647762299
0.73289966583251953 0.25708144903182983 0.20385904610157013
0.83191204071044922 0.25799709558486938 0.20624250173568726
0.9203563928604126 0.25894099473953247 0.20743513107299805
0.036578953266143799 0.27771458029747009 0.19284762442111969
0.084154315292835236 0.29003629088401794 0.19911549985408783
