assets/lut/alexjordan cross process cp 06.cube
# Created by: G'MIC (https://gmic.eu)
TITLE "cross_process_cp_6"
# LUT size
LUT_3D_SIZE 13
# Data domain
DOMAIN_MIN 0.0 0.0 0.0
DOMAIN_MAX 1.0 1.0 1.0
# LUT data points
0.023890268057584763 0.020288804545998573 0.035643842071294785
0.036354422569274902 0.02869180403649807 0.053367704153060913
0.051879327744245529 0.03794403001666069 0.073266573250293732
0.072330251336097717 0.047955889254808426 0.094955384731292725
0.098594292998313904 0.058254212141036987 0.11570779979228973
0.13241222500801086 0.069706067442893982 0.13564351201057434
0.17417562007904053 0.08218161016702652 0.15390843152999878
0.22290630638599396 0.093095950782299042 0.17042604088783264
0.27380263805389404 0.10124924778938293 0.1839580237865448
0.32459825277328491 0.10823627561330795 0.19467455148696899
0.38540181517601013 0.11657042801380157 0.21045102179050446
0.44777670502662659 0.1239393949508667 0.22748982906341553
0.49851864576339722 0.1280180811882019 0.23736792802810669
0.064716413617134094 0.062912449240684509 0.100338414311409
0.082765378057956696 0.075003936886787415 0.12288233637809753
0.10501305013895035 0.088458925485610962 0.14642779529094696
0.13319182395935059 0.10121818631887436 0.16859832406044006
0.16798463463783264 0.11253536492586136 0.18747124075889587
0.2113649845123291 0.1235651969909668 0.20442111790180206
0.26475352048873901 0.13593459129333496 0.21909886598587036
0.32511717081069946 0.14633280038833618 0.23151741921901703
0.38337379693984985 0.15396147966384888 0.23721298575401306
0.43785968422889709 0.16090480983257294 0.23847039043903351
0.49459630250930786 0.16810412704944611 0.24328067898750305
0.54421699047088623 0.1732117086648941 0.24693524837493896
0.58105117082595825 0.17495404183864594 0.24631239473819733
0.10454762727022171 0.1145465150475502 0.16662348806858063
0.12703573703765869 0.13194188475608826 0.19147193431854248
0.15269412100315094 0.15024641156196594 0.21241351962089539
0.18529458343982697 0.16441042721271515 0.22903183102607727
0.22519893944263458 0.1756700724363327 0.23889608681201935
0.27293875813484192 0.18455678224563599 0.24570275843143463
0.32955333590507507 0.19327560067176819 0.25079536437988281
0.39162424206733704 0.1995069831609726 0.25412771105766296
0.45016771554946899 0.20366916060447693 0.25048530101776123
0.50272053480148315 0.20778116583824158 0.24267628788948059
0.55335813760757446 0.21116676926612854 0.23854516446590424
0.59247666597366333 0.21349349617958069 0.23302878439426422
0.62397634983062744 0.2151343822479248 0.22986641526222229
0.137295201420784 0.1852305680513382 0.22203679382801056
0.16038636863231659 0.20405896008014679 0.24239115417003632
0.1857108473777771 0.22484976053237915 0.25530263781547546
0.21890555322170258 0.23682059347629547 0.26053944230079651
0.26100033521652222 0.24367751181125641 0.25830647349357605
0.30909278988838196 0.24926070868968964 0.25265330076217651
0.36116087436676025 0.25090780854225159 0.2458340972661972
0.41707423329353333 0.25036993622779846 0.2386508584022522
0.4718690812587738 0.24931679666042328 0.22899524867534637
0.52194333076477051 0.24914132058620453 0.2175363153219223
0.56970310211181641 0.24889706075191498 0.21096831560134888
0.61064451932907104 0.24902114272117615 0.20667976140975952
0.64984577894210815 0.25380715727806091 0.20988667011260986
0.15154346823692322 0.26561754941940308 0.24951855838298798
0.17147558927536011 0.28066807985305786 0.25822335481643677
0.19459903240203857 0.2954973578453064 0.26063185930252075
0.22632880508899689 0.30103412270545959 0.25676190853118896
0.26882809400558472 0.30228063464164734 0.24741686880588531
0.31817832589149475 0.30393406748771667 0.2356712818145752
0.36960047483444214 0.30078253149986267 0.2235601395368576
0.42564189434051514 0.29746422171592712 0.21499539911746979
0.48279961943626404 0.29515480995178223 0.20789451897144318
0.53689837455749512 0.29434299468994141 0.20052163302898407
0.58875417709350586 0.29473116993904114 0.19782035052776337
0.63939827680587769 0.299824059009552 0.20145285129547119
0.6891409158706665 0.31129348278045654 0.21337141096591949
0.14222255349159241 0.33075302839279175 0.24318477511405945
0.16037443280220032 0.34041130542755127 0.2438465803861618
0.18189388513565063 0.34697410464286804 0.23997174203395844
0.21328443288803101 0.34809046983718872 0.23325631022453308
0.25866752862930298 0.34832671284675598 0.22481326758861542
0.31324222683906555 0.3481367826461792 0.21521848440170288
0.37334677577018738 0.34777176380157471 0.20810079574584961
0.44195383787155151 0.35209006071090698 0.20860214531421661
0.51031076908111572 0.35756140947341919 0.21187815070152283
0.57355362176895142 0.36230564117431641 0.21415886282920837
0.63316559791564941 0.36911380290985107 0.21877403557300568
0.6939159631729126 0.38530132174491882 0.23257167637348175
0.75197583436965942 0.40570941567420959 0.25262600183486938
0.1189672127366066 0.37847831845283508 0.21739089488983154
0.14095667004585266 0.38896137475967407 0.22082684934139252
0.16700205206871033 0.3957025408744812 0.21980012953281403
0.20282165706157684 0.39824274182319641 0.21666170656681061
0.25760802626609802 0.40412706136703491 0.21708980202674866
0.32334122061729431 0.41021472215652466 0.21756260097026825
0.39737492799758911 0.41780412197113037 0.22089748084545135
0.48077681660652161 0.43360260128974915 0.23347733914852142
0.56168949604034424 0.45017078518867493 0.24785245954990387
0.63475567102432251 0.46429711580276489 0.26088190078735352
0.70158439874649048 0.47975015640258789 0.27447047829627991
0.76591837406158447 0.50102150440216064 0.29282143712043762
0.8244011402130127 0.52245712280273438 0.31330609321594238
0.10722842067480087 0.43477800488471985 0.20249083638191223
0.13958805799484253 0.45299521088600159 0.2151620090007782
0.17588779330253601 0.46733841300010681 0.22541098296642303
0.22215679287910461 0.47754001617431641 0.23262524604797363
0.28822949528694153 0.49196106195449829 0.24422562122344971
0.36756044626235962 0.50776410102844238 0.25693333148956299
0.45374205708503723 0.52371299266815186 0.27016860246658325
0.54396623373031616 0.54373264312744141 0.28772929310798645
0.62903827428817749 0.56431514024734497 0.30670410394668579
0.70456629991531372 0.58363372087478638 0.32532879710197449
0.77223199605941772 0.60285466909408569 0.34348791837692261
0.83260369300842285 0.62039172649383545 0.35982230305671692
0.88506746292114258 0.63503915071487427 0.37473377585411072
0.1274576336145401 0.52222877740859985 0.22330868244171143
0.16983599960803986 0.5484846830368042 0.24563097953796387
0.21879357099533081 0.57154148817062378 0.26679465174674988
0.27633091807365417 0.58980190753936768 0.28476104140281677
0.34945416450500488 0.60885405540466309 0.30349463224411011
0.43403518199920654 0.62732672691345215 0.32124799489974976
0.52317410707473755 0.64386069774627686 0.33668512105941772
0.61257058382034302 0.66128218173980713 0.35292848944664001
0.69312125444412231 0.67766076326370239 0.36937955021858215
0.7629970908164978 0.69346058368682861 0.3860190212726593
0.82476407289505005 0.70905542373657227 0.40226748585700989
0.87697464227676392 0.71927911043167114 0.41364651918411255
0.92240697145462036 0.72604042291641235 0.42254972457885742
0.18168485164642334 0.63937807083129883 0.28171667456626892
0.22821782529354095 0.66809225082397461 0.30668479204177856
0.28148052096366882 0.69255304336547852 0.33074545860290527
0.34326663613319397 0.71074962615966797 0.35125470161437988
0.41797295212745667 0.72894597053527832 0.37159597873687744
0.50068360567092896 0.74457299709320068 0.38836011290550232
0.58384394645690918 0.75404137372970581 0.39892327785491943
0.66501736640930176 0.76280117034912109 0.40876993536949158
0.73785996437072754 0.77153491973876953 0.41918712854385376
0.80013227462768555 0.78017419576644897 0.43036958575248718
0.85351485013961792 0.78794991970062256 0.44107446074485779
0.89937317371368408 0.79279047250747681 0.44890841841697693
0.94193297624588013 0.79710763692855835 0.45594602823257446
0.24592301249504089 0.75728070735931396 0.34929630160331726
0.29268327355384827 0.7834199070930481 0.37296125292778015
0.34414604306221008 0.80351626873016357 0.39343738555908203
0.40247362852096558 0.81597626209259033 0.4099237322807312
0.4726543128490448 0.8287472128868103 0.42625528573989868
0.54957312345504761 0.83818292617797852 0.43853029608726501
0.6254044771194458 0.84110462665557861 0.44424736499786377
0.69789940118789673 0.84234023094177246 0.44802370667457581
0.76333326101303101 0.84395098686218262 0.45290946960449219
0.82002514600753784 0.84739267826080322 0.45981308817863464
0.8685077428817749 0.84999555349349976 0.4668700098991394
0.91103613376617432 0.85317814350128174 0.47316578030586243
0.95323985815048218 0.85763311386108398 0.4802766740322113
0.30288082361221313 0.8559451699256897 0.40587073564529419
0.34642824530601501 0.87586694955825806 0.42499873042106628
0.39331644773483276 0.88949722051620483 0.44015127420425415
0.44658857583999634 0.89726978540420532 0.45186924934387207
0.5099671483039856 0.90357351303100586 0.46252933144569397
0.58054840564727783 0.90855741500854492 0.47046640515327454
0.65108770132064819 0.90804928541183472 0.47357231378555298
0.71743094921112061 0.90473181009292603 0.47368732094764709
0.77755141258239746 0.90263938903808594 0.4754331111907959
0.83154207468032837 0.90404659509658813 0.48055654764175415
0.87855768203735352 0.90675973892211914 0.48692184686660767
0.92141640186309814 0.91016775369644165 0.4937097430229187
0.9636719822883606 0.91560441255569458 0.50140231847763062
0.34891131520271301 0.93622291088104248 0.44810235500335693
0.39001822471618652 0.95031255483627319 0.46305927634239197
0.43279144167900085 0.95870155096054077 0.47385883331298828
0.48166269063949585 0.96315616369247437 0.48180323839187622
0.53956633806228638 0.96537935733795166 0.48838266730308533
0.60409998893737793 0.96817123889923096 0.49325767159461975
0.66953188180923462 0.96537041664123535 0.49508976936340332
0.73145127296447754 0.96052372455596924 0.49371671676635742
0.78850096464157104 0.95726627111434937 0.49419024586677551
0.84079432487487793 0.95857036113739014 0.4990692138671875
0.88812881708145142 0.96235191822052002 0.50565171241760254
0.9318009614944458 0.96700876951217651 0.51297837495803833
0.97479021549224854 0.97309696674346924 0.52072691917419434
0.026334395632147789 0.021324966102838516 0.041440460830926895
0.040672644972801208 0.031954191625118256 0.060859367251396179
0.058151468634605408 0.043333254754543304 0.083263173699378967
0.078191466629505157 0.054169300943613052 0.10513108223676682
0.10501481592655182 0.064756803214550018 0.12726597487926483
0.14142453670501709 0.076165281236171722 0.15132527053356171
0.18533390760421753 0.087840214371681213 0.17283865809440613
0.23511782288551331 0.097823604941368103 0.19161270558834076
0.28698071837425232 0.10534660518169403 0.2062021940946579
0.33920598030090332 0.11209073662757874 0.21900731325149536
0.40072643756866455 0.12002965807914734 0.23563869297504425
0.46601018309593201 0.12749442458152771 0.25314530730247498
0.52270728349685669 0.13210222125053406 0.26442945003509521
0.067254476249217987 0.065406531095504761 0.11103832721710205
0.085532397031784058 0.078367434442043304 0.13380266726016998
0.10918258875608444 0.093151211738586426 0.1595674455165863
0.13900035619735718 0.10749346017837524 0.18360218405723572
0.17613665759563446 0.11995918303728104 0.20484493672847748
0.22263815999031067 0.13189022243022919 0.22560492157936096
0.27812632918357849 0.14308322966098785 0.24296785891056061
0.33818838000297546 0.15197856724262238 0.25556215643882751
0.39834731817245483 0.15795810520648956 0.26267877221107483
0.45295995473861694 0.16342537105083466 0.26513439416885376
0.50528329610824585 0.16955560445785522 0.26748788356781006
0.55751955509185791 0.1746448278427124 0.27138832211494446
0.604042649269104 0.17810256779193878 0.27499240636825562
0.10816424340009689 0.11982648074626923 0.18375878036022186
0.12987172603607178 0.13682647049427032 0.20826837420463562
0.15642721951007843 0.15479455888271332 0.23135921359062195
0.19092155992984772 0.17082250118255615 0.2498713880777359
0.23377375304698944 0.18333522975444794 0.26198276877403259
0.28407323360443115 0.19255718588829041 0.27126914262771606
0.34214869141578674 0.20028194785118103 0.27827620506286621
0.40306657552719116 0.2047392874956131 0.27997699379920959
0.46247312426567078 0.20654894411563873 0.27694994211196899
0.51301801204681396 0.20898617804050446 0.26891309022903442
0.55613303184509277 0.21072529256343842 0.26059377193450928
0.59499329328536987 0.21367469429969788 0.25416809320449829
0.63373184204101562 0.21735632419586182 0.25407883524894714
0.13982211053371429 0.19015288352966309 0.24197834730148315
0.16272813081741333 0.20999002456665039 0.26228785514831543
0.18862341344356537 0.22905443608760834 0.27780750393867493
0.22397719323635101 0.24257254600524902 0.28540626168251038
0.26792895793914795 0.24964931607246399 0.28509652614593506
0.31568664312362671 0.25293418765068054 0.28002840280532837
0.3681638240814209 0.25460037589073181 0.27296921610832214
0.42384377121925354 0.25295302271842957 0.26459178328514099
0.47745919227600098 0.24941681325435638 0.25470864772796631
0.5243796706199646 0.24889706075191498 0.24336245656013489
0.56846308708190918 0.24896828830242157 0.23471575975418091
0.60964620113372803 0.25066620111465454 0.23024232685565948
0.65399950742721558 0.25770244002342224 0.23548765480518341
0.15078327059745789 0.26660677790641785 0.26827290654182434
0.17223823070526123 0.28576874732971191 0.27867782115936279
0.19660548865795135 0.30094188451766968 0.2836557924747467
0.23013362288475037 0.30635568499565125 0.28300195932388306
0.27299541234970093 0.30636337399482727 0.27536371350288391
0.32041913270950317 0.30457234382629395 0.26312011480331421
0.37172600626945496 0.30146297812461853 0.25010579824447632
0.42779833078384399 0.29693645238876343 0.24015872180461884
0.48433539271354675 0.29240882396697998 0.23341116309165955
0.53681963682174683 0.29281795024871826 0.22775381803512573
0.5891878604888916 0.29758536815643311 0.22680656611919403
0.64238792657852173 0.30548232793807983 0.23182642459869385
0.6956062912940979 0.31879514455795288 0.24562308192253113
0.13911192119121552 0.3288402259349823 0.26177060604095459
0.15904918313026428 0.34325137734413147 0.26477727293968201
0.18270888924598694 0.35216888785362244 0.26401025056838989
0.21552707254886627 0.35346046090126038 0.26010248064994812
0.26099354028701782 0.35229024291038513 0.25361323356628418
0.31592908501625061 0.35148286819458008 0.24514797329902649
0.37664338946342468 0.35079380869865417 0.23791901767253876
0.44348844885826111 0.35146957635879517 0.23630779981613159
0.51223182678222656 0.35507562756538391 0.24010096490383148
0.5775330662727356 0.36300188302993774 0.24606958031654358
0.64037078619003296 0.3762395977973938 0.2549741268157959
0.70247077941894531 0.39386269450187683 0.26934602856636047
0.76103305816650391 0.41380104422569275 0.28862357139587402
0.11799287796020508 0.37809497117996216 0.24008317291736603
0.14070580899715424 0.39093837141990662 0.24416010081768036
0.16862364113330841 0.40028506517410278 0.24669919908046722
0.20670242607593536 0.40489903092384338 0.24738660454750061
0.26125416159629822 0.41015651822090149 0.24912458658218384
0.32901263236999512 0.41734623908996582 0.25168761610984802
0.40462398529052734 0.42566221952438354 0.25629451870918274
0.4857756495475769 0.43747076392173767 0.26603430509567261
0.56727749109268188 0.45212927460670471 0.28119111061096191
0.64284813404083252 0.46907791495323181 0.29677367210388184
0.71152216196060181 0.48773857951164246 0.31315752863883972
0.77576690912246704 0.50885075330734253 0.33178412914276123
0.83276855945587158 0.52876561880111694 0.3506501317024231
0.11040820181369781 0.43855684995651245 0.23239818215370178
0.14098671078681946 0.45584097504615784 0.24364729225635529
0.17898549139499664 0.47277659177780151 0.25629925727844238
0.22773873805999756 0.48554220795631409 0.26727807521820068
0.29375270009040833 0.49981173872947693 0.27973896265029907
0.37397754192352295 0.51593470573425293 0.29345810413360596
0.46137431263923645 0.53263944387435913 0.3078150749206543
0.55078315734863281 0.55055826902389526 0.32428205013275146
0.63617205619812012 0.56975984573364258 0.34290298819541931
0.71316981315612793 0.5894743800163269 0.36249148845672607
0.78058916330337524 0.6082654595375061 0.38069626688957214
0.83986520767211914 0.62593615055084229 0.39748379588127136
0.89122062921524048 0.64014774560928345 0.41191047430038452
0.135133296251297 0.53176069259643555 0.26111361384391785
0.17383018136024475 0.55460828542709351 0.27994510531425476
0.22176793217658997 0.5776820182800293 0.30121222138404846
0.28042992949485779 0.59683597087860107 0.32073408365249634
0.35378143191337585 0.61574661731719971 0.33949825167655945
0.4392072856426239 0.63485032320022583 0.35828644037246704
0.52976936101913452 0.65241283178329468 0.3751017153263092
0.61846691370010376 0.66839712858200073 0.39074012637138367
0.69933933019638062 0.68339884281158447 0.40635940432548523
0.76988554000854492 0.69830840826034546 0.42246249318122864
0.83037650585174561 0.71219265460968018 0.43747031688690186
0.88218408823013306 0.72354024648666382 0.44982534646987915
0.92769449949264526 0.73168927431106567 0.45972564816474915
0.18995949625968933 0.65141671895980835 0.32276257872581482
0.23253278434276581 0.67531704902648926 0.3440701961517334
0.28398051857948303 0.69744956493377686 0.36668378114700317
0.34551668167114258 0.71623736619949341 0.3872317373752594
0.41965809464454651 0.73371750116348267 0.40726110339164734
0.50310605764389038 0.74898785352706909 0.42367810010910034
0.58870869874954224 0.76064383983612061 0.43617528676986694
0.67057758569717407 0.7694549560546875 0.44627025723457336
0.74332839250564575 0.77690768241882324 0.45605531334877014
0.80570423603057861 0.78437620401382446 0.46613046526908875
0.8582148551940918 0.79108071327209473 0.47583809494972229
0.90316760540008545 0.79619294404983521 0.48390927910804749
0.94583547115325928 0.80193209648132324 0.49173173308372498
0.25464490056037903 0.7706032395362854 0.39216381311416626
0.29618367552757263 0.79031157493591309 0.41135013103485107
0.34485414624214172 0.80678695440292358 0.42909857630729675
0.40268063545227051 0.81962132453918457 0.44542604684829712
0.47214242815971375 0.83134979009628296 0.46078380942344666
0.55027115345001221 0.8407520055770874 0.47297200560569763
0.62871289253234863 0.84561657905578613 0.4801175594329834
0.70270580053329468 0.84734320640563965 0.48454830050468445
0.7686353325843811 0.84844875335693359 0.48885905742645264
0.82502549886703491 0.85047775506973267 0.49461174011230469
0.87237513065338135 0.85298120975494385 0.50080013275146484
0.91375142335891724 0.85472500324249268 0.50668728351593018
0.95606124401092529 0.86062818765640259 0.51415586471557617
0.30948632955551147 0.86659103631973267 0.44698488712310791
0.34916365146636963 0.88178521394729614 0.46264815330505371
0.39302787184715271 0.89188140630722046 0.47555679082870483
0.44448152184486389 0.8982805609703064 0.48606345057487488
0.50798952579498291 0.90428239107131958 0.49607998132705688
0.58044648170471191 0.90994596481323242 0.50430190563201904
0.6533130407333374 0.9107966423034668 0.50822454690933228
0.72125017642974854 0.90808606147766113 0.50925344228744507
0.78230160474777222 0.90582948923110962 0.5101388692855835
0.83575546741485596 0.9061286449432373 0.51419758796691895
0.88197493553161621 0.90809029340744019 0.51972407102584839
0.92393440008163452 0.91144216060638428 0.52595925331115723
0.96617525815963745 0.91765326261520386 0.53375160694122314
0.3527577817440033 0.94288593530654907 0.48606878519058228
0.39153677225112915 0.95368212461471558 0.49889528751373291
0.43155333399772644 0.95955508947372437 0.50788676738739014
0.47852927446365356 0.96159958839416504 0.51436501741409302
0.53634750843048096 0.96461540460586548 0.52058100700378418
0.60317277908325195 0.96743452548980713 0.52606743574142456
0.67060983180999756 0.96643024682998657 0.52778583765029907
0.73396271467208862 0.96238809823989868 0.52731740474700928
0.79188907146453857 0.95903033018112183 0.52765589952468872
0.84405076503753662 0.95947003364562988 0.53124058246612549
0.89087569713592529 0.96259230375289917 0.53693139553070068
0.93425416946411133 0.96730244159698486 0.54386019706726074
0.97713905572891235 0.97429937124252319 0.55188000202178955
0.030757306143641472 0.023245165124535561 0.049660820513963699
0.047206997871398926 0.035743743181228638 0.071655735373497009
0.067230954766273499 0.049348987638950348 0.097471706569194794
0.086885593831539154 0.060359954833984375 0.11880910396575928
0.11316733062267303 0.070475108921527863 0.14071810245513916
0.15012264251708984 0.081161230802536011 0.16550050675868988
0.19422836601734161 0.091857835650444031 0.18798346817493439
0.24416211247444153 0.10110475122928619 0.20747272670269012
0.29872524738311768 0.10873626917600632 0.22575528919696808
0.35665819048881531 0.11580037325620651 0.24310274422168732
0.41949567198753357 0.12343913316726685 0.26202768087387085
0.47976121306419373 0.1296590119600296 0.27728289365768433
0.53262805938720703 0.13338615000247955 0.28661033511161804
0.072742432355880737 0.068815656006336212 0.12494475394487381
0.091108791530132294 0.082710579037666321 0.14828576147556305
0.11606039851903915 0.098863713443279266 0.17617280781269073
0.14627973735332489 0.11363733559846878 0.20092616975307465
0.18406829237937927 0.12598437070846558 0.22285044193267822
0.23150384426116943 0.13726907968521118 0.24456435441970825
0.28709903359413147 0.14758493006229401 0.263080894947052
0.3458782434463501 0.15568017959594727 0.27523607015609741
0.40584918856620789 0.16130754351615906 0.28318643569946289
0.46268147230148315 0.16594848036766052 0.28832858800888062
0.51740920543670654 0.17057111859321594 0.29364749789237976
0.56928181648254395 0.17477238178253174 0.29797053337097168
0.61532324552536011 0.17725008726119995 0.30059629678726196
0.11336786299943924 0.12547269463539124 0.20304346084594727
0.13480095565319061 0.14301466941833496 0.22799378633499146
0.16164150834083557 0.16150562465190887 0.25226303935050964
0.1959778219461441 0.17725314199924469 0.2708357572555542
0.23884756863117218 0.18870829045772552 0.28336688876152039
0.29042521119117737 0.19713610410690308 0.29391324520111084
0.34988313913345337 0.20402669906616211 0.30278676748275757
0.40907824039459229 0.20790822803974152 0.30300503969192505
0.46594002842903137 0.20894697308540344 0.29832082986831665
0.51559686660766602 0.21000248193740845 0.29159203171730042
0.5595441460609436 0.21030241250991821 0.28542497754096985
0.60106921195983887 0.21156851947307587 0.28154823184013367
0.64330410957336426 0.21559186279773712 0.2833351194858551
0.14309269189834595 0.19548472762107849 0.26514485478401184
0.16575232148170471 0.21599063277244568 0.28536286950111389
0.19172944128513336 0.23492559790611267 0.30100864171981812
0.2260265052318573 0.2484181672334671 0.30868819355964661
0.26832795143127441 0.25367674231529236 0.30826860666275024
0.31735163927078247 0.25470331311225891 0.30417525768280029
0.37202608585357666 0.25521773099899292 0.29851552844047546
0.42755416035652161 0.25379696488380432 0.28961664438247681
0.47999951243400574 0.25035715103149414 0.27869898080825806
0.52557599544525146 0.24889706075191498 0.26862379908561707
0.56903457641601562 0.24917741119861603 0.26215940713882446
0.61286324262619019 0.25118714570999146 0.26049202680587769
0.66060131788253784 0.25982120633125305 0.26826238632202148
0.1510043740272522 0.26969724893569946 0.29114517569541931
0.17281760275363922 0.28861579298973083 0.30227267742156982
0.19653041660785675 0.30295053124427795 0.30786162614822388
0.22897370159626007 0.30970615148544312 0.30753892660140991
0.27085229754447937 0.30802595615386963 0.30037567019462585
0.31947022676467896 0.30427750945091248 0.28943309187889099
0.3738272488117218 0.30097135901451111 0.2778068482875824
