assets/lut/alexjordan magenta dream.cube
# Created by: G'MIC (https://gmic.eu)
TITLE "magenta_dream"
# LUT size
LUT_3D_SIZE 7
# Data domain
DOMAIN_MIN 0.0 0.0 0.0
DOMAIN_MAX 1.0 1.0 1.0
# LUT data points
0.0030419144313782454 0.00098535872530192137 0.025326628237962723
0.092417895793914795 0.0024544510524719954 0.023911643773317337
0.18429096043109894 0.0026243920437991619 0.019028592854738235
0.26817551255226135 0.0040660332888364792 0.018586760386824608
0.32706573605537415 0.0035576315131038427 0.0029187072068452835
0.40977320075035095 0.0014299579197540879 0.0045756618492305279
0.44151681661605835 6.3204301113728434e-05 0.0025236241053789854
0.011742670089006424 0.11873862892389297 0.044693246483802795
0.15791797637939453 0.13941149413585663 0.053828459233045578
0.31475865840911865 0.13091298937797546 0.045493736863136292
0.4427545964717865 0.11973833292722702 0.035437401384115219
0.54966169595718384 0.11272206157445908 0.027155468240380287
0.64586806297302246 0.10294181853532791 0.024600563570857048
0.72368812561035156 0.093353167176246643 0.022650415077805519
0.00087639305274933577 0.26835381984710693 0.036112990230321884
0.15617850422859192 0.29373583197593689 0.048214513808488846
0.33074352145195007 0.29227688908576965 0.047017369419336319
0.46242102980613708 0.28994259238243103 0.041721854358911514
0.56858247518539429 0.28647509217262268 0.037231713533401489
0.65902364253997803 0.27998632192611694 0.032199051231145859
0.74156033992767334 0.27423891425132751 0.029075562953948975
0.0019560870714485645 0.38642913103103638 0.032704867422580719
0.15118689835071564 0.41994959115982056 0.046545635908842087
0.33075287938117981 0.42121720314025879 0.05034739151597023
0.46228009462356567 0.42094960808753967 0.047604206949472427
0.57196348905563354 0.41804108023643494 0.046226844191551208
0.6669456958770752 0.41464114189147949 0.04390653595328331
0.75363588333129883 0.41001832485198975 0.039055317640304565
0.0083371326327323914 0.47753745317459106 0.030058123171329498
0.14641951024532318 0.52221441268920898 0.042879711836576462
0.3265705406665802 0.52580755949020386 0.048258330672979355
0.46433341503143311 0.52778440713882446 0.045970752835273743
0.57607436180114746 0.52853381633758545 0.046245351433753967
0.67189550399780273 0.52739459276199341 0.046983636915683746
0.75611156225204468 0.5236855149269104 0.042955495417118073
0.0013933967566117644 0.56180262565612793 0.010743115097284317
0.13708725571632385 0.60484498739242554 0.029054215177893639
0.31759226322174072 0.61352753639221191 0.037761569023132324
0.45848825573921204 0.6202043890953064 0.035330798476934433
0.57296955585479736 0.62404674291610718 0.036474879831075668
0.66916888952255249 0.62504595518112183 0.041059888899326324
0.75281888246536255 0.62256020307540894 0.037676073610782623
0.0077849593944847584 0.62243664264678955 0.00099271885119378567
0.13588578999042511 0.67363011837005615 0.013198149390518665
0.29929003119468689 0.69303596019744873 0.023534856736660004
0.44261711835861206 0.70261317491531372 0.025473441928625107
0.56064248085021973 0.70863348245620728 0.026322323828935623
0.65953123569488525 0.71144413948059082 0.028125477954745293
0.74507242441177368 0.70977520942687988 0.024581190198659897
0.0065410840325057507 0.0030562607571482658 0.10439198464155197
0.097579672932624817 0.0030261469073593616 0.11038366705179214
0.19236193597316742 0.0012357225641608238 0.10383634269237518
0.2681044340133667 0.0024696351028978825 0.089413627982139587
0.35521575808525085 0.00021739286603406072 0.087129868566989899
0.4277958869934082 0 0.085962958633899689
0.46820154786109924 0.00048555861576460302 0.071676082909107208
0.015093156136572361 0.13061359524726868 0.16254796087741852
0.17293119430541992 0.14815764129161835 0.18754576146602631
0.3262297511100769 0.14245522022247314 0.17765161395072937
0.46085360646247864 0.13492076098918915 0.17389053106307983
0.56872677803039551 0.12660422921180725 0.16791771352291107
0.67149621248245239 0.10992220789194107 0.16397747397422791
0.74500191211700439 0.11021628230810165 0.15408450365066528
0.006116919219493866 0.27821439504623413 0.17033743858337402
0.17011384665966034 0.30874550342559814 0.19149383902549744
0.34707343578338623 0.3090241551399231 0.19072777032852173
0.48041301965713501 0.30942064523696899 0.18652166426181793
0.58661341667175293 0.3027622401714325 0.18416969478130341
0.68256086111068726 0.29603621363639832 0.17999596893787384
0.76406681537628174 0.2926095724105835 0.17281115055084229
0.0048285988159477711 0.40195009112358093 0.16606451570987701
0.17305603623390198 0.43502208590507507 0.19052116572856903
0.35424914956092834 0.4379025399684906 0.19424501061439514
0.48200798034667969 0.43859541416168213 0.19225083291530609
0.59093296527862549 0.43404540419578552 0.19195005297660828
0.6869271993637085 0.4299289882183075 0.19064052402973175
0.77051007747650146 0.427154541015625 0.1841871440410614
0.015711914747953415 0.49466967582702637 0.15672414004802704
0.17564289271831512 0.53801143169403076 0.18811824917793274
0.35056024789810181 0.54472023248672485 0.19367414712905884
0.48329412937164307 0.54638874530792236 0.19243541359901428
0.59440475702285767 0.54546254873275757 0.19314578175544739
0.69101864099502563 0.54334574937820435 0.19421374797821045
0.77382010221481323 0.54014676809310913 0.18788789212703705
0.003358309855684638 0.57953697443008423 0.13943785429000854
0.15204203128814697 0.62884092330932617 0.17734417319297791
0.33528175950050354 0.63705921173095703 0.18484024703502655
0.47767788171768188 0.63938325643539429 0.18217207491397858
0.59174239635467529 0.64073848724365234 0.18278217315673828
0.687580406665802 0.64102542400360107 0.18591216206550598
0.77004778385162354 0.63874262571334839 0.18120855093002319
0.0065187043510377407 0.64189273118972778 0.10970813781023026
0.13602975010871887 0.70253449678421021 0.15325501561164856
0.31236165761947632 0.71801304817199707 0.16787643730640411
0.46107110381126404 0.72245055437088013 0.16918414831161499
0.57871276140213013 0.72655892372131348 0.16878372430801392
0.67606550455093384 0.72844499349594116 0.1691388338804245
0.76124966144561768 0.72725600004196167 0.16451367735862732
0.0034625034313648939 0.0070994207635521889 0.17784763872623444
0.094850219786167145 0.0075210868380963802 0.18015383183956146
0.19839125871658325 0.0030727609992027283 0.18317525088787079
0.30150720477104187 0.0005945542361587286 0.1900210976600647
0.34785574674606323 0.0013959846692159772 0.1671428382396698
0.43944385647773743 0 0.1737835556268692
0.48639586567878723 0.00062432384584099054 0.1625940352678299
0.0064766677096486092 0.13431598246097565 0.26607295870780945
0.17561358213424683 0.15367996692657471 0.2978827953338623
0.33752313256263733 0.14043056964874268 0.29982522130012512
0.47411730885505676 0.13177530467510223 0.2979830801486969
0.57761532068252563 0.12745249271392822 0.28985276818275452
0.6660228967666626 0.12116899341344833 0.28248023986816406
0.75322914123535156 0.10967845469713211 0.27774661779403687
0.0036862092092633247 0.28261992335319519 0.28587740659713745
0.17741255462169647 0.31230595707893372 0.30883195996284485
0.35417774319648743 0.31471586227416992 0.30966874957084656
0.4878140389919281 0.31305676698684692 0.30708014965057373
0.59616494178771973 0.30821454524993896 0.30395150184631348
0.68616843223571777 0.30333265662193298 0.30107757449150085
0.77105259895324707 0.29857876896858215 0.29576095938682556
0.0068641514517366886 0.40513125061988831 0.28408223390579224
0.17730781435966492 0.44068339467048645 0.31001198291778564
0.35895630717277527 0.4456789493560791 0.31275415420532227
0.48988217115402222 0.4450710117816925 0.31233915686607361
0.59978502988815308 0.44141662120819092 0.3109358549118042
0.69335085153579712 0.43990519642829895 0.30838629603385925
0.77711647748947144 0.43595114350318909 0.30623409152030945
0.019460985437035561 0.49867361783981323 0.27507150173187256
0.18907947838306427 0.54248195886611938 0.30723428726196289
0.36329135298728943 0.5524674654006958 0.31325677037239075
0.49307447671890259 0.55431699752807617 0.31486049294471741
0.60354435443878174 0.55342686176300049 0.31362295150756836
0.69918286800384521 0.55188500881195068 0.31245270371437073
0.78241974115371704 0.54790741205215454 0.31241223216056824
0.0032977384980767965 0.5859602689743042 0.26201477646827698
0.16651070117950439 0.63575339317321777 0.29802903532981873
0.35423710942268372 0.64513921737670898 0.30617716908454895
0.4913669228553772 0.64774376153945923 0.30764895677566528
0.60234206914901733 0.64892542362213135 0.30746030807495117
0.6970522403717041 0.64869421720504761 0.30800577998161316
0.77950596809387207 0.64668810367584229 0.30651164054870605
0.0098314918577671051 0.6438794732093811 0.22866165637969971
0.13757431507110596 0.71463561058044434 0.27921190857887268
0.32913225889205933 0.72692495584487915 0.29169952869415283
0.47601491212844849 0.73194903135299683 0.29496026039123535
0.59035652875900269 0.73607933521270752 0.29463082551956177
0.68587148189544678 0.73811489343643188 0.29462769627571106
0.76995527744293213 0.73743206262588501 0.29039320349693298
0.00035849178675562143 0.0052233380265533924 0.23007407784461975
0.088677547872066498 0.005387668963521719 0.2377656102180481
0.20389668643474579 0.0044970046728849411 0.2537434995174408
0.27961522340774536 0.0038092669565230608 0.23670476675033569
0.34695297479629517 0.0033394757192581892 0.23305158317089081
0.41811224818229675 0.0015804365975782275 0.23058944940567017
0.50367337465286255 0 0.24067988991737366
0.014472872018814087 0.13054996728897095 0.34574946761131287
0.17940345406532288 0.15328648686408997 0.39615300297737122
0.34103956818580627 0.14535167813301086 0.39362508058547974
0.46157979965209961 0.14001408219337463 0.37997335195541382
0.57204926013946533 0.12911364436149597 0.37939229607582092
0.67382621765136719 0.11732990294694901 0.37975206971168518
0.7772822380065918 0.09912554919719696 0.38574722409248352
0.0045236772857606411 0.28486108779907227 0.3787345290184021
0.18115328252315521 0.31550997495651245 0.4055095911026001
0.35556578636169434 0.31934282183647156 0.40279227495193481
0.48798692226409912 0.31547492742538452 0.40251332521438599
0.60122042894363403 0.3073979914188385 0.40146359801292419
0.69477838277816772 0.30352696776390076 0.398691326379776
0.78134870529174805 0.29628166556358337 0.39569574594497681
0.0064227236434817314 0.40816006064414978 0.37982821464538574
0.18264111876487732 0.44359156489372253 0.40576735138893127
0.36351704597473145 0.44901961088180542 0.40849950909614563
0.4933965802192688 0.4477771520614624 0.40878540277481079
0.6049124002456665 0.44354236125946045 0.40675929188728333
0.69764870405197144 0.44359892606735229 0.40405169129371643
0.7815966010093689 0.44030150771141052 0.40234243869781494
0.0087636010721325874 0.50726509094238281 0.37327665090560913
0.18613795936107635 0.54809278249740601 0.40396562218666077
0.36734503507614136 0.5568312406539917 0.40946841239929199
0.49607843160629272 0.55800479650497437 0.40907558798789978
0.60824012756347656 0.5566093921661377 0.40884032845497131
0.7032807469367981 0.55671912431716919 0.40805432200431824
0.78724652528762817 0.55341565608978271 0.40778437256813049
0.0042414944618940353 0.58947253227233887 0.35780021548271179
0.16286551952362061 0.64147025346755981 0.3953889012336731
0.35677433013916016 0.65026748180389404 0.40373978018760681
0.49583914875984192 0.65220236778259277 0.4057096540927887
0.6065371036529541 0.6534540057182312 0.40611967444419861
0.7010759711265564 0.65325075387954712 0.40654283761978149
0.78465098142623901 0.65155565738677979 0.40586104989051819
0 0.6585274338722229 0.33376741409301758
0.12435781210660934 0.72285968065261841 0.38154548406600952
0.33126440644264221 0.7324669361114502 0.39198100566864014
0.48163899779319763 0.73790460824966431 0.39655819535255432
0.59533059597015381 0.74194294214248657 0.39768031239509583
0.69103175401687622 0.74377429485321045 0.39771434664726257
0.77596604824066162 0.74334728717803955 0.39413520693778992
0.0045460271649062634 0.0081500336527824402 0.28730231523513794
0.090701833367347717 0.0055081085301935673 0.2930012047290802
0.20890052616596222 0.0052296356298029423 0.31951084733009338
0.291261225938797 0.0023690168745815754 0.30771219730377197
0.37909173965454102 0 0.31500124931335449
0.43724250793457031 7.0369947934523225e-05 0.30198937654495239
0.49528419971466064 0.00044690299546346068 0.29378595948219299
0.01652342826128006 0.13068065047264099 0.41629889607429504
0.17712460458278656 0.15097710490226746 0.46803802251815796
0.34526526927947998 0.1465734988451004 0.47834539413452148
0.47353059053421021 0.13677442073822021 0.47244623303413391
0.58647185564041138 0.12381184846162796 0.47269299626350403
0.67747443914413452 0.11933670192956924 0.46435275673866272
0.75463211536407471 0.1161392480134964 0.45947727560997009
0.015757137909531593 0.2818889319896698 0.45479622483253479
0.18022726476192474 0.31907728314399719 0.48512735962867737
0.35567948222160339 0.31902614235877991 0.4850863516330719
0.49031528830528259 0.31511524319648743 0.48849582672119141
0.60290122032165527 0.30914306640625 0.48709741234779358
0.69172960519790649 0.30914637446403503 0.47839665412902832
0.76952165365219116 0.30728599429130554 0.4724222719669342
0.0098357405513525009 0.40741056203842163 0.45768624544143677
0.1846262663602829 0.44367760419845581 0.48686015605926514
0.3663451075553894 0.44901818037033081 0.48943036794662476
0.49636080861091614 0.45031681656837463 0.49208733439445496
0.60807371139526367 0.44706583023071289 0.49001729488372803
0.70118004083633423 0.445821613073349 0.48784998059272766
0.78316551446914673 0.44443970918655396 0.48450994491577148
0.0031931409612298012 0.5133814811706543 0.45510071516036987
0.1800033301115036 0.55311137437820435 0.48689544200897217
0.36936759948730469 0.56002843379974365 0.49287396669387817
0.50140112638473511 0.56220716238021851 0.49176642298698425
0.61217606067657471 0.56041043996810913 0.49289214611053467
0.70629227161407471 0.56031280755996704 0.49271872639656067
0.78940165042877197 0.55750846862792969 0.48958158493041992
0.0090823899954557419 0.59024792909622192 0.43588757514953613
0.16176454722881317 0.6472620964050293 0.47887665033340454
0.35641562938690186 0.65487998723983765 0.48764407634735107
0.49827414751052856 0.65582799911499023 0.48896059393882751
0.6080927848815918 0.65674799680709839 0.49049955606460571
0.70359265804290771 0.65674805641174316 0.49179291725158691
0.7887427806854248 0.6550438404083252 0.4889715313911438
0.0094975493848323822 0.65181076526641846 0.40974020957946777
0.13378404080867767 0.72286355495452881 0.46378731727600098
0.33243465423583984 0.73710650205612183 0.47707238793373108
0.48237395286560059 0.74241101741790771 0.48175144195556641
0.59612995386123657 0.74655610322952271 0.48363396525382996
0.69424831867218018 0.74805957078933716 0.48408672213554382
0.78187710046768188 0.74745219945907593 0.47969940304756165
0.0050957472994923592 0.0074942642822861671 0.32401207089424133
0.10082793980836868 0.01148560456931591 0.36848750710487366
0.21480710804462433 0.0059412340633571148 0.38028815388679504
0.28752556443214417 0.003645474324002862 0.3594566285610199
0.34587854146957397 0.0041444813832640648 0.34013766050338745
0.43716585636138916 0.00023390825663227588 0.35463568568229675
0.49919924139976501 0 0.35347732901573181
0.0075171077623963356 0.13478639721870422 0.49099195003509521
0.17093141376972198 0.14974628388881683 0.548167884349823
0.3387676477432251 0.14436902105808258 0.5482373833656311
0.46481376886367798 0.13802534341812134 0.54012757539749146
0.56965678930282593 0.13322682678699493 0.53642678260803223
0.66550743579864502 0.12693467736244202 0.53347098827362061
0.76408356428146362 0.10775056481361389 0.54419773817062378
0.0080869635567069054 0.28684774041175842 0.53738361597061157
0.17951083183288574 0.31738311052322388 0.5689588189125061
0.35688143968582153 0.31789249181747437 0.56246882677078247
0.48839068412780762 0.31628188490867615 0.56224215030670166
0.59841269254684448 0.31293118000030518 0.56206852197647095
0.68663233518600464 0.31115484237670898 0.55430442094802856
0.77285587787628174 0.30247119069099426 0.55261474847793579
0.0029636756516993046 0.41274401545524597 0.53477364778518677
0.1822507232427597 0.44392237067222595 0.56426137685775757
0.36860674619674683 0.44931378960609436 0.56631791591644287
0.49746531248092651 0.4514613151550293 0.56700247526168823
0.60801893472671509 0.4486643373966217 0.56741940975189209
0.701244056224823 0.44755280017852783 0.56546950340270996
0.78467637300491333 0.4448796808719635 0.5622599720954895
0.0068873236887156963 0.5108763575553894 0.52747899293899536
0.18508455157279968 0.5525050163269043 0.56289011240005493
0.37199574708938599 0.56122279167175293 0.57001572847366333
0.50391077995300293 0.5624585747718811 0.57009732723236084
0.61372548341751099 0.56035852432250977 0.57009804248809814
0.70674979686737061 0.56220078468322754 0.57009804248809814
0.79093319177627563 0.5611082911491394 0.56717449426651001
0.016510188579559326 0.58676540851593018 0.50803524255752563
0.16641439497470856 0.64907121658325195 0.55707430839538574
0.36061316728591919 0.65695035457611084 0.56520754098892212
0.49896892905235291 0.65851873159408569 0.56616228818893433
0.60870468616485596 0.6579967737197876 0.56929916143417358
0.70525515079498291 0.66031605005264282 0.56999152898788452
0.79162424802780151 0.6600220799446106 0.56598871946334839
0.00041575712384656072 0.66124314069747925 0.49256950616836548
0.13045069575309753 0.72841930389404297 0.54489684104919434
0.33931457996368408 0.739571213722229 0.55521553754806519
0.48303321003913879 0.74632227420806885 0.55880773067474365
0.59583395719528198 0.75033128261566162 0.56097698211669922
0.69627946615219116 0.75186717510223389 0.561318039894104
0.78486353158950806 0.75097626447677612 0.555614173412323
0.010429786518216133 0.010814651846885681 0.39320608973503113
0.10000535845756531 0.012707803398370743 0.40743809938430786
0.21331201493740082 0.0027122946921736002 0.43217858672142029
0.27013272047042847 0.0025938744656741619 0.39158019423484802
0.35567048192024231 0.00033850574982352555 0.4022010862827301
0.4494287371635437 0 0.42377966642379761
0.51467734575271606 0 0.42619290947914124
0.012156273238360882 0.12280935794115067 0.54688370227813721
0.17324146628379822 0.14154845476150513 0.61276066303253174
0.33706468343734741 0.13863259553909302 0.62021118402481079
0.46652913093566895 0.12310587614774704 0.61649566888809204
0.57433801889419556 0.12446673214435577 0.61464595794677734
0.66979897022247314 0.11933103203773499 0.61274832487106323
0.76612532138824463 0.095066472887992859 0.62020760774612427
0.010261221788823605 0.27594617009162903 0.60257738828659058
0.18162457644939423 0.31018897891044617 0.63815176486968994
0.35605743527412415 0.31722560524940491 0.63842344284057617
0.48983758687973022 0.30911153554916382 0.63957053422927856
0.59472572803497314 0.31377360224723816 0.63026010990142822
0.69180542230606079 0.30563923716545105 0.62863218784332275
0.78780269622802734 0.2834109365940094 0.6354745626449585
0.0045279855839908123 0.40598660707473755 0.60555338859558105
0.17582003772258759 0.44211104512214661 0.63541609048843384
0.36075970530509949 0.44949361681938171 0.64098644256591797
0.49631372094154358 0.44917848706245422 0.64207994937896729
0.60763293504714966 0.44954302906990051 0.63942825794219971
0.70316207408905029 0.44545403122901917 0.63869637250900269
0.78961217403411865 0.43556821346282959 0.63806146383285522
0.0017850988078862429 0.51034259796142578 0.60090792179107666
0.17327076196670532 0.54940915107727051 0.63622051477432251
0.36309987306594849 0.55990338325500488 0.6425054669380188
0.49974516034126282 0.56390666961669922 0.64270591735839844
0.61314809322357178 0.56252551078796387 0.64351046085357666
0.70790761709213257 0.56158322095870972 0.64351242780685425
0.79214280843734741 0.55773794651031494 0.6400037407875061
0.0030266556423157454 0.58923977613449097 0.58416116237640381
0.16320802271366119 0.64242285490036011 0.63002669811248779
0.35341089963912964 0.65664851665496826 0.63912183046340942
0.49416017532348633 0.66068136692047119 0.64044570922851562
0.60838717222213745 0.65995055437088013 0.64274662733078003
0.70571219921112061 0.66164475679397583 0.64180642366409302
0.79165339469909668 0.65908551216125488 0.63602280616760254
0.016081208363175392 0.64926236867904663 0.55590593814849854
0.15552367269992828 0.71818053722381592 0.61227411031723022
0.33908504247665405 0.7412986159324646 0.62984693050384521
0.48110130429267883 0.74818891286849976 0.63267308473587036
0.59618651866912842 0.751026451587677 0.63357597589492798
0.69622033834457397 0.75222599506378174 0.63141930103302002
0.78387385606765747 0.74931818246841431 0.62291371822357178
