assets/lut/alexjordan red afternoon 01.cube
# Created by: G'MIC (https://gmic.eu)
TITLE "red_afternoon_01"
# LUT size
LUT_3D_SIZE 5
# Data domain
DOMAIN_MIN 0.0 0.0 0.0
DOMAIN_MAX 1.0 1.0 1.0
# LUT data points
0 0 0
0 0 0
0 0 0
6.8395274865906686e-05 0 0
0.061873551458120346 0.0049122083000838757 0.002649703761562705
0.00073649088153615594 0.0022565803956240416 0.0021151225082576275
0.029420740902423859 0.028471000492572784 0.01075191143900156
0.10552374273538589 0.051179565489292145 0.0087136812508106232
0.25503689050674438 0.067044787108898163 0.0055368160828948021
0.46946665644645691 0.075875617563724518 0.001835497678257525
0.0065700756385922432 0.16655734181404114 0.0061346613802015781
0.10886106640100479 0.20274908840656281 0.0053386464715003967
0.27142873406410217 0.22235225141048431 0.0077952663414180279
0.45832058787345886 0.24483773112297058 0.0032615212257951498
0.63382816314697266 0.26534569263458252 0.009748091921210289
0.022717868909239769 0.40049982070922852 0.0014444986591115594
0.17660541832447052 0.42407411336898804 0.0067857927642762661
0.36141699552536011 0.44362279772758484 0.023383107036352158
0.54067981243133545 0.46859267354011536 0.03695330023765564
0.72110074758529663 0.49053692817687988 0.068600401282310486
0.089039698243141174 0.63204926252365112 0.03616027906537056
0.25423955917358398 0.65426450967788696 0.051918599754571915
0.44022229313850403 0.67648828029632568 0.078348122537136078
0.62439471483230591 0.70181846618652344 0.10644412785768509
0.80470758676528931 0.73048150539398193 0.14455488324165344
0 0 0
0 0 0
0 0 0
0.0058107264339923859 0.00028475592262111604 0.0011463988339528441
0.088820166885852814 0.0046498016454279423 0.0089375069364905357
0.0020773943979293108 0.0072915619239211082 0.0046865576878190041
0.039533846080303192 0.040306553244590759 0.031014895066618919
0.13949668407440186 0.061061397194862366 0.043384402990341187
0.29027768969535828 0.077031515538692474 0.047607183456420898
0.50335860252380371 0.084479235112667084 0.046325504779815674
0.0088232904672622681 0.185911625623703 0.069375135004520416
0.1254524290561676 0.21789728105068207 0.077348031103610992
0.29285463690757751 0.24034366011619568 0.078038774430751801
0.4698849618434906 0.26155960559844971 0.086921021342277527
0.65129047632217407 0.28114277124404907 0.10485247522592545
0.035786408931016922 0.41331791877746582 0.10398483276367188
0.19555413722991943 0.43818572163581848 0.11706140637397766
0.380330890417099 0.45942237973213196 0.13451738655567169
0.55739450454711914 0.48254624009132385 0.15222962200641632
0.73680859804153442 0.50488686561584473 0.18099385499954224
0.10252156108617783 0.64355945587158203 0.15940821170806885
0.2729986310005188 0.66697430610656738 0.17896902561187744
0.46048685908317566 0.69062238931655884 0.20515820384025574
0.64283496141433716 0.71686410903930664 0.22839739918708801
0.82399880886077881 0.74519073963165283 0.26032182574272156
0 0 0
0 0 0
0 0 0
0.026940887793898582 0.0029588586185127497 0.010844840668141842
0.13282941281795502 0.008137168362736702 0.042927850037813187
0.0044813868589699268 0.019066739827394485 0.027159910649061203
0.05224832147359848 0.049880009144544601 0.072726935148239136
0.16050213575363159 0.070504985749721527 0.10863535106182098
0.32158073782920837 0.084830969572067261 0.13617198169231415
0.53821325302124023 0.090149931609630585 0.16063594818115234
0.012571865692734718 0.20535404980182648 0.16395670175552368
0.13370902836322784 0.23427195847034454 0.18645450472831726
0.30531176924705505 0.25132977962493896 0.20425170660018921
0.48312690854072571 0.2711334228515625 0.21946915984153748
0.66328155994415283 0.29123759269714355 0.23815464973449707
0.047237634658813477 0.42757865786552429 0.23820312321186066
0.20875932276248932 0.45251578092575073 0.2549193799495697
0.38978573679924011 0.4749542772769928 0.27620905637741089
0.56924581527709961 0.49659824371337891 0.29736977815628052
0.74862897396087646 0.52173399925231934 0.31848257780075073
0.1174573078751564 0.65573489665985107 0.30509641766548157
0.2890617847442627 0.67968177795410156 0.325726717710495
0.47460833191871643 0.70528048276901245 0.35178235173225403
0.65777647495269775 0.73326164484024048 0.37384504079818726
0.8394540548324585 0.76450508832931519 0.39837300777435303
0 0 0
0 0 0
0.00037213493487797678 3.2312730127159739e-06 0.00056672940263524652
0.053420871496200562 0.0058343922719359398 0.03753102570772171
0.18970669806003571 0.0069928788580000401 0.10005579888820648
0.0037411707453429699 0.033554974943399429 0.070710606873035431
0.06075599417090416 0.058177590370178223 0.13768213987350464
0.18001972138881683 0.078153185546398163 0.20629711449146271
0.35212740302085876 0.089311324059963226 0.25728964805603027
0.55939775705337524 0.094243131577968597 0.29642495512962341
0.0072978301905095577 0.21596664190292358 0.28721120953559875
0.14592024683952332 0.24009239673614502 0.32204625010490417
0.31563243269920349 0.26210224628448486 0.34756961464881897
0.49381202459335327 0.28189462423324585 0.36476820707321167
0.67050701379776001 0.30410706996917725 0.38340634107589722
0.047674756497144699 0.43939074873924255 0.38141605257987976
0.22233374416828156 0.46047127246856689 0.39751419425010681
0.40143930912017822 0.48332840204238892 0.42518830299377441
0.5821419358253479 0.50731801986694336 0.44947728514671326
0.76301449537277222 0.53387761116027832 0.47087132930755615
0.13016283512115479 0.6677626371383667 0.45647284388542175
0.30158469080924988 0.69009226560592651 0.47603437304496765
0.48555973172187805 0.71648722887039185 0.50415289402008057
0.67076128721237183 0.74517536163330078 0.53118276596069336
0.85402601957321167 0.7760964035987854 0.5576741099357605
0.0022918849717825651 0.00023006364062894136 0.001064360374584794
0 0 0
0.0059231477789580822 0.0013902850914746523 0.013933802954852581
0.083940647542476654 0.0061887255869805813 0.082999102771282196
0.23037168383598328 0.0097952596843242645 0.17365241050720215
0.0052608414553105831 0.037999588996171951 0.12191114574670792
0.072760984301567078 0.069667607545852661 0.24326282739639282
0.19958916306495667 0.087174013257026672 0.32617762684822083
0.37857431173324585 0.093305684626102448 0.39772391319274902
0.58656817674636841 0.098525851964950562 0.45102071762084961
0.01554426271468401 0.22703275084495544 0.44122296571731567
0.1587369292974472 0.25116008520126343 0.48077851533889771
0.32522928714752197 0.27135792374610901 0.50012481212615967
0.50458937883377075 0.28884780406951904 0.52188706398010254
0.69093483686447144 0.30952739715576172 0.54929858446121216
0.065233640372753143 0.44987699389457703 0.53795456886291504
0.23353250324726105 0.47031974792480469 0.55897718667984009
0.41312992572784424 0.49106660485267639 0.58220791816711426
0.59374463558197021 0.51576924324035645 0.60695284605026245
0.77422773838043213 0.54430645704269409 0.63272637128829956
0.15190830826759338 0.68356585502624512 0.61439627408981323
0.31894209980964661 0.70245265960693359 0.63708639144897461
0.50055927038192749 0.72679489850997925 0.66483467817306519
0.68437999486923218 0.75510972738265991 0.69419026374816895
0.86600738763809204 0.78745836019515991 0.72459012269973755
