assets/lut/alexjordan harsh sunset.cube
# Created by: G'MIC (https://gmic.eu)
TITLE "harsh_sunset"
# LUT size
LUT_3D_SIZE 5
# Data domain
DOMAIN_MIN 0.0 0.0 0.0
DOMAIN_MAX 1.0 1.0 1.0
# LUT data points
0 0 0
0.0082843704149127007 0.0049194335006177425 0.0087127089500427246
0.069099992513656616 0.022828329354524612 0.023729706183075905
0.21488501131534576 0.017792122438549995 0.021179273724555969
0.51539868116378784 0.00020303165365476161 0.00047411452396772802
0.041519120335578918 0.052535261958837509 0.043058566749095917
0.083234377205371857 0.069867059588432312 0.051175031810998917
0.23774099349975586 0.073625735938549042 0.04462737962603569
0.54321300983428955 0.049337692558765411 0.011616665869951248
0.9595068097114563 0.0046809627674520016 0
0.035887625068426132 0.23127159476280212 0.048020664602518082
0.14819687604904175 0.24763943254947662 0.036277845501899719
0.42478883266448975 0.23903141915798187 0.015252730809152126
0.85228157043457031 0.19931241869926453 9.6938192655215971e-06
1 0.14993897080421448 0
0.00026047651772387326 0.50079959630966187 0.0024623048957437277
0.12588025629520416 0.50945842266082764 0.0057542687281966209
0.45767092704772949 0.49930337071418762 0.00055725994752719998
0.86445987224578857 0.46456801891326904 0
0.99817079305648804 0.41679143905639648 7.0010914896556642e-06
0.0099249742925167084 0.78338563442230225 0.0068077384494245052
0.16386081278324127 0.79398936033248901 0.016111381351947784
0.48018500208854675 0.78905510902404785 0.015943653881549835
0.87006604671478271 0.7663731575012207 0.015603143721818924
0.99984073638916016 0.73812323808670044 0.020246872678399086
0 0 0
0.020570090040564537 0.01429799385368824 0.018339509144425392
0.084344871342182159 0.02607409842312336 0.033889934420585632
0.26439908146858215 0.018831783905625343 0.040083207190036774
0.58264672756195068 0 0.011069683358073235
0.049981601536273956 0.066026411950588226 0.066278122365474701
0.098647356033325195 0.080708719789981842 0.08009607344865799
0.2726256251335144 0.079959496855735779 0.078539997339248657
0.58173459768295288 0.054560881108045578 0.04749482125043869
0.98933172225952148 0.010235760360956192 0.0046800798736512661
0.038519047200679779 0.24721647799015045 0.10029233992099762
0.15719278156757355 0.26211979985237122 0.1004311665892601
0.45271503925323486 0.25156638026237488 0.067136578261852264
0.86759489774703979 0.21817295253276825 0.026612000539898872
1 0.1674906313419342 0.00029512293986044824
0.0028894161805510521 0.51884716749191284 0.061952672898769379
0.14950643479824066 0.5233912467956543 0.072642229497432709
0.47959637641906738 0.51160448789596558 0.05562196671962738
0.898662269115448 0.48077082633972168 0.033109359443187714
1 0.43903335928916931 0.016969045624136925
0.0058050267398357391 0.80482727289199829 0.07941773533821106
0.17101797461509705 0.81467700004577637 0.092707596719264984
0.49785953760147095 0.80725592374801636 0.096021257340908051
0.9086335301399231 0.78597468137741089 0.10627565532922745
1 0.75912141799926758 0.11084122210741043
0.0055616488680243492 0.0030598361045122147 0.0040330775082111359
0.024465223774313927 0.016866840422153473 0.026573270559310913
0.11270225048065186 0.030624359846115112 0.062489215284585953
0.30533111095428467 0.015212474390864372 0.074434466660022736
0.65331876277923584 0 0.054071061313152313
0.051613975316286087 0.074083693325519562 0.099358879029750824
0.10849115997552872 0.0881919264793396 0.12453430891036987
0.29384693503379822 0.085119493305683136 0.13849195837974548
0.62417101860046387 0.054109610617160797 0.11535101383924484
0.99692994356155396 0.016618212684988976 0.068043246865272522
0.044895082712173462 0.26263025403022766 0.18919706344604492
0.16610640287399292 0.2752629816532135 0.19517998397350311
0.46440055966377258 0.26528865098953247 0.17549194395542145
0.86898064613342285 0.22580748796463013 0.13174276053905487
1 0.17979203164577484 0.08183664083480835
0.0052966997027397156 0.53210097551345825 0.18137778341770172
0.16322650015354156 0.53701281547546387 0.19233441352844238
0.48823386430740356 0.52523601055145264 0.18088139593601227
0.90824347734451294 0.49528980255126953 0.15512216091156006
1 0.45652621984481812 0.12498559057712555
0.007543511688709259 0.81912750005722046 0.19671349227428436
0.18573518097400665 0.82872039079666138 0.21205978095531464
0.51342993974685669 0.82181370258331299 0.22034303843975067
0.91330993175506592 0.80228495597839355 0.22604002058506012
1 0.77931612730026245 0.22637754678726196
0.014004651457071304 0.014160814695060253 0.02794576995074749
0.03965270146727562 0.025127336382865906 0.057956695556640625
0.14225159585475922 0.035315122455358505 0.10314859449863434
0.34361502528190613 0.013599799945950508 0.12987411022186279
0.72927415370941162 0 0.12736643850803375
0.056579157710075378 0.082729890942573547 0.15439689159393311
0.12094512581825256 0.09643864631652832 0.1931341141462326
0.32240048050880432 0.088958218693733215 0.22239977121353149
0.68310165405273438 0.051217500120401382 0.2178298681974411
1 0.013946383260190487 0.18408024311065674
0.045253932476043701 0.27447432279586792 0.30374437570571899
0.17030422389507294 0.28804546594619751 0.32222232222557068
0.47778287529945374 0.27156445384025574 0.3087494969367981
0.90703403949737549 0.23279650509357452 0.27158409357070923
1 0.17813953757286072 0.21517668664455414
0.0085262376815080643 0.54062408208847046 0.3240477442741394
0.16980656981468201 0.55084580183029175 0.3359835147857666
0.50391381978988647 0.53548943996429443 0.32374510169029236
0.91771984100341797 0.50753337144851685 0.2958378791809082
1 0.4678899347782135 0.26458483934402466
0.015688473358750343 0.82647877931594849 0.33691096305847168
0.20107010006904602 0.83875870704650879 0.35320606827735901
0.53243982791900635 0.83550703525543213 0.36168038845062256
0.92177397012710571 0.81893336772918701 0.36501967906951904
1 0.79160326719284058 0.35661783814430237
0.020647311583161354 0.015836408361792564 0.052292544394731522
0.049455858767032623 0.029224725440144539 0.086206831037998199
0.16440095007419586 0.036903679370880127 0.16098600625991821
0.38442268967628479 0.011986107565462589 0.19526234269142151
0.8008309006690979 3.0338062060764059e-05 0.22097915410995483
0.063242800533771515 0.093171305954456329 0.2344941645860672
0.13236595690250397 0.10333853214979172 0.28709915280342102
0.35356217622756958 0.092144384980201721 0.34041088819503784
0.70811682939529419 0.053217675536870956 0.33681550621986389
1 0.018498798832297325 0.32314196228981018
0.051350463181734085 0.28608003258705139 0.44733923673629761
0.18477925658226013 0.29861935973167419 0.46432781219482422
0.49103793501853943 0.2799772322177887 0.46154731512069702
0.88913989067077637 0.23969578742980957 0.42506277561187744
1 0.19469086825847626 0.37428683042526245
0.026362236589193344 0.54987537860870361 0.47843363881111145
0.18723773956298828 0.56280732154846191 0.49101388454437256
0.52388942241668701 0.55251914262771606 0.47868773341178894
0.92717075347900391 0.52167993783950806 0.45666563510894775
1 0.48684066534042358 0.42752170562744141
0.04567863792181015 0.83601540327072144 0.48653480410575867
0.22420665621757507 0.85128968954086304 0.50706809759140015
0.55977928638458252 0.85014402866363525 0.51625692844390869
0.93071985244750977 0.83518356084823608 0.51931631565093994
1 0.81115502119064331 0.50596839189529419
