assets/lut/alexjordan green indoor.cube
# Created by: G'MIC (https://gmic.eu)
TITLE "green_indoor"
# LUT size
LUT_3D_SIZE 5
# Data domain
DOMAIN_MIN 0.0 0.0 0.0
DOMAIN_MAX 1.0 1.0 1.0
# LUT data points
0.039215415716171265 0.044850487262010574 0.036175191402435303
0.095200933516025543 0.06951981782913208 0.05965939536690712
0.16882045567035675 0.091723799705505371 0.085407093167304993
0.28949630260467529 0.10655754059553146 0.095402061939239502
0.43107128143310547 0.12408912181854248 0.11227406561374664
0.078612320125102997 0.19313222169876099 0.07103295624256134
0.20811372995376587 0.21436479687690735 0.074207216501235962
0.3517414927482605 0.2347932904958725 0.10940617322921753
0.47872051596641541 0.26569280028343201 0.15900848805904388
0.61862224340438843 0.30123937129974365 0.19791567325592041
0.092878378927707672 0.41881203651428223 0.08369775116443634
0.25355800986289978 0.44341441988945007 0.09881533682346344
0.4508003294467926 0.46630951762199402 0.11506675183773041
0.66803973913192749 0.48551580309867859 0.1570085883140564
0.85844999551773071 0.51528722047805786 0.21767640113830566
0.11589135229587555 0.68721526861190796 0.10953628271818161
0.29684063792228699 0.72133708000183105 0.12972268462181091
0.51413553953170776 0.75651168823242188 0.13649342954158783
0.76561474800109863 0.77933025360107422 0.17229509353637695
0.99316918849945068 0.80409526824951172 0.30244350433349609
0.1539766937494278 0.98788899183273315 0.14749331772327423
0.41654491424560547 0.99447578191757202 0.29555514454841614
0.73237049579620361 0.99698126316070557 0.5365024209022522
0.97702229022979736 0.99606359004974365 0.92545652389526367
1 1 1
0.051680382341146469 0.05354226753115654 0.084123037755489349
0.12267735600471497 0.071011468768119812 0.11757764965295792
0.21261788904666901 0.092004112899303436 0.13970363140106201
0.33066585659980774 0.10971181839704514 0.1626180112361908
0.45674577355384827 0.13280701637268066 0.18742543458938599
0.080822646617889404 0.20212873816490173 0.18059198558330536
0.212283656001091 0.2276880145072937 0.19952301681041718
0.33596611022949219 0.25520354509353638 0.23620963096618652
0.46439698338508606 0.28786799311637878 0.26996105909347534
0.60238063335418701 0.32350680232048035 0.30320212244987488
0.098470263183116913 0.4305473268032074 0.22494874894618988
0.26397064328193665 0.45824238657951355 0.24768237769603729
0.46966332197189331 0.48035401105880737 0.26669260859489441
0.65710413455963135 0.50482451915740967 0.32945296168327332
0.81888741254806519 0.54240220785140991 0.39499890804290771
0.12663793563842773 0.70403850078582764 0.26815551519393921
0.31032654643058777 0.73843127489089966 0.29369679093360901
0.53339087963104248 0.77005970478057861 0.3135906457901001
0.78220504522323608 0.7953304648399353 0.34904506802558899
0.99472653865814209 0.8215099573135376 0.49595534801483154
0.19024477899074554 0.99466460943222046 0.33568578958511353
0.45727023482322693 0.99924206733703613 0.45906144380569458
0.82767218351364136 0.99635213613510132 0.7522357702255249
0.99465310573577881 0.99895459413528442 0.98608916997909546
1 1 1
0.055657420307397842 0.0580303855240345 0.15853175520896912
0.13956969976425171 0.074385248124599457 0.22216227650642395
0.28463825583457947 0.078140765428543091 0.26062482595443726
0.45418432354927063 0.081668123602867126 0.2895987331867218
0.57617026567459106 0.10761522501707077 0.30486783385276794
0.080330103635787964 0.2105429619550705 0.3350059986114502
0.22036109864711761 0.23226270079612732 0.36642783880233765
0.40566277503967285 0.24410246312618256 0.37459743022918701
0.52807682752609253 0.28560641407966614 0.3812502920627594
0.66092360019683838 0.3250490128993988 0.40607056021690369
0.10446781665086746 0.43783432245254517 0.40034174919128418
0.26917138695716858 0.46671536564826965 0.42886853218078613
0.47818866372108459 0.49090674519538879 0.45173099637031555
0.63543343544006348 0.52793937921524048 0.50561380386352539
0.80924433469772339 0.56833195686340332 0.54189693927764893
0.13687984645366669 0.71283292770385742 0.45791462063789368
0.31761592626571655 0.75201505422592163 0.49052777886390686
0.54518401622772217 0.78248661756515503 0.51964855194091797
0.80228334665298462 0.80772638320922852 0.56936752796173096
0.98471677303314209 0.84705084562301636 0.69530242681503296
0.23561853170394897 0.99521303176879883 0.5507814884185791
0.52692520618438721 0.99993103742599487 0.66091501712799072
0.90563124418258667 0.99628043174743652 0.90650224685668945
0.99995958805084229 1 0.99991923570632935
1 1 1
0.058868244290351868 0.062909804284572601 0.26344597339630127
0.14703691005706787 0.077744245529174805 0.36191204190254211
0.30104005336761475 0.078245140612125397 0.43754404783248901
0.52588933706283569 0.064316451549530029 0.48492628335952759
0.72222602367401123 0.069163918495178223 0.49310648441314697
0.080515436828136444 0.21531218290328979 0.52260023355484009
0.22290168702602386 0.23540593683719635 0.56925106048583984
0.41714847087860107 0.24884246289730072 0.59379845857620239
0.6280977725982666 0.26463201642036438 0.59299808740615845
0.8180854320526123 0.2908344566822052 0.58993721008300781
0.11305271089076996 0.4452824592590332 0.61115783452987671
0.27797043323516846 0.47482192516326904 0.64175975322723389
0.48727497458457947 0.49837663769721985 0.66848987340927124
0.72095263004302979 0.52194589376449585 0.68230956792831421
0.89223372936248779 0.56369215250015259 0.69202303886413574
0.14147722721099854 0.72460466623306274 0.68108952045440674
0.329965740442276 0.76420485973358154 0.72005116939544678
0.55106407403945923 0.79595351219177246 0.74345189332962036
0.81424403190612793 0.82159507274627686 0.78668433427810669
0.95990985631942749 0.87943744659423828 0.86418849229812622
0.27680203318595886 0.99825567007064819 0.76939374208450317
0.68684595823287964 0.99337142705917358 0.86675286293029785
0.96977108716964722 0.99818944931030273 0.98142927885055542
1 1 1
1 1 1
0.060078222304582596 0.066854275763034821 0.41408827900886536
0.15263095498085022 0.074285708367824554 0.55005264282226562
0.31226694583892822 0.075822047889232635 0.64139759540557861
0.5304025411605835 0.064107887446880341 0.71137738227844238
0.74715828895568848 0.063920222222805023 0.71362036466598511
0.082450792193412781 0.21879464387893677 0.73824119567871094
0.22725838422775269 0.2378072589635849 0.80230563879013062
0.41763126850128174 0.25248897075653076 0.83843207359313965
0.6428714394569397 0.26307037472724915 0.84451031684875488
0.87142020463943481 0.2805669903755188 0.82662922143936157
0.11809194087982178 0.45194205641746521 0.84573525190353394
0.2809293270111084 0.48062345385551453 0.89106035232543945
0.49104982614517212 0.50513070821762085 0.92056918144226074
0.73582655191421509 0.52621555328369141 0.93639755249023438
0.97899407148361206 0.54803329706192017 0.92966902256011963
0.14492177963256836 0.73316562175750732 0.9343680739402771
0.32788300514221191 0.77649271488189697 0.97370129823684692
0.57645803689956665 0.80378895998001099 0.98694825172424316
0.83689421415328979 0.83782327175140381 0.99362409114837646
0.99760806560516357 0.89372074604034424 0.98719793558120728
0.36838611960411072 0.99569129943847656 0.98271197080612183
0.79315406084060669 0.99464303255081177 0.98620200157165527
0.99697732925415039 0.99973738193511963 0.99946880340576172
1 1 1
1 1 1
