assets/lut/alexjordan green day 01.cube
# Created by: G'MIC (https://gmic.eu)
TITLE "green_day_01"
# LUT size
LUT_3D_SIZE 7
# Data domain
DOMAIN_MIN 0.0 0.0 0.0
DOMAIN_MAX 1.0 1.0 1.0
# LUT data points
0 0 0
0.042914312332868576 0 0
0.19733454287052155 0.00031919291359372437 0.0015318627702072263
0.34273508191108704 0 1.4002182979311328e-05
0.48830100893974304 0 0.00013463637151289731
0.63223689794540405 0.0015942292520776391 0.00090852624271064997
0.77713990211486816 0.025330981239676476 0
0 0.069201432168483734 0
0.06047261506319046 0.070100046694278717 0
0.21800816059112549 0.074922241270542145 0
0.36084404587745667 0.077023945748806 0
0.50621604919433594 0.082435742020606995 7.6114432886242867e-05
0.64984709024429321 0.09831547737121582 0.0036639643367379904
0.79411309957504272 0.13379406929016113 0.00085718493210151792
0.0026231054216623306 0.23649248480796814 0.0013121661031618714
0.082320928573608398 0.23384702205657959 0.00029925178387202322
0.23373997211456299 0.23329164087772369 0
0.37873470783233643 0.23595784604549408 1.3643152669828851e-05
0.5227208137512207 0.23749694228172302 0
0.66680032014846802 0.24353858828544617 0.00064302334794774652
0.81166923046112061 0.2664133608341217 0.0014705882640555501
0.0057913986966013908 0.38816061615943909 0.0032690907828509808
0.10283046215772629 0.38810849189758301 0.00035202925209887326
0.24668371677398682 0.38779190182685852 0
0.39607536792755127 0.3886546790599823 0
0.5403856635093689 0.39230784773826599 0.00015133128908928484
0.68468135595321655 0.39833280444145203 0.0012801226694136858
0.82963484525680542 0.4135735034942627 0.0028108034748584032
0.0075526069849729538 0.53786957263946533 0.0036715189926326275
0.11614807695150375 0.53870213031768799 0.00025168026331812143
0.26002329587936401 0.53894233703613281 0
0.41210633516311646 0.54264706373214722 0
0.55902558565139771 0.54674369096755981 0.00084210565546527505
0.70305788516998291 0.55381721258163452 0.0034686967264860868
0.84835314750671387 0.56665313243865967 0.0074764476157724857
0.011943592689931393 0.68921566009521484 0.0070168138481676579
0.13049966096878052 0.68925696611404419 0.0018055784748867154
0.27461880445480347 0.69313722848892212 0.00042580996523611248
0.42738050222396851 0.69720244407653809 0.00037752039497718215
0.57552385330200195 0.7028687596321106 0.0024864943698048592
0.72055244445800781 0.71053981781005859 0.0080251209437847137
0.86625939607620239 0.7232891321182251 0.015978734940290451
0.020725414156913757 0.8436274528503418 0.016130410134792328
0.14614328742027283 0.84414750337600708 0.0085667632520198822
0.28886085748672485 0.84853178262710571 0.0055564730428159237
0.43928980827331543 0.85431879758834839 0.0057120528072118759
0.58850634098052979 0.86053466796875 0.0099295368418097496
0.73588687181472778 0.86948633193969727 0.01835194043815136
0.88338375091552734 0.88277745246887207 0.030545193701982498
0 0 0.015621080994606018
0.051176257431507111 0.00022565056860912591 0.028592832386493683
0.19686272740364075 0 0.04190579429268837
0.34468895196914673 0 0.043407965451478958
0.49014130234718323 0 0.047958359122276306
0.63343662023544312 0.00036716836621053517 0.055009521543979645
0.77627885341644287 0.021125121042132378 0.050022769719362259
0 0.0739731565117836 0.030797427520155907
0.063387326896190643 0.074819616973400116 0.035327672958374023
0.22199989855289459 0.084898866713047028 0.039872098714113235
0.36525911092758179 0.084696479141712189 0.044962581247091293
0.50964248180389404 0.08511054515838623 0.043189313262701035
0.65282350778579712 0.096277721226215363 0.060614850372076035
0.79545331001281738 0.12888282537460327 0.065062656998634338
0.00096579157980158925 0.23773074150085449 0.055561874061822891
0.081905707716941833 0.23382352292537689 0.05490315705537796
0.23496833443641663 0.23774509131908417 0.053205467760562897
0.38129866123199463 0.23774509131908417 0.060036499053239822
0.5248342752456665 0.24166187644004822 0.055696286261081696
0.66938060522079468 0.24494120478630066 0.067524001002311707
0.81329512596130371 0.26365125179290771 0.075266622006893158
0.0014705882640555501 0.38823530077934265 0.074731908738613129
0.097023144364356995 0.38823530077934265 0.068658821284770966
0.2473987489938736 0.38891920447349548 0.063348360359668732
0.39839047193527222 0.39246594905853271 0.068337522447109222
0.54190456867218018 0.39611312747001648 0.07922026515007019
0.68632030487060547 0.40007126331329346 0.082694962620735168
0.83089178800582886 0.41148212552070618 0.087246961891651154
0.002650152426213026 0.53873986005783081 0.085610240697860718
0.10893681645393372 0.54136836528778076 0.076309531927108765
0.25883239507675171 0.54273921251296997 0.073504477739334106
0.41329336166381836 0.5466124415397644 0.078044101595878601
0.56057393550872803 0.55047988891601562 0.088323719799518585
0.70466798543930054 0.55453193187713623 0.096979342401027679
0.84906953573226929 0.56444483995437622 0.10496266931295395
0.0070859570987522602 0.69051730632781982 0.10113749653100967
0.12444645166397095 0.69314897060394287 0.091589942574501038
0.27175399661064148 0.69688314199447632 0.087837889790534973
0.42615658044815063 0.70086932182312012 0.090055443346500397
0.57583332061767578 0.70489025115966797 0.09934571385383606
0.7210579514503479 0.71021640300750732 0.11062126606702805
0.86621898412704468 0.72033113241195679 0.12158391624689102
0.015662861987948418 0.84488236904144287 0.1208728551864624
0.14055506885051727 0.84752649068832397 0.1115192323923111
0.28551849722862244 0.85132116079330444 0.10738899558782578
0.43736138939857483 0.8554261326789856 0.10881631821393967
0.58758664131164551 0.86052507162094116 0.11614043265581131
0.73502832651138306 0.86786311864852905 0.12714749574661255
0.88209307193756104 0.87885493040084839 0.13901242613792419
0 0.0026249904185533524 0.13784785568714142
0.054779186844825745 0.00027594473795033991 0.14445115625858307
0.1979818195104599 0 0.14862716197967529
0.34306240081787109 0 0.15052019059658051
0.48974847793579102 0 0.15652363002300262
0.63568258285522461 0 0.16352356970310211
0.77860349416732788 0.010877033695578575 0.1573682576417923
0 0.087008036673069 0.16316404938697815
0.068680480122566223 0.079392917454242706 0.16489887237548828
0.22232805192470551 0.083555780351161957 0.16583962738513947
0.36524033546447754 0.085886158049106598 0.16594900190830231
0.51083117723464966 0.083474554121494293 0.16855339705944061
0.65628159046173096 0.090530902147293091 0.17747965455055237
0.79851716756820679 0.12283235788345337 0.17683032155036926
0.00048451143084093928 0.23738247156143188 0.17718829214572906
0.09231199324131012 0.23358316719532013 0.18038670718669891
0.24169228971004486 0.23774199187755585 0.18532277643680573
0.38422265648841858 0.23806463181972504 0.18793442845344543
0.52840262651443481 0.24019540846347809 0.18752209842205048
0.67338860034942627 0.24618396162986755 0.19096581637859344
0.8168453574180603 0.26337432861328125 0.19373063743114471
0.0016192267648875713 0.38823530077934265 0.1910998672246933
0.10448997467756271 0.38821724057197571 0.1919839084148407
0.25376766920089722 0.39229029417037964 0.19437238574028015
0.40243726968765259 0.39610841870307922 0.20001931488513947
0.54607337713241577 0.39988666772842407 0.20563763380050659
0.6901705265045166 0.4025217592716217 0.2083895206451416
0.83414256572723389 0.41214090585708618 0.2114768773317337
0.0036632611881941557 0.54252088069915771 0.20422355830669403
0.11477655172348022 0.54342067241668701 0.20145493745803833
0.26390901207923889 0.54713320732116699 0.20396551489830017
0.41697853803634644 0.55083662271499634 0.21030156314373016
0.56330579519271851 0.55440360307693481 0.21705883741378784
0.70724701881408691 0.55763262510299683 0.22325234115123749
0.85128575563430786 0.56464463472366333 0.2294832170009613
0.0076878867112100124 0.69496077299118042 0.22264878451824188
0.12722930312156677 0.69729721546173096 0.21815603971481323
0.27478134632110596 0.70098870992660522 0.2181294858455658
0.42817562818527222 0.70482450723648071 0.22232955694198608
0.57689797878265381 0.70864039659500122 0.22870108485221863
0.72220158576965332 0.71252715587615967 0.23662328720092773
0.86699855327606201 0.72012591361999512 0.24489521980285645
0.016229951754212379 0.84992051124572754 0.24428722262382507
0.14181657135486603 0.85151726007461548 0.2382647693157196
0.28657335042953491 0.85524773597717285 0.23552772402763367
0.43765485286712646 0.85899126529693604 0.2378213107585907
0.58773362636566162 0.86312609910964966 0.24338045716285706
0.73510819673538208 0.86844581365585327 0.25157010555267334
0.88195228576660156 0.87758415937423706 0.26100188493728638
0 0.0049440721049904823 0.2740446925163269
0.05423470214009285 0.0019018733873963356 0.278615802526474
0.19383437931537628 0 0.27814987301826477
0.34032467007637024 0 0.27977815270423889
0.48808333277702332 0 0.28585031628608704
0.63517636060714722 2.1541820842685411e-06 0.29079025983810425
0.78015869855880737 0.0073347501456737518 0.28782805800437927
0 0.094513416290283203 0.29357090592384338
0.068655245006084442 0.088785834610462189 0.29618394374847412
0.21478714048862457 0.084630049765110016 0.29507991671562195
0.36224675178527832 0.086603425443172455 0.29810416698455811
0.50992178916931152 0.088644377887248993 0.30496558547019958
0.65652114152908325 0.099153898656368256 0.31122878193855286
0.79984205961227417 0.1245429515838623 0.30865994095802307
0 0.23774509131908417 0.3078828752040863
0.089855626225471497 0.23747721314430237 0.30959168076515198
0.237745001912117 0.23773276805877686 0.31150144338607788
0.38511952757835388 0.2400297224521637 0.31723907589912415
0.53038197755813599 0.24364432692527771 0.32325145602226257
0.67567098140716553 0.25259992480278015 0.32839101552963257
0.81889933347702026 0.26736170053482056 0.32873773574829102
0.0022056431043893099 0.39208218455314636 0.32124987244606018
0.11003304272890091 0.39304560422897339 0.32363498210906982
0.25795641541481018 0.39608526229858398 0.32860136032104492
0.40600875020027161 0.39979791641235352 0.33427333831787109
0.54888767004013062 0.40314903855323792 0.3386605978012085
0.69282209873199463 0.40674087405204773 0.34441003203392029
0.83661490678787231 0.41511285305023193 0.34803920984268188
0.0067195668816566467 0.54604417085647583 0.33618146181106567
0.1241985410451889 0.54850798845291138 0.33772993087768555
0.27092531323432922 0.55154430866241455 0.3430197536945343
0.42129161953926086 0.55513936281204224 0.34934240579605103
0.5655631422996521 0.55839598178863525 0.35253980755805969
0.7091681957244873 0.5614008903503418 0.35872051119804382
0.85315442085266113 0.56738138198852539 0.36444735527038574
0.012238805182278156 0.69996553659439087 0.35559767484664917
0.13556797802448273 0.7018466591835022 0.35514786839485168
0.28107568621635437 0.70499974489212036 0.35729336738586426
0.43188115954399109 0.70880919694900513 0.36171188950538635
0.57876551151275635 0.71249359846115112 0.36542484164237976
0.72355228662490845 0.71604913473129272 0.37095588445663452
0.86801141500473022 0.72242873907089233 0.3770420253276825
0.021756116300821304 0.85521477460861206 0.37723743915557861
0.14860397577285767 0.85572344064712524 0.37411651015281677
0.29171687364578247 0.85923010110855103 0.37275964021682739
0.44096478819847107 0.86231166124343872 0.37452307343482971
0.58934980630874634 0.8658565878868103 0.37840244174003601
0.73595821857452393 0.87085598707199097 0.38404363393783569
0.8822711706161499 0.87872499227523804 0.39105391502380371
0.0099292974919080734 0 0.40543416142463684
0.081345170736312866 0 0.40844577550888062
0.20133376121520996 0 0.40929600596427917
0.34214353561401367 0 0.41179206967353821
0.48792225122451782 0 0.4167582094669342
0.63430643081665039 0.0010797239374369383 0.42057314515113831
0.78038877248764038 0.010286906734108925 0.42126303911209106
0.00077067356323823333 0.085596926510334015 0.42344993352890015
0.076606616377830505 0.088036783039569855 0.42593187093734741
0.21248675882816315 0.086851246654987335 0.4267418384552002
0.35991880297660828 0.091011658310890198 0.43032413721084595
0.50742703676223755 0.098133653402328491 0.43661138415336609
0.65397471189498901 0.11099682748317719 0.44152846932411194
0.79876649379730225 0.13191135227680206 0.4415435791015625
3.3748852729331702e-05 0.24087029695510864 0.4387567937374115
0.086886383593082428 0.24062798917293549 0.44069483876228333
0.23324505984783173 0.23862643539905548 0.44321894645690918
0.3821568489074707 0.24224171042442322 0.44828328490257263
0.52855843305587769 0.24889306724071503 0.45467498898506165
0.67386347055435181 0.25864946842193604 0.46032211184501648
0.81814593076705933 0.27308449149131775 0.46183687448501587
0.0045090620405972004 0.39597886800765991 0.45329129695892334
0.11524651944637299 0.3971136212348938 0.45545276999473572
0.25795888900756836 0.39926785230636597 0.46022948622703552
0.40448343753814697 0.40171357989311218 0.46519577503204346
0.54829323291778564 0.40676945447921753 0.46982425451278687
0.69261723756790161 0.41165551543235779 0.47674643993377686
0.83675944805145264 0.42090627551078796 0.48062607645988464
0.013199720531702042 0.55003958940505981 0.47090765833854675
0.13388597965240479 0.55201101303100586 0.47258096933364868
0.27549341320991516 0.55441176891326904 0.47726166248321533
0.42203104496002197 0.55833333730697632 0.48164284229278564
0.56614106893539429 0.56225490570068359 0.48520413041114807
0.71015852689743042 0.56611067056655884 0.49177649617195129
0.85386735200881958 0.57256734371185303 0.49672457575798035
0.022466337308287621 0.70412188768386841 0.49038755893707275
0.14707572758197784 0.70495849847793579 0.49044200778007507
0.2881527841091156 0.70881634950637817 0.49328270554542542
0.43501561880111694 0.71177291870117188 0.49681222438812256
0.58081042766571045 0.71516317129135132 0.50034689903259277
0.72496181726455688 0.72006511688232422 0.50540107488632202
0.86911600828170776 0.72648316621780396 0.51023238897323608
0.034980878233909607 0.8592950701713562 0.51101201772689819
0.16075971722602844 0.8593137264251709 0.50969284772872925
0.30020540952682495 0.86246603727340698 0.50934296846389771
0.44585752487182617 0.86338162422180176 0.51084887981414795
0.59224486351013184 0.86734098196029663 0.51391506195068359
0.73767274618148804 0.87312376499176025 0.51833063364028931
0.88337808847427368 0.88061153888702393 0.52339988946914673
0.035699073225259781 0 0.53695815801620483
0.11392512917518616 0 0.53872013092041016
0.22245475649833679 0 0.54062199592590332
0.35318860411643982 0 0.54370522499084473
0.49329805374145508 0.00063835590844973922 0.54814630746841431
0.63695400953292847 0.0042766793631017208 0.55222398042678833
0.78282713890075684 0.01572202704846859 0.55453395843505859
0.019848467782139778 0.090003088116645813 0.55333548784255981
0.10680656880140305 0.088254295289516449 0.55548369884490967
0.22738297283649445 0.090354278683662415 0.55764091014862061
0.36544302105903625 0.098215274512767792 0.5613940954208374
0.5089343786239624 0.10806187987327576 0.5668257474899292
0.65377628803253174 0.12155595421791077 0.57152491807937622
0.79939192533493042 0.14046519994735718 0.57378518581390381
0.01018937025219202 0.24314294755458832 0.5695386528968811
0.11062324047088623 0.24165649712085724 0.5713387131690979
0.24165655672550201 0.24205879867076874 0.57420080900192261
0.3838011622428894 0.24730180203914642 0.57864952087402344
0.528423011302948 0.2548261284828186 0.58454400300979614
0.67327630519866943 0.26502037048339844 0.59002315998077393
0.8182227611541748 0.27981674671173096 0.59298479557037354
0.016351992264389992 0.39838725328445435 0.58602941036224365
0.12903048098087311 0.40000000596046448 0.58756321668624878
0.26279023289680481 0.40000453591346741 0.59119981527328491
0.40520423650741577 0.40385201573371887 0.59569823741912842
0.54921489953994751 0.40836283564567566 0.60105901956558228
0.69322013854980469 0.4158664345741272 0.60706800222396851
0.83732706308364868 0.42661088705062866 0.61106759309768677
0.027529472485184669 0.55253821611404419 0.60422027111053467
0.14675696194171906 0.55441176891326904 0.60584944486618042
0.28196102380752563 0.55535900592803955 0.60894042253494263
0.42478746175765991 0.55833333730697632 0.6129266619682312
0.56921041011810303 0.56226986646652222 0.61756187677383423
0.71197688579559326 0.56895178556442261 0.62319636344909668
0.85506170988082886 0.57743221521377563 0.62747776508331299
0.039470404386520386 0.70714116096496582 0.6237785816192627
0.16144737601280212 0.70882350206375122 0.62451910972595215
0.29720321297645569 0.70882594585418701 0.62658184766769409
0.43996220827102661 0.7127450704574585 0.62958997488021851
0.58444952964782715 0.7164156436920166 0.63342517614364624
0.72753286361694336 0.72264015674591064 0.63825827836990356
0.87076961994171143 0.72993892431259155 0.64214539527893066
0.052615132182836533 0.86324030160903931 0.64491075277328491
0.17605465650558472 0.86323529481887817 0.64307719469070435
0.311134934425354 0.86323839426040649 0.6439899206161499
0.45286965370178223 0.86690026521682739 0.64536011219024658
0.59687346220016479 0.86927533149719238 0.64820700883865356
0.74068856239318848 0.87473946809768677 0.6518670916557312
0.88541549444198608 0.88152635097503662 0.65584653615951538
0.056594625115394592 0 0.67109978199005127
0.14344537258148193 0 0.67148017883300781
0.24882853031158447 0 0.6734311580657959
0.37212750315666199 0.00087639305274933577 0.67662292718887329
0.50602710247039795 0.003279323223978281 0.68097364902496338
0.64616680145263672 0.0096984263509511948 0.68570822477340698
0.79067456722259521 0.023682776838541031 0.69004255533218384
0.046813037246465683 0.10236562043428421 0.68624770641326904
0.13901415467262268 0.099445104598999023 0.68726849555969238
0.25140750408172607 0.10211817175149918 0.68942689895629883
0.38015931844711304 0.10959469527006149 0.69307738542556763
0.51798331737518311 0.1194271594285965 0.6981961727142334
0.65989750623703003 0.13259398937225342 0.70311802625656128
0.80498582124710083 0.15045851469039917 0.70709002017974854
0.039343215525150299 0.24967381358146667 0.70268458127975464
0.14056156575679779 0.24783129990100861 0.70347940921783447
0.26064854860305786 0.25003114342689514 0.7058025598526001
0.3940645158290863 0.25566884875297546 0.70970624685287476
0.53456050157546997 0.26282131671905518 0.71533262729644775
0.67749965190887451 0.27327156066894531 0.72065842151641846
0.82244670391082764 0.28814059495925903 0.72472715377807617
0.04117291048169136 0.40239086747169495 0.72003674507141113
0.1507452130317688 0.40232065320014954 0.72069340944290161
0.27645629644393921 0.4039309024810791 0.72328460216522217
0.41269788146018982 0.40771469473838806 0.72714763879776001
0.55403286218643188 0.41254761815071106 0.73247337341308594
0.69672483205795288 0.42077150940895081 0.73774981498718262
0.84082460403442383 0.43272894620895386 0.74209332466125488
0.049209386110305786 0.55610102415084839 0.73932677507400513
0.16482836008071899 0.55690103769302368 0.73932677507400513
0.29386046528816223 0.55833333730697632 0.74152004718780518
0.43173995614051819 0.56013947725296021 0.74503076076507568
0.57346749305725098 0.56420326232910156 0.74948537349700928
0.71540218591690063 0.57127833366394043 0.75432354211807251
0.85854840278625488 0.58133924007415771 0.75848877429962158
0.060004770755767822 0.71163934469223022 0.75919824838638306
0.17905853688716888 0.71132153272628784 0.75861674547195435
0.30970633029937744 0.7127450704574585 0.76050382852554321
0.44806316494941711 0.71278709173202515 0.76257103681564331
0.58960026502609253 0.71670246124267578 0.76593911647796631
0.7313607931137085 0.7229495644569397 0.76995867490768433
0.87458646297454834 0.73115885257720947 0.77365785837173462
0.073068298399448395 0.8680998682975769 0.78068476915359497
0.1940605640411377 0.86715686321258545 0.77859824895858765
0.32504558563232422 0.86715686321258545 0.77816373109817505
0.46287655830383301 0.86752480268478394 0.77995043992996216
0.60399460792541504 0.87107843160629272 0.7821764349937439
0.74615198373794556 0.87508732080459595 0.78516465425491333
0.89019894599914551 0.88245946168899536 0.78857094049453735
