assets/lut/alexjordan orange dark 07.cube
# Created by: G'MIC (https://gmic.eu)
TITLE "orange_dark_7"
# LUT size
LUT_3D_SIZE 13
# Data domain
DOMAIN_MIN 0.0 0.0 0.0
DOMAIN_MAX 1.0 1.0 1.0
# LUT data points
0.0054820193909108639 0.0054820193909108639 0.0051708593964576721
0.006802278570830822 0.0065644355490803719 0.0060658026486635208
0.0094261020421981812 0.0084932064637541771 0.0078403549268841743
0.01489969901740551 0.01395130529999733 0.012016146443784237
0.022045120596885681 0.015905164182186127 0.014230675995349884
0.035515818744897842 0.016437307000160217 0.016259750351309776
0.061136104166507721 0.018550558015704155 0.018570499494671822
0.10397923737764359 0.022217977792024612 0.022116553038358688
0.11859004944562912 0.023529412224888802 0.023529412224888802
0.11867036670446396 0.023529412224888802 0.023529412224888802
0.11834770441055298 0.023529412224888802 0.023529412224888802
0.11814629286527634 0.023529412224888802 0.023529412224888802
0.1191592812538147 0.023529412224888802 0.023529412224888802
0.014770179055631161 0.014930814504623413 0.014348976314067841
0.01923217810690403 0.018543347716331482 0.017051562666893005
0.030196471139788628 0.026368115097284317 0.023634606972336769
0.042730428278446198 0.031648211181163788 0.027581248432397842
0.061051987111568451 0.033905491232872009 0.030738051980733871
0.09425055980682373 0.038500335067510605 0.03566373884677887
0.14091727137565613 0.041714195162057877 0.038039352744817734
0.1748732328414917 0.041338108479976654 0.037911821156740189
0.17578862607479095 0.039965983480215073 0.037019558250904083
0.17659157514572144 0.039394721388816833 0.03597591444849968
0.16833293437957764 0.036555763334035873 0.034040875732898712
0.16386057436466217 0.035715963691473007 0.033813446760177612
0.16951125860214233 0.038037154823541641 0.035327237099409103
0.035294074565172195 0.037631765007972717 0.034054700285196304
0.043344922363758087 0.045074582099914551 0.038122888654470444
0.057358387857675552 0.05118909478187561 0.043435085564851761
0.090429462492465973 0.064377635717391968 0.052336808294057846
0.129710853099823 0.071064591407775879 0.057232756167650223
0.17724350094795227 0.074404411017894745 0.060729052871465683
0.2531374990940094 0.080216817557811737 0.062371212989091873
0.30010294914245605 0.079486876726150513 0.061326764523983002
0.2976931631565094 0.076331615447998047 0.05936083197593689
0.30651664733886719 0.07814914733171463 0.060722380876541138
0.31363171339035034 0.08147895336151123 0.061653152108192444
0.32733374834060669 0.08686172217130661 0.065301991999149323
0.36612418293952942 0.10148592293262482 0.073615416884422302
0.059221036732196808 0.080578193068504333 0.056969676166772842
0.073208890855312347 0.093919448554515839 0.062947094440460205
0.098989345133304596 0.10459476709365845 0.070076718926429749
0.14453746378421783 0.1173974871635437 0.077934831380844116
0.20459754765033722 0.12818285822868347 0.083172708749771118
0.27651453018188477 0.13227085769176483 0.084238655865192413
0.36509889364242554 0.13303941488265991 0.08156287670135498
0.43393680453300476 0.13212327659130096 0.077301934361457825
0.44820359349250793 0.13283652067184448 0.077938362956047058
0.46805843710899353 0.14386850595474243 0.082761250436306
0.49263682961463928 0.15697196125984192 0.089376263320446014
0.52756953239440918 0.17502303421497345 0.098761811852455139
0.5562865138053894 0.18880638480186462 0.10710148513317108
0.076267614960670471 0.14704522490501404 0.072454385459423065
0.096758238971233368 0.16096001863479614 0.081165626645088196
0.1339380294084549 0.17630210518836975 0.088466539978981018
0.19503886997699738 0.19260697066783905 0.093613609671592712
0.27505236864089966 0.20470796525478363 0.094513759016990662
0.35889947414398193 0.20501983165740967 0.093733318150043488
0.45547401905059814 0.20615126192569733 0.091554813086986542
0.54732918739318848 0.2113121896982193 0.089019447565078735
0.58991515636444092 0.2238793820142746 0.095275238156318665
0.61775922775268555 0.2422863245010376 0.10632306337356567
0.63975065946578979 0.25972339510917664 0.11655596643686295
0.65735375881195068 0.27325436472892761 0.12572622299194336
0.66305863857269287 0.28068733215332031 0.1279037743806839
0.081826962530612946 0.23562332987785339 0.075176715850830078
0.11083733290433884 0.2586091160774231 0.085052475333213806
0.15988291800022125 0.27448579668998718 0.091704502701759338
0.23613558709621429 0.29207316040992737 0.095462501049041748
0.32359984517097473 0.30061665177345276 0.098290011286735535
0.4129984974861145 0.30445876717567444 0.10332831740379333
0.50250154733657837 0.31260398030281067 0.10750629007816315
0.58707660436630249 0.32401499152183533 0.11575351655483246
0.66727912425994873 0.341604083776474 0.12869937717914581
0.71250838041305542 0.35609328746795654 0.13891631364822388
0.72040271759033203 0.36761772632598877 0.14566950500011444
0.72522217035293579 0.38339534401893616 0.15529307723045349
0.72897374629974365 0.38833612203598022 0.156752809882164
0.072250440716743469 0.34845030307769775 0.061813056468963623
0.11311003565788269 0.38206762075424194 0.073486119508743286
0.17764197289943695 0.39340025186538696 0.085161738097667694
0.26646104454994202 0.40387353301048279 0.098391331732273102
0.36003446578979492 0.41352581977844238 0.11324614286422729
0.45589643716812134 0.42860522866249084 0.13287992775440216
0.54291480779647827 0.44011428952217102 0.14657238125801086
0.63341271877288818 0.45530545711517334 0.16437156498432159
0.72887933254241943 0.47108334302902222 0.17686223983764648
0.76079386472702026 0.48527655005455017 0.18617084622383118
0.76478129625320435 0.49633908271789551 0.1928783655166626
0.76792031526565552 0.50893020629882812 0.19991062581539154
0.77235531806945801 0.52517092227935791 0.20932528376579285
0.052898406982421875 0.49052274227142334 0.039798211306333542
0.11455918848514557 0.51240706443786621 0.067818000912666321
0.21076549589633942 0.52050554752349854 0.09923863410949707
0.31723654270172119 0.52943640947341919 0.13303433358669281
0.42019528150558472 0.54804682731628418 0.16609130799770355
0.52035892009735107 0.57103347778320312 0.19009192287921906
0.6150481104850769 0.59013694524765015 0.20778363943099976
0.7164994478225708 0.60675573348999023 0.2224159836769104
0.79151743650436401 0.62081027030944824 0.23395352065563202
0.80047184228897095 0.62664484977722168 0.23880492150783539
0.80514585971832275 0.64312070608139038 0.24867050349712372
0.80862313508987427 0.65792781114578247 0.25716853141784668
0.81151962280273438 0.6710936427116394 0.26309838891029358
0.083817183971405029 0.62261366844177246 0.065456613898277283
0.18126234412193298 0.63296288251876831 0.11907070130109787
0.28635954856872559 0.64800888299942017 0.16355061531066895
0.3942144513130188 0.66801965236663818 0.20049357414245605
0.49186941981315613 0.6940610408782959 0.22599533200263977
0.59288126230239868 0.72252953052520752 0.247603639960289
0.69747912883758545 0.74654090404510498 0.26575317978858948
0.79955273866653442 0.76621931791305542 0.28017622232437134
0.83575177192687988 0.77564775943756104 0.28953248262405396
0.84160870313644409 0.78834801912307739 0.29718503355979919
0.84663969278335571 0.80485135316848755 0.3072359561920166
0.84957629442214966 0.81727224588394165 0.3149779736995697
0.8512260913848877 0.82361316680908203 0.31986397504806519
0.17147104442119598 0.74818253517150879 0.14534792304039001
0.26400941610336304 0.76280558109283447 0.19152927398681641
0.36615949869155884 0.78705364465713501 0.23431600630283356
0.46421876549720764 0.82074743509292603 0.25786861777305603
0.56127512454986572 0.85140669345855713 0.28024217486381531
0.66310185194015503 0.87954443693161011 0.30257952213287354
0.76906347274780273 0.90046703815460205 0.32121533155441284
0.85559350252151489 0.91896116733551025 0.33663269877433777
0.87653785943984985 0.92858421802520752 0.34719035029411316
0.88075399398803711 0.93900024890899658 0.35571581125259399
0.88327258825302124 0.95048379898071289 0.36195272207260132
0.88515377044677734 0.95566070079803467 0.36731377243995667
0.88573354482650757 0.95668637752532959 0.37320378422737122
0.25670531392097473 0.84744834899902344 0.22394247353076935
0.33190014958381653 0.86839944124221802 0.25046342611312866
0.42017340660095215 0.88982528448104858 0.27859070897102356
0.52354830503463745 0.91206729412078857 0.30404487252235413
0.6204216480255127 0.93066108226776123 0.3233313262462616
0.72309762239456177 0.94954496622085571 0.34309947490692139
0.82880747318267822 0.9665151834487915 0.36334794759750366
0.88661777973175049 0.9754454493522644 0.37716865539550781
0.89062470197677612 0.97574174404144287 0.38285234570503235
0.89232546091079712 0.97695380449295044 0.38903611898422241
0.89330768585205078 0.97841739654541016 0.39550679922103882
0.89376717805862427 0.97859358787536621 0.40175458788871765
0.89424210786819458 0.97905945777893066 0.40894901752471924
0.30288016796112061 0.86872315406799316 0.26536163687705994
0.37702015042304993 0.88769066333770752 0.28813779354095459
0.46630555391311646 0.90837293863296509 0.31281024217605591
0.5710071325302124 0.9289054274559021 0.33748838305473328
0.67144745588302612 0.94696235656738281 0.35682576894760132
0.77664768695831299 0.96234577894210815 0.37613266706466675
0.87053251266479492 0.97525107860565186 0.39400410652160645
0.89247727394104004 0.97993594408035278 0.40831825137138367
0.8944847583770752 0.98149669170379639 0.4156377911567688
0.89670342206954956 0.98262226581573486 0.4179723858833313
0.89775371551513672 0.98348438739776611 0.42438855767250061
0.89828699827194214 0.98361539840698242 0.43453642725944519
0.89897501468658447 0.98405098915100098 0.44507268071174622
0.33675873279571533 0.88048893213272095 0.29671457409858704
0.40905973315238953 0.89815694093704224 0.31619298458099365
0.49912267923355103 0.91734194755554199 0.338094562292099
0.60974931716918945 0.93804085254669189 0.36554530262947083
0.71823620796203613 0.95719581842422485 0.38893154263496399
0.82704776525497437 0.97266566753387451 0.41148054599761963
0.88991737365722656 0.98084467649459839 0.42178046703338623
0.89677834510803223 0.98357236385345459 0.43370786309242249
0.89844024181365967 0.98544794321060181 0.44484582543373108
0.89954334497451782 0.98594093322753906 0.44123002886772156
0.90064519643783569 0.98606306314468384 0.4459567666053772
0.90192633867263794 0.98716765642166138 0.46234333515167236
0.90360492467880249 0.98808825016021729 0.48224151134490967
0.0087213553488254547 0.0086556226015090942 0.0074872183613479137
0.0085354074835777283 0.0083300424739718437 0.0072250966913998127
0.0098414700478315353 0.0095696840435266495 0.0088465670123696327
0.015477648004889488 0.014152391813695431 0.013968359678983688
0.025251545011997223 0.016026515513658524 0.015752948820590973
0.040883563458919525 0.018512561917304993 0.018300194293260574
0.070258453488349915 0.020671484991908073 0.020585423335433006
0.10817555338144302 0.022879192605614662 0.022785516455769539
0.1214229092001915 0.023676434531807899 0.024281220510601997
0.12155301123857498 0.023620426654815674 0.023830818012356758
0.12198652327060699 0.023529412224888802 0.024607744067907333
0.12041021883487701 0.023529412224888802 0.023806089535355568
0.12110108137130737 0.023529412224888802 0.023606423288583755
0.021516283974051476 0.022069310769438744 0.020406581461429596
0.022801147773861885 0.023032050579786301 0.020665844902396202
0.027349898591637611 0.025395218282938004 0.022519998252391815
0.04507884755730629 0.031663574278354645 0.02985566109418869
0.067805573344230652 0.035602673888206482 0.034543596208095551
0.10313856601715088 0.040405005216598511 0.038291960954666138
0.1498563140630722 0.043927945196628571 0.040122400969266891
0.18312136828899384 0.043151751160621643 0.039876062422990799
0.1848313957452774 0.042186453938484192 0.039640747010707855
0.18058684468269348 0.040281765162944794 0.038076199591159821
0.17342744767665863 0.037662327289581299 0.036415010690689087
0.17246398329734802 0.037549979984760284 0.0361953005194664
0.18791376054286957 0.043782792985439301 0.039922498166561127
0.041028324514627457 0.045956090092658997 0.040900930762290955
0.046542659401893616 0.049106553196907043 0.042673807591199875
0.061827894300222397 0.055494658648967743 0.047446217387914658
0.093510635197162628 0.064693450927734375 0.055747970938682556
0.13562147319316864 0.07347521185874939 0.061257723718881607
0.19148379564285278 0.079764045774936676 0.065319091081619263
0.25910547375679016 0.082945756614208221 0.066134706139564514
0.30648288130760193 0.081573724746704102 0.063800036907196045
0.31124213337898254 0.080207005143165588 0.064409635961055756
0.30961832404136658 0.079953946173191071 0.063926324248313904
0.32237789034843445 0.085133463144302368 0.067091800272464752
0.35140222311019897 0.094012148678302765 0.073753133416175842
0.39652124047279358 0.11120114475488663 0.084592662751674652
0.061867732554674149 0.08624064177274704 0.061454787850379944
0.077390901744365692 0.10064127296209335 0.068383388221263885
0.10417880117893219 0.11069536209106445 0.076158501207828522
0.15030083060264587 0.12246620655059814 0.083549171686172485
0.21399907767772675 0.13337911665439606 0.087881080806255341
0.28832134604454041 0.13800245523452759 0.08853466808795929
0.3755115270614624 0.13819485902786255 0.085556104779243469
0.44518396258354187 0.13675101101398468 0.082076519727706909
0.46636068820953369 0.14294537901878357 0.086654648184776306
0.48393863439559937 0.15093031525611877 0.092642404139041901
0.51491832733154297 0.16675370931625366 0.10234705358743668
0.54612743854522705 0.18122686445713043 0.11238148808479309
0.5695720911026001 0.19620980322360992 0.12046680599451065
0.07854258269071579 0.1492990106344223 0.077831745147705078
0.10117003321647644 0.16930057108402252 0.087006315588951111
0.13835987448692322 0.18219298124313354 0.095845058560371399
0.19955861568450928 0.1971026211977005 0.10083377361297607
0.27918115258216858 0.20715861022472382 0.10220923274755478
0.36583945155143738 0.2111184149980545 0.10077466815710068
0.46102377772331238 0.21447743475437164 0.10097071528434753
0.55508822202682495 0.22196178138256073 0.10333251953125
0.60539621114730835 0.23797948658466339 0.11452570557594299
0.63391011953353882 0.2534925639629364 0.12720535695552826
0.65220814943313599 0.2694038450717926 0.13734611868858337
0.6648898720741272 0.27732902765274048 0.14271830022335052
0.67231673002243042 0.28776970505714417 0.14868544042110443
0.083988144993782043 0.24037604033946991 0.082097642123699188
0.11072231829166412 0.2644505500793457 0.091909714043140411
0.15959492325782776 0.28300738334655762 0.097696803510189056
0.23789949715137482 0.29856646060943604 0.10528665035963058
0.32671749591827393 0.30614367127418518 0.11027185618877411
0.41877326369285583 0.31356894969940186 0.11787419021129608
0.50758534669876099 0.32368072867393494 0.12688863277435303
0.59378683567047119 0.34126287698745728 0.14441066980361938
0.67738848924636841 0.35543078184127808 0.15680700540542603
0.72116893529891968 0.36878052353858948 0.16667963564395905
0.72677284479141235 0.37834295630455017 0.17318949103355408
0.73193478584289551 0.39033076167106628 0.17935547232627869
0.73535287380218506 0.39751976728439331 0.18424573540687561
0.074171282351016998 0.35506010055541992 0.071015298366546631
0.11299946904182434 0.38281184434890747 0.084174089133739471
0.1746109277009964 0.39678221940994263 0.095997348427772522
0.2713906466960907 0.41007503867149353 0.11437606811523438
0.36994561553001404 0.42461514472961426 0.13750031590461731
0.46726426482200623 0.44215932488441467 0.16278985142707825
0.55663341283798218 0.45703676342964172 0.18102577328681946
0.6499137282371521 0.47109583020210266 0.1962389349937439
0.73758339881896973 0.48354852199554443 0.20762057602405548
0.76766067743301392 0.50169527530670166 0.21880100667476654
0.77279376983642578 0.51483923196792603 0.2288651168346405
0.77545344829559326 0.52490127086639404 0.23416599631309509
0.77680367231369019 0.52979558706283569 0.23560209572315216
0.059035029262304306 0.49897724390029907 0.054782643914222717
0.12619924545288086 0.51671743392944336 0.091267786920070648
0.22467273473739624 0.52549260854721069 0.12691421806812286
0.33250632882118225 0.53921085596084595 0.16465717554092407
0.43250757455825806 0.55913841724395752 0.19750507175922394
0.53014874458312988 0.58185827732086182 0.22560368478298187
0.62718021869659424 0.60309690237045288 0.24146372079849243
0.72925770282745361 0.61880338191986084 0.25468242168426514
0.79811334609985352 0.63156419992446899 0.26477864384651184
0.80955183506011963 0.64834892749786377 0.27511066198348999
0.81369644403457642 0.66083270311355591 0.28679743409156799
0.81588786840438843 0.67075657844543457 0.2936195433139801
0.81591123342514038 0.67346131801605225 0.2927577793598175
0.11102339625358582 0.62898296117782593 0.10538620501756668
0.20516467094421387 0.64038699865341187 0.16071780025959015
0.31157267093658447 0.65719419717788696 0.20663578808307648
0.41079017519950867 0.68015086650848389 0.23650836944580078
0.50584787130355835 0.70894336700439453 0.26006984710693359
0.60436588525772095 0.7358100414276123 0.28338137269020081
0.70811408758163452 0.75905603170394897 0.3002530038356781
0.81099462509155273 0.77938705682754517 0.31584349274635315
0.84379994869232178 0.78950101137161255 0.32410541176795959
0.85008728504180908 0.80355405807495117 0.33305203914642334
0.85372316837310791 0.81747972965240479 0.34332597255706787
0.85673052072525024 0.83062541484832764 0.35182934999465942
0.85836482048034668 0.83832788467407227 0.3579222559928894
0.19452548027038574 0.75325334072113037 0.18928073346614838
0.28143993020057678 0.7696114182472229 0.2322506308555603
0.37840509414672852 0.79704791307449341 0.26736217737197876
0.47733286023139954 0.83292394876480103 0.29500722885131836
0.574371337890625 0.86480224132537842 0.31689471006393433
0.67464011907577515 0.88985812664031982 0.33858773112297058
0.77926713228225708 0.90843689441680908 0.35758841037750244
0.86793941259384155 0.92933428287506104 0.37546220421791077
0.88307797908782959 0.93858355283737183 0.38408783078193665
0.88741457462310791 0.94970029592514038 0.39127814769744873
0.88962990045547485 0.95847022533416748 0.39860832691192627
0.89088302850723267 0.96255427598953247 0.40551400184631348
0.89150607585906982 0.96371978521347046 0.41107481718063354
0.27002587914466858 0.85323870182037354 0.26309999823570251
0.34227615594863892 0.87303036451339722 0.28982868790626526
0.42899793386459351 0.89476954936981201 0.31340476870536804
0.53413534164428711 0.91823381185531616 0.34075862169265747
0.63460153341293335 0.93936121463775635 0.36283999681472778
0.73634403944015503 0.95715320110321045 0.38214799761772156
0.83561652898788452 0.9709663987159729 0.40119671821594238
0.88966208696365356 0.97818326950073242 0.4146111011505127
0.89467692375183105 0.97589504718780518 0.42132210731506348
0.8964119553565979 0.97824466228485107 0.42669624090194702
0.89783889055252075 0.982261061668396 0.43334746360778809
0.89876037836074829 0.98367345333099365 0.44059154391288757
0.8996967077255249 0.98470944166183472 0.44767230749130249
0.31913000345230103 0.87762314081192017 0.31228750944137573
0.3865361213684082 0.89370495080947876 0.33084845542907715
0.47413849830627441 0.91392982006072998 0.35161486268043518
0.58265948295593262 0.93505686521530151 0.37815850973129272
0.68797487020492554 0.95341736078262329 0.40150308609008789
0.79212528467178345 0.96893954277038574 0.41942495107650757
0.87843817472457886 0.98095595836639404 0.43519005179405212
0.89657700061798096 0.98436003923416138 0.44669812917709351
0.89923107624053955 0.98479300737380981 0.45469504594802856
0.90104514360427856 0.98611897230148315 0.46006894111633301
0.90214687585830688 0.98726725578308105 0.46730279922485352
0.90304672718048096 0.98799395561218262 0.47797498106956482
0.90394341945648193 0.98885583877563477 0.48741933703422546
0.35765978693962097 0.89060813188552856 0.3496469259262085
0.42292630672454834 0.90567374229431152 0.36391213536262512
0.51209944486618042 0.92497426271438599 0.38445040583610535
0.62096565961837769 0.94502061605453491 0.41013553738594055
0.73069053888320923 0.96372783184051514 0.43468502163887024
0.83881515264511108 0.97871166467666626 0.45407500863075256
0.89675581455230713 0.98640626668930054 0.46179911494255066
0.90108031034469604 0.98840659856796265 0.47379359602928162
0.90306121110916138 0.98974376916885376 0.48336702585220337
0.904205322265625 0.99029165506362915 0.48808965086936951
0.90508401393890381 0.99026209115982056 0.49482032656669617
0.90663009881973267 0.99072456359863281 0.50771570205688477
0.90787214040756226 0.99183982610702515 0.52442193031311035
0.0095626683905720711 0.0095626683905720711 0.0078863408416509628
0.010086942464113235 0.0098716588690876961 0.0079899057745933533
0.010268611833453178 0.0092774182558059692 0.0087521122768521309
0.017027013003826141 0.013165971264243126 0.013415093533694744
0.027467405423521996 0.01666921004652977 0.017264273017644882
0.049066297709941864 0.02061798982322216 0.021280715242028236
0.078952878713607788 0.022926211357116699 0.023596519604325294
0.12151257693767548 0.025697162374854088 0.027948431670665741
0.12895329296588898 0.025080692023038864 0.028912188485264778
0.12811997532844543 0.024348882958292961 0.028118178248405457
0.12900902330875397 0.024216447025537491 0.028152406215667725
0.12830013036727905 0.024422978982329369 0.027660803869366646
0.12776429951190948 0.024089260026812553 0.027017422020435333
0.022810138761997223 0.023508751764893532 0.020552242174744606
0.023988835513591766 0.024145897477865219 0.021158330142498016
0.03154507651925087 0.028430415317416191 0.026767820119857788
0.050002496689558029 0.03475334495306015 0.034539598971605301
0.072543665766716003 0.038631901144981384 0.039595495909452438
0.11050622910261154 0.042516101151704788 0.043425437062978745
0.15422610938549042 0.044518474489450455 0.045020952820777893
0.18737016618251801 0.043070342391729355 0.045357618480920792
0.19150163233280182 0.04229838028550148 0.044559881091117859
0.18788143992424011 0.041263341903686523 0.043112840503454208
0.18635615706443787 0.041245866566896439 0.042533215135335922
0.18698437511920929 0.041287008672952652 0.043139468878507614
0.20487406849861145 0.047572627663612366 0.047925043851137161
0.042980734258890152 0.049038141965866089 0.043966196477413177
0.049816790968179703 0.052865587174892426 0.048429019749164581
0.068403162062168121 0.061011027544736862 0.055055327713489532
0.099799230694770813 0.069982059299945831 0.063625440001487732
0.14062771201133728 0.076653078198432922 0.070128828287124634
0.19544373452663422 0.081415064632892609 0.072958819568157196
0.26350614428520203 0.083819322288036346 0.074466526508331299
0.31610757112503052 0.082823120057582855 0.072959184646606445
0.32234576344490051 0.082564949989318848 0.072646364569664001
0.32563996315002441 0.084998078644275665 0.073431231081485748
0.34673693776130676 0.093574494123458862 0.080163158476352692
0.37948554754257202 0.10282109677791595 0.088932648301124573
0.41578230261802673 0.11673687398433685 0.10001365840435028
0.065246835350990295 0.091195501387119293 0.069977402687072754
0.08150145411491394 0.10424396395683289 0.077879063785076141
0.11097485572099686 0.11732934415340424 0.087610207498073578
0.15746897459030151 0.12808512151241302 0.094431765377521515
0.21756480634212494 0.13609734177589417 0.099283240735530853
0.2923491895198822 0.14049406349658966 0.10032046586275101
0.38647958636283875 0.142037034034729 0.09911714494228363
0.46310800313949585 0.14260448515415192 0.096867822110652924
0.48544493317604065 0.15355730056762695 0.1040332242846489
0.50943642854690552 0.16614116728305817 0.11385225504636765
0.53910273313522339 0.176923468708992 0.12439811229705811
0.56803172826766968 0.1923290342092514 0.13620144128799438
0.58800381422042847 0.20505629479885101 0.144753098487854
0.081348225474357605 0.15857155621051788 0.090338028967380524
0.10456282645463943 0.17586220800876617 0.098918721079826355
