assets/lut/alexjordan bleech bypass yellow 01.cube
# Created by: G'MIC (https://gmic.eu)
TITLE "bleech_bypass_yellow_01"
# LUT size
LUT_3D_SIZE 13
# Data domain
DOMAIN_MIN 0.0 0.0 0.0
DOMAIN_MAX 1.0 1.0 1.0
# LUT data points
5.3854550060350448e-05 0.00019621007959358394 2.5850184101727791e-05
0.0057531767524778843 0.0015598072204738855 0.0007266773609444499
0.023196008056402206 0.0040173698216676712 0.0040103686042129993
0.045520301908254623 0.0062172980979084969 0.00740839634090662
0.070557475090026855 0.0073298136703670025 0.0071750716306269169
0.095089554786682129 0.0095345443114638329 0.008733697235584259
0.16056956350803375 0.011863155290484428 0.01103032473474741
0.30541899800300598 0.012252000160515308 0.0095865437760949135
0.45870140194892883 0.012376852333545685 0.0089461980387568474
0.60109293460845947 0.012803380377590656 0.0093930261209607124
0.73832899332046509 0.014101828448474407 0.01082108449190855
0.87176001071929932 0.016254110261797905 0.014204137027263641
0.98351418972015381 0.020596284419298172 0.01799480989575386
0.0038765252102166414 0.01919923722743988 0.0027968313079327345
0.024198539555072784 0.025336083024740219 0.0061806919984519482
0.048252779990434647 0.030172040686011314 0.0094737783074378967
0.076798520982265472 0.033672887831926346 0.011266745626926422
0.11024792492389679 0.035674046725034714 0.010731401853263378
0.15075439214706421 0.039909888058900833 0.012175287120044231
0.22545386850833893 0.045349854975938797 0.014363188296556473
0.35374593734741211 0.048042792826890945 0.014551424421370029
0.49685961008071899 0.052012737840414047 0.014372956939041615
0.63162434101104736 0.057353194802999496 0.014732271432876587
0.75971192121505737 0.062841601669788361 0.015728924423456192
0.8828892707824707 0.069681324064731598 0.017960388213396072
0.98628968000411987 0.078869029879570007 0.021462652832269669
0.01175797451287508 0.057500876486301422 0.010605292394757271
0.038802053779363632 0.064753890037536621 0.010972026735544205
0.068934634327888489 0.070194914937019348 0.010765419341623783
0.10483437031507492 0.074662379920482635 0.011250574141740799
0.14647401869297028 0.080361925065517426 0.011967034079134464
0.19876439869403839 0.087974235415458679 0.014443566091358662
0.28035476803779602 0.095286637544631958 0.01610291376709938
0.39949774742126465 0.10010790079832077 0.017107225954532623
0.53204560279846191 0.10613326728343964 0.017946969717741013
0.6585993766784668 0.11502289026975632 0.018508313223719597
0.77805554866790771 0.12459652125835419 0.019352931529283524
0.89121472835540771 0.13482867181301117 0.020910106599330902
0.98636007308959961 0.14731281995773315 0.022775672376155853
0.01665770635008812 0.1082790270447731 0.016008220613002777
0.05072803795337677 0.11820678412914276 0.014132615178823471
0.088579319417476654 0.12680070102214813 0.013120224699378014
0.13342040777206421 0.13427489995956421 0.013567651621997356
0.18350881338119507 0.14324352145195007 0.015072377398610115
0.24345339834690094 0.15491990745067596 0.016913395375013351
0.3267551064491272 0.16552045941352844 0.018930727615952492
0.44067645072937012 0.1720205545425415 0.020398562774062157
0.56490951776504517 0.17989923059940338 0.021391671150922775
0.68385452032089233 0.19131705164909363 0.022130046039819717
0.79480338096618652 0.20379117131233215 0.022850096225738525
0.89845597743988037 0.21605251729488373 0.023668805137276649
0.98633581399917603 0.22990427911281586 0.025021467357873917
0.019194643944501877 0.17634312808513641 0.018808746710419655
0.063422121107578278 0.18961520493030548 0.017788726836442947
0.1110047847032547 0.20248183608055115 0.016990795731544495
0.16463325917720795 0.21304440498352051 0.017613833770155907
0.22455167770385742 0.22475908696651459 0.018780337646603584
0.29351037740707397 0.23982724547386169 0.020503489300608635
0.3800843358039856 0.25335893034934998 0.022138409316539764
0.48756259679794312 0.26269429922103882 0.023200135678052902
0.60141134262084961 0.27337050437927246 0.024124924093484879
0.71037924289703369 0.28888353705406189 0.02517598494887352
0.81172764301300049 0.30417713522911072 0.026071764528751373
0.90619152784347534 0.31828859448432922 0.026795167475938797
0.98677307367324829 0.3324834406375885 0.027884224429726601
0.022117869928479195 0.26904469728469849 0.0212682094424963
0.076302081346511841 0.28631705045700073 0.021335108205676079
0.1337902843952179 0.30194091796875 0.02130107581615448
0.19691188633441925 0.31425765156745911 0.022029127925634384
0.26704376935958862 0.32737618684768677 0.023115120828151703
0.34600871801376343 0.34480535984039307 0.024061150848865509
0.43636965751647949 0.36127099394798279 0.02508818730711937
0.53755092620849609 0.37429898977279663 0.026308126747608185
0.64015990495681763 0.38826587796211243 0.027546092867851257
0.73761880397796631 0.40614792704582214 0.02879098616540432
0.82905024290084839 0.4236752986907959 0.029512757435441017
0.91479474306106567 0.43984636664390564 0.030022310093045235
0.98818886280059814 0.4552764892578125 0.030778234824538231
0.024450728669762611 0.39216098189353943 0.023555666208267212
0.08813311904668808 0.40919023752212524 0.023702884092926979
0.1557101309299469 0.42456516623497009 0.024139164015650749
0.22866842150688171 0.43752619624137878 0.025241043418645859
0.3083251416683197 0.45175081491470337 0.026635413989424706
0.39524701237678528 0.4688313901424408 0.027690229937434196
0.48868909478187561 0.48596349358558655 0.028678145259618759
0.58484542369842529 0.50198829174041748 0.029757272452116013
0.67781496047973633 0.51820296049118042 0.030702792108058929
0.7647739052772522 0.53484541177749634 0.031402692198753357
0.84642034769058228 0.55032795667648315 0.031617555767297745
0.92332112789154053 0.56605184078216553 0.031911123543977737
0.98904293775558472 0.58007431030273438 0.032997250556945801
0.02772866003215313 0.52983999252319336 0.026414100080728531
0.10035944730043411 0.54457944631576538 0.026206206530332565
0.17685478925704956 0.55707234144210815 0.026792667806148529
0.25975921750068665 0.56930971145629883 0.028174890205264091
0.34804853796958923 0.58369046449661255 0.029772410169243813
0.44187575578689575 0.5982787013053894 0.030607515946030617
0.53771507740020752 0.61336779594421387 0.03135407343506813
0.63028931617736816 0.62956738471984863 0.032331474125385284
0.71526587009429932 0.64429223537445068 0.033296681940555573
0.7923395037651062 0.65712827444076538 0.033681459724903107
0.86380660533905029 0.66920852661132812 0.033335156738758087
0.9309992790222168 0.68155759572982788 0.033037014305591583
0.98965781927108765 0.69154280424118042 0.034400250762701035
0.03166738897562027 0.66281217336654663 0.029872909188270569
0.11360660940408707 0.67380338907241821 0.029575169086456299
0.20002509653568268 0.68286830186843872 0.029765544459223747
0.29230496287345886 0.69304674863815308 0.031015403568744659
0.3890666663646698 0.70516365766525269 0.031883284449577332
0.48905646800994873 0.71611505746841431 0.03299732506275177
0.58643239736557007 0.72760301828384399 0.034011136740446091
0.6750221848487854 0.74065881967544556 0.035379759967327118
0.75246959924697876 0.75242555141448975 0.036269977688789368
0.82036346197128296 0.76219505071640015 0.035959821194410324
0.88164949417114258 0.77152371406555176 0.035420674830675125
0.93852800130844116 0.78063875436782837 0.033950746059417725
0.98983216285705566 0.78743916749954224 0.035678699612617493
0.034505296498537064 0.77657049894332886 0.031662631779909134
0.12622734904289246 0.78538280725479126 0.031696170568466187
0.22336159646511078 0.79160773754119873 0.032320402562618256
0.32656851410865784 0.79829245805740356 0.033380977809429169
0.43337538838386536 0.80564260482788086 0.03457578644156456
0.53991478681564331 0.81281173229217529 0.03561362624168396
0.63795125484466553 0.82061010599136353 0.037284418940544128
0.72147840261459351 0.83014971017837524 0.038980595767498016
0.79073351621627808 0.83977323770523071 0.040147159248590469
0.84927725791931152 0.84833621978759766 0.039749264717102051
0.90074664354324341 0.85630249977111816 0.038197744637727737
0.9476742148399353 0.86380892992019653 0.037096045911312103
0.99102169275283813 0.86852079629898071 0.038665652275085449
0.036477018147706985 0.86690956354141235 0.033022202551364899
0.13874110579490662 0.87559235095977783 0.034019827842712402
0.24752140045166016 0.88017928600311279 0.035565618425607681
0.36237117648124695 0.8834373950958252 0.037331987172365189
0.48009124398231506 0.88617759943008423 0.03860141709446907
0.5947386622428894 0.88908690214157104 0.039822135120630264
0.69488084316253662 0.89386212825775146 0.041703019291162491
0.77241402864456177 0.90098816156387329 0.045015670359134674
0.8320353627204895 0.90933769941329956 0.047261644154787064
0.88080132007598877 0.91751128435134888 0.047544948756694794
0.92295116186141968 0.92501521110534668 0.045924197882413864
0.9618116021156311 0.9313998818397522 0.045361164957284927
0.99515306949615479 0.93541181087493896 0.048588726669549942
0.04004790261387825 0.94070440530776978 0.036074034869670868
0.1525370329618454 0.94853043556213379 0.038324303925037384
0.27275630831718445 0.9516369104385376 0.041929624974727631
0.39850726723670959 0.95213139057159424 0.044971495866775513
0.52787524461746216 0.95091336965560913 0.046388246119022369
0.65260410308837891 0.94972634315490723 0.046889137476682663
0.75577223300933838 0.95135194063186646 0.049328718334436417
0.82690459489822388 0.95724707841873169 0.054115608334541321
0.87614154815673828 0.96533405780792236 0.058340184390544891
0.91512519121170044 0.97319352626800537 0.060334522277116776
0.94917941093444824 0.9801294207572937 0.061339929699897766
0.98126780986785889 0.98493725061416626 0.063770517706871033
0.99959790706634521 0.98752409219741821 0.070189155638217926
0.046918831765651703 0.99411469697952271 0.043410342186689377
0.16907525062561035 0.99689012765884399 0.048192806541919708
0.29876014590263367 0.99751096963882446 0.053605996072292328
0.4337974488735199 0.99715954065322876 0.057397447526454926
0.57135474681854248 0.99586194753646851 0.059140373021364212
0.70358991622924805 0.99450391530990601 0.059556938707828522
0.80933678150177002 0.99437069892883301 0.061968710273504257
0.87539762258529663 0.99644249677658081 0.068197391927242279
0.91713064908981323 0.99883604049682617 0.074810251593589783
0.94906055927276611 0.99997901916503906 0.079586207866668701
0.9770398736000061 1 0.083826951682567596
0.99759763479232788 1 0.089401558041572571
1 1 0.097913660109043121
0.0016305661993101239 0.001879523741081357 0.0035762563347816467
0.01319491770118475 0.003615210996940732 0.010455352254211903
0.029720470309257507 0.0050827623344957829 0.017595283687114716
0.051167238503694534 0.0068396176211535931 0.021715980023145676
0.078066311776638031 0.0084130382165312767 0.024161005392670631
0.10317561030387878 0.010066238231956959 0.027577778324484825
0.16861492395401001 0.012103914283216 0.032087467610836029
0.31603434681892395 0.013242265209555626 0.035269208252429962
0.46839183568954468 0.014512305147945881 0.038509353995323181
0.60641616582870483 0.014876751229166985 0.041946470737457275
0.73950600624084473 0.013848039321601391 0.04503009095788002
0.86856019496917725 0.014580236747860909 0.049740854650735855
0.98053133487701416 0.01802438497543335 0.055868469178676605
0.0085066100582480431 0.025065373629331589 0.020346382632851601
0.030108403414487839 0.028848625719547272 0.026011822745203972
0.053071383386850357 0.031232766807079315 0.030044315382838249
0.081846423447132111 0.033807657659053802 0.032927628606557846
0.11613468825817108 0.037108194082975388 0.035355348140001297
0.15654720366001129 0.041585780680179596 0.039620224386453629
0.23205506801605225 0.046623632311820984 0.044474732130765915
0.3621864914894104 0.050491556525230408 0.04828503355383873
0.50508368015289307 0.053939219564199448 0.051476899534463882
0.63677221536636353 0.057820983231067657 0.054387468844652176
0.76066672801971436 0.061352897435426712 0.056435722857713699
0.88050323724746704 0.066763259470462799 0.05987447127699852
0.98401343822479248 0.075340062379837036 0.065914303064346313
0.01378523837774992 0.06224408745765686 0.035485345870256424
0.0407244972884655 0.068149387836456299 0.036783628165721893
0.072171650826931 0.071779482066631317 0.038418114185333252
0.10955801606178284 0.075839638710021973 0.041318900883197784
0.15173965692520142 0.082358419895172119 0.045334864407777786
0.2029402107000351 0.090489961206912994 0.050542883574962616
0.28358477354049683 0.098149284720420837 0.055397063493728638
0.40385729074478149 0.10295765846967697 0.059306439012289047
0.53704100847244263 0.10820286720991135 0.06261984258890152
0.66298770904541016 0.11512257903814316 0.065821520984172821
0.77988225221633911 0.12252451479434967 0.068223990499973297
0.89092713594436646 0.1313876211643219 0.071497507393360138
0.98576313257217407 0.14380313456058502 0.07636965811252594
0.016024690121412277 0.11386808753013611 0.048054371029138565
0.050510227680206299 0.12297788262367249 0.047304954379796982
0.090889006853103638 0.13049787282943726 0.04860585555434227
0.1380925178527832 0.13752464950084686 0.052078589797019958
0.18945305049419403 0.14689601957798004 0.056384559720754623
0.24707739055156708 0.15861120820045471 0.061405841261148453
0.32752633094787598 0.16968661546707153 0.066083289682865143
0.44273364543914795 0.17577490210533142 0.070082917809486389
0.5683896541595459 0.18250668048858643 0.073744364082813263
0.68763375282287598 0.19179879128932953 0.077264346182346344
0.79756736755371094 0.20207850635051727 0.080348163843154907
0.90007060766220093 0.21342566609382629 0.083317562937736511
0.98642122745513916 0.22750434279441833 0.087122701108455658
0.019117243587970734 0.18402054905891418 0.060403186827898026
0.063588298857212067 0.1954880952835083 0.060578111559152603
0.11308432370424271 0.20740590989589691 0.061931774020195007
0.16905002295970917 0.2184232771396637 0.064988605678081512
0.23070712387561798 0.23057188093662262 0.068826533854007721
0.29875099658966064 0.24501226842403412 0.073114059865474701
0.38328826427459717 0.25832405686378479 0.077327325940132141
0.49056157469749451 0.2680518627166748 0.081335447728633881
0.60475802421569824 0.27803751826286316 0.085281819105148315
0.71398168802261353 0.29050436615943909 0.08909548819065094
0.8150331974029541 0.30342811346054077 0.092362575232982635
0.90853703022003174 0.31652054190635681 0.095004111528396606
0.98756903409957886 0.33130529522895813 0.09796220064163208
0.022024326026439667 0.27893468737602234 0.071866132318973541
0.076652437448501587 0.29284548759460449 0.073177799582481384
0.13545869290828705 0.30748274922370911 0.075278982520103455
0.2007986307144165 0.3210483193397522 0.078265845775604248
0.27248767018318176 0.33555006980895996 0.081718191504478455
0.35152015089988708 0.35174387693405151 0.085326313972473145
0.44189950823783875 0.36711007356643677 0.089054316282272339
0.54222840070724487 0.38066935539245605 0.092952266335487366
0.64397287368774414 0.39486747980117798 0.096910424530506134
0.74148917198181152 0.4098173975944519 0.10088128596544266
0.83279228210449219 0.42443752288818359 0.10401472449302673
0.91748702526092529 0.4394470751285553 0.10627170652151108
0.98866349458694458 0.45503994822502136 0.10880818217992783
0.024177491664886475 0.40015116333961487 0.082884393632411957
0.088230937719345093 0.41548734903335571 0.084437020123004913
0.15692415833473206 0.43006402254104614 0.087037213146686554
0.23179768025875092 0.44419363141059875 0.090414606034755707
0.31309491395950317 0.45950251817703247 0.093772560358047485
0.40102663636207581 0.47593897581100464 0.097049996256828308
0.49456772208213806 0.49222484230995178 0.10053902119398117
0.58976900577545166 0.50828361511230469 0.10438253730535507
0.68173760175704956 0.52471393346786499 0.10861271619796753
0.76863670349121094 0.54041367769241333 0.11238373070955276
0.85022848844528198 0.55391126871109009 0.11491790413856506
0.9260367751121521 0.56831896305084229 0.11653205752372742
0.98994714021682739 0.58204549551010132 0.11880604177713394
0.026867136359214783 0.5343509316444397 0.093736238777637482
0.09965408593416214 0.54977720975875854 0.095046550035476685
0.17800904810428619 0.56252151727676392 0.097729533910751343
0.26250448822975159 0.57543540000915527 0.10129255056381226
0.35302692651748657 0.58988779783248901 0.10467410832643509
0.4480624794960022 0.60454434156417847 0.10793159157037735
0.54366528987884521 0.61941921710968018 0.11146208643913269
0.63496655225753784 0.63493794202804565 0.11558562517166138
0.71911931037902832 0.6501583456993103 0.11966744065284729
0.79649287462234497 0.66338115930557251 0.12299937754869461
0.86807453632354736 0.67491739988327026 0.12506780028343201
0.9342644214630127 0.68681973218917847 0.12613187730312347
0.99067515134811401 0.69704151153564453 0.12824264168739319
0.029923921450972557 0.66430950164794922 0.10456056892871857
0.11208055913448334 0.67757469415664673 0.1059826985001564
0.20011961460113525 0.68802523612976074 0.10848865658044815
0.29413813352584839 0.69892764091491699 0.11178672313690186
0.39381110668182373 0.71053934097290039 0.11506109684705734
0.49531146883964539 0.72176086902618408 0.1182568296790123
0.59269440174102783 0.73339855670928955 0.12207549065351486
0.67994147539138794 0.74611139297485352 0.12649871408939362
0.75647252798080444 0.75807631015777588 0.13056182861328125
0.82468605041503906 0.7682652473449707 0.13345223665237427
0.88658130168914795 0.77774113416671753 0.1348223090171814
0.94269412755966187 0.78706789016723633 0.13544775545597076
0.99126505851745605 0.79470956325531006 0.13774862885475159
0.03282533586025238 0.77788698673248291 0.11482823640108109
0.12448281794786453 0.78888648748397827 0.116244837641716
0.22231219708919525 0.79658240079879761 0.1190493255853653
0.32665339112281799 0.80382877588272095 0.12260805070400238
0.4358675479888916 0.81112748384475708 0.12571321427822113
0.54502290487289429 0.81830114126205444 0.12874606251716614
0.64378499984741211 0.82626938819885254 0.13281823694705963
0.72593134641647339 0.8357243537902832 0.13800553977489471
0.79403764009475708 0.84534966945648193 0.14221891760826111
0.85287570953369141 0.85378766059875488 0.14443615078926086
0.90499657392501831 0.86155939102172852 0.14529170095920563
0.95184403657913208 0.86918336153030396 0.145649254322052
0.99268794059753418 0.87492775917053223 0.14898313581943512
0.035963498055934906 0.87024104595184326 0.12465869635343552
0.13722001016139984 0.87970441579818726 0.12711586058139801
0.24562841653823853 0.88517320156097412 0.13094489276409149
0.35990205407142639 0.88864690065383911 0.13511116802692413
0.47981089353561401 0.89123588800430298 0.13799692690372467
0.59851980209350586 0.89382302761077881 0.14055386185646057
0.70001351833343506 0.89823853969573975 0.14484281837940216
0.77554410696029663 0.9054223895072937 0.15116918087005615
0.83340036869049072 0.91378313302993774 0.15579356253147125
0.88245761394500732 0.92167240381240845 0.15743036568164825
0.92542445659637451 0.92875593900680542 0.15826450288295746
0.96372431516647339 0.93518626689910889 0.15968400239944458
0.99608820676803589 0.93968898057937622 0.1651119738817215
0.040221016854047775 0.94485640525817871 0.13695868849754333
0.15149228274822235 0.95269113779067993 0.14057916402816772
0.2706572413444519 0.95624709129333496 0.1457752138376236
0.39558026194572449 0.95623123645782471 0.15052714943885803
0.52597033977508545 0.95428699254989624 0.15280918776988983
0.65666300058364868 0.95248585939407349 0.15452279150485992
0.76355189085006714 0.9534834623336792 0.15826217830181122
0.83137011528015137 0.9593999981880188 0.16595384478569031
0.87724781036376953 0.96743220090866089 0.17241257429122925
0.9159015417098999 0.97473901510238647 0.17486090958118439
0.94993358850479126 0.98131591081619263 0.17708379030227661
0.98131668567657471 0.98607587814331055 0.1814107745885849
0.99959790706634521 0.98912036418914795 0.1894463449716568
0.049025546759366989 0.9958266019821167 0.15338748693466187
0.17004337906837463 0.99808132648468018 0.15848894417285919
0.2982880175113678 0.99852025508880615 0.16445490717887878
0.43333637714385986 0.99814599752426147 0.16965441405773163
0.57328552007675171 0.99668782949447632 0.17127463221549988
0.71262729167938232 0.99475014209747314 0.17193897068500519
0.82322651147842407 0.99409550428390503 0.17562662065029144
0.88507759571075439 0.99648916721343994 0.18406900763511658
0.92203682661056519 0.9989200234413147 0.19244322180747986
0.95113110542297363 1 0.19803586602210999
0.97745203971862793 1 0.20321463048458099
0.99717426300048828 1 0.21016146242618561
1 1 0.22037190198898315
0.0054986691102385521 0.005011330358684063 0.01565399207174778
0.018743731081485748 0.0061963251791894436 0.02510395459830761
0.032766513526439667 0.0069444393739104271 0.032146885991096497
0.052726373076438904 0.0079977298155426979 0.037048608064651489
0.08146609365940094 0.008761327713727951 0.04271392896771431
0.11067862063646317 0.010177283547818661 0.048638079315423965
0.17538861930370331 0.011986257508397102 0.054426468908786774
0.32335993647575378 0.013311497867107391 0.060753706842660904
0.47481510043144226 0.015184350311756134 0.068016886711120605
0.61060541868209839 0.015210529789328575 0.075180649757385254
0.74016433954238892 0.013867486268281937 0.081000953912734985
0.86531120538711548 0.014224362559616566 0.086783647537231445
0.97765803337097168 0.017175875604152679 0.094095252454280853
0.012498040683567524 0.029538143426179886 0.038990531116724014
0.033003907650709152 0.031825046986341476 0.045458279550075531
0.055479221045970917 0.033454537391662598 0.051427803933620453
0.084820479154586792 0.036005895584821701 0.056688703596591949
0.12042737752199173 0.039103832095861435 0.062756195664405823
0.16239655017852783 0.043360453099012375 0.069555871188640594
0.23971055448055267 0.047768477350473404 0.076021768152713776
0.37159472703933716 0.051756452769041061 0.081608928740024567
0.51191508769989014 0.055785235017538071 0.08826129138469696
0.64081490039825439 0.059181887656450272 0.094791427254676819
0.76134681701660156 0.062321696430444717 0.099508501589298248
0.8783000111579895 0.06679980456829071 0.10440728813409805
0.98196923732757568 0.074790492653846741 0.11217968165874481
0.014552216976881027 0.065755404531955719 0.059295505285263062
0.043173994868993759 0.070471882820129395 0.063529118895530701
0.075812168419361115 0.074782021343708038 0.068673335015773773
0.1148788183927536 0.080251298844814301 0.07482580840587616
0.15850076079368591 0.086339108645915985 0.082039594650268555
0.21043787896633148 0.093394294381141663 0.089431330561637878
0.29186898469924927 0.10034392029047012 0.095807991921901703
0.41175854206085205 0.10589053481817245 0.10139787197113037
0.54292458295822144 0.11146756261587143 0.10754439234733582
0.66665875911712646 0.11762074381113052 0.11377232521772385
0.78176558017730713 0.12463736534118652 0.11914379894733429
0.89083415269851685 0.13324220478534698 0.12462417036294937
0.9852338433265686 0.14547938108444214 0.13131554424762726
0.015554450452327728 0.11836223304271698 0.080080680549144745
0.053327880799770355 0.12639015913009644 0.083439052104949951
0.095555447041988373 0.13506714999675751 0.088150128722190857
0.14471013844013214 0.14393827319145203 0.09410443902015686
0.19874918460845947 0.15267789363861084 0.1012381911277771
0.25785481929779053 0.16253829002380371 0.10822620987892151
0.33748966455459595 0.17250040173530579 0.11458098143339157
0.44948986172676086 0.17980517446994781 0.12053171545267105
0.57309091091156006 0.18705807626247406 0.12691961228847504
0.6911388635635376 0.19546157121658325 0.13331553339958191
0.80008822679519653 0.20525430142879486 0.13968572020530701
0.90147161483764648 0.21719819307327271 0.14522069692611694
0.98689740896224976 0.23223613202571869 0.15092898905277252
0.018740516155958176 0.19133177399635315 0.10158242285251617
0.065651178359985352 0.20133422315120697 0.10538533329963684
0.11741979420185089 0.21340295672416687 0.10988906025886536
