assets/lut/alexjordan night 01.cube
# Created by: G'MIC (https://gmic.eu)
TITLE "night_01"
# LUT size
LUT_3D_SIZE 7
# Data domain
DOMAIN_MIN 0.0 0.0 0.0
DOMAIN_MAX 1.0 1.0 1.0
# LUT data points
0.00015927483036648482 0 0
0 0 0
0 0 0
0 0 0
0 0 0
0 0 0
0.010835535824298859 0.00070049811620265245 0.00094592524692416191
0 0 0
0 0 0
0 0 0
0.0018701291410252452 0.00034048044472001493 0.00016868441889528185
0.028047628700733185 0.0078172720968723297 0.00075004430254921317
0.10045778006315231 0.020637122914195061 0.00011830049334093928
0.18686819076538086 0.031629554927349091 0.00060890050372108817
0.0011728025274351239 0.002934369957074523 8.2576974818948656e-05
0.016475139185786247 0.030582472681999207 0.0051786685362458229
0.04711252823472023 0.049892980605363846 0.0067705339752137661
0.10740354657173157 0.072573475539684296 0.0063044377602636814
0.19649690389633179 0.094563469290733337 0.001438140869140625
0.3197004497051239 0.11037050187587738 0
0.45322549343109131 0.12600573897361755 0.00074678310193121433
0.001482855062931776 0.12362748384475708 0
0.041471429169178009 0.16336295008659363 0.0010371189564466476
0.10848698019981384 0.19086919724941254 0.00010465733794262633
0.2058887779712677 0.21356417238712311 0.00068360869772732258
0.32179912924766541 0.23279602825641632 0.0071548609994351864
0.44480782747268677 0.24877355992794037 0.0058380723930895329
0.5786018967628479 0.26498633623123169 0.018863469362258911
0 0.30845546722412109 0
0.047248661518096924 0.33784541487693787 0
0.13637669384479523 0.36097830533981323 0.00061623071087524295
0.24703793227672577 0.38072839379310608 0.01459268294274807
0.36672377586364746 0.39905622601509094 0.042552933096885681
0.48341304063796997 0.41742175817489624 0.053791254758834839
0.60577273368835449 0.43551844358444214 0.069539733231067657
3.9672850107308477e-05 0.48972821235656738 0.0041617299430072308
0.057347629219293594 0.5132564902305603 0.013227829709649086
0.15859892964363098 0.53368169069290161 0.036625295877456665
0.27579876780509949 0.55304086208343506 0.066844373941421509
0.40325495600700378 0.57344287633895874 0.086009427905082703
0.53008931875228882 0.59334510564804077 0.10182356089353561
0.65541172027587891 0.61290812492370605 0.13643160462379456
0.0093798767775297165 0.66662555932998657 0.050814084708690643
0.089973598718643188 0.686961829662323 0.067722141742706299
0.20080164074897766 0.70884197950363159 0.089283764362335205
0.32833102345466614 0.73085516691207886 0.10806198418140411
0.46471834182739258 0.75187253952026367 0.12616881728172302
0.600699782371521 0.77151525020599365 0.15858051180839539
0.72989815473556519 0.79305940866470337 0.21644166111946106
0 0 0
0 0 0
0 0 0
0 0 0
0 0 0
0 0 0
0.0047443616203963757 0.00014935662329662591 0.00014935662329662591
0 0 0
0 0 0
0 0 0
0.0045870612375438213 0.0023587394971400499 0.0015745274722576141
0.04274279996752739 0.01530145388096571 0.012224609032273293
0.12232763320207596 0.028056768700480461 0.019150229170918465
0.22283473610877991 0.037129435688257217 0.020276147872209549
5.1700368203455582e-05 0.010012487880885601 0.0049612754955887794
0.015954321250319481 0.034973591566085815 0.016061551868915558
0.055701866745948792 0.060582522302865982 0.029644610360264778
0.12595885992050171 0.084060803055763245 0.038744233548641205
0.21805085241794586 0.10347016155719757 0.04018624871969223
0.34375444054603577 0.11611106991767883 0.03469574823975563
0.4819580614566803 0.12727758288383484 0.040684346109628677
0.0012895023683086038 0.13670183718204498 0.020988285541534424
0.042758416384458542 0.17249602079391479 0.033171799033880234
0.11477267742156982 0.20318764448165894 0.037780657410621643
0.21408872306346893 0.22565597295761108 0.042884483933448792
0.32919749617576599 0.24264542758464813 0.060478076338768005
0.45213249325752258 0.2575218677520752 0.067775681614875793
0.58285212516784668 0.27161678671836853 0.08430645614862442
0 0.32288852334022522 0.026555992662906647
0.045697696506977081 0.35168859362602234 0.040425918996334076
0.13627766072750092 0.37368246912956238 0.055373575538396835
0.24728284776210785 0.39230009913444519 0.081699088215827942
0.3665633499622345 0.40968760848045349 0.11683065444231033
0.48267331719398499 0.42744556069374084 0.14035829901695251
0.61154496669769287 0.44236993789672852 0.15673184394836426
0 0.50226861238479614 0.075323738157749176
0.05011400580406189 0.52571374177932739 0.096870690584182739
0.15613487362861633 0.5445752739906311 0.12639510631561279
0.27658924460411072 0.56226813793182373 0.15958158671855927
0.40689849853515625 0.58192229270935059 0.17541621625423431
0.53771793842315674 0.6012340784072876 0.19112506508827209
0.66764736175537109 0.6183735728263855 0.2277311384677887
0.0034044601488858461 0.67525309324264526 0.14378742873668671
0.080736614763736725 0.69579887390136719 0.16540223360061646
0.19910649955272675 0.71696192026138306 0.18634475767612457
0.33319059014320374 0.73729956150054932 0.20617040991783142
0.47536453604698181 0.75724190473556519 0.21879693865776062
0.61705654859542847 0.77619123458862305 0.24733938276767731
0.74568468332290649 0.79564857482910156 0.31615936756134033
0 0 0
0 0 0
0 0 0
0 0 0
0 0 0
0 0 0
0.013918184675276279 0.0006530462414957583 0.0021933312527835369
0 0 0
0 0 0
0.00020973355276510119 0.00023396809410769492 0.00021945728803984821
0.012118545360863209 0.0065606660209596157 0.0072966334410011768
0.064766600728034973 0.020340221002697945 0.026967635378241539
0.15151053667068481 0.032148953527212143 0.044916130602359772
0.25379723310470581 0.043474279344081879 0.054725244641304016
0.0014189326902851462 0.019514555111527443 0.022619942203164101
0.02387784980237484 0.04498252272605896 0.037551116198301315
0.06888376921415329 0.072085723280906677 0.0584091916680336
0.14116869866847992 0.093768179416656494 0.074449218809604645
0.23831909894943237 0.11023101955652237 0.085778526961803436
0.36398139595985413 0.12219757586717606 0.092289313673973083
0.49719917774200439 0.13377608358860016 0.10198736935853958
0.0083485469222068787 0.15212759375572205 0.067789249122142792
0.051978286355733871 0.18274492025375366 0.085181966423988342
0.12259935587644577 0.21201549470424652 0.096206754446029663
0.2221444696187973 0.23423713445663452 0.10523714870214462
0.34186437726020813 0.25150930881500244 0.12185455113649368
0.46585145592689514 0.26666539907455444 0.13836784660816193
0.58997917175292969 0.28070244193077087 0.16394062340259552
0.0039730747230350971 0.33588382601737976 0.097776301205158234
0.056099042296409607 0.35926160216331482 0.12059034407138824
0.14281013607978821 0.38130244612693787 0.14016643166542053
0.25402611494064331 0.40068873763084412 0.1626473069190979
0.37584796547889709 0.41869771480560303 0.19098357856273651
0.49496999382972717 0.43518269062042236 0.22041985392570496
0.62105077505111694 0.45210114121437073 0.24445804953575134
0.00026460536173544824 0.51389795541763306 0.16299843788146973
0.059900142252445221 0.53490966558456421 0.18907299637794495
0.16709274053573608 0.55384176969528198 0.2177618145942688
0.29103183746337891 0.57218271493911743 0.24383962154388428
0.42149561643600464 0.59135884046554565 0.25715667009353638
0.55303090810775757 0.60964429378509521 0.2735159695148468
0.68369048833847046 0.62881672382354736 0.30025550723075867
0.0069699906744062901 0.68587315082550049 0.23879258334636688
0.090301647782325745 0.70624184608459473 0.26001626253128052
0.21377544105052948 0.72757047414779663 0.27660480141639709
0.35171103477478027 0.7470589280128479 0.29470750689506531
0.4946429431438446 0.76530748605728149 0.30899748206138611
0.63598620891571045 0.78348243236541748 0.33808079361915588
0.76408827304840088 0.80352222919464111 0.39912277460098267
0 0 0
0 0 0
0 0 0
0 0 0
0 0 0
0.00084300321759656072 0 0.00040767894824966788
0.030381221324205399 0.0025089937262237072 0.011054933071136475
0 0 0
0 0 0
0.0020868638530373573 0.0015133876586332917 0.0033328935969620943
0.021790582686662674 0.011431226506829262 0.020992998033761978
0.081512078642845154 0.026335025206208229 0.04999275878071785
0.17569887638092041 0.038592919707298279 0.081414557993412018
0.2847922146320343 0.048962924629449844 0.10073880851268768
0.0022893270943313837 0.03044230118393898 0.033734265714883804
0.029981950297951698 0.054051313549280167 0.065414533019065857
0.07818438857793808 0.080733612179756165 0.097496151924133301
0.15313617885112762 0.10156288743019104 0.11985274404287338
0.25499555468559265 0.11793740838766098 0.13763566315174103
0.38124561309814453 0.13005875051021576 0.15608818829059601
0.51662838459014893 0.13997550308704376 0.17503628134727478
0.010926354676485062 0.16816774010658264 0.12061544507741928
0.055646229535341263 0.19326531887054443 0.14801004528999329
0.12818872928619385 0.21978139877319336 0.16889391839504242
0.23067896068096161 0.24134881794452667 0.18255069851875305
0.35014000535011292 0.26020374894142151 0.19695170223712921
0.4706721305847168 0.27755123376846313 0.22203062474727631
0.59481501579284668 0.29210811853408813 0.25057795643806458
0.0064680809155106544 0.34682935476303101 0.17760469019412994
0.058113023638725281 0.36722135543823242 0.20296844840049744
0.14726223051548004 0.38883721828460693 0.22822201251983643
0.2600102424621582 0.40889981389045715 0.25310644507408142
0.3817981481552124 0.4280858039855957 0.27754703164100647
0.50237435102462769 0.44607409834861755 0.30307203531265259
0.62711340188980103 0.46497994661331177 0.32735720276832581
0.0022481281775981188 0.52311211824417114 0.25063800811767578
0.067833751440048218 0.54351925849914551 0.27268755435943604
0.17751626670360565 0.56403285264968872 0.29668000340461731
0.30128306150436401 0.58321309089660645 0.32487040758132935
0.43147379159927368 0.60134196281433105 0.34399774670600891
0.5650336742401123 0.62013906240463257 0.35344767570495605
0.69631665945053101 0.64138364791870117 0.36591821908950806
0.017383141443133354 0.69624942541122437 0.32620114088058472
0.1072818860411644 0.71725845336914062 0.33944737911224365
0.23555466532707214 0.73980802297592163 0.34951460361480713
0.37261056900024414 0.75918745994567871 0.3707754909992218
0.51139336824417114 0.77610963582992554 0.39548251032829285
0.64947819709777832 0.79333662986755371 0.42692595720291138
0.77744108438491821 0.81337577104568481 0.47718667984008789
0 0 0
0 0 0
0 0 0
0 0 0
0 0 0
0.0070826211012899876 0.00053510477300733328 0.0037704168353229761
0.052520319819450378 0.0039077461697161198 0.027235891669988632
0 0 0
2.5431314497836865e-05 0 2.5431314497836865e-05
0.0052486495114862919 0.0039706658571958542 0.0098279165104031563
0.036548152565956116 0.017298486083745956 0.043481219559907913
0.10432929545640945 0.031232481822371483 0.086336739361286163
0.20494753122329712 0.042231526225805283 0.12558439373970032
0.31402108073234558 0.051738351583480835 0.15678077936172485
0.002496382687240839 0.039339177310466766 0.058354906737804413
0.032563976943492889 0.063223928213119507 0.10082603991031647
0.082459591329097748 0.089365117251873016 0.1452326774597168
0.16367135941982269 0.10907117277383804 0.18136283755302429
0.27129563689231873 0.12308681756258011 0.21706897020339966
0.3987487256526947 0.13475629687309265 0.24104294180870056
0.53307449817657471 0.14541174471378326 0.26502582430839539
0.0059674731455743313 0.17855647206306458 0.19384175539016724
0.051189273595809937 0.2045712023973465 0.22230719029903412
0.13044890761375427 0.22930610179901123 0.25547963380813599
0.23926267027854919 0.24949182569980621 0.27991926670074463
0.35729649662971497 0.2674211859703064 0.30146515369415283
0.47823390364646912 0.2839762270450592 0.32559570670127869
0.6035570502281189 0.30081486701965332 0.35414972901344299
0.0011107501341030002 0.35352304577827454 0.27346554398536682
0.049564391374588013 0.37617161870002747 0.29418507218360901
0.14872089028358459 0.39742550253868103 0.32802692055702209
0.26794672012329102 0.41747650504112244 0.35649013519287109
0.38850528001785278 0.43607637286186218 0.3823990523815155
0.51051729917526245 0.45250475406646729 0.40654656291007996
0.63500595092773438 0.47423034906387329 0.42312714457511902
0.0012666590046137571 0.52882784605026245 0.35137581825256348
0.066335134208202362 0.55001550912857056 0.36924886703491211
0.18299008905887604 0.5717616081237793 0.39158567786216736
0.31160840392112732 0.59185349941253662 0.41840773820877075
0.44199290871620178 0.61093813180923462 0.43856248259544373
0.57514005899429321 0.62927901744842529 0.45041331648826599
0.70619028806686401 0.6512751579284668 0.46179479360580444
0.025568330660462379 0.7040373682975769 0.42173317074775696
0.1183193102478981 0.72544360160827637 0.42874550819396973
0.25083404779434204 0.74894481897354126 0.43430319428443909
0.38916996121406555 0.76874649524688721 0.45584705471992493
0.52602970600128174 0.78664815425872803 0.48328021168708801
0.66137838363647461 0.80391407012939453 0.52183705568313599
0.78807264566421509 0.82224380970001221 0.58066999912261963
0 0 0
0 0 0
0 0 0
0 0 0
1.4361213516167481e-06 0 1.4361213516167481e-06
0.018704373389482498 0.0018152423435822129 0.014591456390917301
0.079320915043354034 0.0045403274707496166 0.054065223783254623
0 0 0
0.00083890429232269526 0.00015318627993110567 0.0012076882412657142
0.011888451874256134 0.0077210520394146442 0.023740461096167564
0.05442129448056221 0.023779701441526413 0.075802415609359741
0.12297996133565903 0.035800635814666748 0.13030891120433807
0.22738078236579895 0.04371979832649231 0.18516756594181061
0.34242072701454163 0.051153834909200668 0.23106874525547028
0.0051361680962145329 0.047275453805923462 0.092750027775764465
0.038716617971658707 0.073970794677734375 0.15474610030651093
0.089134573936462402 0.097476139664649963 0.20668894052505493
0.17209753394126892 0.11620372533798218 0.25518834590911865
0.27992677688598633 0.12980012595653534 0.30014070868492126
0.40848642587661743 0.13981971144676208 0.33698910474777222
0.53561526536941528 0.15191221237182617 0.37109217047691345
0.0071993060410022736 0.19055899977684021 0.27013075351715088
0.051930267363786697 0.21848808228969574 0.31217890977859497
0.13420549035072327 0.24019025266170502 0.35163024067878723
0.24300765991210938 0.25838550925254822 0.37983793020248413
0.35870364308357239 0.27530285716056824 0.40747565031051636
0.48287642002105713 0.29158049821853638 0.42840465903282166
0.60617953538894653 0.30806481838226318 0.46139484643936157
0.00469945278018713 0.365366131067276 0.37566548585891724
0.052895728498697281 0.38778844475746155 0.40519538521766663
0.15352855622768402 0.40690189599990845 0.43822652101516724
0.27658852934837341 0.42616721987724304 0.45997446775436401
0.39400318264961243 0.44455075263977051 0.48976477980613708
0.51866501569747925 0.46182435750961304 0.51139390468597412
0.64594560861587524 0.48162984848022461 0.52779191732406616
0.0052385968156158924 0.5370604395866394 0.45665839314460754
0.076106712222099304 0.55787909030914307 0.47786974906921387
0.19177539646625519 0.57727712392807007 0.50422793626785278
0.3231978714466095 0.59804815053939819 0.52291065454483032
0.45347937941551208 0.61934655904769897 0.53693693876266479
0.58606994152069092 0.63850551843643188 0.55161046981811523
0.71708554029464722 0.65873038768768311 0.56920152902603149
0.04124881699681282 0.71308761835098267 0.51995658874511719
0.13687318563461304 0.73438423871994019 0.52320569753646851
0.26629328727722168 0.75536429882049561 0.53382593393325806
0.40433645248413086 0.77496623992919922 0.55318665504455566
0.54120421409606934 0.79545241594314575 0.57372605800628662
0.67693090438842773 0.81393915414810181 0.60838240385055542
0.80354821681976318 0.83117032051086426 0.66958129405975342
0.00066763185895979404 9.8598706244956702e-05 0.00029579611145891249
0 0 0
0 0 0
0 0 0
0.0017779332119971514 0 0.0028907177038490772
0.027407223358750343 0.0018481086008250713 0.031262461096048355
0.1063532680273056 0.0066208485513925552 0.089135728776454926
0.00019466923549771309 2.3336971935350448e-05 0.0003512214170768857
0.0017186931800097227 0.0030003415886312723 0.011412885971367359
0.023388132452964783 0.015746306627988815 0.059493493288755417
0.076043538749217987 0.033554241061210632 0.1275864839553833
0.14794833958148956 0.041820015758275986 0.19013260304927826
0.25253847241401672 0.045865047723054886 0.25422161817550659
0.37900269031524658 0.051733504980802536 0.31332486867904663
0.0058277202770113945 0.060420449823141098 0.14808361232280731
0.040261887013912201 0.083489283919334412 0.21689119935035706
0.096623696386814117 0.10473491996526718 0.28125587105751038
0.18150521814823151 0.12420612573623657 0.33988252282142639
0.29023951292037964 0.13750261068344116 0.39361557364463806
0.42105311155319214 0.14569216966629028 0.4410516619682312
0.55128175020217896 0.15881603956222534 0.47545847296714783
0.0077205882407724857 0.20204761624336243 0.36436480283737183
0.05798836424946785 0.22642785310745239 0.41006925702095032
0.14114207029342651 0.24605025351047516 0.45939362049102783
0.24552817642688751 0.2646731436252594 0.49210062623023987
0.36013740301132202 0.28251263499259949 0.51861971616744995
0.48717644810676575 0.29782956838607788 0.54471838474273682
0.61017155647277832 0.31759923696517944 0.56631571054458618
0.0077382852323353291 0.37196901440620422 0.48423475027084351
0.065763644874095917 0.39347228407859802 0.51979660987854004
0.16508246958255768 0.41257977485656738 0.5526079535484314
0.28226330876350403 0.43214443325996399 0.57501107454299927
0.3984827995300293 0.45238080620765686 0.59732359647750854
0.52757000923156738 0.46955448389053345 0.61509972810745239
0.65486383438110352 0.48922175168991089 0.63457620143890381
0.015544607304036617 0.54380470514297485 0.56428521871566772
0.095705606043338776 0.564159095287323 0.5897902250289917
0.21047976613044739 0.58414620161056519 0.61052447557449341
0.33848321437835693 0.60488158464431763 0.62456798553466797
0.46494963765144348 0.62682151794433594 0.63854020833969116
0.5968281626701355 0.6468009352684021 0.65093255043029785
0.72820323705673218 0.66884177923202515 0.66306096315383911
0.065708696842193604 0.7242470383644104 0.62243890762329102
0.16173291206359863 0.74264943599700928 0.63010895252227783
0.28815537691116333 0.76221048831939697 0.63927221298217773
0.42349806427955627 0.7819288969039917 0.6536596417427063
0.55437159538269043 0.80333161354064941 0.67523843050003052
0.6862596869468689 0.82388961315155029 0.70338577032089233
0.81491708755493164 0.84592854976654053 0.74019825458526611
