assets/lut/alexjordan low contrast blue.cube
# Created by: G'MIC (https://gmic.eu)
TITLE "low_contrast_blue"
# LUT size
LUT_3D_SIZE 7
# Data domain
DOMAIN_MIN 0.0 0.0 0.0
DOMAIN_MAX 1.0 1.0 1.0
# LUT data points
0.1038910374045372 0.13356658816337585 0.18319013714790344
0.17691028118133545 0.15272532403469086 0.19772058725357056
0.25805944204330444 0.16930690407752991 0.21509017050266266
0.34362104535102844 0.18611493706703186 0.23331786692142487
0.43234151601791382 0.20311939716339111 0.2513090968132019
0.5228695273399353 0.21808819472789764 0.26764830946922302
0.61352741718292236 0.22849695384502411 0.27920135855674744
0.14829781651496887 0.25675120949745178 0.22829955816268921
0.22428791224956512 0.27621501684188843 0.24592824280261993
0.30517974495887756 0.29332521557807922 0.26308521628379822
0.390339195728302 0.31070637702941895 0.28026953339576721
0.47938928008079529 0.32819390296936035 0.29843792319297791
0.57044833898544312 0.34296220541000366 0.31511774659156799
0.66197150945663452 0.35345208644866943 0.32731017470359802
0.19335959851741791 0.37977108359336853 0.27266532182693481
0.27228638529777527 0.39977943897247314 0.29270270466804504
0.35266885161399841 0.41769224405288696 0.30969613790512085
0.43697932362556458 0.43502640724182129 0.32573440670967102
0.52558642625808716 0.45103508234024048 0.34274452924728394
0.61694163084030151 0.46431463956832886 0.35865837335586548
0.70919972658157349 0.47438591718673706 0.3710789680480957
0.2374730259180069 0.5040661096572876 0.3157522976398468
0.31817430257797241 0.52444154024124146 0.3373795747756958
0.39923545718193054 0.54280149936676025 0.35525912046432495
0.48350977897644043 0.55930942296981812 0.37147408723831177
0.57159954309463501 0.5739017128944397 0.38682621717453003
0.6624559760093689 0.58580285310745239 0.40102505683898926
0.75474905967712402 0.59503871202468872 0.41266593337059021
0.28030753135681152 0.62796270847320557 0.35677081346511841
0.36247703433036804 0.64877855777740479 0.38050240278244019
0.44471490383148193 0.66730588674545288 0.40020075440406799
0.52918535470962524 0.68348973989486694 0.4167906641960144
0.61691266298294067 0.69702833890914917 0.43112236261367798
0.70741254091262817 0.7081255316734314 0.44322490692138672
0.7993234395980835 0.71667355298995972 0.45304775238037109
0.32129296660423279 0.75053685903549194 0.39520028233528137
0.40535765886306763 0.7719694972038269 0.42095768451690674
0.48871520161628723 0.79071700572967529 0.44273579120635986
0.57373577356338501 0.80670195817947388 0.4602389931678772
0.66171115636825562 0.81987804174423218 0.47377744317054749
0.75206029415130615 0.8301435112953186 0.48436659574508667
0.84369629621505737 0.83767718076705933 0.49224302172660828
0.36040583252906799 0.87126016616821289 0.42938825488090515
0.44634652137756348 0.89329618215560913 0.45718279480934143
0.53118389844894409 0.91224819421768188 0.48049759864807129
0.61720699071884155 0.92831134796142578 0.49902397394180298
0.70557641983032227 0.94100821018218994 0.51232057809829712
0.79594993591308594 0.95055413246154785 0.52199822664260864
0.88723587989807129 0.95721310377120972 0.52867579460144043
0.10997764766216278 0.13796812295913696 0.2642466127872467
0.18498785793781281 0.15831126272678375 0.28099587559700012
0.26489615440368652 0.17596973478794098 0.29810529947280884
0.35033515095710754 0.19337823987007141 0.3164488673210144
0.43930450081825256 0.21160018444061279 0.33501037955284119
0.53015518188476562 0.22776868939399719 0.35183581709861755
0.62133127450942993 0.23920057713985443 0.36411502957344055
0.15664811432361603 0.26080417633056641 0.31024128198623657
0.23243775963783264 0.28153741359710693 0.32848525047302246
0.31174129247665405 0.29887682199478149 0.34479686617851257
0.39697733521461487 0.31583181023597717 0.36248701810836792
0.48585984110832214 0.33496913313865662 0.38063523173332214
0.57713156938552856 0.35152503848075867 0.39766666293144226
0.66911256313323975 0.36384120583534241 0.41114073991775513
0.20245590806007385 0.38581350445747375 0.35605043172836304
0.27960675954818726 0.4058043360710144 0.37488093972206116
0.35890239477157593 0.42326971888542175 0.39113381505012512
0.44284862279891968 0.44089740514755249 0.40665394067764282
0.53183919191360474 0.45753362774848938 0.42389306426048279
0.62270665168762207 0.47262194752693176 0.43974712491035461
0.71535152196884155 0.48466959595680237 0.45384189486503601
0.24734187126159668 0.51137739419937134 0.40073233842849731
0.32614398002624512 0.53096115589141846 0.42096206545829773
0.40584802627563477 0.54889607429504395 0.43774786591529846
0.48945480585098267 0.56578677892684937 0.45289167761802673
0.57760262489318848 0.58054256439208984 0.46818667650222778
0.66764527559280396 0.594218909740448 0.481424480676651
0.76070988178253174 0.6054803729057312 0.49504899978637695
0.29118546843528748 0.63623875379562378 0.44370892643928528
0.37139996886253357 0.65622669458389282 0.46582397818565369
0.45191934704780579 0.67429649829864502 0.48421540856361389
0.53561925888061523 0.69059544801712036 0.50001722574234009
0.62317395210266113 0.70478767156600952 0.5138622522354126
0.71348351240158081 0.71711355447769165 0.52601605653762817
0.80638152360916138 0.72705930471420288 0.53764516115188599
0.33304652571678162 0.75995385646820068 0.48394644260406494
0.41517895460128784 0.78052836656570435 0.50835597515106201
0.49663615226745605 0.79896360635757446 0.52899384498596191
0.58063077926635742 0.81541675329208374 0.54581147432327271
0.66831248998641968 0.82898485660552979 0.55896139144897461
0.75920313596725464 0.83998656272888184 0.5700603723526001
0.85164338350296021 0.84851664304733276 0.57968032360076904
0.37263298034667969 0.88189816474914551 0.52018958330154419
0.45670422911643982 0.90318381786346436 0.54684919118881226
0.53997123241424561 0.92200124263763428 0.56934219598770142
0.62492328882217407 0.93826782703399658 0.58743566274642944
0.7132112979888916 0.95142054557800293 0.60036730766296387
0.80391204357147217 0.96142518520355225 0.6107601523399353
0.89593315124511719 0.9686424732208252 0.61876058578491211
0.11432936787605286 0.14303292334079742 0.34157091379165649
0.19038181006908417 0.16373622417449951 0.35928219556808472
0.27026516199111938 0.18232505023479462 0.37681785225868225
0.35601797699928284 0.20030671358108521 0.3957037627696991
0.44539541006088257 0.21852613985538483 0.41454043984413147
0.53660362958908081 0.23498636484146118 0.43122878670692444
0.62806922197341919 0.24696063995361328 0.4441104531288147
0.16195671260356903 0.26780891418457031 0.38886913657188416
0.23706589639186859 0.28875559568405151 0.40555515885353088
0.3165009617805481 0.30644792318344116 0.42290550470352173
0.40243855118751526 0.32311871647834778 0.44146212935447693
0.49191966652870178 0.34135764837265015 0.45965874195098877
0.58333390951156616 0.3582557737827301 0.47642803192138672
0.67555028200149536 0.37144321203231812 0.49028858542442322
0.20890392363071442 0.3928561806678772 0.4355846643447876
0.28493970632553101 0.41251844167709351 0.4532981812953949
0.36481934785842896 0.42875340580940247 0.47125011682510376
0.44871616363525391 0.44624230265617371 0.48591288924217224
0.53847163915634155 0.46281099319458008 0.50319379568099976
0.62886923551559448 0.4792843759059906 0.51847267150878906
0.72158998250961304 0.49284818768501282 0.53264385461807251
0.25514861941337585 0.51806390285491943 0.48156845569610596
0.3324398398399353 0.53691548109054565 0.50071156024932861
0.41128364205360413 0.55398178100585938 0.51699817180633545
0.49493235349655151 0.57080507278442383 0.53123623132705688
0.58463460206985474 0.58558279275894165 0.54789859056472778
0.67382490634918213 0.60149627923965454 0.56041872501373291
0.76717901229858398 0.61396211385726929 0.57458537817001343
0.30022072792053223 0.64316743612289429 0.5257454514503479
0.37867802381515503 0.6620945930480957 0.54666745662689209
0.45769292116165161 0.67968755960464478 0.56383669376373291
0.5411342978477478 0.69621545076370239 0.57895022630691528
0.6291387677192688 0.71143019199371338 0.59302175045013428
0.71997547149658203 0.72486180067062378 0.60569828748703003
0.8135560154914856 0.7355768084526062 0.6186334490776062
0.34313935041427612 0.76730167865753174 0.56760060787200928
0.42322757840156555 0.78694659471511841 0.59059268236160278
0.50336593389511108 0.80496037006378174 0.60978561639785767
0.58673185110092163 0.82176369428634644 0.62578046321868896
0.67465031147003174 0.83652365207672119 0.63913428783416748
0.76600205898284912 0.84825176000595093 0.65129494667053223
0.85936188697814941 0.85733312368392944 0.66273117065429688
0.38265615701675415 0.8899415135383606 0.60551339387893677
0.46543189883232117 0.91058158874511719 0.63084536790847778
0.54752510786056519 0.92902487516403198 0.65204554796218872
0.63192647695541382 0.94585806131362915 0.66899657249450684
0.71975886821746826 0.95977479219436646 0.68231666088104248
0.81113654375076294 0.97026437520980835 0.69398981332778931
0.90404015779495239 0.97740757465362549 0.70417904853820801
0.11884278059005737 0.14997600018978119 0.41879081726074219
0.19536770880222321 0.16948294639587402 0.4363846480846405
0.27575886249542236 0.18823729455471039 0.45460838079452515
0.36209464073181152 0.20705649256706238 0.47371616959571838
0.45189541578292847 0.22543177008628845 0.49231863021850586
0.54321372509002686 0.24166068434715271 0.50905388593673706
0.634815514087677 0.25373104214668274 0.52191901206970215
0.16770195960998535 0.27601063251495361 0.46718177199363708
0.24322615563869476 0.29520639777183533 0.48417156934738159
0.32290759682655334 0.31264963746070862 0.50163036584854126
0.40858793258666992 0.33027070760726929 0.51964098215103149
0.49839341640472412 0.34812787175178528 0.53743273019790649
0.59012609720230103 0.36472445726394653 0.5540701150894165
0.68218374252319336 0.37795355916023254 0.56813055276870728
0.21526779234409332 0.40068766474723816 0.51428937911987305
0.29086187481880188 0.41934502124786377 0.53182357549667358
0.3701707124710083 0.43571636080741882 0.54846209287643433
0.45457190275192261 0.45273715257644653 0.56401735544204712
0.54446375370025635 0.46942543983459473 0.58116310834884644
0.63585275411605835 0.48584616184234619 0.59689313173294067
0.728485107421875 0.49957588315010071 0.61130475997924805
0.26154738664627075 0.52521884441375732 0.56028550863265991
0.33769670128822327 0.54347056150436401 0.5785064697265625
0.4161466658115387 0.56014740467071533 0.59445774555206299
0.50019049644470215 0.57677602767944336 0.608986496925354
0.5898585319519043 0.59286749362945557 0.62530827522277832
0.68130528926849365 0.60844272375106812 0.63980370759963989
0.77480399608612061 0.62107157707214355 0.65417230129241943
0.3071255087852478 0.64951205253601074 0.60496217012405396
0.38410967588424683 0.66767996549606323 0.62479233741760254
0.46253883838653564 0.68474799394607544 0.64158636331558228
0.54632067680358887 0.7017287015914917 0.65652036666870117
0.63479894399642944 0.71821469068527222 0.67085945606231689
0.72701609134674072 0.73222506046295166 0.68474060297012329
0.82143688201904297 0.74311524629592896 0.69856041669845581
0.35047838091850281 0.77338463068008423 0.64748269319534302
0.42953160405158997 0.79196286201477051 0.66974031925201416
0.50863003730773926 0.80962675809860229 0.68813008069992065
0.59226346015930176 0.82736146450042725 0.7035529613494873
0.68047475814819336 0.84345501661300659 0.71711248159408569
0.77271729707717896 0.85601067543029785 0.73050838708877563
0.86691379547119141 0.86532223224639893 0.74370104074478149
0.39004862308502197 0.89622741937637329 0.68688952922821045
0.47239351272583008 0.91602581739425659 0.71125340461730957
0.55387479066848755 0.93453752994537354 0.73165339231491089
0.63810938596725464 0.95212513208389282 0.74761146306991577
0.72616761922836304 0.96736198663711548 0.76118665933609009
0.81778597831726074 0.97767156362533569 0.77450811862945557
0.91141790151596069 0.98345160484313965 0.78673470020294189
0.12607637047767639 0.15859565138816833 0.49692162871360779
0.20277772843837738 0.1772083044052124 0.51441586017608643
0.28351077437400818 0.19576108455657959 0.53241229057312012
0.37004005908966064 0.21471387147903442 0.55165141820907593
0.45950591564178467 0.23270758986473083 0.56996792554855347
0.55052840709686279 0.24844460189342499 0.58603829145431519
0.64170467853546143 0.26006835699081421 0.59890574216842651
0.1758144199848175 0.28472071886062622 0.54595768451690674
0.25151994824409485 0.30357035994529724 0.5631670355796814
0.3311372697353363 0.32098096609115601 0.58014100790023804
0.41658097505569458 0.3383757472038269 0.59788256883621216
0.5060114860534668 0.35554906725883484 0.61547428369522095
0.59723037481307983 0.37120348215103149 0.63162529468536377
0.68912583589553833 0.38391533493995667 0.64525043964385986
0.22323283553123474 0.40887889266014099 0.59292471408843994
0.29855814576148987 0.42782503366470337 0.61007267236709595
0.37736636400222778 0.44465959072113037 0.62631881237030029
0.46225351095199585 0.46060904860496521 0.64280480146408081
0.55177795886993408 0.47642701864242554 0.65945553779602051
0.6432221531867981 0.49169066548347473 0.67501372098922729
0.73546332120895386 0.50492274761199951 0.68890833854675293
0.26852896809577942 0.53228014707565308 0.63802421092987061
0.34354069828987122 0.5512772798538208 0.65578722953796387
0.42219853401184082 0.56770884990692139 0.67204999923706055
0.50740396976470947 0.5831267237663269 0.68797141313552856
0.59711366891860962 0.59861087799072266 0.70388877391815186
0.68881583213806152 0.61399662494659424 0.71875482797622681
0.78175109624862671 0.62732136249542236 0.73272019624710083
0.31221544742584229 0.65573954582214355 0.68253117799758911
0.38887694478034973 0.6737789511680603 0.7021484375
0.46778708696365356 0.69043940305709839 0.71911859512329102
0.55250763893127441 0.70732837915420532 0.73447734117507935
0.64196449518203735 0.72347015142440796 0.74943351745605469
0.73407918214797974 0.73886412382125854 0.76382565498352051
0.82803183794021606 0.75189816951751709 0.77778708934783936
0.354339599609375 0.77904123067855835 0.72538179159164429
0.43385642766952515 0.79683011770248413 0.74754887819290161
0.51350992918014526 0.81411540508270264 0.76595163345336914
0.59806710481643677 0.83288133144378662 0.78104978799819946
0.68690955638885498 0.84983611106872559 0.79510748386383057
0.77902323007583618 0.86391204595565796 0.80932134389877319
0.87325590848922729 0.87507539987564087 0.82331252098083496
0.39510953426361084 0.90180850028991699 0.76507353782653809
0.47713431715965271 0.9212074875831604 0.78967905044555664
0.55923837423324585 0.93966633081436157 0.80947548151016235
0.64421015977859497 0.95818442106246948 0.82567274570465088
0.73245346546173096 0.97434723377227783 0.83934921026229858
0.82422417402267456 0.9832073450088501 0.85377305746078491
0.91820186376571655 0.98810470104217529 0.86806118488311768
0.13592715561389923 0.1685606986284256 0.57571625709533691
0.21443319320678711 0.18774119019508362 0.59439229965209961
0.2950323224067688 0.20526733994483948 0.61204534769058228
0.38020133972167969 0.22280396521091461 0.63024264574050903
0.4683014452457428 0.2397056370973587 0.64746630191802979
0.55817824602127075 0.25469797849655151 0.66271853446960449
0.64845192432403564 0.26559114456176758 0.67486739158630371
0.18585109710693359 0.29409217834472656 0.62497907876968384
0.26330435276031494 0.31343287229537964 0.64297419786453247
0.34248071908950806 0.33056020736694336 0.65990537405014038
0.42672693729400635 0.34701794385910034 0.67706668376922607
0.51486456394195557 0.36285215616226196 0.69374066591262817
0.60512948036193848 0.37726879119873047 0.7089657187461853
0.69600635766983032 0.38879609107971191 0.72161835432052612
0.23324880003929138 0.41623383760452271 0.67132377624511719
0.30932796001434326 0.43638342618942261 0.68925994634628296
0.38794010877609253 0.45359763503074646 0.7057342529296875
0.47207009792327881 0.46898174285888672 0.72231012582778931
0.56030941009521484 0.4834727942943573 0.73840427398681641
0.6507030725479126 0.49696388840675354 0.75291347503662109
0.7420923113822937 0.50892442464828491 0.76578474044799805
0.2772161066532135 0.53862613439559937 0.71564275026321411
0.35283136367797852 0.558887779712677 0.73407441377639771
0.4317203164100647 0.57600367069244385 0.75086694955825806
0.51639401912689209 0.59085524082183838 0.76726466417312622
0.60521203279495239 0.60469180345535278 0.78325748443603516
0.69577842950820923 0.61888980865478516 0.79759281873703003
0.78777778148651123 0.63214004039764404 0.81053739786148071
0.31821617484092712 0.66235625743865967 0.75875884294509888
0.39569267630577087 0.68131911754608154 0.77888739109039307
0.47557777166366577 0.69837278127670288 0.79664850234985352
0.56038039922714233 0.71465486288070679 0.81264191865921021
0.64918261766433716 0.72917282581329346 0.82879453897476196
0.74031323194503784 0.74484974145889282 0.84346872568130493
0.83335041999816895 0.75985491275787354 0.85656148195266724
0.35807019472122192 0.7853206992149353 0.80110651254653931
0.43873888254165649 0.8039926290512085 0.82361197471618652
0.5199660062789917 0.82199102640151978 0.84251517057418823
0.60513967275619507 0.84024816751480103 0.85874277353286743
0.69344592094421387 0.85566580295562744 0.87418574094772339
0.78480607271194458 0.87061995267868042 0.88830292224884033
0.87874644994735718 0.8848876953125 0.90210592746734619
0.39861664175987244 0.90733140707015991 0.84135621786117554
0.48190337419509888 0.92724961042404175 0.86572045087814331
0.56563442945480347 0.94633394479751587 0.88647443056106567
0.65150737762451172 0.96462571620941162 0.9041016697883606
0.7397962212562561 0.97918879985809326 0.91842377185821533
0.83074021339416504 0.9877743124961853 0.93145418167114258
0.92451071739196777 0.99092984199523926 0.94808411598205566
0.14449895918369293 0.17556013166904449 0.65239191055297852
0.22522716224193573 0.19547189772129059 0.67240512371063232
0.30617782473564148 0.2125108540058136 0.69031798839569092
0.39005836844444275 0.22889310121536255 0.70752805471420288
0.47685030102729797 0.24443288147449493 0.72372668981552124
0.56541919708251953 0.25851619243621826 0.73804593086242676
0.65451252460479736 0.26845008134841919 0.7492184042930603
0.19432924687862396 0.30089196562767029 0.70209109783172607
0.27402505278587341 0.32139429450035095 0.72159057855606079
0.35396480560302734 0.3386273980140686 0.7389337420463562
0.43710902333259583 0.3543587327003479 0.75544106960296631
0.52372050285339355 0.36897918581962585 0.77157777547836304
0.61247748136520386 0.38211283087730408 0.78545069694519043
0.7022249698638916 0.39233818650245667 0.79706937074661255
0.24127063155174255 0.4222467839717865 0.7482561469078064
0.31996095180511475 0.44344493746757507 0.76753723621368408
0.39910972118377686 0.46150022745132446 0.7847675085067749
0.48227190971374512 0.47675821185112 0.80127876996994019
0.56896126270294189 0.49031174182891846 0.81683135032653809
0.65799254179000854 0.50246036052703857 0.83061361312866211
0.74812668561935425 0.51270270347595215 0.84192997217178345
0.28414329886436462 0.54414975643157959 0.79199451208114624
0.36285269260406494 0.5657116174697876 0.81173819303512573
0.4423598051071167 0.58383041620254517 0.82931894063949585
0.52597260475158691 0.59904146194458008 0.84613561630249023
0.61302304267883301 0.61217087507247925 0.86204183101654053
0.70239615440368652 0.62462711334228516 0.87599116563796997
0.79345375299453735 0.6362805962562561 0.88763976097106934
0.32305273413658142 0.66829943656921387 0.83378452062606812
0.40369501709938049 0.68900215625762939 0.85516566038131714
0.48485738039016724 0.70708727836608887 0.87359952926635742
0.56907981634140015 0.72299891710281372 0.89061439037322998
0.65636318922042847 0.73599487543106079 0.90752285718917847
0.74632751941680908 0.74978357553482056 0.92252713441848755
0.83874768018722534 0.76435655355453491 0.93461054563522339
0.36232060194015503 0.79074335098266602 0.87546312808990479
0.44527971744537354 0.81144082546234131 0.89851140975952148
0.52813470363616943 0.83065509796142578 0.91810703277587891
0.61321431398391724 0.84837621450424194 0.93533635139465332
0.70068490505218506 0.86137199401855469 0.95239603519439697
0.79031097888946533 0.87522280216217041 0.9662168025970459
0.88431346416473389 0.89085263013839722 0.97940486669540405
0.40183153748512268 0.91162270307540894 0.91514909267425537
0.48709404468536377 0.93334847688674927 0.94008857011795044
0.57232582569122314 0.95298588275909424 0.96182799339294434
0.65914708375930786 0.97078990936279297 0.98107349872589111
0.74739950895309448 0.98377764225006104 0.9926069974899292
0.83650541305541992 0.99334001541137695 0.99660718441009521
0.92955636978149414 0.99622064828872681 0.99986428022384644
