assets/lut/alexjordan green day 01.cube
# Created by: G'MIC (https://gmic.eu)
TITLE "green_day_01"
# LUT size
LUT_3D_SIZE 13
# Data domain
DOMAIN_MIN 0.0 0.0 0.0
DOMAIN_MAX 1.0 1.0 1.0
# LUT data points
0 0 0
0.0024376215878874063 0 0
0.042914312332868576 0 0
0.11924438178539276 0.00098845537286251783 0.0008326810784637928
0.19733454287052155 0.00031919291359372437 0.0015318627702072263
0.27009803056716919 0 0.00077116722241044044
0.34273508191108704 0 1.4002182979311328e-05
0.41583484411239624 0 0
0.48830100893974304 0 0.00013463637151289731
0.56019848585128784 7.0010914896556642e-06 0.00096598605159670115
0.63223689794540405 0.0015942292520776391 0.00090852624271064997
0.70438134670257568 0.0093596959486603737 0.0001613841304788366
0.77713990211486816 0.025330981239676476 0
0 0.0081879561766982079 0
0.0061736162751913071 0.0094368727877736092 0
0.057004578411579132 0.010130474343895912 0
0.13354352116584778 0.018749477341771126 8.0377918493468314e-05
0.20783013105392456 0.01786307618021965 0.00040705062565393746
0.27916809916496277 0.012914800085127354 0.00022590487787965685
0.35190603137016296 0.014384624548256397 0
0.42516180872917175 0.016462916508316994 0
0.49760520458221436 0.019045481458306313 0.0002240947651444003
0.56943321228027344 0.025161353871226311 0.002623389707878232
0.64104032516479492 0.038237523287534714 0.0028672460466623306
0.71291232109069824 0.056107897311449051 0.001129838521592319
0.78551071882247925 0.076544515788555145 0.0001613841304788366
0 0.069201432168483734 0
0.0049101435579359531 0.071006447076797485 0
0.06047261506319046 0.070100046694278717 0
0.14217826724052429 0.074693344533443451 0
0.21800816059112549 0.074922241270542145 0
0.28904438018798828 0.07379557192325592 0
0.36084404587745667 0.077023945748806 0
0.43362560868263245 0.080285646021366119 0
0.50621604919433594 0.082435742020606995 7.6114432886242867e-05
0.57816153764724731 0.086943574249744415 0.002667341148480773
0.64984709024429321 0.09831547737121582 0.0036639643367379904
0.72174650430679321 0.11470702290534973 0.0020124248694628477
0.79411309957504272 0.13379406929016113 0.00085718493210151792
0.00015649234410375357 0.15518192946910858 2.1003274014219642e-05
0.012053949758410454 0.15524263679981232 0
0.067943379282951355 0.1528678834438324 0
0.14922553300857544 0.15282003581523895 0
0.22678911685943604 0.15310481190681458 0
0.29845947027206421 0.1538323312997818 7.6652977440971881e-05
0.36972853541374207 0.15631061792373657 0.00029907227144576609
0.44202184677124023 0.15775524079799652 0
0.51448053121566772 0.15841555595397949 0
0.58646976947784424 0.16066645085811615 0.0002801483788061887
0.65840303897857666 0.1683756411075592 0.0016368492506444454
0.73043131828308105 0.18113978207111359 0.0017803865484893322
0.80292141437530518 0.1975015252828598 0.0013585707638412714
0.0026231054216623306 0.23649248480796814 0.0013121661031618714
0.027882115915417671 0.23597234487533569 0.0004566267307382077
0.082320928573608398 0.23384702205657959 0.00029925178387202322
0.15691056847572327 0.23337507247924805 0
0.23373997211456299 0.23329164087772369 0
0.30701017379760742 0.23393762111663818 5.0264247875020374e-06
0.37873470783233643 0.23595784604549408 1.3643152669828851e-05
0.45069903135299683 0.23715934157371521 0
0.5227208137512207 0.23749694228172302 0
0.59474784135818481 0.23861269652843475 2.1541820842685411e-06
0.66680032014846802 0.24353858828544617 0.00064302334794774652
0.73905277252197266 0.25333836674690247 0.0013287712354212999
0.81166923046112061 0.2664133608341217 0.0014705882640555501
0.0049006291665136814 0.31263703107833862 0.0029077567160129547
0.039195597171783447 0.3123948872089386 0.0012304418487474322
0.09431871771812439 0.31108954548835754 0.00057373044546693563
0.16450220346450806 0.31102940440177917 0
0.23998807370662689 0.31102940440177917 0
0.31501966714859009 0.31106370687484741 0
0.38764527440071106 0.31262901425361633 0
0.45951119065284729 0.31470265984535217 0
0.53133869171142578 0.31510069966316223 0
0.60333102941513062 0.3172028660774231 0.00016479492478538305
0.67539405822753906 0.3206508457660675 0.00072649784851819277
0.74776852130889893 0.32803341746330261 0.0013113582972437143
0.8205375075340271 0.33899644017219543 0.0016018586466088891
0.0057913986966013908 0.38816061615943909 0.0032690907828509808
0.045684605836868286 0.38816061615943909 0.0012438605772331357
0.10283046215772629 0.38810849189758301 0.00035202925209887326
0.17184735834598541 0.38783562183380127 0
0.24668371677398682 0.38779190182685852 0
0.32221397757530212 0.38820165395736694 0
0.39607536792755127 0.3886546790599823 0
0.4684845507144928 0.39139744639396667 0
0.5403856635093689 0.39230784773826599 0.00015133128908928484
0.61227566003799438 0.39503121376037598 0.00076617073500528932
0.68468135595321655 0.39833280444145203 0.0012801226694136858
0.75692403316497803 0.40449061989784241 0.0017079521203413606
0.82963484525680542 0.4135735034942627 0.0028108034748584032
0.0064174877479672432 0.46210682392120361 0.0033492143265902996
0.050269946455955505 0.46244853734970093 0.0010579427471384406
0.10955960303544998 0.46232852339744568 0.00017233456310350448
0.17859849333763123 0.4622558057308197 0
0.25303596258163452 0.46292731165885925 0
0.32911735773086548 0.46492931246757507 0
0.40400198101997375 0.46550473570823669 0
0.47739881277084351 0.46803715825080872 0
0.5496787428855896 0.46943280100822449 0.00052328669698908925
0.62182986736297607 0.47265791893005371 0.0012846104800701141
0.69400984048843384 0.47581717371940613 0.0020712460391223431
0.76625454425811768 0.4815349280834198 0.0032539668027311563
0.83910632133483887 0.48956239223480225 0.0045470441691577435
0.0075526069849729538 0.53786957263946533 0.0036715189926326275
0.054969802498817444 0.53838163614273071 0.0011947931488975883
0.11614807695150375 0.53870213031768799 0.00025168026331812143
0.18563102185726166 0.53872549533843994 0
0.26002329587936401 0.53894233703613281 0
0.33632883429527283 0.54144412279129028 0
0.41210633516311646 0.54264706373214722 0
0.48621571063995361 0.54507029056549072 2.6927275030175224e-05
0.55902558565139771 0.54674369096755981 0.00084210565546527505
0.6311030387878418 0.55024343729019165 0.0018586252117529511
0.70305788516998291 0.55381721258163452 0.0034686967264860868
0.77543264627456665 0.55950522422790527 0.0050802044570446014
0.84835314750671387 0.56665313243865967 0.0074764476157724857
0.0094469552859663963 0.61202919483184814 0.0048628412187099457
0.060508504509925842 0.61235684156417847 0.0020896911155432463
0.12308497726917267 0.61369425058364868 0.00075288658263161778
0.19291014969348907 0.61571711301803589 9.7297219326719642e-05
0.26730591058731079 0.61593139171600342 0
0.34381121397018433 0.61825215816497803 0
0.42019602656364441 0.61987018585205078 0
0.49475836753845215 0.62268811464309692 0.00026316923322156072
0.56765955686569214 0.62446916103363037 0.0012964585330337286
0.63998669385910034 0.62789136171340942 0.0029991001356393099
0.71218502521514893 0.63215404748916626 0.0052414988167583942
0.78466701507568359 0.63742691278457642 0.0079094236716628075
0.85737687349319458 0.64457917213439941 0.011085061356425285
0.011943592689931393 0.68921566009521484 0.0070168138481676579
0.066402167081832886 0.68921566009521484 0.0037386727053672075
0.13049966096878052 0.68925696611404419 0.0018055784748867154
0.2005036324262619 0.69186896085739136 0.00097889616154134274
0.27461880445480347 0.69313722848892212 0.00042580996523611248
0.35088947415351868 0.69556677341461182 0.00029135312070138752
0.42738050222396851 0.69720244407653809 0.00037752039497718215
0.50224071741104126 0.70063012838363647 0.0010594686027616262
0.57552385330200195 0.7028687596321106 0.0024864943698048592
0.64800542593002319 0.70627379417419434 0.0048844283446669579
0.72055244445800781 0.71053981781005859 0.0080251209437847137
0.79318028688430786 0.71604901552200317 0.011596754193305969
0.86625939607620239 0.7232891321182251 0.015978734940290451
0.0155398054048419 0.76642155647277832 0.010411744937300682
0.072910547256469727 0.76642155647277832 0.0065812054090201855
0.13790345191955566 0.76642155647277832 0.0042942119762301445
0.20800074934959412 0.76888978481292725 0.0028360702563077211
0.28166204690933228 0.77034610509872437 0.0020481632091104984
0.35723891854286194 0.77346467971801758 0.0018401501001790166
0.43344256281852722 0.77522897720336914 0.0020083559211343527
0.50846749544143677 0.77828270196914673 0.0030690811108797789
0.58218836784362793 0.78161799907684326 0.0051634097471833229
0.65539246797561646 0.78510946035385132 0.0082924040034413338
0.72844338417053223 0.78971302509307861 0.012080383487045765
0.80146777629852295 0.79550367593765259 0.016942551359534264
0.87493258714675903 0.80258923768997192 0.022386288270354271
0.020725414156913757 0.8436274528503418 0.016130410134792328
0.080598853528499603 0.8436274528503418 0.011465184390544891
0.14614328742027283 0.84414750337600708 0.0085667632520198822
0.21594323217868805 0.84730023145675659 0.0067609003745019436
0.28886085748672485 0.84853178262710571 0.0055564730428159237
0.36390775442123413 0.85145330429077148 0.0054677925072610378
0.43928980827331543 0.85431879758834839 0.0057120528072118759
0.51430481672286987 0.85708647966384888 0.007224363274872303
0.58850634098052979 0.86053466796875 0.0099295368418097496
0.66231805086135864 0.86461752653121948 0.013652068562805653
0.73588687181472778 0.86948633193969727 0.01835194043815136
0.80954170227050781 0.87555795907974243 0.02415364608168602
0.88338375091552734 0.88277745246887207 0.030545193701982498
0 0 0
0.0060719060711562634 0 0.00030837714439257979
0.049374345690011978 0 0.0033906525932252407
0.12104842066764832 2.4952607418526895e-05 0.0095420237630605698
0.19714473187923431 1.2386546586640179e-05 0.013064336031675339
0.27121081948280334 0 0.013289567083120346
0.34431806206703186 0 0.011142266914248466
0.41728994250297546 0 0.010044082999229431
0.48954606056213379 0 0.013739866204559803
0.56120353937149048 0 0.018555359914898872
0.63268947601318359 0.00086197198834270239 0.019910894334316254
0.70432150363922119 0.0074908537790179253 0.017199272289872169
0.77648472785949707 0.023026261478662491 0.013761961832642555
0 0.011337415315210819 0.00013049256813246757
0.0057449787855148315 0.011575841344892979 7.4543670052662492e-05
0.059679307043552399 0.0103110671043396 0.0018217049073427916
0.13570518791675568 0.017942436039447784 0.0064599132165312767
0.21059021353721619 0.0212873425334692 0.0093839308246970177
0.28255435824394226 0.018464406952261925 0.010569269768893719
0.35487121343612671 0.017052534967660904 0.0087436754256486893
0.42754966020584106 0.016802694648504257 0.0068707037717103958
0.49953043460845947 0.018863648176193237 0.011387604288756847
0.5709528923034668 0.023896491155028343 0.019418738782405853
0.64217960834503174 0.035789027810096741 0.023453401401638985
0.71353471279144287 0.053649932146072388 0.022359106689691544
0.78543484210968018 0.074101783335208893 0.01929798536002636
0 0.073881141841411591 0.00067395978840067983
0.0048781451769173145 0.073144383728504181 0.00037798413541167974
0.061052825301885605 0.070620439946651459 0.0022729162592440844
0.14322611689567566 0.076390482485294342 0.0041331271640956402
0.22031180560588837 0.081277303397655487 0.0041849175468087196
0.29230427742004395 0.080679528415203094 0.0081294635310769081
0.3638303279876709 0.08101160079240799 0.0090327393263578415
0.43617486953735352 0.082839310169219971 0.0054239607416093349
0.50832623243331909 0.084485672414302826 0.0069924299605190754
0.57988852262496948 0.08846408873796463 0.016801945865154266
0.65119284391403198 0.097591117024421692 0.024465508759021759
0.7225460410118103 0.11288909614086151 0.02575136162340641
0.79462027549743652 0.13142189383506775 0.024674044921994209
1.6156365063579869e-06 0.15843276679515839 0.0053041796199977398
0.012125187553465366 0.15581515431404114 0.004332179669290781
0.067894190549850464 0.15364821255207062 0.0064896675758063793
0.14823468029499054 0.15555629134178162 0.0053920671343803406
0.22740113735198975 0.15885448455810547 0.0038565541617572308
0.30053859949111938 0.15850114822387695 0.0094990748912096024
0.3720451295375824 0.15915390849113464 0.0117989182472229
0.44414839148521423 0.16091153025627136 0.005400968249887228
0.5163765549659729 0.16247843205928802 0.0038410110864788294
0.588134765625 0.1634223461151123 0.012923805043101311
0.65973407030105591 0.16851708292961121 0.0228449497371912
0.73139548301696777 0.17997516691684723 0.027025215327739716
0.80336242914199829 0.19535578787326813 0.027347400784492493
0.0012297237990424037 0.23774509131908417 0.017380388453602791
0.025305101647973061 0.23713910579681396 0.01509857177734375
0.080340594053268433 0.23401299118995667 0.014551798813045025
0.15548895299434662 0.23452955484390259 0.011870350688695908
0.23338757455348969 0.23682735860347748 0.0096917841583490372
0.30843290686607361 0.23752324283123016 0.0123125109821558
0.38054043054580688 0.23774395883083344 0.014678895473480225
0.45215994119644165 0.23981718719005585 0.01059570349752903
0.52401691675186157 0.24142667651176453 0.0092916004359722137
0.59595292806625366 0.24155265092849731 0.015585207380354404
0.66788488626480103 0.24428431689739227 0.023254603147506714
0.73984485864639282 0.25261926651000977 0.027264554053544998
0.8122183084487915 0.26469030976295471 0.030373711138963699
0.0025054931174963713 0.3144841194152832 0.026613466441631317
0.034594085067510605 0.31345638632774353 0.023007741197943687
0.09088529646396637 0.31117558479309082 0.020311633124947548
0.16280151903629303 0.31111964583396912 0.016599677503108978
0.24005000293254852 0.31196185946464539 0.01268298551440239
0.31641301512718201 0.312887042760849 0.012058601714670658
0.38924530148506165 0.31485390663146973 0.015140997245907784
0.46056148409843445 0.31677958369255066 0.017797268927097321
0.53206014633178711 0.31875473260879517 0.019617177546024323
0.60405486822128296 0.31887537240982056 0.023208064958453178
0.67621254920959473 0.32167547941207886 0.026956386864185333
0.74850773811340332 0.32761016488075256 0.029865024611353874
0.82086473703384399 0.33732765913009644 0.032423686236143112
0.0028681138064712286 0.38823530077934265 0.031390246003866196
0.039614658802747726 0.38823530077934265 0.026368353515863419
0.098314739763736725 0.38823530077934265 0.022361425682902336
0.16967327892780304 0.38823530077934265 0.018215702846646309
0.24648448824882507 0.38823530077934265 0.014283288270235062
0.32339963316917419 0.38839319348335266 0.012970673851668835
0.39742103219032288 0.39132148027420044 0.016490787267684937
0.46942967176437378 0.3928985595703125 0.022161401808261871
0.54104423522949219 0.39547160267829895 0.026572387665510178
0.61310762166976929 0.39611002802848816 0.029604040086269379
0.68516761064529419 0.39917168021202087 0.032041989266872406
0.75737929344177246 0.40410539507865906 0.034188587218523026
0.83001697063446045 0.41210758686065674 0.037283055484294891
0.0032645282335579395 0.46354222297668457 0.034193344414234161
0.043229464441537857 0.4642581045627594 0.028159407898783684
0.10425913333892822 0.46468526124954224 0.02342669852077961
0.17566336691379547 0.46516063809394836 0.019828032702207565
0.25232654809951782 0.46543172001838684 0.016786478459835052
0.32956010103225708 0.4655148983001709 0.016425682231783867
0.40495756268501282 0.46798670291900635 0.019488750025629997
0.47828322649002075 0.46951755881309509 0.024940969422459602
0.55048179626464844 0.47197738289833069 0.030210832133889198
0.62256991863250732 0.47331884503364563 0.034199882298707962
0.69451504945755005 0.476580411195755 0.037331301718950272
0.76659667491912842 0.48131126165390015 0.040226027369499207
0.8392062783241272 0.48822227120399475 0.04388752207159996
0.0042008943855762482 0.53870213031768799 0.037655189633369446
0.04838479682803154 0.53872549533843994 0.031035568565130234
0.11100142449140549 0.53889209032058716 0.02627258375287056
0.18244847655296326 0.53995293378829956 0.022867031395435333
0.25885418057441711 0.54203635454177856 0.020613562315702438
0.33637288212776184 0.54265600442886353 0.020323541015386581
0.41260764002799988 0.54453533887863159 0.022803766652941704
0.48696696758270264 0.54657924175262451 0.027534335851669312
0.55976134538650513 0.54879295825958252 0.033105842769145966
0.63177257776260376 0.5505790114402771 0.038083784282207489
0.70386236906051636 0.55414223670959473 0.042497791349887848
0.77596938610076904 0.55877745151519775 0.04661700502038002
0.84861874580383301 0.56516855955123901 0.05102245882153511
0.0059236115776002407 0.6131596565246582 0.042633567005395889
0.054717149585485458 0.61466819047927856 0.036044415086507797
0.11860527843236923 0.61584341526031494 0.031042255461215973
0.18987345695495605 0.61600244045257568 0.027596822008490562
0.26572588086128235 0.61801260709762573 0.025484794750809669
0.34314420819282532 0.61984521150588989 0.02498544380068779
0.420259028673172 0.62170052528381348 0.026597639545798302
0.49524083733558655 0.62376946210861206 0.030922070145606995
0.56829243898391724 0.62605422735214233 0.036801163107156754
0.64059227705001831 0.62812143564224243 0.042596660554409027
0.71253883838653564 0.63192301988601685 0.048158980906009674
0.7848624587059021 0.63673526048660278 0.053205691277980804
0.85735821723937988 0.64290767908096313 0.058412633836269379
0.0087104793637990952 0.68921566009521484 0.048949357122182846
0.061384748667478561 0.68939810991287231 0.042472898960113525
0.12633967399597168 0.69155055284500122 0.037616744637489319
0.19744189083576202 0.69312375783920288 0.034115254878997803
0.27260890603065491 0.69431853294372559 0.031910404562950134
0.34998923540115356 0.69699180126190186 0.030988670885562897
0.42701619863510132 0.69881343841552734 0.032254282385110855
0.50232750177383423 0.70099270343780518 0.036309484392404556
0.5756843090057373 0.70389378070831299 0.042072057723999023
0.64829868078231812 0.70632869005203247 0.048328042030334473
0.72071641683578491 0.71009910106658936 0.054449401795864105
0.79317170381546021 0.7148551344871521 0.060083083808422089
0.86619371175765991 0.72145015001296997 0.065927498042583466
0.012247182428836823 0.76642155647277832 0.056326292455196381
0.068499304354190826 0.76642155647277832 0.050184167921543121
0.13410072028636932 0.7676042914390564 0.045661132782697678
0.20502111315727234 0.77029323577880859 0.042305231094360352
0.27946221828460693 0.77140361070632935 0.040272880345582962
0.35608407855033875 0.77422404289245605 0.039529524743556976
0.43285098671913147 0.77652418613433838 0.040769089013338089
0.50799107551574707 0.77848464250564575 0.044285058975219727
0.58203542232513428 0.78190767765045166 0.049477759748697281
0.65526074171066284 0.78494226932525635 0.055540796369314194
0.72810524702072144 0.78879696130752563 0.061680559068918228
0.80101674795150757 0.79401689767837524 0.067859351634979248
0.87439793348312378 0.8004990816116333 0.074101738631725311
0.017287520691752434 0.8436274528503418 0.065539613366127014
0.07648710161447525 0.84365099668502808 0.059576716274023056
0.14248310029506683 0.84576326608657837 0.055279795080423355
0.21295095980167389 0.84754085540771484 0.052155856043100357
0.28665626049041748 0.84966301918029785 0.050267748534679413
0.36224761605262756 0.85163182020187378 0.049813453108072281
0.4379589855670929 0.85487633943557739 0.05094413086771965
0.51366543769836426 0.85726124048233032 0.054122701287269592
0.5879061222076416 0.8602060079574585 0.058834075927734375
0.66176223754882812 0.8639952540397644 0.064295209944248199
0.73528623580932617 0.86840963363647461 0.070230774581432343
0.80880832672119141 0.8736501932144165 0.076516307890415192
0.88264632225036621 0.88043808937072754 0.082916468381881714
0 0 0.015621080994606018
0.0085496492683887482 0 0.020734958350658417
0.051176257431507111 0.00022565056860912591 0.028592832386493683
0.12124578654766083 6.6061584220733494e-05 0.036726467311382294
0.19686272740364075 0 0.04190579429268837
0.27121150493621826 0 0.043471377342939377
0.34468895196914673 0 0.043407965451478958
0.41764277219772339 0 0.044095642864704132
0.49014130234718323 0 0.047958359122276306
0.56207060813903809 0 0.05288073793053627
0.63343662023544312 0.00036716836621053517 0.055009521543979645
0.70483088493347168 0.0056795305572450161 0.05302143469452858
0.77627885341644287 0.021125121042132378 0.050022769719362259
0 0.010170012712478638 0.024220574647188187
0.0071026370860636234 0.014418717473745346 0.024712836369872093
0.059498850256204605 0.016645019873976707 0.030995776876807213
0.13579303026199341 0.020943375304341316 0.037971362471580505
0.21168312430381775 0.024410083889961243 0.041081521660089493
0.28406915068626404 0.022773353382945061 0.042497389018535614
0.35596057772636414 0.020022748038172722 0.042439419776201248
0.4281596839427948 0.018524752929806709 0.041596326977014542
0.50041908025741577 0.018894989043474197 0.045724380761384964
0.57225662469863892 0.022229542955756187 0.053034644573926926
0.64353930950164795 0.032487053424119949 0.058567404747009277
0.71460330486297607 0.050134740769863129 0.059177353978157043
0.78606611490249634 0.071324214339256287 0.057640090584754944
0 0.0739731565117836 0.030797427520155907
0.007104148156940937 0.075459979474544525 0.029319584369659424
0.063387326896190643 0.074819616973400116 0.035327672958374023
0.14531140029430389 0.078971326351165771 0.039536762982606888
0.22199989855289459 0.084898866713047028 0.039872098714113235
0.29383575916290283 0.085833318531513214 0.043765049427747726
0.36525911092758179 0.084696479141712189 0.044962581247091293
0.43732807040214539 0.084273457527160645 0.041703198105096817
0.50964248180389404 0.08511054515838623 0.043189313262701035
0.581473708152771 0.088349044322967529 0.051946558058261871
0.65282350778579712 0.096277721226215363 0.060614850372076035
0.72406893968582153 0.11056201159954071 0.064298652112483978
0.79545331001281738 0.12888282537460327 0.065062656998634338
0.00015617819735780358 0.15866744518280029 0.040823634713888168
0.01564718596637249 0.15617801249027252 0.039425179362297058
0.071439139544963837 0.15393288433551788 0.043365329504013062
0.15034237504005432 0.15649852156639099 0.044072244316339493
0.2283329963684082 0.16049553453922272 0.043817304074764252
0.30142083764076233 0.16058813035488129 0.049658156931400299
0.37301275134086609 0.16053920984268188 0.052251391112804413
0.44522914290428162 0.16100302338600159 0.045992158353328705
0.51759415864944458 0.1628754734992981 0.043730657547712326
0.58961743116378784 0.16423240303993225 0.052717618644237518
0.66129225492477417 0.16851276159286499 0.062629595398902893
0.73289781808853149 0.17899565398693085 0.068153917789459229
0.80464261770248413 0.19363395869731903 0.070718042552471161
0.00096579157980158925 0.23773074150085449 0.055561874061822891
0.026007544249296188 0.23522159457206726 0.054356742650270462
0.081905707716941833 0.23382352292537689 0.05490315705537796
0.15685902535915375 0.23508249223232269 0.053650874644517899
0.23496833443641663 0.23774509131908417 0.053205467760562897
0.30935901403427124 0.23774509131908417 0.05717017874121666
0.38129866123199463 0.23774509131908417 0.060036499053239822
0.45292580127716064 0.24055837094783783 0.05699634924530983
0.5248342752456665 0.24166187644004822 0.055696286261081696
0.59714585542678833 0.2416795939207077 0.060696694999933243
0.66938060522079468 0.24494120478630066 0.067524001002311707
0.74129211902618408 0.25235572457313538 0.072103075683116913
0.81329512596130371 0.26365125179290771 0.075266622006893158
0.0014705882640555501 0.31324666738510132 0.067469559609889984
0.03310433030128479 0.31129559874534607 0.065587438642978668
0.090808466076850891 0.31102940440177917 0.064207516610622406
0.16374190151691437 0.31121173501014709 0.061659090220928192
0.24150891602039337 0.3141329288482666 0.059515785425901413
0.3174004852771759 0.31490519642829895 0.060477670282125473
0.3900989294052124 0.31525132060050964 0.064706899225711823
0.46130940318107605 0.31871137022972107 0.068173378705978394
0.53265225887298584 0.31887254118919373 0.070595487952232361
