assets/lut/alexjordan protect highlights 01.cube
# Created by: G'MIC (https://gmic.eu)
TITLE "protect_highlights_01"
# LUT size
LUT_3D_SIZE 5
# Data domain
DOMAIN_MIN 0.0 0.0 0.0
DOMAIN_MAX 1.0 1.0 1.0
# LUT data points
0.034901920706033707 0.034000352025032043 0.034666996449232101
0.28451648354530334 0.039043202996253967 0.043994124978780746
0.53685754537582397 0.049373026937246323 0.052566975355148315
0.79029107093811035 0.060273069888353348 0.060676738619804382
1 0.070553496479988098 0.066176474094390869
0.051811981946229935 0.29073324799537659 0.052116528153419495
0.29842859506607056 0.29456830024719238 0.05768859013915062
0.54257309436798096 0.29845771193504333 0.062200330197811127
0.78720903396606445 0.30290549993515015 0.062080368399620056
0.99971926212310791 0.30648750066757202 0.058537442237138748
0.058774687349796295 0.54136443138122559 0.056089200079441071
0.30116733908653259 0.54112130403518677 0.050725542008876801
0.52777707576751709 0.52638202905654907 0.046360015869140625
0.75437331199645996 0.51553952693939209 0.034282203763723373
0.96742856502532959 0.48887628316879272 0.019119711592793465
0.028343051671981812 0.74947428703308105 0.031489308923482895
0.23170536756515503 0.71904635429382324 0.024884602054953575
0.43508318066596985 0.67798060178756714 0.011102639138698578
0.6287805438041687 0.62582743167877197 0.013246738351881504
0.83205300569534302 0.58873355388641357 4.7392004489665851e-05
2.5850184101727791e-05 0.87443983554840088 0.0028867085929960012
0.10974143445491791 0.82652199268341064 0.011002618819475174
0.31815508008003235 0.80345451831817627 0
0.56490463018417358 0.80169618129730225 0.0067747677676379681
0.84701603651046753 0.84671986103057861 0.011813115328550339
0.035128485411405563 0.033575169742107391 0.27244341373443604
0.28290256857872009 0.038369916379451752 0.28062236309051514
0.53226888179779053 0.047068294137716293 0.28835946321487427
0.78219377994537354 0.056993834674358368 0.29524436593055725
1 0.069024346768856049 0.30059999227523804
0.052860740572214127 0.29315748810768127 0.29011151194572449
0.29828077554702759 0.29517224431037903 0.29544419050216675
0.54207861423492432 0.29774385690689087 0.2995147705078125
0.78241688013076782 0.29792317748069763 0.30029255151748657
0.99900656938552856 0.30332013964653015 0.29800829291343689
0.058038659393787384 0.54417383670806885 0.29502701759338379
0.29562735557556152 0.53374236822128296 0.2902737557888031
0.52699297666549683 0.52426451444625854 0.27881953120231628
0.74729633331298828 0.50696241855621338 0.26528289914131165
0.96064764261245728 0.47802689671516418 0.23280540108680725
0.03861255943775177 0.74085336923599243 0.24455238878726959
0.23321954905986786 0.70907735824584961 0.22024703025817871
0.42890062928199768 0.66986620426177979 0.17739883065223694
0.6283460259437561 0.62687361240386963 0.15346108376979828
0.83547317981719971 0.59333735704421997 0.094266973435878754
0.015374157577753067 0.85305619239807129 0.13563527166843414
0.14189141988754272 0.82061898708343506 0.11735304445028305
0.32217922806739807 0.79882639646530151 0.06911151111125946
0.5739206075668335 0.81147879362106323 0.11258918792009354
0.86324423551559448 0.86293256282806396 0.15261587500572205
0.038226842880249023 0.035539217293262482 0.5155479907989502
0.2858574390411377 0.042238723486661911 0.52453511953353882
0.53189080953598022 0.049409590661525726 0.53161382675170898
0.7760891318321228 0.057148054242134094 0.53506302833557129
0.99833911657333374 0.067897751927375793 0.53642177581787109
0.056992087513208389 0.29568922519683838 0.53270250558853149
0.30428370833396912 0.29997530579566956 0.54179906845092773
0.54516077041625977 0.3022741973400116 0.5460197925567627
0.77759230136871338 0.29779410362243652 0.54060190916061401
0.99708998203277588 0.29905438423156738 0.53410977125167847
0.055729765444993973 0.54148644208908081 0.5369257926940918
0.29211512207984924 0.53309053182601929 0.53498715162277222
0.51830250024795532 0.51925128698348999 0.51902920007705688
0.73657023906707764 0.49903407692909241 0.49687403440475464
0.94071716070175171 0.46075454354286194 0.45986658334732056
0.021420259028673172 0.7311515212059021 0.48977455496788025
0.20935125648975372 0.69231182336807251 0.45451715588569641
0.40251398086547852 0.64901155233383179 0.40492227673530579
0.60909324884414673 0.60805255174636841 0.36851251125335693
0.8217918872833252 0.580150306224823 0.34177371859550476
0.0069276848807930946 0.84332388639450073 0.35512098670005798
0.13139086961746216 0.80874073505401611 0.32682237029075623
0.31723648309707642 0.7924121618270874 0.30209106206893921
0.57656681537628174 0.81412220001220703 0.32956919074058533
0.87750530242919922 0.87731802463531494 0.39172852039337158
0.038827575743198395 0.036188416182994843 0.75880914926528931
0.28603103756904602 0.042822264134883881 0.76834416389465332
0.53116309642791748 0.05066540464758873 0.77447986602783203
0.77066755294799805 0.056901596486568451 0.77375584840774536
0.99504798650741577 0.06445050984621048 0.76935052871704102
0.055625572800636292 0.29269957542419434 0.77549070119857788
0.30522322654724121 0.30080872774124146 0.78657835721969604
0.54880905151367188 0.30384978652000427 0.79018223285675049
0.77975112199783325 0.29689890146255493 0.78192466497421265
0.99592787027359009 0.29678794741630554 0.772255539894104
0.055021055042743683 0.53813177347183228 0.76995962858200073
0.29200384020805359 0.53635025024414062 0.77355676889419556
0.51212072372436523 0.51512664556503296 0.7549704909324646
0.72812134027481079 0.4881892204284668 0.72799921035766602
0.93539994955062866 0.45517566800117493 0.69559299945831299
0.020832585170865059 0.7055477499961853 0.69924050569534302
0.19745293259620667 0.67683225870132446 0.67687892913818359
0.3799336850643158 0.63147908449172974 0.63237553834915161
0.59328365325927734 0.59511405229568481 0.59552401304244995
0.8265678882598877 0.58541202545166016 0.58773761987686157
0.0042290333658456802 0.82954299449920654 0.58701479434967041
0.13154378533363342 0.80181193351745605 0.56512373685836792
0.3179117739200592 0.79437339305877686 0.55466979742050171
0.58546930551528931 0.82753413915634155 0.58546406030654907
0.88020914793014526 0.88191664218902588 0.63877397775650024
0.038568146526813507 0.039139706641435623 0.99006730318069458
0.28296536207199097 0.043257888406515121 0.99388843774795532
0.52784126996994019 0.050399556756019592 0.99611133337020874
0.76521295309066772 0.055743318051099777 0.99461060762405396
0.98960369825363159 0.056746210902929306 0.98993581533432007
0.052085801959037781 0.29679539799690247 0.99610370397567749
0.29623958468437195 0.2962874174118042 0.99811220169067383
0.5439457893371582 0.30154144763946533 0.99926149845123291
0.7780647873878479 0.2965446412563324 0.99773579835891724
0.99462354183197021 0.28940007090568542 0.99397450685501099
0.051085095852613449 0.5373004674911499 0.99094164371490479
0.28497186303138733 0.52921724319458008 0.99291461706161499
0.50823366641998291 0.51040703058242798 0.98436874151229858
0.71814334392547607 0.47604814171791077 0.95797485113143921
0.93140548467636108 0.44516953825950623 0.93047595024108887
0.029144017025828362 0.68971896171569824 0.91821283102035522
0.20447587966918945 0.66676527261734009 0.90237319469451904
0.37286785244941711 0.61903965473175049 0.85947871208190918
0.58586090803146362 0.58332645893096924 0.82648956775665283
0.81600648164749146 0.57168799638748169 0.81564939022064209
0.020010540261864662 0.81981366872787476 0.81995493173599243
0.16221407055854797 0.80783379077911377 0.80972641706466675
0.34239065647125244 0.80924201011657715 0.81072330474853516
0.63011068105697632 0.87145447731018066 0.8717157244682312
0.92700421810150146 0.92675936222076416 0.92682284116744995
