assets/lut/alexjordan orange dark 04.cube
# Created by: G'MIC (https://gmic.eu)
TITLE "orange_dark_4"
# LUT size
LUT_3D_SIZE 13
# Data domain
DOMAIN_MIN 0.0 0.0 0.0
DOMAIN_MAX 1.0 1.0 1.0
# LUT data points
0.010663365013897419 0.0071007972583174706 0.0070288563147187233
0.015052017755806446 0.0081480136141180992 0.0082520730793476105
0.024419672787189484 0.0092977182939648628 0.012923865579068661
0.042585037648677826 0.010687076486647129 0.01899375207722187
0.067619338631629944 0.012874259613454342 0.024397442117333412
0.097829796373844147 0.015602410770952702 0.028166722506284714
0.13280284404754639 0.018872398883104324 0.031288895756006241
0.17290998995304108 0.022521104663610458 0.032448742538690567
0.21918877959251404 0.026335114613175392 0.031821306794881821
0.27424249053001404 0.028148859739303589 0.029865160584449768
0.33897414803504944 0.027399608865380287 0.028619714081287384
0.40800392627716064 0.024491807445883751 0.027883477509021759
0.47828364372253418 0.02297687903046608 0.027167031541466713
0.026561945676803589 0.029605984687805176 0.024641897529363632
0.036652673035860062 0.033748403191566467 0.0247371606528759
0.056738894432783127 0.037534825503826141 0.029592147096991539
0.088353820145130157 0.040291998535394669 0.035838738083839417
0.12793280184268951 0.042911931872367859 0.03885180875658989
0.17266164720058441 0.045067835599184036 0.039906863123178482
0.22076445817947388 0.047407232224941254 0.041062358766794205
0.27324816584587097 0.049577794969081879 0.041145835071802139
0.33260366320610046 0.052094448357820511 0.038042522966861725
0.40075474977493286 0.052650526165962219 0.033422477543354034
0.47741919755935669 0.050214342772960663 0.029397059231996536
0.55655163526535034 0.046632580459117889 0.02653421089053154
0.63283067941665649 0.044707696884870529 0.024229744449257851
0.037816859781742096 0.060781307518482208 0.040957402437925339
0.058226119726896286 0.067698128521442413 0.040156032890081406
0.089331731200218201 0.073913395404815674 0.042939502745866776
0.13331924378871918 0.077629655599594116 0.045922357589006424
0.18688592314720154 0.080056391656398773 0.044319048523902893
0.24528050422668457 0.081618182361125946 0.041362147778272629
0.30553743243217468 0.083081655204296112 0.039981856942176819
0.36910095810890198 0.084700264036655426 0.038867171853780746
0.43944272398948669 0.084866032004356384 0.034845657646656036
0.51863259077072144 0.084262683987617493 0.029137615114450455
0.60576164722442627 0.08030865341424942 0.023685993626713753
0.69526338577270508 0.075616545975208282 0.019479339942336082
0.77682489156723022 0.073451384902000427 0.016624286770820618
0.041524190455675125 0.10956937074661255 0.04969310387969017
0.074546188116073608 0.11643368750810623 0.04825916513800621
0.11840302497148514 0.12283552438020706 0.047419171780347824
0.17527402937412262 0.12642605602741241 0.044761955738067627
0.24143074452877045 0.1276971697807312 0.038297630846500397
0.3115328848361969 0.12817579507827759 0.031518388539552689
0.38122054934501648 0.12855248153209686 0.028100226074457169
0.45247018337249756 0.12928953766822815 0.026300393044948578
0.52983152866363525 0.12954644858837128 0.023190038278698921
0.6155504584312439 0.12751491367816925 0.018524857237935066
0.70977580547332764 0.12303035706281662 0.013530447147786617
0.80615538358688354 0.11721519380807877 0.0092673953622579575
0.89289098978042603 0.11435374617576599 0.0070159910246729851
0.034621309489011765 0.17565900087356567 0.048726100474596024
0.078820370137691498 0.18021704256534576 0.045574039220809937
0.1346585601568222 0.18498654663562775 0.040833462029695511
0.20442685484886169 0.18679095804691315 0.033594213426113129
0.28378665447235107 0.18595878779888153 0.023739024996757507
0.36509200930595398 0.18494527041912079 0.014627059921622276
0.44160261750221252 0.18489471077919006 0.010683126747608185
0.51722854375839233 0.18543905019760132 0.0097131766378879547
0.59725576639175415 0.18569381535053253 0.0084797125309705734
0.68504387140274048 0.18450652062892914 0.0060144909657537937
0.77985286712646484 0.18053275346755981 0.0028106539975851774
0.87735831737518311 0.17539344727993011 0.00078313489211723208
0.96448326110839844 0.17286558449268341 0.00030421835253946483
0.020927907899022102 0.25194653868675232 0.041381776332855225
0.07319825142621994 0.25468158721923828 0.035606518387794495
0.13889592885971069 0.25723475217819214 0.027794556692242622
0.22018396854400635 0.25641968846321106 0.018413648009300232
0.3107151985168457 0.25347942113876343 0.0081439148634672165
0.40059006214141846 0.25104838609695435 0.0017823462840169668
0.48342785239219666 0.2506776750087738 0.00041204714216291904
0.56237751245498657 0.25167325139045715 0.00029281916795298457
0.64297330379486084 0.25292453169822693 0.00020680147281382233
0.72867149114608765 0.25287282466888428 6.4475862018298358e-05
0.81973159313201904 0.25100794434547424 0
0.91279077529907227 0.24793539941310883 0
0.98926824331283569 0.24602335691452026 0
0.009415091946721077 0.33371731638908386 0.031904228031635284
0.064181610941886902 0.33508911728858948 0.023738697171211243
0.1389237642288208 0.33487805724143982 0.014716578647494316
0.22967883944511414 0.33160045742988586 0.0055178473703563213
0.32835295796394348 0.32704281806945801 0.0005858477670699358
0.4242551326751709 0.3236784040927887 0
0.51175838708877563 0.3231360912322998 0
0.59302526712417603 0.32476311922073364 0
0.67292571067810059 0.32721090316772461 0
0.75508534908294678 0.32920145988464355 0
0.84118348360061646 0.32968822121620178 0
0.92984992265701294 0.32833144068717957 0
0.99594360589981079 0.32705122232437134 0
0.003855028422549367 0.41865459084510803 0.023795273154973984
0.056446239352226257 0.4186159074306488 0.014236539602279663
0.1391187310218811 0.4158986508846283 0.0055670943111181259
0.23904396593570709 0.41007772088050842 0.00061181758064776659
0.34500300884246826 0.4037356972694397 0
0.44554373621940613 0.39965113997459412 0
0.53593337535858154 0.39932334423065186 0
0.61778801679611206 0.4016430675983429 0
0.6961662769317627 0.40543165802955627 0
0.77504432201385498 0.40922373533248901 0
0.85709625482559204 0.4115929901599884 4.6673943870700896e-05
0.94326090812683105 0.41103768348693848 0
0.99881356954574585 0.41002413630485535 0
0.0026714997366070747 0.50406652688980103 0.020097516477108002
0.055309727787971497 0.50305616855621338 0.0099263805896043777
0.14430084824562073 0.49837735295295715 0.0027806300204247236
0.253377765417099 0.48991358280181885 0.00029468911816366017
0.36607944965362549 0.48182737827301025 0
0.47005477547645569 0.47734135389328003 0
0.56119370460510254 0.47741979360580444 0
0.64277154207229614 0.4804631769657135 0
0.72024762630462646 0.48494982719421387 1.220703143189894e-05
0.79799783229827881 0.48934614658355713 0.00039952594670467079
0.87837111949920654 0.49238955974578857 0.0013346055056899786
0.96175086498260498 0.49279901385307312 0.00060285680228844285
1 0.4924875795841217 0.00056831509573385119
0.0068903905339539051 0.58804875612258911 0.022812472656369209
0.069618389010429382 0.58586210012435913 0.013262580148875713
0.16378530859947205 0.57962214946746826 0.0066551207564771175
0.27725696563720703 0.56983339786529541 0.0035378399770706892
0.39357984066009521 0.56077057123184204 0.0022620854433625937
0.49847903847694397 0.55648910999298096 0.0013190624304115772
0.58961588144302368 0.55709892511367798 0.00087779923342168331
0.67172163724899292 0.56051349639892578 0.0013742933515459299
0.74938738346099854 0.56507420539855957 0.0022586300037801266
0.82791435718536377 0.5693209171295166 0.0034413356333971024
0.90772241353988647 0.57210707664489746 0.0036155402194708586
0.982677161693573 0.57346433401107788 0.0033472995273768902
1 0.57476699352264404 0.0053553711622953415
0.021139886230230331 0.67078602313995361 0.032595884054899216
0.099219739437103271 0.66661673784255981 0.024015912786126137
0.19682002067565918 0.65953189134597778 0.018175985664129257
0.3085935115814209 0.65032082796096802 0.015248631127178669
0.42287340760231018 0.64216089248657227 0.014075051061809063
0.52756011486053467 0.63828259706497192 0.012819850817322731
0.62010288238525391 0.63880723714828491 0.012184890918433666
0.70445013046264648 0.6420409083366394 0.012759997509419918
0.78458422422409058 0.64616388082504272 0.013277660124003887
0.86377120018005371 0.65026187896728516 0.013647520914673805
0.9423823356628418 0.65310209989547729 0.012968220748007298
0.99691414833068848 0.65524172782897949 0.012966245412826538
1 0.65782195329666138 0.017901880666613579
0.047714818269014359 0.75308376550674438 0.04820067435503006
0.1342255026102066 0.7476189136505127 0.040194626897573471
0.23364099860191345 0.74054962396621704 0.034773599356412888
0.34228205680847168 0.73253875970840454 0.031795412302017212
0.45256170630455017 0.72582101821899414 0.031054612249135971
0.55632203817367554 0.72236466407775879 0.029748011380434036
0.65103721618652344 0.72255772352218628 0.030051391571760178
0.73832994699478149 0.72533077001571655 0.031597033143043518
0.82132679224014282 0.72931945323944092 0.031686641275882721
0.90169727802276611 0.73320901393890381 0.031826931983232498
0.97620481252670288 0.73639035224914551 0.031833544373512268
1 0.73929858207702637 0.032914061099290848
1 0.74248373508453369 0.038215413689613342
0.078891217708587646 0.83638679981231689 0.068101711571216583
0.16944685578346252 0.8304750919342041 0.060777239501476288
0.26929891109466553 0.82340961694717407 0.055400863289833069
0.37541863322257996 0.81645715236663818 0.051896560937166214
0.48230129480361938 0.81101995706558228 0.050989728420972824
0.58492559194564819 0.8080826997756958 0.050980392843484879
0.68073111772537231 0.80816870927810669 0.051208123564720154
0.77018940448760986 0.8104134202003479 0.051848527044057846
0.85506713390350342 0.81400936841964722 0.053140290081501007
0.93630737066268921 0.81804114580154419 0.054457973688840866
0.99527853727340698 0.82159876823425293 0.055858582258224487
1 0.82504081726074219 0.058349817991256714
1 0.82879185676574707 0.063608579337596893
0.0044861286878585815 0.004320196807384491 0.0038966459687799215
0.011609559878706932 0.0071233264170587063 0.0066151190549135208
0.025657519698143005 0.010111790150403976 0.0131175322458148
0.046848177909851074 0.013080552220344543 0.02100556343793869
0.072752900421619415 0.01601460762321949 0.027202516794204712
0.10347786545753479 0.018912535160779953 0.032205738127231598
0.13970451056957245 0.021904425695538521 0.035973358899354935
0.18167559802532196 0.024789817631244659 0.03859914094209671
0.23067803680896759 0.027509203180670738 0.038741946220397949
0.28843426704406738 0.027989974245429039 0.037805579602718353
0.35550609230995178 0.027145564556121826 0.036561615765094757
0.42846524715423584 0.023216471076011658 0.035533275455236435
0.50276058912277222 0.019728986546397209 0.034718621522188187
0.022018177434802055 0.02888558991253376 0.024452164769172668
0.03497740626335144 0.03497275710105896 0.027173090726137161
0.059141568839550018 0.040262859314680099 0.033810004591941833
0.094493404030799866 0.043763823807239532 0.040894616395235062
0.13537754118442535 0.04634341225028038 0.044783975929021835
0.1806846410036087 0.048522066324949265 0.04645824059844017
0.23029188811779022 0.050211139023303986 0.047887958586215973
0.28504446148872375 0.051868289709091187 0.048301082104444504
0.3467772901058197 0.05321933701634407 0.04607473686337471
0.41718855500221252 0.052366789430379868 0.04194965586066246
0.49616676568984985 0.048971977084875107 0.037780940532684326
0.5799412727355957 0.044099185615777969 0.034139610826969147
0.65950638055801392 0.040953394025564194 0.031868398189544678
0.037062685936689377 0.06400597095489502 0.046273697167634964
0.058944255113601685 0.071595288813114166 0.047480296343564987
0.093807637691497803 0.078328706324100494 0.051470004022121429
0.14168606698513031 0.081964887678623199 0.054846446961164474
0.19628891348838806 0.083953991532325745 0.053934119641780853
0.25485947728157043 0.085053354501724243 0.051308412104845047
0.31673189997673035 0.085608631372451782 0.049437265843153
0.3825359046459198 0.085926398634910583 0.047727294266223907
0.45483854413032532 0.085389018058776855 0.043817795813083649
0.53578728437423706 0.083925463259220123 0.037972662597894669
0.62510007619857788 0.079109251499176025 0.03190014511346817
0.71736431121826172 0.073345020413398743 0.026637760922312737
0.80103915929794312 0.070044904947280884 0.023670690134167671
0.043335214257240295 0.11394433677196503 0.059804446995258331
0.076960653066635132 0.12114295363426208 0.059812091290950775
0.12428557127714157 0.12769387662410736 0.060254879295825958
0.1848088800907135 0.13094530999660492 0.0585365891456604
0.25120538473129272 0.13170461356639862 0.051820222288370132
0.32092362642288208 0.13155689835548401 0.044775720685720444
0.39214712381362915 0.13150769472122192 0.04012380912899971
0.46545135974884033 0.13146063685417175 0.036960121244192123
0.54406726360321045 0.13098666071891785 0.032817121595144272
0.63078266382217407 0.12823979556560516 0.027182290330529213
0.72529387474060059 0.12334660440683365 0.020813766866922379
0.82170993089675903 0.11744984984397888 0.01552397757768631
0.90787667036056519 0.11488959938287735 0.013305634260177612
0.037275470793247223 0.17913486063480377 0.062394909560680389
0.081792689859867096 0.18484662473201752 0.059821348637342453
0.13976812362670898 0.19004786014556885 0.056045457720756531
0.21202798187732697 0.19163778424263 0.049300249665975571
0.29166147112846375 0.19035382568836212 0.03928292915225029
0.37249875068664551 0.1888018399477005 0.029795553535223007
0.45058545470237732 0.18832269310951233 0.023874111473560333
0.52776694297790527 0.18853019177913666 0.020780764520168304
0.60881149768829346 0.18843120336532593 0.017663588747382164
0.6961982250213623 0.18665564060211182 0.013306098058819771
0.7898939847946167 0.18298119306564331 0.0080433860421180725
0.88549435138702393 0.17844313383102417 0.0037855708505958319
0.97043806314468384 0.17590636014938354 0.0030261320061981678
0.023426879197359085 0.25509482622146606 0.056760542094707489
0.076055251061916351 0.25920507311820984 0.051196783781051636
0.14289414882659912 0.26218107342720032 0.043660525232553482
0.22588227689266205 0.261423259973526 0.033882454037666321
0.31757932901382446 0.25804406404495239 0.022886762395501137
0.40725541114807129 0.25538343191146851 0.013214784674346447
0.4907621443271637 0.25462442636489868 0.0076304269023239613
0.57023251056671143 0.25557154417037964 0.0052201063372194767
0.65103381872177124 0.25660961866378784 0.0042089875787496567
0.73588055372238159 0.25701057910919189 0.0024627086240798235
0.82502466440200806 0.25540459156036377 0.000502537761349231
0.91577649116516113 0.2530243992805481 9.0505564003251493e-06
0.99063372611999512 0.25108453631401062 1.0696111530705821e-05
0.011494775302708149 0.33695352077484131 0.04797840490937233
0.06779605895280838 0.33919501304626465 0.039669711142778397
0.14363443851470947 0.3395228385925293 0.030270610004663467
0.23580609261989594 0.33640250563621521 0.019747834652662277
0.33542284369468689 0.33156478404998779 0.0091804200783371925
0.43142744898796082 0.32810640335083008 0.0025989159476011992
0.51861441135406494 0.32759776711463928 0.00046837003901600838
0.59918904304504395 0.32957881689071655 0.00010597378422971815
0.67841768264770508 0.33205199241638184 6.3189341744873673e-05
0.75974804162979126 0.33441844582557678 2.1721334633184597e-05
0.8439515233039856 0.33542048931121826 0
0.93043798208236694 0.33462518453598022 0
0.99610447883605957 0.33289185166358948 1.2835334018745925e-05
0.0061250575818121433 0.42147582769393921 0.040180385112762451
0.062977537512779236 0.42198437452316284 0.030493328347802162
0.14666813611984253 0.41968891024589539 0.020762380212545395
0.24684813618659973 0.41431704163551331 0.011011160910129547
0.35314461588859558 0.40826261043548584 0.0031884436029940844
0.45334598422050476 0.40443938970565796 0.00028323003789409995
0.54253572225570679 0.40429690480232239 0
0.62340342998504639 0.40683650970458984 1.4810000720899552e-05
0.70110964775085449 0.41076266765594482 0.00030234843143261969
0.77958023548126221 0.41470223665237427 0.0015315336640924215
0.86052894592285156 0.41713890433311462 0.0025187025312334299
0.94484114646911621 0.41716170310974121 0.0014747619861736894
0.99895596504211426 0.4156564474105835 0.0018240386852994561
0.0060435575433075428 0.50611275434494019 0.036938101053237915
0.066425368189811707 0.50533556938171387 0.026747521013021469
0.15626238286495209 0.5009235143661499 0.018111344426870346
0.26302614808082581 0.4935050904750824 0.010441260412335396
0.37438181042671204 0.48619177937507629 0.0043068979866802692
0.4775547981262207 0.48199230432510376 0.0017410727450624108
0.56789118051528931 0.48227053880691528 0.0014052446931600571
0.64884239435195923 0.4856962263584137 0.002267306437715888
0.72571074962615967 0.49037820100784302 0.0046737222000956535
0.80320417881011963 0.49486652016639709 0.0084605496376752853
0.88306319713592529 0.49778568744659424 0.010747991502285004
0.96499139070510864 0.49835732579231262 0.0099134407937526703
1 0.49794682860374451 0.011151003651320934
0.01202754583209753 0.58999359607696533 0.040818937122821808
0.082232214510440826 0.58738768100738525 0.031165389344096184
0.17698824405670166 0.58157151937484741 0.023646978661417961
0.28725150227546692 0.57310217618942261 0.018277380615472794
0.40074425935745239 0.56528055667877197 0.014177015982568264
0.50498676300048828 0.56140398979187012 0.011986526660621166
0.59632754325866699 0.56203168630599976 0.012063254602253437
0.67820209264755249 0.56555110216140747 0.013523176312446594
0.75595247745513916 0.57036429643630981 0.016749169677495956
0.83383554220199585 0.57482606172561646 0.019525265321135521
0.91317594051361084 0.57778966426849365 0.020818447694182396
0.98569107055664062 0.57907485961914062 0.021427124738693237
1 0.5799369215965271 0.024442903697490692
0.028116323053836823 0.67230427265167236 0.052133508026599884
0.10977892577648163 0.66830486059188843 0.04318033903837204
0.20789739489555359 0.6616358757019043 0.03683147206902504
0.31846019625663757 0.65325886011123657 0.03246142715215683
0.43077877163887024 0.64612388610839844 0.030823202803730965
0.53495222330093384 0.6424986720085144 0.028504494577646255
0.62760055065155029 0.64325445890426636 0.029538413509726524
0.7115941047668457 0.64676231145858765 0.031924676150083542
0.79149562120437622 0.65116024017333984 0.033602993935346603
0.87021255493164062 0.65546280145645142 0.035414930433034897
0.94815957546234131 0.65848302841186523 0.035935960710048676
0.99817633628845215 0.66058558225631714 0.037323206663131714
1 0.66253626346588135 0.042252440005540848
0.054880596697330475 0.7546384334564209 0.069436781108379364
0.14306281507015228 0.74938374757766724 0.061390221118927002
0.24346913397312164 0.74253123998641968 0.055403001606464386
0.35239449143409729 0.7348785400390625 0.051745768636465073
0.46247810125350952 0.72863829135894775 0.050142865628004074
0.56594234704971313 0.72556513547897339 0.049708332866430283
0.66003549098968506 0.72626471519470215 0.051044974476099014
0.74655711650848389 0.72949892282485962 0.052947878837585449
0.82866692543029785 0.73370981216430664 0.054886985570192337
0.90836179256439209 0.73778921365737915 0.056363902986049652
0.98075228929519653 0.7411501407623291 0.057447828352451324
1 0.74385011196136475 0.059802547097206116
1 0.74673366546630859 0.064961150288581848
0.085310347378253937 0.83768022060394287 0.091453060507774353
0.17740356922149658 0.83165657520294189 0.083838097751140594
0.2787245512008667 0.82497531175613403 0.078098520636558533
0.38601002097129822 0.81824511289596558 0.074459433555603027
0.49382111430168152 0.81294584274291992 0.072913467884063721
0.59629970788955688 0.81040817499160767 0.072982698678970337
0.69143247604370117 0.81096172332763672 0.074449606239795685
0.77997928857803345 0.81389939785003662 0.076902695000171661
0.86351442337036133 0.81786537170410156 0.079277873039245605
0.94320237636566162 0.82186388969421387 0.081466898322105408
0.99704378843307495 0.82555913925170898 0.083482123911380768
1 0.82890766859054565 0.086571559309959412
1 0.83232849836349487 0.092103756964206696
0.0017735649598762393 0.0031387628987431526 0.003339430782943964
0.010819154791533947 0.0071389889344573021 0.0077687283046543598
0.028668422251939774 0.011701381765305996 0.01546033937484026
0.052015312016010284 0.016153072938323021 0.023798385635018349
0.077966578304767609 0.019870234653353691 0.030381370335817337
0.10907264798879623 0.022996401414275169 0.035800110548734665
0.14744792878627777 0.025419991463422775 0.041047625243663788
0.19234111905097961 0.027631811797618866 0.045299932360649109
0.24344365298748016 0.029164062812924385 0.047094084322452545
0.3025173544883728 0.029665315523743629 0.047293763607740402
0.37094435095787048 0.027436289936304092 0.046333957463502884
0.44661650061607361 0.023293379694223404 0.045221038162708282
0.52342420816421509 0.019562305882573128 0.044629145413637161
0.02047068253159523 0.029736941680312157 0.02823423407971859
0.037677735090255737 0.03757699579000473 0.033885087817907333
0.064654514193534851 0.044124335050582886 0.041261248290538788
0.10113497078418732 0.048083420842885971 0.047686528414487839
0.14247401058673859 0.050692614167928696 0.05178770050406456
0.18857660889625549 0.052702542394399643 0.054125241935253143
0.24043387174606323 0.05380064994096756 0.056413881480693817
0.29806208610534668 0.054318223148584366 0.057650726288557053
0.36164712905883789 0.054252069443464279 0.05674406886100769
0.43319380283355713 0.052908655256032944 0.053414572030305862
0.51372826099395752 0.049120418727397919 0.049051292240619659
0.60026282072067261 0.043266728520393372 0.045049272477626801
0.68234241008758545 0.039526712149381638 0.042580772191286087
0.039513081312179565 0.068470925092697144 0.055240150541067123
0.062346499413251877 0.077299050986766815 0.058647513389587402
0.099443726241588593 0.083844847977161407 0.062987968325614929
0.14908020198345184 0.087159670889377594 0.06595342606306076
0.20486237108707428 0.088519856333732605 0.065435849130153656
0.26443749666213989 0.089072927832603455 0.063401691615581512
0.32833161950111389 0.089057028293609619 0.062348250299692154
0.39660185575485229 0.088785506784915924 0.06045880913734436
0.47036713361740112 0.08805510401725769 0.057112287729978561
0.5514836311340332 0.084772653877735138 0.051419217139482498
0.64113408327102661 0.079669669270515442 0.044476766139268875
0.73561388254165649 0.073140449821949005 0.038280114531517029
0.82204461097717285 0.069239810109138489 0.034906394779682159
0.046828713268041611 0.11988742649555206 0.072860494256019592
0.080606065690517426 0.12768949568271637 0.074315838515758514
0.12918773293495178 0.13364489376544952 0.075302526354789734
0.19121155142784119 0.13614805042743683 0.073334939777851105
0.25913199782371521 0.13621982932090759 0.067673943936824799
0.32994130253791809 0.1357242614030838 0.06134549155831337
0.40284225344657898 0.13501793146133423 0.056664798408746719
0.47824302315711975 0.13422144949436188 0.052855949848890305
0.55780434608459473 0.13273027539253235 0.048044614493846893
0.64375162124633789 0.1302533894777298 0.041520990431308746
0.73667162656784058 0.12540975213050842 0.03385436162352562
0.83206796646118164 0.11977202445268631 0.027423350140452385
0.91803252696990967 0.11680369824171066 0.025016365572810173
0.040063627064228058 0.18498586118221283 0.077899888157844543
0.085049331188201904 0.19120576977729797 0.077214904129505157
0.1445453017950058 0.19564256072044373 0.074044123291969299
0.21863090991973877 0.19653595983982086 0.067659623920917511
0.29897990822792053 0.19493371248245239 0.058541137725114822
0.37982705235481262 0.19322767853736877 0.049306832253932953
0.45912128686904907 0.19223178923130035 0.042484823614358902
0.53785806894302368 0.19197431206703186 0.037674367427825928
0.61931759119033813 0.19138343632221222 0.033051375299692154
0.70536047220230103 0.18996907770633698 0.027204865589737892
