assets/lut/alexjordan only red and blue.cube
# Created by: G'MIC (https://gmic.eu)
TITLE "only_red_and_blue"
# LUT size
LUT_3D_SIZE 13
# Data domain
DOMAIN_MIN 0.0 0.0 0.0
DOMAIN_MAX 1.0 1.0 1.0
# LUT data points
0.027541859075427055 0.034157097339630127 0.032485019415616989
0.098193101584911346 0.037205491214990616 0.024194531142711639
0.17575421929359436 0.037667322903871536 0.030284477397799492
0.25188940763473511 0.038286756724119186 0.039101351052522659
0.32921972870826721 0.038257971405982971 0.040644552558660507
0.41030022501945496 0.036450032144784927 0.038582146167755127
0.49404656887054443 0.034997813403606415 0.034839000552892685
0.58317244052886963 0.032532963901758194 0.030961789190769196
0.67508053779602051 0.029489465057849884 0.029587719589471817
0.74826139211654663 0.031101631000638008 0.029283950105309486
0.80873262882232666 0.036276515573263168 0.028498077765107155
0.86885398626327515 0.040784604847431183 0.026472413912415504
0.92991310358047485 0.044179324060678482 0.022443121299147606
0.08273296058177948 0.092117160558700562 0.073438622057437897
0.12454254925251007 0.10869868844747543 0.055698603391647339
0.19840073585510254 0.11177969723939896 0.038507454097270966
0.27331674098968506 0.11427406221628189 0.032495446503162384
0.35675612092018127 0.1130097359418869 0.031846288591623306
0.44053143262863159 0.11063674092292786 0.034524537622928619
0.51821380853652954 0.11059966683387756 0.03437601774930954
0.6029471755027771 0.10890571773052216 0.032135803252458572
0.69336694478988647 0.10558813065290451 0.033490169793367386
0.77110534906387329 0.10619355738162994 0.034547962248325348
0.83639925718307495 0.1103697270154953 0.033516019582748413
0.90047216415405273 0.11463012546300888 0.031470056623220444
0.96781784296035767 0.11637265235185623 0.028336258605122566
0.14859975874423981 0.14610134065151215 0.14903314411640167
0.16313505172729492 0.16827380657196045 0.13789065182209015
0.19936808943748474 0.1878143846988678 0.073693789541721344
0.27128314971923828 0.1952165961265564 0.033605761826038361
0.3562469482421875 0.1950615793466568 0.022471364587545395
0.43936541676521301 0.19307184219360352 0.028008883818984032
0.51631474494934082 0.19283528625965118 0.031308852136135101
0.59710526466369629 0.19225621223449707 0.031093791127204895
0.6829063892364502 0.1900685727596283 0.03223501518368721
0.7662004828453064 0.1892593652009964 0.033466938883066177
0.83899706602096558 0.19164885580539703 0.033099830150604248
0.91009867191314697 0.19436764717102051 0.03133658692240715
0.98288744688034058 0.19328442215919495 0.029288856312632561
0.20324800908565521 0.2046230137348175 0.20487955212593079
0.21716637909412384 0.22371453046798706 0.21639002859592438
0.23588038980960846 0.24604952335357666 0.16789934039115906
0.27630579471588135 0.26814061403274536 0.077730186283588409
0.34725132584571838 0.27563434839248657 0.0304451584815979
0.42918941378593445 0.2749599814414978 0.029624130576848984
0.50839555263519287 0.27566283941268921 0.033203348517417908
0.58791071176528931 0.27589371800422668 0.031503923237323761
0.66985565423965454 0.27511325478553772 0.030029207468032837
0.75582700967788696 0.27319738268852234 0.031087180599570274
0.83579206466674805 0.27371323108673096 0.031885422766208649
0.91419500112533569 0.27426409721374512 0.031413491815328598
0.98829227685928345 0.27281564474105835 0.029724391177296638
0.26050281524658203 0.26163691282272339 0.2600727379322052
0.27611401677131653 0.27815639972686768 0.28599196672439575
0.28880873322486877 0.29940381646156311 0.26213359832763672
0.3053184449672699 0.32945740222930908 0.16255579888820648
0.35158362984657288 0.34815099835395813 0.080724366009235382
0.42484265565872192 0.35334742069244385 0.053744103759527206
0.50496059656143188 0.35538783669471741 0.044523410499095917
0.58663821220397949 0.35539215803146362 0.034497637301683426
0.66859632730484009 0.355367511510849 0.027405891567468643
0.75253927707672119 0.35509026050567627 0.02812977135181427
0.83585101366043091 0.35499769449234009 0.031287863850593567
0.9189751148223877 0.3542448878288269 0.031870778650045395
0.99130022525787354 0.3516947329044342 0.029865115880966187
0.31832724809646606 0.31993183493614197 0.31959336996078491
0.33515191078186035 0.33520498871803284 0.34690219163894653
0.34793728590011597 0.35532131791114807 0.33994895219802856
0.35527613759040833 0.38309666514396667 0.27362725138664246
0.37863039970397949 0.40895169973373413 0.18494579195976257
0.43122017383575439 0.42502942681312561 0.11512918025255203
0.50469702482223511 0.4321233332157135 0.071077607572078705
0.58681619167327881 0.43471148610115051 0.040718093514442444
0.67036992311477661 0.43489858508110046 0.025024563074111938
0.75304746627807617 0.4350380003452301 0.024748170748353004
0.83664083480834961 0.43433478474617004 0.029338806867599487
0.92109459638595581 0.4329829216003418 0.030615100637078285
0.99212777614593506 0.43187129497528076 0.02842438593506813
0.37777301669120789 0.37720111012458801 0.37783339619636536
0.39346486330032349 0.39356058835983276 0.40203016996383667
0.40717002749443054 0.41206467151641846 0.40893939137458801
0.41279950737953186 0.43589481711387634 0.38002842664718628
0.42318001389503479 0.46354568004608154 0.30803626775741577
0.45737347006797791 0.48768240213394165 0.2110741138458252
0.51359617710113525 0.5040397047996521 0.12432534992694855
0.58785557746887207 0.51167780160903931 0.062330193817615509
0.66986334323883057 0.51391714811325073 0.030131157487630844
0.7518770694732666 0.51465475559234619 0.024203460663557053
0.83566975593566895 0.51409912109375 0.027032680809497833
0.92037910223007202 0.51355797052383423 0.028088632971048355
0.99175733327865601 0.51191407442092896 0.026043146848678589
0.43465045094490051 0.43548935651779175 0.43311938643455505
0.45031231641769409 0.4517001211643219 0.45568135380744934
0.46452134847640991 0.46807897090911865 0.4717252254486084
0.47336569428443909 0.48900693655014038 0.4667988121509552
0.48171529173851013 0.51540660858154297 0.41786846518516541
0.500038743019104 0.54431301355361938 0.31875717639923096
0.53604203462600708 0.56966036558151245 0.2044781893491745
0.59300881624221802 0.58616906404495239 0.11107785254716873
0.6658778190612793 0.59373384714126587 0.054929338395595551
0.74666440486907959 0.595755934715271 0.033916711807250977
0.83178186416625977 0.59502863883972168 0.030662791803479195
0.91692513227462769 0.59379452466964722 0.028959700837731361
0.99023860692977905 0.59218364953994751 0.025288106873631477
0.49085879325866699 0.49378159642219543 0.4888913631439209
0.50743287801742554 0.5095706582069397 0.51038724184036255
0.52358090877532959 0.52499687671661377 0.53060722351074219
0.53635925054550171 0.54288065433502197 0.53816300630569458
0.54346668720245361 0.5675814151763916 0.50761842727661133
0.5519600510597229 0.59788012504577637 0.4243641197681427
0.57109230756759644 0.62916171550750732 0.30646020174026489
0.60847073793411255 0.65480870008468628 0.18834188580513
0.66649359464645386 0.67041659355163574 0.10345645993947983
0.74070906639099121 0.67593890428543091 0.062950804829597473
0.82431787252426147 0.67574769258499146 0.047167595475912094
0.9101291298866272 0.67436784505844116 0.037706725299358368
0.9870603084564209 0.6724092960357666 0.029340362176299095
0.54811042547225952 0.55153745412826538 0.54663336277008057
0.56611007452011108 0.56698465347290039 0.56720292568206787
0.58290219306945801 0.58254349231719971 0.58787065744400024
0.59570783376693726 0.5996706485748291 0.60113304853439331
0.60294127464294434 0.62137836217880249 0.58903831243515015
0.60714077949523926 0.64995545148849487 0.53010839223861694
0.61621993780136108 0.68371212482452393 0.42445674538612366
0.63707542419433594 0.71603769063949585 0.29664123058319092
0.67772269248962402 0.73995977640151978 0.18589663505554199
0.74032491445541382 0.75088495016098022 0.12145324051380157
0.81791943311691284 0.75318038463592529 0.085132434964179993
0.90270411968231201 0.75318628549575806 0.061825934797525406
0.98311203718185425 0.75277519226074219 0.045322928577661514
0.60660308599472046 0.60910773277282715 0.60593783855438232
0.62527298927307129 0.6249699592590332 0.6242644190788269
0.64137482643127441 0.64074695110321045 0.64317959547042847
0.6540839672088623 0.65713644027709961 0.66129392385482788
0.66191351413726807 0.67622697353363037 0.66473847627639771
0.66604113578796387 0.70230698585510254 0.6310650110244751
0.66987788677215576 0.73519015312194824 0.54811209440231323
0.67959147691726685 0.77031201124191284 0.42946401238441467
0.70480364561080933 0.79957067966461182 0.30763143301010132
0.7519652247428894 0.81868553161621094 0.21368274092674255
0.81928771734237671 0.82772648334503174 0.14944653213024139
0.89937484264373779 0.8301810622215271 0.10684116184711456
0.98063218593597412 0.83036726713180542 0.077616237103939056
0.66512984037399292 0.66654127836227417 0.66459870338439941
0.68412768840789795 0.68278217315673828 0.6814340353012085
0.69979393482208252 0.69910025596618652 0.69872486591339111
0.71281063556671143 0.71503597497940063 0.71859318017959595
0.72275030612945557 0.73326700925827026 0.73111754655838013
0.72859114408493042 0.75578093528747559 0.71763575077056885
0.73077666759490967 0.78610187768936157 0.66063177585601807
0.73252439498901367 0.82160782814025879 0.5577818751335144
0.74400699138641357 0.85519719123840332 0.43470141291618347
0.77570486068725586 0.88067501783370972 0.32195279002189636
0.83173805475234985 0.89565032720565796 0.23430927097797394
0.90523254871368408 0.90238076448440552 0.1718401312828064
0.98195689916610718 0.90500098466873169 0.12810160219669342
0.72231411933898926 0.72417014837265015 0.72216975688934326
0.74188762903213501 0.74013757705688477 0.73882228136062622
0.75777709484100342 0.75675439834594727 0.75652951002120972
0.77162867784500122 0.77307182550430298 0.775299072265625
0.78302150964736938 0.79098433256149292 0.79057776927947998
0.791026771068573 0.81143563985824585 0.7894904613494873
0.79344683885574341 0.83891391754150391 0.75125181674957275
0.79060697555541992 0.8736807107925415 0.66242116689682007
0.79288661479949951 0.90941286087036133 0.54574549198150635
0.81280702352523804 0.93912780284881592 0.42812395095825195
0.85888928174972534 0.9583403468132019 0.32903274893760681
0.92388004064559937 0.96937376260757446 0.25179436802864075
0.98933881521224976 0.97479236125946045 0.19372698664665222
0.025919491425156593 0.034889325499534607 0.11621329933404922
0.073023989796638489 0.046801965683698654 0.077029190957546234
0.11306703090667725 0.061321482062339783 0.064547717571258545
0.18229566514492035 0.06297033280134201 0.089040510356426239
0.26253566145896912 0.060337726026773453 0.10378293693065643
0.3552151620388031 0.053588688373565674 0.11104536056518555
0.44738250970840454 0.049274876713752747 0.11316796392202377
0.54009467363357544 0.046784523874521255 0.11063431203365326
0.63350337743759155 0.04348938912153244 0.11031081527471542
0.71122294664382935 0.044337566941976547 0.1102578267455101
0.77893251180648804 0.047604907304048538 0.11027797311544418
0.84651517868041992 0.05020567774772644 0.10933128744363785
0.91315388679504395 0.052595354616641998 0.1059090867638588
0.052496351301670074 0.10618468374013901 0.1176416426897049
0.11254116892814636 0.11244899034500122 0.11406151205301285
0.17821098864078522 0.11867732554674149 0.099288448691368103
0.24739336967468262 0.12307719886302948 0.10360705852508545
0.32629081606864929 0.12239548563957214 0.11069699376821518
0.41374662518501282 0.1175004243850708 0.11765170842409134
0.49718818068504333 0.11562374234199524 0.11975664645433426
0.58806383609771729 0.11321952939033508 0.11794108897447586
0.68161684274673462 0.10952013731002808 0.12005133181810379
0.76086801290512085 0.10998620092868805 0.12077493220567703
0.82886695861816406 0.11373838782310486 0.11918625235557556
0.89688706398010254 0.11729741096496582 0.11681894212961197
0.96695959568023682 0.11868948489427567 0.11347412317991257
0.13042677938938141 0.15827281773090363 0.15316127240657806
0.1653335839509964 0.17010723054409027 0.16558143496513367
0.19980500638484955 0.1887994110584259 0.13012146949768066
0.27186977863311768 0.19634152948856354 0.10583135485649109
0.35537323355674744 0.19519166648387909 0.10527358949184418
0.43505692481994629 0.19301296770572662 0.11206789314746857
0.51487588882446289 0.19285117089748383 0.11523716896772385
0.60401129722595215 0.18990598618984222 0.11589685827493668
0.69290614128112793 0.18692837655544281 0.11856867372989655
0.77503615617752075 0.18638522922992706 0.12045090645551682
0.84669417142868042 0.18964223563671112 0.1193360835313797
0.91739124059677124 0.19300436973571777 0.11631966382265091
0.9882698655128479 0.19264361262321472 0.11442585289478302
0.20715557038784027 0.2111213356256485 0.20350603759288788
0.22924298048019409 0.22601832449436188 0.22561594843864441
0.24174167215824127 0.2480347603559494 0.21330571174621582
0.27895760536193848 0.2695213258266449 0.14102491736412048
0.35349816083908081 0.27412420511245728 0.10860756039619446
0.43347269296646118 0.27404424548149109 0.10702875256538391
0.51604205369949341 0.27335295081138611 0.11092697083950043
0.60330617427825928 0.27120727300643921 0.1123625636100769
0.68665987253189087 0.26990553736686707 0.11285272985696793
0.76966679096221924 0.26890391111373901 0.11538536101579666
0.84724652767181396 0.27068653702735901 0.11652359366416931
0.9254642128944397 0.27216702699661255 0.11552988737821579
0.99374449253082275 0.2701701819896698 0.1148228645324707
0.27253338694572449 0.2657720148563385 0.26321855187416077
0.28657957911491394 0.2815086841583252 0.28944012522697449
0.29701042175292969 0.30067968368530273 0.29804009199142456
0.31407865881919861 0.32661283016204834 0.23704139888286591
0.35694682598114014 0.34594002366065979 0.15709017217159271
0.42823523283004761 0.35328885912895203 0.11769783496856689
0.51311290264129639 0.35445308685302734 0.11157742887735367
0.59836393594741821 0.35353758931159973 0.10826998203992844
0.67947304248809814 0.35296636819839478 0.10558338463306427
0.76059919595718384 0.35265922546386719 0.1084197536110878
0.84286165237426758 0.35268938541412354 0.11289048939943314
0.92781311273574829 0.35177326202392578 0.11462565511465073
0.99529880285263062 0.34992310404777527 0.11403352022171021
0.3278731107711792 0.32491797208786011 0.3229682445526123
0.34176594018936157 0.34019190073013306 0.35115489363670349
0.35657218098640442 0.35682740807533264 0.36842447519302368
0.36821264028549194 0.3797048032283783 0.33767527341842651
0.38465496897697449 0.40799066424369812 0.24708963930606842
0.4300139844417572 0.42819789052009583 0.16187500953674316
0.50483661890029907 0.43513566255569458 0.12488656491041183
0.58899354934692383 0.43567377328872681 0.10610981285572052
0.67204153537750244 0.43506643176078796 0.099137984216213226
0.7540442943572998 0.43480893969535828 0.10237890481948853
0.83821237087249756 0.43429765105247498 0.10861683636903763
0.92534524202346802 0.43274033069610596 0.1118079274892807
0.99459671974182129 0.43093201518058777 0.11079914122819901
0.38620871305465698 0.38287857174873352 0.38036257028579712
0.39887189865112305 0.39902660250663757 0.4058111310005188
0.41630339622497559 0.41469809412956238 0.42488500475883484
0.4279334545135498 0.4348595142364502 0.41859963536262512
0.43548911809921265 0.46290212869644165 0.35943007469177246
0.45805820822715759 0.49028649926185608 0.25990843772888184
0.50866949558258057 0.50855153799057007 0.17313915491104126
0.58245235681533813 0.51550287008285522 0.12166132032871246
0.66649347543716431 0.51579207181930542 0.102789007127285
0.75122380256652832 0.51455378532409668 0.1022508516907692
0.83720505237579346 0.51376724243164062 0.10708387941122055
0.9230349063873291 0.51355797052383423 0.10907407104969025
0.99331343173980713 0.51191407442092896 0.10638276487588882
0.4416620135307312 0.44113591313362122 0.43646329641342163
0.45568972826004028 0.45710304379463196 0.45856219530105591
0.47294431924819946 0.47272846102714539 0.47860565781593323
0.48754847049713135 0.49124398827552795 0.49009665846824646
0.49662685394287109 0.51543694734573364 0.46663054823875427
0.50589513778686523 0.54569756984710693 0.37370592355728149
0.53226155042648315 0.57397353649139404 0.25585129857063293
0.58729034662246704 0.59029638767242432 0.1697976291179657
0.66320472955703735 0.59484958648681641 0.12678112089633942
0.74793404340744019 0.59508329629898071 0.11320029199123383
0.8354029655456543 0.59380155801773071 0.11236006766557693
0.92099875211715698 0.59296190738677979 0.10914007574319839
0.99208050966262817 0.59211289882659912 0.1031835675239563
0.49579510092735291 0.49982795119285583 0.49259409308433533
0.51224339008331299 0.5147894024848938 0.51298272609710693
0.53060156106948853 0.53086388111114502 0.53379517793655396
0.5461154580116272 0.54956865310668945 0.55207890272140503
0.55600982904434204 0.57038366794586182 0.54511862993240356
0.56124210357666016 0.59856760501861572 0.4785064160823822
0.57412093877792358 0.63069456815719604 0.36865833401679993
0.60827356576919556 0.65615320205688477 0.25986537337303162
0.66695231199264526 0.66999328136444092 0.18242931365966797
0.74320673942565918 0.67513656616210938 0.14249213039875031
0.82856577634811401 0.67457562685012817 0.12552417814731598
0.91477197408676147 0.67366170883178711 0.11387073248624802
0.98985058069229126 0.67241889238357544 0.10387447476387024
0.55207037925720215 0.55800366401672363 0.55127722024917603
0.57106000185012817 0.57282042503356934 0.57111722230911255
0.5894629955291748 0.58902513980865479 0.5906299352645874
0.60507076978683472 0.60646134614944458 0.61014151573181152
0.61579602956771851 0.62449544668197632 0.61532235145568848
0.62092381715774536 0.6497989296913147 0.57827740907669067
0.62584316730499268 0.68228906393051147 0.49418318271636963
0.64332121610641479 0.71419143676757812 0.38187363743782043
0.68238741159439087 0.73750513792037964 0.27520307898521423
0.74358254671096802 0.74997740983963013 0.20098842680454254
0.82072407007217407 0.75328296422958374 0.15658853948116302
0.90639734268188477 0.75356048345565796 0.13017140328884125
0.9860384464263916 0.75304627418518066 0.11352233588695526
0.60991400480270386 0.6163794994354248 0.61063069105148315
0.62971460819244385 0.63118314743041992 0.62937247753143311
0.64906430244445801 0.64659541845321655 0.64934247732162476
0.66442704200744629 0.66225552558898926 0.67059850692749023
0.67612677812576294 0.67889207601547241 0.68366801738739014
0.68177539110183716 0.70158493518829346 0.66924583911895752
0.68296647071838379 0.73291695117950439 0.61406546831130981
0.68950217962265015 0.76718777418136597 0.51482689380645752
0.71192640066146851 0.79713791608810425 0.39433497190475464
0.75588810443878174 0.81786501407623291 0.28922155499458313
0.82087165117263794 0.82864874601364136 0.2142927348613739
0.90165013074874878 0.83175891637802124 0.16741707921028137
0.982765793800354 0.83086985349655151 0.13874739408493042
0.66791671514511108 0.67385780811309814 0.67058300971984863
0.68837070465087891 0.68921613693237305 0.6881299614906311
0.70709717273712158 0.70464587211608887 0.70664143562316895
0.72277486324310303 0.71976220607757568 0.72780126333236694
0.73539584875106812 0.73584520816802979 0.74444073438644409
0.74307334423065186 0.75682574510574341 0.74480354785919189
0.74500888586044312 0.7847905158996582 0.71225190162658691
0.74576687812805176 0.81844353675842285 0.63149303197860718
0.7549593448638916 0.85227024555206299 0.51445627212524414
0.78275567293167114 0.87986600399017334 0.39403292536735535
0.83455789089202881 0.89700275659561157 0.29586759209632874
0.90623027086257935 0.9051891565322876 0.22837275266647339
0.98265749216079712 0.90775007009506226 0.18458010256290436
0.72634279727935791 0.73098993301391602 0.72883927822113037
0.74700033664703369 0.74666881561279297 0.74648141860961914
0.76453506946563721 0.76259571313858032 0.76393938064575195
0.78058981895446777 0.7780643105506897 0.78352159261703491
0.79452383518218994 0.79427552223205566 0.80030703544616699
0.80449634790420532 0.81380921602249146 0.80753892660140991
0.80847901105880737 0.83892440795898438 0.78935593366622925
0.80678057670593262 0.87096762657165527 0.72460091114044189
0.80787605047225952 0.9058418869972229 0.61970824003219604
0.82437425851821899 0.93668949604034424 0.50023555755615234
0.86462831497192383 0.95843303203582764 0.39187386631965637
0.92553573846817017 0.97219640016555786 0.30850255489349365
0.98945766687393188 0.97792536020278931 0.24827654659748077
0.033014498651027679 0.031495772302150726 0.20003648102283478
0.11011865735054016 0.032363321632146835 0.18662542104721069
0.096219904720783234 0.069185204803943634 0.10432726144790649
0.10640037059783936 0.09276745468378067 0.093539834022521973
0.16548822820186615 0.095396064221858978 0.12068471312522888
0.2555185854434967 0.087741389870643616 0.14784438908100128
0.35558375716209412 0.080054417252540588 0.16590818762779236
0.45348283648490906 0.075591966509819031 0.17369133234024048
0.54548782110214233 0.07243085652589798 0.17759539186954498
0.63278830051422119 0.070183709263801575 0.17945264279842377
0.71781980991363525 0.06820552796125412 0.18304535746574402
0.8007696270942688 0.066221363842487335 0.18773818016052246
0.87726825475692749 0.06528434157371521 0.18839766085147858
0.032585877925157547 0.11271627247333527 0.19402237236499786
0.1137305349111557 0.11124759912490845 0.19600307941436768
0.14943242073059082 0.12923473119735718 0.15108904242515564
0.18422110378742218 0.14593249559402466 0.13504832983016968
0.25322681665420532 0.14602662622928619 0.16107168793678284
0.3418121337890625 0.14002978801727295 0.18233518302440643
0.44190949201583862 0.13279062509536743 0.19381368160247803
0.54851663112640381 0.125462606549263 0.19997216761112213
0.63960951566696167 0.12215510010719299 0.20082959532737732
0.72308862209320068 0.12105163931846619 0.20037996768951416
0.80238819122314453 0.12183387577533722 0.20027104020118713
0.88040411472320557 0.12258575856685638 0.19962695240974426
0.95612937211990356 0.12339715659618378 0.19755330681800842
0.060429845005273819 0.18536125123500824 0.18988813459873199
0.13126857578754425 0.18735781311988831 0.19806139171123505
0.19237032532691956 0.19171494245529175 0.19452682137489319
0.25559040904045105 0.2005680650472641 0.18123136460781097
0.33648642897605896 0.19945621490478516 0.19467318058013916
0.41335636377334595 0.19911497831344604 0.19885386526584625
0.50046509504318237 0.19649200141429901 0.19955989718437195
0.60154002904891968 0.19030137360095978 0.20077058672904968
0.69133192300796509 0.1870809942483902 0.20395810902118683
0.77408015727996826 0.18621528148651123 0.20653361082077026
0.85090237855911255 0.18714520335197449 0.20592567324638367
0.92693287134170532 0.18953837454319 0.20337550342082977
0.99256759881973267 0.19031530618667603 0.20027998089790344
0.15255565941333771 0.23430870473384857 0.21715909242630005
0.20828031003475189 0.2399655282497406 0.23026788234710693
0.24755005538463593 0.25031206011772156 0.24720025062561035
0.28382107615470886 0.26916965842247009 0.21397851407527924
0.36137282848358154 0.27224528789520264 0.19497954845428467
0.44490033388137817 0.27117931842803955 0.19412645697593689
0.52880692481994629 0.2693430483341217 0.19416983425617218
0.61997753381729126 0.26601269841194153 0.19514784216880798
0.70346182584762573 0.26398748159408569 0.19890671968460083
0.78341782093048096 0.26388159394264221 0.2031468003988266
0.86185204982757568 0.26479777693748474 0.20496499538421631
0.94173896312713623 0.26589027047157288 0.2044244259595871
0.99826180934906006 0.26604679226875305 0.20287251472473145
0.24784299731254578 0.28089511394500732 0.26896393299102783
0.28478088974952698 0.29065760970115662 0.28477346897125244
0.30679896473884583 0.30672881007194519 0.30921375751495361
0.32077810168266296 0.32750821113586426 0.2962925136089325
0.35918426513671875 0.34656769037246704 0.23164297640323639
0.43790009617805481 0.35209938883781433 0.19185900688171387
0.52616292238235474 0.35094502568244934 0.18357151746749878
