assets/lut/alexjordan dream 01.cube
# Created by: G'MIC (https://gmic.eu)
TITLE "dream_1"
# LUT size
LUT_3D_SIZE 7
# Data domain
DOMAIN_MIN 0.0 0.0 0.0
DOMAIN_MAX 1.0 1.0 1.0
# LUT data points
0.033701639622449875 0.033641155809164047 0.038757983595132828
0.20050953328609467 0.046475443989038467 0
0.37191623449325562 0.057715814560651779 0
0.54669344425201416 0.06944148987531662 0
0.72147715091705322 0.081045307219028473 0
0.89582651853561401 0.092194437980651855 0
1 0.099570959806442261 0
0.025448398664593697 0.16895566880702972 0.32378590106964111
0.18173897266387939 0.18068647384643555 0.17568540573120117
0.35077646374702454 0.19371344149112701 0.04126308485865593
0.52621364593505859 0.20691387355327606 0
0.70000344514846802 0.22001124918460846 0
0.8728485107421875 0.2325405478477478 0
1 0.2421334981918335 0
0.022097673267126083 0.30622106790542603 0.62362939119338989
0.16362731158733368 0.31763720512390137 0.47357147932052612
0.32920652627944946 0.32979413866996765 0.32423904538154602
0.50488519668579102 0.34233361482620239 0.16290917992591858
0.67704063653945923 0.3554844856262207 0.043985944241285324
0.84878808259963989 0.36841762065887451 0.00037602442898787558
0.99673211574554443 0.38043907284736633 0
0.022293839603662491 0.44448822736740112 0.92555052042007446
0.15356875956058502 0.45605096220970154 0.7745017409324646
0.31066837906837463 0.46767351031303406 0.62488055229187012
0.48111003637313843 0.48056533932685852 0.4655100405216217
0.6533665657043457 0.4909425675868988 0.31214779615402222
0.82477623224258423 0.50221210718154907 0.16499534249305725
0.98636764287948608 0.51617324352264404 0.032501954585313797
0.0093129025772213936 0.5807797908782959 1
0.14253638684749603 0.59286928176879883 0.99884194135665894
0.29351255297660828 0.60477352142333984 0.91887897253036499
0.45815271139144897 0.61804717779159546 0.76678222417831421
0.62974804639816284 0.62858408689498901 0.61603587865829468
0.80076742172241211 0.6382828950881958 0.46352320909500122
0.96968197822570801 0.65120851993560791 0.31253555417060852
0.00040947410161606967 0.71652770042419434 1
0.12063392251729965 0.7286689281463623 1
0.27366280555725098 0.74014902114868164 1
0.43465623259544373 0.75181502103805542 0.99812126159667969
0.60483145713806152 0.76398217678070068 0.912994384765625
0.77602732181549072 0.77683538198471069 0.76164549589157104
0.94758754968643188 0.79011863470077515 0.61017698049545288
0 0.85244953632354736 1
0.093126051127910614 0.86501407623291016 1
0.25148719549179077 0.87669098377227783 1
0.41416740417480469 0.88847434520721436 1
0.58238017559051514 0.90102487802505493 1
0.75333636999130249 0.91514897346496582 0.99746412038803101
0.9270818829536438 0.92867696285247803 0.90698301792144775
0.045890074223279953 0.045641340315341949 0.048992544412612915
0.21421636641025543 0.058824576437473297 3.5903033221984515e-06
0.38375404477119446 0.070948868989944458 0
0.5569646954536438 0.082548804581165314 0
0.7314295768737793 0.09323660284280777 0
0.90626615285873413 0.10569538921117783 0.00056339340517297387
1 0.11458589136600494 0
0.028357172384858131 0.17989370226860046 0.33608242869377136
0.19041265547275543 0.19028596580028534 0.18390241265296936
0.36118727922439575 0.205569788813591 0.040146563202142715
0.53516608476638794 0.22000186145305634 0
0.7087177038192749 0.23221102356910706 0
0.8826940655708313 0.24486860632896423 0
1 0.2558656632900238 0
0.014303992502391338 0.31777527928352356 0.63297069072723389
0.16406376659870148 0.32919585704803467 0.48147422075271606
0.33996918797492981 0.3412136435508728 0.33072897791862488
0.51275849342346191 0.3544715940952301 0.16743402183055878
0.68458902835845947 0.36825570464134216 0.034520361572504044
0.8573601245880127 0.3808286190032959 0.00015557980805169791
0.9980730414390564 0.39338025450706482 0
0.0084077725186944008 0.45622485876083374 0.93119233846664429
0.14732322096824646 0.4678727388381958 0.78279232978820801
0.31666478514671326 0.47907251119613647 0.63750195503234863
0.48922061920166016 0.49130687117576599 0.47965151071548462
0.66185122728347778 0.50288325548171997 0.3258928656578064
0.8336796760559082 0.51414316892623901 0.17301775515079498
0.98773336410522461 0.52851361036300659 0.039327014237642288
0.0038269043434411287 0.59269040822982788 1
0.13679675757884979 0.60400474071502686 0.99938440322875977
0.29715922474861145 0.61585259437561035 0.93058860301971436
0.46643182635307312 0.62927150726318359 0.78230011463165283
0.63981479406356812 0.6410290002822876 0.63141107559204102
0.81157946586608887 0.65086823701858521 0.4738365113735199
0.97469651699066162 0.66383099555969238 0.31270685791969299
2.6927275030175224e-05 0.72866320610046387 1
0.11906035244464874 0.74022239446640015 1
0.27815139293670654 0.75201535224914551 1
0.44470304250717163 0.76490968465805054 0.99924725294113159
0.61722260713577271 0.77761578559875488 0.92486333847045898
0.78784561157226562 0.78987199068069458 0.77123677730560303
0.95719099044799805 0.8024556040763855 0.61467689275741577
0 0.86532503366470337 1
0.094982653856277466 0.87749725580215454 1
0.25700470805168152 0.88930594921112061 1
0.42333507537841797 0.90180307626724243 1
0.59377199411392212 0.91469472646713257 1
0.76461929082870483 0.92828023433685303 0.99843418598175049
0.93647783994674683 0.94137817621231079 0.91225123405456543
0.058069881051778793 0.056590721011161804 0.052877701818943024
0.22777971625328064 0.070215307176113129 4.5955883251735941e-05
0.39663809537887573 0.082684487104415894 0
0.56879293918609619 0.092950530350208282 0
0.7429196834564209 0.1015382781624794 0
0.91810464859008789 0.1125536784529686 0.022873703390359879
1 0.12301825731992722 0.0019509708508849144
0.035380523651838303 0.19100640714168549 0.34430328011512756
0.20436583459377289 0.20315474271774292 0.18782590329647064
0.37328976392745972 0.21684969961643219 0.055218387395143509
0.54611331224441528 0.22990080714225769 0.0011979046976193786
0.72118663787841797 0.24122586846351624 0
0.89700913429260254 0.25313079357147217 0
1 0.2644997239112854 0
0.015847060829401016 0.3301180899143219 0.64004933834075928
0.1801154613494873 0.34311729669570923 0.48980402946472168
0.3528953492641449 0.35396811366081238 0.34264430403709412
0.52309292554855347 0.36516490578651428 0.187811478972435
0.69798153638839722 0.37880116701126099 0.04677249863743782
0.87341773509979248 0.39115822315216064 7.6593139965552837e-05
0.99981582164764404 0.4031834602355957 0
0.0074459449388086796 0.46772226691246033 0.93791025876998901
0.15851174294948578 0.48010674118995667 0.79072880744934082
0.32983499765396118 0.49126964807510376 0.64293980598449707
0.50166147947311401 0.50293654203414917 0.48677489161491394
0.6755484938621521 0.51467621326446533 0.32853442430496216
0.84904175996780396 0.52551621198654175 0.16434739530086517
0.99188721179962158 0.53963369131088257 0.039958324283361435
0.0022518383339047432 0.60354208946228027 1
0.13978368043899536 0.6145203709602356 0.99962663650512695
0.30633372068405151 0.6265716552734375 0.93394219875335693
0.47854748368263245 0.64134407043457031 0.78673624992370605
0.65240710973739624 0.65453451871871948 0.63455808162689209
0.82659900188446045 0.66290462017059326 0.47851002216339111
0.9846031665802002 0.67445164918899536 0.32027158141136169
0 0.7399401068687439 1
0.12049684673547745 0.75105512142181396 1
0.28547960519790649 0.76347988843917847 1
0.45532098412513733 0.77812951803207397 0.99955171346664429
0.62755733728408813 0.79202604293823242 0.93022310733795166
0.7999919056892395 0.80277383327484131 0.77764230966567993
0.97023522853851318 0.81332767009735107 0.62318331003189087
0 0.87725841999053955 1
0.09782429039478302 0.88925749063491821 1
0.2639099657535553 0.90163654088973999 1
0.43293625116348267 0.91488277912139893 1
0.60422664880752563 0.92802709341049194 1
0.77618855237960815 0.94067287445068359 0.99904614686965942
0.94885987043380737 0.95246076583862305 0.91892910003662109
0.068857781589031219 0.06823401153087616 0.060193978250026703
0.23959948122501373 0.081961676478385925 0.0002830954035744071
0.409402996301651 0.093975663185119629 0
0.58168274164199829 0.10368230193853378 0
0.75601756572723389 0.11276546120643616 0
0.9305235743522644 0.12240208685398102 0.009604121558368206
1 0.13087673485279083 0
0.045650437474250793 0.20385684072971344 0.35566571354866028
0.21619714796543121 0.21643634140491486 0.19889906048774719
0.3867020308971405 0.2288069874048233 0.072527773678302765
0.56016027927398682 0.24077972769737244 0.0038624333683401346
0.73520338535308838 0.25249293446540833 0
0.91090172529220581 0.26334166526794434 0
1 0.27293857932090759 0
0.023753911256790161 0.34196972846984863 0.65109121799468994
0.19265924394130707 0.35401636362075806 0.50086504220962524
0.36494296789169312 0.36511713266372681 0.35128304362297058
0.53743374347686768 0.37701359391212463 0.19994880259037018
0.71180325746536255 0.39003822207450867 0.057419318705797195
0.88760161399841309 0.40201815962791443 0.00067306216806173325
1 0.41192862391471863 0
0.0105335908010602 0.4785800576210022 0.94595330953598022
0.17037031054496765 0.49066990613937378 0.79994422197341919
0.34329277276992798 0.5027880072593689 0.64872795343399048
0.51692825555801392 0.51526105403900146 0.49123549461364746
0.68940961360931396 0.52697461843490601 0.32332891225814819
0.85965323448181152 0.53862398862838745 0.16559499502182007
0.99463260173797607 0.55094492435455322 0.053950738161802292
0.002910868264734745 0.61437088251113892 1
0.14842513203620911 0.62598788738250732 0.99980849027633667
0.31946462392807007 0.63883811235427856 0.93931740522384644
0.49244904518127441 0.65355789661407471 0.79151242971420288
0.66469043493270874 0.66630208492279053 0.63920110464096069
0.84169894456863403 0.67600494623184204 0.48111483454704285
0.99427443742752075 0.68627381324768066 0.33567175269126892
0 0.75116187334060669 1
0.12663732469081879 0.76298606395721436 1
0.29596686363220215 0.77588629722595215 1
0.46693086624145508 0.79035729169845581 0.99982768297195435
0.63855868577957153 0.80383485555648804 0.93861466646194458
0.81287533044815063 0.81502681970596313 0.78441447019577026
0.98252791166305542 0.82512903213500977 0.63396924734115601
0 0.88906878232955933 1
0.10287583619356155 0.90114861726760864 1
0.27276355028152466 0.91374331712722778 1
0.44354012608528137 0.92684370279312134 1
0.61552470922470093 0.93966221809387207 1
0.78893363475799561 0.95173531770706177 0.99944221973419189
0.9625123143196106 0.96360898017883301 0.9263184666633606
0.079085797071456909 0.079803526401519775 0.06406981498003006
0.25070643424987793 0.093528732657432556 0.0004430434200912714
0.42146959900856018 0.10534443706274033 0
0.59358876943588257 0.11579994112253189 0
0.76722896099090576 0.12565325200557709 0.0024381300900131464
0.94070053100585938 0.13417831063270569 1.5557981896563433e-05
1 0.14027628302574158 0
0.056485477834939957 0.21688428521156311 0.36109679937362671
0.22723039984703064 0.22885151207447052 0.20621997117996216
0.39874288439750671 0.24062541127204895 0.075014851987361908
0.5733150839805603 0.25364890694618225 0.00098652555607259274
0.74595552682876587 0.26617318391799927 0
0.91822135448455811 0.27600929141044617 0
1 0.28319519758224487 0
0.033941365778446198 0.35431650280952454 0.65918648242950439
0.20458477735519409 0.36509057879447937 0.51097202301025391
0.37640729546546936 0.37601473927497864 0.35429647564888
0.54990047216415405 0.3886171281337738 0.19309231638908386
0.7213863730430603 0.40192684531211853 0.061567388474941254
0.89008599519729614 0.41406828165054321 0.0016639410750940442
1 0.42329752445220947 0
0.016131741926074028 0.48953434824943542 0.95241755247116089
0.18223589658737183 0.50196141004562378 0.80812418460845947
0.35556310415267944 0.51406615972518921 0.65613597631454468
0.52841329574584961 0.52589970827102661 0.50423282384872437
0.70004689693450928 0.53733611106872559 0.34642514586448669
0.86636865139007568 0.55008870363235474 0.1923617422580719
0.99440151453018188 0.56332123279571533 0.057097986340522766
0.005194974597543478 0.62587565183639526 1
0.15946385264396667 0.63851916790008545 0.99999040365219116
0.33273309469223022 0.6516643762588501 0.94708293676376343
0.50528514385223389 0.66487079858779907 0.80252343416213989
0.67730617523193359 0.67708396911621094 0.65257734060287476
0.85393697023391724 0.68853354454040527 0.49710926413536072
0.99830037355422974 0.69956070184707642 0.35121330618858337
0.00019208122103009373 0.76310640573501587 1
0.13560588657855988 0.7754971981048584 1
0.30815631151199341 0.78843271732330322 1
0.48011833429336548 0.80174523591995239 0.999969482421875
0.65241092443466187 0.81425231695175171 0.94615024328231812
0.82800376415252686 0.82581442594528198 0.79232853651046753
0.99058651924133301 0.83732753992080688 0.64404761791229248
0 0.90079301595687866 1
0.10991787165403366 0.91339659690856934 1
0.28289341926574707 0.92572492361068726 1
0.45566824078559875 0.93815231323242188 1
0.62916576862335205 0.94969850778579712 1
0.80405807495117188 0.96093374490737915 0.99978154897689819
0.97438251972198486 0.97399336099624634 0.93439775705337524
0.091338187456130981 0.093011431396007538 0.078983798623085022
0.26342976093292236 0.10586638748645782 0.001324881799519062
0.43407827615737915 0.11719588935375214 0
0.60551673173904419 0.12848125398159027 0
0.77803665399551392 0.13831360638141632 0.0010937260231003165
0.95079892873764038 0.14526690542697906 0
1 0.14921653270721436 0
0.067266665399074554 0.22942595183849335 0.37248227000236511
0.23882971704006195 0.24080488085746765 0.21709683537483215
0.4101283848285675 0.25241443514823914 0.078399837017059326
0.58362054824829102 0.26681181788444519 0.007356695830821991
0.75591516494750977 0.27957341074943542 0
0.9282723069190979 0.28808087110519409 0
1 0.29350247979164124 0
0.044452428817749023 0.3662906289100647 0.66717135906219482
0.21651577949523926 0.37659406661987305 0.52075707912445068
0.38761013746261597 0.38678482174873352 0.3637864887714386
0.5603259801864624 0.40045475959777832 0.20959062874317169
0.73188179731369019 0.41442391276359558 0.070913843810558319
0.90461307764053345 0.42530634999275208 0.0028997384943068027
1 0.43315684795379639 0
0.023523816838860512 0.50224494934082031 0.95463967323303223
0.19485169649124146 0.51419186592102051 0.81245440244674683
0.36766627430915833 0.52543181180953979 0.66118991374969482
0.53935879468917847 0.53696084022521973 0.51081156730651855
0.71031391620635986 0.54817265272140503 0.3584255576133728
0.88194018602371216 0.5612366795539856 0.20850354433059692
1 0.57254630327224731 0.097717314958572388
0.0086985714733600616 0.63817811012268066 1
0.17075039446353912 0.65092724561691284 1
0.34511113166809082 0.6635204553604126 0.95119965076446533
0.51721775531768799 0.67604583501815796 0.8084636926651001
0.68770366907119751 0.68892079591751099 0.6623615026473999
0.86068373918533325 0.70152336359024048 0.50932544469833374
0.99920278787612915 0.71165555715560913 0.36520954966545105
0.0009708179859444499 0.77486413717269897 1
0.14503617584705353 0.78768706321716309 1
0.31985646486282349 0.80028218030929565 1
0.49290454387664795 0.81279337406158447 1
0.66483712196350098 0.82560163736343384 0.95346879959106445
0.83890634775161743 0.83766502141952515 0.80462563037872314
0.9943048357963562 0.84889042377471924 0.65548175573348999
0 0.91212683916091919 1
0.11708731204271317 0.92508292198181152 1
0.2928052544593811 0.93729138374328613 1
0.46734949946403503 0.94923210144042969 1
0.6415705680847168 0.96065056324005127 1
0.81618672609329224 0.97191941738128662 0.99995118379592896
0.98250287771224976 0.98254299163818359 0.94438797235488892
0.1040952205657959 0.10452073067426682 0.087126396596431732
0.27675676345825195 0.11636922508478165 0.0035878350026905537
0.4476158618927002 0.12743942439556122 0
0.61865180730819702 0.13867668807506561 0
0.79009330272674561 0.14777746796607971 0
0.96201950311660767 0.15342612564563751 0
1 0.1559966504573822 0
0.077846571803092957 0.24003301560878754 0.37977692484855652
0.25211387872695923 0.25191852450370789 0.22506389021873474
0.42459914088249207 0.26424297690391541 0.077959902584552765
0.59703320264816284 0.27872788906097412 0.012631824240088463
0.7685808539390564 0.28985008597373962 0.0010166541906073689
0.94097524881362915 0.29780542850494385 0
1 0.30213510990142822 0
0.053592830896377563 0.37639087438583374 0.67227363586425781
0.22868470847606659 0.38736999034881592 0.52554422616958618
0.40171968936920166 0.3983396589756012 0.36999744176864624
0.57397454977035522 0.41258472204208374 0.21608075499534607
0.7458762526512146 0.42509162425994873 0.098729752004146576
0.91950976848602295 0.43752589821815491 0.0015470617217943072
1 0.44401159882545471 0
0.030154718086123466 0.51289856433868408 0.95746880769729614
0.20535473525524139 0.52478927373886108 0.81695711612701416
0.37921792268753052 0.53599435091018677 0.6643107533454895
0.55115258693695068 0.54795831441879272 0.51032310724258423
0.72277498245239258 0.56041258573532104 0.35562175512313843
0.89630126953125 0.5741884708404541 0.19827559590339661
1 0.58335047960281372 0.10870956629514694
0.012167941778898239 0.64903205633163452 1
0.17997494339942932 0.66183090209960938 1
0.35556048154830933 0.67388737201690674 0.95361232757568359
0.52844500541687012 0.68616974353790283 0.80988669395446777
0.69908827543258667 0.69986438751220703 0.66004538536071777
0.87155991792678833 0.71293854713439941 0.51132297515869141
1 0.72210693359375 0.38154572248458862
0.0019927979446947575 0.78539484739303589 1
0.15251977741718292 0.79866760969161987 1
0.32942894101142883 0.81095623970031738 1
0.50411903858184814 0.8229871392250061 1
0.67602789402008057 0.83667278289794922 0.95564919710159302
0.84824627637863159 0.84953469038009644 0.81164091825485229
0.99715864658355713 0.85973000526428223 0.66974973678588867
0 0.92218232154846191 1
0.12277136743068695 0.93562173843383789 1
0.30077916383743286 0.9480324387550354 1
0.4767976701259613 0.96007853746414185 1
0.65113204717636108 0.97222054004669189 1
0.8244444727897644 0.98220676183700562 1
0.98741894960403442 0.98947811126708984 0.95571506023406982
