assets/lut/alexjordan retro magenta 01.cube
# Created by: G'MIC (https://gmic.eu)
TITLE "retro_magenta_01"
# LUT size
LUT_3D_SIZE 5
# Data domain
DOMAIN_MIN 0.0 0.0 0.0
DOMAIN_MAX 1.0 1.0 1.0
# LUT data points
0.13604962825775146 0.092339277267456055 0.092627488076686859
0.27329909801483154 0.11040446162223816 0.11005557328462601
0.43390172719955444 0.12306219339370728 0.12243131548166275
0.61118125915527344 0.13207328319549561 0.12954273819923401
0.78780925273895264 0.13729389011859894 0.13700489699840546
0.17837297916412354 0.28345778584480286 0.10420394688844681
0.33244490623474121 0.29523280262947083 0.12351514399051666
0.4830411970615387 0.31155440211296082 0.1404300183057785
0.64605748653411865 0.32421517372131348 0.15250930190086365
0.81232577562332153 0.33413931727409363 0.16703574359416962
0.19834037125110626 0.48134234547615051 0.11783734709024429
0.35509961843490601 0.4930976927280426 0.13672207295894623
0.50889128446578979 0.50468474626541138 0.15382535755634308
0.66781938076019287 0.51737338304519653 0.16519932448863983
0.82791727781295776 0.53040820360183716 0.18896733224391937
0.22110861539840698 0.67680543661117554 0.13944356143474579
0.37788134813308716 0.68906271457672119 0.15486721694469452
0.53086948394775391 0.70040404796600342 0.16483555734157562
0.68705713748931885 0.71390962600708008 0.18124277889728546
0.84268170595169067 0.72645556926727295 0.23067796230316162
0.24311754107475281 0.87026280164718628 0.17086206376552582
0.4030669629573822 0.88338643312454224 0.18723732233047485
0.55790024995803833 0.89526331424713135 0.201420858502388
0.71185570955276489 0.90549761056900024 0.25045290589332581
0.86484026908874512 0.91178280115127563 0.35545948147773743
0.14676943421363831 0.099390082061290741 0.20823195576667786
0.29919713735580444 0.10870610922574997 0.25167649984359741
0.45495808124542236 0.12154296040534973 0.2818695604801178
0.62261956930160522 0.13403281569480896 0.29634734988212585
0.79220807552337646 0.14227436482906342 0.30604201555252075
0.18089629709720612 0.28543347120285034 0.27733388543128967
0.33971533179283142 0.29727360606193542 0.289896160364151
0.49320134520530701 0.31415343284606934 0.3058774471282959
0.65318888425827026 0.32517257332801819 0.32061022520065308
0.81580597162246704 0.33783179521560669 0.3333793580532074
0.20219086110591888 0.48401442170143127 0.29443812370300293
0.35963502526283264 0.4951690137386322 0.30945068597793579
0.51471835374832153 0.5062682032585144 0.32627162337303162
0.67331361770629883 0.51758110523223877 0.33813822269439697
0.83166563510894775 0.53405821323394775 0.35249704122543335
0.22628629207611084 0.68021148443222046 0.3158850371837616
0.38239765167236328 0.69120568037033081 0.33168190717697144
0.53637737035751343 0.70116817951202393 0.34775447845458984
0.69267547130584717 0.71417504549026489 0.36052680015563965
0.84585726261138916 0.73361343145370483 0.3663482666015625
0.2499949187040329 0.87449860572814941 0.34585666656494141
0.40989452600479126 0.88610649108886719 0.36552417278289795
0.56580579280853271 0.89586013555526733 0.3903353214263916
0.72078728675842285 0.90527617931365967 0.43999382853507996
0.87252914905548096 0.9152531623840332 0.51338011026382446
0.15703572332859039 0.10291526466608047 0.3522706925868988
0.31121522188186646 0.11148500442504883 0.41316726803779602
0.46653372049331665 0.12308838963508606 0.44943302869796753
0.62875545024871826 0.13585969805717468 0.46840426325798035
0.79213964939117432 0.14584608376026154 0.47924873232841492
0.18430782854557037 0.28648054599761963 0.4596867561340332
0.34066694974899292 0.30107459425926208 0.46883612871170044
0.49664774537086487 0.31500586867332458 0.4813264012336731
0.65481150150299072 0.32905739545822144 0.49455466866493225
0.81379967927932739 0.34137058258056641 0.50509822368621826
0.2033577561378479 0.48633623123168945 0.4756334125995636
0.36101245880126953 0.49856060743331909 0.48308885097503662
0.51778298616409302 0.50965535640716553 0.49934592843055725
0.67461717128753662 0.52501636743545532 0.5129241943359375
0.83226948976516724 0.53737914562225342 0.52572524547576904
0.22667451202869415 0.68322503566741943 0.49234890937805176
0.38390156626701355 0.6945989727973938 0.50575762987136841
0.53959435224533081 0.7056276798248291 0.52194339036941528
0.69733947515487671 0.71784943342208862 0.5395272970199585
0.85013681650161743 0.73458826541900635 0.54611778259277344
0.25145542621612549 0.87776118516921997 0.51969450712203979
0.41231557726860046 0.88920611143112183 0.53974455595016479
0.57118582725524902 0.89872825145721436 0.56657272577285767
0.73167330026626587 0.9063834547996521 0.61183291673660278
0.88294225931167603 0.91813713312149048 0.66128718852996826
0.16425445675849915 0.10654774308204651 0.51440238952636719
0.31898590922355652 0.11443419754505157 0.584861159324646
0.47521936893463135 0.12490443885326385 0.62570381164550781
0.63560134172439575 0.13871164619922638 0.64662319421768188
0.79584759473800659 0.15024994313716888 0.65982198715209961
0.18769453465938568 0.2890283465385437 0.64210855960845947
0.34271597862243652 0.30622550845146179 0.63910102844238281
0.50090974569320679 0.31787270307540894 0.65620458126068115
0.65896046161651611 0.33258786797523499 0.67251545190811157
0.81632775068283081 0.3462030291557312 0.68407750129699707
0.20599691569805145 0.49051216244697571 0.65054291486740112
0.36342808604240417 0.50320243835449219 0.65574824810028076
0.52096539735794067 0.51371091604232788 0.67423373460769653
0.6780620813369751 0.52742964029312134 0.69004815816879272
0.83343786001205444 0.54109859466552734 0.70172512531280518
0.22759918868541718 0.68679171800613403 0.66462880373001099
0.3857060968875885 0.69879263639450073 0.67796361446380615
0.5405464768409729 0.71159845590591431 0.69079118967056274
0.70084869861602783 0.72255867719650269 0.70833534002304077
0.84997320175170898 0.73834925889968872 0.71866059303283691
0.25178873538970947 0.88054949045181274 0.68887341022491455
0.41421514749526978 0.89284819364547729 0.70667785406112671
0.57422327995300293 0.90439116954803467 0.72384786605834961
0.74525159597396851 0.90978521108627319 0.75997692346572876
0.89174145460128784 0.92376303672790527 0.78955447673797607
0.16984203457832336 0.1096089705824852 0.67845612764358521
0.3227229118347168 0.11301959306001663 0.77253609895706177
0.48062941431999207 0.12368196994066238 0.8046841025352478
0.64129900932312012 0.13941079378128052 0.82134318351745605
0.80078780651092529 0.15227149426937103 0.83722966909408569
0.18892742693424225 0.29283440113067627 0.8198971152305603
0.34685122966766357 0.30703732371330261 0.82503604888916016
0.50631612539291382 0.3189026415348053 0.82928270101547241
0.6645500659942627 0.33525899052619934 0.84690994024276733
0.82132208347320557 0.34942364692687988 0.8606066107749939
0.20936812460422516 0.49509865045547485 0.81871986389160156
0.36769619584083557 0.50637906789779663 0.83368986845016479
0.52498060464859009 0.51768726110458374 0.84725481271743774
0.68229639530181885 0.5314335823059082 0.86218482255935669
0.83758938312530518 0.54505383968353271 0.87322402000427246
0.22958672046661377 0.68973112106323242 0.83133751153945923
0.38968861103057861 0.70223855972290039 0.8491937518119812
0.54519712924957275 0.71580636501312256 0.86400210857391357
0.70407247543334961 0.72847622632980347 0.87481451034545898
0.85607540607452393 0.74151921272277832 0.8851245641708374
0.25146064162254333 0.8817746639251709 0.85368615388870239
0.41725614666938782 0.89447569847106934 0.87300455570220947
0.58003240823745728 0.90716707706451416 0.88704860210418701
0.7466423511505127 0.91766059398651123 0.90217685699462891
0.8982703685760498 0.93014430999755859 0.9188266396522522
