assets/lut/alexjordan bleech bypass yellow 01.cube
# Created by: G'MIC (https://gmic.eu)
TITLE "bleech_bypass_yellow_01"
# LUT size
LUT_3D_SIZE 7
# Data domain
DOMAIN_MIN 0.0 0.0 0.0
DOMAIN_MAX 1.0 1.0 1.0
# LUT data points
5.3854550060350448e-05 0.00019621007959358394 2.5850184101727791e-05
0.023196008056402206 0.0040173698216676712 0.0040103686042129993
0.070557475090026855 0.0073298136703670025 0.0071750716306269169
0.16056956350803375 0.011863155290484428 0.01103032473474741
0.45870140194892883 0.012376852333545685 0.0089461980387568474
0.73832899332046509 0.014101828448474407 0.01082108449190855
0.98351418972015381 0.020596284419298172 0.01799480989575386
0.01175797451287508 0.057500876486301422 0.010605292394757271
0.068934634327888489 0.070194914937019348 0.010765419341623783
0.14647401869297028 0.080361925065517426 0.011967034079134464
0.28035476803779602 0.095286637544631958 0.01610291376709938
0.53204560279846191 0.10613326728343964 0.017946969717741013
0.77805554866790771 0.12459652125835419 0.019352931529283524
0.98636007308959961 0.14731281995773315 0.022775672376155853
0.019194643944501877 0.17634312808513641 0.018808746710419655
0.1110047847032547 0.20248183608055115 0.016990795731544495
0.22455167770385742 0.22475908696651459 0.018780337646603584
0.3800843358039856 0.25335893034934998 0.022138409316539764
0.60141134262084961 0.27337050437927246 0.024124924093484879
0.81172764301300049 0.30417713522911072 0.026071764528751373
0.98677307367324829 0.3324834406375885 0.027884224429726601
0.024450728669762611 0.39216098189353943 0.023555666208267212
0.1557101309299469 0.42456516623497009 0.024139164015650749
0.3083251416683197 0.45175081491470337 0.026635413989424706
0.48868909478187561 0.48596349358558655 0.028678145259618759
0.67781496047973633 0.51820296049118042 0.030702792108058929
0.84642034769058228 0.55032795667648315 0.031617555767297745
0.98904293775558472 0.58007431030273438 0.032997250556945801
0.03166738897562027 0.66281217336654663 0.029872909188270569
0.20002509653568268 0.68286830186843872 0.029765544459223747
0.3890666663646698 0.70516365766525269 0.031883284449577332
0.58643239736557007 0.72760301828384399 0.034011136740446091
0.75246959924697876 0.75242555141448975 0.036269977688789368
0.88164949417114258 0.77152371406555176 0.035420674830675125
0.98983216285705566 0.78743916749954224 0.035678699612617493
0.036477018147706985 0.86690956354141235 0.033022202551364899
0.24752140045166016 0.88017928600311279 0.035565618425607681
0.48009124398231506 0.88617759943008423 0.03860141709446907
0.69488084316253662 0.89386212825775146 0.041703019291162491
0.8320353627204895 0.90933769941329956 0.047261644154787064
0.92295116186141968 0.92501521110534668 0.045924197882413864
0.99515306949615479 0.93541181087493896 0.048588726669549942
0.046918831765651703 0.99411469697952271 0.043410342186689377
0.29876014590263367 0.99751096963882446 0.053605996072292328
0.57135474681854248 0.99586194753646851 0.059140373021364212
0.80933678150177002 0.99437069892883301 0.061968710273504257
0.91713064908981323 0.99883604049682617 0.074810251593589783
0.9770398736000061 1 0.083826951682567596
1 1 0.097913660109043121
0.0054986691102385521 0.005011330358684063 0.01565399207174778
0.032766513526439667 0.0069444393739104271 0.032146885991096497
0.08146609365940094 0.008761327713727951 0.04271392896771431
0.17538861930370331 0.011986257508397102 0.054426468908786774
0.47481510043144226 0.015184350311756134 0.068016886711120605
0.74016433954238892 0.013867486268281937 0.081000953912734985
0.97765803337097168 0.017175875604152679 0.094095252454280853
0.014552216976881027 0.065755404531955719 0.059295505285263062
0.075812168419361115 0.074782021343708038 0.068673335015773773
0.15850076079368591 0.086339108645915985 0.082039594650268555
0.29186898469924927 0.10034392029047012 0.095807991921901703
0.54292458295822144 0.11146756261587143 0.10754439234733582
0.78176558017730713 0.12463736534118652 0.11914379894733429
0.9852338433265686 0.14547938108444214 0.13131554424762726
0.018740516155958176 0.19133177399635315 0.10158242285251617
0.11741979420185089 0.21340295672416687 0.10988906025886536
0.23989780247211456 0.2382315993309021 0.12211941182613373
0.39183598756790161 0.26298630237579346 0.13421142101287842
0.60909289121627808 0.28392213582992554 0.14702798426151276
0.81805336475372314 0.30715733766555786 0.16045325994491577
0.98821473121643066 0.33829754590988159 0.17063385248184204
0.024307984858751297 0.40592062473297119 0.14266905188560486
0.16064973175525665 0.43334954977035522 0.15276291966438293
0.31959855556488037 0.46820273995399475 0.16371311247348785
0.50165694952011108 0.49835348129272461 0.17514596879482269
0.68587237596511841 0.53017604351043701 0.18866467475891113
0.85405570268630981 0.55837500095367432 0.20128755271434784
0.99031805992126465 0.5885888934135437 0.20829404890537262
0.029212143272161484 0.66387200355529785 0.18175065517425537
0.20178757607936859 0.69032663106918335 0.19137467443943024
0.40014910697937012 0.71559470891952515 0.20238769054412842
0.6011967658996582 0.7380555272102356 0.21426498889923096
0.76106983423233032 0.76233166456222534 0.22979295253753662
0.89163458347320557 0.78252273797988892 0.24191129207611084
0.9927680492401123 0.80208379030227661 0.24752859771251678
0.036050833761692047 0.8698762059211731 0.22067846357822418
0.2457137256860733 0.88690030574798584 0.23158229887485504
0.48077496886253357 0.89443254470825195 0.24405226111412048
0.70504385232925415 0.90175217390060425 0.25389367341995239
0.83304828405380249 0.91708195209503174 0.2705473005771637
0.9276726245880127 0.9309731125831604 0.27736073732376099
0.99664425849914551 0.94240206480026245 0.28889751434326172
0.051755014806985855 0.99627864360809326 0.26854151487350464
0.29866397380828857 0.99852943420410156 0.28204980492591858
0.56982934474945068 0.9970821738243103 0.29355818033218384
0.82222831249237061 0.99525737762451172 0.29824694991111755
0.92056751251220703 0.99887549877166748 0.31725376844406128
0.97544604539871216 1 0.32945570349693298
1 1 0.35076579451560974
0.0053970036096870899 0.0056251976639032364 0.039919715374708176
0.038261726498603821 0.0081894220784306526 0.067107073962688446
0.092831015586853027 0.0098033230751752853 0.088425658643245697
0.17853465676307678 0.013060595840215683 0.10601837933063507
0.46927645802497864 0.015484260395169258 0.12257428467273712
0.74447953701019287 0.015849558636546135 0.15319207310676575
0.97856491804122925 0.018700933083891869 0.17505714297294617
0.012573481537401676 0.065916873514652252 0.11391583830118179
0.082340419292449951 0.080176092684268951 0.13792087137699127
0.16983246803283691 0.092996485531330109 0.15757815539836884
0.29303702712059021 0.10612790286540985 0.18192288279533386
0.54458463191986084 0.11923216283321381 0.19915714859962463
0.78666919469833374 0.1329251229763031 0.22792862355709076
0.98660063743591309 0.15378457307815552 0.24891947209835052
0.018876602873206139 0.2012924998998642 0.1906493604183197
0.12483357638120651 0.22545452415943146 0.21188293397426605
0.25105854868888855 0.25056636333465576 0.23734104633331299
0.40474548935890198 0.27186986804008484 0.25536707043647766
0.61750805377960205 0.29554414749145508 0.27668216824531555
0.82252967357635498 0.32263684272766113 0.30392873287200928
0.98903149366378784 0.35386046767234802 0.3256169855594635
0.025593027472496033 0.41451853513717651 0.26642215251922607
0.16699308156967163 0.44776725769042969 0.28878641128540039
0.33165013790130615 0.48659440875053406 0.31301933526992798
0.51633960008621216 0.51160275936126709 0.33490994572639465
0.69418537616729736 0.54421699047088623 0.35641413927078247
0.85831046104431152 0.5790056586265564 0.38053551316261292
0.99034374952316284 0.6081424355506897 0.39790377020835876
0.031822998076677322 0.6717832088470459 0.34247174859046936
0.20923273265361786 0.69893038272857666 0.36752516031265259
0.4171597957611084 0.72926074266433716 0.39077791571617126
0.62366867065429688 0.74959349632263184 0.41327443718910217
0.77275353670120239 0.77269428968429565 0.44028002023696899
0.89714223146438599 0.79645371437072754 0.46644312143325806
0.99334722757339478 0.81620049476623535 0.48180469870567322
0.038914758712053299 0.87123286724090576 0.41834631562232971
0.25498154759407043 0.88864642381668091 0.44218131899833679
0.5054476261138916 0.89805608987808228 0.47110405564308167
0.73612618446350098 0.90718895196914673 0.48773950338363647
0.8483467698097229 0.92263615131378174 0.51141208410263062
0.9338567852973938 0.93525981903076172 0.53315585851669312
0.99582278728485107 0.94653874635696411 0.55354881286621094
0.054140623658895493 0.9951440691947937 0.50413906574249268
0.30490154027938843 0.99796140193939209 0.52446848154067993
0.58679592609405518 0.99594932794570923 0.55425846576690674
0.84503954648971558 0.99500954151153564 0.56260436773300171
0.92311793565750122 0.99886161088943481 0.5820273756980896
0.9718015193939209 0.99881404638290405 0.60394954681396484
0.99984973669052124 0.99984043836593628 0.63602280616760254
0.0082910722121596336 0.0072860419750213623 0.097026333212852478
0.042654957622289658 0.0087738186120986938 0.12794964015483856
0.10275756567716599 0.011474698781967163 0.15605059266090393
0.20271193981170654 0.014974930323660374 0.19561047852039337
0.48698946833610535 0.01617647148668766 0.22021470963954926
0.7530825138092041 0.01851176843047142 0.2531486451625824
0.98441404104232788 0.023538956418633461 0.27526527643203735
0.0135739641264081 0.07251700758934021 0.19737176597118378
0.087628401815891266 0.087610028684139252 0.23657751083374023
0.18126457929611206 0.1000409722328186 0.25880473852157593
0.31894689798355103 0.11519014090299606 0.29392337799072266
0.55592441558837891 0.12694709002971649 0.32708516716957092
0.79242372512817383 0.13941778242588043 0.36405864357948303
0.98865741491317749 0.16055981814861298 0.38694310188293457
0.020409153774380684 0.21292756497859955 0.29904571175575256
0.12903203070163727 0.23989599943161011 0.33636754751205444
0.26038765907287598 0.2612454891204834 0.36518239974975586
0.42338043451309204 0.28246724605560303 0.400063157081604
0.63078159093856812 0.3079497218132019 0.42739599943161011
0.82786941528320312 0.33395731449127197 0.46222880482673645
0.98881453275680542 0.35955280065536499 0.49077782034873962
0.029291668906807899 0.43033796548843384 0.40775850415229797
0.17393521964550018 0.46428567171096802 0.43794718384742737
0.34581258893013 0.49800720810890198 0.46997296810150146
0.53299188613891602 0.52839750051498413 0.49881130456924438
0.70686882734298706 0.5604662299156189 0.52362501621246338
0.86320298910140991 0.59195041656494141 0.55648994445800781
0.99017608165740967 0.61409252882003784 0.58201658725738525
0.036279968917369843 0.69319730997085571 0.5051112174987793
0.21589499711990356 0.71405667066574097 0.54103094339370728
0.42890274524688721 0.740215003490448 0.57123774290084839
0.6351885199546814 0.76285761594772339 0.6016998291015625
0.78159093856811523 0.78475362062454224 0.63047665357589722
0.90162533521652222 0.80595654249191284 0.66300106048583984
0.99374574422836304 0.82070833444595337 0.68502533435821533
0.040312133729457855 0.87744045257568359 0.6059378981590271
0.26057100296020508 0.89349925518035889 0.63428801298141479
0.51688641309738159 0.90476018190383911 0.66867220401763916
0.7472957968711853 0.91552829742431641 0.69736522436141968
0.85661357641220093 0.9279058575630188 0.72831141948699951
0.94090044498443604 0.94059073925018311 0.75484585762023926
0.99749678373336792 0.94655114412307739 0.7919953465461731
0.052040878683328629 0.99374687671661377 0.71120929718017578
0.30711567401885986 0.99699753522872925 0.72697985172271729
0.58447515964508057 0.99564212560653687 0.77527803182601929
0.83856666088104248 0.99608129262924194 0.8009677529335022
0.92875343561172485 0.99725508689880371 0.83394914865493774
0.97627854347229004 0.99758034944534302 0.86255663633346558
0.99814409017562866 0.99796187877655029 0.89975428581237793
0.0046314164064824581 0.0050171944312751293 0.39660462737083435
0.043108504265546799 0.0070052649825811386 0.41849619150161743
0.098019920289516449 0.012214989401400089 0.43870806694030762
0.22173212468624115 0.016575053334236145 0.45505949854850769
0.49402868747711182 0.019802901893854141 0.46581470966339111
0.76012611389160156 0.019808107987046242 0.48874542117118835
0.983906090259552 0.027950631454586983 0.50604593753814697
0.014367615804076195 0.080103978514671326 0.45563799142837524
0.089970715343952179 0.092984668910503387 0.4798564612865448
0.18447667360305786 0.10689743608236313 0.50204598903656006
0.32944265007972717 0.12078025937080383 0.52160346508026123
0.56453883647918701 0.13254682719707489 0.53689312934875488
0.79900670051574707 0.1449170857667923 0.55967491865158081
0.98949742317199707 0.16566388309001923 0.5740814208984375
0.024872709065675735 0.22420972585678101 0.5201643705368042
0.13810135424137115 0.24901774525642395 0.53921139240264893
0.27208730578422546 0.27352017164230347 0.56299585103988647
0.43336012959480286 0.29728752374649048 0.58736366033554077
0.63937783241271973 0.32449570298194885 0.60405433177947998
0.83233028650283813 0.35041451454162598 0.6266523003578186
0.98861926794052124 0.37343454360961914 0.64633023738861084
0.03323822095990181 0.45003557205200195 0.5935823917388916
0.18186688423156738 0.48069056868553162 0.61061614751815796
0.35166481137275696 0.51254475116729736 0.63039094209671021
0.54137808084487915 0.54281359910964966 0.65123718976974487
0.71827501058578491 0.57648724317550659 0.67182040214538574
0.86922866106033325 0.61023193597793579 0.69528776407241821
0.99065613746643066 0.63418525457382202 0.71507430076599121
0.038652010262012482 0.70149087905883789 0.66002589464187622
0.2230210155248642 0.72641205787658691 0.68339252471923828
0.43626546859741211 0.75000429153442383 0.70356458425521851
0.64705103635787964 0.77143758535385132 0.72524464130401611
0.79296606779098511 0.79542648792266846 0.74847871065139771
0.90741032361984253 0.81673133373260498 0.77077281475067139
0.9938010573387146 0.83656549453735352 0.78553062677383423
0.044240284711122513 0.88386178016662598 0.73133242130279541
0.26428943872451782 0.9001690149307251 0.75299620628356934
0.51424092054367065 0.91314053535461426 0.77243298292160034
0.75248241424560547 0.9233892560005188 0.79176384210586548
0.86402678489685059 0.9352530837059021 0.81398355960845947
0.94335472583770752 0.94397789239883423 0.83386856317520142
0.99602973461151123 0.95466625690460205 0.85491484403610229
0.058169346302747726 0.99553823471069336 0.80329734086990356
0.31048750877380371 0.99791330099105835 0.82402175664901733
0.59219318628311157 0.99699753522872925 0.85119843482971191
0.84798508882522583 0.99700188636779785 0.86157822608947754
0.93796759843826294 0.99773281812667847 0.88255107402801514
0.98071795701980591 0.99787729978561401 0.901722252368927
0.99980306625366211 1 0.92536675930023193
0.00015043371240608394 0.0016897163586691022 0.66619366407394409
0.031554173678159714 0.0051622875034809113 0.68878096342086792
0.095138892531394958 0.011747786775231361 0.70604085922241211
0.24325288832187653 0.01851959154009819 0.71289479732513428
0.5021064281463623 0.018519802019000053 0.71338385343551636
0.76699113845825195 0.017477985471487045 0.72603857517242432
0.98654943704605103 0.025073841214179993 0.73648011684417725
0.014750775881111622 0.088641084730625153 0.70606189966201782
0.089633151888847351 0.099888518452644348 0.72344446182250977
0.18572548031806946 0.11345136910676956 0.73955470323562622
0.34480398893356323 0.12704595923423767 0.74458795785903931
0.57832998037338257 0.13693615794181824 0.74522155523300171
0.8071444034576416 0.14636024832725525 0.75785493850708008
0.99019604921340942 0.16566948592662811 0.7672615647315979
0.028393000364303589 0.24041862785816193 0.73770666122436523
0.14321118593215942 0.26019036769866943 0.74875366687774658
0.27911219000816345 0.28405171632766724 0.76170718669891357
0.45052298903465271 0.31086108088493347 0.77015054225921631
0.65104228258132935 0.33592447638511658 0.77702707052230835
0.83818751573562622 0.35804915428161621 0.78764826059341431
0.9886244535446167 0.3827521800994873 0.7967638373374939
0.034204460680484772 0.46676427125930786 0.77287006378173828
0.18793229758739471 0.49284815788269043 0.78139913082122803
0.36341375112533569 0.52461981773376465 0.79047554731369019
0.55517655611038208 0.55732375383377075 0.80038440227508545
0.7260134220123291 0.58851605653762817 0.81091129779815674
0.87336111068725586 0.61789143085479736 0.82146728038787842
0.99137341976165771 0.64718973636627197 0.8306700587272644
0.039989694952964783 0.7110830545425415 0.80466586351394653
0.2302631288766861 0.73331636190414429 0.81618714332580566
0.4531872570514679 0.75724941492080688 0.82465988397598267
0.67096567153930664 0.77728348970413208 0.83631855249404907
0.79997944831848145 0.80219221115112305 0.84883671998977661
0.91264629364013672 0.82142525911331177 0.85845887660980225
0.99574387073516846 0.84388065338134766 0.86763107776641846
0.043933194130659103 0.88829153776168823 0.83686619997024536
0.27052506804466248 0.90231955051422119 0.85047870874404907
0.52889400720596313 0.91487729549407959 0.85831838846206665
0.77438259124755859 0.9241945743560791 0.8709825873374939
0.87287729978561401 0.93874847888946533 0.88016021251678467
0.94912570714950562 0.94427871704101562 0.88976335525512695
0.99773430824279785 0.95739609003067017 0.90029942989349365
0.056251045316457748 0.99592709541320801 0.87064677476882935
0.31313103437423706 0.99825513362884521 0.88471275568008423
0.59694403409957886 0.99670392274856567 0.89616990089416504
0.8858029842376709 0.99672806262969971 0.90759962797164917
0.9483264684677124 0.99927401542663574 0.91659390926361084
0.9876478910446167 0.99773675203323364 0.9278373122215271
1 0.99964743852615356 0.93435132503509521
0 0.00061394186923280358 0.90265125036239624
0.025062724947929382 0.0039416742511093616 0.92270344495773315
0.095687359571456909 0.012694744393229485 0.93665671348571777
0.23829427361488342 0.022404016926884651 0.94234770536422729
0.49197807908058167 0.019454328343272209 0.93595653772354126
0.76015383005142212 0.018643204122781754 0.9386710524559021
0.98558259010314941 0.027982210740447044 0.94246876239776611
0.016577493399381638 0.091791920363903046 0.93848371505737305
0.092565678060054779 0.10562767833471298 0.9445691704750061
0.19001829624176025 0.12162233144044876 0.94762033224105835
0.34979286789894104 0.13494877517223358 0.9446069598197937
0.57512056827545166 0.14523740112781525 0.94098913669586182
0.80327433347702026 0.15304090082645416 0.94307959079742432
0.9885372519493103 0.17175498604774475 0.94397658109664917
0.03011932410299778 0.24700450897216797 0.94289767742156982
0.1487952321767807 0.26928865909576416 0.94507682323455811
0.28660720586776733 0.29374030232429504 0.94324171543121338
0.46089643239974976 0.32177761197090149 0.93987941741943359
0.65829318761825562 0.34649777412414551 0.9402090311050415
0.84075641632080078 0.36775189638137817 0.94138580560684204
0.98847097158432007 0.39861008524894714 0.9407227635383606
0.034387744963169098 0.47547787427902222 0.94156759977340698
0.19297666847705841 0.50133872032165527 0.94280445575714111
0.37104567885398865 0.53531241416931152 0.94257694482803345
0.56516033411026001 0.57245028018951416 0.94207394123077393
0.73576980829238892 0.60181450843811035 0.94170302152633667
0.87691426277160645 0.63035774230957031 0.94193017482757568
0.99144876003265381 0.67078608274459839 0.94237440824508667
0.041097797453403473 0.72042274475097656 0.94252610206604004
0.23469154536724091 0.73968499898910522 0.94334191083908081
0.46004262566566467 0.76665455102920532 0.94318163394927979
0.68242758512496948 0.78868186473846436 0.94383716583251953
0.81148087978363037 0.8106381893157959 0.94431477785110474
0.91556048393249512 0.83012545108795166 0.94552624225616455
0.99612307548522949 0.85341340303421021 0.94789314270019531
0.043823614716529846 0.88904958963394165 0.94133949279785156
0.27644181251525879 0.90549945831298828 0.94492191076278687
0.53413188457489014 0.92179977893829346 0.94386905431747437
0.78053337335586548 0.93025487661361694 0.9419625997543335
0.88271558284759521 0.94271337985992432 0.94276672601699829
0.95128822326660156 0.95051455497741699 0.94439458847045898
0.99759942293167114 0.96596741676330566 0.94574391841888428
0.054218605160713196 0.994251549243927 0.94465833902359009
0.3250175416469574 0.99819272756576538 0.95137685537338257
0.62702733278274536 0.9984399676322937 0.95008671283721924
0.89953786134719849 0.99689596891403198 0.94541352987289429
0.96182513236999512 0.999847412109375 0.94984573125839233
0.98503261804580688 0.99931138753890991 0.95070433616638184
0.9984012246131897 0.99891811609268188 0.9462849497795105
