assets/lut/alexjordan cross process cp 15.cube
# Created by: G'MIC (https://gmic.eu)
TITLE "cross_process_cp_15"
# LUT size
LUT_3D_SIZE 7
# Data domain
DOMAIN_MIN 0.0 0.0 0.0
DOMAIN_MAX 1.0 1.0 1.0
# LUT data points
0 0.0015318627702072263 0.0028644038829952478
0.0063512613996863365 0.0033708459232002497 0.00085372925968840718
0.070264168083667755 0.00032911114976741374 0
0.20907455682754517 0 0
0.46402356028556824 0.00015266268746927381 0.00047121234820224345
0.8506472110748291 0.00036327884299680591 0.0012730318121612072
1 0 0
0 0.026378033682703972 0.00017972459318116307
0.0054546878673136234 0.031510788947343826 0.001245595864020288
0.069678530097007751 0.028928987681865692 0.00017197552369907498
0.21710583567619324 0.017103981226682663 0
0.48344939947128296 0.0011900957906618714 0.0019140206277370453
0.87446719408035278 0 0.0033580854069441557
1 0 0
0 0.09325823187828064 0
0.0015419605188071728 0.10380901396274567 0
0.070795275270938873 0.10667404532432556 0
0.23175950348377228 0.092368483543395996 0
0.50481045246124268 0.048198506236076355 4.6673943870700896e-05
0.89453059434890747 0.011795507743954659 0
1 0.0090279225260019302 0
0 0.19813196361064911 0
0.00012446385517250746 0.2210715264081955 0
0.063480019569396973 0.23778671026229858 0
0.23796637356281281 0.23183557391166687 0
0.52319061756134033 0.19281746447086334 0
0.90897518396377563 0.12815187871456146 0
1 0.10051175206899643 0
0 0.34990018606185913 0
6.6121421696152538e-05 0.38656681776046753 0.0001468284463044256
0.06003144383430481 0.41756337881088257 0
0.23526766896247864 0.42447808384895325 0
0.52480554580688477 0.40310913324356079 0
0.91385424137115479 0.3466680645942688 0
1 0.29124030470848083 0
0 0.57384151220321655 0
0 0.61492455005645752 7.0010915806051344e-05
0.051148403435945511 0.65295159816741943 0.00089380599092692137
0.23342493176460266 0.66842752695083618 0
0.53226548433303833 0.65820503234863281 0
0.93282955884933472 0.61329978704452515 0
1 0.54997813701629639 0
0 0.85168594121932983 0
0 0.89389204978942871 0
0.053832214325666428 0.93374073505401611 0.00099551631137728691
0.24382522702217102 0.95278561115264893 0
0.53171348571777344 0.95688015222549438 0
0.92312830686569214 0.94053125381469727 0
1 0.88423240184783936 0
0 0.0046554715372622013 0.027011482045054436
0.0041980370879173279 0.0011604159371927381 0.026344822719693184
0.06660645455121994 0 0.016528051346540451
0.21053458750247955 0 0.0003334793436806649
0.47251152992248535 0.0038385728839784861 0
0.84950262308120728 0.0034528544638305902 0
1 0 0
0.00038992188638076186 0.028032040223479271 0.020129408687353134
0.0020220589358359575 0.034970734268426895 0.025123819708824158
0.069499373435974121 0.029446694999933243 0.022167325019836426
0.22384148836135864 0.013023316860198975 0.0096169868484139442
0.49121975898742676 0.0061997957527637482 6.2531114963348955e-05
0.88207900524139404 0.0010229970794171095 0.00010287715122103691
1 0 0
0 0.093086391687393188 0.0097879450768232346
0.0011066362494602799 0.10732116550207138 0.019287005066871643
0.07046942412853241 0.11122296005487442 0.022446261718869209
0.2386767566204071 0.095349706709384918 0.01467056293040514
0.51447600126266479 0.061946824193000793 0.0010781082091853023
0.89086461067199707 0.024389917030930519 0
1 0.0046154842711985111 0
0 0.20022252202033997 0.00093973195180296898
8.9757586465566419e-06 0.22585448622703552 0.0099178990349173546
0.063365131616592407 0.24421045184135437 0.016946576535701752
0.24186097085475922 0.23971335589885712 0.0098411859944462776
0.53041189908981323 0.20568343997001648 0.00020105698786210269
0.90871822834014893 0.14578279852867126 0
1 0.10135306417942047 0
0 0.35965657234191895 0
0 0.39554741978645325 0.0010743533493950963
0.056289192289113998 0.42704766988754272 0.0098127629607915878
0.23378141224384308 0.43453523516654968 0.007659493014216423
0.53911882638931274 0.41426905989646912 0.00091442035045474768
0.94307416677474976 0.36037686467170715 0
1 0.29817596077919006 0
0 0.58311939239501953 0
0 0.62715804576873779 0
0.04705435037612915 0.66593176126480103 0.0018130283569917083
0.23076881468296051 0.6804652214050293 0.0038002014625817537
0.53238850831985474 0.67232680320739746 0.0013384949415922165
0.9383278489112854 0.63427114486694336 0
1 0.5711483359336853 0
0 0.85915225744247437 0
0 0.90803676843643188 0
0.051394999027252197 0.94855266809463501 0
0.23620708286762238 0.96643805503845215 0.0021043217275291681
0.53337329626083374 0.97140210866928101 0.0011866551358252764
0.94632834196090698 0.95956164598464966 0
1 0.9050707221031189 0
0 0.0011016845237463713 0.085406690835952759
0.0047133499756455421 0.00045357499038800597 0.08304673433303833
0.06797955185174942 0 0.070773676037788391
0.21473382413387299 0 0.034181199967861176
0.47330644726753235 0.0020948373712599277 0.0009277044446207583
0.84579384326934814 0.0010579277295619249 0
1 0 0
0.0012446384644135833 0.027981553226709366 0.078400827944278717
0.0028803357854485512 0.033998765051364899 0.084501557052135468
0.070438295602798462 0.028865709900856018 0.083506517112255096
0.22919392585754395 0.011376488953828812 0.057788684964179993
0.4994264543056488 0.0051515614613890648 0.017425581812858582
0.88666778802871704 0 9.0056775661651045e-05
1 0 0
0.001820672769099474 0.092417709529399872 0.067173108458518982
0.004921632818877697 0.10791973024606705 0.080615237355232239
0.075109265744686127 0.11461781710386276 0.087670721113681793
0.2446562796831131 0.098505772650241852 0.074134588241577148
0.52158105373382568 0.064451880753040314 0.035023152828216553
0.89292299747467041 0.018251411616802216 0.00043191347504034638
1 0.0007003634818829596 0
0.00061531813116744161 0.20580632984638214 0.043566387146711349
0.0035233739763498306 0.23053133487701416 0.064047493040561676
0.074290253221988678 0.2493797093629837 0.080697230994701385
0.25092661380767822 0.24578149616718292 0.078740499913692474
0.53862011432647705 0.21525315940380096 0.047792665660381317
0.91111928224563599 0.15526315569877625 0.0060952277854084969
1 0.099633701145648956 0
0.00088310992578044534 0.37143626809120178 0.013142739422619343
0.0020682092290371656 0.40581545233726501 0.042414046823978424
0.066519074141979218 0.43644249439239502 0.06580767035484314
0.24001149833202362 0.44483128190040588 0.071787409484386444
0.54550230503082275 0.42626774311065674 0.056383378803730011
0.94999247789382935 0.37524223327636719 0.018250169232487679
1 0.30723050236701965 4.308364077587612e-05
0 0.59500640630722046 0.00087326648645102978
0.0002896477235481143 0.64047765731811523 0.018981350585818291
0.058771140873432159 0.68084061145782471 0.045692577958106995
0.23203785717487335 0.6974065899848938 0.060902256518602371
0.54411160945892334 0.68927162885665894 0.057358685880899429
0.96207410097122192 0.64932131767272949 0.030284402891993523
0.99977165460586548 0.58676958084106445 0.0028541116043925285
0 0.8720209002494812 0
0.00025434306007809937 0.92682826519012451 0.00063775753369554877
0.066373832523822784 0.96345412731170654 0.026304731145501137
0.24311849474906921 0.97741132974624634 0.051644492894411087
0.54813498258590698 0.9797368049621582 0.054945822805166245
0.96139556169509888 0.96802210807800293 0.03425930067896843
1 0.92142510414123535 0.023252539336681366
0 0 0.18391856551170349
0.0031900743488222361 0 0.17826840281486511
0.064206190407276154 0 0.16535091400146484
0.21291205286979675 0 0.1292395293712616
0.47166198492050171 4.6673944780195598e-06 0.075927510857582092
0.83635014295578003 0.00055736466310918331 0.010141933336853981
1 0 0
0 0.026237607002258301 0.17414849996566772
0.0020758835598826408 0.031693819910287857 0.18080586194992065
0.064955227077007294 0.026971794664859772 0.18020841479301453
0.22467456758022308 0.014700332656502724 0.1540936678647995
0.50226163864135742 0.0059288023039698601 0.10565083473920822
0.88033956289291382 0 0.041679471731185913
1 0 0.00028462128830142319
0 0.095395304262638092 0.16394376754760742
0.0035825991071760654 0.11041487008333206 0.17949526011943817
0.072151407599449158 0.11695205420255661 0.18893660604953766
0.24287213385105133 0.10354778915643692 0.1743634045124054
0.52951157093048096 0.070974446833133698 0.13155417144298553
0.91569763422012329 0.019759383052587509 0.066617287695407867
1 0 0.007104282733052969
0.00019661398255266249 0.20995412766933441 0.14257423579692841
0.0044315564446151257 0.23497471213340759 0.16630695760250092
0.075561076402664185 0.25363516807556152 0.18626542389392853
0.25266367197036743 0.25061452388763428 0.18683537840843201
0.54675477743148804 0.22205424308776855 0.15712137520313263
0.93923485279083252 0.16618967056274414 0.099943570792675018
1 0.088450275361537933 0.031726192682981491
0.0016824011690914631 0.37559247016906738 0.11449408531188965
0.0062187793664634228 0.41195091605186462 0.14537107944488525
0.074484638869762421 0.44317352771759033 0.17298649251461029
0.25183254480361938 0.45046800374984741 0.18577021360397339
0.55672562122344971 0.433208167552948 0.17308461666107178
0.9449838399887085 0.38730767369270325 0.12731605768203735
1 0.31415560841560364 0.065735355019569397
0.00069485831772908568 0.60087043046951294 0.07758718729019165
0.006409364752471447 0.64892721176147461 0.11497663706541061
0.071240730583667755 0.69195771217346191 0.14947149157524109
0.24714483320713043 0.71013480424880981 0.17451445758342743
0.56368386745452881 0.7045474648475647 0.17726890742778778
0.96544694900512695 0.66764551401138306 0.14764848351478577
1 0.60480225086212158 0.094418667256832123
0 0.88220620155334473 0.03129119798541069
0.0079333437606692314 0.93753302097320557 0.075683191418647766
0.081664487719535828 0.97277122735977173 0.1245955228805542
0.26076552271842957 0.98585444688796997 0.16117705404758453
0.56876218318939209 0.98574554920196533 0.17448785901069641
0.9507896900177002 0.9678308367729187 0.15614332258701324
1 0.93339091539382935 0.12335749715566635
0 0 0.32734286785125732
0.00047973933396860957 0 0.31758275628089905
0.057153426110744476 0 0.30236116051673889
0.20707115530967712 0 0.26970577239990234
0.46364948153495789 0 0.21343229711055756
0.82385879755020142 0 0.13182368874549866
1 0 0.047176375985145569
0 0.015080515295267105 0.31583002209663391
7.8089098678901792e-05 0.023898644372820854 0.31982281804084778
0.056989587843418121 0.021863959729671478 0.31718936562538147
0.22094477713108063 0.0080463336780667305 0.29520192742347717
0.50180929899215698 0.0036859998945146799 0.24941585958003998
0.88499128818511963 0.0014938503736630082 0.17453518509864807
1 0 0.087761372327804565
0 0.092251300811767578 0.30337315797805786
0.00084921147208660841 0.10740175098180771 0.32018300890922546
0.067161187529563904 0.11334098130464554 0.32904955744743347
0.24214354157447815 0.10267624258995056 0.31513199210166931
0.52943331003189087 0.071302838623523712 0.27855905890464783
0.91235160827636719 0.02393869124352932 0.21254256367683411
1 0 0.12437645345926285
0 0.20978860557079315 0.28642594814300537
0.0020313935820013285 0.23603084683418274 0.31207850575447083
0.072841346263885498 0.2543337345123291 0.33194208145141602
0.25480946898460388 0.25269356369972229 0.3311057984828949
0.55325591564178467 0.22558225691318512 0.30539777874946594
0.94390863180160522 0.16626761853694916 0.25027391314506531
1 0.086304955184459686 0.16591794788837433
0 0.37785571813583374 0.26356858015060425
0.0044793970882892609 0.41735196113586426 0.29441636800765991
0.075160712003707886 0.44752451777458191 0.32471743226051331
0.26024618744850159 0.45228824019432068 0.33838698267936707
0.56988948583602905 0.43755036592483521 0.32496392726898193
0.96739381551742554 0.39734435081481934 0.28067010641098022
1 0.32214710116386414 0.21143215894699097
0 0.60806113481521606 0.22543928027153015
0.0028772989753633738 0.66028791666030884 0.26357415318489075
0.074495606124401093 0.70123922824859619 0.30570882558822632
0.26608246564865112 0.71741998195648193 0.3327106237411499
0.57902383804321289 0.71849852800369263 0.3327583372592926
0.96415913105010986 0.67956537008285522 0.3027702271938324
0.99997824430465698 0.62105727195739746 0.24475260078907013
0 0.8923264741897583 0.18435423076152802
0.0044607422314584255 0.94891947507858276 0.23100289702415466
0.085525929927825928 0.98071962594985962 0.28431305289268494
0.27853533625602722 0.99228197336196899 0.32179608941078186
0.58924406766891479 0.99586528539657593 0.33231717348098755
0.96775549650192261 0.97744226455688477 0.31315022706985474
1 0.95809429883956909 0.27267840504646301
0 0 0.51059949398040771
3.8894954741408583e-06 0 0.5017927885055542
0.049929134547710419 0 0.48682659864425659
0.19954909384250641 0 0.45487254858016968
0.45633810758590698 0 0.39878082275390625
0.82755124568939209 0.0016662896377965808 0.31154882907867432
1 0 0.22401201725006104
0 0.003854474751278758 0.50186574459075928
0 0.0099870124831795692 0.50785940885543823
0.044132277369499207 0.010979012586176395 0.50608426332473755
0.20835575461387634 0.0047770929522812366 0.48355311155319214
0.49393999576568604 0.00029859357164241374 0.43620407581329346
0.888133704662323 0.00081000232603400946 0.35877746343612671
1 0 0.26928222179412842
0 0.083907030522823334 0.48787713050842285
0.00020105698786210269 0.099672041833400726 0.50867342948913574
0.060433853417634964 0.10582072287797928 0.51858150959014893
0.23578795790672302 0.094981171190738678 0.50494873523712158
0.52354860305786133 0.060492228716611862 0.46803730726242065
0.90619492530822754 0.012993352487683296 0.40224632620811462
1 0.0022647632285952568 0.31751438975334167
0 0.20579381287097931 0.47288066148757935
0.0025862748734652996 0.23199962079524994 0.50217539072036743
0.072189643979072571 0.25075876712799072 0.52324903011322021
0.25703716278076172 0.25202775001525879 0.52038949728012085
0.54784303903579712 0.22845476865768433 0.49354520440101624
0.93283754587173462 0.17368714511394501 0.43950611352920532
1 0.11551950126886368 0.36382150650024414
0 0.37682837247848511 0.45419394969940186
0.0039475234225392342 0.41815862059593201 0.488475501537323
0.070071078836917877 0.44803905487060547 0.52238917350769043
0.2533562183380127 0.45651277899742126 0.53361499309539795
0.56510597467422485 0.44665148854255676 0.51724469661712646
0.95380634069442749 0.40429785847663879 0.47270086407661438
0.99976098537445068 0.33879882097244263 0.40611034631729126
0 0.61184072494506836 0.42679262161254883
0.00016276042151730508 0.66586482524871826 0.46733316779136658
0.06363021582365036 0.70677435398101807 0.51206183433532715
0.26053178310394287 0.72382092475891113 0.53477466106414795
0.58758187294006348 0.72609949111938477 0.53068315982818604
0.9672170877456665 0.69039797782897949 0.49785742163658142
0.98855936527252197 0.63505357503890991 0.44205862283706665
0 0.89983832836151123 0.40296778082847595
0.00039283902151510119 0.95613551139831543 0.44568350911140442
0.077541440725326538 0.98553425073623657 0.49614959955215454
0.28209623694419861 0.9949001669883728 0.52950280904769897
0.60641837120056152 0.99744534492492676 0.53781914710998535
0.97675985097885132 0.98457211256027222 0.51614785194396973
0.99887186288833618 0.97319859266281128 0.47174316644668579
0 0 0.72001785039901733
0.0037393607199192047 0 0.71391814947128296
0.062373802065849304 0 0.70012450218200684
0.21295103430747986 0 0.66818070411682129
0.46035119891166687 0 0.6159476637840271
0.81378430128097534 0 0.53660213947296143
1 0 0.44820383191108704
0 0.0010524076642468572 0.71856898069381714
0 0.0042071472853422165 0.72704029083251953
0.044656373560428619 0.0062500000931322575 0.7268102765083313
0.21075519919395447 0.0047861584462225437 0.70275074243545532
0.48787909746170044 0.00079965032637119293 0.655406653881073
0.85755133628845215 0 0.58004695177078247
1 0.0007893730653449893 0.49439501762390137
0 0.081549793481826782 0.70968407392501831
0.0013856027508154511 0.095903478562831879 0.73107403516769409
0.062510289251804352 0.10191183537244797 0.74169552326202393
0.23324082791805267 0.092607654631137848 0.72971081733703613
0.5158616304397583 0.062902741134166718 0.69522523880004883
0.89460295438766479 0.030670734122395515 0.62975376844406128
1 0.030975056812167168 0.54810476303100586
0 0.2075900137424469 0.69731086492538452
0.0060163312591612339 0.2298537939786911 0.7280697226524353
0.075466200709342957 0.24773238599300385 0.75025057792663574
0.25215590000152588 0.24827808141708374 0.75045144557952881
0.54707223176956177 0.22289593517780304 0.72912591695785522
0.94978022575378418 0.17934274673461914 0.67721372842788696
1 0.1538512259721756 0.6008109450340271
0.00035997279337607324 0.37752160429954529 0.68344718217849731
0.0027735242620110512 0.41446101665496826 0.72259145975112915
0.069063283503055573 0.44644603133201599 0.75684159994125366
0.25160527229309082 0.45955729484558105 0.76723569631576538
0.56611353158950806 0.44606754183769226 0.75503706932067871
0.9676012396812439 0.40736538171768188 0.71241313219070435
1 0.36490213871002197 0.64605385065078735
0 0.61503201723098755 0.66597205400466919
0 0.66327762603759766 0.71086502075195312
0.060435619205236435 0.70831388235092163 0.75454151630401611
0.25977116823196411 0.73109966516494751 0.7736322283744812
0.59170812368392944 0.72745788097381592 0.77095323801040649
0.96168363094329834 0.69555723667144775 0.74185514450073242
0.99845588207244873 0.64442497491836548 0.68740689754486084
0 0.9088243842124939 0.65048348903656006
0.0034807093907147646 0.95721721649169922 0.69350129365921021
0.082125477492809296 0.98789101839065552 0.74065732955932617
0.28617438673973083 0.99684625864028931 0.77100098133087158
0.60791343450546265 0.99855649471282959 0.7812228798866272
0.97745406627655029 0.99451440572738647 0.76704472303390503
1 0.97513651847839355 0.72061145305633545
