assets/lut/alexjordan faded retro 02.cube
# Created by: G'MIC (https://gmic.eu)
TITLE "faded_retro_02"
# LUT size
LUT_3D_SIZE 5
# Data domain
DOMAIN_MIN 0.0 0.0 0.0
DOMAIN_MAX 1.0 1.0 1.0
# LUT data points
0.12029555439949036 0.13421951234340668 0.02711467444896698
0.24855709075927734 0.1258736252784729 0.017652144655585289
0.49524196982383728 0.080475524067878723 0
0.6664460301399231 0.069562025368213654 0
0.75204753875732422 0.10093835741281509 0.004088966641575098
0.098861798644065857 0.24937619268894196 0.017422320321202278
0.2457108199596405 0.26268088817596436 0.01605040580034256
0.52612853050231934 0.25807633996009827 0.0065444046631455421
0.72663033008575439 0.28014615178108215 0.028946086764335632
0.82294940948486328 0.33241361379623413 0.098510250449180603
0.067332081496715546 0.51980865001678467 0.0002371395385125652
0.23972241580486298 0.55126821994781494 0.011351671069860458
0.51335710287094116 0.5501708984375 0.0040525547228753567
0.71978759765625 0.56726419925689697 0.022668756544589996
0.80703079700469971 0.6138451099395752 0.088612347841262817
0.11974732577800751 0.76556897163391113 0.051888260990381241
0.29446703195571899 0.78661197423934937 0.069994352757930756
0.54193252325057983 0.76558548212051392 0.044371720403432846
0.72616326808929443 0.75910317897796631 0.033697418868541718
0.79527741670608521 0.78273540735244751 0.062824532389640808
0.2180817723274231 0.90741574764251709 0.17485275864601135
0.37897086143493652 0.9060370922088623 0.18579846620559692
0.60316914319992065 0.8624834418296814 0.12221681326627731
0.76806968450546265 0.83543127775192261 0.080989941954612732
0.81814855337142944 0.84434455633163452 0.067138031125068665
0.12271410226821899 0.13213369250297546 0.20007449388504028
0.23796369135379791 0.11733416467905045 0.18006536364555359
0.486276775598526 0.075211726129055023 0.12954117357730865
0.66732311248779297 0.06673845648765564 0.12103362381458282
0.74085849523544312 0.10208050906658173 0.16329395771026611
0.10061032325029373 0.24947927892208099 0.16841365396976471
0.25137007236480713 0.26848173141479492 0.19790312647819519
0.53186672925949097 0.2647152841091156 0.1900770515203476
0.73786890506744385 0.28727048635482788 0.21509547531604767
0.82307583093643188 0.33995100855827332 0.29209497570991516
0.080540060997009277 0.52424168586730957 0.14127315580844879
0.25274872779846191 0.55471616983413696 0.19220566749572754
0.52650308609008789 0.56059777736663818 0.18943500518798828
0.72863852977752686 0.57958567142486572 0.20914269983768463
0.8089752197265625 0.61412882804870605 0.28473559021949768
0.13917918503284454 0.77200645208358765 0.22096417844295502
0.30475708842277527 0.78460121154785156 0.24840392172336578
0.54778259992599487 0.7656591534614563 0.2230074554681778
0.72518116235733032 0.75860244035720825 0.21818320453166962
0.78750962018966675 0.77111935615539551 0.25472214818000793
0.24654476344585419 0.90832054615020752 0.3630577027797699
0.39105284214019775 0.89725571870803833 0.35031014680862427
0.6011958122253418 0.85319596529006958 0.27746978402137756
0.75251561403274536 0.8235929012298584 0.24821919202804565
0.79362744092941284 0.8205946683883667 0.23897755146026611
0.105149045586586 0.11240147799253464 0.54541927576065063
0.23023676872253418 0.096984565258026123 0.52874088287353516
0.46855399012565613 0.060428932309150696 0.47995051741600037
0.65702158212661743 0.055909249931573868 0.47634473443031311
0.73681819438934326 0.094215482473373413 0.51425707340240479
0.087921515107154846 0.23917520046234131 0.52632814645767212
0.24276384711265564 0.26483592391014099 0.55197983980178833
0.51851397752761841 0.26243871450424194 0.54862445592880249
0.73370176553726196 0.28315988183021545 0.58064264059066772
0.82382553815841675 0.33585074543952942 0.64516746997833252
0.072283849120140076 0.51695841550827026 0.50449949502944946
0.242931067943573 0.55128663778305054 0.54683667421340942
0.51837998628616333 0.55601471662521362 0.54762560129165649
0.71909785270690918 0.57026153802871704 0.56398522853851318
0.79767119884490967 0.60337954759597778 0.60363757610321045
0.12552069127559662 0.76045054197311401 0.57841461896896362
0.28500363230705261 0.77363437414169312 0.59694468975067139
0.53304994106292725 0.75371050834655762 0.56553727388381958
0.70877540111541748 0.74377691745758057 0.55448490381240845
0.76537883281707764 0.75342530012130737 0.56748390197753906
0.23149555921554565 0.88795042037963867 0.70470315217971802
0.36220133304595947 0.8760187029838562 0.68525457382202148
0.573081374168396 0.83071130514144897 0.61465966701507568
0.72566181421279907 0.80056494474411011 0.57105571031570435
0.76628226041793823 0.79375767707824707 0.5664982795715332
0.099179118871688843 0.082455530762672424 0.75904732942581177
0.23530346155166626 0.070487663149833679 0.74616503715515137
0.46818074584007263 0.048375222831964493 0.70997554063796997
0.65639334917068481 0.054640304297208786 0.72847598791122437
0.73376685380935669 0.097926042973995209 0.76985812187194824
0.084817998111248016 0.23526167869567871 0.77046436071395874
0.2475014328956604 0.26176086068153381 0.79731160402297974
0.52338171005249023 0.26443374156951904 0.79623258113861084
0.73926246166229248 0.28837543725967407 0.82758826017379761
0.82048362493515015 0.34686237573623657 0.86807918548583984
0.065607212483882904 0.52895790338516235 0.759208083152771
0.23696799576282501 0.55982255935668945 0.79607617855072021
0.5196688175201416 0.5567164421081543 0.7927403450012207
0.72503125667572021 0.56802034378051758 0.81132572889328003
0.79839789867401123 0.60128605365753174 0.83952790498733521
0.11702704429626465 0.76261794567108154 0.82814335823059082
0.27264523506164551 0.77488785982131958 0.84113031625747681
0.5253368616104126 0.74944233894348145 0.80624610185623169
0.70383572578430176 0.73713678121566772 0.78967535495758057
0.75284820795059204 0.74654912948608398 0.79536324739456177
0.21717731654644012 0.87904417514801025 0.93628227710723877
0.34237071871757507 0.8647160530090332 0.91161918640136719
0.55922728776931763 0.81478667259216309 0.84394592046737671
0.71197104454040527 0.78384768962860107 0.79749828577041626
0.74870902299880981 0.77673524618148804 0.79262250661849976
0.09594370424747467 0.096498183906078339 0.82736015319824219
0.21909114718437195 0.077317409217357635 0.80758613348007202
0.46945968270301819 0.059808842837810516 0.77227693796157837
0.66583174467086792 0.073872044682502747 0.82203036546707153
0.75429743528366089 0.11736946552991867 0.87682735919952393
0.095878809690475464 0.25216686725616455 0.8361886739730835
0.2495083212852478 0.28061014413833618 0.85572725534439087
0.52544659376144409 0.2871798574924469 0.85835784673690796
0.75379461050033569 0.30740398168563843 0.90560108423233032
0.83353042602539062 0.36566281318664551 0.96093589067459106
0.09092375636100769 0.54596543312072754 0.83224445581436157
0.26100265979766846 0.57057195901870728 0.86429286003112793
0.52815455198287964 0.56883317232131958 0.85992652177810669
0.73378664255142212 0.57918184995651245 0.88099211454391479
0.80638426542282104 0.61256504058837891 0.91833961009979248
0.13548311591148376 0.76656711101531982 0.89173364639282227
0.29160246253013611 0.77863627672195435 0.90302997827529907
0.52609550952911377 0.75282543897628784 0.8710821270942688
0.70467305183410645 0.73749154806137085 0.84393996000289917
0.75713431835174561 0.74213933944702148 0.8581048846244812
0.21226002275943756 0.87356722354888916 0.99041467905044556
0.34600943326950073 0.86058646440505981 0.96308273077011108
0.54773163795471191 0.81802308559417725 0.90376174449920654
0.70925450325012207 0.78093022108078003 0.84988933801651001
0.74527597427368164 0.775798499584198 0.84304165840148926
