assets/lut/alexjordan retro magenta 01.cube
# Created by: G'MIC (https://gmic.eu)
TITLE "retro_magenta_01"
# LUT size
LUT_3D_SIZE 13
# Data domain
DOMAIN_MIN 0.0 0.0 0.0
DOMAIN_MAX 1.0 1.0 1.0
# LUT data points
0.13604962825775146 0.092339277267456055 0.092627488076686859
0.18227104842662811 0.099085547029972076 0.099345169961452484
0.22729218006134033 0.10461192578077316 0.1046023964881897
0.27329909801483154 0.11040446162223816 0.11005557328462601
0.32308849692344666 0.11525642871856689 0.11529532074928284
0.37711486220359802 0.11928902566432953 0.11922095715999603
0.43390172719955444 0.12306219339370728 0.12243131548166275
0.49213850498199463 0.12648628652095795 0.12515315413475037
0.55141258239746094 0.12954086065292358 0.12755255401134491
0.61118125915527344 0.13207328319549561 0.12954273819923401
0.67112088203430176 0.13446082174777985 0.13163939118385315
0.73035305738449097 0.13623011112213135 0.1340329647064209
0.78780925273895264 0.13729389011859894 0.13700489699840546
0.16053539514541626 0.15187802910804749 0.10415839403867722
0.20591863989830017 0.15847007930278778 0.10944052040576935
0.2519974410533905 0.16401667892932892 0.1130785197019577
0.29926350712776184 0.16897620260715485 0.1175689697265625
0.34796428680419922 0.17448563873767853 0.12241583317518234
0.39905396103858948 0.1802167147397995 0.12703761458396912
0.45275980234146118 0.18508222699165344 0.1308920830488205
0.50884592533111572 0.18953487277030945 0.13405460119247437
0.56618213653564453 0.19318981468677521 0.13672761619091034
0.624622642993927 0.19644762575626373 0.13919901847839355
0.68326503038406372 0.19934053719043732 0.14171460270881653
0.74120610952377319 0.20160993933677673 0.14487642049789429
0.7976607084274292 0.20346769690513611 0.14849090576171875
0.17208966612815857 0.21661056578159332 0.10521035641431808
0.22098912298679352 0.22184799611568451 0.11116863787174225
0.26984354853630066 0.22611899673938751 0.11595255881547928
0.31949955224990845 0.23039974272251129 0.12082226574420929
0.36848139762878418 0.23600400984287262 0.12637051939964294
0.41784217953681946 0.24223649501800537 0.13167797029018402
0.46962893009185791 0.24789494276046753 0.13631829619407654
0.52361440658569336 0.25256875157356262 0.14020507037639618
0.57944309711456299 0.25673103332519531 0.14357133209705353
0.63616698980331421 0.26036185026168823 0.14674185216426849
0.69330430030822754 0.26361915469169617 0.14993225038051605
0.75003015995025635 0.26661005616188049 0.15375496447086334
0.80563271045684814 0.2689686119556427 0.15832908451557159
0.17837297916412354 0.28345778584480286 0.10420394688844681
0.23008136451244354 0.28774863481521606 0.11121246963739395
0.28134673833847046 0.29126664996147156 0.11740198731422424
0.33244490623474121 0.29523280262947083 0.12351514399051666
0.38226574659347534 0.30029839277267456 0.1295279860496521
0.43201029300689697 0.30590558052062988 0.13532297313213348
0.4830411970615387 0.31155440211296082 0.1404300183057785
0.53615772724151611 0.31620442867279053 0.14490634202957153
0.59056448936462402 0.32032960653305054 0.14876689016819
0.64605748653411865 0.32421517372131348 0.15250930190086365
0.70188266038894653 0.32784831523895264 0.15659694373607635
0.75741368532180786 0.33128291368484497 0.16122770309448242
0.81232577562332153 0.33413931727409363 0.16703574359416962
0.18473765254020691 0.34982240200042725 0.1067792996764183
0.23731912672519684 0.35383185744285583 0.11354599148035049
0.28955039381980896 0.35749635100364685 0.12027593702077866
0.34116247296333313 0.36126846075057983 0.12684370577335358
0.39193916320800781 0.36578112840652466 0.13323912024497986
0.44237712025642395 0.37082728743553162 0.13920018076896667
0.49361717700958252 0.37576869130134583 0.14451698958873749
0.54618006944656372 0.38013622164726257 0.1489504873752594
0.59983551502227783 0.38418787717819214 0.1530252993106842
0.65433961153030396 0.38814172148704529 0.15734435617923737
0.70913863182067871 0.39212971925735474 0.16207084059715271
0.76381301879882812 0.39598765969276428 0.16763733327388763
0.81805431842803955 0.39931336045265198 0.17460072040557861
0.191412553191185 0.41574260592460632 0.11168617010116577
0.24431352317333221 0.41998463869094849 0.11810920387506485
0.29668036103248596 0.42357483506202698 0.12475717812776566
0.34839606285095215 0.42725679278373718 0.1314271092414856
0.39946743845939636 0.43159586191177368 0.1379239559173584
0.45044949650764465 0.43580412864685059 0.14381080865859985
0.50187903642654419 0.4402046799659729 0.1489982008934021
0.55419963598251343 0.44422441720962524 0.15314081311225891
0.60761815309524536 0.44835132360458374 0.15711778402328491
0.66149991750717163 0.45254284143447876 0.16144132614135742
0.71547693014144897 0.4568193256855011 0.16671271622180939
0.76953756809234619 0.46094441413879395 0.17332398891448975
0.82314825057983398 0.46476292610168457 0.18171823024749756
0.19834037125110626 0.48134234547615051 0.11783734709024429
0.25135806202888489 0.48560211062431335 0.12392845749855042
0.30354243516921997 0.48944216966629028 0.13019397854804993
0.35509961843490601 0.4930976927280426 0.13672207295894623
0.40630146861076355 0.4967745840549469 0.14316730201244354
0.45740354061126709 0.50078397989273071 0.14900073409080505
0.50889128446578979 0.50468474626541138 0.15382535755634308
0.56118768453598022 0.50872206687927246 0.15746162831783295
0.6142953634262085 0.51289349794387817 0.16085536777973175
0.66781938076019287 0.51737338304519653 0.16519932448863983
0.72132915258407593 0.52201622724533081 0.17097814381122589
0.77477574348449707 0.52639269828796387 0.17878644168376923
0.82791727781295776 0.53040820360183716 0.18896733224391937
0.2056547999382019 0.54672402143478394 0.12435853481292725
0.25864839553833008 0.55103904008865356 0.13059759140014648
0.31083780527114868 0.55484718084335327 0.13633695244789124
0.36225318908691406 0.55848270654678345 0.14243943989276886
0.41309630870819092 0.56218022108078003 0.14872181415557861
0.46414363384246826 0.56569778919219971 0.15426903963088989
0.51555943489074707 0.56956058740615845 0.15853734314441681
0.56788456439971924 0.57373553514480591 0.16127647459506989
0.62074798345565796 0.5781521201133728 0.16427245736122131
0.67383468151092529 0.58270317316055298 0.16892582178115845
0.7268754243850708 0.58748650550842285 0.17588937282562256
0.77976876497268677 0.59210711717605591 0.18535412847995758
0.83242452144622803 0.59611058235168457 0.19759699702262878
0.21327678859233856 0.61183232069015503 0.13158796727657318
0.26633104681968689 0.61620509624481201 0.13740426301956177
0.31843960285186768 0.62013286352157593 0.14294250309467316
0.3697763979434967 0.62389421463012695 0.14858116209506989
0.42061701416969299 0.6272847056388855 0.15383851528167725
0.47147157788276672 0.63091874122619629 0.15869107842445374
0.52274930477142334 0.63477903604507446 0.16202664375305176
0.57484006881713867 0.63911896944046021 0.16430877149105072
0.6274757981300354 0.64364564418792725 0.16745306551456451
0.68007653951644897 0.6483502984046936 0.17350685596466064
0.73262035846710205 0.65318787097930908 0.18278224766254425
0.78499138355255127 0.65773022174835205 0.1950688511133194
0.83725869655609131 0.66163384914398193 0.21039757132530212
0.22110861539840698 0.67680543661117554 0.13944356143474579
0.27427548170089722 0.68122541904449463 0.14506548643112183
0.32652261853218079 0.68529236316680908 0.15017203986644745
0.37788134813308716 0.68906271457672119 0.15486721694469452
0.42884519696235657 0.69269692897796631 0.15908969938755035
0.47971722483634949 0.69654375314712524 0.16257451474666595
0.53086948394775391 0.70040404796600342 0.16483555734157562
0.58279639482498169 0.70480716228485107 0.16710416972637177
0.63485193252563477 0.70936673879623413 0.17192752659320831
0.68705713748931885 0.71390962600708008 0.18124277889728546
0.73892736434936523 0.71843612194061279 0.1948225349187851
0.79065912961959839 0.72271156311035156 0.21155956387519836
0.84268170595169067 0.72645556926727295 0.23067796230316162
0.22888913750648499 0.74147677421569824 0.14861546456813812
0.28243282437324524 0.74608594179153442 0.15423575043678284
0.33476772904396057 0.75028765201568604 0.15889814496040344
0.38638544082641602 0.75417548418045044 0.16278949379920959
0.43745452165603638 0.75806319713592529 0.16612903773784637
0.48848098516464233 0.7620246410369873 0.16851940751075745
0.53978389501571655 0.76601892709732056 0.17035026848316193
0.59133481979370117 0.77036195993423462 0.17294059693813324
0.64304941892623901 0.77475893497467041 0.17996843159198761
0.69465798139572144 0.77897298336029053 0.1945631355047226
0.74608081579208374 0.78280216455459595 0.21531075239181519
0.79745721817016602 0.7864677906036377 0.23879842460155487
0.84903502464294434 0.7896314263343811 0.26291090250015259
0.23640410602092743 0.80606245994567871 0.15874502062797546
0.29031780362129211 0.81064820289611816 0.16453547775745392
0.34298557043075562 0.81491315364837646 0.16926795244216919
0.39478826522827148 0.81898874044418335 0.17334647476673126
0.44625350832939148 0.82296532392501831 0.17672598361968994
0.49753007292747498 0.82689142227172852 0.17923863232135773
0.54893398284912109 0.83107006549835205 0.18184536695480347
0.60036861896514893 0.83527976274490356 0.1859317272901535
0.65184217691421509 0.83936268091201782 0.19551765918731689
0.70308434963226318 0.84285897016525269 0.2167617529630661
0.75415438413619995 0.846091628074646 0.2461174875497818
0.80516493320465088 0.84871542453765869 0.27748557925224304
0.85652047395706177 0.85123789310455322 0.30695432424545288
0.24311754107475281 0.87026280164718628 0.17086206376552582
0.29755565524101257 0.87492799758911133 0.17710760235786438
0.35067018866539001 0.87930363416671753 0.18241804838180542
0.4030669629573822 0.88338643312454224 0.18723732233047485
0.45483529567718506 0.88738328218460083 0.19155755639076233
0.50642037391662598 0.8913421630859375 0.19620333611965179
0.55790024995803833 0.89526331424713135 0.201420858502388
0.60941934585571289 0.89918172359466553 0.20931911468505859
0.66077965497970581 0.90266788005828857 0.22415785491466522
0.71185570955276489 0.90549761056900024 0.25045290589332581
0.76287966966629028 0.90792447328567505 0.28504693508148193
0.81374382972717285 0.90990155935287476 0.32208395004272461
0.86484026908874512 0.91178280115127563 0.35545948147773743
0.13915282487869263 0.094357118010520935 0.12768259644508362
0.18790379166603088 0.099559515714645386 0.13856010138988495
0.23618656396865845 0.1038316935300827 0.14687806367874146
0.28493860363960266 0.10824396461248398 0.15500007569789886
0.33478221297264099 0.11320596188306808 0.16270211338996887
0.38720780611038208 0.11814901232719421 0.16924941539764404
0.44214564561843872 0.12244473397731781 0.17467518150806427
0.49900364875793457 0.12652420997619629 0.17869941890239716
0.55715525150299072 0.13003638386726379 0.18201440572738647
0.61614364385604858 0.13305090367794037 0.18462523818016052
0.67521780729293823 0.13566559553146362 0.1871487945318222
0.73364710807800293 0.13791526854038239 0.18977601826190948
0.79045182466506958 0.13955987989902496 0.19292491674423218
0.16446124017238617 0.15207758545875549 0.15075720846652985
0.21123127639293671 0.15835219621658325 0.15517812967300415
0.25976952910423279 0.16276852786540985 0.15930429100990295
0.30989533662796021 0.16651424765586853 0.16477790474891663
0.35856175422668457 0.17244835197925568 0.17153911292552948
0.40809077024459839 0.17896477878093719 0.17827162146568298
0.46020346879959106 0.18479849398136139 0.18355172872543335
0.51495665311813354 0.18957279622554779 0.18795597553253174
0.57155543565750122 0.19350932538509369 0.19143100082874298
0.62902599573135376 0.19711603224277496 0.19425159692764282
0.68685531616210938 0.20025798678398132 0.19722448289394379
0.74424684047698975 0.20312066376209259 0.20022560656070709
0.80028313398361206 0.20529948174953461 0.20398575067520142
0.17629875242710114 0.21633461117744446 0.15907588601112366
0.22507937252521515 0.22179627418518066 0.16185672581195831
0.27618885040283203 0.22533994913101196 0.16573180258274078
0.32810026407241821 0.2283913791179657 0.17070116102695465
0.37699416279792786 0.23445355892181396 0.17715601623058319
0.42531478404998779 0.24144119024276733 0.18380402028560638
0.47587430477142334 0.24785274267196655 0.18969862163066864
0.52905881404876709 0.25271013379096985 0.19430717825889587
0.58395665884017944 0.25702685117721558 0.19830755889415741
0.6401437520980835 0.26078310608863831 0.20174464583396912
0.69663387537002563 0.26439011096954346 0.20518073439598083
0.75286084413528442 0.26772275567054749 0.20896756649017334
0.80821245908737183 0.27058488130569458 0.21343937516212463
0.18231837451457977 0.28325805068016052 0.16106316447257996
0.2334645688533783 0.28772589564323425 0.16523221135139465
0.28595861792564392 0.29096519947052002 0.17014697194099426
0.33820036053657532 0.29464831948280334 0.17583994567394257
0.38849318027496338 0.29984280467033386 0.18222549557685852
0.43779727816581726 0.30605208873748779 0.18853966891765594
0.48822218179702759 0.31185811758041382 0.19433416426181793
0.54054325819015503 0.31655740737915039 0.19935783743858337
0.59443753957748413 0.32057482004165649 0.20373830199241638
0.64948052167892456 0.32443511486053467 0.20766280591487885
0.70485574007034302 0.32833215594291687 0.21169871091842651
0.7601161003112793 0.33225840330123901 0.21621045470237732
0.81469959020614624 0.33565565943717957 0.22156709432601929
0.18800689280033112 0.35014641284942627 0.16429165005683899
0.24029193818569183 0.35420647263526917 0.16951863467693329
0.29297634959220886 0.3576388955116272 0.17500118911266327
0.34528511762619019 0.36133334040641785 0.18109281361103058
0.39628583192825317 0.36610755324363708 0.1874067485332489
0.44663003087043762 0.37147989869117737 0.19357790052890778
0.49751761555671692 0.37633195519447327 0.19913181662559509
0.54966956377029419 0.38042986392974854 0.20413656532764435
0.60317820310592651 0.38424095511436462 0.20851221680641174
0.65743428468704224 0.3881012499332428 0.21268782019615173
0.7120048999786377 0.39254334568977356 0.21710877120494843
0.76636379957199097 0.39679783582687378 0.22229459881782532
0.82032781839370728 0.40069779753684998 0.22860217094421387
0.19427113234996796 0.41645321249961853 0.16942216455936432
0.24684114754199982 0.42049053311347961 0.17468224465847015
0.29935890436172485 0.42410010099411011 0.180874302983284
0.35144856572151184 0.42783790826797485 0.18694725632667542
0.40271267294883728 0.43197840452194214 0.19337612390518188
0.45355194807052612 0.43647968769073486 0.1995471864938736
0.50486618280410767 0.44067060947418213 0.20490606129169464
0.55721557140350342 0.44443234801292419 0.20937745273113251
0.61046499013900757 0.44815686345100403 0.21323366463184357
0.66417980194091797 0.45231276750564575 0.21713085472583771
0.71811246871948242 0.4570622444152832 0.221750408411026
0.7717704176902771 0.46180811524391174 0.22753292322158813
0.82530170679092407 0.46616002917289734 0.23477986454963684
0.20097120106220245 0.48225834965705872 0.17570674419403076
0.25369894504547119 0.48639166355133057 0.18102015554904938
0.30596986413002014 0.49004212021827698 0.18733915686607361
0.35779231786727905 0.49359980225563049 0.19376365840435028
0.40882202982902527 0.49735388159751892 0.20017960667610168
0.45979887247085571 0.50116348266601562 0.20644278824329376
0.51127713918685913 0.50494033098220825 0.21134839951992035
0.56365776062011719 0.50865632295608521 0.21489103138446808
0.61681288480758667 0.51270872354507446 0.21775998175144196
0.67015677690505981 0.51721274852752686 0.22120741009712219
0.72355121374130249 0.52225017547607422 0.2257399708032608
0.77674007415771484 0.52732986211776733 0.23199878633022308
0.82972514629364014 0.53198498487472534 0.24043212831020355
0.20822630822658539 0.54773825407028198 0.18236441910266876
0.26100057363510132 0.55187761783599854 0.1882348507642746
0.31305667757987976 0.55559378862380981 0.19386018812656403
0.36438456177711487 0.55912333726882935 0.20021063089370728
0.41525599360466003 0.56242853403091431 0.20665402710437775
0.46605464816093445 0.56587553024291992 0.21308562159538269
0.51747614145278931 0.56948977708816528 0.21785131096839905
0.5698782205581665 0.57360410690307617 0.22020117938518524
0.62288784980773926 0.57785063982009888 0.22202634811401367
0.67600435018539429 0.58268803358078003 0.22506847977638245
0.72889667749404907 0.58796167373657227 0.22956272959709167
0.78153324127197266 0.5932995080947876 0.23653125762939453
0.8340800404548645 0.5981370210647583 0.24637594819068909
0.215899258852005 0.61303460597991943 0.18988305330276489
0.26872295141220093 0.61720776557922363 0.19550453126430511
0.3206121027469635 0.6209990382194519 0.20117537677288055
0.37185293436050415 0.62437742948532104 0.20672407746315002
0.42262399196624756 0.6277574896812439 0.21289354562759399
0.47315883636474609 0.63098752498626709 0.21868142485618591
0.52440500259399414 0.63477903604507446 0.22270491719245911
0.57672297954559326 0.63880038261413574 0.22412459552288055
0.62945085763931274 0.64353495836257935 0.22603309154510498
0.68211889266967773 0.64863604307174683 0.22951607406139374
0.73444342613220215 0.65401148796081543 0.2350085973739624
0.78645724058151245 0.6594662070274353 0.24285124242305756
0.8386380672454834 0.66424852609634399 0.25503242015838623
0.22376024723052979 0.67811977863311768 0.19794255495071411
0.27685901522636414 0.68234992027282715 0.20348829030990601
0.32877454161643982 0.68615067005157471 0.20863945782184601
0.38001582026481628 0.68970507383346558 0.21371276676654816
0.43076115846633911 0.693145751953125 0.21852597594261169
0.481606125831604 0.69655114412307739 0.22294358909130096
0.53276282548904419 0.70040404796600342 0.22601222991943359
0.58465838432312012 0.70468580722808838 0.22790876030921936
0.63681620359420776 0.70930606126785278 0.23113888502120972
0.68891304731369019 0.71435707807540894 0.23728333413600922
0.74055999517440796 0.71967077255249023 0.24563291668891907
0.79213422536849976 0.72509181499481201 0.25641581416130066
0.84380149841308594 0.72968655824661255 0.2712346613407135
0.23174315690994263 0.74297475814819336 0.20692981779575348
0.28510767221450806 0.74728703498840332 0.21234895288944244
0.33728644251823425 0.75123268365859985 0.21732713282108307
0.38866141438484192 0.75492048263549805 0.22175265848636627
0.43968656659126282 0.75842684507369995 0.22575552761554718
0.49063295125961304 0.76216870546340942 0.22903577983379364
0.54190051555633545 0.7660290002822876 0.23176650702953339
0.59344977140426636 0.77030473947525024 0.23483352363109589
0.64522081613540649 0.77477145195007324 0.24091391265392303
0.69674575328826904 0.77946633100509644 0.25185754895210266
0.74792200326919556 0.78412413597106934 0.26637753844261169
0.79891854524612427 0.78906464576721191 0.28278151154518127
0.85029929876327515 0.79315018653869629 0.30227133631706238
0.23938991129398346 0.80759555101394653 0.2171233743429184
0.29315215349197388 0.81203252077102661 0.22295285761356354
0.34573814272880554 0.8160707950592041 0.22791667282581329
0.39745327830314636 0.81987237930297852 0.23230999708175659
0.44883367419242859 0.82361763715744019 0.23633213341236115
0.50003832578659058 0.82740986347198486 0.23989537358283997
0.55134105682373047 0.83129501342773438 0.2435058206319809
0.6028328537940979 0.83527517318725586 0.24880295991897583
0.65417587757110596 0.83937698602676392 0.25910276174545288
0.70535409450531006 0.84339725971221924 0.27644413709640503
0.75633585453033447 0.84716230630874634 0.29943883419036865
0.80700498819351196 0.85099345445632935 0.32399001717567444
0.85809862613677979 0.85434943437576294 0.34861469268798828
0.24656243622303009 0.87183737754821777 0.22886508703231812
0.30082067847251892 0.87639498710632324 0.23517647385597229
0.35382670164108276 0.88051360845565796 0.24096137285232544
0.4060918390750885 0.88444226980209351 0.24608863890171051
0.4578385055065155 0.88817572593688965 0.25121769309043884
0.50943160057067871 0.89191991090774536 0.25657680630683899
0.56099444627761841 0.89565539360046387 0.26299983263015747
0.61253154277801514 0.89940929412841797 0.27234241366386414
0.66374915838241577 0.90282416343688965 0.28761970996856689
0.7147974967956543 0.90590858459472656 0.31121712923049927
0.76551347970962524 0.90901452302932739 0.34127131104469299
0.81629133224487305 0.91144657135009766 0.37301075458526611
0.86726921796798706 0.9140508770942688 0.40221592783927917
0.14211951196193695 0.096355944871902466 0.16718296706676483
0.19259721040725708 0.10081600397825241 0.17977650463581085
0.24284486472606659 0.10466735064983368 0.19075766205787659
0.293466717004776 0.10776355117559433 0.20155057311058044
0.34416571259498596 0.11216343939304352 0.21159002184867859
0.39573341608047485 0.11719900369644165 0.2204674631357193
0.44940915703773499 0.12209118157625198 0.22743245959281921
0.50488424301147461 0.12627236545085907 0.23284991085529327
0.56199741363525391 0.13017290830612183 0.23692354559898376
0.62005293369293213 0.13349878787994385 0.24022570252418518
0.67789256572723389 0.1364588588476181 0.24302111566066742
0.73538154363632202 0.13911691308021545 0.24597622454166412
0.79171836376190186 0.14106142520904541 0.24924746155738831
0.16461686789989471 0.15373674035072327 0.20030362904071808
0.2128974050283432 0.15972237288951874 0.20356017351150513
0.26346400380134583 0.16355092823505402 0.20853033661842346
0.31522673368453979 0.16694425046443939 0.215379998087883
0.36495769023895264 0.17229017615318298 0.2231457531452179
0.41455700993537903 0.17865343391895294 0.23080573976039886
0.46615487337112427 0.18461471796035767 0.23740933835506439
0.51990377902984619 0.18957085907459259 0.24252775311470032
0.57544940710067749 0.19363263249397278 0.2466212660074234
0.63211703300476074 0.19745130836963654 0.24998565018177032
0.68909347057342529 0.20097671449184418 0.25301766395568848
0.74576115608215332 0.20409572124481201 0.25632190704345703
0.80136072635650635 0.20666439831256866 0.26002427935600281
0.17615053057670593 0.21742673218250275 0.21444465219974518
0.22501146793365479 0.22311924397945404 0.21521468460559845
0.27776101231575012 0.22635941207408905 0.21884980797767639
0.33095183968544006 0.22949901223182678 0.22430236637592316
0.38095340132713318 0.2351967990398407 0.23102016746997833
0.42993590235710144 0.24193009734153748 0.23779268562793732
0.48037818074226379 0.24811139702796936 0.24413648247718811
0.53296834230422974 0.25307729840278625 0.24936608970165253
0.58734405040740967 0.25729560852050781 0.25375199317932129
0.64278513193130493 0.26117146015167236 0.25759732723236084
0.69867086410522461 0.26497262716293335 0.26115226745605469
0.75421416759490967 0.26861798763275146 0.26488101482391357
0.80926042795181274 0.27176740765571594 0.26909467577934265
0.18243762850761414 0.28408783674240112 0.21888534724712372
0.23340152204036713 0.2887512743473053 0.22183413803577423
0.28691157698631287 0.29197704792022705 0.22588522732257843
0.34021976590156555 0.29548954963684082 0.23118110001087189
0.39111828804016113 0.30089092254638672 0.23718312382698059
0.44085678458213806 0.30737283825874329 0.24331244826316833
0.4914887547492981 0.31292560696601868 0.24927809834480286
0.5436139702796936 0.31712761521339417 0.25477287173271179
0.59726583957672119 0.32081890106201172 0.25956127047538757
0.65187162160873413 0.32464885711669922 0.26372805237770081
0.70674794912338257 0.32878530025482178 0.26781222224235535
0.76149982213973999 0.33296376466751099 0.2720792293548584
0.81578058004379272 0.33675074577331543 0.27700331807136536
0.18843314051628113 0.3508780300617218 0.2229943573474884
0.24058370292186737 0.35506251454353333 0.22735902667045593
0.29371151328086853 0.35853031277656555 0.23214037716388702
0.34673434495925903 0.36239573359489441 0.23750607669353485
0.39835387468338013 0.367388516664505 0.24325142800807953
0.44885259866714478 0.37294012308120728 0.24903266131877899
0.4999825656414032 0.37766328454017639 0.25478231906890869
0.55217850208282471 0.38113099336624146 0.26011788845062256
0.60559552907943726 0.38431465625762939 0.26488551497459412
