assets/lut/alexjordan cross process cp 06.cube
# Created by: G'MIC (https://gmic.eu)
TITLE "cross_process_cp_6"
# LUT size
LUT_3D_SIZE 7
# Data domain
DOMAIN_MIN 0.0 0.0 0.0
DOMAIN_MAX 1.0 1.0 1.0
# LUT data points
0.023890268057584763 0.020288804545998573 0.035643842071294785
0.051879327744245529 0.03794403001666069 0.073266573250293732
0.098594292998313904 0.058254212141036987 0.11570779979228973
0.17417562007904053 0.08218161016702652 0.15390843152999878
0.27380263805389404 0.10124924778938293 0.1839580237865448
0.38540181517601013 0.11657042801380157 0.21045102179050446
0.49851864576339722 0.1280180811882019 0.23736792802810669
0.10454762727022171 0.1145465150475502 0.16662348806858063
0.15269412100315094 0.15024641156196594 0.21241351962089539
0.22519893944263458 0.1756700724363327 0.23889608681201935
0.32955333590507507 0.19327560067176819 0.25079536437988281
0.45016771554946899 0.20366916060447693 0.25048530101776123
0.55335813760757446 0.21116676926612854 0.23854516446590424
0.62397634983062744 0.2151343822479248 0.22986641526222229
0.15154346823692322 0.26561754941940308 0.24951855838298798
0.19459903240203857 0.2954973578453064 0.26063185930252075
0.26882809400558472 0.30228063464164734 0.24741686880588531
0.36960047483444214 0.30078253149986267 0.2235601395368576
0.48279961943626404 0.29515480995178223 0.20789451897144318
0.58875417709350586 0.29473116993904114 0.19782035052776337
0.6891409158706665 0.31129348278045654 0.21337141096591949
0.1189672127366066 0.37847831845283508 0.21739089488983154
0.16700205206871033 0.3957025408744812 0.21980012953281403
0.25760802626609802 0.40412706136703491 0.21708980202674866
0.39737492799758911 0.41780412197113037 0.22089748084545135
0.56168949604034424 0.45017078518867493 0.24785245954990387
0.70158439874649048 0.47975015640258789 0.27447047829627991
0.8244011402130127 0.52245712280273438 0.31330609321594238
0.1274576336145401 0.52222877740859985 0.22330868244171143
0.21879357099533081 0.57154148817062378 0.26679465174674988
0.34945416450500488 0.60885405540466309 0.30349463224411011
0.52317410707473755 0.64386069774627686 0.33668512105941772
0.69312125444412231 0.67766076326370239 0.36937955021858215
0.82476407289505005 0.70905542373657227 0.40226748585700989
0.92240697145462036 0.72604042291641235 0.42254972457885742
0.24592301249504089 0.75728070735931396 0.34929630160331726
0.34414604306221008 0.80351626873016357 0.39343738555908203
0.4726543128490448 0.8287472128868103 0.42625528573989868
0.6254044771194458 0.84110462665557861 0.44424736499786377
0.76333326101303101 0.84395098686218262 0.45290946960449219
0.8685077428817749 0.84999555349349976 0.4668700098991394
0.95323985815048218 0.85763311386108398 0.4802766740322113
0.34891131520271301 0.93622291088104248 0.44810235500335693
0.43279144167900085 0.95870155096054077 0.47385883331298828
0.53956633806228638 0.96537935733795166 0.48838266730308533
0.66953188180923462 0.96537041664123535 0.49508976936340332
0.78850096464157104 0.95726627111434937 0.49419024586677551
0.88812881708145142 0.96235191822052002 0.50565171241760254
0.97479021549224854 0.97309696674346924 0.52072691917419434
0.030757306143641472 0.023245165124535561 0.049660820513963699
0.067230954766273499 0.049348987638950348 0.097471706569194794
0.11316733062267303 0.070475108921527863 0.14071810245513916
0.19422836601734161 0.091857835650444031 0.18798346817493439
0.29872524738311768 0.10873626917600632 0.22575528919696808
0.41949567198753357 0.12343913316726685 0.26202768087387085
0.53262805938720703 0.13338615000247955 0.28661033511161804
0.11336786299943924 0.12547269463539124 0.20304346084594727
0.16164150834083557 0.16150562465190887 0.25226303935050964
0.23884756863117218 0.18870829045772552 0.28336688876152039
0.34988313913345337 0.20402669906616211 0.30278676748275757
0.46594002842903137 0.20894697308540344 0.29832082986831665
0.5595441460609436 0.21030241250991821 0.28542497754096985
0.64330410957336426 0.21559186279773712 0.2833351194858551
0.1510043740272522 0.26969724893569946 0.29114517569541931
0.19653041660785675 0.30295053124427795 0.30786162614822388
0.27085229754447937 0.30802595615386963 0.30037567019462585
0.3738272488117218 0.30097135901451111 0.2778068482875824
0.48689571022987366 0.29297491908073425 0.26137346029281616
0.59328663349151611 0.30103465914726257 0.26104557514190674
0.70460724830627441 0.3279685378074646 0.28383848071098328
0.11819542944431305 0.38071638345718384 0.26635822653770447
0.17114606499671936 0.40455231070518494 0.27639347314834595
0.2651582658290863 0.41442152857780457 0.28287175297737122
0.41277572512626648 0.43382832407951355 0.29461961984634399
0.57494020462036133 0.45880338549613953 0.31965151429176331
0.72288399934768677 0.49794870615005493 0.35658472776412964
0.84413778781890869 0.53868436813354492 0.3945782482624054
0.14253361523151398 0.5404093861579895 0.30007806420326233
0.22995671629905701 0.58667951822280884 0.34123453497886658
0.36263939738273621 0.62528157234191895 0.381207674741745
0.53980439901351929 0.66399884223937988 0.41852226853370667
0.70550668239593506 0.69035631418228149 0.44623222947120667
0.83609670400619507 0.71731531620025635 0.47572267055511475
0.93258917331695557 0.73954832553863525 0.49952167272567749
0.26212552189826965 0.77818506956100464 0.43210902810096741
0.35073858499526978 0.81237673759460449 0.4690392017364502
0.47721540927886963 0.83661848306655884 0.49921649694442749
0.63278526067733765 0.84992033243179321 0.51731818914413452
0.77256327867507935 0.85222560167312622 0.52504801750183105
0.87693333625793457 0.85704308748245239 0.53598117828369141
0.96115124225616455 0.86730730533599854 0.55012089014053345
0.35545492172241211 0.94546645879745483 0.5210195779800415
0.43340972065925598 0.95941269397735596 0.54181289672851562
0.53956431150436401 0.96669816970825195 0.55562913417816162
0.67279744148254395 0.96776235103607178 0.56187039613723755
0.79524415731430054 0.96148288249969482 0.56155902147293091
0.8938974142074585 0.96397912502288818 0.5688285231590271
0.97990459203720093 0.97626608610153198 0.58314913511276245
0.042425643652677536 0.032264381647109985 0.072417028248310089
0.077210396528244019 0.056681882590055466 0.12253791838884354
0.13186083734035492 0.079644240438938141 0.17481532692909241
0.21102097630500793 0.096118047833442688 0.22313204407691956
0.31671592593193054 0.11324920505285263 0.26518556475639343
0.44609391689300537 0.12818394601345062 0.3120596706867218
0.54602980613708496 0.13481982052326202 0.33274918794631958
0.12313991039991379 0.14027529954910278 0.2443440854549408
0.17289215326309204 0.17215725779533386 0.29861098527908325
0.24650493264198303 0.19334711134433746 0.33140426874160767
0.35214328765869141 0.20570577681064606 0.34552028775215149
0.47405341267585754 0.21396930515766144 0.34906044602394104
0.56393194198608398 0.21323768794536591 0.33682712912559509
0.64617687463760376 0.21250833570957184 0.33852514624595642
0.15842117369174957 0.28483313322067261 0.35099408030509949
0.19635845720767975 0.30627033114433289 0.35555627942085266
0.26440417766571045 0.30665168166160583 0.34606173634529114
0.3716464638710022 0.30389997363090515 0.3288179337978363
0.49335688352584839 0.2993369996547699 0.31908029317855835
0.60346722602844238 0.31008425354957581 0.32738426327705383
0.71530485153198242 0.33656933903694153 0.35539206862449646
0.12145543098449707 0.39210331439971924 0.32554110884666443
0.17710751295089722 0.41361361742019653 0.33867576718330383
0.27779027819633484 0.42908996343612671 0.35406345129013062
0.42752525210380554 0.44808045029640198 0.37102055549621582
0.5878569483757019 0.47318676114082336 0.39606812596321106
0.73571783304214478 0.51461517810821533 0.43807625770568848
0.85485762357711792 0.5532228946685791 0.47497695684432983
0.15419170260429382 0.55529838800430298 0.37622010707855225
0.25071054697036743 0.60839754343032837 0.42700657248497009
0.38615244626998901 0.64826709032058716 0.46901831030845642
0.55618607997894287 0.68010473251342773 0.5009501576423645
0.71461296081542969 0.70092016458511353 0.52368700504302979
0.84473997354507446 0.72787481546401978 0.55234324932098389
0.94202440977096558 0.75012338161468506 0.5756833553314209
0.27794495224952698 0.78902637958526611 0.5096811056137085
0.37235894799232483 0.83032190799713135 0.55329024791717529
0.49599328637123108 0.85221797227859497 0.58034044504165649
0.64055067300796509 0.85521894693374634 0.58881229162216187
0.7772669792175293 0.8562697172164917 0.59405535459518433
0.88399940729141235 0.86453485488891602 0.60511130094528198
0.96821266412734985 0.87729710340499878 0.61890619993209839
0.36628657579421997 0.95037221908569336 0.59141683578491211
0.44667926430702209 0.96639460325241089 0.61361706256866455
0.55305129289627075 0.97561788558959961 0.62725591659545898
0.67843985557556152 0.97049033641815186 0.62764161825180054
0.80011856555938721 0.9634130597114563 0.62588590383529663
0.89950907230377197 0.96827167272567749 0.63218772411346436
0.98396092653274536 0.98110055923461914 0.64522892236709595
0.048303462564945221 0.040843050926923752 0.093915782868862152
0.085244543850421906 0.065108232200145721 0.15023311972618103
0.14392369985580444 0.087025508284568787 0.21088869869709015
0.23105637729167938 0.10567121207714081 0.26695919036865234
0.33754748106002808 0.11969400942325592 0.31036588549613953
0.4702739417552948 0.13357512652873993 0.36197000741958618
0.58058029413223267 0.14208002388477325 0.39178180694580078
0.12961775064468384 0.15238510072231293 0.28983652591705322
0.1784815788269043 0.17966771125793457 0.34177330136299133
0.26268768310546875 0.21280623972415924 0.39213454723358154
0.36765816807746887 0.21818149089813232 0.40488472580909729
0.47851133346557617 0.21699339151382446 0.40099972486495972
0.57793313264846802 0.21602945029735565 0.39816206693649292
0.66466492414474487 0.21626806259155273 0.40157178044319153
0.15810360014438629 0.29098662734031677 0.40034642815589905
0.19555945694446564 0.30700677633285522 0.39702704548835754
0.26733729243278503 0.31421747803688049 0.39754584431648254
0.37635904550552368 0.30814647674560547 0.38692843914031982
0.50511205196380615 0.30772024393081665 0.39029628038406372
0.62359452247619629 0.32471552491188049 0.40394657850265503
0.73213857412338257 0.34362280368804932 0.42697754502296448
0.11978612840175629 0.3926854133605957 0.38153809309005737
0.17764467000961304 0.41261231899261475 0.39939969778060913
0.28687447309494019 0.43914437294006348 0.42456892132759094
0.44489991664886475 0.46667632460594177 0.45130446553230286
0.60528850555419922 0.49327701330184937 0.47943177819252014
0.75234711170196533 0.5358460545539856 0.52147489786148071
0.86751264333724976 0.5678820013999939 0.55414873361587524
0.16898304224014282 0.57493007183074951 0.45737990736961365
0.26577344536781311 0.62581455707550049 0.5082213282585144
0.40532508492469788 0.66751670837402344 0.55220156908035278
0.57217943668365479 0.69634652137756348 0.58216255903244019
0.72536009550094604 0.71330010890960693 0.60157579183578491
0.8529433012008667 0.7388414740562439 0.62815266847610474
0.94959837198257446 0.75695979595184326 0.64700877666473389
0.29783305525779724 0.80692076683044434 0.59099739789962769
0.38704162836074829 0.84201598167419434 0.62781637907028198
0.50781059265136719 0.86172902584075928 0.65200275182723999
0.64530980587005615 0.85802632570266724 0.65514230728149414
0.78113609552383423 0.86026304960250854 0.66161400079727173
0.88660907745361328 0.86939376592636108 0.67078208923339844
0.97088003158569336 0.88047462701797485 0.68180036544799805
0.37767612934112549 0.95710045099258423 0.66136640310287476
0.45636692643165588 0.97355574369430542 0.68170404434204102
0.55703854560852051 0.98003911972045898 0.69107222557067871
0.68115830421447754 0.97263437509536743 0.689586341381073
0.8052324652671814 0.96937423944473267 0.69063049554824829
0.90530920028686523 0.97479033470153809 0.69617635011672974
0.98821240663528442 0.98527979850769043 0.70747941732406616
0.060091730207204819 0.049362737685441971 0.12359945476055145
0.09877699613571167 0.075963802635669708 0.18849824368953705
0.15258054435253143 0.09179648756980896 0.25037115812301636
0.24538162350654602 0.11165684461593628 0.31021770834922791
0.36731579899787903 0.12916198372840881 0.366973876953125
0.48347097635269165 0.13843701779842377 0.40897616744041443
0.59803593158721924 0.14688920974731445 0.44416418671607971
0.13867078721523285 0.16196431219577789 0.33432239294052124
0.19098658859729767 0.19879032671451569 0.40178462862968445
0.26728057861328125 0.21843475103378296 0.44294258952140808
0.37546238303184509 0.22256962954998016 0.45697379112243652
0.48979419469833374 0.22196120023727417 0.45486128330230713
0.5834166407585144 0.21852201223373413 0.44915106892585754
0.67018133401870728 0.21932199597358704 0.45748889446258545
0.1576533317565918 0.30087825655937195 0.45720478892326355
0.19817204773426056 0.31624385714530945 0.4580681324005127
0.27184921503067017 0.31830161809921265 0.4600183367729187
0.38005173206329346 0.3109307587146759 0.44464549422264099
0.51112401485443115 0.31196451187133789 0.45411607623100281
0.63535255193710327 0.33039459586143494 0.47415316104888916
0.74971818923950195 0.35768923163414001 0.5056225061416626
0.11869435012340546 0.40039318799972534 0.44704374670982361
0.18056875467300415 0.42724296450614929 0.46952331066131592
0.2978614866733551 0.45355129241943359 0.50082498788833618
0.45728713274002075 0.47940903902053833 0.52804106473922729
0.62199670076370239 0.50872063636779785 0.56306421756744385
0.76841849088668823 0.55156666040420532 0.60154449939727783
0.88918983936309814 0.58763980865478516 0.63957464694976807
0.17966583371162415 0.59164148569107056 0.53775900602340698
0.27614122629165649 0.6441500186920166 0.58891934156417847
0.41784140467643738 0.68463587760925293 0.63173747062683105
0.58318895101547241 0.70805460214614868 0.65733641386032104
0.74155521392822266 0.72885537147521973 0.68183892965316772
0.86018079519271851 0.74770009517669678 0.69872152805328369
0.95503777265548706 0.76428800821304321 0.71618151664733887
0.30510959029197693 0.81605082750320435 0.66515272855758667
0.39458900690078735 0.85188448429107666 0.70092344284057617
0.51403146982192993 0.87013030052185059 0.7214239239692688
0.65210902690887451 0.86585479974746704 0.7232288122177124
0.7886003851890564 0.86713105440139771 0.72890627384185791
0.88831245899200439 0.87153023481369019 0.73272150754928589
0.97133278846740723 0.88202112913131714 0.74287354946136475
0.38033270835876465 0.95897918939590454 0.7272874116897583
0.45740467309951782 0.97533392906188965 0.74536073207855225
0.55701005458831787 0.98163729906082153 0.75238418579101562
0.68542081117630005 0.97780466079711914 0.75258368253707886
0.81512439250946045 0.97730964422225952 0.75610589981079102
0.91355001926422119 0.98081642389297485 0.760142982006073
0.99271154403686523 0.98908376693725586 0.77067136764526367
0.066152028739452362 0.056674927473068237 0.15012985467910767
0.10677214711904526 0.081423737108707428 0.22539743781089783
0.1704772412776947 0.10644669085741043 0.29953977465629578
0.26882216334342957 0.12184561789035797 0.36377385258674622
0.39834499359130859 0.13526937365531921 0.43008020520210266
0.51034629344940186 0.1434163898229599 0.47302743792533875
0.60592269897460938 0.14623957872390747 0.49776691198348999
0.14443062245845795 0.16796018183231354 0.38418677449226379
0.19261135160923004 0.20020133256912231 0.4503200352191925
0.27400714159011841 0.22580930590629578 0.49367913603782654
0.38227519392967224 0.22843146324157715 0.50644928216934204
0.49103996157646179 0.22558556497097015 0.5010262131690979
0.57904559373855591 0.22222128510475159 0.49437686800956726
0.67322856187820435 0.2226976752281189 0.51558947563171387
0.15530447661876678 0.30269536375999451 0.49420389533042908
0.19304771721363068 0.31555572152137756 0.50690227746963501
0.2707851231098175 0.31991338729858398 0.5133671760559082
0.38857081532478333 0.31686407327651978 0.5091366171836853
0.52262359857559204 0.32338383793830872 0.5199587345123291
0.65316486358642578 0.34474238753318787 0.54847472906112671
0.76695221662521362 0.37050765752792358 0.58359420299530029
0.1289031058549881 0.4101717472076416 0.51112091541290283
0.1912837028503418 0.43606069684028625 0.54083538055419922
0.31013873219490051 0.46709087491035461 0.57819956541061401
0.47564688324928284 0.495573490858078 0.61188340187072754
0.64591383934020996 0.53038138151168823 0.64759165048599243
0.79164969921112061 0.5710722804069519 0.68587106466293335
0.9029688835144043 0.60206836462020874 0.71829080581665039
0.20320962369441986 0.61276555061340332 0.62338727712631226
0.29857292771339417 0.66397124528884888 0.67419523000717163
0.43623265624046326 0.70267897844314575 0.71376615762710571
0.60077577829360962 0.72400885820388794 0.73643463850021362
0.7564462423324585 0.7425464391708374 0.75414347648620605
0.87103492021560669 0.75788617134094238 0.76896023750305176
0.96522194147109985 0.7769235372543335 0.78915154933929443
0.31805557012557983 0.82978922128677368 0.74474489688873291
0.40553811192512512 0.86232727766036987 0.77749276161193848
0.52301454544067383 0.87743240594863892 0.79199433326721191
0.65916329622268677 0.87216722965240479 0.78923648595809937
0.79316234588623047 0.86988925933837891 0.7909315824508667
0.89196562767028809 0.87397605180740356 0.79452264308929443
0.97820675373077393 0.88975673913955688 0.80948710441589355
0.38577598333358765 0.96994549036026001 0.79934614896774292
0.46080109477043152 0.98013889789581299 0.81321358680725098
0.56251651048660278 0.98373532295227051 0.81646221876144409
0.69022423028945923 0.98203533887863159 0.81577157974243164
0.81893289089202881 0.98235255479812622 0.81877738237380981
0.91880577802658081 0.98578357696533203 0.82347595691680908
0.99647122621536255 0.99371165037155151 0.83652967214584351
0.080035097897052765 0.068978868424892426 0.19369609653949738
0.11730464547872543 0.090630143880844116 0.26593837141990662
0.19373470544815063 0.11715689301490784 0.35984981060028076
0.29714500904083252 0.13195432722568512 0.43099591135978699
0.40413305163383484 0.1367531418800354 0.47307422757148743
0.53657114505767822 0.15057265758514404 0.53569239377975464
0.63100111484527588 0.15636523067951202 0.56577569246292114
0.15507058799266815 0.18991765379905701 0.45593303442001343
0.20090802013874054 0.21419394016265869 0.50601261854171753
0.28314155340194702 0.23422546684741974 0.55646944046020508
0.39142510294914246 0.23217485845088959 0.56687074899673462
0.49069878458976746 0.22272174060344696 0.55842065811157227
0.58433526754379272 0.2239919900894165 0.55635493993759155
0.69174939393997192 0.2340041846036911 0.58998173475265503
0.15761813521385193 0.31042730808258057 0.55705273151397705
0.19855491816997528 0.32538720965385437 0.57323676347732544
0.27723941206932068 0.32820403575897217 0.58163732290267944
0.39999532699584961 0.32487231492996216 0.58445382118225098
0.5325208306312561 0.32943463325500488 0.59361350536346436
0.66710525751113892 0.3577846884727478 0.62567800283432007
0.78173828125 0.38254982233047485 0.66073685884475708
0.13789701461791992 0.41849157214164734 0.58012086153030396
0.2076440155506134 0.45179483294487 0.6196252703666687
0.32256385684013367 0.48067396879196167 0.65358632802963257
0.48895999789237976 0.50882184505462646 0.69208759069442749
0.66303557157516479 0.54810798168182373 0.72913140058517456
0.80095040798187256 0.57963132858276367 0.76038426160812378
0.90662628412246704 0.60902166366577148 0.78811836242675781
0.22929386794567108 0.63192600011825562 0.7043612003326416
0.32184034585952759 0.67508405447006226 0.75123947858810425
0.45428043603897095 0.71185219287872314 0.78719782829284668
0.61204987764358521 0.7340625524520874 0.80985176563262939
0.76344418525695801 0.74968212842941284 0.824382483959198
0.87833958864212036 0.76324248313903809 0.83804285526275635
0.97251182794570923 0.78370016813278198 0.85822302103042603
0.33270490169525146 0.8370322585105896 0.81560099124908447
0.42256507277488708 0.86728143692016602 0.84829294681549072
0.53822833299636841 0.88267308473587036 0.86166763305664062
0.67237675189971924 0.88461261987686157 0.86287587881088257
0.79863488674163818 0.87891244888305664 0.8583257794380188
0.90174204111099243 0.88353109359741211 0.86348015069961548
0.99034661054611206 0.90093153715133667 0.88160747289657593
0.39484718441963196 0.97595202922821045 0.86448186635971069
0.47463545203208923 0.98616492748260498 0.88151562213897705
0.57603305578231812 0.98923653364181519 0.88482147455215454
0.69856423139572144 0.98948913812637329 0.88429075479507446
0.82092761993408203 0.98935258388519287 0.88556396961212158
0.92487418651580811 0.99241626262664795 0.89189112186431885
0.99954903125762939 0.99807631969451904 0.90704888105392456
