assets/lut/alexjordan red dream 01.cube
# Created by: G'MIC (https://gmic.eu)
TITLE "red_dream_01"
# LUT size
LUT_3D_SIZE 13
# Data domain
DOMAIN_MIN 0.0 0.0 0.0
DOMAIN_MAX 1.0 1.0 1.0
# LUT data points
0.012222304940223694 0 0
0.011764706112444401 0 0
0.012438321486115456 0 0
0.018472978845238686 0 0
0.026782825589179993 0 0
0.033915426582098007 0 0
0.042835116386413574 0 0
0.053610872477293015 0 0
0.06370505690574646 0 0
0.076742030680179596 0 0
0.093479901552200317 0 0
0.11458653211593628 2.3336972390097799e-06 4.9411548388889059e-05
0.1515183299779892 0.00062231923220679164 0.0017288656672462821
0.012359993532299995 0 0
0.012917492538690567 0 0
0.015848511829972267 0 0
0.023913035169243813 0 0
0.034952081739902496 1.7113779904320836e-05 0
0.048140581697225571 0.00075204885797575116 0
0.063175410032272339 0.0017728019738569856 0
0.079797111451625824 0.0029853072483092546 0
0.098093785345554352 0.0031039519235491753 0
0.12438251078128815 0.0023524116259068251 0
0.16128957271575928 0.0018945431802421808 0
0.20731416344642639 0.0032224468886852264 5.3660074627259746e-05
0.26522400975227356 0.0064990920946002007 0.002962643513455987
0.016441928222775459 0.0016502230428159237 0
0.020193526521325111 0.0026383493095636368 0
0.028019849210977554 0.0039071626961231232 0
0.040333990007638931 0.0054095848463475704 0
0.056661598384380341 0.0080277388915419579 0
0.078728772699832916 0.010777327232062817 0
0.10345605760812759 0.013294758275151253 0
0.13358776271343231 0.015489555895328522 0
0.16989433765411377 0.017198510468006134 0
0.21610447764396667 0.015902485698461533 0
0.27375531196594238 0.015255139209330082 0
0.33884334564208984 0.016264671459794044 0
0.41088813543319702 0.021655093878507614 0.00047412948333658278
0.027108436450362206 0.014682904817163944 0
0.037309594452381134 0.018412301316857338 0
0.052454136312007904 0.022426141425967216 0
0.072549469769001007 0.026525638997554779 0
0.098660834133625031 0.031282912939786911 0
0.13103114068508148 0.036578100174665451 0
0.16952574253082275 0.04067578911781311 0
0.21594102680683136 0.044004030525684357 0
0.27136000990867615 0.045888055115938187 0
0.33626618981361389 0.046011578291654587 0
0.41149532794952393 0.04577433317899704 0
0.49502578377723694 0.046707961708307266 0
0.57711517810821533 0.053067959845066071 0
0.042010888457298279 0.041995000094175339 0
0.06080314889550209 0.050664864480495453 0
0.084566868841648102 0.057829342782497406 0
0.1153150200843811 0.064227193593978882 0
0.15185777842998505 0.071752123534679413 0
0.19564403593540192 0.080424860119819641 0
0.24741163849830627 0.08631616085767746 0
0.30813783407211304 0.090937264263629913 0
0.37759208679199219 0.094907157123088837 0
0.454120934009552 0.097932957112789154 0
0.53935569524765015 0.10031025856733322 0
0.63405454158782959 0.10268134623765945 0
0.72314995527267456 0.10971923172473907 0
0.049705103039741516 0.090346619486808777 0
0.077218852937221527 0.10178358852863312 0
0.11024948954582214 0.11228316277265549 0
0.15076816082000732 0.12190883606672287 0
0.19836343824863434 0.13260775804519653 0
0.25311848521232605 0.14383447170257568 0
0.31557038426399231 0.1532549262046814 0
0.38586205244064331 0.16181506216526031 0
0.46368822455406189 0.16884467005729675 0
0.5441124439239502 0.17628784477710724 0
0.62850582599639893 0.18350189924240112 0
0.72189724445343018 0.19051240384578705 0
0.80982112884521484 0.19997087121009827 0
0.043793652206659317 0.16608826816082001 0
0.07906196266412735 0.17822980880737305 0
0.12026143074035645 0.19263522326946259 0
0.16861657798290253 0.20683683454990387 4.8424215492559597e-05
0.22483375668525696 0.22070206701755524 0.000291323201963678
0.28901371359825134 0.23403210937976837 0.00018922393792308867
0.35925430059432983 0.24649688601493835 7.4678311648312956e-05
0.43400871753692627 0.25917571783065796 0.00054822437232360244
0.51325333118438721 0.27069583535194397 0.0011324265506118536
0.59297889471054077 0.28167593479156494 0.00047996372450143099
0.67448389530181885 0.29278191924095154 1.1668485967675224e-05
0.76256054639816284 0.30406522750854492 0
0.84752142429351807 0.31567975878715515 0
0.027273470535874367 0.26583197712898254 0
0.067942768335342407 0.28062635660171509 0
0.11619541049003601 0.29792091250419617 0
0.17171475291252136 0.31575503945350647 0.00041792626143433154
0.23382401466369629 0.33315670490264893 0.0021851183846592903
0.30379226803779602 0.34885329008102417 0.0025312835350632668
0.37944316864013672 0.36296376585960388 0.0010552200255915523
0.45687252283096313 0.37701398134231567 0.001099949236959219
0.53555983304977417 0.3912121057510376 0.0030495587270706892
0.61501318216323853 0.40366971492767334 0.002683362690731883
0.69663882255554199 0.41518515348434448 0.00040723016718402505
0.78171151876449585 0.4287770688533783 0
0.86584097146987915 0.4404052197933197 0
0.0095805898308753967 0.38335615396499634 0
0.05222027376294136 0.40060284733772278 0
0.10706336796283722 0.41964972019195557 0
0.17012444138526917 0.43820905685424805 0.00016569250146858394
0.23868352174758911 0.45626410841941833 0.00094611971871927381
0.3122306764125824 0.47339552640914917 0.001489482237957418
0.38991460204124451 0.48775240778923035 0.00033644132781773806
0.47001126408576965 0.50064933300018311 2.8004365958622657e-05
0.55048274993896484 0.51425093412399292 0.00081465480616316199
0.631702721118927 0.52614480257034302 0.0023441987577825785
0.7144542932510376 0.5368117094039917 0.00052955478895455599
0.79911577701568604 0.54981648921966553 0
0.88519740104675293 0.55980616807937622 0
0.0019329594215378165 0.51168477535247803 0
0.039665594696998596 0.52940952777862549 0
0.10097985714673996 0.54733264446258545 0
0.17182618379592896 0.56326228380203247 0
0.24736770987510681 0.57835900783538818 0
0.32423830032348633 0.59363329410552979 0
0.4029298722743988 0.60659545660018921 0
0.48422631621360779 0.61805325746536255 0
0.56664544343948364 0.63022792339324951 0
0.64831018447875977 0.64200073480606079 0.00079941097646951675
0.72992479801177979 0.65074515342712402 0.001021276693791151
0.82729721069335938 0.65829843282699585 0.00015532549878116697
0.9271697998046875 0.66168200969696045 0.00030770394369028509
0.00068108056439086795 0.64058107137680054 0
0.037316430360078812 0.65664112567901611 0
0.10452751070261002 0.67129874229431152 0
0.18211334943771362 0.68286865949630737 0
0.2633155882358551 0.69337761402130127 0
0.34388014674186707 0.70464020967483521 0
0.42352840304374695 0.71545994281768799 6.8215763349144254e-06
0.50483381748199463 0.72557133436203003 2.4773093173280358e-05
0.58945447206497192 0.73602306842803955 0.00019740684365388006
0.67553567886352539 0.7473035454750061 0.003459736006334424
0.76457613706588745 0.75492817163467407 0.0082789398729801178
0.88014107942581177 0.75541353225708008 0.006067358423024416
0.98137032985687256 0.75025206804275513 0.0075951819308102131
0.0032365089282393456 0.76331013441085815 0
0.049537971615791321 0.77625268697738647 1.9746669295273023e-06
0.12150312215089798 0.78628832101821899 0.0003277946962043643
0.20347140729427338 0.79374557733535767 0.00067992863478139043
0.28904414176940918 0.80086857080459595 0.00034718232927843928
0.37314128875732422 0.80932873487472534 0.00075031357118859887
0.45500096678733826 0.81888484954833984 0.0032518124207854271
0.53777140378952026 0.82802635431289673 0.007067063357681036
0.62930351495742798 0.83726125955581665 0.012862246483564377
0.73261570930480957 0.84739106893539429 0.024970350787043571
0.84272873401641846 0.85191464424133301 0.031029945239424706
0.95159107446670532 0.84523528814315796 0.02415110357105732
0.99901020526885986 0.83572649955749512 0.023637659847736359
0.019330700859427452 0.87653052806854248 0.0039456984959542751
0.077325873076915741 0.88689208030700684 0.0069746128283441067
0.15184266865253448 0.89360100030899048 0.012570549733936787
0.23612105846405029 0.89874762296676636 0.014007972553372383
0.3244665265083313 0.90375816822052002 0.011946151033043861
0.41233217716217041 0.91093945503234863 0.014396353624761105
0.49867618083953857 0.9203382134437561 0.026558820158243179
0.58849668502807617 0.92994183301925659 0.041551165282726288
0.69065111875534058 0.93902593851089478 0.056231703609228134
0.80933272838592529 0.94575965404510498 0.068278200924396515
0.92644393444061279 0.94474709033966064 0.068679556250572205
0.99291878938674927 0.93378710746765137 0.058220356702804565
1 0.92200320959091187 0.053168769925832748
0.011711224913597107 0 0
0.011764706112444401 0 0
0.014306940138339996 0 0
0.019798412919044495 0 0
0.0263086948543787 0 0
0.03283609077334404 0 0
0.040798380970954895 0 0
0.051667831838130951 0 0
0.065719902515411377 0 0
0.08144378662109375 0 5.7265337090939283e-05
0.096143044531345367 0 0.00024656407185830176
0.11931396275758743 0 0.000873565673828125
0.16010329127311707 2.3336972390097799e-06 0.0029258278664201498
0.010726210661232471 0 0
0.012562187388539314 0 0
0.017391564324498177 0 0
0.025090295821428299 0 1.6291001884383149e-05
0.035473167896270752 0 0.000270843505859375
0.04819050058722496 0.00062272313516587019 0.0012237698538228869
0.063704907894134521 0.001385797280818224 0.0016374177066609263
0.082509644329547882 0.0032892713788896799 0.00068682502023875713
0.10602054744958878 0.004311250988394022 3.1594670872436836e-05
0.13569317758083344 0.0034529294352978468 0.00025292192003689706
0.17154917120933533 0.0024248908739537001 0.00068081123754382133
0.21878385543823242 0.0018966525094583631 0.0020581413991749287
0.27997225522994995 0.0037805894389748573 0.0055710435844957829
0.013553784228861332 0.0034139147028326988 1.9746668840525672e-05
0.020239811390638351 0.0023981730919331312 0.00077567005064338446
0.029683506116271019 0.0035779166501015425 0.0015440398128703237
0.042250450700521469 0.0064589707180857658 0.0016076780157163739
0.059476830065250397 0.0085685132071375847 0.0023225820623338223
0.081588342785835266 0.011063848622143269 0.0036915349774062634
0.10852278023958206 0.013317512348294258 0.0038075465708971024
0.14038380980491638 0.016895279288291931 0.0013581219827756286
0.17966596782207489 0.01919625885784626 3.6860448744846508e-05
0.22849160432815552 0.017500216141343117 0
0.28763550519943237 0.015111138112843037 4.5581891754409298e-05
0.35704430937767029 0.014969141222536564 0.00046518363524228334
0.43283230066299438 0.018113065510988235 0.0030066994950175285
0.026181180030107498 0.016526017338037491 0.00050249288324266672
0.038625560700893402 0.019995251670479774 0.0019987816922366619
0.054596815258264542 0.024097876623272896 0.0027955446857959032
0.075554266571998596 0.028927866369485855 0.0027753193862736225
0.10224886238574982 0.033040918409824371 0.0029417898040264845
0.13617168366909027 0.037328265607357025 0.0033678391482681036
0.17661350965499878 0.0409865602850914 0.0020336974412202835
0.22445870935916901 0.045156501233577728 0.00034106386010535061
0.28099519014358521 0.048059441149234772 0
0.34775051474571228 0.046646822243928909 0
0.42533689737319946 0.045553289353847504 0
0.51208984851837158 0.045521784573793411 0
0.59755510091781616 0.05060228705406189 0.00019894768774975091
0.04259917140007019 0.044994354248046875 0.00064713723259046674
0.062375612556934357 0.05390562117099762 0.0015684539685025811
0.086724542081356049 0.061099018901586533 0.0019416060531511903
0.11765452474355698 0.068073034286499023 0.0017444087425246835
0.15558135509490967 0.074489310383796692 0.0014575285604223609
0.20117411017417908 0.081615731120109558 0.00056506885448470712
0.25425940752029419 0.086988963186740875 4.7122732212301344e-05
0.31610172986984253 0.09123026579618454 0
0.38631954789161682 0.094898998737335205 0
0.46366444230079651 0.097850888967514038 0
0.54992890357971191 0.10036851465702057 0
0.6442636251449585 0.10321680456399918 0
0.73247015476226807 0.1111505851149559 0
0.051226671785116196 0.092810764908790588 0
0.079232387244701385 0.10393530130386353 4.1138893720926717e-05
0.11214146018028259 0.11435844749212265 0.00019793043611571193
0.1527150571346283 0.12580166757106781 0.0001895680179586634
0.20113953948020935 0.13646145164966583 3.3240223274333403e-05
0.25702214241027832 0.14662535488605499 0
0.3202359676361084 0.1549765020608902 0
0.39119189977645874 0.16206252574920654 0
0.46850761771202087 0.16909684240818024 0
0.5489424467086792 0.17701718211174011 0
0.63476622104644775 0.18498094379901886 0
0.72663164138793945 0.19309893250465393 0
0.81420290470123291 0.20350149273872375 0
0.042199570685625076 0.16803242266178131 0
0.0784621462225914 0.18033032119274139 0
0.1199445053935051 0.19477438926696777 0
0.16841830313205719 0.21052068471908569 0
0.22422686219215393 0.22560317814350128 0
0.28945672512054443 0.23860600590705872 0
0.36060607433319092 0.24993243813514709 0
0.43572285771369934 0.26145893335342407 0
0.51416015625 0.2731863260269165 0
0.59431946277618408 0.28478392958641052 0
0.67757284641265869 0.29623657464981079 0
0.76488214731216431 0.30843409895896912 0
0.85158860683441162 0.31989553570747375 0
0.019989911466836929 0.26985833048820496 0
0.061425302177667618 0.28498640656471252 0
0.11160659790039062 0.30218428373336792 0
0.16850912570953369 0.3205711841583252 0
0.23056201636791229 0.33837303519248962 3.1115962428884814e-06
0.30245238542556763 0.3532903790473938 4.4729194996762089e-06
0.37944382429122925 0.3666534423828125 0
0.45704689621925354 0.38092988729476929 0
0.53478431701660156 0.39580711722373962 9.9032531579723582e-06
0.6159171462059021 0.4079938530921936 5.6158329243771732e-05
0.70035833120346069 0.41936671733856201 1.8923890820587985e-05
0.78384745121002197 0.43319743871688843 0
0.86981326341629028 0.44470712542533875 1.0696111530705821e-05
0.0035557765513658524 0.3901878297328949 0
0.041241560131311417 0.40752243995666504 0
0.099730409681797028 0.42553386092185974 0
0.16669383645057678 0.44302701950073242 0
0.23778213560581207 0.46005165576934814 0
0.31313800811767578 0.47581866383552551 0
0.39143460988998413 0.49019345641136169 7.8822115028742701e-05
0.47094753384590149 0.50482320785522461 0.00018973257101606578
0.55085617303848267 0.51895582675933838 0.00087548053124919534
0.63294297456741333 0.52990245819091797 0.0032763911876827478
0.71789759397506714 0.53957283496856689 0.0039179935120046139
0.80069684982299805 0.55250316858291626 0.0023020575754344463
0.88843601942062378 0.56195390224456787 0.0023535485379397869
0.0001035802488331683 0.51903408765792847 0
0.029356218874454498 0.5367124080657959 0
0.094959810376167297 0.55284065008163452 0
0.17125099897384644 0.56719315052032471 0
0.24991074204444885 0.58076882362365723 3.9493338590546045e-06
0.32768604159355164 0.59503906965255737 0.00054001156240701675
0.4067969024181366 0.60874170064926147 0.0021901298314332962
0.48716625571250916 0.62182855606079102 0.0025730356574058533
0.56781858205795288 0.63418912887573242 0.0035983514972031116
0.64771157503128052 0.64389359951019287 0.010129786096513271
0.73131394386291504 0.65144723653793335 0.015822436660528183
0.82797110080718994 0.65909373760223389 0.014515027403831482
0.92746520042419434 0.6628691554069519 0.015618402510881424
3.5903033790418704e-07 0.64790630340576172 0
0.030096855014562607 0.66354143619537354 0
0.10092897713184357 0.67580938339233398 8.9413515524938703e-05
0.1832558810710907 0.68572509288787842 0.00079333735629916191
0.26741859316825867 0.69542926549911499 0.0026413262821733952
0.34899812936782837 0.70650506019592285 0.0072059184312820435
0.42890715599060059 0.71817374229431152 0.012746010906994343
0.50976991653442383 0.72927141189575195 0.015287182293832302
0.59216958284378052 0.73865830898284912 0.016802424564957619
0.67360454797744751 0.7475898265838623 0.029178783297538757
0.76627433300018311 0.75462275743484497 0.041834991425275803
0.8867490291595459 0.75555789470672607 0.042013984173536301
0.98350447416305542 0.75130999088287354 0.044691376388072968
0.0021265365649014711 0.7702825665473938 4.4624477595789358e-05
0.045995898544788361 0.78204858303070068 0.0017981436103582382
0.12066834419965744 0.78968131542205811 0.010025443509221077
0.20590893924236298 0.79593122005462646 0.017643872648477554
0.29415389895439148 0.80249190330505371 0.021371340379118919
0.37966188788414001 0.81135624647140503 0.028737401589751244
0.46210333704948425 0.8220561146736145 0.041852526366710663
0.54539161920547485 0.83294892311096191 0.05423399806022644
0.63339376449584961 0.84184843301773071 0.06470838189125061
0.72651749849319458 0.8495553731918335 0.081172004342079163
0.83640110492706299 0.85240978002548218 0.093056686222553253
0.95777040719985962 0.84543585777282715 0.085956737399101257
0.99984991550445557 0.83657222986221313 0.081706658005714417
0.021662423387169838 0.88147580623626709 0.015313436277210712
0.079405553638935089 0.89058566093444824 0.028090294450521469
0.15511816740036011 0.89539879560470581 0.044774282723665237
0.24128997325897217 0.89967626333236694 0.05410187691450119
0.33176055550575256 0.90482759475708008 0.057084221392869949
0.42099246382713318 0.9128296971321106 0.066284328699111938
0.50774991512298584 0.9238893985748291 0.087819792330265045
0.59715813398361206 0.93595260381698608 0.11196863651275635
0.69581657648086548 0.9461061954498291 0.13500094413757324
0.80640679597854614 0.94936293363571167 0.14868880808353424
0.92374694347381592 0.94409960508346558 0.14909715950489044
0.99577140808105469 0.93212497234344482 0.13508296012878418
1 0.92179518938064575 0.12365260720252991
0.0099854562431573868 0 0
0.011764706112444401 0 0
0.015696896240115166 0 0
0.021166512742638588 0 0
0.026595724746584892 0 0
0.031713850796222687 0 7.5575881055556238e-05
0.03860747441649437 0 0.00026424633688293397
0.049729499965906143 0 0.00025024413480423391
0.066996566951274872 0 0.0011160308495163918
0.085854791104793549 0 0.002679488155990839
0.10546208173036575 0 0.0041079204529523849
0.13019973039627075 0 0.0061387005262076855
0.17094290256500244 0 0.0089031290262937546
0.008817051537334919 0 0.00058002845617011189
0.013101286254823208 0 0.00092969409888610244
0.018721442669630051 0 0.0012212117435410619
0.026675788685679436 0 0.0015771454200148582
0.036518801003694534 0 0.0022902395576238632
0.048620440065860748 0.00062136183260008693 0.003998984582722187
0.064613625407218933 0.0010746376356109977 0.0055098887532949448
0.085569925606250763 0.0032715741544961929 0.0053368061780929565
0.113144651055336 0.0050224452279508114 0.0054603577591478825
0.14670482277870178 0.0043767890892922878 0.0068346061743795872
0.18535083532333374 0.0031939188484102488 0.0093039264902472496
0.2336793839931488 0.0024179795291274786 0.012930836528539658
0.295045405626297 0.0033712948206812143 0.017020236700773239
0.013129828497767448 0.0031397053971886635 0.0027414208743721247
0.021690698340535164 0.0024477641563862562 0.0045639635063707829
0.032195042818784714 0.0041523952968418598 0.0053620282560586929
0.045287560671567917 0.0074861864559352398 0.0060088066384196281
0.062767714262008667 0.00952885951846838 0.006722678430378437
0.085765421390533447 0.011142387054860592 0.0091118905693292618
0.11437822133302689 0.012700637802481651 0.011485709808766842
0.148717001080513 0.017267968505620956 0.0099292825907468796
0.19063004851341248 0.019604790955781937 0.007679628673940897
0.24165946245193481 0.018918849527835846 0.0075810602866113186
0.3022400438785553 0.015749270096421242 0.0090872524306178093
0.37315687537193298 0.014989815652370453 0.012141373939812183
0.45024803280830383 0.017346760258078575 0.017157431691884995
0.025987094268202782 0.017862895503640175 0.005672200582921505
0.040303293615579605 0.020865496248006821 0.0083298031240701675
0.057592220604419708 0.025858022272586823 0.010174485854804516
0.078961044549942017 0.030644750222563744 0.010500201024115086
0.10717280954122543 0.034281980246305466 0.010706164874136448
0.1428663581609726 0.037298958748579025 0.011203780770301819
0.18510133028030396 0.040872011333703995 0.011444944888353348
0.23428501188755035 0.045744381844997406 0.009358992800116539
0.29204204678535461 0.049094598740339279 0.0065414276905357838
0.36002817749977112 0.048257611691951752 0.0046534370630979538
0.43816244602203369 0.045764937996864319 0.0039069084450602531
0.52571272850036621 0.046161741018295288 0.0053186453878879547
0.6122283935546875 0.050716310739517212 0.010880758054554462
0.044149689376354218 0.046447873115539551 0.0079601509496569633
0.064496614038944244 0.055162213742733002 0.0098921386525034904
0.089446678757667542 0.063438758254051208 0.011321348138153553
0.12129221856594086 0.069864861667156219 0.011246699839830399
0.16100123524665833 0.075608044862747192 0.0097226612269878387
0.20805598795413971 0.081625305116176605 0.0069741643965244293
0.26195049285888672 0.087156735360622406 0.0047794417478144169
0.32422006130218506 0.091930657625198364 0.004431361798197031
0.39501810073852539 0.095642805099487305 0.0035552829504013062
0.47285744547843933 0.099048271775245667 0.0010725134052336216
0.55903619527816772 0.10142941772937775 0.00028273637872189283
0.65146905183792114 0.1057397872209549 0.00090106140123680234
0.73938703536987305 0.11379378288984299 0.0058648502454161644
0.05247250571846962 0.094974145293235779 0.0050281151197850704
0.081244222819805145 0.10557964444160461 0.0047146664001047611
0.11466749757528305 0.11707917600870132 0.0051009682938456535
0.15607264637947083 0.12873825430870056 0.0051861484535038471
0.20572894811630249 0.13869355618953705 0.0033600451424717903
0.26260769367218018 0.14814727008342743 0.0012663148809224367
0.32508498430252075 0.1566375344991684 0.00027600457542575896
0.39578428864479065 0.16329315304756165 0.00066885852720588446
0.47353354096412659 0.16995465755462646 0.0012957853032276034
0.55378836393356323 0.17842245101928711 5.1461014663800597e-05
0.63895595073699951 0.18740165233612061 0
0.72789078950881958 0.1971074640750885 0.00014361213834490627
0.81507927179336548 0.20798827707767487 0.0048833661712706089
0.040539249777793884 0.17187082767486572 0.00066953175701200962
0.077294126152992249 0.1844252347946167 0.00012368595344014466
0.11959562450647354 0.19939453899860382 0.00016440596664324403
0.16938059031963348 0.21496167778968811 0.0002460853720549494
0.22738845646381378 0.22910459339618683 0.00034855862031690776
0.29282322525978088 0.24131886661052704 0.00054228538647294044
0.36231610178947449 0.25279015302658081 0.00026119456742890179
0.43635380268096924 0.2639315128326416 0.00059700763085857034
0.51499611139297485 0.27516666054725647 0.00068323471350595355
0.59508860111236572 0.28710636496543884 7.7640310337301344e-05
0.67778593301773071 0.29977467656135559 0.00024892771034501493
0.76264125108718872 0.3132319450378418 0.0012395521625876427
0.85088944435119629 0.32449117302894592 0.0081991460174322128
0.01318760309368372 0.27650636434555054 0
0.052681088447570801 0.29237407445907593 0
0.10499338060617447 0.30925211310386658 0
0.16596627235412598 0.32563278079032898 0
0.23256757855415344 0.34132224321365356 0.00022454354621004313
0.30489206314086914 0.35530397295951843 0.0019343956373631954
0.3799976110458374 0.36904630064964294 0.0033396403305232525
0.45582595467567444 0.38394561409950256 0.0045552719384431839
0.53436946868896484 0.39823541045188904 0.0058850455097854137
0.61634087562561035 0.41067898273468018 0.0071712271310389042
0.70044124126434326 0.42332136631011963 0.010314837098121643
0.78323769569396973 0.43723604083061218 0.013054163195192814
0.87167751789093018 0.44768625497817993 0.020083364099264145
0.00051320396596565843 0.39820417761802673 0
0.028581641614437103 0.416765958070755 0
0.089155830442905426 0.43380984663963318 0
0.16171291470527649 0.44866180419921875 0
0.23779913783073425 0.46297970414161682 0.00092587940162047744
0.31488502025604248 0.47704842686653137 0.0065515106543898582
0.39312770962715149 0.49167367815971375 0.0126597685739398
0.47105857729911804 0.50759106874465942 0.016489140689373016
0.55139154195785522 0.52235156297683716 0.021577887237071991
0.63397133350372314 0.53341346979141235 0.030530339106917381
0.71853625774383545 0.54358863830566406 0.039877574890851974
0.801993727684021 0.55537915229797363 0.043579071760177612
