assets/lut/alexjordan mostly blue.cube
# Created by: G'MIC (https://gmic.eu)
TITLE "mostly_blue"
# LUT size
LUT_3D_SIZE 5
# Data domain
DOMAIN_MIN 0.0 0.0 0.0
DOMAIN_MAX 1.0 1.0 1.0
# LUT data points
0.027661103755235672 0.039038222283124924 0.050236061215400696
0.15956200659275055 0.071746096014976501 0.068518787622451782
0.28306740522384644 0.10634394735097885 0.10191460698843002
0.40364283323287964 0.13028579950332642 0.12988556921482086
0.52479976415634155 0.17552247643470764 0.18658323585987091
0.19354867935180664 0.21637518703937531 0.19515332579612732
0.27141943573951721 0.26390853524208069 0.2092975378036499
0.3868216872215271 0.30199059844017029 0.21429702639579773
0.50889921188354492 0.32810989022254944 0.235953688621521
0.63503563404083252 0.35897588729858398 0.26367521286010742
0.35101348161697388 0.38552331924438477 0.35232329368591309
0.42084228992462158 0.43729913234710693 0.39758917689323425
0.49017304182052612 0.48725655674934387 0.37663072347640991
0.60735362768173218 0.52739864587783813 0.38465780019760132
0.72310382127761841 0.55298918485641479 0.38035681843757629
0.51933801174163818 0.56209743022918701 0.52152997255325317
0.5810847282409668 0.60953128337860107 0.56735944747924805
0.63441437482833862 0.66051352024078369 0.5670662522315979
0.71312737464904785 0.70936250686645508 0.54535329341888428
0.81590759754180908 0.7453884482383728 0.52947896718978882
0.6869233250617981 0.73498815298080444 0.68815630674362183
0.73793965578079224 0.77627789974212646 0.72642886638641357
0.78764599561691284 0.82497870922088623 0.74201691150665283
0.84656423330307007 0.87915867567062378 0.73716795444488525
0.93048125505447388 0.93108290433883667 0.71093583106994629
0.051149390637874603 0.03276824951171875 0.40564796328544617
0.11267833411693573 0.10320606827735901 0.11152657866477966
0.22360813617706299 0.13131625950336456 0.17305928468704224
0.36298498511314392 0.15588772296905518 0.22221928834915161
0.49402841925621033 0.18291406333446503 0.25917389988899231
0.011760995723307133 0.30695903301239014 0.30708947777748108
0.26899203658103943 0.28076064586639404 0.28589075803756714
0.39375847578048706 0.31302082538604736 0.31124004721641541
0.51513493061065674 0.34083011746406555 0.34005463123321533
0.64153718948364258 0.37360003590583801 0.37028747797012329
0.011826354078948498 0.55233150720596313 0.2498534768819809
0.4179198145866394 0.45291391015052795 0.42566302418708801
0.50498229265213013 0.50031256675720215 0.44816800951957703
0.61849206686019897 0.53580254316329956 0.45360913872718811
0.74557548761367798 0.56420809030532837 0.47542023658752441
0.123404860496521 0.72489219903945923 0.33662378787994385
0.58883213996887207 0.62764555215835571 0.59202659130096436
0.65272235870361328 0.67055577039718628 0.62954384088516235
0.72575283050537109 0.72141110897064209 0.6136023998260498
0.83911198377609253 0.75951862335205078 0.60488414764404297
0.36076909303665161 0.86504513025283813 0.50788378715515137
0.7495461106300354 0.79507780075073242 0.75049823522567749
0.80803513526916504 0.83629721403121948 0.79113209247589111
0.86524474620819092 0.89386433362960815 0.80239742994308472
0.94489496946334839 0.94540804624557495 0.7823905348777771
0.041605766862630844 0.031275909394025803 0.78712576627731323
0.20707942545413971 0.068468116223812103 0.39622315764427185
0.17750246822834015 0.16821017861366272 0.1763429194688797
0.28103548288345337 0.20893388986587524 0.25188714265823364
0.40732148289680481 0.22564192116260529 0.314411461353302
0.01986318826675415 0.29246890544891357 0.68416100740432739
0.26536741852760315 0.27376183867454529 0.63214099407196045
0.35215440392494202 0.34273362159729004 0.35209944844245911
0.46967637538909912 0.37291082739830017 0.41490903496742249
0.60381919145584106 0.39677885174751282 0.46236491203308105
0.0041258567944169044 0.57238686084747314 0.57123500108718872
0.18529708683490753 0.54123735427856445 0.54173630475997925
0.49952948093414307 0.51073563098907471 0.51864343881607056
0.62625741958618164 0.54831880331039429 0.54590767621994019
0.74884343147277832 0.57465118169784546 0.57388210296630859
0.0018869736231863499 0.83472824096679688 0.48033499717712402
0.17480869591236115 0.78510189056396484 0.49044901132583618
0.65774565935134888 0.69265246391296387 0.66393166780471802
0.74036753177642822 0.73481255769729614 0.68127626180648804
0.85490697622299194 0.7672308087348938 0.68635958433151245
0.0081888986751437187 0.98901039361953735 0.45028939843177795
0.36469265818595886 0.94363480806350708 0.58113294839859009
0.80359101295471191 0.84277939796447754 0.80713009834289551
0.87047982215881348 0.88827532529830933 0.83993238210678101
0.95557355880737305 0.95539325475692749 0.8499985933303833
0.021514009684324265 0.030738158151507378 0.98807060718536377
0.30052974820137024 0.036476839333772659 0.89401799440383911
0.25318396091461182 0.15512967109680176 0.3172852098941803
0.24621789157390594 0.23609927296638489 0.24597363173961639
0.33011966943740845 0.2716822624206543 0.31404533982276917
0.01262964028865099 0.29019945859909058 0.99353384971618652
0.25930997729301453 0.25620657205581665 0.96495270729064941
0.45835176110267639 0.30167314410209656 0.67012441158294678
0.42091938853263855 0.41105461120605469 0.41995418071746826
0.51005750894546509 0.43911510705947876 0.48357012867927551
0.0020637211855500937 0.5612601637840271 0.93978482484817505
0.16303831338882446 0.53521907329559326 0.90228390693664551
0.49862062931060791 0.50165092945098877 0.87580341100692749
0.58859813213348389 0.57695841789245605 0.58622068166732788
0.69877409934997559 0.60491788387298584 0.64864623546600342
0 0.83266407251358032 0.8363950252532959
0.087863773107528687 0.80717140436172485 0.80803388357162476
0.41871577501296997 0.77434021234512329 0.77955836057662964
0.742817223072052 0.75412636995315552 0.76471954584121704
0.86088258028030396 0.77895337343215942 0.77721148729324341
0.00024503818713128567 0.99716633558273315 0.74648004770278931
0.052725400775671005 0.99649977684020996 0.71853291988372803
0.41410219669342041 0.98862797021865845 0.73352742195129395
0.89608848094940186 0.9284018874168396 0.90021359920501709
0.97420918941497803 0.97015535831451416 0.91621863842010498
0.13618558645248413 0.032968528568744659 1
0.31758171319961548 0.026140565052628517 0.99655747413635254
0.4131714403629303 0.096932291984558105 0.76861333847045898
0.28691083192825317 0.24016174674034119 0.30610907077789307
0.30005428194999695 0.28936249017715454 0.30005428194999695
0.017096215859055519 0.28150615096092224 1
0.21972118318080902 0.25565651059150696 0.9907536506652832
0.52142387628555298 0.2596687376499176 0.97933095693588257
0.49131625890731812 0.40091487765312195 0.54971164464950562
0.48329612612724304 0.47208821773529053 0.483062744140625
0.0056632696650922298 0.5584978461265564 0.99995905160903931
0.12861038744449615 0.53232187032699585 0.99704039096832275
0.48198643326759338 0.50975215435028076 0.98725908994674683
0.68868023157119751 0.53877955675125122 0.8673972487449646
0.63670790195465088 0.62936073541641235 0.63633996248245239
0.0046369815245270729 0.83205407857894897 0.99673569202423096
0.081114917993545532 0.80765116214752197 0.99224668741226196
0.39890977740287781 0.76997226476669312 0.99552351236343384
0.7360541820526123 0.74480617046356201 0.99218982458114624
0.82126045227050781 0.81076377630233765 0.82360023260116577
0 0.99968242645263672 0.99188172817230225
0.032274987548589706 0.99571317434310913 0.99438321590423584
0.30330333113670349 0.99309730529785156 0.98896330595016479
0.64671236276626587 0.9867737889289856 0.98347371816635132
0.95152848958969116 0.96191167831420898 0.96459311246871948
