assets/lut/alexjordan magenta dream.cube
# Created by: G'MIC (https://gmic.eu)
TITLE "magenta_dream"
# LUT size
LUT_3D_SIZE 5
# Data domain
DOMAIN_MIN 0.0 0.0 0.0
DOMAIN_MAX 1.0 1.0 1.0
# LUT data points
0.0030419144313782454 0.00098535872530192137 0.025326628237962723
0.13923092186450958 0.0024699789937585592 0.02189616858959198
0.26817551255226135 0.0040660332888364792 0.018586760386824608
0.37636765837669373 0.0022848690859973431 0.0032187069300562143
0.44151681661605835 6.3204301113728434e-05 0.0025236241053789854
0.0050678928382694721 0.19596979022026062 0.041728854179382324
0.25140571594238281 0.21868403255939484 0.049710381776094437
0.46410390734672546 0.20878162980079651 0.038238197565078735
0.61354357004165649 0.2025124579668045 0.029807401821017265
0.73709189891815186 0.19023925065994263 0.025048678740859032
0.0019560870714485645 0.38642913103103638 0.032704867422580719
0.24808312952518463 0.42105540633201599 0.05013173446059227
0.46228009462356567 0.42094960808753967 0.047604206949472427
0.62095260620117188 0.41618698835372925 0.045354627072811127
0.75363588333129883 0.41001832485198975 0.039055317640304565
0.0061997957527637482 0.52016735076904297 0.021773828193545341
0.23819956183433533 0.56866198778152466 0.042617544531822205
0.46284803748130798 0.57539659738540649 0.041162855923175812
0.62553638219833374 0.5780450701713562 0.04441172257065773
0.75447052717208862 0.57486236095428467 0.041132833808660507
0.0077849593944847584 0.62243664264678955 0.00099271885119378567
0.21797429025173187 0.68563026189804077 0.019511159509420395
0.44261711835861206 0.70261317491531372 0.025473441928625107
0.61215329170227051 0.7104225754737854 0.027580620720982552
0.74507242441177368 0.70977520942687988 0.024581190198659897
0.002767031779512763 0.0048711290583014488 0.14012174308300018
0.14263781905174255 0.0020024168770760298 0.14095830917358398
0.29015049338340759 0.0006705789128318429 0.14507558941841125
0.38715210556983948 0.00026711856480687857 0.12629523873329163
0.47667458653450012 0.0014081768458709121 0.11835335940122604
0.012113713659346104 0.20765708386898041 0.22805589437484741
0.26971963047981262 0.23630510270595551 0.25445970892906189
0.48509722948074341 0.23019850254058838 0.24916127324104309
0.63640356063842773 0.22242815792560577 0.239169642329216
0.76540935039520264 0.21006757020950317 0.23001554608345032
0.0058692335151135921 0.40387699007987976 0.22797198593616486
0.27464169263839722 0.44124504923820496 0.25690299272537231
0.48677009344100952 0.44266855716705322 0.25595876574516296
0.64548879861831665 0.43736201524734497 0.25464847683906555
0.77423423528671265 0.4323878288269043 0.24900774657726288
0.01729951798915863 0.53845500946044922 0.21182425320148468
0.27172744274139404 0.594199538230896 0.25402101874351501
0.48834633827209473 0.59952139854431152 0.25412130355834961
0.65040093660354614 0.59874522686004639 0.25523155927658081
0.77848178148269653 0.59508872032165527 0.25215393304824829
0.0085255196318030357 0.64385533332824707 0.1718781590461731
0.23099677264690399 0.72119319438934326 0.22951871156692505
0.46916425228118896 0.72805726528167725 0.23551751673221588
0.63554906845092773 0.73335587978363037 0.23510269820690155
0.76634281873703003 0.73305779695510864 0.22989267110824585
0.00035849178675562143 0.0052233380265533924 0.23007407784461975
0.15021269023418427 0.0052144071087241173 0.24923498928546906
0.27961522340774536 0.0038092669565230608 0.23670476675033569
0.3803868293762207 0.0027746760752052069 0.23048226535320282
0.50367337465286255 0 0.24067988991737366
0.010322435759007931 0.21011227369308472 0.37113866209983826
0.27383995056152344 0.24043537676334381 0.40426930785179138
0.48250287771224976 0.23435488343238831 0.39696455001831055
0.64681708812713623 0.2188994437456131 0.3960108757019043
0.78645819425582886 0.20329378545284271 0.3945288360118866
0.0064227236434817314 0.40816006064414978 0.37982821464538574
0.2818358838558197 0.44825878739356995 0.40780067443847656
0.4933965802192688 0.4477771520614624 0.40878540277481079
0.65334755182266235 0.44344702363014221 0.40541043877601624
0.7815966010093689 0.44030150771141052 0.40234243869781494
0.0074262283742427826 0.55022609233856201 0.36642101407051086
0.27787104249000549 0.60251396894454956 0.40528610348701477
0.49613487720489502 0.60659253597259521 0.40759602189064026
0.65796387195587158 0.60648077726364136 0.40766498446464539
0.78727924823760986 0.60335010290145874 0.40784311294555664
0 0.6585274338722229 0.33376741409301758
0.23259986937046051 0.72982418537139893 0.38829320669174194
0.48163899779319763 0.73790460824966431 0.39655819535255432
0.64493417739868164 0.7431873083114624 0.39786583185195923
0.77596604824066162 0.74334728717803955 0.39413520693778992
0.0051378887146711349 0.0071977651678025723 0.30053099989891052
0.16006727516651154 0.0073315338231623173 0.34823453426361084
0.29586204886436462 0.0026675206609070301 0.34049946069717407
0.40218409895896912 0.00049339741235598922 0.32835370302200317
0.49729618430137634 0.00041520362719893456 0.32364535331726074
0.014081858098506927 0.2125462144613266 0.48572731018066406
0.2723318338394165 0.24086028337478638 0.52536869049072266
0.48553758859634399 0.23503991961479187 0.52088451385498047
0.6384013295173645 0.2293122410774231 0.51313358545303345
0.76467245817184448 0.21870492398738861 0.50776576995849609
0.0072744931094348431 0.40922096371650696 0.49534672498703003
0.28699973225593567 0.44616413116455078 0.52774077653884888
0.49758037924766541 0.45166495442390442 0.52941280603408813
0.65714555978775024 0.44659179449081421 0.52893459796905518
0.78398215770721436 0.44521191716194153 0.52390295267105103
0.010195234790444374 0.55291223526000977 0.48252943158149719
0.2785307765007019 0.60888671875 0.52803003787994385
0.50354033708572388 0.61109620332717896 0.53081679344177246
0.66126364469528198 0.61006367206573486 0.53149509429931641
0.79181724786758423 0.60970824956893921 0.53024715185165405
0.0050165960565209389 0.65607625246047974 0.45110282301902771
0.23947057127952576 0.73338395357131958 0.51231569051742554
0.48289081454277039 0.74432092905044556 0.52067714929580688
0.64700597524642944 0.74965077638626099 0.52359068393707275
0.78379040956497192 0.74937814474105835 0.51861083507537842
0.010429786518216133 0.010814651846885681 0.39320608973503113
0.161441370844841 0.0094202226027846336 0.42080515623092651
0.27013272047042847 0.0025938744656741619 0.39158019423484802
0.38574090600013733 0.0010514053283259273 0.39484295248985291
0.51467734575271606 0 0.42619290947914124
0.012378393672406673 0.20042107999324799 0.58742773532867432
0.27089717984199524 0.23648390173912048 0.63935250043869019
0.48566579818725586 0.221708744764328 0.63655298948287964
0.63526684045791626 0.22680364549160004 0.62201607227325439
0.78519260883331299 0.19225899875164032 0.6342511773109436
0.0045279855839908123 0.40598660707473755 0.60555338859558105
0.27508807182312012 0.44823583960533142 0.63920539617538452
0.49631372094154358 0.44917848706245422 0.64207994937896729
0.65705680847167969 0.44755661487579346 0.63897103071212769
0.78961217403411865 0.43556821346282959 0.63806146383285522
0.0006345860892906785 0.55433779954910278 0.59531444311141968
0.27612876892089844 0.60399132966995239 0.64001327753067017
0.49803310632705688 0.61348038911819458 0.64237946271896362
0.66186493635177612 0.61152678728103638 0.64463680982589722
0.79240196943283081 0.61013782024383545 0.63901108503341675
0.016081208363175392 0.64926236867904663 0.55590593814849854
0.25102671980857849 0.73380351066589355 0.62466704845428467
0.48110130429267883 0.74818891286849976 0.63267308473587036
0.64788621664047241 0.75187629461288452 0.63304996490478516
0.78387385606765747 0.74931818246841431 0.62291371822357178
