assets/lut/alexjordan green indoor.cube
# Created by: G'MIC (https://gmic.eu)
TITLE "green_indoor"
# LUT size
LUT_3D_SIZE 7
# Data domain
DOMAIN_MIN 0.0 0.0 0.0
DOMAIN_MAX 1.0 1.0 1.0
# LUT data points
0.039215415716171265 0.044850487262010574 0.036175191402435303
0.077027387917041779 0.060527339577674866 0.052640862762928009
0.11673715710639954 0.077173896133899689 0.067304529249668121
0.16882045567035675 0.091723799705505371 0.085407093167304993
0.24408264458179474 0.10309922695159912 0.093435995280742645
0.33610802888870239 0.11102209985256195 0.098154298961162567
0.43107128143310547 0.12408912181854248 0.11227406561374664
0.074835203588008881 0.13173091411590576 0.071402624249458313
0.13839186728000641 0.14836853742599487 0.072097271680831909
0.21973060071468353 0.16206091642379761 0.087672725319862366
0.29344090819358826 0.17850352823734283 0.11255482584238052
0.36952507495880127 0.19829697906970978 0.13616357743740082
0.46041145920753479 0.21504677832126617 0.15395797789096832
0.55234086513519287 0.23878224194049835 0.17263096570968628
0.081281192600727081 0.26336634159088135 0.071142099797725677
0.17208157479763031 0.27720832824707031 0.075592830777168274
0.28223177790641785 0.29062959551811218 0.082418449223041534
0.39458274841308594 0.3025757372379303 0.10817328095436096
0.49530473351478577 0.32082945108413696 0.1447606086730957
0.59631001949310303 0.34126502275466919 0.17959769070148468
0.69167029857635498 0.36782783269882202 0.2149638831615448
0.092878378927707672 0.41881203651428223 0.08369775116443634
0.19589462876319885 0.4349370002746582 0.094956010580062866
0.31548920273780823 0.45189735293388367 0.10276022553443909
0.4508003294467926 0.46630951762199402 0.11506675183773041
0.59740900993347168 0.47782057523727417 0.13982947170734406
0.73602718114852905 0.49391934275627136 0.17501989006996155
0.85844999551773071 0.51528722047805786 0.21767640113830566
0.10902529209852219 0.59220397472381592 0.10279032588005066
0.22117865085601807 0.61286920309066772 0.11521265655755997
0.34986945986747742 0.63370692729949951 0.1234859973192215
0.49756056070327759 0.65308010578155518 0.13312472403049469
0.66010594367980957 0.66861188411712646 0.149217888712883
0.83128410577774048 0.68106889724731445 0.16662111878395081
0.98048621416091919 0.69816005229949951 0.22352512180805206
0.12042080610990524 0.78953260183334351 0.11051465570926666
0.24428600072860718 0.81277543306350708 0.13343660533428192
0.3876282274723053 0.83448958396911621 0.1537589430809021
0.53628456592559814 0.86233890056610107 0.15449169278144836
0.71053975820541382 0.87338531017303467 0.22135908901691437
0.87817257642745972 0.88346415758132935 0.31928601861000061
0.99480193853378296 0.90594297647476196 0.51464265584945679
0.1539766937494278 0.98788899183273315 0.14749331772327423
0.32105603814125061 0.99313122034072876 0.23959051072597504
0.51659536361694336 0.99594807624816895 0.3566322922706604
0.73237049579620361 0.99698126316070557 0.5365024209022522
0.92745465040206909 0.99435698986053467 0.81842881441116333
0.99636638164520264 0.99912881851196289 0.98417955636978149
1 1 1
0.04904663935303688 0.051897428929805756 0.067018382251262665
0.088411279022693634 0.064341001212596893 0.085606925189495087
0.13421964645385742 0.079889543354511261 0.10126124322414398
0.18924136459827423 0.095088392496109009 0.11540842801332474
0.26511254906654358 0.10660422593355179 0.13139720261096954
0.35051590204238892 0.11761473119258881 0.14309242367744446
0.44159480929374695 0.1318814754486084 0.16020315885543823
0.076180867850780487 0.13798166811466217 0.12322410196065903
0.1422957181930542 0.1535722017288208 0.13411833345890045
0.21765188872814178 0.17230360209941864 0.15726950764656067
0.28719335794448853 0.1920529305934906 0.17579157650470734
0.36758700013160706 0.20998004078865051 0.19615542888641357
0.45446884632110596 0.22884812951087952 0.213640496134758
0.54573231935501099 0.25162950158119202 0.23321235179901123
0.082774549722671509 0.26948091387748718 0.14994485676288605
0.17506416141986847 0.28634172677993774 0.15847131609916687
0.28586700558662415 0.30032145977020264 0.17111317813396454
0.39893606305122375 0.31184333562850952 0.20437212288379669
0.48547589778900146 0.33285316824913025 0.24250940978527069
0.57678723335266113 0.3573974072933197 0.27416220307350159
0.6712380051612854 0.38395857810974121 0.30365946888923645
0.096672356128692627 0.42668488621711731 0.17474707961082458
0.20017951726913452 0.44505620002746582 0.18982279300689697
0.32601436972618103 0.46129143238067627 0.19945628941059113
0.46748644113540649 0.47486627101898193 0.21255110204219818
0.60333883762359619 0.48855286836624146 0.24277211725711823
0.72230595350265503 0.50829082727432251 0.29195097088813782
0.83261877298355103 0.53110116720199585 0.34000486135482788
0.11570624262094498 0.60232901573181152 0.20134864747524261
0.22756733000278473 0.62523561716079712 0.21506261825561523
0.36187449097633362 0.64352220296859741 0.2324441522359848
0.51051026582717896 0.66323411464691162 0.23552824556827545
0.66739189624786377 0.68198877573013306 0.24025659263134003
0.83757525682449341 0.6939128041267395 0.26973780989646912
0.97585684061050415 0.71121370792388916 0.33363470435142517
0.1319035142660141 0.80071139335632324 0.22319115698337555
0.24911700189113617 0.82816469669342041 0.23549646139144897
0.39259064197540283 0.84831053018569946 0.2577478289604187
0.55743086338043213 0.86793112754821777 0.28801414370536804
0.72122412919998169 0.88356697559356689 0.34038200974464417
0.89503735303878784 0.89311879873275757 0.46070793271064758
0.99789237976074219 0.91665750741958618 0.64539569616317749
0.17667391896247864 0.99310934543609619 0.26852536201477051
0.3372323215007782 0.99815332889556885 0.33878329396247864
0.54792696237564087 0.99872398376464844 0.4650757908821106
0.79776489734649658 0.9957396388053894 0.68784350156784058
0.95996975898742676 0.99588143825531006 0.91283196210861206
0.999664306640625 0.99986445903778076 0.99838614463806152
1 1 1
0.053549330681562424 0.055158007889986038 0.10415037721395493
0.098090335726737976 0.069016791880130768 0.13433606922626495
0.16527868807315826 0.075367540121078491 0.15842427313327789
0.24224497377872467 0.085340805351734161 0.17339308559894562
0.32610213756561279 0.096332311630249023 0.1885804682970047
0.40097740292549133 0.11304399371147156 0.20131208002567291
0.48420858383178711 0.12936487793922424 0.21915784478187561
0.078145764768123627 0.14622461795806885 0.1954253762960434
0.14855478703975677 0.16053755581378937 0.21621730923652649
0.2404034286737442 0.17250972986221313 0.23053467273712158
0.31818819046020508 0.19094817340373993 0.24224157631397247
0.39740109443664551 0.21277430653572083 0.25579079985618591
0.47597992420196533 0.23567374050617218 0.27169135212898254
0.56314200162887573 0.25906288623809814 0.2917235791683197
0.084250219166278839 0.27564632892608643 0.24764189124107361
0.17651383578777313 0.29337003827095032 0.26278740167617798
0.29179534316062927 0.30490189790725708 0.274576336145401
0.38582035899162292 0.32718992233276367 0.30463534593582153
0.47217488288879395 0.35010245442390442 0.331277996301651
0.5648760199546814 0.37417200207710266 0.35695770382881165
0.66333979368209839 0.40081354975700378 0.37914296984672546
0.10041149705648422 0.43384268879890442 0.27879989147186279
0.20570433139801025 0.45322954654693604 0.29688680171966553
0.33131098747253418 0.46970894932746887 0.3088221549987793
0.47137567400932312 0.4835408627986908 0.32638895511627197
0.59952473640441895 0.4986560046672821 0.36993539333343506
0.70053136348724365 0.52490293979644775 0.41572010517120361
0.81066125631332397 0.55290168523788452 0.44444787502288818
0.12142962217330933 0.61139357089996338 0.31140583753585815
0.23642966151237488 0.63338690996170044 0.33190977573394775
0.36933043599128723 0.65306347608566284 0.35065042972564697
0.51618403196334839 0.67187106609344482 0.36201062798500061
0.67839956283569336 0.68911480903625488 0.37312346696853638
0.83833765983581543 0.7022089958190918 0.41866478323936462
0.97177588939666748 0.72515976428985596 0.47489851713180542
0.13871963322162628 0.81144434213638306 0.34158864617347717
0.26256462931632996 0.83561044931411743 0.36434051394462585
0.40905126929283142 0.85538268089294434 0.38797697424888611
0.57011264562606812 0.87429237365722656 0.42089730501174927
0.74212139844894409 0.88896745443344116 0.4881255030632019
0.90704059600830078 0.90297549962997437 0.61454313993453979
0.99661791324615479 0.93220621347427368 0.77618575096130371
0.2060234397649765 0.99482166767120361 0.40731573104858398
0.37085369229316711 0.99904102087020874 0.47284549474716187
0.60675263404846191 0.99838310480117798 0.60747116804122925
0.85935556888580322 0.99423849582672119 0.81611007452011108
0.982349693775177 0.99758255481719971 0.96719789505004883
1 1 1
1 1 1
0.055657420307397842 0.0580303855240345 0.15853175520896912
0.10628047585487366 0.071238845586776733 0.20336595177650452
0.18024636805057526 0.077529311180114746 0.23755562305450439
0.28463825583457947 0.078140765428543091 0.26062482595443726
0.40219804644584656 0.078131191432476044 0.28125524520874023
0.4975910484790802 0.088744036853313446 0.29439812898635864
0.57617026567459106 0.10761522501707077 0.30486783385276794
0.077093072235584259 0.15213163197040558 0.28908383846282959
0.15079121291637421 0.1669035404920578 0.32098054885864258
0.26098346710205078 0.17054656147956848 0.3392985463142395
0.38100966811180115 0.17601275444030762 0.3451533317565918
0.47597360610961914 0.19518689811229706 0.3487219512462616
0.55046659708023071 0.22246932983398438 0.35373431444168091
0.63185906410217285 0.24817529320716858 0.36694222688674927
0.084994480013847351 0.27815413475036621 0.36459636688232422
0.17803186178207397 0.29705685377120972 0.38173797726631165
0.29967516660690308 0.30803096294403076 0.39566537737846375
0.42183822393417358 0.32230997085571289 0.40131890773773193
0.5115695595741272 0.34986668825149536 0.41421321034431458
0.5945734977722168 0.37946403026580811 0.43128380179405212
0.69940215349197388 0.40414920449256897 0.45215302705764771
0.10446781665086746 0.43783432245254517 0.40034174919128418
0.20843559503555298 0.45778182148933411 0.41881388425827026
0.33518815040588379 0.47540023922920227 0.43710538744926453
0.47818866372108459 0.49090674519538879 0.45173099637031555
0.58671766519546509 0.51262521743774414 0.48717871308326721
0.68663358688354492 0.5428662896156311 0.5217248797416687
0.80924433469772339 0.56833195686340332 0.54189693927764893
0.12825164198875427 0.61612486839294434 0.43890020251274109
0.24303238093852997 0.63996899127960205 0.46383053064346313
0.37371382117271423 0.66187757253646851 0.48274347186088562
0.52419012784957886 0.68111538887023926 0.49538654088973999
0.68889212608337402 0.69665706157684326 0.51800978183746338
0.82996779680252075 0.71694678068161011 0.56562918424606323
0.94906842708587646 0.74539923667907715 0.62150901556015015
0.1448550820350647 0.81649947166442871 0.47493076324462891
0.26091977953910828 0.8465239405632019 0.49422779679298401
0.41278088092803955 0.86562329530715942 0.52466511726379395
0.58663839101791382 0.88126587867736816 0.56426507234573364
0.7692943811416626 0.89585775136947632 0.62936663627624512
0.91868418455123901 0.91676598787307739 0.7316092848777771
0.99222135543823242 0.94995272159576416 0.86698389053344727
0.23561853170394897 0.99521303176879883 0.5507814884185791
0.41121426224708557 0.99965137243270874 0.6083749532699585
0.65598416328430176 0.99908143281936646 0.73234266042709351
0.90563124418258667 0.99628043174743652 0.90650224685668945
0.99516314268112183 0.99944746494293213 0.99176657199859619
1 1 1
1 1 1
0.056460794061422348 0.060036201030015945 0.22766058146953583
0.11078202724456787 0.07238643616437912 0.28501182794570923
0.18787261843681335 0.078186273574829102 0.33515942096710205
0.29272052645683289 0.079535916447639465 0.37133628129959106
0.43791556358337402 0.071125417947769165 0.40226906538009644
0.57948732376098633 0.067126631736755371 0.42014944553375244
0.68268394470214844 0.07953045517206192 0.42400082945823669
0.076601631939411163 0.15074367821216583 0.40278959274291992
0.15437552332878113 0.16486096382141113 0.44320845603942871
0.25870919227600098 0.17397898435592651 0.4685552716255188
0.38792863488197327 0.17915725708007812 0.48131617903709412
0.52440947294235229 0.18556234240531921 0.4857543408870697
0.64499533176422119 0.19976773858070374 0.48513567447662354
0.74906653165817261 0.22046317160129547 0.48661941289901733
0.086929231882095337 0.28364711999893188 0.49160492420196533
0.1808774471282959 0.30072590708732605 0.51527434587478638
0.29773032665252686 0.31426048278808594 0.53355175256729126
0.43878424167633057 0.32372173666954041 0.54418826103210449
0.57922852039337158 0.33618408441543579 0.54540061950683594
0.68073916435241699 0.3639427125453949 0.54207742214202881
0.79043161869049072 0.38844302296638489 0.55436944961547852
0.10943428426980972 0.44278395175933838 0.53755223751068115
0.21249794960021973 0.46427655220031738 0.55662554502487183
0.33978420495986938 0.48124659061431885 0.57650619745254517
0.48695987462997437 0.49549967050552368 0.59244167804718018
0.62720811367034912 0.51391100883483887 0.60548466444015503
0.72627365589141846 0.54618215560913086 0.60974037647247314
0.85027092695236206 0.5699542760848999 0.63445395231246948
0.13342028856277466 0.62182366847991943 0.58154141902923584
0.24625201523303986 0.64834141731262207 0.60508370399475098
0.38188782334327698 0.66820728778839111 0.62585431337356567
0.5300871729850769 0.68762743473052979 0.63955396413803101
0.69011968374252319 0.70514202117919922 0.6602933406829834
0.81943732500076294 0.72882932424545288 0.70614892244338989
0.92884939908981323 0.76376509666442871 0.73994499444961548
0.14877696335315704 0.8247445821762085 0.62482833862304688
0.28307896852493286 0.85027909278869629 0.65229672193527222
0.43129763007164001 0.87380826473236084 0.67543834447860718
0.60202676057815552 0.89070212841033936 0.70703846216201782
0.78836584091186523 0.9057013988494873 0.75834196805953979
0.93107181787490845 0.92864316701889038 0.83746230602264404
0.99249374866485596 0.9701923131942749 0.94828885793685913
0.26600834727287292 0.99691247940063477 0.69899314641952515
0.50750327110290527 0.99632948637008667 0.76311731338500977
0.76505875587463379 0.99596303701400757 0.86321026086807251
0.95437914133071899 0.99729889631271362 0.96617335081100464
0.99968820810317993 0.99998849630355835 0.99951690435409546
1 1 1
1 1 1
0.060666102916002274 0.065458334982395172 0.30569130182266235
0.11160869151353836 0.076055578887462616 0.38073724508285522
0.19370901584625244 0.078186273574829102 0.45204353332519531
0.30793234705924988 0.077100135385990143 0.50586283206939697
0.45208042860031128 0.068446740508079529 0.5466238260269165
0.60972267389297485 0.059239227324724197 0.56811082363128662
0.7439391016960144 0.063510850071907043 0.56734377145767212
0.076180204749107361 0.15475019812583923 0.52758133411407471
0.15507069230079651 0.16676196455955505 0.5783926248550415
0.26171410083770752 0.17586885392665863 0.61008000373840332
0.39095801115036011 0.18072514235973358 0.63874566555023193
0.53333091735839844 0.18598264455795288 0.64684343338012695
0.68832314014434814 0.18927191197872162 0.64463108777999878
0.82651025056838989 0.2015826553106308 0.6365351676940918
0.08904825896024704 0.28917470574378967 0.63402318954467773
0.18492826819419861 0.3048856258392334 0.66453784704208374
0.30432242155075073 0.31770926713943481 0.68132328987121582
0.44156306982040405 0.32774350047111511 0.70155918598175049
0.58988410234451294 0.33944842219352722 0.70784592628479004
0.74289679527282715 0.3504796028137207 0.70172607898712158
0.87716501951217651 0.36964881420135498 0.69907969236373901
0.11663991957902908 0.44714340567588806 0.68821042776107788
0.22144249081611633 0.46757853031158447 0.71243637800216675
0.34777331352233887 0.48398569226264954 0.73039340972900391
0.48893150687217712 0.5004083514213562 0.74965935945510864
0.65131008625030518 0.51478523015975952 0.7650267481803894
0.80557107925415039 0.52980577945709229 0.76288580894470215
0.93877094984054565 0.5546913743019104 0.7653694748878479
0.13974177837371826 0.62755858898162842 0.73542594909667969
0.24828661978244781 0.65483599901199341 0.76342213153839111
0.38741075992584229 0.67448848485946655 0.78214472532272339
0.53015941381454468 0.69503915309906006 0.8033745288848877
0.70068955421447754 0.71156507730484009 0.82495653629302979
0.86123442649841309 0.73137468099594116 0.83317792415618896
0.96813809871673584 0.77132570743560791 0.84344172477722168
0.14806625247001648 0.8345302939414978 0.78678649663925171
0.26653873920440674 0.86557799577713013 0.81734788417816162
0.44787728786468506 0.88052129745483398 0.83494001626968384
0.62458926439285278 0.89639186859130859 0.85553288459777832
0.80932605266571045 0.91513442993164062 0.88888680934906006
0.94284665584564209 0.94032543897628784 0.92636340856552124
0.99168521165847778 0.98034501075744629 0.98122471570968628
0.30664026737213135 0.99797159433364868 0.83895289897918701
0.57491189241409302 0.99660319089889526 0.88238441944122314
0.83497065305709839 0.99683260917663574 0.93972277641296387
0.98270434141159058 0.9984893798828125 0.99180251359939575
1 1 1
1 1 1
1 1 1
0.060078222304582596 0.066854275763034821 0.41408827900886536
0.11394406855106354 0.074160829186439514 0.5039411187171936
0.19841928780078888 0.075192473828792572 0.58680683374404907
0.31226694583892822 0.075822047889232635 0.64139759540557861
0.45416852831840515 0.068298548460006714 0.69228118658065796
0.607197105884552 0.061800412833690643 0.72091037034988403
0.74715828895568848 0.063920222222805023 0.71362036466598511
0.0734902024269104 0.15512806177139282 0.67050135135650635
0.15686421096324921 0.16575610637664795 0.73105007410049438
0.26371213793754578 0.17429843544960022 0.77237403392791748
0.38894793391227722 0.18231754004955292 0.79731076955795288
0.53156381845474243 0.18801160156726837 0.80732256174087524
0.68854248523712158 0.19036227464675903 0.80699944496154785
0.83495587110519409 0.20175713300704956 0.79290735721588135
0.092731684446334839 0.29094424843788147 0.78360790014266968
0.18943500518798828 0.30517926812171936 0.82592546939849854
0.30680590867996216 0.31931579113006592 0.847198486328125
0.44292739033699036 0.33071684837341309 0.86845546960830688
0.59393513202667236 0.34123185276985168 0.87661516666412354
0.75891578197479248 0.34926730394363403 0.8719029426574707
0.90693414211273193 0.36497491598129272 0.8594626784324646
0.11809194087982178 0.45194205641746521 0.84573525190353394
0.22179204225540161 0.47141650319099426 0.87974041700363159
0.34584414958953857 0.48922738432884216 0.90112435817718506
0.49104982614517212 0.50513070821762085 0.92056918144226074
0.65128886699676514 0.5199090838432312 0.93316555023193359
0.82574045658111572 0.53083449602127075 0.93773573637008667
0.97899407148361206 0.54803329706192017 0.92966902256011963
0.13930892944335938 0.63355076313018799 0.90282958745956421
0.24463768303394318 0.66189515590667725 0.93532007932662964
0.38597789406776428 0.68138980865478516 0.95741081237792969
0.53812819719314575 0.7011113166809082 0.97460579872131348
0.71030861139297485 0.71947067975997925 0.98569637537002563
0.88168901205062866 0.73341107368469238 0.98985433578491211
0.99969422817230225 0.76270812749862671 0.98306518793106079
0.15763580799102783 0.83845639228820801 0.9583926796913147
0.29426965117454529 0.86753231287002563 0.98225831985473633
0.47905972599983215 0.88273864984512329 0.98615109920501709
0.66236418485641479 0.89896923303604126 0.98418605327606201
0.84339046478271484 0.92533284425735474 0.98621410131454468
0.96408426761627197 0.96037602424621582 0.99621468782424927
0.99763971567153931 0.99143862724304199 0.99467283487319946
0.36838611960411072 0.99569129943847656 0.98271197080612183
0.64918535947799683 0.99496781826019287 0.98572683334350586
0.90956950187683105 0.99587267637252808 0.99216341972351074
0.99697732925415039 0.99973738193511963 0.99946880340576172
1 1 1
1 1 1
1 1 1
