assets/lut/alexjordan contrasty green.cube
# Created by: G'MIC (https://gmic.eu)
TITLE "contrasty_green"
# LUT size
LUT_3D_SIZE 13
# Data domain
DOMAIN_MIN 0.0 0.0 0.0
DOMAIN_MAX 1.0 1.0 1.0
# LUT data points
3.0338062060764059e-05 0 0.0034245061688125134
0.012806043028831482 8.3429673395585269e-05 0.00051788630662485957
0.06143501028418541 0.0008595784311182797 3.5005457903025672e-05
0.14287571609020233 0 0
0.25865095853805542 0 0
0.40867969393730164 0 0
0.59505605697631836 0.00026312435511499643 0
0.81832468509674072 0.0026012943126261234 0
0.99019253253936768 0.00018202837964054197 0
1 0 0
1 0 0
1 0 0
1 0 0
0 2.7809890525531955e-05 4.2395498894620687e-05
0.0039532831870019436 7.4872783443424851e-05 0
0.039829209446907043 0.00061006733449175954 0
0.11896391957998276 1.2835334018745925e-05 0
0.24235588312149048 0 0
0.40046039223670959 0 0
0.59915530681610107 0 0
0.84103977680206299 1.0112687959917821e-05 0
0.99630653858184814 0 0
1 0 0
1 0 0
1 0 0
1 0 0
0 0.018016470596194267 0
0.0016718247206881642 0.020491760224103928 0
0.034667655825614929 0.023792864754796028 0
0.12300461530685425 0.015031537972390652 0
0.25862449407577515 0.0078836623579263687 0
0.43342500925064087 0.0056019951589405537 0
0.65435439348220825 0.0024674658197909594 0
0.91030621528625488 0.0015114429406821728 0
0.99999427795410156 0.0014224931364879012 0
1 6.0287176893325523e-05 0
1 0 0
1 0 0
1 0 0
0 0.082898005843162537 0
0.0022499084006994963 0.093015722930431366 0
0.041954100131988525 0.1030835434794426 0
0.14363583922386169 0.1019241064786911 0
0.29723337292671204 0.095245316624641418 0
0.49329432845115662 0.085928179323673248 0
0.73344612121582031 0.068357624113559723 0
0.96209943294525146 0.051039181649684906 0
1 0.04581783339381218 0
1 0.033606793731451035 0
1 0.019157769158482552 0
1 0.012321846559643745 0
1 0.017015419900417328 0.00063787720864638686
0.00011824065586552024 0.19549490511417389 0
0.01094182301312685 0.21368192136287689 0
0.065187014639377594 0.23299622535705566 0
0.17817428708076477 0.24305880069732666 0
0.34444800019264221 0.24391642212867737 0
0.5514647364616394 0.23732359707355499 0
0.79876548051834106 0.22123295068740845 0
0.98711878061294556 0.19352906942367554 0
1 0.16821153461933136 0
1 0.14662864804267883 0
1 0.12974083423614502 0
1 0.125814288854599 0
0.99950569868087769 0.14379198849201202 0.001695042010396719
0.0013168933801352978 0.34998127818107605 0
0.022483540698885918 0.37794500589370728 0
0.087450630962848663 0.4041689932346344 0
0.20894894003868103 0.41687920689582825 0
0.38225314021110535 0.41864073276519775 0
0.59882736206054688 0.41600719094276428 0
0.85065865516662598 0.40579017996788025 0
0.99675941467285156 0.37886855006217957 0
1 0.34095388650894165 0
1 0.30840766429901123 0
1 0.29273506999015808 0
1 0.3016904890537262 0
0.99937844276428223 0.33408138155937195 0.0011520684929564595
0.0039237975142896175 0.54162418842315674 0
0.030937613919377327 0.57751786708831787 0
0.10258889198303223 0.60577577352523804 0
0.23183004558086395 0.61524337530136108 0
0.41515651345252991 0.61067742109298706 0
0.64394646883010864 0.60882019996643066 0
0.90011954307556152 0.59741246700286865 0
0.99978470802307129 0.57420927286148071 0
1 0.53767406940460205 1.9836425053654239e-05
1 0.50068879127502441 0.00025767905754037201
1 0.48658967018127441 0.00045545989996753633
1 0.50304907560348511 0.00026059619267471135
0.9989626407623291 0.54472881555557251 0.00089886237401515245
0.0078196804970502853 0.76020234823226929 0
0.037523023784160614 0.79262375831604004 4.721248842542991e-05
0.1150810569524765 0.81612157821655273 0.00071732763899490237
0.25426146388053894 0.82766497135162354 0.001002083532512188
0.45088106393814087 0.82606488466262817 0.00057735067093744874
0.69934308528900146 0.82461017370223999 0.00010349049262003973
0.94830363988876343 0.80756515264511108 0
1 0.7876896858215332 0
0.99995946884155273 0.75077223777770996 0.00021781172836199403
0.99980425834655762 0.71000725030899048 0.0010071848519146442
1 0.701335608959198 0.001553075504489243
0.99980151653289795 0.7233433723449707 0.0006197910406626761
0.99745041131973267 0.76721131801605225 0.00037922579213045537
0.0086194658651947975 0.95554459095001221 0
0.044783245772123337 0.9679265022277832 0.00091528799384832382
0.13286632299423218 0.97559976577758789 0.0031102348584681749
0.28773048520088196 0.98322486877441406 0.0053954329341650009
0.50265806913375854 0.98764866590499878 0.0048756171017885208
0.76583379507064819 0.98562353849411011 0.001829050132073462
0.98020833730697632 0.97435963153839111 0.00040301153785549104
0.99996209144592285 0.96822023391723633 0.0008364957757294178
0.99486857652664185 0.94763237237930298 5.2418428822420537e-05
0.99198722839355469 0.91648358106613159 4.9785539886215702e-05
0.99795436859130859 0.91410374641418457 0.00027440389385446906
0.99974185228347778 0.93882298469543457 1.7113779904320836e-05
0.99854832887649536 0.96287256479263306 0.00086580164497718215
0.0039548985660076141 1 0.00015581915795337409
0.050219204276800156 1 0.0021662393119186163
0.15610809624195099 1 0.006128393579274416
0.33324015140533447 1 0.0094937942922115326
0.57738101482391357 1 0.0079386243596673012
0.85434919595718384 0.99998921155929565 0.0018135519931092858
0.99756944179534912 0.99999678134918213 0.00071258546086028218
1 1 0.0022764019668102264
0.99915415048599243 1 0.0012590446276590228
0.99745595455169678 1 0.00060237810248509049
0.99909627437591553 1 0.00060529523761942983
1 1 0.0013786315685138106
1 1 0.0076232012361288071
0.00086128385737538338 1 0.00064664357341825962
0.051324926316738129 1 0.0033215840812772512
0.17509287595748901 1 0.008340529166162014
0.37037307024002075 1 0.013550253584980965
0.63050979375839233 0.99990129470825195 0.012897745706140995
0.90116685628890991 0.99759185314178467 0.0058834003284573555
0.99993813037872314 0.99975621700286865 0.0039055468514561653
1 1 0.0066623911261558533
1 1 0.0081709465011954308
1 1 0.0077246571891009808
1 1 0.0085754841566085815
1 1 0.012110092677175999
1 1 0.022898325696587563
5.6008731917245314e-05 1 0.0018375770887359977
0.052153285592794418 1 0.0043483511544764042
0.18774166703224182 1 0.0090001421049237251
0.39546498656272888 1 0.013992638327181339
0.67154407501220703 0.99624729156494141 0.015826310962438583
0.93364459276199341 0.99294173717498779 0.013413761742413044
1 0.99968695640563965 0.013279170729219913
1 1 0.017608702182769775
1 1 0.021019386127591133
1 1 0.022439051419496536
1 1 0.024182099848985672
1 1 0.029917817562818527
1 1 0.043305013328790665
0.00033371869358234107 1 0.0044510932639241219
0.062907502055168152 1 0.0059391842223703861
0.2071540355682373 1 0.0092543205246329308
0.41962656378746033 0.99903947114944458 0.013017348013818264
0.7076951265335083 0.99127197265625 0.015702670440077782
0.96008014678955078 0.99529647827148438 0.017299951985478401
1 0.99991708993911743 0.022600838914513588
1 1 0.030294695869088173
1 1 0.03606516495347023
1 1 0.039499007165431976
1 1 0.043227117508649826
1 1 0.051379289478063583
1 1 0.066926129162311554
0 0 0.010923003777861595
0.010752973146736622 0 0.0062239700928330421
0.056079760193824768 0.00059528724523261189 0.0020968867465853691
0.1363472044467926 1.4002182979311328e-05 1.4002182979311328e-05
0.25240001082420349 0 0
0.40287166833877563 0 0
0.59359723329544067 0.00043251187889836729 0
0.8208547830581665 0.0011931026820093393 0.00079030054621398449
0.98999536037445068 0 3.2911113521549851e-05
1 0 0
1 0 0
1 0 0
1 0 0
0 0.00017146690515801311 0.0017151327338069677
0.003156325314193964 0.00014365701645147055 0.00099454389419406652
0.039901390671730042 2.7151669200975448e-05 0.00017418955394532531
0.12025102972984314 0 0
0.24103601276874542 0 0
0.39816027879714966 0 0
0.5967714786529541 0 0
0.83810824155807495 0 9.8254633485339582e-05
0.99560284614562988 0 1.3164445817892556e-06
1 0 0
1 0 0
1 0 0
1 0 0
0 0.019843142479658127 0
0.0009141810005530715 0.022210888564586639 1.8101112800650299e-05
0.036397222429513931 0.022647004574537277 0.0002721749187912792
0.12779946625232697 0.015900002792477608 4.936667210131418e-06
0.26358336210250854 0.010064906440675259 0
0.43823045492172241 0.0082860011607408524 0
0.65602642297744751 0.0082642054185271263 0
0.89854246377944946 0.0080285612493753433 0
0.99988788366317749 0.0030196395236998796 0
1 1.4810000720899552e-05 0
1 0 0
1 0 0
1 0 0
0 0.084154747426509857 0
0.0013698353432118893 0.095077633857727051 0.00020997290266677737
0.042743638157844543 0.10511153191328049 0.0011981291463598609
0.1500285267829895 0.10647590458393097 0.00041539809899404645
0.30632582306861877 0.10215385258197784 5.9240005612082314e-06
0.50359678268432617 0.094817206263542175 0
0.73882073163986206 0.084612421691417694 0
0.95545035600662231 0.071972042322158813 0
1 0.054821986705064774 0
1 0.03110136091709137 0
1 0.013106880709528923 0
1 0.0067072850652039051 0
0.99971467256546021 0.0097915353253483772 4.9785539886215702e-05
0 0.19834783673286438 0
0.0067279888316988945 0.21836656332015991 0.00038966757711023092
0.06213754415512085 0.23910625278949738 0.0023460537195205688
0.18167884647846222 0.25160607695579529 0.0025071685668081045
0.35385549068450928 0.25466260313987732 0.0020223581232130527
0.56371414661407471 0.24741025269031525 0.0012423945590853691
0.80301922559738159 0.23236134648323059 0.00014823464152868837
0.98193252086639404 0.20823588967323303 0
1 0.17739586532115936 0
1 0.14566054940223694 0
1 0.12253013998270035 0
1 0.11661804467439651 0
0.99341708421707153 0.13486017286777496 0.0010721393628045917
1.2566061968755093e-06 0.358001708984375 0
0.013421555981040001 0.38734310865402222 0.00042233933345414698
0.079018764197826385 0.4139191210269928 0.0033900092821568251
0.20685455203056335 0.42773023247718811 0.0050056157633662224
0.38770806789398193 0.43072980642318726 0.0046414844691753387
0.60776370763778687 0.42756617069244385 0.0041997572407126427
0.84981805086135864 0.41483843326568604 0.0022661096882075071
0.99255973100662231 0.38791808485984802 0.00019368190260138363
1 0.34878438711166382 0
1 0.30966910719871521 0
1 0.2898404598236084 0
1 0.30102384090423584 0
0.99367368221282959 0.33707758784294128 0.0014853982720524073
9.093939297599718e-05 0.55477654933929443 0
0.015624446794390678 0.59231531620025635 0.0010477402247488499
0.087110079824924469 0.61944186687469482 0.0051407157443463802
0.22484597563743591 0.62725347280502319 0.0075124702416360378
0.42087537050247192 0.62367945909500122 0.006611797958612442
0.65981048345565796 0.62413114309310913 0.0063048121519386768
0.91065239906311035 0.61250025033950806 0.006186122540384531
0.99961018562316895 0.58908540010452271 0.0037142585497349501
1 0.54975008964538574 0.00043462117901071906
1 0.50594592094421387 0
1 0.4880736768245697 0
1 0.50997817516326904 0
0.99524503946304321 0.55769854784011841 0.00085393869085237384
0.00062246882589533925 0.77211469411849976 9.8733344202628359e-06
0.015263037756085396 0.81055343151092529 0.0029193353839218616
0.092471212148666382 0.83215683698654175 0.0092643136158585548
0.24306611716747284 0.83721184730529785 0.014584395103156567
0.45626503229141235 0.83725261688232422 0.01527506485581398
0.71907073259353638 0.84119772911071777 0.014333912171423435
0.95940393209457397 0.82685071229934692 0.011275961063802242
1 0.81004476547241211 0.01074543409049511
0.99999970197677612 0.77262687683105469 0.0036522659938782454
0.99998378753662109 0.72550839185714722 0.00011436612112447619
1 0.70935654640197754 0
0.99994689226150513 0.73971641063690186 0
0.99650919437408447 0.79029524326324463 0.0006569357356056571
0.0017627641791477799 0.96290296316146851 0.00079451914643868804
0.020463621243834496 0.97859293222427368 0.0069240494631230831
0.10827475041151047 0.9839969277381897 0.01677316427230835
0.27514070272445679 0.98538154363632202 0.026894064620137215
0.50332236289978027 0.98836320638656616 0.032269690185785294
0.7720414400100708 0.99008554220199585 0.030595667660236359
0.97921961545944214 0.98270785808563232 0.023931989446282387
1 0.97953110933303833 0.020018169656395912
0.99978417158126831 0.96499872207641602 0.0072586359456181526
0.9979245662689209 0.93721383810043335 0.0011326359817758203
0.99962466955184937 0.92826521396636963 0.00039545694016851485
0.99999403953552246 0.95339006185531616 0.00016790651716291904
0.99958509206771851 0.97751021385192871 0.0045178132131695747
0.00049585080705583096 1 0.0051045436412096024
0.031814113259315491 1 0.01414063386619091
0.13796530663967133 1 0.026626721024513245
0.32527866959571838 1 0.039333418011665344
0.5802757740020752 1 0.046045459806919098
0.86008763313293457 0.99994248151779175 0.040330789983272552
0.99750298261642456 0.99998921155929565 0.033812996000051498
1 1 0.030462153255939484
0.99998939037322998 1 0.019530113786458969
0.99945497512817383 1 0.011234762147068977
0.99966144561767578 1 0.009362553246319294
1 1 0.010111400857567787
1 1 0.021494098007678986
1.7951516610992257e-06 1 0.01230151578783989
0.038726013153791428 1 0.021661287173628807
0.16653735935688019 1 0.034637302160263062
0.37233102321624756 1 0.048782706260681152
0.6410108208656311 0.99996840953826904 0.0583762526512146
0.90913814306259155 0.99476754665374756 0.054827805608510971
1 0.99880087375640869 0.048039022833108902
1 1 0.046491466462612152
1 1 0.040904324501752853
1 1 0.033712856471538544
1 1 0.030533943325281143
1 1 0.033130556344985962
1 1 0.045953504741191864
0 1 0.019415223971009254
0.044150963425636292 1 0.027272632345557213
0.18913204967975616 1 0.038597870618104935
0.40974792838096619 1 0.051467865705490112
0.68883198499679565 0.99853652715682983 0.062341935932636261
0.94009453058242798 0.99140244722366333 0.065089508891105652
1 0.99809873104095459 0.065075084567070007
1 1 0.06603628396987915
1 1 0.063940532505512238
1 1 0.058469600975513458
1 1 0.055384721606969833
1 1 0.058899689465761185
1 1 0.07227567583322525
0 1 0.027006456628441811
0.058059826493263245 1 0.032233264297246933
0.21518801152706146 1 0.040567837655544281
0.44379886984825134 0.99994927644729614 0.050483852624893188
0.72724097967147827 0.99589711427688599 0.059945635497570038
0.96246880292892456 0.99450314044952393 0.067370228469371796
1 0.99814969301223755 0.074696667492389679
1 0.99974191188812256 0.081360854208469391
1 0.99998289346694946 0.082910560071468353
1 1 0.080311417579650879
1 1 0.079628318548202515
1 1 0.085321836173534393
1 1 0.100197933614254
0.0001446892274543643 0 0.024393927305936813
0.010869852267205715 0.00010482189827598631 0.017886532470583916
0.055632468312978745 0.00138154870364815 0.0081445733085274696
0.13838104903697968 0.00037942026392556727 0.00032160143018700182
0.2576805055141449 0 0
0.41250759363174438 5.6592154578538612e-05 0
0.60812914371490479 0.0015182645292952657 0
0.83909112215042114 0.0015272103482857347 0.0032320509199053049
0.99436944723129272 0 0.00032839307095855474
1 0 0
1 0 0
1 0 0
1 0 0
0 0.00097400438971817493 0.009484369307756424
0.0033947664778679609 0.0011284173233434558 0.0080793639644980431
0.041361011564731598 0.001292060362175107 0.0043055964633822441
0.12573599815368652 8.0392877862323076e-05 0.00020122154091950506
0.25235441327095032 0 0
0.41274312138557434 0 0
0.61270833015441895 5.6936227338155732e-05 0
0.85753387212753296 0.00054924160940572619 0.0010074989404529333
0.99816113710403442 0 0.00010411879338789731
1 0 0
1 0 0
1 0 0
1 0 0
0 0.026391332969069481 0.0018055485561490059
0.0025321063585579395 0.027810623869299889 0.0044924416579306126
0.04352295771241188 0.028293116018176079 0.0059334100224077702
0.13953101634979248 0.020090574398636818 0.0029725318308919668
0.28081434965133667 0.011687364429235458 0.00036066092434339225
0.45657995343208313 0.01169478427618742 0
0.67323952913284302 0.015973888337612152 0
0.9095805287361145 0.018198948353528976 0
0.99998253583908081 0.0067919711582362652 0
1 0.00013463637151289731 0
1 0 0
1 0 0
1 0 0
0 0.093995369970798492 0.0003871543740388006
0.0038533229380846024 0.10322075337171555 0.0047640781849622726
0.052936524152755737 0.11255396157503128 0.0095016332343220711
0.16291531920433044 0.11464457958936691 0.0088831586763262749
0.3230116069316864 0.11045753955841064 0.005037359893321991
0.52369552850723267 0.1034160852432251 0.0019741132855415344
0.76133537292480469 0.09788176417350769 0.00010658713290467858
0.96438407897949219 0.090582065284252167 0
1 0.068001121282577515 0
1 0.035817719995975494 0
1 0.015048711560666561 0
1 0.010164597071707249 0
0.99994397163391113 0.01817626878619194 0
0 0.21087408065795898 0.00011488970631035045
0.0083899553865194321 0.23030601441860199 0.0051290476694703102
0.067695066332817078 0.250284343957901 0.013091996312141418
0.18919484317302704 0.26291102170944214 0.017443085089325905
0.3653925359249115 0.2666175365447998 0.018182059749960899
0.58643293380737305 0.25846543908119202 0.013817626051604748
0.83212625980377197 0.24619428813457489 0.0052426354959607124
0.98885625600814819 0.22782061994075775 0.00035846186801791191
1 0.19365058839321136 0
1 0.15476256608963013 0
1 0.12930095195770264 0
1 0.1286255270242691 0
0.99560719728469849 0.15416689217090607 0.00066724291536957026
0 0.37465134263038635 0.00011488970631035045
0.012255859561264515 0.40375757217407227 0.0060423160903155804
0.079237557947635651 0.42891055345535278 0.016935998573899269
0.20978957414627075 0.44166690111160278 0.025422727689146996
0.3962283730506897 0.44424763321876526 0.029578264802694321
0.62678605318069458 0.44050756096839905 0.027674043551087379
0.86837166547775269 0.4282166063785553 0.019713668152689934
0.99170899391174316 0.40527436137199402 0.0063484041020274162
1 0.3652227520942688 0.0003073150001000613
1 0.32162711024284363 0
1 0.30046343803405762 0
1 0.31447705626487732 0
0.9927668571472168 0.35359102487564087 0.0036586537025868893
0 0.57569140195846558 0.0003874236426781863
0.01039542444050312 0.61222851276397705 0.0086293388158082962
0.08316802978515625 0.63647633790969849 0.021976262331008911
0.22622014582157135 0.64205634593963623 0.033923070877790451
0.42894881963729858 0.63979321718215942 0.040936414152383804
0.67637193202972412 0.6403232216835022 0.041899766772985458
0.92242413759231567 0.62823230028152466 0.037598911672830582
0.99951136112213135 0.60593032836914062 0.024840217083692551
1 0.56638848781585693 0.0087669221684336662
1 0.52074259519577026 0.00087377510499209166
1 0.50173521041870117 8.9757586465566419e-06
1 0.52435827255249023 2.8423235107766232e-06
0.99477952718734741 0.57308375835418701 0.005036582238972187
0 0.79292219877243042 0.0024925980251282454
0.0059541589580476284 0.83027034997940063 0.013543297536671162
0.084222011268138885 0.84691101312637329 0.02989807166159153
0.24466937780380249 0.84665828943252563 0.046207532286643982
0.46638885140419006 0.84840375185012817 0.057141892611980438
0.73566514253616333 0.85633039474487305 0.060716111212968826
0.96417772769927979 0.84361225366592407 0.057968541979789734
0.99993216991424561 0.82844638824462891 0.046396009624004364
0.99975943565368652 0.79025888442993164 0.025963293388485909
0.99953740835189819 0.7448921799659729 0.009810728020966053
1 0.7281380295753479 0.00228093471378088
1 0.75499182939529419 0.00091138354036957026
0.99770450592041016 0.80424785614013672 0.010224032215774059
0 0.97010016441345215 0.0088729709386825562
0.0075480444356799126 0.98573857545852661 0.022273808717727661
0.098899751901626587 0.98848730325698853 0.042025160044431686
0.27802622318267822 0.98654913902282715 0.062191907316446304
0.51590991020202637 0.98855173587799072 0.077283464372158051
0.7862473726272583 0.99295514822006226 0.083726473152637482
0.98059296607971191 0.98956930637359619 0.080552071332931519
0.99978303909301758 0.98787528276443481 0.067154765129089355
0.99941974878311157 0.97343730926513672 0.042228385806083679
0.99955588579177856 0.95319515466690063 0.024397712200880051
1 0.94655632972717285 0.014571141451597214
1 0.96346962451934814 0.012518908828496933
0.99990040063858032 0.98262137174606323 0.02769928053021431
0 1 0.021420722827315331
0.021496027708053589 1 0.036865502595901489
0.13357588648796082 1 0.057708621025085449
0.33053457736968994 1 0.079741731286048889
0.59273684024810791 1 0.097232729196548462
0.87413704395294189 0.99951374530792236 0.10389047116041183
0.99857348203659058 0.99989479780197144 0.098037287592887878
1 1 0.083584114909172058
1 1 0.063328176736831665
1 1 0.046919338405132294
1 1 0.038462456315755844
1 1 0.039722517132759094
0.99994784593582153 1 0.055597506463527679
0 1 0.03561420738697052
0.033685244619846344 1 0.05047568678855896
0.16777774691581726 1 0.07001350075006485
0.38166907429695129 1 0.092227384448051453
0.65264791250228882 1 0.11237362027168274
0.9135890007019043 0.99466383457183838 0.1203872412443161
1 0.99821537733078003 0.11434426158666611
1 1 0.1045677661895752
1 1 0.090586990118026733
0.99995440244674683 1 0.07673829048871994
0.99956327676773071 1 0.069121159613132477
0.99933266639709473 1 0.071470446884632111
0.99789512157440186 1 0.086348481476306915
0 1 0.047897562384605408
0.042377501726150513 1 0.060254190117120743
0.19452854990959167 1 0.076442748308181763
0.42279022932052612 1 0.09532184898853302
0.70143431425094604 0.99992471933364868 0.11403712630271912
0.94200938940048218 0.99437880516052246 0.12531305849552155
1 0.99697339534759521 0.12749619781970978
0.99999833106994629 0.99998980760574341 0.1264832466840744
0.99919849634170532 1 0.11805689334869385
0.99924224615097046 1 0.10607954859733582
0.99998354911804199 1 0.099376097321510315
0.99975275993347168 1 0.10226208716630936
0.9977424144744873 1 0.11671784520149231
0 1 0.058886013925075531
0.057885576039552689 1 0.067455694079399109
0.22261485457420349 1 0.079302646219730377
0.45759192109107971 1 0.093724869191646576
0.73875600099563599 0.99981975555419922 0.10950236767530441
0.96440505981445312 0.99836641550064087 0.12302352488040924
1 0.99505895376205444 0.13371065258979797
0.99996960163116455 0.99432277679443359 0.1406378298997879
0.99863195419311523 0.99579936265945435 0.1379382312297821
0.99968564510345459 0.99705618619918823 0.13036246597766876
1 0.99825561046600342 0.12667779624462128
1 0.9980628490447998 0.13115969300270081
0.99947434663772583 0.9962921142578125 0.1463080495595932
3.7339155824156478e-05 0 0.043430492281913757
0.010156713426113129 3.4227559808641672e-05 0.035067867487668991
0.05789560079574585 0.00063982198480516672 0.018682412803173065
0.14489392936229706 0.0001476063480367884 0.0022395863197743893
0.26668646931648254 7.9734651080798358e-05 0
0.42583730816841125 0.001175988931208849 0
0.62965220212936401 0.004352315329015255 0
0.86453676223754883 0.0028037724550813437 0.0011849048314616084
0.99777460098266602 0 1.3643152669828851e-05
1 0 0
1 0 0
1 0 0
1 0 0
0 0.0020288953091949224 0.023906826972961426
0.0029995637014508247 0.0019872777629643679 0.020786300301551819
0.043312191963195801 0.0019644193816930056 0.013455813750624657
0.13254651427268982 0.00019825954223051667 0.0032495686318725348
0.26406148076057434 0 4.0734983485890552e-05
0.43249198794364929 0 0
0.64681500196456909 0.00025594374164938927 0
0.89536076784133911 0.0010826260549947619 0.00011613135575316846
0.9999803900718689 0 5.0264247875020374e-06
1 0 0
1 0 0
1 0 0
1 0 0
0 0.029653586447238922 0.012612825259566307
0.0026546402368694544 0.030882487073540688 0.015481537207961082
0.046499170362949371 0.032875269651412964 0.017322704195976257
0.14703860878944397 0.025694634765386581 0.013686759397387505
0.29343834519386292 0.016384826973080635 0.0060554356314241886
0.47640374302864075 0.014977937564253807 0.00079160206951200962
0.7020561695098877 0.018898997455835342 0
0.93474632501602173 0.020593920722603798 0
1 0.0073363212868571281 0
1 0.00014271456166170537 0
1 0 0
1 0 0
1 0 0
0 0.1024206280708313 0.0079234251752495766
0.0054289274848997593 0.11146904528141022 0.016393234953284264
0.058643192052841187 0.12121106684207916 0.025306716561317444
0.17178289592266083 0.12310470640659332 0.027988912537693977
0.33593001961708069 0.11805852502584457 0.023733729496598244
0.53942614793777466 0.10804341733455658 0.013154647313058376
0.77837830781936646 0.10034713894128799 0.0028969708364456892
