assets/lut/alexjordan green action.cube
# Created by: G'MIC (https://gmic.eu)
TITLE "green_action"
# LUT size
LUT_3D_SIZE 13
# Data domain
DOMAIN_MIN 0.0 0.0 0.0
DOMAIN_MAX 1.0 1.0 1.0
# LUT data points
0 0 0
0 0 0
0 0 0
0.00020913516345899552 1.9387638531043194e-05 6.8395274865906686e-05
0.0031953251454979181 0.0010530359577387571 0.00088034238433465362
0.013011678121984005 0.0047808331437408924 0.0037312526255846024
0.039693482220172882 0.012794659473001957 0.012328398413956165
0.089792512357234955 0.024033460766077042 0.023258194327354431
0.15248572826385498 0.034586094319820404 0.031490251421928406
0.21981120109558105 0.04205615445971489 0.041668761521577835
0.29138535261154175 0.04777095839381218 0.048188827931880951
0.36785605549812317 0.051117226481437683 0.047954529523849487
0.43875196576118469 0.051606360822916031 0.047413110733032227
0.0082697998732328415 0.0083738435059785843 0.0080726323649287224
0.017039595171809196 0.015451767481863499 0.010652280412614346
0.027934325858950615 0.021452002227306366 0.012168540619313717
0.046221219003200531 0.028421139344573021 0.017963185906410217
0.073780596256256104 0.037760894745588303 0.025578098371624947
0.11188150942325592 0.049852859228849411 0.032162580639123917
0.16500446200370789 0.062715522944927216 0.039399705827236176
0.2319728285074234 0.074008822441101074 0.042469009757041931
0.30751723051071167 0.081718489527702332 0.041327681392431259
0.38652107119560242 0.085579156875610352 0.041536562144756317
0.47537297010421753 0.089062616229057312 0.035556044429540634
0.56416594982147217 0.088806912302970886 0.025177570059895515
0.64069783687591553 0.085742026567459106 0.020417725667357445
0.03212299570441246 0.049726255238056183 0.030513733625411987
0.05482005700469017 0.067054659128189087 0.032057143747806549
0.081724785268306732 0.080267764627933502 0.032282270491123199
0.11447469890117645 0.090005360543727875 0.036110386252403259
0.15472039580345154 0.099426329135894775 0.040649909526109695
0.20733189582824707 0.11055779457092285 0.041364602744579315
0.27233925461769104 0.12161371856927872 0.038593605160713196
0.34677261114120483 0.12994611263275146 0.03238200768828392
0.42664766311645508 0.13393223285675049 0.025828268378973007
0.5086701512336731 0.13316309452056885 0.023471547290682793
0.60420304536819458 0.13415004312992096 0.017273278906941414
0.69463211297988892 0.12997421622276306 0.0090475194156169891
0.77291268110275269 0.12530654668807983 0.0052992729470133781
0.039897274225950241 0.12042276561260223 0.034134030342102051
0.072802074253559113 0.13825191557407379 0.032315813004970551
0.11558842658996582 0.15355575084686279 0.027539750561118126
0.1626117080450058 0.16488805413246155 0.026972722262144089
0.21334680914878845 0.17219166457653046 0.031110396608710289
0.2752251923084259 0.18030473589897156 0.028044935315847397
0.34821471571922302 0.18918688595294952 0.017007701098918915
0.42508396506309509 0.19410550594329834 0.0083718094974756241
0.50389212369918823 0.1941666454076767 0.0039528491906821728
0.58692598342895508 0.19227239489555359 0.003344307653605938
0.68244683742523193 0.19297407567501068 0.0059113148599863052
0.76923686265945435 0.18872638046741486 0.0064359330572187901
0.84881597757339478 0.18411669135093689 0.0049041896127164364
0.035297125577926636 0.21452336013317108 0.024197326973080635
0.072780951857566833 0.22632239758968353 0.016050182282924652
0.12425007671117783 0.23678365349769592 0.010910737328231335
0.18337203562259674 0.24686342477798462 0.0092244911938905716
0.24351426959037781 0.25084996223449707 0.014659282751381397
0.31191179156303406 0.2546360194683075 0.01072266511619091
0.39000603556632996 0.2612450122833252 0.0013089198619127274
0.46957290172576904 0.26397153735160828 3.8057216443121433e-05
0.55053120851516724 0.26307547092437744 0
0.63895463943481445 0.26345065236091614 0
0.73538458347320557 0.26576641201972961 0.00020376467728056014
0.82371169328689575 0.26163104176521301 0.00054179172730073333
0.90623199939727783 0.25599238276481628 0.00083707919111475348
0.022631118074059486 0.31602483987808228 0.012739727273583412
0.056787751615047455 0.31840819120407104 0.0056231929920613766
0.10891927033662796 0.31852129101753235 0.005537878256291151
0.17689806222915649 0.32805240154266357 0.0051451739855110645
0.24739590287208557 0.33209174871444702 0.0055359783582389355
0.31993851065635681 0.32992321252822876 0.0024266561958938837
0.40031924843788147 0.33233430981636047 5.385455096984515e-06
0.48293834924697876 0.33474430441856384 0
0.56747007369995117 0.33501765131950378 0
0.65713012218475342 0.33542174100875854 0
0.74782568216323853 0.33466747403144836 0
0.82967960834503174 0.32664033770561218 0
0.90446263551712036 0.315765380859375 1.7697202565614134e-05
0.0082771750167012215 0.41667953133583069 0.0061279446817934513
0.036838412284851074 0.41021233797073364 0.0031056422740221024
0.08676021546125412 0.40481919050216675 0.0042293025180697441
0.15889190137386322 0.41265007853507996 0.0025786904152482748
0.236159548163414 0.41542321443557739 0.00060960359405726194
0.31258165836334229 0.40970775485038757 2.5221881514880806e-05
0.39360278844833374 0.4078318178653717 0
0.47786328196525574 0.40819382667541504 0
0.56466680765151978 0.40905871987342834 0
0.65421754121780396 0.40952667593955994 0
0.74291986227035522 0.40776553750038147 0
0.82641994953155518 0.40268152952194214 0
0.90442800521850586 0.39632537961006165 0.00068007822846993804
0.001439517131075263 0.50647997856140137 0.0020721436012536287
0.019964510574936867 0.50040632486343384 0.00033274630550295115
0.065061606466770172 0.4958246648311615 0.00031690410105511546
0.13510467112064362 0.49645006656646729 0.00015857172547839582
0.21604523062705994 0.49534416198730469 0
0.29755321145057678 0.49071717262268066 0
0.37955963611602783 0.48667925596237183 0
0.4639422595500946 0.48476248979568481 0
0.55214095115661621 0.48559397459030151 0
0.64267700910568237 0.48650893568992615 0
0.73203182220458984 0.48574560880661011 0
0.81895792484283447 0.48444303870201111 0
0.90046477317810059 0.4815031886100769 1.7697202565614134e-05
0.00012076882558176294 0.58797699213027954 0.00017580518033355474
0.00618743896484375 0.58760792016983032 0
0.04245535284280777 0.58544814586639404 0.00013924392987973988
0.11121435463428497 0.58121252059936523 4.0256276406580582e-05
0.19489680230617523 0.57679063081741333 0
0.27942338585853577 0.57153105735778809 0
0.36229228973388672 0.5663381814956665 0
0.44769090414047241 0.5639030933380127 0
0.53667199611663818 0.56435167789459229 0.00010618322266964242
0.62733036279678345 0.56455904245376587 0
0.71605813503265381 0.56359767913818359 0
0.80117154121398926 0.56102496385574341 0
0.88075911998748779 0.55677300691604614 0
0 0.67470818758010864 0
0.00024951112573035061 0.67381352186203003 0.00011123956210212782
0.020353564992547035 0.66999685764312744 0.0018550948007032275
0.088599547743797302 0.66402417421340942 0.001588664366863668
0.17669129371643066 0.66051626205444336 0.00017405491962563246
0.26164001226425171 0.65329664945602417 0
0.34527873992919922 0.64644116163253784 0
0.43167993426322937 0.64346408843994141 0
0.52150040864944458 0.64351558685302734 0.00025534536689519882
0.61093401908874512 0.64266103506088257 0
0.69716650247573853 0.64013808965682983 0
0.77968436479568481 0.63573098182678223 0
0.8577430248260498 0.63023179769515991 0
0 0.75800991058349609 0
0 0.75033313035964966 0
0.0070508322678506374 0.74141532182693481 0.0027076720725744963
0.068161383271217346 0.73836404085159302 0.0037062999326735735
0.15725715458393097 0.73826092481613159 0.001075056497938931
0.24178266525268555 0.73108315467834473 1.458560745959403e-05
0.32652491331100464 0.72411119937896729 0
0.41446217894554138 0.72167104482650757 0
0.50468540191650391 0.72190618515014648 0
0.59327816963195801 0.72008740901947021 0
0.67760443687438965 0.7162671685218811 0
0.7583884596824646 0.71068763732910156 0
0.83609426021575928 0.70484769344329834 0
0 0.83738189935684204 0
0 0.82575535774230957 0
0.0039087035693228245 0.81521499156951904 0.00067716115154325962
0.055797576904296875 0.81127941608428955 0.0020748511888086796
0.13644714653491974 0.80993425846099854 0.00087785907089710236
0.22032280266284943 0.80447381734848022 1.0696111530705821e-05
0.30629482865333557 0.79965066909790039 0
0.39593786001205444 0.79814779758453369 0
0.48603874444961548 0.79784131050109863 0
0.57382053136825562 0.79610377550125122 0
0.65788525342941284 0.79222255945205688 0
0.73821401596069336 0.78705096244812012 0
0.81585294008255005 0.78183341026306152 0
0 0.917091965675354 0
0 0.90509277582168579 0
0.0053533664904534817 0.89469456672668457 0
0.05277647078037262 0.88845145702362061 0.00022403492766898125
0.12428298592567444 0.8846813440322876 7.9345700214616954e-05
0.20479701459407806 0.88036483526229858 0
0.29012033343315125 0.87684005498886108 0
0.37879154086112976 0.87512737512588501 0
0.46783643960952759 0.87465947866439819 0
0.55494940280914307 0.87276506423950195 0
0.638904869556427 0.86941349506378174 0
0.71974211931228638 0.8652348518371582 0
0.7977982759475708 0.8608856201171875 0
0 0 0
0 0 0
0 0 0
0.0010124655673280358 0.00044789034291170537 0.00067802879493683577
0.006353041622787714 0.0028112523723393679 0.0040271235629916191
0.020458400249481201 0.0083822812885046005 0.011390775442123413
0.0514487624168396 0.01754486933350563 0.025434680283069611
0.10264819115400314 0.029532009735703468 0.040505338460206985
0.16508722305297852 0.039132960140705109 0.054095130413770676
0.23638007044792175 0.045073237270116806 0.069470427930355072
0.31410360336303711 0.049645695835351944 0.07859724760055542
0.3943074643611908 0.049920205026865005 0.084431111812591553
0.47100818157196045 0.047015424817800522 0.089445911347866058
0.012818759307265282 0.012228722684085369 0.01397521048784256
0.020953983068466187 0.018582617864012718 0.017876973375678062
0.032115336507558823 0.025523345917463303 0.022994007915258408
0.052909206598997116 0.034173719584941864 0.033076699823141098
0.085576944053173065 0.045136649161577225 0.045587159693241119
0.12808841466903687 0.056725282222032547 0.057489700615406036
0.18264594674110413 0.067556388676166534 0.068468593060970306
0.24823318421840668 0.076994232833385468 0.075515761971473694
0.32273578643798828 0.083242155611515045 0.080492950975894928
0.40491452813148499 0.085950218141078949 0.08567751944065094
0.49472135305404663 0.088272660970687866 0.082537092268466949
0.58554035425186157 0.08650825172662735 0.076811544597148895
0.66567444801330566 0.082706436514854431 0.075006358325481415
0.035178869962692261 0.055872928351163864 0.046568956226110458
0.057084042578935623 0.071382202208042145 0.05372060090303421
0.08513139933347702 0.084139280021190643 0.059429842978715897
0.12064545601606369 0.095214381814002991 0.066998466849327087
0.16534480452537537 0.10718784481287003 0.072657793760299683
0.22215484082698822 0.11649006605148315 0.078124269843101501
0.28897789120674133 0.12465805560350418 0.079851560294628143
0.36346292495727539 0.13155829906463623 0.076808437705039978
0.44388923048973083 0.13511073589324951 0.073201000690460205
0.53099536895751953 0.1352916955947876 0.071028627455234528
0.62615954875946045 0.13487496972084045 0.066517636179924011
0.72045499086380005 0.13121038675308228 0.057577755302190781
0.80413162708282471 0.12830682098865509 0.051762554794549942
0.03918125107884407 0.12731355428695679 0.065756015479564667
0.073040321469306946 0.14288856089115143 0.072815343737602234
0.11811868846416473 0.15626256167888641 0.074794679880142212
0.16791121661663055 0.16825781762599945 0.074361570179462433
0.22252123057842255 0.17743167281150818 0.074134230613708496
0.28768718242645264 0.18451701104640961 0.07056204229593277
0.36266875267028809 0.19160595536231995 0.061260178685188293
0.44037157297134399 0.19580267369747162 0.051924433559179306
0.52171057462692261 0.19579614698886871 0.043487235903739929
0.61026549339294434 0.19549965858459473 0.037926573306322098
0.70349597930908203 0.19442538917064667 0.041081715375185013
0.79436272382736206 0.19064386188983917 0.036378763616085052
0.88023859262466431 0.18776965141296387 0.033818099647760391
0.033285897225141525 0.22103278338909149 0.068525411188602448
0.071787498891353607 0.23092277348041534 0.068125829100608826
0.12534579634666443 0.24008631706237793 0.064478345215320587
0.18606463074684143 0.24961686134338379 0.05909811332821846
0.2493157833814621 0.2542385458946228 0.057392016053199768
0.32087588310241699 0.25868913531303406 0.048042777925729752
0.40224263072013855 0.26510104537010193 0.030492596328258514
0.48162743449211121 0.26631021499633789 0.022133756428956985
0.56385242938995361 0.26516452431678772 0.016135795041918755
0.65320861339569092 0.26521968841552734 0.01205788366496563
0.74312508106231689 0.26449477672576904 0.01413263101130724
0.82696127891540527 0.25968813896179199 0.0099611617624759674
0.91527241468429565 0.25604870915412903 0.013186076655983925
0.020611543208360672 0.32149052619934082 0.058937087655067444
0.056173138320446014 0.32476058602333069 0.05114968866109848
0.11021041870117188 0.32699251174926758 0.046713631600141525
0.17845670878887177 0.33324497938156128 0.042015507817268372
0.25084245204925537 0.33631297945976257 0.035686910152435303
0.32725739479064941 0.33647933602333069 0.023451995104551315
0.40963652729988098 0.3383367657661438 0.010948734357953072
0.49209415912628174 0.33837470412254333 0.0075360615737736225
0.5764346718788147 0.33723056316375732 0.0056799044832587242
0.66525393724441528 0.33764073252677917 0.0044064540416002274
0.75300252437591553 0.3362184464931488 0.003743848530575633
0.83467555046081543 0.33070972561836243 0.0017123502911999822
0.91941076517105103 0.32541373372077942 0.0054986691102385521
0.0065490724518895149 0.41943466663360596 0.044017478823661804
0.03441823273897171 0.41546738147735596 0.034979384392499924
0.085995681583881378 0.41296184062957764 0.030851924791932106
0.15793986618518829 0.41701242327690125 0.025743132457137108
0.23792038857936859 0.41913217306137085 0.015823423862457275
0.31897425651550293 0.41802990436553955 0.0041795768775045872
0.40139520168304443 0.41546446084976196 0.00086758180987089872
0.48471364378929138 0.4126427173614502 0.001373979146592319
0.57106691598892212 0.411763995885849 0.0021441292483359575
0.66023916006088257 0.4117647111415863 0.0028373866807669401
0.74889224767684937 0.41173666715621948 0.0020440195221453905
0.83456027507781982 0.40914353728294373 0.0013408436207100749
0.9181252121925354 0.4047381579875946 0.0044357147999107838
0.00038332471740432084 0.50849896669387817 0.025868164375424385
0.013765103183686733 0.50164192914962769 0.015294482931494713
0.059544041752815247 0.49772769212722778 0.01257903128862381
0.13177505135536194 0.49721178412437439 0.010633236728608608
0.21571080386638641 0.49682325124740601 0.0047927559353411198
0.30060148239135742 0.49597656726837158 0.00034888772643171251
0.38365232944488525 0.49190965294837952 0
0.46798774600028992 0.48900535702705383 0.00016603656695224345
0.55683928728103638 0.48895591497421265 0.0013479344779625535
0.64737921953201294 0.48897057771682739 0.0023358364123851061
0.73675519227981567 0.48897057771682739 0.0011570799397304654
0.82378685474395752 0.48878157138824463 0.00032713648397475481
0.90696299076080322 0.4848930835723877 0.00083763274597004056
0 0.59261870384216309 0.0075748669914901257
0.0016866198275238276 0.58580541610717773 0.0018736596684902906
0.034446671605110168 0.58172452449798584 0.0014947180170565844
0.10535603016614914 0.5785863995552063 0.0016180300153791904
0.19159235060214996 0.57541012763977051 0.00081278482684865594
0.27871862053871155 0.57327127456665039 4.5088225306244567e-05
0.36269780993461609 0.56847643852233887 0
0.44908308982849121 0.56617182493209839 0.00015320123929996043
0.54007339477539062 0.56654626131057739 0.0015761132817715406
0.63073545694351196 0.56742334365844727 0.0017132030334323645
0.71849024295806885 0.56617158651351929 0.00024666878744028509
0.8030693531036377 0.56400251388549805 0
0.88341242074966431 0.55901253223419189 0
0 0.67869681119918823 0.00016608144505880773
0 0.67036890983581543 0
0.01376997958868742 0.66292679309844971 0
0.080481767654418945 0.6594841480255127 0
0.16956411302089691 0.65794843435287476 0
0.25802096724510193 0.65350496768951416 0
0.34403833746910095 0.64819431304931641 0
0.43255630135536194 0.64594537019729614 0.00045055313967168331
0.52407079935073853 0.64695155620574951 0.0015531353419646621
0.61372458934783936 0.6468966007232666 0.00075688079232349992
0.69846177101135254 0.64282047748565674 0
0.78017216920852661 0.63789570331573486 0
0.85867786407470703 0.63190191984176636 0
0 0.76152366399765015 0
0 0.74795258045196533 0
0.0025329890195280313 0.7349584698677063 1.0890586963796522e-05
0.057469446212053299 0.73364448547363281 4.278444976080209e-06
0.14763583242893219 0.73584800958633423 0
0.23654931783676147 0.73141223192214966 0
0.32450124621391296 0.72632879018783569 2.7645335649140179e-05
0.41502812504768372 0.72450977563858032 0.00063255161512643099
0.50677716732025146 0.72450977563858032 0.00072326662484556437
0.59537184238433838 0.72373807430267334 0.00019022623018827289
0.67878687381744385 0.71878105401992798 0
0.75873655080795288 0.71280711889266968 0
0.83758807182312012 0.70668679475784302 0
0 0.84003287553787231 2.1392224880401045e-06
0 0.8249630331993103 1.8101112573276623e-06
0.0011869393056258559 0.81173521280288696 1.0531556654314045e-05
0.045504432171583176 0.80901634693145752 6.9113339122850448e-06
0.12746967375278473 0.80919551849365234 0
0.21486037969589233 0.80607068538665771 2.4683335141162388e-05
0.30424115061759949 0.80227804183959961 0.00036366781569086015
0.39568617939949036 0.80167913436889648 0.00067401962587609887
0.48701804876327515 0.80143868923187256 0.00046075560385361314
0.57554483413696289 0.79880249500274658 0
0.65914678573608398 0.79477804899215698 0
0.73933714628219604 0.78883945941925049 0
0.81929463148117065 0.7837333083152771 0
0 0.91927105188369751 0.0022864397615194321
0 0.90484136343002319 0.0019791098311543465
0.0018795536598190665 0.89323443174362183 0.0029989653266966343
0.043386287987232208 0.88740819692611694 0.0031377456616610289
0.1156788244843483 0.88443320989608765 0.002213706262409687
0.19864293932914734 0.88200229406356812 0.0020705878268927336
0.28693464398384094 0.87894731760025024 0.0019363552564755082
0.37766769528388977 0.87867826223373413 0.0013334834948182106
0.46817296743392944 0.87691402435302734 0.00051734776934608817
0.55644792318344116 0.87495476007461548 0
0.64049255847930908 0.87154114246368408 0
0.72212868928909302 0.86701112985610962 0
0.80088382959365845 0.86267465353012085 0
0 0 0
0 0 0
0 0 0
0.001582605647854507 0.00093940284568816423 0.0015116971917450428
0.0089558018371462822 0.0042217480950057507 0.0066799386404454708
0.028631966561079025 0.011085645295679569 0.01909230463206768
0.065554313361644745 0.021478869020938873 0.039157912135124207
0.11741908639669418 0.033357687294483185 0.058782346546649933
0.17965380847454071 0.042725909501314163 0.077250942587852478
0.25265657901763916 0.048523366451263428 0.09632604569196701
0.33071660995483398 0.051633588969707489 0.1095181331038475
0.41303843259811401 0.049675855785608292 0.12149506807327271
0.49259495735168457 0.045418772846460342 0.13016955554485321
0.0080511951819062233 0.009580560028553009 0.012308143079280853
0.017643827944993973 0.016799671575427055 0.01945984736084938
0.032702203840017319 0.026513507589697838 0.030885763466358185
0.056710921227931976 0.037502646446228027 0.046709757298231125
0.092957049608230591 0.049405954778194427 0.063485719263553619
0.14075028896331787 0.061044968664646149 0.081913158297538757
0.19728808104991913 0.070856772363185883 0.099039100110530853
0.26258137822151184 0.079160429537296295 0.11208774149417877
0.33649030327796936 0.08504951000213623 0.12280067056417465
0.41987699270248413 0.087623327970504761 0.13204057514667511
0.50788146257400513 0.087770767509937286 0.13512530922889709
0.59626132249832153 0.084332652390003204 0.13509456813335419
0.67692536115646362 0.080902397632598877 0.13574287295341492
0.029684282839298248 0.05740782618522644 0.059231478720903397
0.052924599498510361 0.071605861186981201 0.070106074213981628
0.085421331226825714 0.08589433878660202 0.084126956760883331
0.12378625571727753 0.098614484071731567 0.097447335720062256
0.17395356297492981 0.11062221229076385 0.10990654677152634
0.2332770973443985 0.11950738728046417 0.1207994669675827
0.30039921402931213 0.12616086006164551 0.12928420305252075
0.37406176328659058 0.13166534900665283 0.13329736888408661
0.45426741242408752 0.13531985878944397 0.13539201021194458
0.54297459125518799 0.13549244403839111 0.13600791990756989
0.63583290576934814 0.13259384036064148 0.13336516916751862
0.72815895080566406 0.12887805700302124 0.12585243582725525
0.81148320436477661 0.12599129974842072 0.12037039548158646
0.034165386110544205 0.13278080523014069 0.10019072145223618
0.069063641130924225 0.14557237923145294 0.11136830598115921
0.11662555485963821 0.15822465717792511 0.1201164722442627
0.16922037303447723 0.16980580985546112 0.12396889179944992
0.22768096625804901 0.17964395880699158 0.12702128291130066
0.29437938332557678 0.18584825098514557 0.12828363478183746
0.36852556467056274 0.19054380059242249 0.12713705003261566
0.44522964954376221 0.1933925449848175 0.12429751455783844
0.52624738216400146 0.19408300518989563 0.12092144787311554
0.61552447080612183 0.19316744804382324 0.11534187197685242
0.70699530839920044 0.1897585541009903 0.11133255064487457
0.79769980907440186 0.18573257327079773 0.1004008874297142
0.88455992937088013 0.18341057002544403 0.094435326755046844
0.027344362810254097 0.22690123319625854 0.12263457477092743
0.066622592508792877 0.23404586315155029 0.12624411284923553
0.12144237011671066 0.24131077527999878 0.12560811638832092
0.18355803191661835 0.24908506870269775 0.12171247601509094
0.24922364950180054 0.25370109081268311 0.11826189607381821
0.32131001353263855 0.25707224011421204 0.11149169504642487
0.40138110518455505 0.260968416929245 0.10385087132453918
0.48115056753158569 0.26142093539237976 0.099348835647106171
0.56474524736404419 0.26209050416946411 0.091845296323299408
0.65245550870895386 0.26133689284324646 0.083927825093269348
0.73944568634033203 0.25802505016326904 0.07747013121843338
0.82371073961257935 0.25293084979057312 0.066140197217464447
0.91178154945373535 0.24994929134845734 0.065513789653778076
0.017120616510510445 0.32345190644264221 0.12194960564374924
0.052604001015424728 0.32630643248558044 0.11600375920534134
0.1074325293302536 0.32882383465766907 0.10907625406980515
0.17492745816707611 0.33266133069992065 0.10173199325799942
0.24786855280399323 0.3347659707069397 0.092826351523399353
0.32595548033714294 0.33601421117782593 0.080188721418380737
0.40864798426628113 0.33717215061187744 0.071267098188400269
0.49161484837532043 0.33561006188392639 0.069221153855323792
0.57704704999923706 0.33523154258728027 0.06508394330739975
0.66406828165054321 0.33506041765213013 0.059956956654787064
0.74941325187683105 0.33274075388908386 0.053400419652462006
0.83171540498733521 0.32760247588157654 0.045205838978290558
0.91775250434875488 0.32324358820915222 0.047985166311264038
0.0063887503929436207 0.416748046875 0.10585421323776245
0.033601872622966766 0.41563302278518677 0.093908332288265228
0.084735095500946045 0.41482087969779968 0.084548696875572205
0.15499284863471985 0.41703999042510986 0.076463006436824799
0.23494997620582581 0.41915526986122131 0.064934916794300079
0.31874969601631165 0.42065635323524475 0.047733098268508911
0.4024406373500824 0.41810804605484009 0.039804480969905853
0.48618918657302856 0.41421210765838623 0.043285802006721497
0.57251912355422974 0.41178745031356812 0.046287938952445984
0.66007834672927856 0.4117647111415863 0.046097848564386368
0.74650013446807861 0.4106895923614502 0.041700880974531174
0.83071720600128174 0.40669891238212585 0.035973731428384781
0.91447156667709351 0.40199115872383118 0.037396300584077835
