assets/lut/alexjordan mostly blue.cube
# Created by: G'MIC (https://gmic.eu)
TITLE "mostly_blue"
# LUT size
LUT_3D_SIZE 13
# Data domain
DOMAIN_MIN 0.0 0.0 0.0
DOMAIN_MAX 1.0 1.0 1.0
# LUT data points
0.027661103755235672 0.039038222283124924 0.050236061215400696
0.067510597407817841 0.045213900506496429 0.042026892304420471
0.11223373562097549 0.056904647499322891 0.054595619440078735
0.15956200659275055 0.071746096014976501 0.068518787622451782
0.20302562415599823 0.086866922676563263 0.0833701491355896
0.2452312707901001 0.10172632336616516 0.097351238131523132
0.28306740522384644 0.10634394735097885 0.10191460698843002
0.32143968343734741 0.11148443818092346 0.10831139981746674
0.36266031861305237 0.11911012232303619 0.11819383502006531
0.40364283323287964 0.13028579950332642 0.12988556921482086
0.44392654299736023 0.13929183781147003 0.13849504292011261
0.48666855692863464 0.15527504682540894 0.15717081725597382
0.52479976415634155 0.17552247643470764 0.18658323585987091
0.067626610398292542 0.094139307737350464 0.07895265519618988
0.10804764926433563 0.10332825779914856 0.088525615632534027
0.14480683207511902 0.11648967862129211 0.092830926179885864
0.19094812870025635 0.12853690981864929 0.10370220243930817
0.23354311287403107 0.14039936661720276 0.11056095361709595
0.27514415979385376 0.15418283641338348 0.1227322593331337
0.31495359539985657 0.16204121708869934 0.13111938536167145
0.35510408878326416 0.17076624929904938 0.14025361835956573
0.39692068099975586 0.18031439185142517 0.15041162073612213
0.43691956996917725 0.19031053781509399 0.16158711910247803
0.4775334894657135 0.20028933882713318 0.17131014168262482
0.52067661285400391 0.21250030398368835 0.18379448354244232
0.56031161546707153 0.22634878754615784 0.20019528269767761
0.12386761605739594 0.15346148610115051 0.13072790205478668
0.16156843304634094 0.16575965285301208 0.1512073278427124
0.18720355629920959 0.18340356647968292 0.14970797300338745
0.22623324394226074 0.19441540539264679 0.14548291265964508
0.26963397860527039 0.21011786162853241 0.15338917076587677
0.31077158451080322 0.22377082705497742 0.16154232621192932
0.35138821601867676 0.23072056472301483 0.16916114091873169
0.39290377497673035 0.23897150158882141 0.17854046821594238
0.43506476283073425 0.24745513498783112 0.18694122135639191
0.47302073240280151 0.25613367557525635 0.19644936919212341
0.51343727111816406 0.26600179076194763 0.20599532127380371
0.5578988790512085 0.27710115909576416 0.21617050468921661
0.59620827436447144 0.28686955571174622 0.22484718263149261
0.19354867935180664 0.21637518703937531 0.19515332579612732
0.22115632891654968 0.23137906193733215 0.21272647380828857
0.24130167067050934 0.24998445808887482 0.21423064172267914
0.27141943573951721 0.26390853524208069 0.2092975378036499
0.30620113015174866 0.27962800860404968 0.20631089806556702
0.34603217244148254 0.29218384623527527 0.20975051820278168
0.3868216872215271 0.30199059844017029 0.21429702639579773
0.42707204818725586 0.30982863903045654 0.22058039903640747
0.4693114161491394 0.31959390640258789 0.23012438416481018
0.50889921188354492 0.32810989022254944 0.235953688621521
0.54995453357696533 0.3389885425567627 0.24614144861698151
0.59605908393859863 0.35069292783737183 0.25766733288764954
0.63503563404083252 0.35897588729858398 0.26367521286010742
0.24515381455421448 0.27431133389472961 0.24837566912174225
0.27455884218215942 0.28952935338020325 0.26730465888977051
0.29388996958732605 0.30780705809593201 0.27213612198829651
0.31638440489768982 0.32536286115646362 0.27239087224006653
0.34767246246337891 0.34247902035713196 0.26782700419425964
0.3801729679107666 0.35515257716178894 0.26293060183525085
0.41889792680740356 0.36614924669265747 0.26361742615699768
0.46001127362251282 0.37666726112365723 0.26716583967208862
0.50258618593215942 0.38729360699653625 0.27621400356292725
0.54316014051437378 0.39708226919174194 0.28087684512138367
0.584739089012146 0.4083983302116394 0.28866273164749146
0.63015842437744141 0.41953101754188538 0.29964742064476013
0.66925984621047974 0.42783927917480469 0.30761390924453735
0.29639393091201782 0.33086112141609192 0.29981279373168945
0.32850071787834167 0.34733915328979492 0.32427522540092468
0.34899085760116577 0.36478045582771301 0.33513364195823669
0.36788946390151978 0.38173568248748779 0.33461111783981323
0.38895413279533386 0.39899465441703796 0.32766848802566528
0.41759943962097168 0.41453531384468079 0.32118517160415649
0.45160987973213196 0.42784920334815979 0.31673255562782288
0.49249643087387085 0.44009947776794434 0.31875070929527283
0.53394913673400879 0.45136615633964539 0.32603970170021057
0.57536101341247559 0.46294358372688293 0.33298233151435852
0.61545169353485107 0.47343811392784119 0.33483392000198364
0.65832901000976562 0.4830411970615387 0.33831027150154114
0.69583237171173096 0.49128064513206482 0.34581035375595093
0.35101348161697388 0.38552331924438477 0.35232329368591309
0.38134258985519409 0.40172237157821655 0.37790006399154663
0.40214934945106506 0.42014825344085693 0.39289683103561401
0.42084228992462158 0.43729913234710693 0.39758917689323425
0.44087719917297363 0.45757430791854858 0.39219540357589722
0.4612945020198822 0.4731479287147522 0.38498181104660034
0.49017304182052612 0.48725655674934387 0.37663072347640991
0.52464026212692261 0.50053340196609497 0.36897680163383484
0.5655396580696106 0.51470112800598145 0.37700924277305603
0.60735362768173218 0.52739864587783813 0.38465780019760132
0.64692425727844238 0.53783559799194336 0.38378140330314636
0.68697190284729004 0.54565972089767456 0.37790116667747498
0.72310382127761841 0.55298918485641479 0.38035681843757629
0.4150632917881012 0.44667935371398926 0.41595709323883057
0.43571758270263672 0.45976778864860535 0.4325554370880127
0.45657894015312195 0.4787115752696991 0.44838756322860718
0.47529715299606323 0.49772739410400391 0.45655658841133118
0.49373438954353333 0.51436120271682739 0.45410043001174927
0.50913870334625244 0.52884382009506226 0.44632643461227417
0.5329970121383667 0.54564684629440308 0.44134017825126648
0.56636214256286621 0.5623670220375061 0.43529322743415833
0.60212975740432739 0.57628679275512695 0.43372258543968201
0.641376793384552 0.58900773525238037 0.43657383322715759
0.67904037237167358 0.60168534517288208 0.43427425622940063
0.72050023078918457 0.61102521419525146 0.42924115061759949
0.75954538583755493 0.61728405952453613 0.42552867531776428
0.47504660487174988 0.50734168291091919 0.47601377964019775
0.49079990386962891 0.51799237728118896 0.48820292949676514
0.50994831323623657 0.53650271892547607 0.50208485126495361
0.52818042039871216 0.55324482917785645 0.51127368211746216
0.5448567271232605 0.57078796625137329 0.51391839981079102
0.56135225296020508 0.58700329065322876 0.51039689779281616
0.58422231674194336 0.60435885190963745 0.50612342357635498
0.61205410957336426 0.62126684188842773 0.49841129779815674
0.64209294319152832 0.63816165924072266 0.48962351679801941
0.67539304494857788 0.65028870105743408 0.486235111951828
0.71166062355041504 0.66379570960998535 0.48183709383010864
0.75124859809875488 0.6762230396270752 0.47790277004241943
0.78955507278442383 0.68602591753005981 0.47615453600883484
0.51933801174163818 0.56209743022918701 0.52152997255325317
0.54031604528427124 0.57678920030593872 0.53882491588592529
0.56209176778793335 0.59304314851760864 0.55520057678222656
0.5810847282409668 0.60953128337860107 0.56735944747924805
0.5960814356803894 0.62562185525894165 0.57007098197937012
0.61220699548721313 0.6439288854598999 0.57117486000061035
0.63441437482833862 0.66051352024078369 0.5670662522315979
0.66026991605758667 0.67717123031616211 0.55913251638412476
0.68494206666946411 0.69435489177703857 0.55060607194900513
0.71312737464904785 0.70936250686645508 0.54535329341888428
0.74739110469818115 0.72333192825317383 0.54079544544219971
0.78281128406524658 0.73636752367019653 0.53296047449111938
0.81590759754180908 0.7453884482383728 0.52947896718978882
0.57018017768859863 0.61691504716873169 0.5725218653678894
0.59217584133148193 0.63106977939605713 0.59113872051239014
0.61258751153945923 0.6481437087059021 0.60727995634078979
0.63372045755386353 0.66505497694015503 0.62266623973846436
0.65050089359283447 0.68181270360946655 0.62778890132904053
0.66570651531219482 0.69865798950195312 0.6289747953414917
0.68583512306213379 0.71789216995239258 0.62965089082717896
0.70967990159988403 0.73585265874862671 0.6251252293586731
0.7314983606338501 0.75225925445556641 0.61529195308685303
0.75645148754119873 0.76921606063842773 0.60825186967849731
0.78608429431915283 0.78228849172592163 0.60292822122573853
0.81925690174102783 0.79766815900802612 0.59312063455581665
0.83908140659332275 0.80398011207580566 0.58803516626358032
0.62936782836914062 0.6784941554069519 0.63164842128753662
0.64696210622787476 0.68738716840744019 0.64558899402618408
0.6665913462638855 0.70575571060180664 0.66137754917144775
0.68867921829223633 0.72483551502227783 0.67725640535354614
0.70681512355804443 0.7413870096206665 0.68555307388305664
0.72286468744277954 0.75760406255722046 0.68842947483062744
0.74121576547622681 0.77621889114379883 0.69162487983703613
0.76233166456222534 0.79638886451721191 0.69176650047302246
0.78161519765853882 0.81163221597671509 0.68227463960647583
0.80275017023086548 0.8282477855682373 0.67391985654830933
0.83053207397460938 0.84338963031768799 0.67029362916946411
0.86210685968399048 0.85902386903762817 0.66095352172851562
0.88247746229171753 0.8695368766784668 0.65228664875030518
0.6869233250617981 0.73498815298080444 0.68815630674362183
0.69894194602966309 0.74230873584747314 0.69751900434494019
0.71751946210861206 0.75787818431854248 0.71259802579879761
0.73793965578079224 0.77627789974212646 0.72642886638641357
0.75563991069793701 0.79312962293624878 0.73592185974121094
0.77015358209609985 0.80692511796951294 0.73849970102310181
0.78764599561691284 0.82497870922088623 0.74201691150665283
0.8089061975479126 0.84817767143249512 0.74688529968261719
0.82648056745529175 0.86392146348953247 0.74305111169815063
0.84656423330307007 0.87915867567062378 0.73716795444488525
0.87478393316268921 0.90009045600891113 0.73588347434997559
0.90350860357284546 0.91501498222351074 0.7213941216468811
0.93048125505447388 0.93108290433883667 0.71093583106994629
0.038567382842302322 0.036942813545465469 0.13560886681079865
0.064784377813339233 0.052651602774858475 0.072750747203826904
0.10266081988811493 0.066736944019794464 0.076849408447742462
0.14778034389019012 0.077179357409477234 0.093147069215774536
0.18958206474781036 0.085715532302856445 0.10540937632322311
0.23257671296596527 0.10011622309684753 0.11859428882598877
0.27370366454124451 0.10714828222990036 0.12882502377033234
0.31379875540733337 0.11451354622840881 0.13844537734985352
0.35776275396347046 0.12482298165559769 0.15026263892650604
0.39879214763641357 0.13408561050891876 0.16088622808456421
0.43812626600265503 0.1452610045671463 0.17029128968715668
0.48258772492408752 0.15657232701778412 0.18205101788043976
0.52187496423721313 0.16661942005157471 0.1957639753818512
0.027069061994552612 0.11481066048145294 0.12235330045223236
0.10007797181606293 0.11023440212011337 0.1170184388756752
0.14688381552696228 0.12137790769338608 0.11964815855026245
0.19240662455558777 0.13312049210071564 0.1316060870885849
0.23420777916908264 0.14479248225688934 0.14133246243000031
0.27534258365631104 0.15632803738117218 0.15257997810840607
0.31569230556488037 0.16628095507621765 0.16293595731258392
0.35649007558822632 0.17859131097793579 0.17416810989379883
0.39427134394645691 0.18538923561573029 0.1833731085062027
0.43571728467941284 0.19376394152641296 0.19288711249828339
0.47553673386573792 0.20438961684703827 0.20290473103523254
0.52105236053466797 0.21505336463451385 0.21376322209835052
0.5621945858001709 0.22557647526264191 0.22552879154682159
0.04496866837143898 0.19407247006893158 0.1223335862159729
0.13971471786499023 0.17529569566249847 0.15585362911224365
0.19178485870361328 0.1874166876077652 0.16975629329681396
0.23218455910682678 0.20255622267723083 0.17451554536819458
0.27536773681640625 0.21684849262237549 0.18296535313129425
0.31517809629440308 0.22702808678150177 0.19139751791954041
0.35684260725975037 0.23634161055088043 0.2019001692533493
0.39768233895301819 0.24545350670814514 0.21122103929519653
0.43643221259117126 0.25222167372703552 0.22024226188659668
0.47517675161361694 0.25811761617660522 0.22772438824176788
0.51528030633926392 0.26801580190658569 0.23736898601055145
0.55993705987930298 0.28071931004524231 0.24928519129753113
0.59865003824234009 0.29135972261428833 0.25819718837738037
0.10044412314891815 0.25972217321395874 0.15915669500827789
0.2058500200510025 0.23894083499908447 0.21290358901023865
0.24790336191654205 0.25319638848304749 0.22965773940086365
0.2751065194606781 0.26999613642692566 0.23053967952728271
0.31287464499473572 0.28545975685119629 0.23269425332546234
0.35149407386779785 0.29598107933998108 0.23560880124568939
0.39245522022247314 0.30604800581932068 0.24361008405685425
0.43397772312164307 0.31540101766586304 0.25226673483848572
0.47380256652832031 0.32259821891784668 0.25920939445495605
0.512340247631073 0.33026307821273804 0.26737412810325623
0.553455650806427 0.34112316370010376 0.27852711081504822
0.59818214178085327 0.35321536660194397 0.28913995623588562
0.63591790199279785 0.36294382810592651 0.29580390453338623
0.15697476267814636 0.3127499520778656 0.20512992143630981
0.2631431519985199 0.29403391480445862 0.26712512969970703
0.29904139041900635 0.30871102213859558 0.28609734773635864
0.32360145449638367 0.32973930239677429 0.2919062077999115
0.3518688976764679 0.34730997681617737 0.28978288173675537
0.38542971014976501 0.35864713788032532 0.28625825047492981
0.42394405603408813 0.36996299028396606 0.28791755437850952
0.4664776623249054 0.38144826889038086 0.2947089672088623
0.50754112005233765 0.38998615741729736 0.29915252327919006
0.54807299375534058 0.40090343356132507 0.30833783745765686
0.58989381790161133 0.41183352470397949 0.32063108682632446
0.63417899608612061 0.42247146368026733 0.32850462198257446
0.67184048891067505 0.43059214949607849 0.33310896158218384
0.22702768445014954 0.36342379450798035 0.26218500733375549
0.31762129068374634 0.35026252269744873 0.32095503807067871
0.35071203112602234 0.36315822601318359 0.34364303946495056
0.37439101934432983 0.38479214906692505 0.35083985328674316
0.39522138237953186 0.40332216024398804 0.3478248119354248
0.42098468542098999 0.41782549023628235 0.34265321493148804
0.45778766274452209 0.4325181245803833 0.34145501255989075
0.49678447842597961 0.44358652830123901 0.34289759397506714
0.53828603029251099 0.45443442463874817 0.3461451530456543
0.57983356714248657 0.46627002954483032 0.35264930129051208
0.62161564826965332 0.47746804356575012 0.36226126551628113
0.66621768474578857 0.4875740110874176 0.36798352003097534
0.7044568657875061 0.49428248405456543 0.37021839618682861
0.28909444808959961 0.41317504644393921 0.31873911619186401
0.37189880013465881 0.40520972013473511 0.37415608763694763
0.4029691219329834 0.42038735747337341 0.3969871997833252
0.42549839615821838 0.4400208592414856 0.40861287713050842
0.44721260666847229 0.46026232838630676 0.40937384963035583
0.46728974580764771 0.47769728302955627 0.406637042760849
0.49543952941894531 0.49173852801322937 0.39945539832115173
0.52721267938613892 0.50372987985610962 0.39190763235092163
0.56854861974716187 0.51706129312515259 0.39308789372444153
0.60965853929519653 0.52972495555877686 0.39835372567176819
0.65175187587738037 0.54168498516082764 0.4043067991733551
0.69521337747573853 0.55077457427978516 0.4076937735080719
0.73395407199859619 0.55682563781738281 0.40923219919204712
0.36007288098335266 0.47119039297103882 0.38210552930831909
0.42982599139213562 0.46619248390197754 0.43174472451210022
0.45882803201675415 0.47972798347473145 0.45407062768936157
0.47920459508895874 0.49808475375175476 0.46576422452926636
0.49953979253768921 0.51714241504669189 0.47037175297737122
0.51749283075332642 0.53494369983673096 0.46900844573974609
0.53942042589187622 0.55285143852233887 0.46432039141654968
0.56919628381729126 0.566761314868927 0.45564699172973633
0.60565507411956787 0.57973551750183105 0.45055603981018066
0.64337313175201416 0.59207683801651001 0.45031353831291199
0.68352603912353516 0.60594338178634644 0.45127922296524048
0.72448563575744629 0.61534249782562256 0.45184230804443359
0.76162385940551758 0.62257915735244751 0.45508667826652527
0.42531517148017883 0.5274432897567749 0.44387662410736084
0.48583787679672241 0.5242428183555603 0.48804876208305359
0.51273435354232788 0.53765356540679932 0.50812429189682007
0.53225433826446533 0.55574029684066772 0.52018070220947266
0.55110412836074829 0.57329404354095459 0.52975338697433472
0.56883108615875244 0.59053909778594971 0.52990961074829102
0.58789318799972534 0.6083713173866272 0.52466893196105957
0.61477452516555786 0.62509310245513916 0.51752704381942749
0.64475709199905396 0.64119374752044678 0.51059079170227051
0.67862778902053833 0.65283799171447754 0.50590246915817261
0.7155870795249939 0.66679906845092773 0.50225377082824707
0.75368201732635498 0.67850828170776367 0.5013352632522583
0.79141730070114136 0.68772405385971069 0.50454956293106079
0.4701627790927887 0.58513891696929932 0.49320164322853088
0.53718942403793335 0.58137184381484985 0.53922754526138306
0.56426554918289185 0.59440308809280396 0.56011426448822021
0.58493399620056152 0.61132866144180298 0.57479631900787354
0.60312557220458984 0.62835919857025146 0.58407855033874512
0.61953163146972656 0.64541548490524292 0.5872001051902771
0.63813251256942749 0.66310429573059082 0.58519577980041504
0.6627001166343689 0.68006628751754761 0.57879287004470825
0.68705230951309204 0.69682544469833374 0.57158678770065308
0.71633410453796387 0.71232938766479492 0.56593692302703857
0.75055360794067383 0.72724252939224243 0.55919849872589111
0.78810578584671021 0.74069064855575562 0.554004967212677
0.82667893171310425 0.75203591585159302 0.55347335338592529
0.53187358379364014 0.63664591312408447 0.54951977729797363
0.58974587917327881 0.63639044761657715 0.59219038486480713
0.61584734916687012 0.64969891309738159 0.61238741874694824
0.637245774269104 0.66786432266235352 0.62868398427963257
0.65656536817550659 0.68423902988433838 0.63945364952087402
0.67300933599472046 0.70208555459976196 0.64370155334472656
0.69071155786514282 0.71972501277923584 0.64607250690460205
0.71206927299499512 0.73771065473556519 0.64352178573608398
0.73429477214813232 0.75387489795684814 0.63529872894287109
0.75963544845581055 0.77270299196243286 0.629710853099823
0.78939282894134521 0.78747665882110596 0.62109375
0.82446825504302979 0.80142706632614136 0.61287003755569458
0.85588902235031128 0.81178611516952515 0.61027944087982178
0.59150654077529907 0.69418168067932129 0.60464996099472046
0.64156067371368408 0.69474154710769653 0.64424037933349609
0.67056691646575928 0.70834755897521973 0.66760909557342529
0.69348013401031494 0.72712463140487671 0.68527477979660034
0.71092844009399414 0.74176651239395142 0.69484937191009521
0.72971636056900024 0.76088821887969971 0.70406115055084229
0.74822735786437988 0.78013265132904053 0.70869213342666626
0.76479190587997437 0.7960779070854187 0.70653790235519409
0.78442555665969849 0.81290334463119507 0.70131230354309082
0.80800455808639526 0.83201330900192261 0.69702929258346558
0.83587294816970825 0.84930968284606934 0.69021821022033691
0.86747026443481445 0.8643302321434021 0.68102103471755981
0.88984787464141846 0.87410503625869751 0.67568933963775635
0.64940530061721802 0.74965530633926392 0.66122335195541382
0.69159787893295288 0.75018942356109619 0.69392597675323486
0.72117060422897339 0.76292359828948975 0.71878635883331299
0.7457769513130188 0.78133010864257812 0.73786479234695435
0.75916546583175659 0.79365366697311401 0.74410784244537354
0.77767199277877808 0.81130939722061157 0.7543637752532959
0.79686868190765381 0.83060050010681152 0.76215171813964844
0.8116229772567749 0.84616327285766602 0.759804368019104
0.82937538623809814 0.86458200216293335 0.75969600677490234
0.8524290919303894 0.88465029001235962 0.75803637504577637
0.87950992584228516 0.90402841567993164 0.75195038318634033
0.90782386064529419 0.91922527551651001 0.7407534122467041
0.92966485023498535 0.9316171407699585 0.73327493667602539
0.041208874434232712 0.033443406224250793 0.27303406596183777
0.081920579075813293 0.044181134551763535 0.16870729625225067
0.088323913514614105 0.072891563177108765 0.089069977402687073
0.12487445771694183 0.089527010917663574 0.10454611480236053
0.16576516628265381 0.097002454102039337 0.12360980361700058
0.20966272056102753 0.10523633658885956 0.14018557965755463
0.25293007493019104 0.11562948673963547 0.15595908463001251
0.29912593960762024 0.12373270094394684 0.16931112110614777
0.34751629829406738 0.1320691853761673 0.18228736519813538
0.38657960295677185 0.14336641132831573 0.19310896098613739
0.42701110243797302 0.15211331844329834 0.20259687304496765
0.47241482138633728 0.16379818320274353 0.21554262936115265
0.51064842939376831 0.17291642725467682 0.22577114403247833
0.026511114090681076 0.11522535234689713 0.24579823017120361
0.097542136907577515 0.10942843556404114 0.21632951498031616
0.13989520072937012 0.12701943516731262 0.14997196197509766
0.17927077412605286 0.14292611181735992 0.15232440829277039
0.22248011827468872 0.15348570048809052 0.17046859860420227
0.26299718022346497 0.1621147096157074 0.18164032697677612
0.30439990758895874 0.172132208943367 0.19432899355888367
0.34981623291969299 0.18236412107944489 0.20772586762905121
0.39142042398452759 0.18945647776126862 0.21775345504283905
0.4283217191696167 0.19936934113502502 0.22564399242401123
0.46888652443885803 0.21060682833194733 0.23623676598072052
0.51545041799545288 0.22230727970600128 0.24861249327659607
0.55446153879165649 0.23321840167045593 0.25919690728187561
0.0080590788275003433 0.21487817168235779 0.2058207094669342
0.079170465469360352 0.20110328495502472 0.2014983743429184
0.17965608835220337 0.19475297629833221 0.20111557841300964
0.23355939984321594 0.21059685945510864 0.20518267154693604
0.27453809976577759 0.22304607927799225 0.21640099585056305
0.31324538588523865 0.2313234955072403 0.22626829147338867
0.35388174653053284 0.24035714566707611 0.23526155948638916
0.39585134387016296 0.24812154471874237 0.2458026111125946
0.43426179885864258 0.25484180450439453 0.25569570064544678
0.47342312335968018 0.26214438676834106 0.2620948851108551
0.5143706202507019 0.27357834577560425 0.27249127626419067
0.56046074628829956 0.28779685497283936 0.28599950671195984
0.59953856468200684 0.29888027906417847 0.29548954963684082
0.014396832324564457 0.30339977145195007 0.18443542718887329
0.093418315052986145 0.28268027305603027 0.20000360906124115
0.22089336812496185 0.26369917392730713 0.24007058143615723
0.27746230363845825 0.27436241507530212 0.25582072138786316
0.3131105899810791 0.28736194968223572 0.25677570700645447
0.35243982076644897 0.29926678538322449 0.26709997653961182
0.39435684680938721 0.30902934074401855 0.27617791295051575
0.43708395957946777 0.31835454702377319 0.28516986966133118
0.47589686512947083 0.32532179355621338 0.29369714856147766
0.51480072736740112 0.33303940296173096 0.30199775099754333
0.55592888593673706 0.34390482306480408 0.31262487173080444
0.60058188438415527 0.3575265109539032 0.32376152276992798
0.63819247484207153 0.36716029047966003 0.3304588794708252
0.030992321670055389 0.37447324395179749 0.18689651787281036
0.14668765664100647 0.34089553356170654 0.23408433794975281
0.27928784489631653 0.31793400645256042 0.29113781452178955
0.32525122165679932 0.33216142654418945 0.31328549981117249
0.35467237234115601 0.34931746125221252 0.31278896331787109
0.38699769973754883 0.36122283339500427 0.311025470495224
0.42755264043807983 0.37296265363693237 0.31627368927001953
0.47091412544250488 0.38426703214645386 0.32526424527168274
