assets/lut/alexjordan retro brown 01.cube
# Created by: G'MIC (https://gmic.eu)
TITLE "retro_brown_01"
# LUT size
LUT_3D_SIZE 13
# Data domain
DOMAIN_MIN 0.0 0.0 0.0
DOMAIN_MAX 1.0 1.0 1.0
# LUT data points
0.00018961289606522769 0 0
0.00036513383383862674 0 0
0.0094942431896924973 0.00042347627459093928 0.00039527742774225771
0.032404102385044098 0.0025017084553837776 0.0019040126353502274
0.060825690627098083 0.0056207245215773582 0.0030400294344872236
0.092490188777446747 0.01326618529856205 0.0066375732421875
0.12714482843875885 0.025606058537960052 0.014520877040922642
0.16578499972820282 0.046324126422405243 0.02972494438290596
0.20521767437458038 0.068710044026374817 0.050011400133371353
0.24598652124404907 0.091369673609733582 0.071911796927452087
0.28817164897918701 0.11741630733013153 0.095181331038475037
0.32862263917922974 0.14409473538398743 0.11746323853731155
0.36483860015869141 0.16777200996875763 0.13663829863071442
0.012560048140585423 0.0037351271603256464 0.0003959207097068429
0.027857372537255287 0.010500933974981308 0.0040457779541611671
0.063888862729072571 0.025659583508968353 0.012561677955091
0.10008401423692703 0.043167982250452042 0.024315644055604935
0.13709971308708191 0.064900718629360199 0.039482280611991882
0.17529764771461487 0.089002735912799835 0.057998102158308029
0.21370522677898407 0.11239493638277054 0.078644275665283203
0.25394555926322937 0.13986185193061829 0.10119517892599106
0.29389318823814392 0.16463902592658997 0.12398432940244675
0.33340486884117126 0.18673692643642426 0.1462007611989975
0.3738645613193512 0.21124012768268585 0.1693589836359024
0.41407144069671631 0.23722891509532928 0.19227185845375061
0.44968339800834656 0.26071470975875854 0.2114955335855484
0.070024751126766205 0.059108089655637741 0.024392670020461082
0.10359647870063782 0.079149417579174042 0.040769197046756744
0.14626145362854004 0.10608429461717606 0.060643617063760757
0.1857568621635437 0.13400740921497345 0.082322753965854645
0.22540545463562012 0.16091176867485046 0.10725784301757812
0.26455006003379822 0.18504418432712555 0.13148823380470276
0.30283012986183167 0.20821678638458252 0.15429402887821198
0.34079799056053162 0.23383831977844238 0.1759343147277832
0.37818807363510132 0.25663912296295166 0.19678464531898499
0.41481170058250427 0.27646932005882263 0.21705037355422974
0.45155489444732666 0.29743149876594543 0.23730883002281189
0.48860827088356018 0.32032954692840576 0.25765329599380493
0.5218387246131897 0.34093233942985535 0.27507945895195007
0.15563662350177765 0.15259671211242676 0.091553524136543274
0.19559210538864136 0.17775706946849823 0.11557309329509735
0.23775894939899445 0.2071244865655899 0.14021390676498413
0.27684938907623291 0.23324409127235413 0.16488836705684662
0.31299155950546265 0.25547531247138977 0.18818335235118866
0.34767845273017883 0.2758728563785553 0.20739291608333588
0.38195016980171204 0.29578682780265808 0.22527928650379181
0.41612458229064941 0.31644400954246521 0.24297080934047699
0.45009824633598328 0.33546054363250732 0.26058980822563171
0.48319461941719055 0.35281544923782349 0.27734532952308655
0.51585030555725098 0.36974677443504333 0.29356092214584351
0.54781556129455566 0.38737860321998596 0.30951422452926636
0.57699406147003174 0.40364173054695129 0.32320922613143921
0.24506652355194092 0.25174146890640259 0.17154413461685181
0.28244903683662415 0.27512583136558533 0.1943507194519043
0.32063519954681396 0.30123597383499146 0.21739441156387329
0.35532921552658081 0.32229834794998169 0.23761285841464996
0.3865496814250946 0.33874338865280151 0.2552952766418457
0.41648116707801819 0.35460731387138367 0.26978880167007446
0.4468347430229187 0.37017875909805298 0.28348064422607422
0.47753670811653137 0.38623705506324768 0.29766348004341125
0.50849026441574097 0.40189999341964722 0.31207969784736633
0.53854280710220337 0.41655930876731873 0.32568907737731934
0.56751728057861328 0.4301764965057373 0.33829358220100403
0.59547823667526245 0.44329965114593506 0.35004726052284241
0.62199079990386963 0.45631629228591919 0.36107152700424194
0.32219076156616211 0.33922478556632996 0.24183233082294464
0.35528108477592468 0.35842469334602356 0.26051628589630127
0.38787877559661865 0.37816900014877319 0.2782251238822937
0.41790488362312317 0.39471355080604553 0.29351112246513367
0.44542756676673889 0.40810900926589966 0.30649837851524353
0.47219568490982056 0.42026329040527344 0.3181057870388031
0.49955740571022034 0.43261286616325378 0.32949969172477722
0.52813971042633057 0.4460141658782959 0.34155434370040894
0.55689924955368042 0.45989981293678284 0.35402888059616089
0.58493196964263916 0.47288084030151367 0.36545673012733459
0.61202657222747803 0.48464632034301758 0.37613505125045776
0.6382262110710144 0.49567925930023193 0.38582852482795715
0.66386109590530396 0.50732892751693726 0.39563310146331787
0.38323628902435303 0.41092559695243835 0.29630738496780396
0.41346150636672974 0.42682963609695435 0.31120401620864868
0.4416179358959198 0.44157296419143677 0.32457408308982849
0.46836426854133606 0.45452898740768433 0.33640563488006592
0.49409329891204834 0.46619775891304016 0.34729745984077454
0.51931875944137573 0.47685179114341736 0.35752964019775391
0.54523998498916626 0.48771828413009644 0.36777237057685852
0.5725325345993042 0.50038117170333862 0.37903717160224915
0.60023659467697144 0.51401883363723755 0.39062371850013733
0.62761378288269043 0.52685052156448364 0.40158382058143616
0.65444976091384888 0.5384746789932251 0.41155445575714111
0.68088573217391968 0.54963177442550659 0.4212893545627594
0.70712107419967651 0.56170624494552612 0.43148893117904663
0.43399339914321899 0.47253119945526123 0.3405630886554718
0.46160495281219482 0.48579835891723633 0.35280635952949524
0.4874456524848938 0.49728003144264221 0.36321237683296204
0.51235347986221313 0.50829541683197021 0.372944176197052
0.53758883476257324 0.51953399181365967 0.38316494226455688
0.56274908781051636 0.53042155504226685 0.39324268698692322
0.5884406566619873 0.54157179594039917 0.40355893969535828
0.61507517099380493 0.55444598197937012 0.41458424925804138
0.6424528956413269 0.56838345527648926 0.42594239115715027
0.6697927713394165 0.58160269260406494 0.43693846464157104
0.69719457626342773 0.59400951862335205 0.44727826118469238
0.72459465265274048 0.60566264390945435 0.45761498808860779
0.75140076875686646 0.6180223822593689 0.4683527946472168
0.47900983691215515 0.5295788049697876 0.37978798151016235
0.5053136944770813 0.54100221395492554 0.39028027653694153
0.53013569116592407 0.5512576699256897 0.39937528967857361
0.55465799570083618 0.56166547536849976 0.40832468867301941
0.57986313104629517 0.57297855615615845 0.41830801963806152
0.60546755790710449 0.58456438779830933 0.42866173386573792
0.63151592016220093 0.5968010425567627 0.43923890590667725
0.65836608409881592 0.61019307374954224 0.45046547055244446
0.68558555841445923 0.62440985441207886 0.46183508634567261
0.71299326419830322 0.63840997219085693 0.47299996018409729
0.74106842279434204 0.65146172046661377 0.48395246267318726
0.76931065320968628 0.66317862272262573 0.49484726786613464
0.79639410972595215 0.6759268045425415 0.50621986389160156
0.52199852466583252 0.58537662029266357 0.41721639037132263
0.54768460988998413 0.59602028131484985 0.42700865864753723
0.57253843545913696 0.60627812147140503 0.43598452210426331
0.59749853610992432 0.61683946847915649 0.44484877586364746
0.6228330135345459 0.62828832864761353 0.45455360412597656
0.6488194465637207 0.64051860570907593 0.46497383713722229
0.67550897598266602 0.65354931354522705 0.47590282559394836
0.70286804437637329 0.66746896505355835 0.48731899261474609
0.73035311698913574 0.68187069892883301 0.49880573153495789
0.75793647766113281 0.69607555866241455 0.51029312610626221
0.78631514310836792 0.70947170257568359 0.52168262004852295
0.81485295295715332 0.72195488214492798 0.53322321176528931
0.84139794111251831 0.73403233289718628 0.54480409622192383
0.5644221305847168 0.64172333478927612 0.45472142100334167
0.59009748697280884 0.65207749605178833 0.46416226029396057
0.61541354656219482 0.66266900300979614 0.47318810224533081
0.64075970649719238 0.67363035678863525 0.48236525058746338
0.6665191650390625 0.68544656038284302 0.4921882152557373
0.69306051731109619 0.69802951812744141 0.50251978635787964
0.72031122446060181 0.71155226230621338 0.51366114616394043
0.74817091226577759 0.72568106651306152 0.52519148588180542
0.77611440420150757 0.74016642570495605 0.53699249029159546
0.8041958212852478 0.7543177604675293 0.54866945743560791
0.8323790431022644 0.76744550466537476 0.56028401851654053
0.85995787382125854 0.78023624420166016 0.57185071706771851
0.88504451513290405 0.79303979873657227 0.5834164023399353
0.60686475038528442 0.69916337728500366 0.49266532063484192
0.63275277614593506 0.70966744422912598 0.50209355354309082
0.6584320068359375 0.72048056125640869 0.51147747039794922
0.68436479568481445 0.73182207345962524 0.52080833911895752
0.71073073148727417 0.74395859241485596 0.53083127737045288
0.73782902956008911 0.75686889886856079 0.54135668277740479
0.76543551683425903 0.77055174112319946 0.55256205797195435
0.79362839460372925 0.7846071720123291 0.56417328119277954
0.82164061069488525 0.79891049861907959 0.57596677541732788
0.84943467378616333 0.81291598081588745 0.58779788017272949
0.87673777341842651 0.82646352052688599 0.59950476884841919
0.9025270938873291 0.8393663763999939 0.6112179160118103
0.92553383111953735 0.85190564393997192 0.62264496088027954
0.64937949180603027 0.75786584615707397 0.53143256902694702
0.67547446489334106 0.76846122741699219 0.54098218679428101
0.70176029205322266 0.77955740690231323 0.55047732591629028
0.72798633575439453 0.79119729995727539 0.56017708778381348
0.75482285022735596 0.80354273319244385 0.57033127546310425
0.7821010947227478 0.81663614511489868 0.58104532957077026
0.8098292350769043 0.83016848564147949 0.59225791692733765
0.8377566933631897 0.84417974948883057 0.60388433933258057
0.86544942855834961 0.85811662673950195 0.61559689044952393
0.89224857091903687 0.8719819188117981 0.62739771604537964
0.91781091690063477 0.88525408506393433 0.63903635740280151
0.94133979082107544 0.89823156595230103 0.65050679445266724
0.96206581592559814 0.91092103719711304 0.66168522834777832
0 0 0
0.0011825860710814595 0 0
0.013924901373684406 0.0005976359243504703 0.0010045669041574001
0.040426008403301239 0.0084510054439306259 0.0051637538708746433
0.070051483809947968 0.014195026829838753 0.0078629888594150543
0.10221442580223083 0.021936753764748573 0.01372064370661974
0.13755692541599274 0.035612083971500397 0.024687718600034714
0.17536108195781708 0.056504059582948685 0.04214903712272644
0.21553422510623932 0.079835422337055206 0.063668273389339447
0.25785347819328308 0.10452549904584885 0.088377945125102997
0.30083227157592773 0.13088622689247131 0.11371171474456787
0.34188219904899597 0.15730258822441101 0.13715539872646332
0.37875628471374512 0.18120954930782318 0.15754632651805878
0.015852909535169601 0.0052956673316657543 0.002208963967859745
0.036740142852067947 0.012346768751740456 0.0075824512168765068
0.073421314358711243 0.029099034145474434 0.019412200897932053
0.11108408868312836 0.054000526666641235 0.033889487385749817
0.14899720251560211 0.079422548413276672 0.053032521158456802
0.18771438300609589 0.10242927074432373 0.074274651706218719
0.22616162896156311 0.12466718256473541 0.095284707844257355
0.26505517959594727 0.14972245693206787 0.11704634130001068
0.30484983325004578 0.17488767206668854 0.14009703695774078
0.34555286169052124 0.19884225726127625 0.16446366906166077
0.38635581731796265 0.22355648875236511 0.18856678903102875
0.42565548419952393 0.2483995109796524 0.21154032647609711
0.46079587936401367 0.27086800336837769 0.23071013391017914
0.082377307116985321 0.071166649460792542 0.039168756455183029
0.11673199385404587 0.092377141118049622 0.056368868798017502
0.15805399417877197 0.118041031062603 0.076589561998844147
0.19785556197166443 0.14438118040561676 0.099100612103939056
0.23800693452358246 0.17370392382144928 0.12651292979717255
0.27868500351905823 0.19829046726226807 0.15283557772636414
0.31684115529060364 0.22047308087348938 0.17493291199207306
0.35360607504844666 0.24405831098556519 0.19495701789855957
0.39107125997543335 0.26708409190177917 0.21668854355812073
0.42790910601615906 0.2878478467464447 0.23775531351566315
0.46391534805297852 0.3085787296295166 0.2575547993183136
0.49934962391853333 0.33026385307312012 0.27676081657409668
0.5315849781036377 0.34958618879318237 0.29388535022735596
0.16939543187618256 0.16758741438388824 0.11158911138772964
0.20974822342395782 0.19214904308319092 0.13716258108615875
0.25046825408935547 0.21899914741516113 0.16006496548652649
0.28784006834030151 0.24482887983322144 0.18284544348716736
0.3248952329158783 0.26937177777290344 0.20758906006813049
0.36140167713165283 0.28984871506690979 0.22945696115493774
0.39614382386207581 0.30864414572715759 0.24759070575237274
0.42976224422454834 0.3277619481086731 0.26435109972953796
0.46375948190689087 0.34711897373199463 0.28225186467170715
0.49626362323760986 0.36395809054374695 0.29855102300643921
0.52723604440689087 0.38017293810844421 0.31371724605560303
0.55816948413848877 0.39689165353775024 0.32876381278038025
0.58726269006729126 0.41280028223991394 0.34227442741394043
0.25607839226722717 0.2627444863319397 0.19024460017681122
0.29491391777992249 0.28607982397079468 0.2143729031085968
0.33223572373390198 0.31027862429618835 0.23664546012878418
0.36602646112442017 0.332418292760849 0.25599732995033264
0.39777761697769165 0.35136118531227112 0.27407729625701904
0.4285682737827301 0.36781889200210571 0.28995040059089661
0.45893380045890808 0.382700115442276 0.3039819598197937
0.48960450291633606 0.39760264754295349 0.31809073686599731
0.52038908004760742 0.41251471638679504 0.33242130279541016
0.54958081245422363 0.42628449201583862 0.34540268778800964
0.57722616195678711 0.43897461891174316 0.35690253973007202
0.60457128286361694 0.4517090916633606 0.36826655268669128
0.63177073001861572 0.46528249979019165 0.37952953577041626
0.33114778995513916 0.34732383489608765 0.2583613395690918
0.36588910222053528 0.36730435490608215 0.27891916036605835
0.398476243019104 0.38682776689529419 0.29661506414413452
0.42802122235298157 0.40410584211349487 0.31153491139411926
0.45521754026412964 0.41872793436050415 0.32455098628997803
0.48173856735229492 0.43140685558319092 0.3361513614654541
0.50897407531738281 0.44311121106147766 0.34752094745635986
0.53744000196456909 0.45551109313964844 0.35980290174484253
0.5659366250038147 0.46861669421195984 0.37197822332382202
0.59333133697509766 0.48073217272758484 0.38303700089454651
0.61961215734481812 0.49175289273262024 0.39271664619445801
0.64603936672210693 0.50290000438690186 0.40243560075759888
0.6728130578994751 0.5154799222946167 0.4130195677280426
0.3916785717010498 0.41828528046607971 0.31258907914161682
0.42254674434661865 0.43501466512680054 0.32876688241958618
0.45105299353599548 0.44996175169944763 0.34242618083953857
0.47737947106361389 0.46334215998649597 0.35391038656234741
0.50234293937683105 0.47517478466033936 0.36413845419883728
0.52698880434036255 0.48543527722358704 0.3738093376159668
0.55236285924911499 0.49517431855201721 0.38372498750686646
0.57973194122314453 0.50749474763870239 0.39510008692741394
0.6073533296585083 0.52106058597564697 0.4068048894405365
0.63431841135025024 0.53344780206680298 0.41748994588851929
0.66086059808731079 0.5445670485496521 0.42689889669418335
0.68783807754516602 0.5557209849357605 0.43670535087585449
0.71510922908782959 0.56823241710662842 0.44735324382781982
0.44139295816421509 0.47939687967300415 0.35635179281234741
0.46962404251098633 0.49315565824508667 0.3694574236869812
0.49578508734703064 0.50537830591201782 0.38028031587600708
0.52043265104293823 0.51662957668304443 0.38982293009757996
0.54474556446075439 0.52728086709976196 0.39917421340942383
0.56921517848968506 0.53734016418457031 0.40853255987167358
0.59446913003921509 0.54782259464263916 0.4183594286441803
0.62122577428817749 0.56055974960327148 0.42954608798027039
0.64859259128570557 0.57463347911834717 0.44109538197517395
0.67587238550186157 0.58778280019760132 0.45191895961761475
0.7036060094833374 0.59980517625808716 0.46202284097671509
0.73169153928756714 0.61152809858322144 0.47243225574493408
0.75950974225997925 0.62413996458053589 0.48362809419631958
0.48552140593528748 0.53526794910430908 0.39475449919700623
0.51206636428833008 0.5472303032875061 0.40576392412185669
0.53717738389968872 0.55810642242431641 0.41535219550132751
0.56167292594909668 0.56879687309265137 0.42427617311477661
0.58628469705581665 0.57970857620239258 0.43356114625930786
0.6114698052406311 0.59084182977676392 0.44333800673484802
0.63737064599990845 0.60279709100723267 0.45381379127502441
0.66433465480804443 0.61623471975326538 0.4650631844997406
0.69177627563476562 0.63056093454360962 0.47659552097320557
0.71940666437149048 0.64454030990600586 0.48773455619812012
0.74794155359268188 0.6571919322013855 0.49860078096389771
0.77739214897155762 0.66933733224868774 0.50967949628829956
0.80531960725784302 0.68158495426177979 0.52118963003158569
0.52772623300552368 0.58996987342834473 0.43144884705543518
0.55340862274169922 0.60093569755554199 0.44133999943733215
0.57857507467269897 0.61171472072601318 0.45054298639297485
0.60336768627166748 0.62264883518218994 0.45964428782463074
0.62869501113891602 0.63419985771179199 0.46922194957733154
0.65472930669784546 0.64638334512710571 0.47936683893203735
0.68147534132003784 0.65932691097259521 0.49031221866607666
0.7092319130897522 0.67361843585968018 0.50188547372817993
0.73714160919189453 0.68818610906600952 0.51354354619979858
0.76508826017379761 0.70255041122436523 0.52502328157424927
0.79426091909408569 0.71585851907730103 0.53641235828399658
0.82397449016571045 0.72778230905532837 0.5480467677116394
0.8515133261680603 0.74017685651779175 0.55976265668869019
0.56978821754455566 0.64555758237838745 0.46834924817085266
0.59541845321655273 0.65628314018249512 0.47786954045295715
0.62081432342529297 0.66720378398895264 0.48715284466743469
0.646403968334198 0.67866867780685425 0.49644643068313599
0.67248117923736572 0.69074463844299316 0.50630849599838257
0.69915246963500977 0.7034725546836853 0.51685446500778198
0.7269321084022522 0.71730345487594604 0.52805554866790771
0.75540673732757568 0.73176401853561401 0.53985589742660522
0.7840074896812439 0.74626117944717407 0.5517621636390686
0.81245416402816772 0.76068675518035889 0.56363105773925781
0.84179860353469849 0.77381891012191772 0.57550913095474243
0.87066912651062012 0.78649646043777466 0.5872875452041626
0.89618539810180664 0.79860800504684448 0.59889549016952515
0.61241286993026733 0.70285993814468384 0.50623470544815063
0.63820087909698486 0.71352970600128174 0.51566720008850098
0.66407418251037598 0.72468411922454834 0.52507275342941284
0.69019168615341187 0.73653227090835571 0.53475701808929443
0.71686768531799316 0.74904036521911621 0.54473912715911865
0.74441254138946533 0.76228338479995728 0.55560719966888428
0.7727397084236145 0.77612566947937012 0.5669974684715271
0.8016047477722168 0.79054802656173706 0.57887619733810425
0.83057546615600586 0.80505263805389404 0.59096157550811768
0.85927188396453857 0.8188815712928772 0.6029963493347168
0.88701713085174561 0.83226191997528076 0.61485284566879272
0.91314506530761719 0.84486865997314453 0.62663805484771729
0.93602430820465088 0.85744285583496094 0.63820749521255493
0.65532028675079346 0.76151794195175171 0.54496908187866211
0.68135529756546021 0.77240157127380371 0.55450022220611572
0.70754361152648926 0.78371137380599976 0.56404095888137817
0.73423516750335693 0.79580497741699219 0.57395970821380615
0.76135545969009399 0.8085097074508667 0.58439791202545166
0.7892335057258606 0.82189857959747314 0.59523254632949829
0.81767255067825317 0.83573275804519653 0.60678082704544067
0.8464348316192627 0.84989374876022339 0.61861234903335571
0.87494039535522461 0.86407232284545898 0.63067519664764404
0.90217721462249756 0.87784051895141602 0.64258861541748047
0.92776203155517578 0.89101344347000122 0.65434390306472778
0.95081961154937744 0.90386557579040527 0.66598081588745117
0.97066718339920044 0.91650056838989258 0.67715680599212646
0 0 0
0.0025393168907612562 0 0
0.018171587958931923 0.00093048694543540478 0.0011798484483733773
0.046671565622091293 0.0079306811094284058 0.0055800196714699268
0.078197598457336426 0.017040582373738289 0.011895018629729748
0.11125738173723221 0.027076646685600281 0.021091341972351074
0.14734765887260437 0.043396085500717163 0.035911336541175842
0.18547298014163971 0.065769672393798828 0.055457022041082382
0.22584083676338196 0.090735957026481628 0.07862052321434021
0.26933771371841431 0.11716409027576447 0.10558059066534042
0.31268152594566345 0.14387457072734833 0.13214612007141113
0.35362666845321655 0.16968350112438202 0.15695112943649292
0.39047408103942871 0.1932840496301651 0.17775735259056091
0.022062698379158974 0.0093503613024950027 0.0075379167683422565
0.047185126692056656 0.019046111032366753 0.016559945419430733
0.083656206727027893 0.038954626768827438 0.030529949814081192
0.12148403376340866 0.062857158482074738 0.046026896685361862
0.15930253267288208 0.087869711220264435 0.067077115178108215
0.19797082245349884 0.11060629785060883 0.088999778032302856
0.23632098734378815 0.13339729607105255 0.11066794395446777
0.27486267685890198 0.15841761231422424 0.13242688775062561
0.31476655602455139 0.18410365283489227 0.15614975988864899
0.35615453124046326 0.20929667353630066 0.18169945478439331
0.39649572968482971 0.23408626019954681 0.20646460354328156
0.43467870354652405 0.2578282356262207 0.2290506511926651
0.46907037496566772 0.27885615825653076 0.24790278077125549
0.093568854033946991 0.082483924925327301 0.058036923408508301
0.12771047651767731 0.10291916877031326 0.07553507387638092
0.16824105381965637 0.12737791240215302 0.095414780080318451
0.20848535001277924 0.15414391458034515 0.11808815598487854
0.24870158731937408 0.18295402824878693 0.1454416811466217
0.28899902105331421 0.20742863416671753 0.17085170745849609
0.32683557271957397 0.22941653430461884 0.19238536059856415
0.36349990963935852 0.25241938233375549 0.21282193064689636
0.4009971022605896 0.27555093169212341 0.23432742059230804
0.43785825371742249 0.29701179265975952 0.25538718700408936
0.47260802984237671 0.31717869639396667 0.27471271157264709
0.50652921199798584 0.3372035026550293 0.29339712858200073
0.53806185722351074 0.3556550145149231 0.30966800451278687
0.18045763671398163 0.17971089482307434 0.13241331279277802
0.21899746358394623 0.2030227929353714 0.1555519700050354
0.25896984338760376 0.22747927904129028 0.17784716188907623
0.29715442657470703 0.25331395864486694 0.20124764740467072
0.33463296294212341 0.2786613404750824 0.22608344256877899
0.37169384956359863 0.29952543973922729 0.24771013855934143
0.40620827674865723 0.31801772117614746 0.26563909649848938
0.43963557481765747 0.33648893237113953 0.28243604302406311
0.47366794943809509 0.35531395673751831 0.3005470335483551
0.50554931163787842 0.37214237451553345 0.31657254695892334
0.53472942113876343 0.38726747035980225 0.33029934763908386
0.56443846225738525 0.4032740592956543 0.34446814656257629
0.59356784820556641 0.41908642649650574 0.3580174446105957
0.26556152105331421 0.27273842692375183 0.20868006348609924
0.3035462498664856 0.29492861032485962 0.23221839964389801
0.34030470252037048 0.31725263595581055 0.25346529483795166
0.37404197454452515 0.33949708938598633 0.27263230085372925
0.40660321712493896 0.35952305793762207 0.29121458530426025
0.43824318051338196 0.37682175636291504 0.30763742327690125
0.4686133861541748 0.39170864224433899 0.32193353772163391
0.49874773621559143 0.40603595972061157 0.33579692244529724
0.5286487340927124 0.42023736238479614 0.34976914525032043
0.55667734146118164 0.43323332071304321 0.36187350749969482
0.58303940296173096 0.444989413022995 0.3723699152469635
