assets/lut/alexjordan cross process cp 18.cube
# Created by: G'MIC (https://gmic.eu)
TITLE "cross_process_cp_18"
# LUT size
LUT_3D_SIZE 7
# Data domain
DOMAIN_MIN 0.0 0.0 0.0
DOMAIN_MAX 1.0 1.0 1.0
# LUT data points
0.0030685125384479761 0.040071256458759308 0.086294256150722504
0.12168891727924347 0.046844363212585449 0.090688787400722504
0.24373361468315125 0.055237174034118652 0.094010010361671448
0.35848686099052429 0.068842522799968719 0.1015901118516922
0.47062373161315918 0.084591932594776154 0.11186538636684418
0.5810198187828064 0.1004490852355957 0.12513521313667297
0.68870621919631958 0.11327673494815826 0.13874644041061401
0.044692873954772949 0.17622856795787811 0.11671122908592224
0.17557914555072784 0.18465179204940796 0.12312816828489304
0.29402872920036316 0.19516827166080475 0.12978562712669373
0.40832662582397461 0.20970533788204193 0.14035522937774658
0.51998186111450195 0.22634603083133698 0.15222965180873871
0.63001984357833862 0.24273410439491272 0.16514268517494202
0.73764795064926147 0.256308913230896 0.17780639231204987
0.10303331166505814 0.31507334113121033 0.14970400929450989
0.2281821221113205 0.3255561888217926 0.15823689103126526
0.34468930959701538 0.33691602945327759 0.1678558886051178
0.45673522353172302 0.35106286406517029 0.1801287978887558
0.56717443466186523 0.36713838577270508 0.19225382804870605
0.67649513483047485 0.38319069147109985 0.20408342778682709
0.78346788883209229 0.39706721901893616 0.21567149460315704
0.16033953428268433 0.45535936951637268 0.18609979748725891
0.28249076008796692 0.46749433875083923 0.19626528024673462
0.39708593487739563 0.47984343767166138 0.20738251507282257
0.50724887847900391 0.49373438954353333 0.21959193050861359
0.61566388607025146 0.50888144969940186 0.23154520988464355
0.72284424304962158 0.52403074502944946 0.24291554093360901
0.82886022329330444 0.53791707754135132 0.25414344668388367
0.21628561615943909 0.59647226333618164 0.22455863654613495
0.33677133917808533 0.60982292890548706 0.23609188199043274
0.4498867392539978 0.62305885553359985 0.24764536321163177
0.55846560001373291 0.63692528009414673 0.25937327742576599
0.66465741395950317 0.65136855840682983 0.27109339833259583
0.76985257863998413 0.6657487154006958 0.28254711627960205
0.87423604726791382 0.67902070283889771 0.29366108775138855
0.26970353722572327 0.7380908727645874 0.26382723450660706
0.38940003514289856 0.75245481729507446 0.27628383040428162
0.50116509199142456 0.7664228081703186 0.28829652070999146
0.60860413312911987 0.78030592203140259 0.30020579695701599
0.71320068836212158 0.79429179430007935 0.31180545687675476
0.81655162572860718 0.80793613195419312 0.32308697700500488
0.9192696213722229 0.82081538438796997 0.33404892683029175
0.31768724322319031 0.87999564409255981 0.30361491441726685
0.43692037463188171 0.89519584178924561 0.31683486700057983
0.54873394966125488 0.90979146957397461 0.32936996221542358
0.65563720464706421 0.92383557558059692 0.34149438142776489
0.75954931974411011 0.93748444318771362 0.35315713286399841
0.86190217733383179 0.95056444406509399 0.36435431241989136
0.96337401866912842 0.9629024863243103 0.37522768974304199
0.0062502096407115459 0.045150682330131531 0.16307035088539124
0.13111388683319092 0.053519845008850098 0.16814632713794708
0.25398141145706177 0.062841467559337616 0.17405593395233154
0.36852100491523743 0.076507493853569031 0.18208347260951996
0.48000666499137878 0.092080600559711456 0.19239921867847443
0.58994734287261963 0.10751550644636154 0.20627018809318542
0.6975821852684021 0.12024275958538055 0.22184659540653229
0.055499628186225891 0.18442581593990326 0.19670660793781281
0.18543398380279541 0.19344219565391541 0.2021612823009491
0.30394154787063599 0.2028987854719162 0.21063840389251709
0.41713124513626099 0.21687299013137817 0.22151708602905273
0.52795016765594482 0.23298786580562592 0.23361934721469879
0.63732278347015381 0.24890376627445221 0.24752123653888702
0.74496209621429443 0.26272624731063843 0.2622809112071991
0.11491343379020691 0.32344698905944824 0.23387391865253448
0.23822475969791412 0.33361715078353882 0.241244837641716
0.35358506441116333 0.34441959857940674 0.25094577670097351
0.46493637561798096 0.35800638794898987 0.26304236054420471
0.57444006204605103 0.37360292673110962 0.27569580078125
0.6827511191368103 0.38927531242370605 0.28896051645278931
0.78989112377166748 0.40345221757888794 0.30257844924926758
0.17239445447921753 0.46349361538887024 0.27394199371337891
0.29234394431114197 0.47509798407554626 0.28319764137268066
0.40551403164863586 0.48703348636627197 0.29374599456787109
0.51474153995513916 0.50050121545791626 0.3057715892791748
0.62229698896408081 0.51533490419387817 0.31815171241760254
0.72896444797515869 0.53046208620071411 0.33069118857383728
0.8351319432258606 0.54464972019195557 0.34362348914146423
0.22884608805179596 0.60450130701065063 0.31554621458053589
0.3471103310585022 0.61743992567062378 0.32612535357475281
0.45855864882469177 0.63026970624923706 0.33728039264678955
0.56601792573928833 0.64375180006027222 0.3491748571395874
0.67144936323165894 0.65806859731674194 0.36128649115562439
0.77639061212539673 0.67271149158477783 0.37339222431182861
0.88101208209991455 0.68678802251815796 0.38580805063247681
0.28260749578475952 0.74629682302474976 0.35786169767379761
0.40036255121231079 0.76017743349075317 0.36961966753005981
0.51087063550949097 0.77368175983428955 0.38129407167434692
0.61709582805633545 0.78740739822387695 0.39324980974197388
0.72110939025878906 0.80139762163162231 0.40519541501998901
0.82417738437652588 0.81547236442565918 0.41710928082466125
0.92717033624649048 0.82897728681564331 0.42917913198471069
0.3312554657459259 0.88846975564956665 0.40039652585983276
0.44939407706260681 0.90322709083557129 0.41305410861968994
0.56006169319152832 0.91747820377349854 0.42545533180236816
0.66582894325256348 0.93120980262756348 0.43776828050613403
0.76908999681472778 0.94510424137115479 0.44981223344802856
0.87113553285598755 0.95861577987670898 0.46163615584373474
0.97277140617370605 0.97139942646026611 0.47354170680046082
0.012460341677069664 0.051177468150854111 0.24412032961845398
0.13759763538837433 0.060903016477823257 0.2501806914806366
0.25971415638923645 0.070857077836990356 0.25725659728050232
0.3751470148563385 0.084039442241191864 0.26558443903923035
0.48674419522285461 0.098956122994422913 0.27586802840232849
0.59622097015380859 0.11315304785966873 0.28967219591140747
0.70384174585342407 0.12540024518966675 0.3061695396900177
0.066440433263778687 0.19129908084869385 0.28055489063262939
0.19245566427707672 0.20088584721088409 0.28686359524726868
0.31035634875297546 0.21088697016239166 0.29545876383781433
0.42344647645950317 0.22416087985038757 0.30591347813606262
0.53381145000457764 0.23921431601047516 0.31773349642753601
0.64236575365066528 0.25404208898544312 0.33170309662818909
0.74975705146789551 0.26712861657142639 0.34746253490447998
0.12414807826280594 0.33047795295715332 0.32045790553092957
0.24533295631408691 0.3411613404750824 0.32782301306724548
0.35982799530029297 0.35206687450408936 0.33741605281829834
0.47064748406410217 0.36511710286140442 0.34893542528152466
0.57969784736633301 0.37962868809700012 0.36157482862472534
0.68723458051681519 0.39425283670425415 0.37512016296386719
0.79415273666381836 0.40797638893127441 0.38985872268676758
0.18098202347755432 0.47041603922843933 0.36324527859687805
0.2989344596862793 0.48226523399353027 0.37200072407722473
0.4109308123588562 0.4942232072353363 0.38219079375267029
0.51966589689254761 0.5072447657585144 0.3939603865146637
0.62699741125106812 0.52127552032470703 0.40649896860122681
0.73341506719589233 0.53593617677688599 0.41976833343505859
0.83954024314880371 0.55025386810302734 0.43371948599815369
0.23707444965839386 0.61152291297912598 0.40748745203018188
0.35358902812004089 0.62437456846237183 0.41751474142074585
0.46381399035453796 0.63704448938369751 0.42840802669525146
0.57083362340927124 0.65027177333831787 0.44030317664146423
0.67625921964645386 0.66412484645843506 0.45270249247550964
0.78098875284194946 0.67870700359344482 0.46540534496307373
0.88574987649917603 0.69311338663101196 0.47863206267356873
0.29089823365211487 0.7532351016998291 0.45239749550819397
0.40725168585777283 0.76699233055114746 0.46367162466049194
0.51676326990127563 0.78040009737014771 0.47530117630958557
0.62251579761505127 0.79384368658065796 0.48744356632232666
0.72648388147354126 0.80762273073196411 0.49986234307289124
0.82963216304779053 0.8218684196472168 0.51235151290893555
0.93274992704391479 0.8359411358833313 0.52509790658950806
0.34014970064163208 0.89567601680755615 0.49741414189338684
0.4571320116519928 0.91013216972351074 0.50980502367019653
0.56700259447097778 0.92410647869110107 0.52223736047744751
0.67237931489944458 0.93785429000854492 0.53473019599914551
0.77564644813537598 0.95157039165496826 0.5474468469619751
0.87774550914764404 0.9653356671333313 0.55996304750442505
0.97917658090591431 0.97733932733535767 0.57261300086975098
0.019534481689333916 0.058277234435081482 0.33115091919898987
0.14421051740646362 0.068384401500225067 0.33825188875198364
0.26483884453773499 0.079027675092220306 0.34628987312316895
0.38087046146392822 0.092286325991153717 0.35540172457695007
0.49319121241569519 0.10643614083528519 0.36628058552742004
0.6028556227684021 0.11990298330783844 0.37999722361564636
0.71047621965408325 0.13142281770706177 0.39580768346786499
0.075711749494075775 0.19782307744026184 0.37012159824371338
0.19847323000431061 0.20796388387680054 0.37734025716781616
0.31540420651435852 0.21874290704727173 0.38617458939552307
0.42897740006446838 0.23202137649059296 0.39649313688278198
0.53961658477783203 0.2462509423494339 0.40842074155807495
0.64840853214263916 0.26012060046195984 0.42225918173789978
0.75572502613067627 0.27264836430549622 0.43791061639785767
0.13194315135478973 0.33656597137451172 0.41164353489875793
0.25082904100418091 0.34795218706130981 0.41949489712715149
0.36444279551506042 0.35958519577980042 0.42908531427383423
0.47551876306533813 0.37237560749053955 0.44038894772529602
0.5849425196647644 0.38631927967071533 0.45301276445388794
0.69274520874023438 0.40001377463340759 0.46679195761680603
0.79974591732025146 0.41340258717536926 0.48194688558578491
0.18755941092967987 0.47636494040489197 0.45579731464385986
0.30355480313301086 0.48886269330978394 0.46464937925338745
0.4144740104675293 0.50143629312515259 0.4748782217502594
0.52341943979263306 0.51403987407684326 0.48677054047584534
0.63151031732559204 0.52732855081558228 0.49972635507583618
0.73846834897994995 0.54144859313964844 0.51329874992370605
0.84494799375534058 0.55568236112594604 0.52794367074966431
0.24310904741287231 0.61737525463104248 0.5018385648727417
0.35792064666748047 0.63078588247299194 0.51179152727127075
0.46717911958694458 0.64370208978652954 0.52278989553451538
0.574146568775177 0.65650230646133423 0.53499263525009155
0.68045157194137573 0.66967582702636719 0.54805433750152588
0.78583240509033203 0.6839064359664917 0.56128096580505371
0.89054059982299805 0.69883698225021362 0.57481682300567627
0.29688692092895508 0.75925976037979126 0.54863566160202026
0.41194438934326172 0.77304470539093018 0.55996477603912354
0.52064543962478638 0.7864803671836853 0.57172858715057373
0.62622970342636108 0.79969948530197144 0.58437031507492065
0.73081076145172119 0.81298798322677612 0.59764546155929565
0.83452963829040527 0.82709109783172607 0.61066246032714844
0.93766772747039795 0.84179913997650146 0.62372702360153198
0.346295565366745 0.90171116590499878 0.59557253122329712
0.46250352263450623 0.9160955548286438 0.60810595750808716
0.57171529531478882 0.9300345778465271 0.62082195281982422
0.67699563503265381 0.94356220960617065 0.63394427299499512
0.78043198585510254 0.9570305347442627 0.64753735065460205
0.88309431076049805 0.9706721305847168 0.66064572334289551
0.98375672101974487 0.9819023609161377 0.67429971694946289
0.027761870995163918 0.066866405308246613 0.42278185486793518
0.15247142314910889 0.07791399210691452 0.43129840493202209
0.27193090319633484 0.088716797530651093 0.4403248131275177
0.38767388463020325 0.10113979876041412 0.45052966475486755
0.50033169984817505 0.11470184475183487 0.46221825480461121
0.61053574085235596 0.12769882380962372 0.47580757737159729
0.71822714805603027 0.13880325853824615 0.49109706282615662
0.084627412259578705 0.20524211227893829 0.46394383907318115
0.20604255795478821 0.21632468700408936 0.47239881753921509
0.32221022248268127 0.22747151553630829 0.48201489448547363
0.43574824929237366 0.24030841886997223 0.49287930130958557
0.54711335897445679 0.25424596667289734 0.50526314973831177
0.65656769275665283 0.26802375912666321 0.51924055814743042
0.76433306932449341 0.28043678402900696 0.53488451242446899
0.13919816911220551 0.34229236841201782 0.50686872005462646
0.25680458545684814 0.35468977689743042 0.51577669382095337
0.36976510286331177 0.36698955297470093 0.52594327926635742
0.48137187957763672 0.37961682677268982 0.5376468300819397
0.59171438217163086 0.39332100749015808 0.55069988965988159
0.70064026117324829 0.40721800923347473 0.56475543975830078
0.80826175212860107 0.4205968976020813 0.58029091358184814
0.19356952607631683 0.48156556487083435 0.55216497182846069
0.30807071924209595 0.49490243196487427 0.56158041954040527
0.418020099401474 0.5079159140586853 0.57235878705978394
0.5278472900390625 0.52036494016647339 0.58476638793945312
0.63702094554901123 0.53362596035003662 0.59839993715286255
0.74567770957946777 0.54724514484405518 0.61294341087341309
0.85264736413955688 0.56145787239074707 0.62785249948501587
0.24836729466915131 0.62249147891998291 0.59928113222122192
0.36199820041656494 0.63618677854537964 0.60982882976531982
0.47049257159233093 0.64942902326583862 0.62119400501251221
0.57746607065200806 0.66234397888183594 0.6339755654335022
0.68489557504653931 0.67502766847610474 0.64817541837692261
0.79265999794006348 0.68817824125289917 0.66305524110794067
0.89783245325088501 0.70330941677093506 0.67695152759552002
0.30161964893341064 0.76421201229095459 0.64739787578582764
0.41594073176383972 0.77830040454864502 0.65912711620330811
0.52394020557403564 0.79188263416290283 0.67143285274505615
0.62932217121124268 0.80507415533065796 0.68496829271316528
0.73486661911010742 0.81781250238418579 0.69927674531936646
0.8406141996383667 0.83092784881591797 0.71413505077362061
0.94409197568893433 0.84574431180953979 0.72792619466781616
0.35088285803794861 0.90657752752304077 0.69561481475830078
0.46646729111671448 0.92114073038101196 0.70842909812927246
0.57512116432189941 0.93518275022506714 0.72200965881347656
0.68032127618789673 0.94876271486282349 0.73588168621063232
0.78429263830184937 0.96190035343170166 0.75063586235046387
0.88774400949478149 0.97440624237060547 0.76530396938323975
0.9876551628112793 0.98482710123062134 0.77938419580459595
0.035351771861314774 0.075962826609611511 0.51818561553955078
0.15996119379997253 0.08726559579372406 0.52815335988998413
0.27893519401550293 0.097486577928066254 0.5385320782661438
0.39420503377914429 0.10904401540756226 0.54972571134567261
0.50707131624221802 0.12198953330516815 0.56206494569778442
0.61771410703659058 0.13524459302425385 0.57576155662536621
0.72540760040283203 0.14598846435546875 0.59057670831680298
0.092550642788410187 0.21327868103981018 0.56139308214187622
0.21404094994068146 0.22452077269554138 0.57138359546661377
0.32996776700019836 0.23520550131797791 0.5822029709815979
0.44326061010360718 0.24761255085468292 0.59389209747314453
0.55493295192718506 0.26165401935577393 0.60654991865158081
0.66492170095443726 0.2757706344127655 0.62069553136825562
0.77275913953781128 0.28799790143966675 0.63597279787063599
0.14608699083328247 0.3486073911190033 0.60588151216506958
0.26423633098602295 0.36072197556495667 0.61627912521362305
0.37748464941978455 0.37232604622840881 0.62768226861953735
0.48894274234771729 0.38549736142158508 0.63993251323699951
0.59951496124267578 0.3999713659286499 0.65323936939239502
0.70908373594284058 0.41433671116828918 0.6677243709564209
0.81694930791854858 0.42754724621772766 0.68316143751144409
0.19916477799415588 0.48660558462142944 0.65222960710525513
0.31454548239707947 0.49951159954071045 0.66305994987487793
0.42499426007270813 0.51216632127761841 0.67485004663467407
0.53432893753051758 0.52534395456314087 0.68765163421630859
0.64381939172744751 0.53938937187194824 0.70168143510818481
0.7531508207321167 0.55332344770431519 0.71691739559173584
0.86076247692108154 0.56713020801544189 0.7323838472366333
0.25281897187232971 0.62688362598419189 0.69999629259109497
0.36714726686477661 0.64056402444839478 0.71157282590866089
0.47568133473396301 0.6537889838218689 0.72376424074172974
0.58215272426605225 0.66740459203720093 0.73720765113830566
0.68927818536758423 0.6806526780128479 0.75196927785873413
0.79895114898681641 0.69321894645690918 0.76830887794494629
0.90539205074310303 0.70746254920959473 0.78344357013702393
0.30522772669792175 0.7682834267616272 0.74871957302093506
0.41982549428939819 0.78247863054275513 0.76102668046951294
0.52773243188858032 0.79640036821365356 0.77430939674377441
0.6328117847442627 0.81003439426422119 0.78847765922546387
0.7383263111114502 0.82294517755508423 0.80406516790390015
0.84553819894790649 0.83535730838775635 0.82058274745941162
0.95023155212402344 0.8494187593460083 0.8356025218963623
0.35355818271636963 0.91043353080749512 0.79752171039581299
0.46915966272354126 0.92530125379562378 0.81107538938522339
0.57774627208709717 0.93963813781738281 0.82526266574859619
0.68291980028152466 0.95333218574523926 0.84011757373809814
0.7872353196144104 0.96647948026657104 0.85605919361114502
0.89133071899414062 0.97781145572662354 0.87221795320510864
0.99019569158554077 0.98698800802230835 0.88730442523956299
0.038453586399555206 0.081905335187911987 0.61654704809188843
0.16367959976196289 0.093186363577842712 0.62800407409667969
0.28280347585678101 0.10303430259227753 0.63973051309585571
0.39802089333534241 0.11438240855932236 0.65180563926696777
0.51106429100036621 0.12707945704460144 0.66453087329864502
0.62165403366088867 0.13990865647792816 0.67823177576065063
0.72943127155303955 0.15038180351257324 0.69268345832824707
0.096195057034492493 0.21920737624168396 0.66175395250320435
0.21886540949344635 0.23034805059432983 0.67331844568252563
0.33548882603645325 0.24067236483097076 0.68539440631866455
0.44909650087356567 0.25298243761062622 0.6977875828742981
0.56071692705154419 0.26716768741607666 0.71089619398117065
0.67066144943237305 0.28115671873092651 0.72495979070663452
0.77811974287033081 0.29280760884284973 0.73989266157150269
0.14993190765380859 0.35421979427337646 0.70785319805145264
0.2698521614074707 0.36560297012329102 0.71979624032974243
0.38449639081954956 0.3760773241519928 0.73259562253952026
0.49602833390235901 0.38997697830200195 0.74523568153381348
0.60641056299209595 0.40529254078865051 0.75869238376617432
0.71570712327957153 0.41990113258361816 0.77323365211486816
0.82312554121017456 0.43264573812484741 0.78849363327026367
0.20243102312088013 0.49126222729682922 0.75506722927093506
0.32003346085548401 0.50340330600738525 0.7673831582069397
0.43217280507087708 0.51528090238571167 0.78046435117721558
0.54165589809417725 0.52939367294311523 0.79379189014434814
0.65060073137283325 0.54453086853027344 0.80804628133773804
0.75950437784194946 0.55873638391494751 0.82330018281936646
0.86679941415786743 0.57194501161575317 0.83883494138717651
0.25443696975708008 0.63078230619430542 0.80326104164123535
0.37087473273277283 0.64420056343078613 0.81614214181900024
0.48107314109802246 0.65737926959991455 0.82953023910522461
0.588267982006073 0.67143100500106812 0.84360390901565552
0.69548380374908447 0.68555521965026855 0.85877037048339844
0.80366712808609009 0.69885635375976562 0.87510764598846436
0.91018939018249512 0.71205049753189087 0.8907436728477478
0.30554509162902832 0.77166092395782471 0.8521430492401123
0.42154091596603394 0.78610128164291382 0.86565095186233521
0.53074359893798828 0.80022555589675903 0.87987864017486572
0.63664239645004272 0.81418001651763916 0.89472818374633789
0.74235689640045166 0.82754707336425781 0.91074591875076294
0.84851574897766113 0.84048569202423096 0.92772430181503296
0.95355081558227539 0.85340708494186401 0.94348227977752686
0.35268634557723999 0.91338306665420532 0.90108615159988403
0.46886506676673889 0.92870783805847168 0.91560333967208862
0.57852780818939209 0.94327813386917114 0.93060386180877686
0.68445289134979248 0.95731449127197266 0.94625699520111084
0.7890859842300415 0.97055238485336304 0.96276187896728516
0.89328879117965698 0.98100662231445312 0.97897553443908691
0.99133259057998657 0.98905044794082642 0.99050843715667725
