assets/lut/alexjordan red day 01.cube
# Created by: G'MIC (https://gmic.eu)
TITLE "red_day_01"
# LUT size
LUT_3D_SIZE 7
# Data domain
DOMAIN_MIN 0.0 0.0 0.0
DOMAIN_MAX 1.0 1.0 1.0
# LUT data points
0.011776120401918888 0.0058552012778818607 0.0042148064821958542
0.049181502312421799 0.017239455133676529 0.008685646578669548
0.14035512506961823 0.02052408829331398 0.021995140239596367
0.31099164485931396 0.019913213327527046 0.018945029005408287
0.51899224519729614 0.014919924549758434 0.012568440288305283
0.72698497772216797 0.0082467766478657722 0.0067473319359123707
0.90818989276885986 0.012801974080502987 0.0019793342798948288
0.059961758553981781 0.1072310209274292 0.017490595579147339
0.18309350311756134 0.12971039116382599 0.010887041687965393
0.34508892893791199 0.12872828543186188 0.01375757809728384
0.52052587270736694 0.1311364471912384 0.0034580903593450785
0.69352847337722778 0.12842829525470734 0.00012386546586640179
0.85151195526123047 0.12804533541202545 1.2925092050863896e-05
0.98176056146621704 0.14506947994232178 0.0010340074077248573
0.049644693732261658 0.28932604193687439 0.00024126838252414018
0.20926979184150696 0.29278048872947693 1.4361213516167481e-06
0.37852323055267334 0.29257535934448242 0.00029602050199173391
0.53692567348480225 0.29669997096061707 0.0004035501042380929
0.69416952133178711 0.29604515433311462 0.0015127144288271666
0.84360367059707642 0.2989959716796875 0.001953065162524581
0.9804147481918335 0.31125944852828979 0.0025875016581267118
0.046778466552495956 0.46075397729873657 0
0.20984813570976257 0.46016198396682739 0
0.3761669397354126 0.46048423647880554 0.0012189080007374287
0.53713297843933105 0.46189269423484802 0.0079024368897080421
0.69552981853485107 0.46263816952705383 0.020454511046409607
0.84289813041687012 0.46756282448768616 0.01306445524096489
0.98279166221618652 0.47761517763137817 0.0084776338189840317
0.046282749623060226 0.62705743312835693 4.5955883251735941e-05
0.20890690386295319 0.62683820724487305 0.0009455063845962286
0.37485334277153015 0.62683820724487305 0.0031514486763626337
0.53766703605651855 0.62738418579101562 0.010548909194767475
0.69558823108673096 0.62945175170898438 0.018132932484149933
0.84401577711105347 0.6351999044418335 0.015137676149606705
0.98389482498168945 0.64497393369674683 0.01145833358168602
0.043822254985570908 0.79609459638595581 0.00073529413202777505
0.20722414553165436 0.79461288452148438 0.0014705882640555501
0.37336906790733337 0.79396063089370728 0.0023956599179655313
0.53730875253677368 0.79430466890335083 0.0045370515435934067
0.69558823108673096 0.79644143581390381 0.005755316000431776
0.84420561790466309 0.80292433500289917 0.0066793705336749554
0.98421460390090942 0.81363517045974731 0.0081061571836471558
0.042791746556758881 0.96710890531539917 0.00073529413202777505
0.20633655786514282 0.96492552757263184 0.0014705882640555501
0.37199163436889648 0.96390867233276367 0.0012418859405443072
0.53594678640365601 0.9628676176071167 0.00082989863585680723
0.69540619850158691 0.96450704336166382 0.00028722427668981254
0.8442845344543457 0.97078186273574829 0.0014375573955476284
0.98453199863433838 0.97981816530227661 0.0040998570621013641
0.0033443975262343884 0.0023481929674744606 0.011692585423588753
0.059046339243650436 0.014638668857514858 0.044193536043167114
0.16931198537349701 0.022600511088967323 0.073943987488746643
0.35665038228034973 0.014369949698448181 0.098794437944889069
0.55394303798675537 0.012856652028858662 0.11499916762113571
0.75209659337997437 0.010394137352705002 0.12040336430072784
0.93411517143249512 0.014782610349357128 0.11637569963932037
0.065081574022769928 0.11719619482755661 0.10591010004281998
0.19303704798221588 0.13082414865493774 0.11505746096372604
0.34585970640182495 0.13172870874404907 0.11778201162815094
0.52103453874588013 0.13052637875080109 0.11566992104053497
0.69746428728103638 0.13036800920963287 0.11362166702747345
0.85295587778091431 0.13083510100841522 0.11782802641391754
0.98642289638519287 0.14641840755939484 0.11845003068447113
0.052173435688018799 0.29192242026329041 0.10461385548114777
0.20819342136383057 0.29540789127349854 0.1033281683921814
0.37349003553390503 0.29331618547439575 0.10696122050285339
0.53615158796310425 0.29570946097373962 0.10893105715513229
0.69875800609588623 0.29712817072868347 0.11159230023622513
0.85194140672683716 0.29824453592300415 0.11651840060949326
0.98623830080032349 0.30932492017745972 0.12005317211151123
0.046568628400564194 0.46036908030509949 0.10314144194126129
0.20915251970291138 0.46066084504127502 0.10404790192842484
0.37318664789199829 0.46187976002693176 0.10729739814996719
0.53572696447372437 0.46395498514175415 0.11712567508220673
0.69557434320449829 0.4657014012336731 0.12542834877967834
0.84788054227828979 0.46850055456161499 0.12629067897796631
0.98651385307312012 0.47620776295661926 0.12642939388751984
0.045408975332975388 0.62683820724487305 0.1066616103053093
0.20792537927627563 0.62695550918579102 0.10886233299970627
0.37315398454666138 0.62904137372970581 0.11316778510808945
0.53641897439956665 0.63110971450805664 0.12179182469844818
0.69558823108673096 0.63309037685394287 0.12783488631248474
0.8457944393157959 0.63718342781066895 0.1281372457742691
0.98617374897003174 0.64447641372680664 0.1291671097278595
0.042647060006856918 0.79540443420410156 0.10894095897674561
0.20631515979766846 0.79544919729232788 0.11048479378223419
0.37234649062156677 0.79697519540786743 0.11298651248216629
0.53627735376358032 0.79848259687423706 0.11568716913461685
0.69558823108673096 0.79995214939117432 0.11666994541883469
0.84521877765655518 0.8048587441444397 0.11959829926490784
0.98580718040466309 0.81340062618255615 0.12560003995895386
0.042647060006856918 0.96605390310287476 0.11145319044589996
0.20626614987850189 0.96495258808135986 0.11196118593215942
0.3719380795955658 0.96508622169494629 0.10988987982273102
0.53603249788284302 0.96570831537246704 0.10648401081562042
0.69558823108673096 0.96682333946228027 0.10387676209211349
0.84600538015365601 0.97143387794494629 0.10899121314287186
0.98639822006225586 0.97900664806365967 0.11907917261123657
0.0073668085969984531 0.0068574044853448868 0.031999595463275909
0.077521741390228271 0.017680509015917778 0.081845782697200775
0.20290787518024445 0.023699905723333359 0.1413869708776474
0.39113721251487732 0.014128636568784714 0.19358545541763306
0.58350062370300293 0.011455640196800232 0.21920882165431976
0.78110396862030029 0.012223247438669205 0.23958240449428558
0.95533210039138794 0.021524243056774139 0.25132748484611511
0.068509869277477264 0.12402830272912979 0.19715501368045807
0.20037196576595306 0.13358989357948303 0.22631321847438812
0.35832399129867554 0.13506987690925598 0.24075406789779663
0.5310441255569458 0.13272711634635925 0.24752426147460938
0.70720696449279785 0.13102120161056519 0.24744012951850891
0.86002802848815918 0.13605518639087677 0.25261902809143066
0.98779577016830444 0.15290191769599915 0.25787562131881714
0.048530921339988708 0.29572561383247375 0.24123795330524445
0.20667944848537445 0.29888737201690674 0.24553029239177704
0.37357932329177856 0.29976502060890198 0.24064710736274719
0.53882735967636108 0.29919672012329102 0.24053043127059937
0.70455247163772583 0.29949352145195007 0.24387507140636444
0.85700118541717529 0.30012637376785278 0.24919058382511139
0.98832845687866211 0.30968543887138367 0.25562894344329834
0.044959813356399536 0.46229684352874756 0.24657155573368073
0.20557913184165955 0.46433630585670471 0.24512931704521179
0.37213242053985596 0.46584051847457886 0.24155338108539581
0.53760284185409546 0.46714141964912415 0.24303130805492401
0.69928359985351562 0.46897560358047485 0.24487049877643585
0.85145109891891479 0.47009760141372681 0.24906322360038757
0.98858815431594849 0.4756673276424408 0.25572812557220459
0.04410470649600029 0.62849617004394531 0.24725474417209625
0.20659445226192474 0.62988728284835815 0.24657823145389557
0.37231624126434326 0.63219976425170898 0.24534313380718231
0.5368344783782959 0.63477534055709839 0.24615085124969482
0.6956169605255127 0.63663512468338013 0.24750688672065735
0.84843307733535767 0.63903427124023438 0.25008216500282288
0.98834526538848877 0.64414757490158081 0.25651884078979492
0.043091539293527603 0.79681563377380371 0.24886408448219299
0.20631127059459686 0.79747551679611206 0.24789203703403473
0.37215074896812439 0.79983747005462646 0.2457989901304245
0.53616690635681152 0.80194193124771118 0.24519369006156921
0.69558823108673096 0.80375862121582031 0.24418157339096069
0.84733742475509644 0.80676239728927612 0.2468908280134201
0.98829507827758789 0.81280499696731567 0.25487783551216125
0.04297700896859169 0.96620649099349976 0.25245809555053711
0.20631127059459686 0.96639788150787354 0.25080451369285583
0.37192544341087341 0.96734130382537842 0.24678118526935577
0.53561532497406006 0.96818870306015015 0.24255253374576569
0.69558823108673096 0.969929039478302 0.24000813066959381
0.84737813472747803 0.97303628921508789 0.24328544735908508
0.98860293626785278 0.97855395078659058 0.25290921330451965
0.015537172555923462 0.011286522261798382 0.0586688332259655
0.099355123937129974 0.020937362685799599 0.14632394909858704
0.23220458626747131 0.02551778219640255 0.23070469498634338
0.41353163123130798 0.017849581316113472 0.29945054650306702
0.59499573707580566 0.014902825467288494 0.33779996633529663
0.79898738861083984 0.01260090246796608 0.36936601996421814
0.97460281848907471 0.021799005568027496 0.39066436886787415
0.07195938378572464 0.12790173292160034 0.305106520652771
0.21108536422252655 0.13409747183322906 0.35413649678230286
0.36836099624633789 0.13869836926460266 0.37514996528625488
0.53306972980499268 0.13880088925361633 0.38174742460250854
0.69248580932617188 0.1389242559671402 0.38147437572479248
0.85615640878677368 0.13934846222400665 0.38759967684745789
0.99148035049438477 0.15234938263893127 0.39664116501808167
0.056119911372661591 0.29481273889541626 0.38322266936302185
0.20967909693717957 0.29889240860939026 0.38790866732597351
0.37797987461090088 0.30140584707260132 0.38477310538291931
0.54142385721206665 0.30335304141044617 0.38122960925102234
0.70215392112731934 0.30293765664100647 0.37957745790481567
0.85637295246124268 0.30077841877937317 0.38386204838752747
0.99041217565536499 0.30765724182128906 0.39346620440483093
0.043054290115833282 0.46546086668968201 0.38872039318084717
0.20322038233280182 0.46744066476821899 0.38707858324050903
0.37382340431213379 0.46835267543792725 0.38434073328971863
0.53962916135787964 0.47031313180923462 0.37960505485534668
0.6997988224029541 0.47136536240577698 0.37801873683929443
0.852588951587677 0.47039437294006348 0.38245996832847595
0.98962277173995972 0.47407853603363037 0.39294049143791199
0.042647060006856918 0.63213187456130981 0.38977289199829102
0.20529180765151978 0.63330990076065063 0.38792020082473755
0.37368631362915039 0.63463842868804932 0.38500764966011047
0.53930163383483887 0.63690894842147827 0.38191378116607666
0.69949758052825928 0.63860291242599487 0.38131400942802429
0.85072773694992065 0.63964027166366577 0.38484406471252441
0.98995357751846313 0.64312946796417236 0.39431846141815186
0.043823421001434326 0.79912489652633667 0.39376604557037354
0.20707322657108307 0.79987543821334839 0.3911571204662323
0.37370556592941284 0.80138260126113892 0.38684400916099548
0.53866088390350342 0.80376517772674561 0.38330504298210144
0.69861346483230591 0.80549055337905884 0.38235294818878174
0.85029900074005127 0.80785524845123291 0.38540327548980713
0.99066966772079468 0.81213927268981934 0.39472052454948425
0.044286467134952545 0.96754145622253418 0.40038284659385681
0.20731145143508911 0.96758347749710083 0.39728957414627075
0.37311255931854248 0.96825128793716431 0.39159652590751648
0.53698384761810303 0.97006279230117798 0.38620486855506897
0.69562053680419922 0.97141855955123901 0.38412228226661682
0.84999030828475952 0.973987877368927 0.38670584559440613
0.99065947532653809 0.97855395078659058 0.39623004198074341
0.032496225088834763 0.015167221426963806 0.12049904465675354
0.11440595984458923 0.025500308722257614 0.23539601266384125
0.26121509075164795 0.022581601515412331 0.35081231594085693
0.43956664204597473 0.014708604663610458 0.42916935682296753
0.63781005144119263 0.0068974513560533524 0.48990318179130554
0.82506293058395386 0.0065064374357461929 0.52771592140197754
0.98024702072143555 0.016576310619711876 0.54985964298248291
0.076843127608299255 0.13081984221935272 0.4516548216342926
0.21557764708995819 0.13504239916801453 0.50395268201828003
0.37101367115974426 0.13881009817123413 0.52895659208297729
0.53100293874740601 0.14006750285625458 0.53216654062271118
0.70259898900985718 0.13356253504753113 0.53958278894424438
0.86075800657272339 0.13317704200744629 0.54464739561080933
0.99055415391921997 0.14758993685245514 0.55119317770004272
0.060605697333812714 0.29561391472816467 0.53679245710372925
0.2119068056344986 0.29883348941802979 0.54101574420928955
0.378205806016922 0.30144855380058289 0.5394129753112793
0.54015129804611206 0.30514129996299744 0.53400897979736328
0.70335561037063599 0.30026489496231079 0.53324592113494873
0.85535573959350586 0.2973514199256897 0.53517764806747437
0.99015814065933228 0.3043971061706543 0.54536747932434082
0.044259537011384964 0.46808657050132751 0.53710120916366577
0.20545108616352081 0.4686274528503418 0.53857326507568359
0.37683966755867004 0.46804583072662354 0.53738957643508911
0.54102045297622681 0.47084864974021912 0.5310671329498291
0.69950979948043823 0.47019267082214355 0.52847039699554443
0.85174906253814697 0.46864297986030579 0.53273552656173706
0.99005675315856934 0.47211697697639465 0.54439139366149902
0.043774399906396866 0.63492327928543091 0.53872549533843994
0.20782792568206787 0.63468295335769653 0.53856265544891357
0.37732526659965515 0.6346813440322876 0.53483366966247559
0.54229730367660522 0.63719630241394043 0.53131610155105591
0.70096969604492188 0.63860291242599487 0.5323481559753418
0.85324132442474365 0.63913083076477051 0.53707820177078247
0.99093139171600342 0.64226961135864258 0.54665172100067139
0.046553067862987518 0.80077499151229858 0.54523152112960815
0.21023307740688324 0.80073529481887817 0.54303061962127686
0.37732985615730286 0.8016543984413147 0.5384145975112915
0.54207843542098999 0.80423855781555176 0.53477877378463745
0.70145851373672485 0.80638843774795532 0.5350182056427002
0.85378432273864746 0.80853438377380371 0.53945499658584595
0.99093139171600342 0.81221276521682739 0.54871964454650879
0.046110056340694427 0.96758580207824707 0.55599480867385864
0.20982818305492401 0.96758580207824707 0.55266064405441284
0.37565678358078003 0.96868675947189331 0.54579311609268188
0.5393986701965332 0.97067111730575562 0.53987014293670654
0.69884568452835083 0.97282826900482178 0.53881287574768066
0.85056251287460327 0.97503048181533813 0.54283988475799561
0.99060773849487305 0.97911375761032104 0.55326563119888306
0.040085870772600174 0.018173173069953918 0.1966613382101059
0.13283936679363251 0.025032822042703629 0.34850221872329712
0.27496623992919922 0.020908534526824951 0.47626376152038574
0.46488320827484131 0.0096688512712717056 0.58962196111679077
0.66447395086288452 0.0044967802241444588 0.6596677303314209
0.84208065271377563 0.0059984992258250713 0.70115453004837036
0.98743575811386108 0.016968013718724251 0.72946149110794067
0.071707755327224731 0.1349111795425415 0.59392440319061279
0.21363145112991333 0.13698224723339081 0.66023099422454834
0.37094882130622864 0.13835737109184265 0.69022220373153687
0.53711140155792236 0.13548167049884796 0.70898771286010742
0.70696532726287842 0.13252535462379456 0.71007168292999268
0.86268991231918335 0.13482628762722015 0.71515518426895142
0.99316263198852539 0.14967375993728638 0.72932088375091553
0.055573601275682449 0.2996726930141449 0.69771277904510498
0.21223589777946472 0.30087432265281677 0.70795202255249023
0.37956851720809937 0.3015003502368927 0.70533812046051025
0.54407995939254761 0.30068510770797729 0.70921826362609863
0.70305031538009644 0.29863321781158447 0.70248210430145264
0.8525274395942688 0.29789263010025024 0.70156747102737427
0.98963642120361328 0.30528199672698975 0.71458965539932251
0.046568628400564194 0.46977105736732483 0.69981122016906738
0.20779037475585938 0.46956151723861694 0.70262420177459717
0.37788140773773193 0.46861422061920166 0.70063728094100952
0.54242449998855591 0.4689144492149353 0.69959056377410889
0.69950979948043823 0.46835562586784363 0.69752627611160278
0.85023254156112671 0.46768787503242493 0.70015400648117065
0.98924934864044189 0.47205829620361328 0.71222811937332153
0.047410912811756134 0.63588738441467285 0.69891959428787231
0.21191833913326263 0.63486301898956299 0.70162749290466309
0.38063547015190125 0.63425427675247192 0.70059043169021606
0.54459601640701294 0.63599401712417603 0.69813883304595947
0.70343136787414551 0.63773393630981445 0.69967859983444214
0.85403591394424438 0.63843965530395508 0.70540314912796021
0.99093139171600342 0.64202344417572021 0.71432548761367798
0.049604557454586029 0.80158591270446777 0.70665472745895386
0.21370574831962585 0.80073529481887817 0.70753490924835205
0.38055607676506042 0.80119013786315918 0.70370054244995117
0.54465889930725098 0.80379784107208252 0.69893670082092285
0.70343136787414551 0.80646687746047974 0.70016682147979736
0.85499733686447144 0.80864578485488892 0.70751702785491943
0.99101930856704712 0.81284564733505249 0.71583133935928345
0.047398436814546585 0.96767681837081909 0.72058308124542236
0.21148885786533356 0.96758580207824707 0.71891289949417114
0.37747672200202942 0.96857291460037231 0.71189230680465698
0.54121655225753784 0.97064775228500366 0.70519423484802246
0.69950979948043823 0.97305059432983398 0.70556545257568359
0.85061240196228027 0.97564601898193359 0.71167159080505371
0.9889228343963623 0.97981065511703491 0.72217386960983276
0.042372085154056549 0.023529142141342163 0.29376381635665894
0.15209800004959106 0.020540693774819374 0.51095932722091675
0.30220681428909302 0.013048808090388775 0.65921664237976074
0.49205231666564941 0.0053560445085167885 0.785797119140625
0.67063844203948975 0.0067319232039153576 0.83420217037200928
0.83947175741195679 0.012383135966956615 0.87027460336685181
0.98970365524291992 0.024746360257267952 0.90753316879272461
0.063404455780982971 0.13371594250202179 0.79513812065124512
0.2159636914730072 0.13455314934253693 0.85130059719085693
0.37654504179954529 0.13398684561252594 0.8780784010887146
0.54602044820785522 0.13059118390083313 0.90880298614501953
0.69953608512878418 0.14006322622299194 0.88719666004180908
0.85355609655380249 0.14680147171020508 0.88958966732025146
0.992420494556427 0.15920980274677277 0.90919256210327148
0.052707269787788391 0.2992779016494751 0.88242495059967041
0.21413892507553101 0.29912036657333374 0.8969879150390625
0.38347494602203369 0.29765743017196655 0.89566278457641602
0.54862576723098755 0.29635244607925415 0.90392720699310303
0.70032316446304321 0.30015009641647339 0.88802433013916016
0.84839731454849243 0.30328434705734253 0.88298892974853516
0.98862236738204956 0.31124356389045715 0.89487087726593018
0.050015199929475784 0.46821284294128418 0.87970471382141113
0.21224856376647949 0.4673493504524231 0.89077448844909668
0.38134166598320007 0.46536931395530701 0.89097541570663452
0.54525649547576904 0.46521314978599548 0.89005368947982788
0.69999134540557861 0.46649649739265442 0.88424527645111084
0.84985113143920898 0.46866360306739807 0.88343948125839233
0.98967611789703369 0.47475025057792664 0.89335429668426514
0.051986932754516602 0.63476753234863281 0.87524795532226562
0.21513189375400543 0.63348805904388428 0.88497543334960938
0.38216444849967957 0.63231503963470459 0.88634437322616577
0.54535090923309326 0.63353979587554932 0.88300460577011108
0.70343136787414551 0.63536363840103149 0.88296568393707275
0.85361796617507935 0.63750851154327393 0.88803738355636597
0.99093139171600342 0.6429373025894165 0.89591634273529053
0.052012335509061813 0.80073529481887817 0.88014501333236694
0.2156691700220108 0.79982948303222656 0.88645726442337036
0.38161554932594299 0.79998290538787842 0.88469547033309937
0.54509854316711426 0.80170536041259766 0.88021302223205566
0.70343136787414551 0.80433040857315063 0.88285398483276367
0.85475486516952515 0.80637454986572266 0.894631028175354
0.99066877365112305 0.81323927640914917 0.89728927612304688
0.048249848186969757 0.96758580207824707 0.89152681827545166
0.21287336945533752 0.96758580207824707 0.8939933180809021
0.37819039821624756 0.96800637245178223 0.88942337036132812
0.54126578569412231 0.97010868787765503 0.88430297374725342
0.69913309812545776 0.97181355953216553 0.88816767930984497
0.8490135669708252 0.97482103109359741 0.89626908302307129
0.98701000213623047 0.98019683361053467 0.90451949834823608
