assets/lut/alexjordan subtle blue.cube
# Created by: G'MIC (https://gmic.eu)
TITLE "subtle_blue"
# LUT size
LUT_3D_SIZE 5
# Data domain
DOMAIN_MIN 0.0 0.0 0.0
DOMAIN_MAX 1.0 1.0 1.0
# LUT data points
0.0042799259535968304 0.026610953733325005 0.046320479363203049
0.19888626039028168 0.025398477911949158 0.05073712021112442
0.39616018533706665 0.04056181013584137 0.063366025686264038
0.58187711238861084 0.053772196173667908 0.080178894102573395
0.7591177225112915 0.065456926822662354 0.095165744423866272
0.026780730113387108 0.23915441334247589 0.090313032269477844
0.24072332680225372 0.24283984303474426 0.099112749099731445
0.4466974139213562 0.2557404637336731 0.1111873984336853
0.63842862844467163 0.26773402094841003 0.12598837912082672
0.81658035516738892 0.28128817677497864 0.13958439230918884
0.077227376401424408 0.46204882860183716 0.13584096729755402
0.28442478179931641 0.46522781252861023 0.14758248627185822
0.49270862340927124 0.47366541624069214 0.16017386317253113
0.68671000003814697 0.48498624563217163 0.17380355298519135
0.86340564489364624 0.50189167261123657 0.18759635090827942
0.13149590790271759 0.68428504467010498 0.17757178843021393
0.33819353580474854 0.68679666519165039 0.1939670741558075
0.5432400107383728 0.69386941194534302 0.20812474191188812
0.73375016450881958 0.70707887411117554 0.22093431651592255
0.90733903646469116 0.72685033082962036 0.23315340280532837
0.18216140568256378 0.91029411554336548 0.21364517509937286
0.38988411426544189 0.91117072105407715 0.23357774317264557
0.59393525123596191 0.91781711578369141 0.24945221841335297
0.78353726863861084 0.93048310279846191 0.26008367538452148
0.96032470464706421 0.94811487197875977 0.2676292359828949
0.010090921074151993 0.026340814307332039 0.23608399927616119
0.20384049415588379 0.035285532474517822 0.23864904046058655
0.40293022990226746 0.04713134840130806 0.25154465436935425
0.58924418687820435 0.058537397533655167 0.26800033450126648
0.76745712757110596 0.068282634019851685 0.28332173824310303
0.027108151465654373 0.24288865923881531 0.28345942497253418
0.24673691391944885 0.24852718412876129 0.2871650755405426
0.45276802778244019 0.2619689404964447 0.29824033379554749
0.6425127387046814 0.27449661493301392 0.31191551685333252
0.82038068771362305 0.28715157508850098 0.32655897736549377
0.075920671224594116 0.46402129530906677 0.33074638247489929
0.29179227352142334 0.46813887357711792 0.33926504850387573
0.49866002798080444 0.47931638360023499 0.34915778040885925
0.68970721960067749 0.49279353022575378 0.36138659715652466
0.86823022365570068 0.50794112682342529 0.37654650211334229
0.12997530400753021 0.68653064966201782 0.37501621246337891
0.34183698892593384 0.68975657224655151 0.38837483525276184
0.54892510175704956 0.69795280694961548 0.40007901191711426
0.74233132600784302 0.71029031276702881 0.41122233867645264
0.92008525133132935 0.72713935375213623 0.42438077926635742
0.18267247080802917 0.9110063910484314 0.41507568955421448
0.39371156692504883 0.91421395540237427 0.43216434121131897
0.60045379400253296 0.91954201459884644 0.44593057036399841
0.79324436187744141 0.93159621953964233 0.45616096258163452
0.97020828723907471 0.94904601573944092 0.46587488055229187
0.011627406813204288 0.027315700426697731 0.42442607879638672
0.20522612333297729 0.037204444408416748 0.43028402328491211
0.40674290060997009 0.049349121749401093 0.44156667590141296
0.59596168994903564 0.060055915266275406 0.4560202956199646
0.77562963962554932 0.068060152232646942 0.47099250555038452
0.042000848799943924 0.24383345246315002 0.4728638231754303
0.25539329648017883 0.25165197253227234 0.47878554463386536
0.45984774827957153 0.26567766070365906 0.48793312907218933
0.65009403228759766 0.278728187084198 0.50008976459503174
0.8286212682723999 0.29079815745353699 0.51567471027374268
0.085403978824615479 0.46657627820968628 0.52108091115951538
0.30229192972183228 0.47171595692634583 0.52928179502487183
0.50782102346420288 0.48392406105995178 0.5377039909362793
0.69941288232803345 0.49785599112510681 0.54892903566360474
0.87777698040008545 0.51205533742904663 0.56455111503601074
0.1329168826341629 0.69024503231048584 0.56696921586990356
0.34741798043251038 0.69405061006546021 0.57812070846557617
0.55563586950302124 0.70327752828598022 0.58819013833999634
0.75050932168960571 0.71621459722518921 0.59979546070098877
0.92717289924621582 0.7319532036781311 0.61444616317749023
0.18480566143989563 0.9143860936164856 0.61029672622680664
0.3968854546546936 0.91818892955780029 0.62434130907058716
0.60386079549789429 0.9253881573677063 0.63610613346099854
0.79766356945037842 0.93747800588607788 0.64772087335586548
0.97228467464447021 0.9546360969543457 0.66035526990890503
0.017963169142603874 0.032182656228542328 0.61617839336395264
0.21270841360092163 0.040973033756017685 0.62441706657409668
0.41175746917724609 0.051012855023145676 0.6355820894241333
0.60154241323471069 0.059557732194662094 0.64889419078826904
0.78063726425170898 0.066176474094390869 0.66328269243240356
0.053526770323514938 0.25042366981506348 0.66394168138504028
0.25967481732368469 0.25840383768081665 0.67160946130752563
0.46436575055122375 0.2700706422328949 0.68153911828994751
0.65638256072998047 0.28174504637718201 0.6936759352684021
0.83462011814117432 0.29292979836463928 0.70936125516891479
0.096851527690887451 0.47173357009887695 0.71250426769256592
0.30779394507408142 0.47812968492507935 0.72055613994598389
0.51410537958145142 0.48891142010688782 0.72940266132354736
0.70695126056671143 0.50222879648208618 0.741455078125
0.88286995887756348 0.51685839891433716 0.75791305303573608
0.14233781397342682 0.69446206092834473 0.75941067934036255
0.35470318794250488 0.69914156198501587 0.76919925212860107
0.56196612119674683 0.7082895040512085 0.77823007106781006
0.75639021396636963 0.72198861837387085 0.79079222679138184
0.92895793914794922 0.73881447315216064 0.80793988704681396
0.18987622857093811 0.91850733757019043 0.804249107837677
0.40177211165428162 0.92239409685134888 0.81643116474151611
0.60774737596511841 0.93024492263793945 0.82671475410461426
0.79981100559234619 0.94355791807174683 0.83890348672866821
0.96914058923721313 0.96143084764480591 0.85514348745346069
0.031028402969241142 0.038816504180431366 0.81250160932540894
0.2240598201751709 0.04581674188375473 0.82237964868545532
0.41624128818511963 0.051367860287427902 0.83350497484207153
0.60298144817352295 0.058312330394983292 0.84607458114624023
0.78063726425170898 0.062254901975393295 0.85932087898254395
0.069277174770832062 0.25909247994422913 0.86052638292312622
0.26995179057121277 0.26627999544143677 0.869529128074646
0.467903733253479 0.27460050582885742 0.87983894348144531
0.65648657083511353 0.28429552912712097 0.89252209663391113
0.83390253782272339 0.29376915097236633 0.90735077857971191
0.10953135788440704 0.47831785678863525 0.90813016891479492
0.31583774089813232 0.48502299189567566 0.91712373495101929
0.51738816499710083 0.49420598149299622 0.92677706480026245
0.70647501945495605 0.50688773393630981 0.93952023983001709
0.88022136688232422 0.52094411849975586 0.95563751459121704
0.15206536650657654 0.69911658763885498 0.95495104789733887
0.36189597845077515 0.70466363430023193 0.96479594707489014
0.56605392694473267 0.71269005537033081 0.97353911399841309
0.75682061910629272 0.72583824396133423 0.98330241441726685
0.9272269606590271 0.74399870634078979 0.99359488487243652
0.19464331865310669 0.92257285118103027 0.99154376983642578
0.40607601404190063 0.92699098587036133 0.99639815092086792
0.6117631196975708 0.93365049362182617 0.99897497892379761
0.80477309226989746 0.94541072845458984 0.99995261430740356
0.97491252422332764 0.96534991264343262 1
