assets/lut/alexjordan orange dark 07.cube
# Created by: G'MIC (https://gmic.eu)
TITLE "orange_dark_7"
# LUT size
LUT_3D_SIZE 7
# Data domain
DOMAIN_MIN 0.0 0.0 0.0
DOMAIN_MAX 1.0 1.0 1.0
# LUT data points
0.0054820193909108639 0.0054820193909108639 0.0051708593964576721
0.0094261020421981812 0.0084932064637541771 0.0078403549268841743
0.022045120596885681 0.015905164182186127 0.014230675995349884
0.061136104166507721 0.018550558015704155 0.018570499494671822
0.11859004944562912 0.023529412224888802 0.023529412224888802
0.11834770441055298 0.023529412224888802 0.023529412224888802
0.1191592812538147 0.023529412224888802 0.023529412224888802
0.035294074565172195 0.037631765007972717 0.034054700285196304
0.057358387857675552 0.05118909478187561 0.043435085564851761
0.129710853099823 0.071064591407775879 0.057232756167650223
0.2531374990940094 0.080216817557811737 0.062371212989091873
0.2976931631565094 0.076331615447998047 0.05936083197593689
0.31363171339035034 0.08147895336151123 0.061653152108192444
0.36612418293952942 0.10148592293262482 0.073615416884422302
0.076267614960670471 0.14704522490501404 0.072454385459423065
0.1339380294084549 0.17630210518836975 0.088466539978981018
0.27505236864089966 0.20470796525478363 0.094513759016990662
0.45547401905059814 0.20615126192569733 0.091554813086986542
0.58991515636444092 0.2238793820142746 0.095275238156318665
0.63975065946578979 0.25972339510917664 0.11655596643686295
0.66305863857269287 0.28068733215332031 0.1279037743806839
0.072250440716743469 0.34845030307769775 0.061813056468963623
0.17764197289943695 0.39340025186538696 0.085161738097667694
0.36003446578979492 0.41352581977844238 0.11324614286422729
0.54291480779647827 0.44011428952217102 0.14657238125801086
0.72887933254241943 0.47108334302902222 0.17686223983764648
0.76478129625320435 0.49633908271789551 0.1928783655166626
0.77235531806945801 0.52517092227935791 0.20932528376579285
0.083817183971405029 0.62261366844177246 0.065456613898277283
0.28635954856872559 0.64800888299942017 0.16355061531066895
0.49186941981315613 0.6940610408782959 0.22599533200263977
0.69747912883758545 0.74654090404510498 0.26575317978858948
0.83575177192687988 0.77564775943756104 0.28953248262405396
0.84663969278335571 0.80485135316848755 0.3072359561920166
0.8512260913848877 0.82361316680908203 0.31986397504806519
0.25670531392097473 0.84744834899902344 0.22394247353076935
0.42017340660095215 0.88982528448104858 0.27859070897102356
0.6204216480255127 0.93066108226776123 0.3233313262462616
0.82880747318267822 0.9665151834487915 0.36334794759750366
0.89062470197677612 0.97574174404144287 0.38285234570503235
0.89330768585205078 0.97841739654541016 0.39550679922103882
0.89424210786819458 0.97905945777893066 0.40894901752471924
0.33675873279571533 0.88048893213272095 0.29671457409858704
0.49912267923355103 0.91734194755554199 0.338094562292099
0.71823620796203613 0.95719581842422485 0.38893154263496399
0.88991737365722656 0.98084467649459839 0.42178046703338623
0.89844024181365967 0.98544794321060181 0.44484582543373108
0.90064519643783569 0.98606306314468384 0.4459567666053772
0.90360492467880249 0.98808825016021729 0.48224151134490967
0.0095626683905720711 0.0095626683905720711 0.0078863408416509628
0.010268611833453178 0.0092774182558059692 0.0087521122768521309
0.027467405423521996 0.01666921004652977 0.017264273017644882
0.078952878713607788 0.022926211357116699 0.023596519604325294
0.12895329296588898 0.025080692023038864 0.028912188485264778
0.12900902330875397 0.024216447025537491 0.028152406215667725
0.12776429951190948 0.024089260026812553 0.027017422020435333
0.042980734258890152 0.049038141965866089 0.043966196477413177
0.068403162062168121 0.061011027544736862 0.055055327713489532
0.14062771201133728 0.076653078198432922 0.070128828287124634
0.26350614428520203 0.083819322288036346 0.074466526508331299
0.32234576344490051 0.082564949989318848 0.072646364569664001
0.34673693776130676 0.093574494123458862 0.080163158476352692
0.41578230261802673 0.11673687398433685 0.10001365840435028
0.081348225474357605 0.15857155621051788 0.090338028967380524
0.14451444149017334 0.19182077050209045 0.10907059907913208
0.28509360551834106 0.21371674537658691 0.11858385801315308
0.46793532371520996 0.22356751561164856 0.12046736478805542
0.61901301145553589 0.24824617803096771 0.13979889452457428
0.66716200113296509 0.27822330594062805 0.16639317572116852
0.68395411968231201 0.29649952054023743 0.17936179041862488
0.072646059095859528 0.36649468541145325 0.090225040912628174
0.18624034523963928 0.40622451901435852 0.12406637519598007
0.3768678605556488 0.43073976039886475 0.17383792996406555
0.55600690841674805 0.46285292506217957 0.21509206295013428
0.7487143874168396 0.49298134446144104 0.24409022927284241
0.78018277883529663 0.52984619140625 0.2695821225643158
0.78397637605667114 0.53938394784927368 0.27283897995948792
0.12314384430646896 0.63841837644577026 0.14561314880847931
0.32906496524810791 0.66901129484176636 0.25301647186279297
0.51737958192825317 0.72188133001327515 0.3038921058177948
0.7202686071395874 0.7704540491104126 0.34358155727386475
0.85314381122589111 0.80495560169219971 0.37254798412322998
0.86142635345458984 0.82815778255462646 0.38996386528015137
0.86883628368377686 0.85889345407485962 0.40559989213943481
0.28223565220832825 0.85995829105377197 0.30981478095054626
0.44362881779670715 0.90375930070877075 0.36355665326118469
0.6480705738067627 0.94562309980392456 0.41296446323394775
0.85092043876647949 0.97805285453796387 0.45042833685874939
0.90059816837310791 0.98116409778594971 0.47165599465370178
0.90405964851379395 0.98849493265151978 0.48281219601631165
0.90521550178527832 0.98928332328796387 0.49587440490722656
0.37299057841300964 0.8989759087562561 0.40138614177703857
0.52896559238433838 0.93271619081497192 0.44178712368011475
0.74393004179000854 0.97003507614135742 0.4902539849281311
0.90486091375350952 0.99341142177581787 0.5222589373588562
0.90932744741439819 0.99425381422042847 0.53713101148605347
0.91092073917388916 0.99440258741378784 0.55196088552474976
0.91326302289962769 0.99642264842987061 0.57693719863891602
0.0082444436848163605 0.0088310390710830688 0.0083389580249786377
0.017187245190143585 0.016790561378002167 0.016730664297938347
0.04035867378115654 0.022630892693996429 0.026847045868635178
0.10270693898200989 0.027889177203178406 0.039625085890293121
0.1472323089838028 0.030201826244592667 0.044829096645116806
0.14542931318283081 0.028436115011572838 0.04183756560087204
0.14697942137718201 0.030123183503746986 0.042990352958440781
0.045172866433858871 0.053023289889097214 0.057064924389123917
0.075742848217487335 0.068401739001274109 0.078600428998470306
0.1596100777387619 0.085031680762767792 0.10004720091819763
0.28319063782691956 0.089517943561077118 0.10692707449197769
0.34423771500587463 0.088085532188415527 0.1069810763001442
0.38734027743339539 0.10500296950340271 0.11932811141014099
0.45039653778076172 0.13216562569141388 0.14347255229949951
0.086371734738349915 0.17019534111022949 0.13303902745246887
0.1592213362455368 0.2071557343006134 0.16301842033863068
0.30031272768974304 0.22516871988773346 0.17693576216697693
0.48031052947044373 0.24691294133663177 0.1936156153678894
0.63900893926620483 0.27204450964927673 0.21397881209850311
0.68966484069824219 0.29790559411048889 0.23616325855255127
0.70118141174316406 0.31532019376754761 0.25132781267166138
0.081443771719932556 0.38579776883125305 0.16829869151115417
0.20520175993442535 0.42257046699523926 0.21070230007171631
0.39844676852226257 0.45288172364234924 0.2622266411781311
0.57970625162124634 0.4882352352142334 0.30491453409194946
0.76739978790283203 0.51659846305847168 0.33253121376037598
0.78981107473373413 0.54254150390625 0.35417217016220093
0.79804509878158569 0.5681455135345459 0.3710901141166687
0.16856300830841064 0.65423363447189331 0.27271845936775208
0.34549424052238464 0.69015181064605713 0.34802442789077759
0.53992635011672974 0.74664252996444702 0.40334975719451904
0.74486392736434937 0.79565876722335815 0.44579002261161804
0.86714464426040649 0.83055001497268677 0.47605735063552856
0.87535178661346436 0.85830461978912354 0.49533253908157349
0.88460439443588257 0.88685035705566406 0.51502752304077148
0.30368509888648987 0.87290364503860474 0.41588994860649109
0.46944263577461243 0.92024177312850952 0.47146928310394287
0.67338854074478149 0.96111369132995605 0.52461028099060059
0.8719104528427124 0.98787707090377808 0.5637592077255249
0.91465264558792114 0.99571704864501953 0.59021711349487305
0.91608995199203491 0.99615633487701416 0.60341590642929077
0.91618257761001587 0.99615037441253662 0.61340594291687012
0.37000522017478943 0.90180379152297974 0.50042414665222168
0.55263215303421021 0.94454789161682129 0.56074017286300659
0.77020269632339478 0.98043346405029297 0.61360794305801392
0.91548812389373779 0.99999570846557617 0.64677685499191284
0.92196714878082275 0.99996340274810791 0.66707509756088257
0.92322444915771484 0.99993914365768433 0.68124902248382568
0.92249828577041626 1 0.69722384214401245
0.011713439598679543 0.012020215392112732 0.013086521066725254
0.019245700910687447 0.016801033169031143 0.021070742979645729
0.051885612308979034 0.027031498029828072 0.044272687286138535
0.1254919022321701 0.032313987612724304 0.067296542227268219
0.16499632596969604 0.03351103886961937 0.074359521269798279
0.16126921772956848 0.031820978969335556 0.070213258266448975
0.1759326159954071 0.036196749657392502 0.07142745703458786
0.046473260968923569 0.056081719696521759 0.076107770204544067
0.088916823267936707 0.07859262079000473 0.12176164984703064
0.17800635099411011 0.094457574188709259 0.15370173752307892
0.31340962648391724 0.098713956773281097 0.17019003629684448
0.38243156671524048 0.098101839423179626 0.16750495135784149
0.43982017040252686 0.12359955906867981 0.18377223610877991
0.5058518648147583 0.14954659342765808 0.20637023448944092
0.089532114565372467 0.18144391477108002 0.20377878844738007
0.16506569087505341 0.2162410169839859 0.24517638981342316
0.31280526518821716 0.23733603954315186 0.26739892363548279
0.48601588606834412 0.26687443256378174 0.28612777590751648
0.64953094720840454 0.29298090934753418 0.30280762910842896
0.70570188760757446 0.3164234459400177 0.32027164101600647
0.71567142009735107 0.33216080069541931 0.33814382553100586
0.093013167381286621 0.4048478901386261 0.28692540526390076
0.22007092833518982 0.43642368912696838 0.32713910937309265
0.41672021150588989 0.47000676393508911 0.36858096718788147
0.60212951898574829 0.51176744699478149 0.40838554501533508
0.78397691249847412 0.53876185417175293 0.43382424116134644
0.80149370431900024 0.56344902515411377 0.45435312390327454
0.81005591154098511 0.58912640810012817 0.47748866677284241
0.19809231162071228 0.66666692495346069 0.40005651116371155
0.37588176131248474 0.71690428256988525 0.46216705441474915
0.56379693746566772 0.77171343564987183 0.51389592885971069
0.76834201812744141 0.81904202699661255 0.5594557523727417
0.88201749324798584 0.8601067066192627 0.59198099374771118
0.89017081260681152 0.88224846124649048 0.61203020811080933
0.89845871925354004 0.91043424606323242 0.63526350259780884
0.32343399524688721 0.88600999116897583 0.53506028652191162
0.48528358340263367 0.93110865354537964 0.58990359306335449
0.69169074296951294 0.97185474634170532 0.64349204301834106
0.88761645555496216 0.99508202075958252 0.68783891201019287
0.92411303520202637 0.99986964464187622 0.71409803628921509
0.92506718635559082 0.99809461832046509 0.72733575105667114
0.92716902494430542 0.99961620569229126 0.74298667907714844
0.39287292957305908 0.91369104385375977 0.63453084230422974
0.57325249910354614 0.95594972372055054 0.69055426120758057
0.79343521595001221 0.98694229125976562 0.74574798345565796
0.92646950483322144 1 0.78310835361480713
0.92982012033462524 1 0.80282443761825562
0.93167823553085327 1 0.81948196887969971
0.93185794353485107 1 0.84014320373535156
0.016156500205397606 0.016242457553744316 0.01778126135468483
0.024326398968696594 0.020208574831485748 0.033981114625930786
0.065589278936386108 0.030315054580569267 0.07681148499250412
0.15008744597434998 0.037385933101177216 0.11722039431333542
0.19180384278297424 0.038241472095251083 0.12393780797719955
0.18416361510753632 0.035870824009180069 0.11511334031820297
0.19816748797893524 0.041263595223426819 0.11219854652881622
0.053709786385297775 0.065893210470676422 0.126384437084198
0.098047949373722076 0.087047621607780457 0.18994581699371338
0.19539655745029449 0.1027308776974678 0.23888762295246124
0.34225171804428101 0.10393280535936356 0.26669016480445862
0.42835646867752075 0.10977662354707718 0.25928601622581482
0.4891241192817688 0.13979488611221313 0.26766788959503174
0.54163658618927002 0.16217388212680817 0.28645086288452148
0.092477552592754364 0.1972537487745285 0.3201410174369812
0.16874662041664124 0.22679144144058228 0.37286922335624695
0.32479918003082275 0.25046622753143311 0.39873602986335754
0.49026739597320557 0.27975913882255554 0.39739519357681274
0.66599905490875244 0.3111826479434967 0.41020116209983826
0.72246003150939941 0.33130106329917908 0.42946183681488037
0.72964519262313843 0.34829270839691162 0.44751504063606262
0.098762497305870056 0.41400361061096191 0.44299322366714478
0.24503961205482483 0.44866231083869934 0.46693623065948486
0.43449065089225769 0.49093407392501831 0.49002394080162048
0.62569123506546021 0.53496438264846802 0.52888727188110352
0.79783236980438232 0.56239008903503418 0.55888247489929199
0.81260693073272705 0.58647030591964722 0.58135390281677246
0.82070291042327881 0.6101270318031311 0.60208791494369507
0.2230377197265625 0.68297785520553589 0.53611546754837036
0.38961458206176758 0.73816013336181641 0.58986210823059082
0.58554524183273315 0.79585462808609009 0.64486736059188843
0.79285275936126709 0.84896677732467651 0.6966862678527832
0.89594149589538574 0.88436585664749146 0.73202085494995117
0.90473449230194092 0.91410201787948608 0.75964027643203735
0.90882062911987305 0.92961269617080688 0.77871853113174438
0.3403434157371521 0.9032018780708313 0.67203545570373535
0.50221908092498779 0.94166970252990723 0.72813034057617188
0.7109454870223999 0.97781389951705933 0.78220111131668091
0.90735596418380737 0.99857789278030396 0.83155196905136108
0.93219476938247681 0.9984971284866333 0.85428982973098755
0.93415415287017822 1 0.87183433771133423
0.9345860481262207 0.99997472763061523 0.88645821809768677
0.40972211956977844 0.92409628629684448 0.7851707935333252
0.58205097913742065 0.96291649341583252 0.83687120676040649
0.81009572744369507 0.99478894472122192 0.89305788278579712
0.93635421991348267 1 0.92427182197570801
0.93725490570068359 1 0.92976224422454834
0.93725490570068359 1 0.93040686845779419
0.93725490570068359 1 0.93161135911941528
0.014118194580078125 0.014277080073952675 0.019577281549572945
0.031205017119646072 0.023636268451809883 0.059960413724184036
0.076161704957485199 0.032667286694049835 0.12200964987277985
0.16358695924282074 0.038862310349941254 0.17438539862632751
0.20932243764400482 0.039335481822490692 0.19178938865661621
0.20940551161766052 0.039187338203191757 0.1818305104970932
0.24282032251358032 0.048927891999483109 0.17670169472694397
0.05583539605140686 0.068418644368648529 0.18997551500797272
0.10745761543512344 0.093564741313457489 0.27715775370597839
0.20536409318447113 0.10346175730228424 0.3395020067691803
0.35885798931121826 0.10701820254325867 0.38798552751541138
0.46673384308815002 0.12089779227972031 0.37061721086502075
0.51778000593185425 0.14641563594341278 0.35578528046607971
0.56430906057357788 0.16707374155521393 0.37339496612548828
0.091357901692390442 0.20091505348682404 0.44865342974662781
0.17374974489212036 0.23136861622333527 0.52688479423522949
0.33389189839363098 0.26372134685516357 0.54086363315582275
0.49654841423034668 0.29791894555091858 0.51652055978775024
0.68003493547439575 0.32602319121360779 0.52836793661117554
0.73613303899765015 0.34425297379493713 0.55176711082458496
0.74042612314224243 0.3660128116607666 0.57406401634216309
0.097395546734333038 0.41709715127944946 0.62142312526702881
0.26625367999076843 0.46187999844551086 0.60720205307006836
0.4496113657951355 0.50655192136764526 0.61897444725036621
0.64982491731643677 0.55869430303573608 0.66394269466400146
0.80979412794113159 0.58716487884521484 0.69586992263793945
0.82311165332794189 0.60731428861618042 0.71910041570663452
0.83032441139221191 0.62787306308746338 0.74202030897140503
0.25052231550216675 0.70396238565444946 0.67693030834197998
0.40528967976570129 0.7603909969329834 0.73325687646865845
0.60353583097457886 0.8186110258102417 0.79088765382766724
0.81427198648452759 0.8730849027633667 0.84272843599319458
0.90958821773529053 0.91250920295715332 0.88028180599212646
0.91589891910552979 0.93489187955856323 0.89713233709335327
0.92029333114624023 0.94603115320205688 0.90739136934280396
0.35057824850082397 0.90671437978744507 0.80449163913726807
0.51534581184387207 0.94960778951644897 0.85375267267227173
0.7282949686050415 0.98931479454040527 0.90149033069610596
0.92201608419418335 0.99999433755874634 0.9333425760269165
0.93439316749572754 0.99803847074508667 0.93183141946792603
0.93717473745346069 0.99942249059677124 0.93326824903488159
0.93724322319030762 0.99889475107192993 0.93333333730697632
0.4160764217376709 0.92797696590423584 0.84153538942337036
0.60162627696990967 0.96864867210388184 0.88316649198532104
0.82657003402709961 0.99563652276992798 0.92073428630828857
0.93668019771575928 1 0.93725490570068359
0.93665003776550293 1 0.93620091676712036
0.93688219785690308 1 0.93596804141998291
0.93725490570068359 1 0.93725490570068359
0.01716034859418869 0.01791413314640522 0.030012287199497223
0.035528235137462616 0.025289138779044151 0.090695112943649292
0.083586357533931732 0.033386815339326859 0.14415663480758667
0.1740274578332901 0.040655158460140228 0.20050247013568878
0.21628600358963013 0.038599517196416855 0.21625851094722748
0.22554007172584534 0.040277354419231415 0.22219477593898773
0.32518580555915833 0.066089645028114319 0.27371358871459961
0.057297993451356888 0.07182852178812027 0.21162214875221252
0.10779258608818054 0.096159033477306366 0.29482606053352356
0.21686653792858124 0.10955654829740524 0.37365099787712097
0.35604387521743774 0.11413856595754623 0.42987111210823059
0.49198469519615173 0.12656685709953308 0.47587594389915466
0.55547845363616943 0.15791364014148712 0.46574971079826355
0.59356099367141724 0.18290230631828308 0.4985746443271637
0.091250218451023102 0.20295695960521698 0.45990464091300964
0.17465862631797791 0.2366359531879425 0.55199038982391357
0.34011590480804443 0.27468651533126831 0.63342422246932983
0.51028019189834595 0.31275394558906555 0.65025264024734497
0.69847196340560913 0.33969172835350037 0.66984176635742188
0.74713224172592163 0.35997918248176575 0.69576066732406616
0.75015151500701904 0.37894541025161743 0.72096806764602661
0.11901985853910446 0.42893791198730469 0.66709607839584351
0.28260412812232971 0.47576785087585449 0.73286372423171997
0.46446412801742554 0.52322202920913696 0.76042813062667847
0.65538901090621948 0.56368720531463623 0.78879934549331665
0.81531155109405518 0.6067347526550293 0.81479769945144653
0.82971519231796265 0.62090909481048584 0.82600820064544678
0.83859694004058838 0.65206533670425415 0.83331853151321411
0.26098299026489258 0.71792751550674438 0.77679610252380371
0.41592273116111755 0.77091735601425171 0.81817436218261719
0.6204494833946228 0.83866721391677856 0.86137723922729492
0.83104789257049561 0.89185589551925659 0.89723306894302368
0.91419112682342529 0.92961400747299194 0.91483598947525024
0.91916728019714355 0.9464612603187561 0.91905832290649414
0.92527163028717041 0.96464413404464722 0.92509973049163818
0.36210525035858154 0.91231232881546021 0.82923144102096558
0.5353318452835083 0.95364320278167725 0.86993646621704102
0.74064111709594727 0.9907534122467041 0.90844184160232544
0.9260023832321167 0.99978804588317871 0.9360770583152771
0.93342220783233643 0.99878048896789551 0.93725490570068359
0.93333691358566284 0.99607455730438232 0.93333691358566284
0.93725490570068359 0.99652194976806641 0.93725490570068359
0.43416088819503784 0.93231850862503052 0.84654730558395386
0.62599921226501465 0.97392547130584717 0.88802027702331543
0.83722186088562012 0.99920654296875 0.922995924949646
0.93716961145401001 1 0.93725490570068359
0.9335138201713562 0.99995100498199463 0.93725490570068359
0.93339747190475464 0.99901324510574341 0.93725490570068359
0.93725490570068359 0.99994397163391113 0.93725490570068359
