assets/lut/alexjordan orange dark look.cube
# Created by: G'MIC (https://gmic.eu)
TITLE "orange_dark_look"
# LUT size
LUT_3D_SIZE 5
# Data domain
DOMAIN_MIN 0.0 0.0 0.0
DOMAIN_MAX 1.0 1.0 1.0
# LUT data points
0 0 0
0.045602582395076752 0.00088387285359203815 0
0.18093398213386536 0 0
0.32597583532333374 0 0
0.5077093243598938 0.011337623931467533 0.0061751273460686207
0.023265734314918518 0.061416551470756531 0.012197651900351048
0.13716249167919159 0.10928124934434891 0.042479421943426132
0.37243819236755371 0.14197166264057159 0.059999249875545502
0.59737992286682129 0.19736282527446747 0.094077304005622864
0.81216716766357422 0.24556216597557068 0.11762460321187973
0.11636831611394882 0.37386807799339294 0.099436752498149872
0.30109831690788269 0.44669866561889648 0.15785834193229675
0.55484223365783691 0.47970312833786011 0.19122405350208282
0.74244141578674316 0.51815462112426758 0.21437676250934601
0.91314858198165894 0.56039965152740479 0.23933839797973633
0.20887818932533264 0.70228654146194458 0.19275771081447601
0.41379961371421814 0.74505174160003662 0.24530716240406036
0.66370099782943726 0.74607199430465698 0.27758249640464783
0.83302348852157593 0.76997357606887817 0.29293879866600037
0.97609186172485352 0.8012731671333313 0.30365252494812012
0.27826386690139771 0.95477515459060669 0.28038662672042847
0.49005010724067688 0.9714013934135437 0.31160774827003479
0.72893619537353516 0.96040624380111694 0.33695700764656067
0.89497339725494385 0.97193098068237305 0.35326969623565674
1 0.99075478315353394 0.36152550578117371
0.0026010700967162848 0.0021443984005600214 0.004490960855036974
0.047223333269357681 0.0013379863230511546 0.0015401054406538606
0.19235371053218842 6.8933826696593314e-05 0.0049274219200015068
0.34741145372390747 0.0023705875501036644 0.0060056201182305813
0.54404658079147339 0.0093544302508234978 0.019442120566964149
0.03716665506362915 0.07932676374912262 0.038426551967859268
0.15527205169200897 0.1317632794380188 0.08093530684709549
0.40257939696311951 0.17228060960769653 0.10918019711971283
0.63107120990753174 0.22073127329349518 0.1514815092086792
0.83612668514251709 0.27839940786361694 0.20661421120166779
0.15525071322917938 0.41168728470802307 0.1658121794462204
0.33086812496185303 0.47018492221832275 0.22673529386520386
0.57499343156814575 0.50347316265106201 0.25952866673469543
0.76149636507034302 0.54159647226333618 0.28905302286148071
0.92154169082641602 0.58384895324707031 0.3249829113483429
0.25804159045219421 0.72769612073898315 0.27673003077507019
0.43898323178291321 0.75932163000106812 0.32254871726036072
0.67929458618164062 0.76353907585144043 0.35074415802955627
0.85055798292160034 0.78449052572250366 0.365846186876297
0.98540604114532471 0.81305414438247681 0.38294300436973572
0.30675479769706726 0.96992164850234985 0.38020297884941101
0.50127136707305908 0.98142200708389282 0.38273298740386963
0.74286258220672607 0.97306901216506958 0.41940775513648987
0.90783548355102539 0.98116427659988403 0.43403142690658569
1 0.99419498443603516 0.45745304226875305
0.0050626266747713089 0.0017936257645487785 0.12426207214593887
0.051612135022878647 0.0018642201321199536 0.10824453085660934
0.19288827478885651 0 0.10392609983682632
0.35658553242683411 0.00059581082314252853 0.13193204998970032
0.55236303806304932 0.02653045579791069 0.19574138522148132
0.041836787015199661 0.092255398631095886 0.2010786235332489
0.17940102517604828 0.1480584442615509 0.25154381990432739
0.41286119818687439 0.1893937736749649 0.30281516909599304
0.64274823665618896 0.24475020170211792 0.38214686512947083
0.84286141395568848 0.29655387997627258 0.45110240578651428
0.17258936166763306 0.42888149619102478 0.3788866400718689
0.35791569948196411 0.48213469982147217 0.43449148535728455
0.56787610054016113 0.52209925651550293 0.46354907751083374
0.74616867303848267 0.55796855688095093 0.50745898485183716
0.89814549684524536 0.5966680645942688 0.54292625188827515
0.27857372164726257 0.72991561889648438 0.51496130228042603
0.45554035902023315 0.75859230756759644 0.55494290590286255
0.71035087108612061 0.75968950986862183 0.58960670232772827
0.84389203786849976 0.79089522361755371 0.60911756753921509
0.97079646587371826 0.82061266899108887 0.62697046995162964
0.32082411646842957 0.97016012668609619 0.5952485203742981
0.52888137102127075 0.97522449493408203 0.62189221382141113
0.77205032110214233 0.96613287925720215 0.64831572771072388
0.92079508304595947 0.98185652494430542 0.66366672515869141
1 0.99510985612869263 0.68141466379165649
0.00013786765339318663 0 0.24808061122894287
0.046205244958400726 0.0019754148088395596 0.23583486676216125
0.20774278044700623 0 0.23278574645519257
0.39105170965194702 0.0008144603343680501 0.28896805644035339
0.58758199214935303 0.024670111015439034 0.37186166644096375
0.049169577658176422 0.10730700194835663 0.36242109537124634
0.1983066201210022 0.16988891363143921 0.42539381980895996
0.44995343685150146 0.20757761597633362 0.46756201982498169
0.67349803447723389 0.25905734300613403 0.55201727151870728
0.8622623085975647 0.31201061606407166 0.62619197368621826
0.18430148065090179 0.45240753889083862 0.55742490291595459
0.36594489216804504 0.50706773996353149 0.60031801462173462
0.60261994600296021 0.53323507308959961 0.59653151035308838
0.76448255777359009 0.57615178823471069 0.64908879995346069
0.90722745656967163 0.61231088638305664 0.69532275199890137
0.27972480654716492 0.74574631452560425 0.6855970025062561
0.4627019464969635 0.77310574054718018 0.71264636516571045
0.71631121635437012 0.77328646183013916 0.70575052499771118
0.84074628353118896 0.8094671368598938 0.7268638014793396
0.95967632532119751 0.83300668001174927 0.76915043592453003
0.32065317034721375 0.97958201169967651 0.77106726169586182
0.52820879220962524 0.98435819149017334 0.79043477773666382
0.78091955184936523 0.97386515140533447 0.79355961084365845
0.94619208574295044 0.97867310047149658 0.82425445318222046
0.99996554851531982 0.99510979652404785 0.84936583042144775
0.0087421638891100883 0.0045421374961733818 0.34520676732063293
0.05977344885468483 0 0.33954498171806335
0.23121491074562073 0.0041009490378201008 0.34814080595970154
0.42027568817138672 0.021781712770462036 0.40204191207885742
0.62295722961425781 0.033172111958265305 0.4948485791683197
0.067972011864185333 0.132315993309021 0.49137213826179504
0.2158876359462738 0.18594004213809967 0.5507054328918457
0.4880405068397522 0.22856774926185608 0.60581302642822266
0.70764708518981934 0.28107601404190063 0.68650633096694946
0.90088403224945068 0.33066722750663757 0.76439809799194336
0.19641764461994171 0.47411862015724182 0.68547886610031128
0.37366661429405212 0.52313369512557983 0.71912455558776855
0.62417316436767578 0.55331176519393921 0.72315853834152222
0.7899203896522522 0.58956575393676758 0.75774598121643066
0.9400947093963623 0.62105029821395874 0.81110644340515137
0.28127828240394592 0.75739473104476929 0.80900907516479492
0.47595018148422241 0.78441846370697021 0.82420915365219116
0.71790063381195068 0.78810620307922363 0.80857795476913452
0.86677378416061401 0.8141554594039917 0.8151516318321228
0.97535961866378784 0.84570056200027466 0.8503538966178894
0.32487675547599792 0.98726296424865723 0.88977640867233276
0.53221744298934937 0.99199926853179932 0.89703512191772461
0.79079508781433105 0.98197239637374878 0.88319677114486694
0.95857352018356323 0.98758983612060547 0.89210414886474609
0.99994611740112305 0.99954688549041748 0.91189074516296387
