assets/lut/alexjordan only red and blue.cube
# Created by: G'MIC (https://gmic.eu)
TITLE "only_red_and_blue"
# LUT size
LUT_3D_SIZE 7
# Data domain
DOMAIN_MIN 0.0 0.0 0.0
DOMAIN_MAX 1.0 1.0 1.0
# LUT data points
0.027541859075427055 0.034157097339630127 0.032485019415616989
0.17575421929359436 0.037667322903871536 0.030284477397799492
0.32921972870826721 0.038257971405982971 0.040644552558660507
0.49404656887054443 0.034997813403606415 0.034839000552892685
0.67508053779602051 0.029489465057849884 0.029587719589471817
0.80873262882232666 0.036276515573263168 0.028498077765107155
0.92991310358047485 0.044179324060678482 0.022443121299147606
0.14859975874423981 0.14610134065151215 0.14903314411640167
0.19936808943748474 0.1878143846988678 0.073693789541721344
0.3562469482421875 0.1950615793466568 0.022471364587545395
0.51631474494934082 0.19283528625965118 0.031308852136135101
0.6829063892364502 0.1900685727596283 0.03223501518368721
0.83899706602096558 0.19164885580539703 0.033099830150604248
0.98288744688034058 0.19328442215919495 0.029288856312632561
0.26050281524658203 0.26163691282272339 0.2600727379322052
0.28880873322486877 0.29940381646156311 0.26213359832763672
0.35158362984657288 0.34815099835395813 0.080724366009235382
0.50496059656143188 0.35538783669471741 0.044523410499095917
0.66859632730484009 0.355367511510849 0.027405891567468643
0.83585101366043091 0.35499769449234009 0.031287863850593567
0.99130022525787354 0.3516947329044342 0.029865115880966187
0.37777301669120789 0.37720111012458801 0.37783339619636536
0.40717002749443054 0.41206467151641846 0.40893939137458801
0.42318001389503479 0.46354568004608154 0.30803626775741577
0.51359617710113525 0.5040397047996521 0.12432534992694855
0.66986334323883057 0.51391714811325073 0.030131157487630844
0.83566975593566895 0.51409912109375 0.027032680809497833
0.99175733327865601 0.51191407442092896 0.026043146848678589
0.49085879325866699 0.49378159642219543 0.4888913631439209
0.52358090877532959 0.52499687671661377 0.53060722351074219
0.54346668720245361 0.5675814151763916 0.50761842727661133
0.57109230756759644 0.62916171550750732 0.30646020174026489
0.66649359464645386 0.67041659355163574 0.10345645993947983
0.82431787252426147 0.67574769258499146 0.047167595475912094
0.9870603084564209 0.6724092960357666 0.029340362176299095
0.60660308599472046 0.60910773277282715 0.60593783855438232
0.64137482643127441 0.64074695110321045 0.64317959547042847
0.66191351413726807 0.67622697353363037 0.66473847627639771
0.66987788677215576 0.73519015312194824 0.54811209440231323
0.70480364561080933 0.79957067966461182 0.30763143301010132
0.81928771734237671 0.82772648334503174 0.14944653213024139
0.98063218593597412 0.83036726713180542 0.077616237103939056
0.72231411933898926 0.72417014837265015 0.72216975688934326
0.75777709484100342 0.75675439834594727 0.75652951002120972
0.78302150964736938 0.79098433256149292 0.79057776927947998
0.79344683885574341 0.83891391754150391 0.75125181674957275
0.79288661479949951 0.90941286087036133 0.54574549198150635
0.85888928174972534 0.9583403468132019 0.32903274893760681
0.98933881521224976 0.97479236125946045 0.19372698664665222
0.033014498651027679 0.031495772302150726 0.20003648102283478
0.096219904720783234 0.069185204803943634 0.10432726144790649
0.16548822820186615 0.095396064221858978 0.12068471312522888
0.35558375716209412 0.080054417252540588 0.16590818762779236
0.54548782110214233 0.07243085652589798 0.17759539186954498
0.71781980991363525 0.06820552796125412 0.18304535746574402
0.87726825475692749 0.06528434157371521 0.18839766085147858
0.060429845005273819 0.18536125123500824 0.18988813459873199
0.19237032532691956 0.19171494245529175 0.19452682137489319
0.33648642897605896 0.19945621490478516 0.19467318058013916
0.50046509504318237 0.19649200141429901 0.19955989718437195
0.69133192300796509 0.1870809942483902 0.20395810902118683
0.85090237855911255 0.18714520335197449 0.20592567324638367
0.99256759881973267 0.19031530618667603 0.20027998089790344
0.24784299731254578 0.28089511394500732 0.26896393299102783
0.30679896473884583 0.30672881007194519 0.30921375751495361
0.35918426513671875 0.34656769037246704 0.23164297640323639
0.52616292238235474 0.35094502568244934 0.18357151746749878
0.69154536724090576 0.34859248995780945 0.18899320065975189
0.85053712129592896 0.34943270683288574 0.19877661764621735
0.99800902605056763 0.34662774205207825 0.20183564722537994
0.38914990425109863 0.38963794708251953 0.38165143132209778
0.41903659701347351 0.42239001393318176 0.42501166462898254
0.44611790776252747 0.46235254406929016 0.41257968544960022
0.50911903381347656 0.50812411308288574 0.24012409150600433
0.66768211126327515 0.51419728994369507 0.18610562384128571
0.83522593975067139 0.51372551918029785 0.190317302942276
0.99324148893356323 0.51232928037643433 0.1895713210105896
0.49815058708190918 0.50571137666702271 0.49653840065002441
0.53480762243270874 0.53639525175094604 0.53534513711929321
0.56559985876083374 0.57338368892669678 0.57169008255004883
0.58358365297317505 0.62807488441467285 0.44247916340827942
0.66845941543579102 0.66879063844680786 0.26209676265716553
0.82984775304794312 0.67383086681365967 0.20355527102947235
0.99036097526550293 0.67321240901947021 0.18183837831020355
0.61017000675201416 0.62352591753005981 0.61369138956069946
0.65244799852371216 0.6525159478187561 0.65266537666320801
0.68656033277511597 0.68350529670715332 0.69247257709503174
0.69941568374633789 0.73047786951065063 0.67035859823226929
0.72210562229156494 0.79304802417755127 0.47985595464706421
0.82166612148284912 0.83010518550872803 0.2786426842212677
0.98298633098602295 0.83415055274963379 0.20310677587985992
0.72825878858566284 0.73781007528305054 0.73220622539520264
0.76821577548980713 0.76916003227233887 0.76809585094451904
0.80353778600692749 0.7997291088104248 0.80235737562179565
0.82654213905334473 0.83836513757705688 0.81991291046142578
0.82721990346908569 0.90006595849990845 0.69530224800109863
0.87158346176147461 0.95790082216262817 0.45674332976341248
0.98990428447723389 0.98068106174468994 0.30569127202033997
0.044784918427467346 0.02510426752269268 0.37787780165672302
0.20339250564575195 0.029328649863600731 0.36091244220733643
0.14686967432498932 0.11415230482816696 0.15223234891891479
0.16239218413829803 0.15445095300674438 0.16355280578136444
0.28204730153083801 0.16290968656539917 0.21825729310512543
0.48018619418144226 0.14802542328834534 0.26071807742118835
0.68980860710144043 0.12728157639503479 0.31033971905708313
0.025411972776055336 0.19295597076416016 0.35517776012420654
0.19708336889743805 0.19108566641807556 0.36332327127456665
0.25378707051277161 0.23010595142841339 0.26838809251785278
0.32295340299606323 0.25641041994094849 0.27848947048187256
0.51146781444549561 0.24492356181144714 0.31335288286209106
0.72300040721893311 0.22553274035453796 0.3421579897403717
0.90574443340301514 0.2181352972984314 0.36013936996459961
0.059847395867109299 0.34636110067367554 0.34065747261047363
0.21385830640792847 0.34626200795173645 0.35263574123382568
0.35227784514427185 0.35377246141433716 0.35241475701332092
0.50382161140441895 0.35600727796554565 0.35119664669036865
0.65799993276596069 0.35704675316810608 0.36307451128959656
0.83000469207763672 0.35263028740882874 0.37393823266029358
0.99062889814376831 0.35050785541534424 0.37904217839241028
0.28211364150047302 0.43478339910507202 0.40231090784072876
0.39684244990348816 0.44453239440917969 0.42642039060592651
0.46781477332115173 0.46597370505332947 0.4706665575504303
0.51538640260696411 0.50678038597106934 0.38872048258781433
0.67319416999816895 0.51381051540374756 0.34886708855628967
0.83452576398849487 0.51373982429504395 0.35432159900665283
0.98996472358703613 0.51384806632995605 0.35504502058029175
0.47415298223495483 0.52897757291793823 0.50609761476516724
0.54944813251495361 0.55014157295227051 0.54178333282470703
0.58163988590240479 0.58380001783370972 0.58223676681518555
0.60770267248153687 0.62114113569259644 0.58075648546218872
0.67124032974243164 0.67111194133758545 0.39849358797073364
0.8302198052406311 0.67401951551437378 0.35457763075828552
0.98992633819580078 0.67402273416519165 0.34774234890937805
0.61239409446716309 0.63663095235824585 0.61824178695678711
0.65002799034118652 0.66780668497085571 0.65783017873764038
0.69583356380462646 0.69995331764221191 0.69511479139328003
0.72822308540344238 0.73268622159957886 0.73223882913589478
0.74198240041732788 0.78802919387817383 0.62233680486679077
0.82270389795303345 0.8326796293258667 0.41932511329650879
0.98101478815078735 0.8388904333114624 0.34824350476264954
0.72890567779541016 0.75019651651382446 0.73605954647064209
0.76611065864562988 0.7831990122795105 0.77224242687225342
0.81418871879577637 0.81250280141830444 0.81301844120025635
0.84823894500732422 0.84426331520080566 0.84982657432556152
0.86104285717010498 0.89055138826370239 0.83372831344604492
0.88872867822647095 0.95504301786422729 0.60551363229751587
0.98996329307556152 0.98496723175048828 0.42972111701965332
0.028879277408123016 0.029789015650749207 0.52530503273010254
0.20277740061283112 0.028260489925742149 0.52391183376312256
0.2844080924987793 0.062650807201862335 0.40696561336517334
0.19787077605724335 0.15792167186737061 0.1975812166929245
0.20584550499916077 0.20047102868556976 0.2095370888710022
0.27053219079971313 0.22499439120292664 0.25391730666160583
0.40179106593132019 0.22721919417381287 0.30982983112335205
0.023452265188097954 0.19543279707431793 0.51890420913696289
0.19280256330966949 0.19345851242542267 0.52013164758682251
0.35885947942733765 0.19089049100875854 0.50887894630432129
0.30363574624061584 0.27561196684837341 0.3117576539516449
0.3326314389705658 0.31240329146385193 0.32762140035629272
0.44642537832260132 0.32188066840171814 0.37460857629776001
0.64566999673843384 0.30270570516586304 0.43199518322944641
0.025582617148756981 0.35711181163787842 0.51443874835968018
0.18463842570781708 0.35557335615158081 0.5150647759437561
0.35598382353782654 0.35246539115905762 0.52221560478210449
0.42288753390312195 0.38856053352355957 0.43145647644996643
0.4911043643951416 0.412986159324646 0.44744306802749634
0.65104073286056519 0.41146430373191833 0.48165825009346008
0.8826829195022583 0.38927716016769409 0.51270729303359985
0.085443653166294098 0.49937045574188232 0.5083194375038147
0.22674593329429626 0.50481122732162476 0.50330400466918945
0.39665940403938293 0.49943599104881287 0.51274263858795166
0.51424789428710938 0.51400703191757202 0.51485574245452881
0.66562670469284058 0.51423746347427368 0.51985025405883789
0.80380445718765259 0.52196860313415527 0.52088660001754761
0.98430079221725464 0.51319593191146851 0.519977867603302
0.26596769690513611 0.60213452577590942 0.53246051073074341
0.4201696515083313 0.60116487741470337 0.55884987115859985
0.56815016269683838 0.60270899534225464 0.58791643381118774
0.62758171558380127 0.62810826301574707 0.62869226932525635
0.67605006694793701 0.66945946216583252 0.54531246423721313
0.83425247669219971 0.67172729969024658 0.51261454820632935
0.99082648754119873 0.67075109481811523 0.50814366340637207
0.51418858766555786 0.6806829571723938 0.62427300214767456
0.63600492477416992 0.68584728240966797 0.66352385282516479
0.70201557874679565 0.71384000778198242 0.70374304056167603
0.74491196870803833 0.74399387836456299 0.75179040431976318
0.76695853471755981 0.78469759225845337 0.7319939136505127
0.82864260673522949 0.83066922426223755 0.56999266147613525
0.98682200908660889 0.83478295803070068 0.50238394737243652
0.70288479328155518 0.7738984227180481 0.73924612998962402
0.78030800819396973 0.79424089193344116 0.77682548761367798
0.81615829467773438 0.82947450876235962 0.82212233543395996
0.85849487781524658 0.86017149686813354 0.86206316947937012
0.89122951030731201 0.89381587505340576 0.89434748888015747
0.90917998552322388 0.94937765598297119 0.75285118818283081
0.98929876089096069 0.98700791597366333 0.55948609113693237
0.024669228121638298 0.030362971127033234 0.68855452537536621
0.20219406485557556 0.027911975979804993 0.70428603887557983
0.38173192739486694 0.022471662610769272 0.70942240953445435
0.37571460008621216 0.09227403998374939 0.50115513801574707
0.24540607631206512 0.20257580280303955 0.2478376179933548
0.25702774524688721 0.24470201134681702 0.25448435544967651
0.30481997132301331 0.2733008861541748 0.29801037907600403
0.023250998929142952 0.19581609964370728 0.68334555625915527
0.18522536754608154 0.19603721797466278 0.68167310953140259
0.36480298638343811 0.18757127225399017 0.68944752216339111
0.46120721101760864 0.21642516553401947 0.59608501195907593
0.36178067326545715 0.31701624393463135 0.36351469159126282
0.36849814653396606 0.35953173041343689 0.36998412013053894
0.43748131394386292 0.38378047943115234 0.41142949461936951
0.026272134855389595 0.35663077235221863 0.68482941389083862
0.18986006081104279 0.35539168119430542 0.68187862634658813
0.35667839646339417 0.35294118523597717 0.68294006586074829
0.52331268787384033 0.35187014937400818 0.67520695924758911
0.46768110990524292 0.43448963761329651 0.47496914863586426
0.49302911758422852 0.47434729337692261 0.49024340510368347
0.61400330066680908 0.48055437207221985 0.53491508960723877
0.020920427516102791 0.5179743766784668 0.68215924501419067
0.18335442245006561 0.51738446950912476 0.67647427320480347
0.34675362706184387 0.51595592498779297 0.67687797546386719
0.51855951547622681 0.5096815824508667 0.68083816766738892
0.57508814334869385 0.55128628015518188 0.59006941318511963
0.64951473474502563 0.57568025588989258 0.60813820362091064
0.83325707912445068 0.5664704442024231 0.64328324794769287
0.060218527913093567 0.66605925559997559 0.65857386589050293
0.21657298505306244 0.66701430082321167 0.66438513994216919
0.37667840719223022 0.6685517430305481 0.67117005586624146
0.54373043775558472 0.6665416955947876 0.6713072657585144
0.67375212907791138 0.67329508066177368 0.67415761947631836
0.82339727878570557 0.67543983459472656 0.67817574739456177
0.97992181777954102 0.6749197244644165 0.67674124240875244
0.24795912206172943 0.76927906274795532 0.6789848804473877
0.42638769745826721 0.76123684644699097 0.69785261154174805
0.59000462293624878 0.75887703895568848 0.71653079986572266
0.72649675607681274 0.76468193531036377 0.74828290939331055
0.7937922477722168 0.78639602661132812 0.79227441549301147
0.83824092149734497 0.82735371589660645 0.71581214666366577
0.99368166923522949 0.82842278480529785 0.66443473100662231
0.50530296564102173 0.84843277931213379 0.74485641717910767
0.67199677228927612 0.84185123443603516 0.7803269624710083
0.7979082465171814 0.8493114709854126 0.8252449631690979
0.86607086658477783 0.87345832586288452 0.86487352848052979
0.90628057718276978 0.90576952695846558 0.90643078088760376
0.92561209201812744 0.94712477922439575 0.8901066780090332
0.98828917741775513 0.98642385005950928 0.71341127157211304
0.015606001019477844 0.03215128555893898 0.83899617195129395
0.18158623576164246 0.033796872943639755 0.84412592649459839
0.37448275089263916 0.025001285597681999 0.86531728506088257
0.51613950729370117 0.034591585397720337 0.82205569744110107
0.41281282901763916 0.14494568109512329 0.51892364025115967
0.30268105864524841 0.24724061787128448 0.30346554517745972
0.3031659722328186 0.29125049710273743 0.29859247803688049
0.020713133737444878 0.19499094784259796 0.84108519554138184
0.17997156083583832 0.19686354696750641 0.83732908964157104
0.34834775328636169 0.19053620100021362 0.83844196796417236
0.54710334539413452 0.17810626327991486 0.86605650186538696
0.5232200026512146 0.25906109809875488 0.63818788528442383
0.40645068883895874 0.36390066146850586 0.40842840075492859
0.41758689284324646 0.40846508741378784 0.41392692923545837
0.030383436009287834 0.35439929366111755 0.84674698114395142
0.19225159287452698 0.35219058394432068 0.84489858150482178
0.35029733180999756 0.35159999132156372 0.83904415369033813
0.52435386180877686 0.34670630097389221 0.85131514072418213
0.62913227081298828 0.37246972322463989 0.77314382791519165
0.51987802982330322 0.47863209247589111 0.52495622634887695
0.53515404462814331 0.51970589160919189 0.53168296813964844
0.029976699501276016 0.51540565490722656 0.84760648012161255
0.18625083565711975 0.51484841108322144 0.84960061311721802
0.34734600782394409 0.5135190486907959 0.83999395370483398
0.51618534326553345 0.5093998908996582 0.84413903951644897
0.66708898544311523 0.51646870374679565 0.81459563970565796
0.62295502424240112 0.59600043296813965 0.62996190786361694
0.65077751874923706 0.63568556308746338 0.64152806997299194
0.018533265218138695 0.68000000715255737 0.83830416202545166
0.17303080856800079 0.67883467674255371 0.84369403123855591
0.33737590909004211 0.67619025707244873 0.84127295017242432
0.50988292694091797 0.67373883724212646 0.83940619230270386
0.67762517929077148 0.67137974500656128 0.84538280963897705
0.73718780279159546 0.71190917491912842 0.75004655122756958
0.80642956495285034 0.73671257495880127 0.76292628049850464
0.087542273104190826 0.82150876522064209 0.81656831502914429
0.24360376596450806 0.82175499200820923 0.81980371475219727
0.40184128284454346 0.82030653953552246 0.82359921932220459
0.56124860048294067 0.81961840391159058 0.82950824499130249
0.70162087678909302 0.82787191867828369 0.83321475982666016
0.83466684818267822 0.83521151542663574 0.83526837825775146
0.98354768753051758 0.83389580249786377 0.83655768632888794
0.27060437202453613 0.92875576019287109 0.81644010543823242
0.4171048104763031 0.93036419153213501 0.82924503087997437
0.57769316434860229 0.92548537254333496 0.8610767126083374
0.74396872520446777 0.92072045803070068 0.880962073802948
0.87620168924331665 0.92754447460174561 0.91043084859848022
0.9555974006652832 0.94801920652389526 0.95450150966644287
0.99310481548309326 0.98691010475158691 0.86811500787734985
0.0097216442227363586 0.029451975598931313 0.98693609237670898
0.17603972554206848 0.03137824684381485 0.99011707305908203
0.38020268082618713 0.020989077165722847 0.99910670518875122
0.57512474060058594 0.012790829874575138 0.99997198581695557
0.5737539529800415 0.077674955129623413 0.85432720184326172
0.42756587266921997 0.20075415074825287 0.52240091562271118
0.34779593348503113 0.28128674626350403 0.37098568677902222
0.018618401139974594 0.1907210648059845 0.99164623022079468
0.18837212026119232 0.19003412127494812 0.99310934543609619
0.38391405344009399 0.17687977850437164 0.9991268515586853
0.59215050935745239 0.16013011336326599 1
0.66897153854370117 0.1998913586139679 0.94109463691711426
0.56651240587234497 0.30605539679527283 0.65248411893844604
0.4511905312538147 0.40781205892562866 0.45311564207077026
0.025619881227612495 0.35162922739982605 0.99487966299057007
0.19350959360599518 0.34994688630104065 0.99517375230789185
0.36989408731460571 0.34360849857330322 0.99651843309402466
0.56112766265869141 0.33183771371841431 0.99991273880004883
0.71132117509841919 0.33977213501930237 0.99067467451095581
0.68480217456817627 0.41839069128036499 0.79905641078948975
0.5639268159866333 0.52624285221099854 0.56709045171737671
0.021597769111394882 0.5156862735748291 0.99690943956375122
0.18349947035312653 0.51465862989425659 0.99673235416412354
0.35179945826530457 0.51151597499847412 0.99245929718017578
0.51644223928451538 0.5097200870513916 0.99148142337799072
0.68399864435195923 0.50889325141906738 0.98982805013656616
0.79163110256195068 0.53345745801925659 0.93395704030990601
0.68479907512664795 0.64008080959320068 0.69319570064544678
0.013691052794456482 0.68140405416488647 0.99650508165359497
0.16380481421947479 0.6816103458404541 0.99640512466430664
0.33220544457435608 0.67678713798522949 0.99295192956924438
0.50720483064651489 0.67206156253814697 0.99085313081741333
0.67760753631591797 0.669586181640625 0.99309182167053223
0.84252834320068359 0.66834479570388794 0.98542708158493042
0.78039789199829102 0.7580072283744812 0.78763043880462646
0.039325788617134094 0.83554524183273315 0.98723739385604858
0.17989756166934967 0.84058576822280884 0.98787504434585571
0.3239627480506897 0.84174865484237671 0.9867280125617981
0.49315056204795837 0.8371509313583374 0.98351961374282837
0.66638189554214478 0.83610588312149048 0.98972159624099731
0.84859806299209595 0.82816636562347412 0.99416267871856689
0.89047259092330933 0.87567663192749023 0.90492409467697144
0.14145022630691528 0.96690165996551514 0.97345519065856934
0.26616686582565308 0.97653079032897949 0.97664201259613037
0.39002272486686707 0.98277777433395386 0.9832533597946167
0.53076469898223877 0.98574948310852051 0.98236727714538574
0.69345057010650635 0.98553967475891113 0.98561853170394897
0.85570609569549561 0.98541152477264404 0.98903822898864746
0.99216502904891968 0.98960530757904053 0.98621886968612671
