assets/lut/alexjordan conflict 01.cube
# Created by: G'MIC (https://gmic.eu)
TITLE "conflict_01"
# LUT size
LUT_3D_SIZE 7
# Data domain
DOMAIN_MIN 0.0 0.0 0.0
DOMAIN_MAX 1.0 1.0 1.0
# LUT data points
0 0 0.029975337907671928
0.079594947397708893 0.00012893676466774195 0.02352466993033886
0.24519893527030945 0 0.020892811939120293
0.41606530547142029 0 0.022093290463089943
0.58381575345993042 0 0.022484378889203072
0.75303006172180176 0 0.022576365619897842
0.92616069316864014 0 0.019388925284147263
4.6673944780195598e-06 0.080359935760498047 0.027709318324923515
0.083327271044254303 0.080910690128803253 0.026938075199723244
0.25421512126922607 0.084011688828468323 0.027382181957364082
0.42521858215332031 0.079579323530197144 0.027659697458148003
0.59194529056549072 0.082075051963329315 0.027838433161377907
0.75957804918289185 0.083457797765731812 0.029987543821334839
0.93113702535629272 0.083457797765731812 0.029159275814890862
0.0017805211246013641 0.25442847609519958 0.027785357087850571
0.094617806375026703 0.25682324171066284 0.030851954594254494
0.25753319263458252 0.251108318567276 0.033390417695045471
0.42787894606590271 0.25031772255897522 0.031249580904841423
0.59665399789810181 0.24935545027256012 0.030981924384832382
0.76575875282287598 0.24867050349712372 0.034553647041320801
0.93744772672653198 0.24767157435417175 0.032675590366125107
0.004041619598865509 0.41766425967216492 0.029669802635908127
0.10842959582805634 0.41938284039497375 0.034994777292013168
0.26159274578094482 0.41700392961502075 0.03864147886633873
0.43081071972846985 0.41777953505516052 0.037255365401506424
0.60147082805633545 0.41864013671875 0.034884881228208542
0.7721979022026062 0.41803550720214844 0.034803923219442368
0.94485479593276978 0.41618704795837402 0.031965367496013641
0.0064501296728849411 0.58063578605651855 0.029698973521590233
0.11965152621269226 0.58231693506240845 0.036923069506883621
0.26871296763420105 0.58245682716369629 0.040548570454120636
0.43638712167739868 0.58439719676971436 0.041038304567337036
0.60772663354873657 0.58603143692016602 0.038863476365804672
0.77930885553359985 0.58510023355484009 0.036436956375837326
0.95245635509490967 0.58427822589874268 0.031779449433088303
0.010580324567854404 0.74779188632965088 0.027157353237271309
0.13186320662498474 0.74966204166412354 0.034682523459196091
0.27997285127639771 0.75077360868453979 0.040024880319833755
0.44493833184242249 0.75266546010971069 0.041744694113731384
0.61510026454925537 0.75369822978973389 0.040513865649700165
0.78654015064239502 0.75362306833267212 0.036660615354776382
0.96067714691162109 0.75305670499801636 0.030573900789022446
0.016981013119220734 0.91802430152893066 0.021262673661112785
0.14475458860397339 0.91940867900848389 0.029334677383303642
0.29229176044464111 0.92132353782653809 0.034707251936197281
0.45409804582595825 0.92270040512084961 0.037371542304754257
0.6229512095451355 0.92310571670532227 0.036515988409519196
0.79506665468215942 0.92321538925170898 0.032516852021217346
0.96921294927597046 0.92321538925170898 0.026115387678146362
0 0 0.17457006871700287
0.077127344906330109 0.00019309847266413271 0.17303583025932312
0.24571138620376587 0 0.17273128032684326
0.41640192270278931 0 0.17352941632270813
0.58419167995452881 0 0.17384332418441772
0.75303977727890015 0 0.17461320757865906
0.92586737871170044 0 0.17206251621246338
0 0.083167403936386108 0.17749227583408356
0.087397664785385132 0.084967233240604401 0.17782987654209137
0.25872185826301575 0.080563656985759735 0.17905049026012421
0.42806187272071838 0.077678292989730835 0.17833557724952698
0.59404838085174561 0.080129332840442657 0.17946262657642365
0.76130431890487671 0.083008080720901489 0.18141545355319977
0.93203490972518921 0.083703286945819855 0.18125489354133606
0 0.254486083984375 0.18139740824699402
0.09370054304599762 0.25756734609603882 0.18441405892372131
0.26389327645301819 0.25340756773948669 0.18522836267948151
0.43283215165138245 0.25193911790847778 0.18395587801933289
0.60022711753845215 0.25093171000480652 0.18387331068515778
0.76845121383666992 0.25003612041473389 0.18524535000324249
0.93900030851364136 0.24914094805717468 0.18528634309768677
0.00095896999118849635 0.41878101229667664 0.18570941686630249
0.10540521889925003 0.42147624492645264 0.19024822115898132
0.26582089066505432 0.41992565989494324 0.19230131804943085
0.43581429123878479 0.42042297124862671 0.19049930572509766
0.60568469762802124 0.42047908902168274 0.18887722492218018
0.77509379386901855 0.41989704966545105 0.1887008398771286
0.94595295190811157 0.41763794422149658 0.18752524256706238
0.0030268202535808086 0.5821414589881897 0.18868067860603333
0.11498411744832993 0.58408588171005249 0.19453629851341248
0.26857218146324158 0.58404034376144409 0.19705882668495178
0.43828418850898743 0.58474266529083252 0.19703297317028046
0.610118567943573 0.58498656749725342 0.19512893259525299
0.78074020147323608 0.58474361896514893 0.19322803616523743
0.95239794254302979 0.58418196439743042 0.19074451923370361
0.0057317097671329975 0.74877679347991943 0.18815352022647858
0.12389348447322845 0.75053912401199341 0.19610555469989777
0.27453505992889404 0.75105172395706177 0.20073410868644714
0.4417324960231781 0.75226718187332153 0.20098039507865906
0.61338740587234497 0.75206679105758667 0.2008000910282135
0.78517323732376099 0.75198090076446533 0.19750948250293732
0.95838308334350586 0.75188225507736206 0.19326964020729065
0.0099432254210114479 0.91849708557128906 0.18344403803348541
0.13384009897708893 0.91982024908065796 0.19258818030357361
0.28249004483222961 0.92118281126022339 0.19828008115291595
0.44685429334640503 0.92133599519729614 0.20070326328277588
0.61775285005569458 0.92151021957397461 0.20044590532779694
0.79060029983520508 0.92134839296340942 0.19759570062160492
0.96555805206298828 0.92151021957397461 0.1912606954574585
0.0041902130469679832 0 0.32675176858901978
0.08994147926568985 0.00018579819879960269 0.32714459300041199
0.24265851080417633 0 0.32717105746269226
0.41145926713943481 0 0.32727530598640442
0.58118093013763428 0 0.32690346240997314
0.75233602523803711 0 0.32666015625
0.92602920532226562 0 0.32463666796684265
0.0012553496053442359 0.080852434039115906 0.33183318376541138
0.089859828352928162 0.092312097549438477 0.33226472139358521
0.25285661220550537 0.086314015090465546 0.33248871564865112
0.42272129654884338 0.083266794681549072 0.33186274766921997
0.59150582551956177 0.083477720618247986 0.33182564377784729
0.76132649183273315 0.084475480020046234 0.33188727498054504
0.93322974443435669 0.084938287734985352 0.33176144957542419
0 0.24745918810367584 0.33582741022109985
0.090766355395317078 0.25397565960884094 0.33847460150718689
0.26365068554878235 0.25205555558204651 0.33913621306419373
0.43191984295845032 0.25287988781929016 0.33727294206619263
0.60077637434005737 0.25199764966964722 0.33580681681632996
0.77027249336242676 0.25137713551521301 0.33578526973724365
0.94100600481033325 0.25055146217346191 0.33578431606292725
0.0002672980772331357 0.4158623218536377 0.34081798791885376
0.10600568354129791 0.4205460250377655 0.34404468536376953
0.2700343132019043 0.42042738199234009 0.34502619504928589
0.43977177143096924 0.42034667730331421 0.3435671329498291
0.60930085182189941 0.4193558394908905 0.3417765200138092
0.77818924188613892 0.41875624656677246 0.34091833233833313
0.94802993535995483 0.41803833842277527 0.34046053886413574
0.0024527306668460369 0.58248454332351685 0.34494876861572266
0.1168627142906189 0.58543127775192261 0.3496643602848053
0.27302205562591553 0.58543556928634644 0.35137665271759033
0.44247952103614807 0.58459985256195068 0.3504803478717804
0.61357265710830688 0.58324921131134033 0.34870055317878723
0.78301060199737549 0.58370095491409302 0.34852594137191772
0.95335441827774048 0.58370095491409302 0.34729087352752686
0.0049359039403498173 0.74994981288909912 0.34661203622817993
0.12237756699323654 0.75217556953430176 0.35238802433013916
0.27399709820747375 0.75226718187332153 0.35539215803146362
0.44159945845603943 0.75130409002304077 0.35631126165390015
0.61314982175827026 0.75065380334854126 0.3556373119354248
0.7846110463142395 0.75067400932312012 0.35541164875030518
0.95733487606048584 0.75067400932312012 0.35252290964126587
0.0073150782845914364 0.91930168867111206 0.34419083595275879
0.1282944530248642 0.92086672782897949 0.35215100646018982
0.2773469090461731 0.92132353782653809 0.35679075121879578
0.44332084059715271 0.92129313945770264 0.3593137264251709
0.61501622200012207 0.92052698135375977 0.3593137264251709
0.78789031505584717 0.91994196176528931 0.35879537463188171
0.96298933029174805 0.9202883243560791 0.3538968563079834
0.021066434681415558 0 0.48016065359115601
0.11147072166204453 0 0.48075979948043823
0.24576543271541595 0 0.4808344841003418
0.40711897611618042 0 0.48062893748283386
0.57751333713531494 0 0.47985997796058655
0.75097841024398804 0 0.47886669635772705
0.9267084002494812 0 0.47682580351829529
0.0087963324040174484 0.080100417137145996 0.48520758748054504
0.10078054666519165 0.094081327319145203 0.48588401079177856
0.24680995941162109 0.094981715083122253 0.48620855808258057
0.41464689373970032 0.092329211533069611 0.486104816198349
0.5867849588394165 0.090604685246944427 0.48536473512649536
0.75981122255325317 0.088792569935321808 0.48494449257850647
0.93384468555450439 0.087145470082759857 0.48309266567230225
0.00054231530521064997 0.24303659796714783 0.49002763628959656
0.096088826656341553 0.25273594260215759 0.49041596055030823
0.25558596849441528 0.25383830070495605 0.49089312553405762
0.42682260274887085 0.25436687469482422 0.49027818441390991
0.59873789548873901 0.25427120923995972 0.49019607901573181
0.7704538106918335 0.25313535332679749 0.49019607901573181
0.94232159852981567 0.25126314163208008 0.48935180902481079
0.0016170726157724857 0.41381305456161499 0.49460354447364807
0.11055652052164078 0.41931807994842529 0.49691849946975708
0.26981011033058167 0.42039507627487183 0.49716442823410034
0.44072410464286804 0.42000612616539001 0.49611946940422058
0.61032849550247192 0.42004060745239258 0.49598568677902222
0.77930831909179688 0.41987964510917664 0.49607843160629272
0.94941991567611694 0.41839700937271118 0.49479642510414124
0.0047530527226626873 0.58309924602508545 0.49937418103218079
0.12293731421232224 0.58648025989532471 0.50216257572174072
0.27823728322982788 0.58641296625137329 0.50300246477127075
0.44654795527458191 0.58514285087585449 0.50264149904251099
0.61518377065658569 0.58462631702423096 0.50264710187911987
0.78367471694946289 0.5848962664604187 0.502937912940979
0.9537513256072998 0.58470332622528076 0.50178343057632446
0.0065668742172420025 0.7514910101890564 0.50196081399917603
0.12776148319244385 0.7537418007850647 0.50620919466018677
0.2787630558013916 0.7536882758140564 0.50937169790267944
0.4447004497051239 0.75242334604263306 0.50974053144454956
0.61453044414520264 0.75156670808792114 0.50987684726715088
0.78450232744216919 0.75137954950332642 0.50988930463790894
0.95667517185211182 0.75147056579589844 0.50832390785217285
0.0089413663372397423 0.92110997438430786 0.50123381614685059
0.13215932250022888 0.92244023084640503 0.50792640447616577
0.28064894676208496 0.92237931489944458 0.51198601722717285
0.44493755698204041 0.92157512903213501 0.51372551918029785
0.61510175466537476 0.92109715938568115 0.51372551918029785
0.78729248046875 0.92060941457748413 0.51372551918029785
0.96157330274581909 0.92059016227722168 0.51118022203445435
0.027566438540816307 0 0.63499963283538818
0.12249214202165604 0 0.63438820838928223
0.2500784695148468 0 0.63391566276550293
0.40594884753227234 0 0.63364845514297485
0.57566159963607788 0 0.6331859827041626
0.75068783760070801 0 0.63269942998886108
0.92822915315628052 0 0.62966269254684448
0.011278458870947361 0.084481306374073029 0.63908940553665161
0.10511935502290726 0.095126628875732422 0.63764375448226929
0.24202905595302582 0.099043510854244232 0.63769090175628662
0.40746167302131653 0.098941817879676819 0.63851159811019897
0.58175969123840332 0.096329420804977417 0.63897061347961426
0.75782507658004761 0.093720316886901855 0.63827145099639893
0.93439489603042603 0.090015113353729248 0.63650202751159668
0.0021754247136414051 0.24520124495029449 0.64315313100814819
0.097588017582893372 0.25395634770393372 0.6422736644744873
0.24648120999336243 0.25722265243530273 0.64252555370330811
0.4179326593875885 0.25786906480789185 0.64358776807785034
0.59362220764160156 0.2580295205116272 0.64450788497924805
0.76868408918380737 0.25688222050666809 0.6445503830909729
0.94262349605560303 0.25371241569519043 0.64260876178741455
0.004267718642950058 0.41554126143455505 0.6484912633895874
0.11240612715482712 0.42083930969238281 0.64841783046722412
0.26435986161231995 0.42180320620536804 0.64830726385116577
0.43509998917579651 0.42196285724639893 0.64849543571472168
0.60658609867095947 0.42288854718208313 0.64942532777786255
0.7783011794090271 0.42297276854515076 0.65047347545623779
0.94959127902984619 0.42053145170211792 0.6485893726348877
0.0084101362153887749 0.58526444435119629 0.65251976251602173
0.12796203792095184 0.58840197324752808 0.65424132347106934
0.2790868878364563 0.58833193778991699 0.6543390154838562
0.44532081484794617 0.58784943819046021 0.65454763174057007
0.61321794986724854 0.58795815706253052 0.65586656332015991
0.7822730541229248 0.58800625801086426 0.65621745586395264
0.95334428548812866 0.58702313899993896 0.65400004386901855
0.010610722936689854 0.753662109375 0.65633952617645264
0.13528822362422943 0.75599753856658936 0.65946954488754272
0.28449922800064087 0.75580364465713501 0.66028296947479248
0.44656115770339966 0.75465375185012817 0.66100597381591797
0.61472535133361816 0.7541852593421936 0.66205960512161255
0.7839084267616272 0.75429397821426392 0.66138845682144165
0.95641446113586426 0.7540513277053833 0.65920561552047729
0.013410141691565514 0.92294955253601074 0.65603882074356079
0.14134702086448669 0.92437440156936646 0.66042125225067139
0.2889898419380188 0.92429649829864502 0.66421568393707275
0.44969207048416138 0.92350995540618896 0.66603958606719971
0.6175607442855835 0.92264765501022339 0.66789370775222778
0.78806537389755249 0.9225279688835144 0.66609525680541992
0.96230059862136841 0.92270123958587646 0.66211295127868652
0.030913917347788811 0 0.78958332538604736
0.128278449177742 0 0.78852576017379761
0.25482609868049622 0 0.7872549295425415
0.40846055746078491 0 0.7872549295425415
0.5772470235824585 0 0.7872549295425415
0.75291228294372559 0 0.7862321138381958
0.93187260627746582 0 0.78287976980209351
0.011037459596991539 0.086652837693691254 0.79367077350616455
0.10245389491319656 0.096078343689441681 0.79117649793624878
0.23946358263492584 0.10088104754686356 0.79117649793624878
0.40393245220184326 0.10276668518781662 0.79139339923858643
0.57879376411437988 0.099179528653621674 0.79234600067138672
0.75700527429580688 0.096457883715629578 0.79152703285217285
0.93573033809661865 0.092187501490116119 0.78960055112838745
0.00091929716290906072 0.24857373535633087 0.79552721977233887
0.088598839938640594 0.25623655319213867 0.79509216547012329
0.23784925043582916 0.25969764590263367 0.79509806632995605
0.40960165858268738 0.26078224182128906 0.79581749439239502
0.58734452724456787 0.26070168614387512 0.79784351587295532
0.76529240608215332 0.25919413566589355 0.79786807298660278
0.9422990083694458 0.25555282831192017 0.79533445835113525
0.0037865582853555679 0.41757148504257202 0.80121141672134399
0.10786653310060501 0.42243841290473938 0.80016106367111206
0.25549492239952087 0.42443281412124634 0.79975944757461548
0.42443850636482239 0.42494416236877441 0.80114799737930298
0.59904074668884277 0.42542406916618347 0.80290120840072632
0.77417421340942383 0.42471247911453247 0.80298477411270142
0.94893485307693481 0.42165982723236084 0.80121916532516479
0.0097483918070793152 0.58678025007247925 0.80628424882888794
0.12828510999679565 0.59024453163146973 0.80652189254760742
0.2746238112449646 0.59090119600296021 0.80610066652297974
0.43809828162193298 0.59057760238647461 0.80671447515487671
0.60803306102752686 0.59049201011657715 0.80757361650466919
0.77985239028930664 0.59015995264053345 0.8076169490814209
0.95346713066101074 0.58832591772079468 0.8062630295753479
0.014098837040364742 0.75513952970504761 0.80812132358551025
0.14055874943733215 0.75765812397003174 0.8107837438583374
0.28661280870437622 0.75800168514251709 0.81095319986343384
0.44671747088432312 0.75749140977859497 0.81198233366012573
0.61449402570724487 0.75628757476806641 0.81411457061767578
0.78451979160308838 0.75618875026702881 0.81294804811477661
0.95787078142166138 0.75616347789764404 0.80964267253875732
0.019541677087545395 0.92456692457199097 0.80917191505432129
0.15048222243785858 0.92620992660522461 0.8135296106338501
0.29667329788208008 0.92633706331253052 0.81483310461044312
0.45535403490066528 0.92543292045593262 0.81786507368087769
0.6221427321434021 0.92401915788650513 0.81862747669219971
0.79221445322036743 0.92395496368408203 0.81801146268844604
0.96583634614944458 0.92444854974746704 0.81229454278945923
0.031198045238852501 0 0.94350719451904297
0.13595746457576752 0 0.94317519664764404
0.26483601331710815 0 0.94232869148254395
0.41714143753051758 0 0.94172501564025879
0.58424985408782959 0 0.94166666269302368
0.75941604375839233 0 0.93983429670333862
0.9390263557434082 0 0.9360663890838623
0.010812647640705109 0.089191854000091553 0.9470984935760498
0.11067959666252136 0.096130266785621643 0.94558823108673096
0.24716588854789734 0.09989350289106369 0.94558823108673096
0.4084840714931488 0.10238146036863327 0.94582259654998779
0.58173143863677979 0.099561579525470734 0.94617766141891479
0.75970035791397095 0.096953868865966797 0.9455641508102417
0.94008153676986694 0.092598810791969299 0.94226914644241333
0.002103214617818594 0.2507055401802063 0.94953000545501709
0.097742430865764618 0.25711479783058167 0.94950979948043823
0.242630735039711 0.26047399640083313 0.94950979948043823
0.40988776087760925 0.26176470518112183 0.9497750997543335
0.58600437641143799 0.26137959957122803 0.95086658000946045
0.76497077941894531 0.25915095210075378 0.95007407665252686
0.94468057155609131 0.25559833645820618 0.9481927752494812
0.0042433794587850571 0.41775780916213989 0.95379900932312012
0.11096305400133133 0.42253386974334717 0.95353156328201294
0.25583282113075256 0.4252457320690155 0.95343136787414551
0.42129907011985779 0.42549020051956177 0.95426046848297119
0.59556847810745239 0.42549020051956177 0.95618796348571777
0.77251648902893066 0.42423948645591736 0.95585346221923828
0.95060616731643677 0.4213387668132782 0.95344072580337524
0.010704429820179939 0.58657705783843994 0.95769935846328735
0.13042876124382019 0.59015154838562012 0.9586147665977478
0.27468377351760864 0.59154409170150757 0.95827579498291016
0.43561083078384399 0.59154409170150757 0.95915460586547852
0.60613387823104858 0.59126681089401245 0.96119672060012817
0.78027349710464478 0.59009593725204468 0.96122473478317261
0.95669686794281006 0.58810198307037354 0.95789498090744019
0.018383385613560677 0.75554150342941284 0.96127450466156006
0.14619837701320648 0.75816482305526733 0.96235752105712891
0.29070356488227844 0.75851714611053467 0.96297776699066162
0.44891878962516785 0.75851714611053467 0.96388489007949829
0.6170775294303894 0.75752800703048706 0.96616184711456299
0.78912949562072754 0.75618875026702881 0.96594548225402832
0.96410965919494629 0.75605732202529907 0.96195465326309204
0.027454584836959839 0.92539447546005249 0.96127450466156006
0.16013534367084503 0.92725419998168945 0.96519607305526733
0.30543646216392517 0.92757350206375122 0.96682155132293701
0.46273881196975708 0.92689281702041626 0.9690592885017395
0.62959945201873779 0.92477810382843018 0.97189384698867798
0.80058038234710693 0.92436951398849487 0.97047519683837891
0.97297996282577515 0.92444854974746704 0.96516573429107666
