assets/lut/alexjordan blue shadows 01.cube
# Created by: G'MIC (https://gmic.eu)
TITLE "blue_shadows_01"
# LUT size
LUT_3D_SIZE 13
# Data domain
DOMAIN_MIN 0.0 0.0 0.0
DOMAIN_MAX 1.0 1.0 1.0
# LUT data points
0.0037184921093285084 0.015538608655333519 0.087323971092700958
0.013888969086110592 0.041136886924505234 0.12457601726055145
0.040824860334396362 0.080187283456325531 0.16307650506496429
0.11254200339317322 0.12167982012033463 0.1949748694896698
0.23698461055755615 0.13352259993553162 0.19994373619556427
0.41823390126228333 0.12324194610118866 0.19431844353675842
0.60503202676773071 0.10786547511816025 0.17897786200046539
0.78559297323226929 0.096981897950172424 0.16946889460086823
0.89525669813156128 0.10511300712823868 0.16975052654743195
0.96321016550064087 0.10594379156827927 0.17436084151268005
0.99100875854492188 0.11285044252872467 0.17648255825042725
0.99978744983673096 0.12379874289035797 0.18570974469184875
1 0.12894561886787415 0.19725292921066284
0.078343950212001801 0.13252964615821838 0.20774289965629578
0.1135394349694252 0.16671870648860931 0.22110684216022491
0.18171080946922302 0.19467326998710632 0.21149414777755737
0.29217296838760376 0.20779551565647125 0.18081235885620117
0.41910466551780701 0.20859092473983765 0.14716476202011108
0.5466809868812561 0.20677381753921509 0.12106254696846008
0.65973091125488281 0.20588439702987671 0.11236882209777832
0.75628125667572021 0.2097838968038559 0.11360741406679153
0.8303295373916626 0.21544799208641052 0.12151247262954712
0.89785915613174438 0.22212494909763336 0.12694345414638519
0.96001100540161133 0.22707082331180573 0.13435009121894836
0.9918941855430603 0.23229840397834778 0.14076718688011169
0.99992263317108154 0.23901014029979706 0.14688517153263092
0.13753931224346161 0.2551981508731842 0.24704429507255554
0.17909945547580719 0.2871558666229248 0.19732415676116943
0.26968777179718018 0.30282649397850037 0.14334850013256073
0.38307586312294006 0.30946382880210876 0.11021068692207336
0.48188111186027527 0.30648180842399597 0.095527023077011108
0.57160824537277222 0.30994072556495667 0.091231323778629303
0.65185546875 0.31282678246498108 0.09310806542634964
0.73366540670394897 0.31607696413993835 0.098836369812488556
0.80325382947921753 0.32429152727127075 0.10682289302349091
0.87421828508377075 0.32604777812957764 0.10899704694747925
0.94296818971633911 0.32554137706756592 0.11081554740667343
0.98830616474151611 0.32837212085723877 0.10992627590894699
0.99943041801452637 0.33228328824043274 0.1213366761803627
0.07850976288318634 0.40437290072441101 0.18533949553966522
0.1736474484205246 0.41153138875961304 0.12595762312412262
0.29089841246604919 0.41184628009796143 0.09543735533952713
0.40103420615196228 0.40972450375556946 0.091016747057437897
0.48952522873878479 0.40834328532218933 0.087846197187900543
0.57270592451095581 0.41006216406822205 0.08962605893611908
0.65020519495010376 0.41105043888092041 0.093884319067001343
0.7281002402305603 0.41349467635154724 0.10035055130720139
0.7988244891166687 0.41627699136734009 0.10264614224433899
0.86456835269927979 0.41893443465232849 0.10447097569704056
0.93127924203872681 0.41904380917549133 0.10616973042488098
0.985889732837677 0.42093685269355774 0.10581456869840622
0.99902898073196411 0.42050263285636902 0.11208579689264297
0.040260329842567444 0.52121144533157349 0.14217187464237213
0.17097479104995728 0.50422209501266479 0.11498180031776428
0.2972777783870697 0.49625572562217712 0.096815519034862518
0.40551108121871948 0.49222472310066223 0.093088187277317047
0.49384030699729919 0.49047401547431946 0.091985516250133514
0.57490003108978271 0.49030578136444092 0.097604505717754364
0.65051990747451782 0.49142518639564514 0.10157443583011627
0.72328782081604004 0.49104022979736328 0.10094508528709412
0.79509192705154419 0.49263167381286621 0.10752566158771515
0.86033862829208374 0.4943300187587738 0.10511459410190582
0.92438483238220215 0.49560743570327759 0.10827253758907318
0.97708141803741455 0.49813884496688843 0.10749917477369308
0.99923944473266602 0.49984586238861084 0.10813421756029129
0.052254844456911087 0.60752952098846436 0.13558249175548553
0.17759349942207336 0.58319926261901855 0.11733724921941757
0.29927152395248413 0.57313114404678345 0.10369463264942169
0.40892684459686279 0.56902873516082764 0.099366776645183563
0.49758768081665039 0.56566500663757324 0.097784377634525299
0.57992005348205566 0.56546586751937866 0.09818287193775177
0.65485864877700806 0.56443095207214355 0.09956137090921402
0.7286754846572876 0.5634838342666626 0.096939057111740112
0.7956811785697937 0.56422203779220581 0.10590733587741852
0.86029970645904541 0.5638420581817627 0.10942698270082474
0.91870361566543579 0.56651520729064941 0.11546918004751205
0.97500914335250854 0.56739902496337891 0.10697641968727112
0.99958783388137817 0.56897896528244019 0.1040104553103447
0.059497173875570297 0.68119782209396362 0.13765725493431091
0.18552327156066895 0.65637558698654175 0.12113770097494125
0.30516687035560608 0.64547187089920044 0.10805276781320572
0.4139673113822937 0.64119517803192139 0.10213702172040939
0.50347447395324707 0.63661772012710571 0.098464220762252808
0.58495014905929565 0.634926438331604 0.096719495952129364
0.65819758176803589 0.63235467672348022 0.094771005213260651
0.73203128576278687 0.63048231601715088 0.097140595316886902
0.79840505123138428 0.63049882650375366 0.11199259757995605
0.86224758625030518 0.63051992654800415 0.11440794914960861
0.92105180025100708 0.63259279727935791 0.1223568469285965
0.97991234064102173 0.63312625885009766 0.10986877232789993
0.99882388114929199 0.63343155384063721 0.099746063351631165
0.063548415899276733 0.75617349147796631 0.14406393468379974
0.19775989651679993 0.72890502214431763 0.1217794343829155
0.31924808025360107 0.71985316276550293 0.11055516451597214
0.42018613219261169 0.71186679601669312 0.11333689838647842
0.50826406478881836 0.70656061172485352 0.10910451412200928
0.58891201019287109 0.70465350151062012 0.1034737229347229
0.66053926944732666 0.70213735103607178 0.10571308434009552
0.73142808675765991 0.69851499795913696 0.10428109019994736
0.80015212297439575 0.69534361362457275 0.11879492551088333
0.8621252179145813 0.69679981470108032 0.12725631892681122
0.92442363500595093 0.69877773523330688 0.12339208275079727
0.977824866771698 0.69956099987030029 0.11842849105596542
0.99710571765899658 0.69782084226608276 0.11432831734418869
0.088049627840518951 0.81863969564437866 0.15399675071239471
0.20784524083137512 0.798545241355896 0.12436459213495255
0.32160332798957825 0.78625303506851196 0.1132766455411911
0.422270268201828 0.77689594030380249 0.112837053835392
0.51217836141586304 0.77312761545181274 0.10421836376190186
0.59186536073684692 0.77065306901931763 0.097051464021205902
0.66525107622146606 0.76669245958328247 0.1029779314994812
0.73626494407653809 0.76605576276779175 0.099003933370113373
0.80730640888214111 0.76316577196121216 0.1104271411895752
0.86867439746856689 0.76201331615447998 0.11927753686904907
0.93031668663024902 0.76307040452957153 0.11484395712614059
0.98180031776428223 0.76281660795211792 0.12360479682683945
0.99624043703079224 0.76034694910049438 0.14275556802749634
0.12007224559783936 0.87241965532302856 0.16725963354110718
0.21607990562915802 0.85914105176925659 0.13227416574954987
0.32832947373390198 0.8481442928314209 0.11845365166664124
0.43037104606628418 0.84045910835266113 0.10890586674213409
0.51875108480453491 0.83427131175994873 0.10331090539693832
0.59613692760467529 0.82913315296173096 0.10264274477958679
0.67005658149719238 0.82653665542602539 0.10312431305646896
0.74361473321914673 0.82447922229766846 0.10667537897825241
0.81151342391967773 0.82098740339279175 0.11762306094169617
0.87145626544952393 0.81903755664825439 0.12948359549045563
0.92899411916732788 0.81865257024765015 0.13793863356113434
0.98123359680175781 0.82000488042831421 0.1409059464931488
0.99825072288513184 0.81912589073181152 0.14648467302322388
0.096107035875320435 0.9397854208946228 0.16744500398635864
0.21724782884120941 0.92146760225296021 0.13397514820098877
0.33326146006584167 0.90766900777816772 0.12167732417583466
0.43392312526702881 0.89849460124969482 0.1151374951004982
0.52379113435745239 0.89383101463317871 0.11008740961551666
0.60170471668243408 0.88908803462982178 0.10762559622526169
0.67615926265716553 0.88584768772125244 0.1047041043639183
0.75122439861297607 0.8832695484161377 0.10534822195768356
0.81655728816986084 0.88068801164627075 0.11135447025299072
0.87910521030426025 0.87910228967666626 0.11618276685476303
0.93803828954696655 0.87768679857254028 0.12262380123138428
0.98367351293563843 0.87634581327438354 0.13244420289993286
0.99830925464630127 0.87678682804107666 0.13053575158119202
0.098742015659809113 0.98820632696151733 0.16911695897579193
0.22240559756755829 0.97450762987136841 0.14071124792098999
0.33482947945594788 0.96731925010681152 0.12449925392866135
0.43462860584259033 0.95601236820220947 0.1230817437171936
0.52776080369949341 0.95070260763168335 0.11397028714418411
0.60882079601287842 0.94451791048049927 0.11009059101343155
0.68065375089645386 0.94309854507446289 0.10452662408351898
0.75418496131896973 0.94102984666824341 0.10502519458532333
0.82257425785064697 0.93852734565734863 0.10873354971408844
0.88482171297073364 0.93606197834014893 0.11667196452617645
0.94349277019500732 0.93271201848983765 0.13058178126811981
0.98940736055374146 0.93106448650360107 0.14279751479625702
0.99919235706329346 0.93158537149429321 0.1459205150604248
0.14878366887569427 0.99882906675338745 0.17210292816162109
0.23162302374839783 0.99850475788116455 0.14683519303798676
0.34051975607872009 0.99744498729705811 0.12728507816791534
0.43994134664535522 0.99390530586242676 0.12522575259208679
0.53380370140075684 0.99257522821426392 0.11709059029817581
0.6148865818977356 0.98607152700424194 0.13389475643634796
0.6870008111000061 0.98028171062469482 0.16029077768325806
0.76259106397628784 0.98672419786453247 0.14078804850578308
0.82844758033752441 0.98739445209503174 0.14117741584777832
0.88852572441101074 0.98563587665557861 0.15317609906196594
0.94585335254669189 0.98146224021911621 0.17389462888240814
0.98919379711151123 0.97726774215698242 0.17858143150806427
0.9988284707069397 0.98205322027206421 0.17265833914279938
0.0064366511069238186 0.023129032924771309 0.1011364534497261
0.020459927618503571 0.053539469838142395 0.13885194063186646
0.06025632843375206 0.094578206539154053 0.18104852735996246
0.15148693323135376 0.12596732378005981 0.22465959191322327
0.29693940281867981 0.12726828455924988 0.25704267621040344
0.47926393151283264 0.11116277426481247 0.2821902334690094
0.65382093191146851 0.09426300972700119 0.29581150412559509
0.79649966955184937 0.089933089911937714 0.30749264359474182
0.89591008424758911 0.096279546618461609 0.31358236074447632
0.95968323945999146 0.10518044978380203 0.31842860579490662
0.98924416303634644 0.11344978213310242 0.31969216465950012
0.99872279167175293 0.12146537750959396 0.32803207635879517
1 0.12921342253684998 0.33628803491592407
0.088591814041137695 0.14620615541934967 0.22011899948120117
0.12497115880250931 0.17806713283061981 0.24150261282920837
0.20090682804584503 0.19934967160224915 0.25435259938240051
0.31787800788879395 0.20594732463359833 0.25559493899345398
0.4427398145198822 0.20246712863445282 0.2526334822177887
0.56314235925674438 0.20222616195678711 0.25083976984024048
0.66482043266296387 0.200465127825737 0.25191697478294373
0.74815082550048828 0.20587188005447388 0.25732886791229248
0.81719017028808594 0.21380807459354401 0.26396214962005615
0.87902116775512695 0.22150143980979919 0.27076482772827148
0.93771564960479736 0.22748197615146637 0.28085967898368835
0.97916245460510254 0.23767554759979248 0.28675556182861328
0.99844372272491455 0.24334998428821564 0.29510170221328735
0.12571842968463898 0.2698725163936615 0.28258642554283142
0.17506542801856995 0.29274794459342957 0.26625096797943115
0.27297979593276978 0.30226409435272217 0.24772918224334717
0.384490966796875 0.30254641175270081 0.23842738568782806
0.48235362768173218 0.30177268385887146 0.23507054150104523
0.56791812181472778 0.31139546632766724 0.2354421466588974
0.64808768033981323 0.30749222636222839 0.23852674663066864
0.72179234027862549 0.31309008598327637 0.24408444762229919
0.79018890857696533 0.32105845212936401 0.24878659844398499
0.85133826732635498 0.32523360848426819 0.2552066445350647
0.91930884122848511 0.32517120242118835 0.25562193989753723
0.97177433967590332 0.33020839095115662 0.26304519176483154
0.9953007698059082 0.34113186597824097 0.27687537670135498
0.057509612292051315 0.41183245182037354 0.28353115916252136
0.16859559714794159 0.41094252467155457 0.2517034113407135
0.28283649682998657 0.40745934844017029 0.23882240056991577
0.39471551775932312 0.40580067038536072 0.23239913582801819
0.486339271068573 0.40292352437973022 0.22738417983055115
0.56811255216598511 0.40543347597122192 0.22907020151615143
0.6445128321647644 0.40473541617393494 0.23265872895717621
0.72025972604751587 0.40801933407783508 0.23826023936271667
0.78843802213668823 0.41192445158958435 0.24215070903301239
0.85195106267929077 0.41340947151184082 0.24795596301555634
0.91504490375518799 0.41418230533599854 0.25054937601089478
0.97335255146026611 0.41525328159332275 0.25393280386924744
0.99618977308273315 0.42342978715896606 0.26292127370834351
0.036608528345823288 0.51466959714889526 0.27884957194328308
0.17390388250350952 0.49748098850250244 0.25758534669876099
0.29210838675498962 0.4929032027721405 0.23960314691066742
0.39908871054649353 0.4883275032043457 0.23297737538814545
0.48890441656112671 0.48672667145729065 0.23171508312225342
0.56878656148910522 0.48497274518013 0.23137664794921875
0.64374363422393799 0.48566603660583496 0.23132885992527008
0.71416175365447998 0.48559710383415222 0.23737680912017822
0.78423547744750977 0.4888836145401001 0.24222290515899658
0.84620809555053711 0.48965317010879517 0.24777762591838837
0.90997201204299927 0.49108260869979858 0.25130197405815125
0.97224920988082886 0.49236145615577698 0.24936492741107941
0.99837565422058105 0.49823912978172302 0.25482729077339172
0.056364964693784714 0.60056328773498535 0.27461275458335876
0.18167877197265625 0.57673472166061401 0.25922948122024536
0.29609733819961548 0.56852078437805176 0.24456284940242767
0.40068113803863525 0.56480228900909424 0.23786009848117828
0.49187791347503662 0.56118488311767578 0.23646105825901031
0.57257312536239624 0.56170547008514404 0.23335699737071991
0.64499193429946899 0.5589221715927124 0.23354704678058624
0.71836620569229126 0.55943840742111206 0.23442797362804413
0.78559261560440063 0.55949860811233521 0.2420550137758255
0.84701550006866455 0.56051725149154663 0.24921232461929321
0.91031748056411743 0.56179344654083252 0.24961580336093903
0.97132843732833862 0.56270056962966919 0.24380092322826385
0.99863630533218384 0.56525182723999023 0.24311567842960358
0.066762708127498627 0.67280393838882446 0.27876836061477661
0.19095668196678162 0.64846843481063843 0.26274535059928894
0.30116626620292664 0.63875186443328857 0.24917818605899811
0.40515974164009094 0.63658684492111206 0.2394554615020752
0.49943527579307556 0.63337355852127075 0.23344440758228302
0.57999807596206665 0.63210570812225342 0.23090910911560059
0.65299803018569946 0.62914764881134033 0.23463127017021179
0.72537541389465332 0.62629026174545288 0.23969809710979462
0.79043608903884888 0.62569069862365723 0.24667948484420776
0.84941715002059937 0.62676125764846802 0.25307735800743103
0.9089275598526001 0.62699949741363525 0.25645178556442261
0.97044438123703003 0.62823581695556641 0.2511545717716217
0.99798893928527832 0.62851172685623169 0.24581661820411682
0.06493484228849411 0.74705964326858521 0.2832183837890625
0.19866323471069336 0.72004240751266479 0.26071450114250183
0.31197723746299744 0.7064892053604126 0.25047770142555237
0.41254785656929016 0.70456856489181519 0.24107037484645844
0.50351858139038086 0.70270967483520508 0.23543132841587067
0.58395028114318848 0.69926172494888306 0.23270925879478455
0.65620714426040649 0.69717216491699219 0.24261027574539185
0.72860419750213623 0.69468218088150024 0.24694359302520752
0.79291296005249023 0.69356775283813477 0.25909176468849182
0.85153794288635254 0.69409477710723877 0.26750597357749939
0.91059249639511108 0.69434010982513428 0.26532915234565735
0.97051870822906494 0.69580072164535522 0.25670957565307617
0.99632489681243896 0.69556635618209839 0.24789129197597504
0.07234375923871994 0.81602615118026733 0.28582549095153809
0.20715513825416565 0.78893667459487915 0.26043665409088135
0.32557636499404907 0.77564412355422974 0.24999262392520905
0.42383697628974915 0.76964700222015381 0.24255393445491791
0.50900489091873169 0.76573675870895386 0.23234669864177704
0.5885358452796936 0.76182609796524048 0.22727397084236145
0.65993803739547729 0.75904828310012817 0.23926536738872528
0.73042589426040649 0.7580835223197937 0.24246381223201752
0.79811173677444458 0.75532364845275879 0.25287964940071106
0.85848307609558105 0.75491273403167725 0.26008999347686768
0.91728228330612183 0.75571936368942261 0.25555899739265442
0.9719245433807373 0.75674730539321899 0.26161995530128479
0.99678027629852295 0.75682979822158813 0.257100909948349
0.079196587204933167 0.8761020302772522 0.2949797511100769
0.21517521142959595 0.85233497619628906 0.26811680197715759
0.3334183394908905 0.84128117561340332 0.25635233521461487
0.43042770028114319 0.83300065994262695 0.24472653865814209
0.51464426517486572 0.82659304141998291 0.23451508581638336
0.59305375814437866 0.82096213102340698 0.2366129606962204
0.66534703969955444 0.81796479225158691 0.23979905247688293
0.73667585849761963 0.81586623191833496 0.24630697071552277
0.8053361177444458 0.81280052661895752 0.25783079862594604
0.86485838890075684 0.81168836355209351 0.26958310604095459
0.91997206211090088 0.81075358390808105 0.27638301253318787
0.97396433353424072 0.81306010484695435 0.27667343616485596
0.99833106994628906 0.81471538543701172 0.25420483946800232
0.07461286336183548 0.93741834163665771 0.3019004762172699
0.21082650125026703 0.91326844692230225 0.27320650219917297
0.33174997568130493 0.90106713771820068 0.25715309381484985
0.43051967024803162 0.89358794689178467 0.24680395424365997
0.51899492740631104 0.88700062036514282 0.24025143682956696
0.5976111888885498 0.88047796487808228 0.24514365196228027
0.67236924171447754 0.87662076950073242 0.2460663765668869
0.74668687582015991 0.87277162075042725 0.25593608617782593
0.812386155128479 0.87130469083786011 0.26411581039428711
0.87157005071640015 0.86998701095581055 0.27102363109588623
0.92828148603439331 0.86981672048568726 0.27520784735679626
0.97927099466323853 0.86977875232696533 0.28312587738037109
0.99848014116287231 0.86813646554946899 0.27988916635513306
0.081370197236537933 0.98524725437164307 0.31071102619171143
0.2118573933839798 0.96965056657791138 0.28006786108016968
0.33151459693908691 0.96021080017089844 0.26235306262969971
0.43199798464775085 0.94980239868164062 0.25010016560554504
0.52230066061019897 0.94531112909317017 0.24261598289012909
0.60426861047744751 0.9396672248840332 0.24189607799053192
0.67929846048355103 0.93743044137954712 0.23703540861606598
0.75098127126693726 0.93437832593917847 0.24337860941886902
0.81726700067520142 0.93210822343826294 0.24862301349639893
0.87732964754104614 0.92872285842895508 0.2505379319190979
0.93493509292602539 0.92640501260757446 0.26159015297889709
0.98514717817306519 0.92436873912811279 0.27581432461738586
0.99763709306716919 0.92523020505905151 0.28225511312484741
0.10936352610588074 0.99708098173141479 0.32041901350021362
0.22183331847190857 0.9942813515663147 0.28719255328178406
0.33573237061500549 0.99414139986038208 0.2644350528717041
0.43802613019943237 0.99109280109405518 0.25286403298377991
0.52966725826263428 0.99067050218582153 0.25129836797714233
0.61161738634109497 0.98826438188552856 0.25579109787940979
0.68508541584014893 0.98836702108383179 0.26144367456436157
0.75677400827407837 0.98549574613571167 0.26819786429405212
0.82385975122451782 0.98266828060150146 0.27525699138641357
0.87918049097061157 0.97609221935272217 0.27982178330421448
0.93808424472808838 0.97406327724456787 0.30054256319999695
0.98320388793945312 0.97422939538955688 0.30977338552474976
0.99825149774551392 0.97832244634628296 0.3042658269405365
0.011292999610304832 0.032773111015558243 0.11517427861690521
0.031040625646710396 0.071053311228752136 0.1572122722864151
0.081382721662521362 0.11065483838319778 0.20660258829593658
0.19306014478206635 0.13000328838825226 0.26702368259429932
0.35547554492950439 0.11948888748884201 0.32444551587104797
0.52819269895553589 0.10057993978261948 0.36580225825309753
0.68956947326660156 0.087114103138446808 0.39406624436378479
0.80474567413330078 0.088070377707481384 0.40845587849617004
0.88353055715560913 0.10046809911727905 0.41524410247802734
0.95271474123001099 0.11351192742586136 0.41639259457588196
0.98621261119842529 0.1185758113861084 0.41716653108596802
0.99851310253143311 0.12901249527931213 0.42290276288986206
0.99985009431838989 0.13857689499855042 0.43462333083152771
0.09873199462890625 0.16213478147983551 0.23798801004886627
0.13609457015991211 0.18943502008914948 0.27079275250434875
0.21993079781532288 0.20409610867500305 0.30420267581939697
0.34089422225952148 0.20437376201152802 0.32813328504562378
0.46236309409141541 0.19974750280380249 0.34576699137687683
0.57385659217834473 0.19856619834899902 0.35611465573310852
0.66451752185821533 0.20011429488658905 0.35487407445907593
0.74284309148788452 0.20651914179325104 0.35984480381011963
0.80938601493835449 0.2164941132068634 0.36810833215713501
0.87212610244750977 0.22421310842037201 0.37026023864746094
0.92861425876617432 0.23065261542797089 0.37637624144554138
0.97363466024398804 0.24103863537311554 0.3824177086353302
0.99674177169799805 0.24964973330497742 0.39328432083129883
0.11620233207941055 0.28342908620834351 0.32481113076210022
0.17489445209503174 0.29833751916885376 0.33295491337776184
0.27690640091896057 0.29805445671081543 0.33644235134124756
0.38882142305374146 0.29780915379524231 0.33406573534011841
0.48580619692802429 0.30245766043663025 0.3367268443107605
0.56835037469863892 0.30866461992263794 0.33987671136856079
0.64642429351806641 0.30469602346420288 0.34398767352104187
0.71752005815505981 0.31068500876426697 0.34244078397750854
0.78628242015838623 0.31625765562057495 0.34715136885643005
0.85312920808792114 0.31881025433540344 0.35575965046882629
0.92059469223022461 0.32163330912590027 0.36051926016807556
0.97322595119476318 0.32882481813430786 0.36501753330230713
0.99320822954177856 0.34415167570114136 0.37386101484298706
0.050770118832588196 0.41915291547775269 0.36783120036125183
0.16990506649017334 0.41117328405380249 0.35328003764152527
0.28981533646583557 0.40285933017730713 0.34380903840065002
0.39606508612632751 0.40022203326225281 0.33633697032928467
0.48472064733505249 0.40075895190238953 0.33078739047050476
0.56633061170578003 0.402305006980896 0.33633100986480713
0.64330953359603882 0.40018162131309509 0.33898791670799255
0.71801888942718506 0.40358266234397888 0.33684954047203064
0.78255510330200195 0.40734624862670898 0.34046611189842224
0.84487110376358032 0.40866026282310486 0.34943428635597229
0.90859568119049072 0.40958225727081299 0.35838794708251953
0.96605348587036133 0.41525119543075562 0.3600514829158783
0.99525153636932373 0.42580386996269226 0.35945767164230347
0.046417638659477234 0.51460760831832886 0.37208345532417297
0.17485395073890686 0.49651011824607849 0.35772821307182312
0.2929532527923584 0.48986569046974182 0.34805995225906372
0.39896449446678162 0.48601061105728149 0.34071829915046692
0.48696193099021912 0.48408854007720947 0.33803609013557434
0.56629294157028198 0.48363357782363892 0.33737409114837646
0.64054697751998901 0.48298409581184387 0.33809900283813477
0.71090239286422729 0.48416301608085632 0.340974360704422
