assets/lut/alexjordan subtle green.cube
# Created by: G'MIC (https://gmic.eu)
TITLE "subtle_green"
# LUT size
LUT_3D_SIZE 5
# Data domain
DOMAIN_MIN 0.0 0.0 0.0
DOMAIN_MAX 1.0 1.0 1.0
# LUT data points
0.017282867804169655 0.019645152613520622 0.024916375055909157
0.044821988791227341 0.033304762095212936 0.034169979393482208
0.090488433837890625 0.044046394526958466 0.045030243694782257
0.20294088125228882 0.055551089346408844 0.054410297423601151
0.39722746610641479 0.063331827521324158 0.064156010746955872
0.046189699321985245 0.095917358994483948 0.047707337886095047
0.1105368509888649 0.11194055527448654 0.052054163068532944
0.22142109274864197 0.12188790738582611 0.068021006882190704
0.36518070101737976 0.13000841438770294 0.085727974772453308
0.56679892539978027 0.13430152833461761 0.082492083311080933
0.016297986730933189 0.27007362246513367 0.0105298962444067
0.098203815519809723 0.30394735932350159 0.0086450763046741486
0.31415265798568726 0.31143638491630554 0.014155877754092216
0.57669538259506226 0.31174468994140625 0.047844652086496353
0.81079697608947754 0.32345843315124512 0.11320158839225769
2.1003274014219642e-05 0.54903346300125122 0.00050699571147561073
0.067193455994129181 0.59866571426391602 0.00030912511283531785
0.29091820120811462 0.6256711483001709 0.0091719981282949448
0.63556486368179321 0.63729989528656006 0.0065214568749070168
0.99980485439300537 0.63358861207962036 0.020730575546622276
0.007709757424890995 0.93045759201049805 0.048146266490221024
0.046159930527210236 0.98122179508209229 0.026748642325401306
0.27495601773262024 0.99759232997894287 0.076786771416664124
0.72312122583389282 0.99324744939804077 0.41542398929595947
0.99797499179840088 0.99205249547958374 0.92805135250091553
0.027109019458293915 0.023468317463994026 0.043620914220809937
0.060991983860731125 0.036928843706846237 0.060045517981052399
0.11358096450567245 0.047382727265357971 0.067964203655719757
0.22651700675487518 0.065029054880142212 0.083194047212600708
0.4232405424118042 0.060331322252750397 0.091105803847312927
0.049610301852226257 0.10005265474319458 0.097274377942085266
0.11472687125205994 0.11876310408115387 0.11921919137239456
0.21993820369243622 0.13529208302497864 0.13137447834014893
0.37542665004730225 0.14247702062129974 0.14555367827415466
0.58904743194580078 0.14045952260494232 0.14100132882595062
0.0086990958079695702 0.28435602784156799 0.084594473242759705
0.10888875275850296 0.31524312496185303 0.10104627162218094
0.32383343577384949 0.32644572854042053 0.12310442328453064
0.569754958152771 0.32900324463844299 0.166639044880867
0.78977233171463013 0.3527437150478363 0.2146996408700943
0 0.56563395261764526 0.037221752107143402
0.069662787020206451 0.61797559261322021 0.071904532611370087
0.30552515387535095 0.65161645412445068 0.097674429416656494
0.65833967924118042 0.65763568878173828 0.11353623867034912
0.99968010187149048 0.66079956293106079 0.14001360535621643
0.002357423072680831 0.95718157291412354 0.0060404608957469463
0.044730555266141891 0.99275499582290649 0.044867001473903656
0.31848713755607605 1 0.16061536967754364
0.81384944915771484 0.99694621562957764 0.62854760885238647
0.9996345043182373 0.998931884765625 0.98748940229415894
0.030335206538438797 0.025134382769465446 0.091604791581630707
0.063504435122013092 0.037105020135641098 0.12911263108253479
0.17143882811069489 0.036715757101774216 0.1600458025932312
0.32329452037811279 0.028454216197133064 0.17110952734947205
0.53254175186157227 0.023132383823394775 0.169638991355896
0.048842456191778183 0.1003035306930542 0.22305549681186676
0.11748169362545013 0.11705082654953003 0.27489635348320007
0.29767465591430664 0.11150846630334854 0.28954359889030457
0.47953468561172485 0.1211596354842186 0.26577824354171753
0.65940582752227783 0.12791557610034943 0.24845747649669647
0.0076212715357542038 0.28607174754142761 0.28188371658325195
0.10708683729171753 0.31710615754127502 0.31978929042816162
0.32427865266799927 0.33194398880004883 0.33214840292930603
0.53166240453720093 0.35395380854606628 0.35532167553901672
0.75956088304519653 0.37719163298606873 0.37657612562179565
0.0018766963621601462 0.57397687435150146 0.24172331392765045
0.07259659469127655 0.63208115100860596 0.28262409567832947
0.31918951869010925 0.66233283281326294 0.32071450352668762
0.675972580909729 0.67136663198471069 0.32725432515144348
0.98613137006759644 0.68549573421478271 0.42215800285339355
0.0083246864378452301 0.95958513021469116 0.20522008836269379
0.070903494954109192 0.99623233079910278 0.26844057440757751
0.42702677845954895 1 0.43916669487953186
0.92084646224975586 0.99622553586959839 0.86365699768066406
1 1 1
0.028245784342288971 0.028101677075028419 0.196099653840065
0.064737923443317413 0.037804726511240005 0.27153199911117554
0.17080463469028473 0.028493424877524376 0.33462387323379517
0.42172253131866455 0.0013940848875790834 0.41998142004013062
0.76381105184555054 0.0016556982882320881 0.40416374802589417
0.035453528165817261 0.094408191740512848 0.45486581325531006
0.10444603860378265 0.10810277611017227 0.5495985746383667
0.28409752249717712 0.10115087032318115 0.59866279363632202
0.60767132043838501 0.067840784788131714 0.60348773002624512
0.91644978523254395 0.069134369492530823 0.52822500467300415
0.014312176033854485 0.27808436751365662 0.61288392543792725
0.10145656764507294 0.31303992867469788 0.65926432609558105
0.31958812475204468 0.32633912563323975 0.68044406175613403
0.65807133913040161 0.31618836522102356 0.65525740385055542
0.93414372205734253 0.34191715717315674 0.60344070196151733
0.0081384247168898582 0.57304179668426514 0.57697474956512451
0.083676159381866455 0.63023728132247925 0.62902545928955078
0.32418644428253174 0.66255831718444824 0.66869574785232544
0.67024987936019897 0.67628252506256104 0.68009752035140991
0.95992350578308105 0.71956121921539307 0.7144278883934021
0.0040269889868795872 0.96922510862350464 0.51793074607849121
0.10011810809373856 0.99614942073822021 0.59690994024276733
0.52046376466751099 0.99997305870056152 0.74120581150054932
0.97303152084350586 0.99762558937072754 0.97370702028274536
1 1 1
0.026383299380540848 0.024078009650111198 0.38778260350227356
0.05945899710059166 0.028195608407258987 0.49921256303787231
0.19175456464290619 0.010689634829759598 0.65404069423675537
0.43822211027145386 0 0.77845472097396851
0.83633238077163696 0 0.82363498210906982
0.025144943967461586 0.079062491655349731 0.8080366849899292
0.089417584240436554 0.09123433381319046 0.93753963708877563
0.28037542104721069 0.085968822240829468 0.98990428447723389
0.58510738611221313 0.061861660331487656 0.99689978361129761
0.98930668830871582 0.046112045645713806 0.97799360752105713
0.0065938164480030537 0.26837337017059326 0.99651378393173218
0.090119458734989166 0.29741403460502625 1
0.31077873706817627 0.31196433305740356 1
0.6499064564704895 0.30877566337585449 0.99989873170852661
1 0.28826895356178284 0.98926162719726562
8.9398548880126327e-05 0.56633305549621582 0.99422311782836914
0.067556731402873993 0.62338912487030029 1
0.30958491563796997 0.65580070018768311 0.99961525201797485
0.66649931669235229 0.67549920082092285 1
0.99545860290527344 0.67545109987258911 0.99744117259979248
0.0077074239961802959 0.96661579608917236 0.96690529584884644
0.14670613408088684 0.99614042043685913 0.98304075002670288
0.71350318193435669 0.99412363767623901 0.99515479803085327
0.99375969171524048 0.99952715635299683 0.99985384941101074
1 1 1
