assets/lut/alexjordan harsh sunset.cube
# Created by: G'MIC (https://gmic.eu)
TITLE "harsh_sunset"
# LUT size
LUT_3D_SIZE 7
# Data domain
DOMAIN_MIN 0.0 0.0 0.0
DOMAIN_MAX 1.0 1.0 1.0
# LUT data points
0 0 0
0.00031208712607622147 0.00019851385150104761 0.00092463771579787135
0.021279053762555122 0.012907738797366619 0.014918607659637928
0.069099992513656616 0.022828329354524612 0.023729706183075905
0.15388430655002594 0.021393494680523872 0.024590061977505684
0.29592731595039368 0.010970590636134148 0.014154905453324318
0.51539868116378784 0.00020303165365476161 0.00047411452396772802
0.017297662794589996 0.019970463588833809 0.019374249503016472
0.027489859610795975 0.028087930753827095 0.026081385090947151
0.069475926458835602 0.04085051640868187 0.036398690193891525
0.15058600902557373 0.044827703386545181 0.039677951484918594
0.28398275375366211 0.038089048117399216 0.024812033399939537
0.47785064578056335 0.017307715490460396 0.010985595174133778
0.75593060255050659 0 0
0.052717678248882294 0.099277839064598083 0.057533174753189087
0.078944005072116852 0.11108136922121048 0.060458134859800339
0.17034435272216797 0.12072288990020752 0.056124981492757797
0.32098951935768127 0.11572014540433884 0.040908575057983398
0.54739081859588623 0.098000936210155487 0.015923848375678062
0.83401286602020264 0.06177183985710144 0.00077204982517287135
0.99994397163391113 0.031009359285235405 0
0.035887625068426132 0.23127159476280212 0.048020664602518082
0.090835645794868469 0.24092328548431396 0.044264446943998337
0.22429649531841278 0.25022456049919128 0.027990363538265228
0.42478883266448975 0.23903141915798187 0.015252730809152126
0.69678175449371338 0.21424368023872375 0.0015725379344075918
0.98020994663238525 0.18110848963260651 0
1 0.14993897080421448 0
0.0054489285685122013 0.40672266483306885 0.013450891710817814
0.068844780325889587 0.41311979293823242 0.013817117549479008
0.22676579654216766 0.41710743308067322 0.0054736416786909103
0.45313739776611328 0.40626794099807739 0.00052309222519397736
0.72156155109405518 0.3847428560256958 0
0.95913839340209961 0.35054492950439453 0
0.99964994192123413 0.31863325834274292 0
0 0.59481525421142578 0.00049959070747718215
0.054193414747714996 0.60224074125289917 0.0042929556220769882
0.22392839193344116 0.60343325138092041 0.0056566726416349411
0.46206313371658325 0.59491193294525146 0.0024295132607221603
0.73579621315002441 0.57628655433654785 0
0.98073989152908325 0.54775452613830566 0.00080217845970764756
1 0.52138388156890869 0.0020550745539367199
0.0099249742925167084 0.78338563442230225 0.0068077384494245052
0.093465454876422882 0.7912907600402832 0.012907379306852818
0.25480088591575623 0.79443717002868652 0.017910467460751534
0.48018500208854675 0.78905510902404785 0.015943653881549835
0.73951882123947144 0.77556347846984863 0.011900135315954685
0.96430271863937378 0.75635480880737305 0.020085697993636131
0.99984073638916016 0.73812323808670044 0.020246872678399086
0 0 0
0.0038713791873306036 0.0027827993035316467 0.0041114059276878834
0.029883574694395065 0.018281569704413414 0.021389111876487732
0.076068967580795288 0.024482712149620056 0.028373135253787041
0.17427496612071991 0.023996854200959206 0.033855348825454712
0.3402462899684906 0.010803641751408577 0.024254368618130684
0.55949366092681885 0 0.0051049026660621166
0.02208232507109642 0.026461746543645859 0.027570836246013641
0.03431205078959465 0.03469066321849823 0.035862643271684647
0.084582522511482239 0.046988587826490402 0.050187774002552032
0.16836953163146973 0.047455672174692154 0.050801880657672882
0.30591538548469543 0.04071846604347229 0.042085729539394379
0.52013564109802246 0.018434636294841766 0.023245807737112045
0.82107454538345337 0 0.0018962037283927202
0.061949096620082855 0.10971072316169739 0.078421436250209808
0.088255427777767181 0.12151721119880676 0.083586841821670532
0.18507333099842072 0.1290852427482605 0.081596031785011292
0.34295162558555603 0.12217399477958679 0.065017729997634888
0.56731665134429932 0.10459552705287933 0.038401074707508087
0.85693836212158203 0.070754043757915497 0.011121263727545738
1 0.038543418049812317 7.180606644396903e-06
0.043787892907857895 0.24277780950069427 0.078458510339260101
0.096376411616802216 0.25249731540679932 0.080050431191921234
0.23518212139606476 0.25850212574005127 0.066467300057411194
0.44320672750473022 0.24755732715129852 0.042621567845344543
0.71521776914596558 0.22677218914031982 0.017682498320937157
0.98359566926956177 0.19471238553524017 0.0011220446322113276
1 0.16037952899932861 0
0.011632433161139488 0.41995090246200562 0.042772509157657623
0.078437775373458862 0.42345836758613586 0.050515327602624893
0.24011334776878357 0.42509892582893372 0.043201670050621033
0.46879172325134277 0.4143582284450531 0.024465059861540794
0.7378731369972229 0.394366055727005 0.0055083781480789185
0.97726249694824219 0.3654409646987915 0.00028919894248247147
1 0.33293402194976807 0
0.00082325655966997147 0.60880774259567261 0.031905993819236755
0.07132275402545929 0.61379909515380859 0.041309714317321777
0.2391820102930069 0.61380970478057861 0.043064910918474197
0.47626855969429016 0.60417765378952026 0.032648436725139618
0.74585968255996704 0.58583164215087891 0.0200678501278162
0.98343586921691895 0.56024301052093506 0.023684438318014145
1 0.53446453809738159 0.02388477697968483
0.0061560538597404957 0.79809808731079102 0.04945780336856842
0.095325067639350891 0.80571222305297852 0.05722292885184288
0.26068145036697388 0.80796593427658081 0.062825761735439301
0.49115899205207825 0.80153590440750122 0.060538735240697861
0.76234275102615356 0.78825908899307251 0.061282064765691757
0.99204355478286743 0.77041369676589966 0.077611617743968964
1 0.75098955631256104 0.076407819986343384
0.00037662280374206603 0.00026693905238062143 9.1911766503471881e-05
0.012105515226721764 0.0088084200397133827 0.011547118425369263
0.04018465057015419 0.021339954808354378 0.029242826625704765
0.097028814256191254 0.027468932792544365 0.042765509337186813
0.19795271754264832 0.025187818333506584 0.049266740679740906
0.37179678678512573 0.0094486307352781296 0.043609708547592163
0.61180645227432251 0 0.021516388282179832
0.031019099056720734 0.033788911998271942 0.042270287871360779
0.044898178428411484 0.040984448045492172 0.053856134414672852
0.092919319868087769 0.049920849502086639 0.067021898925304413
0.18854126334190369 0.050439316779375076 0.07223944365978241
0.34897264838218689 0.043162684887647629 0.070401512086391449
0.56293392181396484 0.018841208890080452 0.04777304083108902
0.86449438333511353 0.00048983702436089516 0.017474949359893799
0.062765814363956451 0.11844008415937424 0.10793223977088928
0.092849031090736389 0.12826666235923767 0.11511990427970886
0.19352105259895325 0.13552199304103851 0.11804746836423874
0.36392492055892944 0.12679789960384369 0.10962415486574173
0.59727531671524048 0.10908304899930954 0.08412487804889679
0.8799324631690979 0.077073939144611359 0.047441970556974411
1 0.048467479646205902 0.017521757632493973
0.034398935735225677 0.25164949893951416 0.12637437880039215
0.094141550362110138 0.26083913445472717 0.13123944401741028
0.24280774593353271 0.26651671528816223 0.1213870644569397
0.45953536033630371 0.25612726807594299 0.098918125033378601
0.72671681642532349 0.23630322515964508 0.071153067052364349
0.97962427139282227 0.20436626672744751 0.038475066423416138
1 0.1732441782951355 0.014514115639030933
0.0057182163000106812 0.42689308524131775 0.10688747465610504
0.082244142889976501 0.431709885597229 0.11370339244604111
0.24932500720024109 0.43318545818328857 0.10733470320701599
0.48130127787590027 0.42352128028869629 0.08945031464099884
0.75493568181991577 0.40587607026100159 0.068802058696746826
0.98344576358795166 0.37717112898826599 0.04215221107006073
1 0.34764164686203003 0.024021776393055916
0.0014705882640555501 0.61855322122573853 0.098135612905025482
0.081895165145397186 0.62375229597091675 0.1072218045592308
0.24931679666042328 0.6230664849281311 0.10975703597068787
0.48322579264640808 0.61264020204544067 0.10373540967702866
0.76125138998031616 0.595234215259552 0.094164840877056122
0.99581098556518555 0.57229197025299072 0.084169991314411163
1 0.55010741949081421 0.076331749558448792
0.0057235420681536198 0.81065255403518677 0.11476799100637436
0.10004380345344543 0.81867849826812744 0.12437883019447327
0.26858389377593994 0.82022607326507568 0.1324334442615509
0.50380951166152954 0.812389075756073 0.13470004498958588
0.77890831232070923 0.79950916767120361 0.1389404833316803
0.99512100219726562 0.78316760063171387 0.148832768201828
1 0.76729846000671387 0.14829029142856598
0.0055616488680243492 0.0030598361045122147 0.0040330775082111359
0.013468020595610142 0.011261943727731705 0.016225552186369896
0.044491324573755264 0.022536125034093857 0.038971472531557083
0.11270225048065186 0.030624359846115112 0.062489215284585953
0.22262947261333466 0.024738745763897896 0.072615109384059906
0.4088723361492157 0.0049448949284851551 0.073233135044574738
0.65331876277923584 0 0.054071061313152313
0.034558825194835663 0.036864817142486572 0.054672479629516602
0.048648625612258911 0.044881273061037064 0.069733999669551849
0.10153690725564957 0.053249746561050415 0.088930614292621613
0.20208992063999176 0.053073283284902573 0.10214018076658249
0.3623729944229126 0.041679844260215759 0.10275077074766159
0.5983511209487915 0.016076929867267609 0.088147617876529694
0.89699578285217285 0.00086070044199004769 0.060716636478900909
0.061142820864915848 0.12548986077308655 0.14349399507045746
0.095024242997169495 0.13546490669250488 0.15439844131469727
0.20139800012111664 0.14107830822467804 0.16549956798553467
0.37523853778839111 0.13202814757823944 0.1639610230922699
0.61372518539428711 0.11033415049314499 0.14411221444606781
0.89889711141586304 0.07816421240568161 0.10792174935340881
1 0.052632022649049759 0.07372303307056427
0.044895082712173462 0.26263025403022766 0.18919706344604492
0.10405324399471283 0.27147623896598816 0.1949620246887207
0.24890485405921936 0.27591204643249512 0.19184680283069611
0.46440055966377258 0.26528865098953247 0.17549194395542145
0.72766518592834473 0.24109803140163422 0.14804631471633911
0.98219329118728638 0.20843209326267242 0.11384564638137817
1 0.17979203164577484 0.08183664083480835
0.013317961245775223 0.437691330909729 0.18549478054046631
0.093211047351360321 0.44265022873878479 0.19355037808418274
0.25612503290176392 0.44313246011734009 0.19040973484516144
0.48639857769012451 0.43310308456420898 0.17554777860641479
0.75894296169281006 0.41389501094818115 0.15503780543804169
0.99087381362915039 0.38460764288902283 0.1280665248632431
1 0.3569105863571167 0.10292358696460724
0.0030766206327825785 0.62714856863021851 0.18191306293010712
0.090977460145950317 0.63249057531356812 0.19129475951194763
0.25819247961044312 0.63150256872177124 0.19495385885238647
0.49067839980125427 0.62164831161499023 0.19007575511932373
0.76924920082092285 0.60557585954666138 0.17988622188568115
0.99643319845199585 0.58173668384552002 0.16581588983535767
1 0.56117111444473267 0.15503877401351929
0.007543511688709259 0.81912750005722046 0.19671349227428436
0.10927669703960419 0.82702535390853882 0.20680917799472809
0.28031396865844727 0.82844698429107666 0.21595560014247894
0.51342993974685669 0.82181370258331299 0.22034303843975067
0.78361904621124268 0.81008303165435791 0.22364409267902374
0.99265867471694946 0.7940254807472229 0.22786380350589752
1 0.77931612730026245 0.22637754678726196
0.01230093277990818 0.0118153290823102 0.021069440990686417
0.020085383206605911 0.016775347292423248 0.031906966120004654
0.054120548069477081 0.027195649221539497 0.058059260249137878
0.13021902740001678 0.035066194832324982 0.087387457489967346
0.24538731575012207 0.023793179541826248 0.10242752730846405
0.42793777585029602 0.0052276612259447575 0.10845226049423218
0.71263915300369263 0 0.10048160701990128
0.038551762700080872 0.041758205741643906 0.076626785099506378
0.053324636071920395 0.049711115658283234 0.091763578355312347
0.11530221998691559 0.058962713927030563 0.12275426834821701
0.22180667519569397 0.056287400424480438 0.14029926061630249
0.39661440253257751 0.040284324437379837 0.1513635516166687
0.63967299461364746 0.01391264982521534 0.14343273639678955
0.95016074180603027 0.00033853566856123507 0.12651456892490387
0.065463602542877197 0.13093338906764984 0.19258911907672882
0.10060209035873413 0.14213123917579651 0.20807336270809174
0.21207195520401001 0.14721205830574036 0.22748680412769318
0.39334273338317871 0.13582704961299896 0.2306695282459259
0.64825201034545898 0.11120620369911194 0.220626100897789
0.93006998300552368 0.076300002634525299 0.18769076466560364
1 0.050322961062192917 0.15388071537017822
0.050198424607515335 0.27093744277954102 0.26375290751457214
0.10894519835710526 0.28116819262504578 0.27324357628822327
0.25582695007324219 0.28334841132164001 0.2753174901008606
0.47293093800544739 0.27012902498245239 0.26144483685493469
0.74871814250946045 0.24497614800930023 0.23825471103191376
0.99347615242004395 0.2119906097650528 0.20474773645401001
1 0.18015046417713165 0.16807688772678375
0.018078343942761421 0.44568595290184021 0.27516400814056396
0.09817957878112793 0.45313605666160583 0.28442132472991943
0.26215869188308716 0.4519658088684082 0.28346732258796692
0.49533438682556152 0.43866086006164551 0.26908093690872192
0.77589470148086548 0.41868299245834351 0.24794766306877136
0.99671751260757446 0.39160811901092529 0.22296984493732452
1 0.36312368512153625 0.19276754558086395
0.0050301048904657364 0.63288027048110962 0.27602389454841614
0.097146101295948029 0.63991975784301758 0.2856137752532959
0.26722213625907898 0.63934624195098877 0.28902620077133179
0.50345182418823242 0.628509521484375 0.28262946009635925
0.77448558807373047 0.61409729719161987 0.27069187164306641
0.99286329746246338 0.59227895736694336 0.25726887583732605
1 0.56977558135986328 0.24384291470050812
0.012023506686091423 0.82452797889709473 0.28854238986968994
0.11878769844770432 0.8328021764755249 0.29900205135345459
0.29232734441757202 0.83552652597427368 0.30818971991539001
0.52470260858535767 0.83067959547042847 0.31234711408615112
0.78479981422424316 0.82075554132461548 0.31438443064689636
0.98943072557449341 0.80465781688690186 0.3148711621761322
1 0.78700333833694458 0.31019586324691772
0.015920810401439667 0.014166648499667645 0.031962808221578598
0.02646089531481266 0.021400362253189087 0.048578657209873199
0.063671350479125977 0.032231468707323074 0.080798126757144928
0.15013371407985687 0.036812979727983475 0.11989563703536987
0.27900022268295288 0.022945389151573181 0.14691728353500366
0.47824200987815857 0.0034593320451676846 0.16122841835021973
0.75636488199234009 0 0.15638984739780426
0.04312317818403244 0.047435998916625977 0.10490236431360245
0.058778829872608185 0.053270749747753143 0.12295478582382202
0.12410951405763626 0.061222270131111145 0.16228576004505157
0.24468888342380524 0.057636141777038574 0.19468523561954498
0.43239870667457581 0.039195086807012558 0.21247860789299011
0.69785785675048828 0.011008737608790398 0.21148769557476044
0.97016865015029907 0.00042440378456376493 0.19866296648979187
0.061993453651666641 0.13814559578895569 0.25151601433753967
0.09956437349319458 0.14805245399475098 0.2737775444984436
0.21858187019824982 0.15031015872955322 0.30413401126861572
0.40576720237731934 0.13749015331268311 0.31256520748138428
0.66274446249008179 0.11180482804775238 0.30355778336524963
0.93343234062194824 0.074080780148506165 0.27804619073867798
1 0.045214187353849411 0.2448510080575943
0.04175383597612381 0.27780896425247192 0.34907576441764832
0.10136334598064423 0.29005089402198792 0.36179646849632263
0.25903671979904175 0.28950896859169006 0.3707449734210968
0.48062774538993835 0.27355062961578369 0.36009165644645691
0.75484728813171387 0.25048887729644775 0.33793428540229797
0.99508070945739746 0.2164483368396759 0.30429297685623169
0.99996501207351685 0.17738322913646698 0.26513826847076416
0.017287205904722214 0.45079144835472107 0.37322261929512024
0.094138473272323608 0.46254107356071472 0.38358047604560852
0.26566603779792786 0.4611150324344635 0.38388568162918091
0.50422781705856323 0.44609752297401428 0.37053722143173218
0.77726691961288452 0.42739313840866089 0.3488287627696991
0.9968525767326355 0.39888027310371399 0.32207930088043213
1 0.3683127760887146 0.29557451605796814
0.0082971611991524696 0.63675493001937866 0.37656337022781372
0.099431999027729034 0.64722132682800293 0.38719749450683594
0.27196612954139709 0.64888644218444824 0.39013838768005371
0.51164847612380981 0.63959342241287231 0.38333392143249512
0.78267979621887207 0.62511634826660156 0.37244150042533875
0.99749994277954102 0.60235011577606201 0.35832437872886658
1 0.57888352870941162 0.34406176209449768
0.021568521857261658 0.82881999015808105 0.38633695244789124
0.12730826437473297 0.83897244930267334 0.39843374490737915
0.30214762687683105 0.84411084651947021 0.40804505348205566
0.54077708721160889 0.84061914682388306 0.4126257598400116
0.81094515323638916 0.83155101537704468 0.41608425974845886
0.99951857328414917 0.81569075584411621 0.41525700688362122
1 0.79709571599960327 0.405478835105896
0.020647311583161354 0.015836408361792564 0.052292544394731522
0.034454703330993652 0.025081081315875053 0.071887776255607605
0.074720866978168488 0.034955475479364395 0.11026912182569504
0.16440095007419586 0.036903679370880127 0.16098600625991821
0.29241505265235901 0.021969528868794441 0.18590135872364044
0.49748560786247253 0.0043271682225167751 0.20480473339557648
0.8008309006690979 3.0338062060764059e-05 0.22097915410995483
0.044298626482486725 0.052433371543884277 0.14037308096885681
0.066229216754436493 0.058610115200281143 0.16593515872955322
0.13288432359695435 0.063895896077156067 0.20867784321308136
0.26756143569946289 0.059354402124881744 0.25872436165809631
0.45217710733413696 0.041169770061969757 0.27730539441108704
0.72617477178573608 0.011857843957841396 0.28334277868270874
0.98038935661315918 0.0016057781176641583 0.28322508931159973
0.070658184587955475 0.14631496369838715 0.32648897171020508
0.10985627770423889 0.1558053195476532 0.35022750496864319
0.23119921982288361 0.15567766129970551 0.39054912328720093
0.42181402444839478 0.14115032553672791 0.40346923470497131
0.66487592458724976 0.11559181660413742 0.39297673106193542
0.93041199445724487 0.079579010605812073 0.37131989002227783
1 0.057921867817640305 0.34585291147232056
0.051350463181734085 0.28608003258705139 0.44733923673629761
0.11879359185695648 0.29677507281303406 0.45690843462944031
0.2720891535282135 0.29595774412155151 0.46817731857299805
0.49103793501853943 0.2799772322177887 0.46154731512069702
0.75328820943832397 0.25480088591575623 0.44029417634010315
0.98401319980621338 0.22258314490318298 0.40817165374755859
1 0.19469086825847626 0.37428683042526245
0.031221546232700348 0.45816230773925781 0.47638657689094543
0.11359778046607971 0.46842542290687561 0.48619720339775085
0.28135243058204651 0.46903705596923828 0.48591792583465576
0.51728087663650513 0.45656529068946838 0.47333475947380066
0.79329729080200195 0.4351125955581665 0.4553990364074707
0.99818128347396851 0.40792566537857056 0.43089315295219421
1 0.38329976797103882 0.40659615397453308
0.026345212012529373 0.64357435703277588 0.47967278957366943
0.11745034158229828 0.65440648794174194 0.49154716730117798
0.28811341524124146 0.65828579664230347 0.49438324570655823
0.53157269954681396 0.65055680274963379 0.48838210105895996
0.80187696218490601 0.63486433029174805 0.48030859231948853
0.99749457836151123 0.61357301473617554 0.46735963225364685
1 0.59339267015457153 0.45169815421104431
0.04567863792181015 0.83601540327072144 0.48653480410575867
0.14831994473934174 0.84689635038375854 0.50103592872619629
0.32100322842597961 0.85312539339065552 0.51128995418548584
0.55977928638458252 0.85014402866363525 0.51625692844390869
0.81690305471420288 0.84141868352890015 0.51935780048370361
0.99766391515731812 0.82746642827987671 0.51674360036849976
1 0.81115502119064331 0.50596839189529419
