assets/lut/alexjordan cross process cp 04.cube
# Created by: G'MIC (https://gmic.eu)
TITLE "cross_process_cp_4"
# LUT size
LUT_3D_SIZE 13
# Data domain
DOMAIN_MIN 0.0 0.0 0.0
DOMAIN_MAX 1.0 1.0 1.0
# LUT data points
0.011088981293141842 0.016061505302786827 0.014895630069077015
0.024520650506019592 0.030273213982582092 0.030184920877218246
0.039850827306509018 0.043880537152290344 0.044023431837558746
0.056707300245761871 0.058008395135402679 0.058683015406131744
0.074952460825443268 0.073747433722019196 0.075519278645515442
0.090553209185600281 0.090401999652385712 0.09168599545955658
0.10553410649299622 0.1050235703587532 0.10445813834667206
0.13018177449703217 0.11682121455669403 0.11522050946950912
0.17471501231193542 0.12678170204162598 0.12345089018344879
0.25204843282699585 0.13174644112586975 0.12731646001338959
0.35771992802619934 0.1287028044462204 0.12801654636859894
0.48530817031860352 0.1172030121088028 0.12422238290309906
0.63844060897827148 0.099006295204162598 0.11738932132720947
0.063005931675434113 0.06348748505115509 0.063684292137622833
0.081525065004825592 0.078650563955307007 0.080953143537044525
0.094643764197826385 0.093441754579544067 0.093981951475143433
0.1080954298377037 0.10943904519081116 0.10961839556694031
0.12619595229625702 0.12696966528892517 0.12576135993003845
0.15177331864833832 0.14416058361530304 0.13737320899963379
0.19358520209789276 0.15685030817985535 0.14083772897720337
0.2637212872505188 0.16071531176567078 0.13880640268325806
0.36761796474456787 0.15917317569255829 0.13183879852294922
0.49271580576896667 0.15384937822818756 0.12739956378936768
0.62546342611312866 0.14445044100284576 0.12647369503974915
0.75221365690231323 0.13489945232868195 0.12665575742721558
0.8657417893409729 0.12939947843551636 0.13359858095645905
0.11588863283395767 0.11478964239358902 0.11602829396724701
0.12894786894321442 0.13450382649898529 0.13159558176994324
0.13861528038978577 0.15358228981494904 0.14290605485439301
0.15212181210517883 0.17363496124744415 0.15372587740421295
0.18072734773159027 0.19258271157741547 0.15783001482486725
0.23532065749168396 0.20679350197315216 0.15555910766124725
0.31944403052330017 0.21242406964302063 0.14844745397567749
0.4327755868434906 0.20757989585399628 0.13961225748062134
0.56669718027114868 0.19808225333690643 0.12926720082759857
0.68732690811157227 0.19295220077037811 0.13002392649650574
0.79207944869995117 0.19028493762016296 0.13918574154376984
0.89272981882095337 0.18862773478031158 0.14764632284641266
0.97708672285079956 0.1895354837179184 0.15480321645736694
0.14235959947109222 0.18659554421901703 0.16330927610397339
0.13847732543945312 0.21573716402053833 0.16737872362136841
0.14261822402477264 0.24181130528450012 0.16939829289913177
0.16849121451377869 0.26251950860023499 0.16915091872215271
0.2236897349357605 0.276834636926651 0.16272272169589996
0.31442326307296753 0.28235697746276855 0.1550450474023819
0.43052074313163757 0.27989077568054199 0.14845426380634308
0.55363398790359497 0.27286010980606079 0.1450558602809906
0.67987686395645142 0.26474374532699585 0.14143580198287964
0.79182887077331543 0.26122862100601196 0.14343276619911194
0.88229930400848389 0.26255503296852112 0.15149131417274475
0.95914220809936523 0.26555636525154114 0.16006018221378326
0.9990391731262207 0.26968339085578918 0.16596175730228424
0.10813391953706741 0.29250699281692505 0.17898328602313995
0.099585197865962982 0.32550910115242004 0.17593158781528473
0.11163364350795746 0.35242268443107605 0.17222157120704651
0.1642114520072937 0.36591547727584839 0.17200039327144623
0.25041007995605469 0.36971104145050049 0.16969406604766846
0.36257702112197876 0.36709177494049072 0.16845783591270447
0.48831361532211304 0.36125117540359497 0.1662013977766037
0.61294025182723999 0.3559633195400238 0.15777985751628876
0.73369467258453369 0.35106495022773743 0.152960404753685
0.84201759099960327 0.34893220663070679 0.15319475531578064
0.92772948741912842 0.35099714994430542 0.15765440464019775
0.98524868488311768 0.35604566335678101 0.16319690644741058
1 0.36109477281570435 0.16809158027172089
0.038394417613744736 0.41917121410369873 0.16552715003490448
0.053755294531583786 0.44259169697761536 0.17098706960678101
0.090719006955623627 0.46099075675010681 0.17422698438167572
0.16603301465511322 0.4662964940071106 0.18068812787532806
0.27007460594177246 0.46337473392486572 0.18518085777759552
0.38653421401977539 0.45948782563209534 0.18328498303890228
0.50907266139984131 0.45566406846046448 0.17501288652420044
0.63225173950195312 0.45171555876731873 0.16335985064506531
0.75334995985031128 0.44688865542411804 0.15742209553718567
0.86307340860366821 0.44415679574012756 0.15653736889362335
0.95025599002838135 0.44634777307510376 0.15940751135349274
0.99427264928817749 0.45197388529777527 0.16235163807868958
0.99984210729598999 0.45729410648345947 0.16625408828258514
0.0031014387495815754 0.53468120098114014 0.15846820175647736
0.036265071481466293 0.54913914203643799 0.17158971726894379
0.092043951153755188 0.56048184633255005 0.18078814446926117
0.17442050576210022 0.56383270025253296 0.18845909833908081
0.27948454022407532 0.56098395586013794 0.19197769463062286
0.39495393633842468 0.55725699663162231 0.18765820562839508
0.51441359519958496 0.55368614196777344 0.17633941769599915
0.63568061590194702 0.54900944232940674 0.16524577140808105
0.75513219833374023 0.54341703653335571 0.16039472818374634
0.86481565237045288 0.54024195671081543 0.15965785086154938
0.95553421974182129 0.54113954305648804 0.16039332747459412
0.99778366088867188 0.54525589942932129 0.16159985959529877
0.99997079372406006 0.54909986257553101 0.16498972475528717
0.00010842715710168704 0.63672173023223877 0.16383363306522369
0.031582582741975784 0.64862930774688721 0.17648081481456757
0.09682781994342804 0.65758144855499268 0.18580661714076996
0.18081700801849365 0.66095173358917236 0.19176593422889709
0.28346329927444458 0.65883630514144897 0.19322916865348816
0.39789217710494995 0.65394389629364014 0.18850666284561157
0.51607459783554077 0.64817488193511963 0.1788705438375473
0.63612103462219238 0.64166021347045898 0.1693396270275116
0.75154012441635132 0.63555693626403809 0.1638680100440979
0.85687309503555298 0.63185280561447144 0.16139125823974609
0.94296431541442871 0.63162082433700562 0.16117188334465027
0.99323678016662598 0.63360887765884399 0.16344499588012695
1 0.63490426540374756 0.16545510292053223
0 0.73363018035888672 0.16996078193187714
0.027739850804209709 0.74518364667892456 0.180633544921875
0.098597794771194458 0.7529715895652771 0.18876300752162933
0.18355266749858856 0.7559627890586853 0.19351084530353546
0.28434285521507263 0.75350093841552734 0.19444599747657776
0.39786610007286072 0.74694263935089111 0.18967211246490479
0.51547813415527344 0.73832911252975464 0.18164026737213135
0.63382458686828613 0.72936779260635376 0.17332632839679718
0.7462620735168457 0.72176259756088257 0.16741812229156494
0.84645390510559082 0.71740823984146118 0.16450417041778564
0.9281693696975708 0.71625053882598877 0.16433823108673096
0.9859999418258667 0.71657729148864746 0.1643412858247757
1 0.71627527475357056 0.16646546125411987
0 0.82626831531524658 0.17454226315021515
0.02512805350124836 0.83744281530380249 0.18390713632106781
0.098614320158958435 0.84459871053695679 0.19047661125659943
0.18431346118450165 0.8468213677406311 0.19499805569648743
0.2842162549495697 0.84361147880554199 0.19552360475063324
0.3949001133441925 0.83544349670410156 0.19114264845848083
0.51292526721954346 0.82391887903213501 0.18435291945934296
0.63024741411209106 0.81208419799804688 0.17658507823944092
0.73992013931274414 0.80248278379440308 0.17039351165294647
0.83637595176696777 0.79704517126083374 0.16688306629657745
0.91605466604232788 0.79471153020858765 0.16440805792808533
0.97829604148864746 0.7944871187210083 0.16434685885906219
1 0.79335349798202515 0.16701608896255493
0 0.91417568922042847 0.17746874690055847
0.024780916050076485 0.92443162202835083 0.18581749498844147
0.099721170961856842 0.93071115016937256 0.19194291532039642
0.18599452078342438 0.93227070569992065 0.19567811489105225
0.28377494215965271 0.92854046821594238 0.19571077823638916
0.39277321100234985 0.91895514726638794 0.1931115984916687
0.50919663906097412 0.90489751100540161 0.18621581792831421
0.62514632940292358 0.89028292894363403 0.17863544821739197
0.73289936780929565 0.87850677967071533 0.17227461934089661
0.82668071985244751 0.8718298077583313 0.16828484833240509
0.90486091375350952 0.86943066120147705 0.16523009538650513
0.96926498413085938 0.86859381198883057 0.16433823108673096
0.99982964992523193 0.86697399616241455 0.16488665342330933
0 0.98845642805099487 0.17862796783447266
0.026212669909000397 0.99294006824493408 0.18636311590671539
0.10266792774200439 0.99493420124053955 0.19202777743339539
0.18908140063285828 0.99519389867782593 0.19564723968505859
0.28529340028762817 0.99371075630187988 0.19570934772491455
0.39184385538101196 0.98882818222045898 0.19308097660541534
0.50548160076141357 0.97904121875762939 0.18659226596355438
0.6188814640045166 0.96506023406982422 0.17919735610485077
0.72440928220748901 0.95174074172973633 0.17292898893356323
0.81568330526351929 0.94444167613983154 0.16831868886947632
0.89261329174041748 0.94184219837188721 0.16509513556957245
0.95804363489151001 0.94050860404968262 0.16433823108673096
0.99841421842575073 0.93899333477020264 0.16432832181453705
0 1 0.17743389308452606
0.027673309668898582 1 0.18506136536598206
0.10635688900947571 1 0.19026605784893036
0.19339695572853088 1 0.1930503249168396
0.28895747661590576 1 0.19330967962741852
0.39243906736373901 1 0.19047154486179352
0.50123411417007446 1 0.18509463965892792
0.6099357008934021 1 0.17842642962932587
0.71157312393188477 0.99903762340545654 0.1723385751247406
0.8008042573928833 0.99765950441360474 0.16767594218254089
0.87748879194259644 0.99684697389602661 0.16442574560642242
0.94397658109664917 0.99617373943328857 0.16295571625232697
0.99384826421737671 0.99543732404708862 0.16115681827068329
0.017437968403100967 0.021396277472376823 0.020401764661073685
0.031694792211055756 0.03656933456659317 0.03574473038315773
0.046470820903778076 0.049822982400655746 0.049197595566511154
0.063020981848239899 0.063431262969970703 0.064022481441497803
0.080007798969745636 0.079173564910888672 0.080655522644519806
0.095221742987632751 0.095110006630420685 0.095863282680511475
0.1136043593287468 0.10933659970760345 0.10810955613851547
0.14143109321594238 0.12102324515581131 0.12070891261100769
0.19041286408901215 0.13006898760795593 0.13230608403682709
0.28005605936050415 0.13154849410057068 0.14047682285308838
0.39625117182731628 0.12484217435121536 0.14605095982551575
0.52034074068069458 0.1139088049530983 0.15107527375221252
0.67280882596969604 0.095373503863811493 0.15247122943401337
0.068946331739425659 0.066772356629371643 0.067203283309936523
0.085917435586452484 0.082843184471130371 0.084335610270500183
0.099615387618541718 0.098259948194026947 0.098778262734413147
0.11381027847528458 0.11566684395074844 0.11516355723142624
0.13262566924095154 0.13397075235843658 0.131853386759758
0.16029800474643707 0.1505054235458374 0.14383593201637268
0.20714803040027618 0.16081695258617401 0.15064837038516998
0.28758805990219116 0.16304843127727509 0.15467622876167297
0.40094491839408875 0.15911005437374115 0.155204176902771
0.53283476829528809 0.15013532340526581 0.1574539989233017
0.66957724094390869 0.13893483579158783 0.16209405660629272
0.7768436074256897 0.13378381729125977 0.171640545129776
0.88338720798492432 0.12863260507583618 0.17997041344642639
0.11903442442417145 0.11989234387874603 0.11963304877281189
0.13081283867359161 0.13966895639896393 0.13632577657699585
0.14074493944644928 0.1594403088092804 0.14981020987033844
0.15542908012866974 0.1810663640499115 0.16335628926753998
0.18713633716106415 0.20083928108215332 0.17326085269451141
0.24485319852828979 0.21362704038619995 0.17766514420509338
0.33444440364837646 0.21488966047763824 0.17925766110420227
0.45233944058418274 0.20844332873821259 0.1795022040605545
0.58384507894515991 0.19957000017166138 0.17937165498733521
0.71168887615203857 0.19159999489784241 0.18205611407756805
0.82253062725067139 0.18708041310310364 0.19056661427021027
0.91412603855133057 0.18779841065406799 0.20143437385559082
0.9867512583732605 0.18903359770774841 0.20838643610477448
0.1386898010969162 0.1965194046497345 0.17117966711521149
0.13546206057071686 0.22353975474834442 0.18188698589801788
0.14264340698719025 0.2481740415096283 0.19018858671188354
0.17257137596607208 0.26795881986618042 0.19779422879219055
0.23088540136814117 0.28155031800270081 0.20175221562385559
0.32112613320350647 0.2859157919883728 0.20290814340114594
0.43752914667129517 0.2809092104434967 0.20333115756511688
0.56320106983184814 0.27318236231803894 0.20282508432865143
0.6853034496307373 0.26654070615768433 0.20523667335510254
0.80275344848632812 0.26185670495033264 0.20641778409481049
0.90108460187911987 0.26132303476333618 0.21129132807254791
0.97720038890838623 0.26446127891540527 0.2190408855676651
0.99998492002487183 0.26825225353240967 0.22443334758281708
0.093887493014335632 0.30476754903793335 0.20097620785236359
0.090429313480854034 0.333985835313797 0.20720875263214111
0.11223480850458145 0.35641491413116455 0.21309715509414673
0.16992756724357605 0.36788448691368103 0.22066755592823029
0.25740835070610046 0.37132513523101807 0.22523804008960724
0.36788633465766907 0.36902967095375061 0.22670342028141022
0.49210318922996521 0.36314818263053894 0.22440753877162933
0.61747217178344727 0.35768935084342957 0.21876992285251617
0.73760247230529785 0.35302001237869263 0.21599186956882477
0.84820413589477539 0.35038146376609802 0.21580901741981506
0.93944293260574341 0.35121843218803406 0.21884755790233612
0.99542611837387085 0.35535702109336853 0.22414571046829224
1 0.35939720273017883 0.22907301783561707
0.02827523835003376 0.42619976401329041 0.2104976624250412
0.045979876071214676 0.44841387867927551 0.21979877352714539
0.089867763221263885 0.46385505795478821 0.22854040563106537
0.16893403232097626 0.46852433681488037 0.23859819769859314
0.27294793725013733 0.46628639101982117 0.24478299915790558
0.38892805576324463 0.46293407678604126 0.24199844896793365
0.51114082336425781 0.45932471752166748 0.23303200304508209
0.6348225474357605 0.45503449440002441 0.22302035987377167
0.75534307956695557 0.44985440373420715 0.2182871401309967
0.86474281549453735 0.44693252444267273 0.2175498902797699
0.95349681377410889 0.44791406393051147 0.21944426000118256
0.99864047765731812 0.45182877779006958 0.2236173152923584
1 0.45489814877510071 0.22820179164409637
0.0028266606386750937 0.53661811351776123 0.21851122379302979
0.03730257973074913 0.55053234100341797 0.2323826402425766
0.091753937304019928 0.5632818341255188 0.24124772846698761
0.174085333943367 0.56752282381057739 0.24904230237007141
0.27943414449691772 0.56534320116043091 0.25243937969207764
0.39559730887413025 0.56171649694442749 0.24671214818954468
0.51580017805099487 0.55816882848739624 0.23498612642288208
0.63730597496032715 0.55335623025894165 0.22423067688941956
0.755501389503479 0.54751652479171753 0.21950958669185638
0.86244726181030273 0.54385471343994141 0.21840135753154755
0.95262455940246582 0.54399800300598145 0.21960209310054779
0.99850624799728394 0.54675239324569702 0.22299915552139282
1 0.54890167713165283 0.22674314677715302
0.00036980124423280358 0.63897192478179932 0.22683438658714294
0.033488433808088303 0.6505466103553772 0.23997749388217926
0.096052385866641998 0.66131728887557983 0.24783295392990112
0.17903521656990051 0.66574007272720337 0.25262451171875
0.28242671489715576 0.66410660743713379 0.25316318869590759
0.39779901504516602 0.65908890962600708 0.24725481867790222
0.5175895094871521 0.65310269594192505 0.23699510097503662
0.63767188787460327 0.64644324779510498 0.22754625976085663
0.75222629308700562 0.64018619060516357 0.22221089899539948
0.8562849760055542 0.63642507791519165 0.22045144438743591
0.9434242844581604 0.63582617044448853 0.22135420143604279
0.99592763185501099 0.6369202733039856 0.22330394387245178
1 0.63720232248306274 0.22662918269634247
0 0.73780375719070435 0.23253066837787628
0.026947515085339546 0.74970501661300659 0.24301283061504364
0.095747895538806915 0.75857412815093994 0.24975906312465668
0.18136884272098541 0.76176261901855469 0.25332176685333252
0.28363904356956482 0.75898879766464233 0.25286301970481873
0.39804345369338989 0.75214391946792603 0.24738653004169464
0.51804327964782715 0.74310636520385742 0.23898394405841827
0.63724184036254883 0.73391842842102051 0.23059390485286713
0.74929755926132202 0.72665941715240479 0.22492794692516327
0.84912997484207153 0.72256356477737427 0.22230492532253265
0.93264448642730713 0.7215086817741394 0.22233186662197113
0.99123573303222656 0.72148662805557251 0.22424100339412689
1 0.72010195255279541 0.22653675079345703
0 0.83169698715209961 0.23640051484107971
0.02396048791706562 0.84333032369613647 0.24497951567173004
0.095833241939544678 0.85094761848449707 0.25057536363601685
0.18318299949169159 0.85272490978240967 0.25357553362846375
0.28425422310829163 0.84875833988189697 0.25324910879135132
0.39774799346923828 0.8398439884185791 0.24831543862819672
0.51657092571258545 0.82823807001113892 0.24101236462593079
0.63471817970275879 0.81656950712203979 0.23316952586174011
0.74443191289901733 0.80763453245162964 0.22738136351108551
0.84105551242828369 0.80261689424514771 0.2241838276386261
0.92233991622924805 0.80105870962142944 0.22249630093574524
0.98538589477539062 0.80011200904846191 0.22476372122764587
1 0.79808443784713745 0.22618059813976288
0 0.92018449306488037 0.23889993131160736
0.024306578561663628 0.93069088459014893 0.24652276933193207
0.098540917038917542 0.93686306476593018 0.25160965323448181
0.18575045466423035 0.93752968311309814 0.25361520051956177
0.28568357229232788 0.93263214826583862 0.25361520051956177
0.39640867710113525 0.92254841327667236 0.24953764677047729
0.51368510723114014 0.90878885984420776 0.24271354079246521
0.62988793849945068 0.89485490322113037 0.23515611886978149
0.73763579130172729 0.88393235206604004 0.22877500951290131
0.83200865983963013 0.87773841619491577 0.22590085864067078
0.91181677579879761 0.87522393465042114 0.2222478836774826
0.97787582874298096 0.87408721446990967 0.22275693714618683
1 0.87197571992874146 0.22454825043678284
0 0.99149727821350098 0.23971240222454071
0.026152770966291428 0.99515682458877563 0.24693523347377777
0.1027483344078064 0.99703848361968994 0.25158077478408813
0.1902453601360321 0.99708914756774902 0.25361514091491699
0.28837943077087402 0.99506890773773193 0.25354781746864319
0.39624926447868347 0.99060308933258057 0.24950249493122101
0.51018673181533813 0.98173683881759644 0.24314513802528381
0.6232648491859436 0.96971589326858521 0.23592831194400787
0.72842901945114136 0.95790934562683105 0.22940319776535034
0.82085525989532471 0.95067417621612549 0.22547203302383423
0.89992940425872803 0.94726449251174927 0.22224265336990356
0.96723181009292603 0.94562137126922607 0.22224248945713043
0.99988746643066406 0.94358593225479126 0.22220410406589508
0 1 0.23835322260856628
0.029258279129862785 1 0.24532121419906616
0.1079866886138916 1 0.24976611137390137
0.19554723799228668 1 0.25188890099525452
0.29217016696929932 1 0.25105813145637512
0.39668986201286316 1 0.24772737920284271
0.50595664978027344 1 0.24194130301475525
0.61438202857971191 1 0.23524320125579834
0.71604722738265991 0.99982351064682007 0.22885847091674805
0.80650472640991211 0.99871379137039185 0.22433649003505707
0.88501965999603271 0.99807953834533691 0.22178193926811218
0.95316565036773682 0.99759590625762939 0.21958746016025543
0.99775516986846924 0.99713248014450073 0.21859394013881683
0.026788823306560516 0.028098447248339653 0.027265870943665504
0.039215732365846634 0.042823117226362228 0.041791938245296478
0.05254758894443512 0.054951969534158707 0.054241463541984558
0.068707168102264404 0.068141818046569824 0.068229913711547852
0.084521286189556122 0.08328719437122345 0.084059186279773712
0.099010810256004333 0.098742574453353882 0.099413506686687469
0.1177559494972229 0.11376728862524033 0.11367416381835938
0.15509659051895142 0.12475526332855225 0.12906000018119812
0.21620906889438629 0.13151726126670837 0.14363409578800201
0.31208986043930054 0.12992505729198456 0.15722030401229858
0.43350446224212646 0.11947575211524963 0.17087577283382416
0.56113976240158081 0.10728377103805542 0.18458719551563263
0.7058759331703186 0.090206936001777649 0.19387727975845337
0.074109062552452087 0.072044715285301208 0.071992047131061554
0.090516887605190277 0.088508516550064087 0.088926903903484344
0.1052958145737648 0.10362055152654648 0.10471002757549286
0.12010078877210617 0.12143322825431824 0.12190095335245132
0.13947091996669769 0.13986997306346893 0.13938203454017639
0.16944187879562378 0.15411560237407684 0.15388762950897217
0.220203697681427 0.16313439607620239 0.16507336497306824
0.30891069769859314 0.16429612040519714 0.17577855288982391
0.42450457811355591 0.15927386283874512 0.18527208268642426
0.55937451124191284 0.1474444568157196 0.19506093859672546
0.68932932615280151 0.13624942302703857 0.20751450955867767
0.79065984487533569 0.13308313488960266 0.22268204391002655
0.89482325315475464 0.12876445055007935 0.23268134891986847
0.1229642853140831 0.12659816443920135 0.12605780363082886
0.13569214940071106 0.1473088264465332 0.14459571242332458
0.14627110958099365 0.16691619157791138 0.16151830554008484
0.16098710894584656 0.18936817348003387 0.17892493307590485
0.19432079792022705 0.20866049826145172 0.19416831433773041
0.25641468167304993 0.21810801327228546 0.20525364577770233
0.35345473885536194 0.21588972210884094 0.21382023394107819
0.4773210883140564 0.20774829387664795 0.22064544260501862
0.60167360305786133 0.20004697144031525 0.22846277058124542
0.72814559936523438 0.19133731722831726 0.23607397079467773
0.8406873345375061 0.18572093546390533 0.24568942189216614
0.92633002996444702 0.18809649348258972 0.25831454992294312
0.98973727226257324 0.19003939628601074 0.26571127772331238
0.13824076950550079 0.20582790672779083 0.18455672264099121
0.13527578115463257 0.23372733592987061 0.2017311304807663
0.14492173492908478 0.25687086582183838 0.21702028810977936
0.1771073192358017 0.27556055784225464 0.23183998465538025
0.23717072606086731 0.28771799802780151 0.24375207722187042
0.32936298847198486 0.28950345516204834 0.25217422842979431
0.44925081729888916 0.28208804130554199 0.25738745927810669
0.57825326919555664 0.27363112568855286 0.25973883271217346
0.69831633567810059 0.26781222224235535 0.26411014795303345
0.81329953670501709 0.26331242918968201 0.26716110110282898
0.91427302360534668 0.26168403029441833 0.2717633843421936
0.98690986633300781 0.26487371325492859 0.27889478206634521
1 0.26827695965766907 0.28421127796173096
0.086790271103382111 0.31466957926750183 0.22962005436420441
0.087206564843654633 0.34282875061035156 0.2460709810256958
0.114226333796978 0.3626093864440918 0.26002070307731628
0.1743050217628479 0.37281548976898193 0.27260565757751465
0.26190999150276184 0.37580987811088562 0.28203460574150085
0.37252262234687805 0.37243986129760742 0.28665715456008911
0.49761134386062622 0.36569055914878845 0.28583410382270813
0.62461715936660767 0.35978859663009644 0.28135332465171814
0.74400454759597778 0.35519692301750183 0.27871027588844299
0.85355526208877563 0.35293072462081909 0.27773898839950562
0.94709646701812744 0.35340797901153564 0.28046056628227234
0.99861758947372437 0.35563316941261292 0.28579545021057129
1 0.35852733254432678 0.29074987769126892
0.019905688241124153 0.43426954746246338 0.25880753993988037
0.044013828039169312 0.45403939485549927 0.27546054124832153
0.092760525643825531 0.46765232086181641 0.28821489214897156
0.17130583524703979 0.47269943356513977 0.29840186238288879
0.27329382300376892 0.47157368063926697 0.30420282483100891
