assets/lut/alexjordan green g 09.cube
# Created by: G'MIC (https://gmic.eu)
TITLE "green_g_09"
# LUT size
LUT_3D_SIZE 13
# Data domain
DOMAIN_MIN 0.0 0.0 0.0
DOMAIN_MAX 1.0 1.0 1.0
# LUT data points
0 0 0
0 0 0
0 0 0
0.00010501637007109821 0 0.00014917709631845355
0.0049041747115552425 0.0027723724488168955 0.0043782251887023449
0.022113202139735222 0.0083098318427801132 0.016103288158774376
0.053698714822530746 0.014517002739012241 0.038286697119474411
0.10878738760948181 0.027473568916320801 0.072308003902435303
0.17833271622657776 0.038450069725513458 0.1125841960310936
0.26403346657752991 0.041256967931985855 0.16207705438137054
0.362682044506073 0.042073015123605728 0.21339893341064453
0.47552105784416199 0.039889976382255554 0.26678907871246338
0.60258549451828003 0.032132796943187714 0.3174501359462738
0.001050851889885962 0.0020863101817667484 0.0017421498196199536
0.0036924174055457115 0.0075992359779775143 0.0060750623233616352
0.013587816618382931 0.016957227140665054 0.010734708048403263
0.040153592824935913 0.033256635069847107 0.025289542973041534
0.084632307291030884 0.052645828574895859 0.052047684788703918
0.14711979031562805 0.064482368528842926 0.083124794065952301
0.21680048108100891 0.073041684925556183 0.11962246149778366
0.28529214859008789 0.084886156022548676 0.15727615356445312
0.36470893025398254 0.092895016074180603 0.1962176114320755
0.46610388159751892 0.09234173595905304 0.24147093296051025
0.56880718469619751 0.091373279690742493 0.2886996865272522
0.65919244289398193 0.093819744884967804 0.33517560362815857
0.7600398063659668 0.09145800769329071 0.37933105230331421
0.02089303731918335 0.057733945548534393 0.023467613384127617
0.038236238062381744 0.082867763936519623 0.033324867486953735
0.06618005782365799 0.10445113480091095 0.04111417755484581
0.11040662974119186 0.12304985523223877 0.057361558079719543
0.1751936674118042 0.13628606498241425 0.081992477178573608
0.26059436798095703 0.14437218010425568 0.10966117680072784
0.34688383340835571 0.15019088983535767 0.15034997463226318
0.42553779482841492 0.15681508183479309 0.19690646231174469
0.51095592975616455 0.16194112598896027 0.23964735865592957
0.6112791895866394 0.16053253412246704 0.28222817182540894
0.70876854658126831 0.15764431655406952 0.3256375789642334
0.79008954763412476 0.15858915448188782 0.36814293265342712
0.87293165922164917 0.15778617560863495 0.40760019421577454
0.044761240482330322 0.16041524708271027 0.031886037439107895
0.077875055372714996 0.18581748008728027 0.046489790081977844
0.11836483329534531 0.20719720423221588 0.059068161994218826
0.17123442888259888 0.22284118831157684 0.0749855637550354
0.24030254781246185 0.23421871662139893 0.089687690138816833
0.32807713747024536 0.2412761002779007 0.10730890184640884
0.42333653569221497 0.24171708524227142 0.14885921776294708
0.51464158296585083 0.24153055250644684 0.19900818169116974
0.60464006662368774 0.24296550452709198 0.24309945106506348
0.69846546649932861 0.24057510495185852 0.28512200713157654
0.79114228487014771 0.23472163081169128 0.32865068316459656
0.87466514110565186 0.23027564585208893 0.3717835545539856
0.953338623046875 0.2268100380897522 0.41151288151741028
0.080051258206367493 0.26707392930984497 0.043756432831287384
0.12528067827224731 0.28785866498947144 0.063453465700149536
0.17191554605960846 0.30705609917640686 0.075911231338977814
0.22796016931533813 0.31961017847061157 0.08874029666185379
0.29582279920578003 0.32871848344802856 0.098034650087356567
0.37615254521369934 0.3350490927696228 0.10883463174104691
0.46805688738822937 0.33383458852767944 0.13963967561721802
0.56571966409683228 0.32845261693000793 0.18388040363788605
0.66105949878692627 0.32481318712234497 0.22556522488594055
0.75485408306121826 0.31946858763694763 0.2670595645904541
0.84757137298583984 0.31043791770935059 0.31137102842330933
0.93475353717803955 0.30245044827461243 0.35577130317687988
0.99368101358413696 0.29596701264381409 0.39830771088600159
0.13112728297710419 0.35791400074958801 0.070748351514339447
0.181690514087677 0.37551239132881165 0.089734368026256561
0.22729207575321198 0.39389881491661072 0.094605058431625366
0.27983585000038147 0.4063948392868042 0.098175704479217529
0.3428187370300293 0.41446775197982788 0.10116998851299286
0.41802528500556946 0.41854625940322876 0.10855521261692047
0.50652456283569336 0.41545465588569641 0.13177801668643951
0.60400843620300293 0.40766811370849609 0.16772247850894928
0.70059901475906372 0.40081682801246643 0.20401066541671753
0.79662436246871948 0.39289447665214539 0.24287281930446625
0.89190101623535156 0.38284483551979065 0.28561124205589294
0.976795494556427 0.37333226203918457 0.32981327176094055
0.99996769428253174 0.36495241522789001 0.37509304285049438
0.18155397474765778 0.4389723539352417 0.090449824929237366
0.23130179941654205 0.45503157377243042 0.10534162074327469
0.2767585813999176 0.47122082114219666 0.10637015849351883
0.32490155100822449 0.48394486308097839 0.10154679417610168
0.382245272397995 0.49240553379058838 0.096989996731281281
0.4547111988067627 0.49471181631088257 0.10230940580368042
0.54154509305953979 0.490488201379776 0.12112245708703995
0.63744765520095825 0.48217064142227173 0.14935113489627838
0.73566693067550659 0.47352701425552368 0.18169437348842621
0.8345412015914917 0.4642578661441803 0.21889650821685791
0.93270528316497803 0.45361202955245972 0.26021197438240051
0.99652069807052612 0.44304126501083374 0.30416399240493774
1 0.4335939884185791 0.34891033172607422
0.22634780406951904 0.51511204242706299 0.10087331384420395
0.27393019199371338 0.53010672330856323 0.11191593110561371
0.31919923424720764 0.54397207498550415 0.11155063658952713
0.36601796746253967 0.55556976795196533 0.10391686856746674
0.42021191120147705 0.56384408473968506 0.09525463730096817
0.49080565571784973 0.56598424911499023 0.096793152391910553
0.57586604356765747 0.56229811906814575 0.10956724733114243
0.67070585489273071 0.5549311637878418 0.13124886155128479
0.77013450860977173 0.54633665084838867 0.16051749885082245
0.87127602100372314 0.5361371636390686 0.19597136974334717
0.96828305721282959 0.52446645498275757 0.23620609939098358
0.99997234344482422 0.51300054788589478 0.27882006764411926
1 0.50274229049682617 0.32190617918968201
0.26826086640357971 0.5878177285194397 0.10583055019378662
0.3139708936214447 0.6013684868812561 0.11497935652732849
0.35925540328025818 0.61327356100082397 0.11444790661334991
0.40620747208595276 0.62389588356018066 0.10683951526880264
0.46129867434501648 0.63170695304870605 0.097777649760246277
0.52922087907791138 0.63499850034713745 0.093995325267314911
0.61144232749938965 0.6332353949546814 0.098852552473545074
0.70478606224060059 0.62762975692749023 0.11374756693840027
0.80433320999145508 0.61933362483978271 0.13975779712200165
0.90635871887207031 0.60829693078994751 0.17326599359512329
0.98981034755706787 0.59557676315307617 0.21121317148208618
1 0.58355253934860229 0.25158199667930603
1 0.57259476184844971 0.29257389903068542
0.30773785710334778 0.65878397226333618 0.10459240525960922
0.35245844721794128 0.67110759019851685 0.11331191658973694
0.39754182100296021 0.68211615085601807 0.11286351829767227
0.44511023163795471 0.69218748807907104 0.10531538724899292
0.50037264823913574 0.70030945539474487 0.094741955399513245
0.56696438789367676 0.70490825176239014 0.086474522948265076
0.64736855030059814 0.70491564273834229 0.085040882229804993
0.73906910419464111 0.70040601491928101 0.094463974237442017
0.83799034357070923 0.69185870885848999 0.116103395819664
0.93932801485061646 0.67994785308837891 0.14774943888187408
0.99862343072891235 0.66714358329772949 0.18363259732723236
1 0.65480697154998779 0.2217857837677002
1 0.64356112480163574 0.26086965203285217
0.34506919980049133 0.7292056679725647 0.095312394201755524
0.38931724429130554 0.7410845160484314 0.10396966338157654
0.43404540419578552 0.75195527076721191 0.10374455153942108
0.48183095455169678 0.76233172416687012 0.095587156713008881
0.53635716438293457 0.77114695310592651 0.083339467644691467
0.60234498977661133 0.77667319774627686 0.071700677275657654
0.68163394927978516 0.77756398916244507 0.066238567233085632
0.77248167991638184 0.7734837532043457 0.070937171578407288
0.87028747797012329 0.76471519470214844 0.089193783700466156
0.9672204852104187 0.75266683101654053 0.11848464608192444
0.99998205900192261 0.73972862958908081 0.15279076993465424
1 0.72733169794082642 0.1896631270647049
1 0.71580159664154053 0.22740726172924042
0.3815770149230957 0.79996830224990845 0.078432090580463409
0.42525866627693176 0.81188970804214478 0.08697858452796936
0.46978521347045898 0.82334589958190918 0.086684629321098328
0.51720499992370605 0.83414143323898315 0.078454472124576569
0.57084828615188599 0.84360653162002563 0.065086200833320618
0.63606220483779907 0.84961527585983276 0.051746923476457596
0.71464991569519043 0.85070967674255371 0.043626867234706879
0.80437391996383667 0.84679025411605835 0.045804746448993683
0.90080958604812622 0.83808177709579468 0.061157405376434326
0.98654860258102417 0.82634341716766357 0.087726965546607971
1 0.81326824426651001 0.12078205496072769
1 0.80083674192428589 0.15657289326190948
1 0.78880250453948975 0.19361712038516998
0.41922417283058167 0.87078022956848145 0.055798877030611038
0.46259286999702454 0.88313472270965576 0.064351849257946014
0.50715267658233643 0.89498740434646606 0.064214415848255157
0.55442255735397339 0.90616118907928467 0.056495413184165955
0.60811781883239746 0.9158443808555603 0.043890349566936493
0.67197602987289429 0.92195659875869751 0.031208965927362442
0.75011724233627319 0.92298662662506104 0.023450110107660294
0.83813667297363281 0.91901177167892456 0.023904373869299889
0.93321973085403442 0.91085350513458252 0.036217276006937027
0.99726885557174683 0.89971214532852173 0.060100704431533813
1 0.88702672719955444 0.090999975800514221
1 0.87446320056915283 0.12524132430553436
1 0.86236065626144409 0.16070428490638733
0 0 0
0 0 0
0 0 0
8.0781821452546865e-05 0.00016623103874735534 0.0014230167726054788
0.0041030584834516048 0.0036423476412892342 0.0096068289130926132
0.019590236246585846 0.010306698270142078 0.025443432852625847
0.049802325665950775 0.022242018952965736 0.055671572685241699
0.10271498560905457 0.038718413561582565 0.097293004393577576
0.17051008343696594 0.050312355160713196 0.14496822655200958
0.24713654816150665 0.05621197447180748 0.20123365521430969
0.33335554599761963 0.060302406549453735 0.25695613026618958
0.43190613389015198 0.062004521489143372 0.31037965416908264
0.5433889627456665 0.058634050190448761 0.35944435000419617
0.0012593886349350214 0.0049765342846512794 0.0040669757872819901
0.0051365271210670471 0.013660909608006477 0.012697541154921055
0.014475774019956589 0.024580651894211769 0.026764484122395515
0.036201894283294678 0.042458076030015945 0.054362159222364426
0.071610517799854279 0.062156528234481812 0.084279768168926239
0.12017399072647095 0.076956853270530701 0.11818892508745193
0.17549215257167816 0.09227442741394043 0.15577365458011627
0.24325963854789734 0.10457857698202133 0.19754116237163544
0.32288375496864319 0.11238077282905579 0.24204361438751221
0.40947306156158447 0.1169002577662468 0.28795331716537476
0.49463924765586853 0.12111947685480118 0.33304861187934875
0.57761305570602417 0.12595656514167786 0.37719994783401489
0.67387014627456665 0.12520483136177063 0.4198291003704071
0.017182966694235802 0.070381790399551392 0.042378414422273636
0.035939924418926239 0.095698654651641846 0.061848659068346024
0.060741767287254333 0.11600810289382935 0.084576912224292755
0.097459517419338226 0.13605253398418427 0.11432357132434845
0.14720137417316437 0.15231803059577942 0.14302033185958862
0.21534772217273712 0.16377826035022736 0.17675827443599701
0.29070302844047546 0.1731439083814621 0.21584548056125641
0.3675876259803772 0.18001054227352142 0.25755754113197327
0.4497627317905426 0.18569342792034149 0.29969120025634766
0.53755480051040649 0.18847823143005371 0.33910918235778809
0.62206965684890747 0.19032348692417145 0.37811771035194397
0.69785505533218384 0.19327552616596222 0.41686153411865234
0.7826116681098938 0.19221188127994537 0.45541268587112427
0.036669906228780746 0.17256470024585724 0.072410076856613159
0.069386802613735199 0.19688482582569122 0.095419265329837799
0.10764922946691513 0.21752135455608368 0.12065114080905914
0.15578645467758179 0.23400640487670898 0.15106938779354095
0.21410147845745087 0.24803370237350464 0.17440630495548248
0.28770512342453003 0.2598840594291687 0.1926557868719101
0.37548360228538513 0.26133471727371216 0.2314586341381073
0.46473017334938049 0.2609553337097168 0.27667433023452759
0.54893034696578979 0.26315224170684814 0.31866946816444397
0.63251549005508423 0.26417639851570129 0.35626429319381714
0.71640419960021973 0.26183146238327026 0.39428249001502991
0.79514670372009277 0.25974148511886597 0.4333183765411377
0.87542784214019775 0.2568211555480957 0.47116249799728394
0.068009428679943085 0.28000918030738831 0.099362917244434357
0.11379425972700119 0.2977348268032074 0.12623848021030426
0.16048899292945862 0.31444397568702698 0.15008266270160675
0.21417908370494843 0.32733887434005737 0.17649276554584503
0.27474182844161987 0.33931031823158264 0.19434019923210144
0.34233558177947998 0.35177883505821228 0.1987186074256897
0.42649054527282715 0.35304072499275208 0.22297275066375732
0.52316474914550781 0.3469337522983551 0.26512205600738525
0.61571139097213745 0.34178704023361206 0.30822739005088806
0.70317655801773071 0.33687290549278259 0.34833943843841553
0.78922539949417114 0.33045563101768494 0.38835334777832031
0.87156480550765991 0.32490235567092896 0.42910540103912354
0.95101571083068848 0.32016828656196594 0.4684232771396637
0.11743947863578796 0.37168481945991516 0.13095849752426147
0.16909004747867584 0.38566648960113525 0.15776205062866211
0.21599915623664856 0.40056663751602173 0.1740744411945343
0.26704806089401245 0.41245368123054504 0.1905779242515564
0.3244684636592865 0.42258700728416443 0.20172411203384399
0.38884317874908447 0.43153548240661621 0.2041652500629425
0.46827632188796997 0.43221524357795715 0.21782086789608002
0.56170845031738281 0.42497062683105469 0.24742065370082855
0.65681880712509155 0.4163506031036377 0.28335678577423096
0.75127911567687988 0.40765297412872314 0.32344850897789001
0.84475117921829224 0.39812520146369934 0.36698126792907715
0.93260419368743896 0.39032652974128723 0.40985417366027832
0.99326986074447632 0.38427039980888367 0.45091009140014648
0.16860751807689667 0.45145478844642639 0.1543990820646286
0.21933121979236603 0.46479296684265137 0.17612074315547943
0.26556038856506348 0.4780271053314209 0.18745243549346924
0.31236898899078369 0.4892737865447998 0.19511863589286804
0.36520278453826904 0.49809476733207703 0.19974806904792786
0.4278620183467865 0.50382906198501587 0.20205876231193542
0.50526803731918335 0.50355422496795654 0.21052376925945282
0.59580308198928833 0.4965585470199585 0.2298714816570282
0.69307202100753784 0.48727983236312866 0.25871270895004272
0.7922135591506958 0.47760865092277527 0.29635477066040039
0.89094966650009155 0.46707633137702942 0.33977800607681274
0.97769105434417725 0.45758211612701416 0.38395577669143677
0.99996447563171387 0.44998767971992493 0.42614284157752991
0.21473230421543121 0.52612918615341187 0.16810543835163116
0.26289457082748413 0.53843098878860474 0.18541118502616882
0.30820530652999878 0.54970163106918335 0.19435364007949829
0.35314333438873291 0.55953621864318848 0.1985047310590744
0.40343502163887024 0.56724894046783447 0.1997905820608139
0.46482029557228088 0.57249361276626587 0.19814808666706085
0.54072022438049316 0.57309305667877197 0.20016416907310486
0.63020354509353638 0.56796711683273315 0.21189811825752258
0.72890901565551758 0.55921107530593872 0.23636619746685028
0.83086329698562622 0.54909580945968628 0.27107915282249451
0.93251264095306396 0.53756290674209595 0.31235793232917786
0.99692237377166748 0.52656346559524536 0.35575681924819946
1 0.51724338531494141 0.39788675308227539
0.25749540328979492 0.59741711616516113 0.17704254388809204
0.30368971824645996 0.60827088356018066 0.19181150197982788
0.34821668267250061 0.61809873580932617 0.19900158047676086
0.39295858144760132 0.62704002857208252 0.20048956573009491
0.44297760725021362 0.63477867841720581 0.19789683818817139
0.50356251001358032 0.64077693223953247 0.19193926453590393
0.57837682962417603 0.64307105541229248 0.18836930394172668
0.66649860143661499 0.63997071981430054 0.195132777094841
0.76402360200881958 0.63240456581115723 0.21454939246177673
0.86651206016540527 0.62178975343704224 0.24602708220481873
0.96638298034667969 0.60924392938613892 0.28428754210472107
0.99998551607131958 0.59682506322860718 0.32561150193214417
1 0.58627468347549438 0.36691170930862427
0.29743844270706177 0.6668318510055542 0.17932987213134766
0.34233152866363525 0.6767163872718811 0.19309864938259125
0.38686418533325195 0.68559473752975464 0.1990208625793457
0.43218430876731873 0.69471687078475952 0.19739353656768799
0.48235636949539185 0.70361173152923584 0.19012340903282166
0.54309248924255371 0.71055001020431519 0.18003605306148529
0.61682975292205811 0.71371138095855713 0.17309559881687164
0.70282506942749023 0.71185272932052612 0.17503625154495239
0.79869556427001953 0.70492631196975708 0.19093082845211029
0.89987802505493164 0.69386869668960571 0.219029501080513
0.98750561475753784 0.68078041076660156 0.25440296530723572
1 0.66815900802612305 0.2933661937713623
1 0.6568482518196106 0.3332621157169342
0.33417001366615295 0.73666507005691528 0.17143614590167999
0.37864595651626587 0.74611371755599976 0.18512775003910065
0.42312511801719666 0.75497758388519287 0.19030719995498657
0.46898919343948364 0.7648007869720459 0.18619453907012939
0.51993924379348755 0.77456378936767578 0.17534869909286499
0.58038789033889771 0.78198117017745972 0.16182401776313782
0.65318387746810913 0.78568679094314575 0.15135693550109863
0.73803329467773438 0.78427547216415405 0.15059018135070801
0.83209270238876343 0.77734076976776123 0.16393792629241943
0.93159943819046021 0.76611590385437012 0.18912532925605774
0.99750584363937378 0.75311565399169922 0.22218643128871918
1 0.74033224582672119 0.25948521494865417
1 0.72868156433105469 0.29829457402229309
0.36955702304840088 0.80726003646850586 0.15468469262123108
0.41344514489173889 0.81740677356719971 0.16775797307491302
0.45787802338600159 0.82703018188476562 0.1716984361410141
0.5040438175201416 0.83727484941482544 0.16655121743679047
0.55520850419998169 0.84727740287780762 0.15406337380409241
0.61568403244018555 0.85506778955459595 0.13863028585910797
0.6879851222038269 0.85871487855911255 0.12551465630531311
0.77145826816558838 0.85718035697937012 0.12199933081865311
0.86423826217651367 0.85023844242095947 0.13371358811855316
0.96067869663238525 0.83909523487091064 0.15788204967975616
0.99990290403366089 0.82621574401855469 0.18968488276004791
1 0.81345200538635254 0.22566528618335724
1 0.8016236424446106 0.26336130499839783
0.40591323375701904 0.87850695848464966 0.13240949809551239
0.44940909743309021 0.88940328359603882 0.14425286650657654
0.49373617768287659 0.89980411529541016 0.14759825170040131
0.54038602113723755 0.91044491529464722 0.14241020381450653
0.59199005365371704 0.92015171051025391 0.13031004369258881
0.65280437469482422 0.9276273250579834 0.11473614722490311
0.72474271059036255 0.93096178770065308 0.10068200528621674
0.80705910921096802 0.92946916818618774 0.095869608223438263
0.89826267957687378 0.92263269424438477 0.10660808533430099
0.9841388463973999 0.91191285848617554 0.12979039549827576
1 0.89947420358657837 0.15999947488307953
1 0.88692480325698853 0.19425930082798004
1 0.87513083219528198 0.23021155595779419
0 0 0
0 0 0
0 0 1.7951517293113284e-05
0.00036441578413359821 0.00094371120212599635 0.0039128772914409637
0.0056315106339752674 0.0066489423625171185 0.01766650564968586
0.021913116797804832 0.016698366031050682 0.041545763611793518
0.054384075105190277 0.031666789203882217 0.079154118895530701
0.10662765800952911 0.04683564230799675 0.12809579074382782
0.17142783105373383 0.057086825370788574 0.18475137650966644
0.24021962285041809 0.066035881638526917 0.24189506471157074
0.31577306985855103 0.07339911162853241 0.29802593588829041
0.40029910206794739 0.079253986477851868 0.35037070512771606
0.49694818258285522 0.080780327320098877 0.39704516530036926
0.00017942540580406785 0.0055695329792797565 0.0059776753187179565
0.0034568638075143099 0.017496310174465179 0.018789028748869896
0.013111353851854801 0.033466622233390808 0.040030684322118759
0.034301698207855225 0.054527837783098221 0.074959531426429749
0.066591627895832062 0.07472933828830719 0.11127077043056488
0.10826986283063889 0.091222278773784637 0.14967037737369537
0.15914694964885712 0.10576816648244858 0.19150190055370331
0.21907772123813629 0.11901281028985977 0.23656369745731354
0.2905983030796051 0.1279871016740799 0.2845039963722229
0.36469990015029907 0.13685213029384613 0.32933142781257629
0.43883669376373291 0.14539754390716553 0.3729323148727417
0.51299810409545898 0.15289311110973358 0.41416209936141968
0.60207760334014893 0.15494272112846375 0.45411986112594604
0.008061487227678299 0.077595517039299011 0.059371452778577805
0.027187570929527283 0.10508434474468231 0.086264140903949738
0.052430726587772369 0.12889252603054047 0.11629953980445862
0.08860141783952713 0.15068338811397552 0.15128099918365479
0.1344665139913559 0.16810120642185211 0.18799211084842682
0.18777759373188019 0.18269346654415131 0.22421593964099884
0.24818836152553558 0.1933053582906723 0.26307192444801331
0.31338465213775635 0.20380815863609314 0.30121228098869324
0.38599464297294617 0.21201902627944946 0.34168428182601929
0.46582132577896118 0.21716475486755371 0.38179591298103333
0.54440772533416748 0.22085313498973846 0.42006325721740723
0.61661750078201294 0.2254134863615036 0.45614424347877502
0.70026135444641113 0.22524988651275635 0.49310392141342163
0.024983171373605728 0.18377816677093506 0.10843700170516968
0.056530807167291641 0.20797646045684814 0.13659510016441345
0.094479717314243317 0.22952328622341156 0.16714842617511749
0.142777219414711 0.24722667038440704 0.20380400121212006
0.19933827221393585 0.26157709956169128 0.23839583992958069
0.25968310236930847 0.2740749716758728 0.26698189973831177
0.32704168558120728 0.28018295764923096 0.29901349544525146
0.4051489531993866 0.28633102774620056 0.33555537462234497
0.48022693395614624 0.29122397303581238 0.37409600615501404
0.5608629584312439 0.2921488881111145 0.41117966175079346
0.64186197519302368 0.29003816843032837 0.44698253273963928
0.71685218811035156 0.28952091932296753 0.48334589600563049
0.79596799612045288 0.28713750839233398 0.51979345083236694
0.055015068501234055 0.29090052843093872 0.1463361531496048
0.097789496183395386 0.30857199430465698 0.17552483081817627
0.14539232850074768 0.32438626885414124 0.20526282489299774
0.20057304203510284 0.33702433109283447 0.24086341261863708
0.26008877158164978 0.34953927993774414 0.27120906114578247
0.31952571868896484 0.36232516169548035 0.28823414444923401
0.38987931609153748 0.36737579107284546 0.30722078680992126
0.48110297322273254 0.36565139889717102 0.34257373213768005
0.56715327501296997 0.36149033904075623 0.3832651674747467
0.65012723207473755 0.35660725831985474 0.42093068361282349
0.7292473316192627 0.35135135054588318 0.45596829056739807
0.80529701709747314 0.34796762466430664 0.49201342463493347
0.88263398408889771 0.34517374634742737 0.52829784154891968
0.10101202875375748 0.38388082385063171 0.17894886434078217
0.15044298768043518 0.39758163690567017 0.20741651952266693
0.20118720829486847 0.40963679552078247 0.23368377983570099
0.25483506917953491 0.42010575532913208 0.26210051774978638
0.31052961945533752 0.43031758069992065 0.28462293744087219
0.36714780330657959 0.4407002329826355 0.29420524835586548
0.43394738435745239 0.44501367211341858 0.30273622274398804
0.52142214775085449 0.44070476293563843 0.32395821809768677
