assets/lut/alexjordan cross process cp 14.cube
# Created by: G'MIC (https://gmic.eu)
TITLE "cross_process_cp_14"
# LUT size
LUT_3D_SIZE 5
# Data domain
DOMAIN_MIN 0.0 0.0 0.0
DOMAIN_MAX 1.0 1.0 1.0
# LUT data points
0 0.019577085971832275 0.019291402772068977
0.073488764464855194 0.0095813972875475883 0.016225507482886314
0.33543568849563599 0.00095591827994212508 0.0071724685840308666
0.68763256072998047 0.0040972540155053139 0.00021294986072462052
1 0.0030450709164142609 0
0 0.15186358988285065 0.01364288292825222
0.08099009096622467 0.15645922720432281 0.014753139577805996
0.35802146792411804 0.13872067630290985 0.0041650212369859219
0.72347164154052734 0.10662859678268433 0
1 0.085741810500621796 0.0026152366772294044
0 0.3651929497718811 0.0026223426684737206
0.093615077435970306 0.37172234058380127 0.012928263284265995
0.36534824967384338 0.36125385761260986 0.0062795304693281651
0.74409419298171997 0.32534265518188477 0
1 0.29156020283699036 0.0085317576304078102
0 0.63004595041275024 0
0.095094002783298492 0.6368224024772644 0.0048727896064519882
0.37916827201843262 0.62844926118850708 0.0060832006856799126
0.76040196418762207 0.60517615079879761 0.00086264515994116664
1 0.57940137386322021 0.015766428783535957
0 0.92852532863616943 0
0.1035030409693718 0.93498843908309937 0.0012758142547681928
0.39502549171447754 0.92862749099731445 0.0045483158901333809
0.7752344012260437 0.91425317525863647 0.0056614894419908524
1 0.90062123537063599 0.016137620434165001
0 0.024097038432955742 0.1369326263666153
0.079815000295639038 0.0071477554738521576 0.12715017795562744
0.33584967255592346 0.0015493505634367466 0.097160756587982178
0.68851327896118164 0.0038094914052635431 0.029564173892140388
1 0.0040437434799969196 0.012181390076875687
0 0.15427000820636749 0.1315523087978363
0.086913958191871643 0.15870295464992523 0.13441476225852966
0.3599303662776947 0.14005334675312042 0.11214065551757812
0.72919756174087524 0.10365737974643707 0.065855555236339569
1 0.075675830245018005 0.046365939080715179
0.0032957638613879681 0.36195656657218933 0.12106241285800934
0.091874994337558746 0.37900498509407043 0.1406102180480957
0.37041714787483215 0.37192520499229431 0.12735059857368469
0.75178837776184082 0.34048110246658325 0.096428200602531433
1 0.2960590124130249 0.08338223397731781
0 0.62314808368682861 0.10948755592107773
0.080278448760509491 0.64608681201934814 0.13527414202690125
0.3726554811000824 0.64474904537200928 0.13362434506416321
0.76668411493301392 0.62223786115646362 0.10898666083812714
1 0.58886480331420898 0.10502011328935623
0 0.9242212176322937 0.1060643345117569
0.082985900342464447 0.94531071186065674 0.12661638855934143
0.37905183434486389 0.94674193859100342 0.13406801223754883
0.77886652946472168 0.93277555704116821 0.11841385811567307
1 0.91087132692337036 0.11580653488636017
0 0.012639782391488552 0.30297595262527466
0.079811394214630127 0.0092580011114478111 0.29184672236442566
0.3377203643321991 0.0055271522141993046 0.26479396224021912
0.69199901819229126 0.00029359705513343215 0.21355028450489044
1 0 0.1583644300699234
0 0.15510010719299316 0.30345210433006287
0.093683965504169464 0.16448226571083069 0.30938282608985901
0.36610186100006104 0.14636595547199249 0.29261630773544312
0.73362880945205688 0.101632259786129 0.25148248672485352
1 0.068598739802837372 0.20367489755153656
0 0.36480951309204102 0.29831087589263916
0.097517393529415131 0.38382717967033386 0.3183085024356842
0.38414713740348816 0.37822073698043823 0.30948710441589355
0.76508963108062744 0.34715989232063293 0.27482515573501587
1 0.30341631174087524 0.24093720316886902
0.0012680502841249108 0.62297171354293823 0.28525575995445251
0.099482700228691101 0.65182453393936157 0.31275036931037903
0.38015821576118469 0.6573566198348999 0.31534594297409058
0.7808154821395874 0.63281035423278809 0.29160585999488831
1 0.5967705249786377 0.2698223888874054
0.0093617606908082962 0.9232671856880188 0.27917522192001343
0.11444930732250214 0.95459532737731934 0.30774995684623718
0.38591289520263672 0.96324551105499268 0.3185984194278717
0.78680789470672607 0.94645923376083374 0.30557835102081299
1 0.91786670684814453 0.29419291019439697
0 0.0045115603134036064 0.50944799184799194
0.099198780953884125 0.0072168386541306973 0.49862462282180786
0.33813467621803284 0.0066100326366722584 0.47365441918373108
0.69056302309036255 0 0.42366746068000793
1 0 0.36861327290534973
3.2851276046130806e-05 0.14901404082775116 0.51631414890289307
0.10174808651208878 0.15846368670463562 0.52208161354064941
0.35990259051322937 0.14645467698574066 0.50825679302215576
0.73182237148284912 0.10837134718894958 0.46802356839179993
1 0.076052315533161163 0.41638463735580444
0.00070836686063557863 0.36785236001014709 0.51377922296524048
0.098342612385749817 0.38419154286384583 0.53406226634979248
0.38164243102073669 0.37816059589385986 0.52791893482208252
0.76871073246002197 0.34965553879737854 0.49459120631217957
1 0.31136408448219299 0.45448499917984009
0.0081065306439995766 0.63032823801040649 0.5053444504737854
0.11128125339746475 0.65767914056777954 0.53254777193069458
0.39186382293701172 0.66032475233078003 0.53633654117584229
0.78494918346405029 0.63628661632537842 0.51378226280212402
1 0.60331684350967407 0.48508840799331665
0.023086817935109138 0.92892181873321533 0.50642794370651245
0.13361115753650665 0.96303421258926392 0.53337329626083374
0.39900517463684082 0.97110521793365479 0.5445137619972229
0.79553896188735962 0.95386868715286255 0.53129100799560547
1 0.92477679252624512 0.51401734352111816
0.0067507573403418064 0.0051566329784691334 0.73789680004119873
0.1282021552324295 0.0088760824874043465 0.72737711668014526
0.35105401277542114 0.0096245706081390381 0.70460277795791626
0.68275374174118042 0.0015042024897411466 0.66033929586410522
1 0.00047529631410725415 0.60210490226745605
0.0081016244366765022 0.14930933713912964 0.75235080718994141
0.11457481980323792 0.15979336202144623 0.75630301237106323
0.36565598845481873 0.1451011449098587 0.74359691143035889
0.735434889793396 0.096431910991668701 0.70952337980270386
1 0.079456031322479248 0.66005426645278931
0 0.36894083023071289 0.75782859325408936
0.093674875795841217 0.38811108469963074 0.77495169639587402
0.38257181644439697 0.3788590133190155 0.76871263980865479
0.7680242657661438 0.34973955154418945 0.74183660745620728
1 0.32333835959434509 0.69983625411987305
0.013976976275444031 0.62877136468887329 0.75504547357559204
0.1296868771314621 0.65734285116195679 0.7763066291809082
0.40569925308227539 0.66196554899215698 0.78005737066268921
0.7855260968208313 0.64480394124984741 0.76340180635452271
1 0.61996603012084961 0.73070210218429565
0.048956882208585739 0.93327528238296509 0.75684142112731934
0.18257436156272888 0.95929700136184692 0.77697199583053589
0.44209527969360352 0.96838867664337158 0.78669148683547974
0.81946861743927002 0.95735186338424683 0.77766603231430054
1 0.93890440464019775 0.75733870267868042
