assets/lut/alexjordan blue shadows 01.cube
# Created by: G'MIC (https://gmic.eu)
TITLE "blue_shadows_01"
# LUT size
LUT_3D_SIZE 5
# Data domain
DOMAIN_MIN 0.0 0.0 0.0
DOMAIN_MAX 1.0 1.0 1.0
# LUT data points
0.0037184921093285084 0.015538608655333519 0.087323971092700958
0.11254200339317322 0.12167982012033463 0.1949748694896698
0.60503202676773071 0.10786547511816025 0.17897786200046539
0.96321016550064087 0.10594379156827927 0.17436084151268005
1 0.12894561886787415 0.19725292921066284
0.07850976288318634 0.40437290072441101 0.18533949553966522
0.40103420615196228 0.40972450375556946 0.091016747057437897
0.65020519495010376 0.41105043888092041 0.093884319067001343
0.86456835269927979 0.41893443465232849 0.10447097569704056
0.99902898073196411 0.42050263285636902 0.11208579689264297
0.059497173875570297 0.68119782209396362 0.13765725493431091
0.4139673113822937 0.64119517803192139 0.10213702172040939
0.65819758176803589 0.63235467672348022 0.094771005213260651
0.86224758625030518 0.63051992654800415 0.11440794914960861
0.99882388114929199 0.63343155384063721 0.099746063351631165
0.12007224559783936 0.87241965532302856 0.16725963354110718
0.43037104606628418 0.84045910835266113 0.10890586674213409
0.67005658149719238 0.82653665542602539 0.10312431305646896
0.87145626544952393 0.81903755664825439 0.12948359549045563
0.99825072288513184 0.81912589073181152 0.14648467302322388
0.14878366887569427 0.99882906675338745 0.17210292816162109
0.43994134664535522 0.99390530586242676 0.12522575259208679
0.6870008111000061 0.98028171062469482 0.16029077768325806
0.88852572441101074 0.98563587665557861 0.15317609906196594
0.9988284707069397 0.98205322027206421 0.17265833914279938
0.018936516717076302 0.045448660850524902 0.1311374306678772
0.23899707198143005 0.12939664721488953 0.31959325075149536
0.71631085872650146 0.088465884327888489 0.48167803883552551
0.94678115844726562 0.11600089073181152 0.49665713310241699
0.99788433313369751 0.14769692718982697 0.51161664724349976
0.056512631475925446 0.42404773831367493 0.43479937314987183
0.39564710855484009 0.40364420413970947 0.41804563999176025
0.64232826232910156 0.40087029337882996 0.41995012760162354
0.84001451730728149 0.40920650959014893 0.4269440770149231
0.99364060163497925 0.42814576625823975 0.43709316849708557
0.060588404536247253 0.67218530178070068 0.46607977151870728
0.40720373392105103 0.63275372982025146 0.42345932126045227
0.64931291341781616 0.62509679794311523 0.42277467250823975
0.8424382209777832 0.62661129236221313 0.43018022179603577
0.99356234073638916 0.62855368852615356 0.42777001857757568
0.071812137961387634 0.87373971939086914 0.47173047065734863
0.42121267318725586 0.83036476373672485 0.42997604608535767
0.66786444187164307 0.81136339902877808 0.42074015736579895
0.86119449138641357 0.80706465244293213 0.44836252927780151
0.9956621527671814 0.80934256315231323 0.45093438029289246
0.10764011740684509 0.99804466962814331 0.50157999992370605
0.44161501526832581 0.9944567084312439 0.43689832091331482
0.68511545658111572 0.98137009143829346 0.44721710681915283
0.87829172611236572 0.96744251251220703 0.46195521950721741
0.99862170219421387 0.9717068076133728 0.498292475938797
0.045690871775150299 0.090995803475379944 0.18049438297748566
0.36019676923751831 0.11630342900753021 0.51419270038604736
0.73050308227539062 0.10694150626659393 0.65722715854644775
0.93007272481918335 0.12815767526626587 0.66131418943405151
0.99780309200286865 0.1567734032869339 0.66885817050933838
0.057239517569541931 0.43314534425735474 0.59643971920013428
0.39763456583023071 0.40997210144996643 0.59359920024871826
0.64197570085525513 0.41453412175178528 0.59024947881698608
0.83627212047576904 0.41654807329177856 0.59262984991073608
0.99471122026443481 0.43687903881072998 0.59955054521560669
0.088555231690406799 0.67244195938110352 0.63319879770278931
0.41223686933517456 0.63457947969436646 0.59975916147232056
0.64850682020187378 0.62448543310165405 0.59353888034820557
0.83637970685958862 0.63125848770141602 0.59703457355499268
0.99312072992324829 0.63041442632675171 0.59559297561645508
0.085596524178981781 0.87299937009811401 0.64878386259078979
0.43216556310653687 0.82772636413574219 0.60773235559463501
0.66898649930953979 0.81179893016815186 0.60389506816864014
0.85802567005157471 0.80799406766891479 0.61654388904571533
0.99499428272247314 0.81160211563110352 0.60766637325286865
0.12764258682727814 0.99589282274246216 0.66088896989822388
0.443582683801651 0.98981153964996338 0.61638808250427246
0.68625110387802124 0.9756016731262207 0.61951488256454468
0.88798815011978149 0.96822571754455566 0.63902169466018677
0.99887669086456299 0.96860808134078979 0.64821046590805054
0.077309548854827881 0.13418757915496826 0.25807428359985352
0.44441452622413635 0.10854044556617737 0.73112553358078003
0.73940193653106689 0.11105156689882278 0.80833888053894043
0.9156154990196228 0.15847901999950409 0.78842306137084961
0.99740827083587646 0.17631134390830994 0.79219776391983032
0.055540632456541061 0.44830062985420227 0.74074113368988037
0.40805143117904663 0.41422232985496521 0.74246549606323242
0.64436519145965576 0.41630983352661133 0.73080319166183472
0.831154465675354 0.42583355307579041 0.7238737940788269
0.99406397342681885 0.43964025378227234 0.73471033573150635
0.069213196635246277 0.67526006698608398 0.7742469310760498
0.41791963577270508 0.63593655824661255 0.74763566255569458
0.65374046564102173 0.63091367483139038 0.73427331447601318
0.83427232503890991 0.63757693767547607 0.7274785041809082
0.99335336685180664 0.63763397932052612 0.73490768671035767
0.083031445741653442 0.87508499622344971 0.79230648279190063
0.44153529405593872 0.82802087068557739 0.75343096256256104
0.67776322364807129 0.81462270021438599 0.74394446611404419
0.86350935697555542 0.81344830989837646 0.7452576756477356
0.99109256267547607 0.81498152017593384 0.74653714895248413
0.16030377149581909 0.99310451745986938 0.79755622148513794
0.45784366130828857 0.99301409721374512 0.76441603899002075
0.70678871870040894 0.97980272769927979 0.75909239053726196
0.89395815134048462 0.96924954652786255 0.76879781484603882
0.9990273118019104 0.97780275344848633 0.77165424823760986
0.11105638742446899 0.1631346195936203 0.41564300656318665
0.49133732914924622 0.11020964384078979 0.92209076881408691
0.73927289247512817 0.12875670194625854 0.91995620727539062
0.91407299041748047 0.16586469113826752 0.88857007026672363
0.99706053733825684 0.19460201263427734 0.89194750785827637
0.071295119822025299 0.45692434906959534 0.84567719697952271
0.41529032588005066 0.4273059070110321 0.86675041913986206
0.64694571495056152 0.4263949990272522 0.85098469257354736
0.82169169187545776 0.44286847114562988 0.82576161623001099
0.99374645948410034 0.44170042872428894 0.84601205587387085
0.089284203946590424 0.67924374341964722 0.89871257543563843
0.42825084924697876 0.64131015539169312 0.87239444255828857
0.66182488203048706 0.63621383905410767 0.85098612308502197
0.83198744058609009 0.64696896076202393 0.82712620496749878
0.98641681671142578 0.64712870121002197 0.84825438261032104
0.10496534407138824 0.87245720624923706 0.9124685525894165
0.4625018835067749 0.82627427577972412 0.87911564111709595
0.69445961713790894 0.81744670867919922 0.85477352142333984
0.86806339025497437 0.82047384977340698 0.84570199251174927
0.99422258138656616 0.82618629932403564 0.85900974273681641
0.1765846312046051 0.99647617340087891 0.90431821346282959
0.47427496314048767 0.98931115865707397 0.88178086280822754
0.73058962821960449 0.97129631042480469 0.86957252025604248
0.92667210102081299 0.96926635503768921 0.87839043140411377
0.99859201908111572 0.97982549667358398 0.86362326145172119
