assets/lut/alexjordan only red.cube
# Created by: G'MIC (https://gmic.eu)
TITLE "only_red"
# LUT size
LUT_3D_SIZE 13
# Data domain
DOMAIN_MIN 0.0 0.0 0.0
DOMAIN_MAX 1.0 1.0 1.0
# LUT data points
0.039117161184549332 0.02977987565100193 0.030169019475579262
0.095329999923706055 0.036052629351615906 0.031393822282552719
0.16774439811706543 0.038999475538730621 0.030862081795930862
0.24072307348251343 0.04028751328587532 0.031208666041493416
0.31258335709571838 0.042384263128042221 0.035413525998592377
0.39049282670021057 0.044225327670574188 0.040500864386558533
0.47082003951072693 0.044318463653326035 0.044802989810705185
0.54734009504318237 0.044412769377231598 0.049086760729551315
0.62064820528030396 0.045766223222017288 0.05198771134018898
0.69335842132568359 0.048118636012077332 0.053107377141714096
0.76706832647323608 0.051216978579759598 0.050557453185319901
0.84191596508026123 0.053803641349077225 0.050675366073846817
0.9116787314414978 0.056377515196800232 0.052758354693651199
0.084131710231304169 0.091341547667980194 0.084960892796516418
0.11166531592607498 0.10594309121370316 0.091222144663333893
0.17462864518165588 0.1148357167840004 0.065531939268112183
0.25793853402137756 0.11562936753034592 0.040555573999881744
0.33728769421577454 0.114321269094944 0.041465818881988525
0.41795715689659119 0.11606293916702271 0.04468434676527977
0.49933528900146484 0.11584650725126266 0.044399291276931763
0.57736831903457642 0.1159929633140564 0.04434826597571373
0.65185689926147461 0.11730587482452393 0.047030415385961533
0.72501695156097412 0.1199934110045433 0.049100764095783234
0.80063658952713013 0.12281125783920288 0.048037152737379074
0.87670952081680298 0.12497720122337341 0.048931121826171875
0.94724678993225098 0.12726572155952454 0.053526725620031357
0.1360851377248764 0.14987082779407501 0.13422350585460663
0.1585746556520462 0.16572244465351105 0.15119598805904388
0.18409250676631927 0.18238060176372528 0.15607805550098419
0.23821267485618591 0.19286705553531647 0.12448966503143311
0.31618699431419373 0.19622303545475006 0.09049929678440094
0.40658077597618103 0.19675038754940033 0.064721338450908661
0.49666473269462585 0.19545553624629974 0.048162661492824554
0.58116477727890015 0.1943814605474472 0.040722087025642395
0.66117465496063232 0.19482104480266571 0.04081369936466217
0.73868507146835327 0.19664645195007324 0.044891700148582458
0.81760019063949585 0.1977325975894928 0.045985832810401917
0.89566683769226074 0.19973455369472504 0.047248572111129761
0.96801114082336426 0.20161576569080353 0.051572296768426895
0.1876712441444397 0.21026115119457245 0.18664470314979553
0.21271967887878418 0.22609874606132507 0.1995331197977066
0.23319819569587708 0.24195723235607147 0.21886570751667023
0.25449267029762268 0.25790134072303772 0.2295859307050705
0.30052748322486877 0.27182856202125549 0.19894251227378845
0.37764060497283936 0.27849748730659485 0.14481766521930695
0.4655454158782959 0.28122970461845398 0.099018707871437073
0.5576356053352356 0.27904027700424194 0.069501854479312897
0.64796739816665649 0.27700039744377136 0.054291639477014542
0.73301464319229126 0.27708780765533447 0.05165264755487442
0.81683409214019775 0.27778765559196472 0.050055142492055893
0.89796006679534912 0.27851754426956177 0.048942878842353821
0.97286933660507202 0.28004422783851624 0.051989417523145676
0.23847046494483948 0.27052128314971924 0.23915448784828186
0.26141065359115601 0.28590682148933411 0.25191062688827515
0.28569018840789795 0.30102843046188354 0.26766961812973022
0.30792739987373352 0.31630691885948181 0.28632417321205139
0.33124184608459473 0.33316364884376526 0.29499530792236328
0.37169334292411804 0.34860342741012573 0.26997050642967224
0.43336755037307739 0.36046028137207031 0.21660932898521423
0.51807540655136108 0.36252188682556152 0.15992039442062378
0.6139519214630127 0.36134985089302063 0.11485613882541656
0.70677584409713745 0.36116480827331543 0.089842282235622406
0.79682248830795288 0.36071380972862244 0.074012100696563721
0.88312000036239624 0.36081895232200623 0.062664821743965149
0.96304816007614136 0.36203745007514954 0.059836249798536301
0.29027119278907776 0.33031144738197327 0.29045224189758301
0.3124026358127594 0.34579947590827942 0.3047645092010498
0.33713242411613464 0.36158332228660583 0.31928503513336182
0.36301270127296448 0.3772411048412323 0.33488529920578003
0.38502585887908936 0.39331454038619995 0.35396331548690796
0.40803903341293335 0.40978902578353882 0.36139300465583801
0.44183740019798279 0.42497745156288147 0.33857610821723938
0.4965863823890686 0.43541958928108215 0.2894795835018158
0.57609999179840088 0.44219169020652771 0.22597824037075043
0.66643285751342773 0.4453483521938324 0.17281073331832886
0.75964468717575073 0.44555628299713135 0.13386848568916321
0.85299038887023926 0.44502419233322144 0.1030694991350174
0.94084697961807251 0.44573557376861572 0.086403608322143555
0.34212836623191833 0.38930866122245789 0.34228259325027466
0.36471354961395264 0.4045754075050354 0.35682043433189392
0.38839206099510193 0.4206274151802063 0.37087222933769226
0.41432139277458191 0.4370148777961731 0.38635870814323425
0.43798071146011353 0.45291918516159058 0.40442553162574768
0.4584650993347168 0.46796858310699463 0.42109003663063049
0.4811827540397644 0.48222818970680237 0.42958050966262817
0.51272428035736084 0.49731743335723877 0.4105183482170105
0.56416267156600952 0.51190656423568726 0.36106902360916138
0.63635939359664917 0.52145135402679443 0.30010563135147095
0.72129476070404053 0.52553582191467285 0.24013014137744904
0.81498932838439941 0.52740508317947388 0.18821294605731964
0.90567147731781006 0.52895134687423706 0.15468211472034454
0.39427947998046875 0.44788500666618347 0.39443370699882507
0.41703420877456665 0.46370729804039001 0.40914425253868103
0.43977883458137512 0.47999182343482971 0.42349094152450562
0.46427389979362488 0.49589759111404419 0.43946143984794617
0.48764139413833618 0.51146256923675537 0.45519569516181946
0.50865632295608521 0.52661740779876709 0.47023418545722961
0.53067594766616821 0.54088389873504639 0.4904170036315918
0.55439931154251099 0.55689436197280884 0.49879568815231323
0.58747529983520508 0.57315856218338013 0.48320037126541138
0.63517051935195923 0.5875592827796936 0.4407191276550293
0.6992611289024353 0.59841585159301758 0.38016179203987122
0.77969402074813843 0.60538512468338013 0.31591731309890747
0.86468309164047241 0.61076372861862183 0.26710629463195801
0.44639843702316284 0.50752896070480347 0.4464118480682373
0.46987545490264893 0.52387756109237671 0.46143972873687744
0.49288102984428406 0.54033643007278442 0.47652396559715271
0.51636481285095215 0.55566942691802979 0.49234318733215332
0.53955674171447754 0.57052338123321533 0.50730353593826294
0.56203073263168335 0.58569049835205078 0.52192717790603638
0.58459335565567017 0.60137224197387695 0.53990310430526733
0.60667574405670166 0.61764621734619141 0.55701714754104614
0.63122260570526123 0.63314688205718994 0.5658760666847229
0.66128283739089966 0.64890438318252563 0.55328357219696045
0.70298957824707031 0.66406041383743286 0.51467585563659668
0.76250869035720825 0.67680710554122925 0.45683598518371582
0.83362084627151489 0.68733543157577515 0.40226995944976807
0.49830710887908936 0.5682748556137085 0.49779459834098816
0.52237123250961304 0.58493846654891968 0.5129658579826355
0.54587292671203613 0.60099750757217407 0.52835959196090698
0.5691257119178772 0.61593866348266602 0.54370272159576416
0.59241896867752075 0.63039076328277588 0.55821114778518677
0.61557447910308838 0.64551985263824463 0.57331717014312744
0.63841032981872559 0.66160786151885986 0.58990532159805298
0.66032123565673828 0.67783927917480469 0.6051642894744873
0.68243920803070068 0.69275474548339844 0.62101477384567261
0.70580238103866577 0.7080681324005127 0.63060164451599121
0.73475533723831177 0.72428590059280396 0.61978459358215332
0.775046706199646 0.73966193199157715 0.58479642868041992
0.82901459932327271 0.75433057546615601 0.53910857439041138
0.55006533861160278 0.62931656837463379 0.54897785186767578
0.5745086669921875 0.64573436975479126 0.5644344687461853
0.59820950031280518 0.66135567426681519 0.57987791299819946
0.62160170078277588 0.67621755599975586 0.59517264366149902
0.64493036270141602 0.69069069623947144 0.61040616035461426
0.66832530498504639 0.70563375949859619 0.62645155191421509
0.69119209051132202 0.72139644622802734 0.64293861389160156
0.71309441328048706 0.73703539371490479 0.65717184543609619
0.73470252752304077 0.7518584132194519 0.67242133617401123
0.75742560625076294 0.76711499691009521 0.69061809778213501
0.78217339515686035 0.78272992372512817 0.70007145404815674
0.81123864650726318 0.7985273003578186 0.68841314315795898
0.85149407386779785 0.81499648094177246 0.65977847576141357
0.60202586650848389 0.69021755456924438 0.60043877363204956
0.62646496295928955 0.7062143087387085 0.61607861518859863
0.65044212341308594 0.72176223993301392 0.63171511888504028
0.67391645908355713 0.7365913987159729 0.64733231067657471
0.69723743200302124 0.75126665830612183 0.66326123476028442
0.72044336795806885 0.76634258031845093 0.67965596914291382
0.74307477474212646 0.7817419171333313 0.69560009241104126
0.76499420404434204 0.79717260599136353 0.70968472957611084
0.78704500198364258 0.81209713220596313 0.72422254085540771
0.8100547194480896 0.82726889848709106 0.74176961183547974
0.83340299129486084 0.8424069881439209 0.75845533609390259
0.8574637770652771 0.85824227333068848 0.76504701375961304
0.88920009136199951 0.87516552209854126 0.75604164600372314
0.65365505218505859 0.75086623430252075 0.65250390768051147
0.67817652225494385 0.76671230792999268 0.66820043325424194
0.70229494571685791 0.78217542171478271 0.68403410911560059
0.72597658634185791 0.79725122451782227 0.69988721609115601
0.7494087815284729 0.81228280067443848 0.71572989225387573
0.77236831188201904 0.82741498947143555 0.73163717985153198
0.79482042789459229 0.84281414747238159 0.74691188335418701
0.8169325590133667 0.85815262794494629 0.76092958450317383
0.83927857875823975 0.87302696704864502 0.7750048041343689
0.86245203018188477 0.88803726434707642 0.78986191749572754
0.88549494743347168 0.9029533863067627 0.80773347616195679
0.9084661602973938 0.91834741830825806 0.82584244012832642
0.93562304973602295 0.93463659286499023 0.83257377147674561
0.038440000265836716 0.035974614322185516 0.049310438334941864
0.062040083110332489 0.050286777317523956 0.064905323088169098
0.11328941583633423 0.056527726352214813 0.080916039645671844
0.18223856389522552 0.05945790559053421 0.094915576279163361
0.2573358416557312 0.060253426432609558 0.10476506501436234
0.33491900563240051 0.062417495995759964 0.11145264655351639
0.41559800505638123 0.061706513166427612 0.11680749803781509
0.49522128701210022 0.060364264994859695 0.12289442121982574
0.57029014825820923 0.060665983706712723 0.1271531879901886
0.6441999077796936 0.062454808503389359 0.12914836406707764
0.71862602233886719 0.065352842211723328 0.12676079571247101
0.79397988319396973 0.068024486303329468 0.12560446560382843
0.86544334888458252 0.070505015552043915 0.12502983212471008
0.08742949366569519 0.097085751593112946 0.098809607326984406
0.11518589407205582 0.11198404431343079 0.1114407554268837
0.17348317801952362 0.11750980466604233 0.11234117299318314
0.25039386749267578 0.11886593699455261 0.11273827403783798
0.32551774382591248 0.11954087018966675 0.11542721837759018
0.4002683162689209 0.12239339202642441 0.12120608240365982
0.47447174787521362 0.12221874296665192 0.12334562093019485
0.54970026016235352 0.12316125631332397 0.12389145046472549
0.62104815244674683 0.12576688826084137 0.12727083265781403
0.69270211458206177 0.12898223102092743 0.13035722076892853
0.76779019832611084 0.13182243704795837 0.12854298949241638
0.84480839967727661 0.13358445465564728 0.12756997346878052
0.91697114706039429 0.13583739101886749 0.1288469135761261
0.13968509435653687 0.15617188811302185 0.14743077754974365
0.16351434588432312 0.17144453525543213 0.16272960603237152
0.19324268400669098 0.18545524775981903 0.16856780648231506
0.25643077492713928 0.19403983652591705 0.14636038243770599
0.33908253908157349 0.19428190588951111 0.12307126075029373
0.42234453558921814 0.19404500722885132 0.11971528083086014
0.50174713134765625 0.19343665242195129 0.11956730484962463
0.57916605472564697 0.19424718618392944 0.11661300808191299
0.6525874137878418 0.19739815592765808 0.11947648227214813
0.7252579927444458 0.20004898309707642 0.12548469007015228
0.80309611558914185 0.20205114781856537 0.12574705481529236
0.88180601596832275 0.20285074412822723 0.12552435696125031
0.953998863697052 0.20511449873447418 0.12800803780555725
0.1907515674829483 0.21662150323390961 0.19979985058307648
0.21471410989761353 0.23212520778179169 0.21420571208000183
0.23720191419124603 0.247328981757164 0.23274563252925873
0.26293304562568665 0.26259836554527283 0.23948554694652557
0.31999900937080383 0.27342668175697327 0.20280322432518005
0.40324151515960693 0.27687665820121765 0.1598401814699173
0.48711487650871277 0.27719530463218689 0.14064879715442657
0.57372486591339111 0.27632132172584534 0.12525841593742371
0.65931105613708496 0.27559554576873779 0.1179574579000473
0.73997336626052856 0.27584508061408997 0.12034793943166733
0.8205685019493103 0.27775931358337402 0.12114623188972473
0.89924269914627075 0.2781863808631897 0.12247486412525177
0.97169369459152222 0.27988019585609436 0.1262098103761673
0.24198333919048309 0.2766476571559906 0.25203743577003479
0.26563426852226257 0.29048559069633484 0.26625284552574158
0.29142281413078308 0.30604344606399536 0.28150716423988342
0.31385019421577454 0.32257780432701111 0.2992207407951355
0.33870863914489746 0.3381345272064209 0.30417272448539734
0.38352236151695251 0.35240644216537476 0.27408728003501892
0.454000324010849 0.36010289192199707 0.22881536185741425
0.54296815395355225 0.36111551523208618 0.18431819975376129
0.63958632946014404 0.35915479063987732 0.15055646002292633
0.72994524240493774 0.3577161431312561 0.13661487400531769
0.81526333093643188 0.35708990693092346 0.12964165210723877
0.89629203081130981 0.3575349748134613 0.12612657248973846
0.97105437517166138 0.35973665118217468 0.12821677327156067
0.29446503520011902 0.33673796057701111 0.30328476428985596
0.31785491108894348 0.35057646036148071 0.3184761106967926
0.34355899691581726 0.36618778109550476 0.33256620168685913
0.36959540843963623 0.38159400224685669 0.3481505811214447
0.39156991243362427 0.39588156342506409 0.36531388759613037
0.41316366195678711 0.41295310854911804 0.3701094388961792
0.45165613293647766 0.42775231599807739 0.34645414352416992
0.51523131132125854 0.43750616908073425 0.29713878035545349
0.6010439395904541 0.44192025065422058 0.24160487949848175
0.69403588771820068 0.44259175658226013 0.19888876378536224
0.78609579801559448 0.44162654876708984 0.16900162398815155
0.87529140710830688 0.44069600105285645 0.14860294759273529
0.95737481117248535 0.44195270538330078 0.14093001186847687
0.34721404314041138 0.39568173885345459 0.3551831841468811
0.37097886204719543 0.40941137075424194 0.37088260054588318
0.39481008052825928 0.42547810077667236 0.38469094038009644
0.42019826173782349 0.4412110447883606 0.39900723099708557
0.44308286905288696 0.45676475763320923 0.41532805562019348
0.46381855010986328 0.47289782762527466 0.43202787637710571
0.48804020881652832 0.48722106218338013 0.44252312183380127
0.52112036943435669 0.50289684534072876 0.42164286971092224
0.57680189609527588 0.51621055603027344 0.37204495072364807
0.65692758560180664 0.52254736423492432 0.31154155731201172
0.74732369184494019 0.52473688125610352 0.25564229488372803
0.84168833494186401 0.52361345291137695 0.21049501001834869
0.92988801002502441 0.52510857582092285 0.18530288338661194
0.39948591589927673 0.45468512177467346 0.40769645571708679
0.42311155796051025 0.46961814165115356 0.42295730113983154
0.44612240791320801 0.48567944765090942 0.43744978308677673
0.46988388895988464 0.50116395950317383 0.45200183987617493
0.49298152327537537 0.51667964458465576 0.46624350547790527
0.51586621999740601 0.53245502710342407 0.48183199763298035
0.53865593671798706 0.54740315675735474 0.50158309936523438
0.56058204174041748 0.56328260898590088 0.51125180721282959
0.59318715333938599 0.57908612489700317 0.49451941251754761
0.64626824855804443 0.59152686595916748 0.44910919666290283
0.71808856725692749 0.60020190477371216 0.38416880369186401
0.80383670330047607 0.60426592826843262 0.31939306855201721
0.89063692092895508 0.60847634077072144 0.27436104416847229
0.45153269171714783 0.51451313495635986 0.45950302481651306
0.47531315684318542 0.53074723482131958 0.4745907187461853
0.49884235858917236 0.54697263240814209 0.48946952819824219
0.52202469110488892 0.56174355745315552 0.50440096855163574
0.54511266946792603 0.57587277889251709 0.51841652393341064
0.56882017850875854 0.5912291407585144 0.53239297866821289
0.5925862193107605 0.6071656346321106 0.54996460676193237
0.61410677433013916 0.62305957078933716 0.56931710243225098
0.63756507635116577 0.63826066255569458 0.57941007614135742
0.66883504390716553 0.65336042642593384 0.56479060649871826
0.71483635902404785 0.66760015487670898 0.51864331960678101
0.77936464548110962 0.67845410108566284 0.45500272512435913
0.85501480102539062 0.68710076808929443 0.39743754267692566
0.50337082147598267 0.57515102624893188 0.51083123683929443
0.52761518955230713 0.59165501594543457 0.52588635683059692
0.55126458406448364 0.60767757892608643 0.54111605882644653
0.57435053586959839 0.62179207801818848 0.55633437633514404
0.5973212718963623 0.6352849006652832 0.57088565826416016
0.62117815017700195 0.65012925863265991 0.58555471897125244
0.64529383182525635 0.66641032695770264 0.60144942998886108
0.66811990737915039 0.6828237771987915 0.61824387311935425
0.69102656841278076 0.69747543334960938 0.63631182909011841
0.71340930461883545 0.71258175373077393 0.64499509334564209
0.74102222919464111 0.72846943140029907 0.6303827166557312
0.78386521339416504 0.74277025461196899 0.59046030044555664
0.84211641550064087 0.75651693344116211 0.53981947898864746
0.55521869659423828 0.63557112216949463 0.56206977367401123
0.57954668998718262 0.65181529521942139 0.5773048996925354
0.60318434238433838 0.66723603010177612 0.59279972314834595
0.62636697292327881 0.68128371238708496 0.60841149091720581
0.64932429790496826 0.69483011960983276 0.6240767240524292
0.67296016216278076 0.70951473712921143 0.6401515007019043
0.69689911603927612 0.72544711828231812 0.65643876791000366
0.71960365772247314 0.74124443531036377 0.67131286859512329
0.74209660291671753 0.75652551651000977 0.68796229362487793
0.76350986957550049 0.77193564176559448 0.70510530471801758
0.78534907102584839 0.7873496413230896 0.7128409743309021
0.8143608570098877 0.80296134948730469 0.70065051317214966
0.85612457990646362 0.81984257698059082 0.66982394456863403
0.60716569423675537 0.69576400518417358 0.61383837461471558
0.63161522150039673 0.71167838573455811 0.62916427850723267
0.65547919273376465 0.72684669494628906 0.64473450183868408
0.6787603497505188 0.74123799800872803 0.66054141521453857
0.70187020301818848 0.7553102970123291 0.67668181657791138
0.72514384984970093 0.76996034383773804 0.69317758083343506
0.74790984392166138 0.78510200977325439 0.70919632911682129
0.76970642805099487 0.80032908916473389 0.72364753484725952
0.79229480028152466 0.81595522165298462 0.73821747303009033
0.81505537033081055 0.83184158802032471 0.7552264928817749
0.83702582120895386 0.84712362289428711 0.77159672975540161
0.86085218191146851 0.86266094446182251 0.77856427431106567
0.89218431711196899 0.88029396533966064 0.7693982720375061
0.65905070304870605 0.7558479905128479 0.66613209247589111
0.68393176794052124 0.77163016796112061 0.68157070875167847
0.70780307054519653 0.78699362277984619 0.69714528322219849
0.73142546415328979 0.80172973871231079 0.71286815404891968
0.7546766996383667 0.81635057926177979 0.72872662544250488
0.77770000696182251 0.83115136623382568 0.74463313817977905
0.79986608028411865 0.84602952003479004 0.75999599695205688
0.82130235433578491 0.86081051826477051 0.77433985471725464
0.84377968311309814 0.87629824876785278 0.7880890965461731
0.86724561452865601 0.89227026700973511 0.80325275659561157
0.89048939943313599 0.90705627202987671 0.82153481245040894
0.91417473554611206 0.92159205675125122 0.83842653036117554
0.94065767526626587 0.93847262859344482 0.84514325857162476
0.04365207627415657 0.040486998856067657 0.062628008425235748
0.068869583308696747 0.055221647024154663 0.077758610248565674
0.093058675527572632 0.070162557065486908 0.09384492039680481
0.1288776695728302 0.082599177956581116 0.11364851146936417
0.18815809488296509 0.088282220065593719 0.13550911843776703
0.25936716794967651 0.089652538299560547 0.15300978720188141
0.33645790815353394 0.088261380791664124 0.16450756788253784
0.41751569509506226 0.085771255195140839 0.17541290819644928
0.49655431509017944 0.084277689456939697 0.18512789905071259
0.57395678758621216 0.084640681743621826 0.19215726852416992
0.65149247646331787 0.085884213447570801 0.1961657851934433
0.72879326343536377 0.087473742663860321 0.19822335243225098
0.80289220809936523 0.089090995490550995 0.1967402845621109
0.094681575894355774 0.10109373927116394 0.11042070388793945
0.11810819059610367 0.11706855893135071 0.12834164500236511
0.14540919661521912 0.13084748387336731 0.1448519229888916
0.19507016241550446 0.13820785284042358 0.16094520688056946
0.26536589860916138 0.14083249866962433 0.17445077002048492
0.34070172905921936 0.14236310124397278 0.18482100963592529
0.41641518473625183 0.14150437712669373 0.19056868553161621
0.49353915452957153 0.14097790420055389 0.19433782994747162
0.5674206018447876 0.14261023700237274 0.20011946558952332
0.64092081785202026 0.14401327073574066 0.20539137721061707
0.71769005060195923 0.14624294638633728 0.20713235437870026
0.79654097557067871 0.14729607105255127 0.20770582556724548
0.87123852968215942 0.14817987382411957 0.20727351307868958
0.145437091588974 0.16228924691677094 0.1604900062084198
0.16867244243621826 0.1782689243555069 0.17772978544235229
0.19803586602210999 0.19088669121265411 0.18973454833030701
0.25429418683052063 0.19705992937088013 0.19332732260227203
0.33095094561576843 0.19914522767066956 0.19282384216785431
0.40711754560470581 0.19964297115802765 0.19530324637889862
0.48044568300247192 0.20018550753593445 0.19741037487983704
0.55549895763397217 0.20203404128551483 0.19819353520870209
0.62696748971939087 0.20482629537582397 0.20204250514507294
0.69800662994384766 0.20763728022575378 0.20712880790233612
0.77457189559936523 0.20900845527648926 0.20832052826881409
0.8538813591003418 0.20962384343147278 0.20908184349536896
0.92759460210800171 0.21128939092159271 0.20974375307559967
0.19601213932037354 0.22278253734111786 0.21356795728206635
0.21982325613498688 0.23731745779514313 0.22965079545974731
0.24366982281208038 0.25210320949554443 0.24462105333805084
0.27222448587417603 0.26652112603187561 0.25052717328071594
0.33822613954544067 0.27414023876190186 0.22671453654766083
0.42043855786323547 0.27560758590698242 0.20536516606807709
0.49945744872093201 0.27531605958938599 0.200974240899086
0.58104711771011353 0.27509698271751404 0.19629201292991638
0.66044586896896362 0.27547755837440491 0.19477979838848114
0.73566907644271851 0.27713847160339355 0.1990954726934433
0.81266278028488159 0.27869004011154175 0.20262470841407776
0.889759361743927 0.27927288413047791 0.20524425804615021
0.96102607250213623 0.28184211254119873 0.20826089382171631
0.24699875712394714 0.28252977132797241 0.26565802097320557
0.27037641406059265 0.29582023620605469 0.28058567643165588
0.29670032858848572 0.31077313423156738 0.29391917586326599
0.31866058707237244 0.32632675766944885 0.31322243809700012
0.34446439146995544 0.34373769164085388 0.32080373167991638
0.39767977595329285 0.3554660975933075 0.28774935007095337
0.47756925225257874 0.35858005285263062 0.24854621291160583
