assets/lut/alexjordan green afternoon.cube
# Created by: G'MIC (https://gmic.eu)
TITLE "green_afternoon"
# LUT size
LUT_3D_SIZE 5
# Data domain
DOMAIN_MIN 0.0 0.0 0.0
DOMAIN_MAX 1.0 1.0 1.0
# LUT data points
0.010766422376036644 0.010530523955821991 0.0093609681352972984
0.069223739206790924 0.021464074030518532 0.019569067284464836
0.18720132112503052 0.02001769095659256 0.022163510322570801
0.39278697967529297 0.0037919885944575071 0.0020050497259944677
0.70541656017303467 0.0025310739874839783 0.0020614324603229761
0.018882974982261658 0.11350513249635696 0.018114799633622169
0.13379338383674622 0.12684160470962524 0.0051621082238852978
0.35298237204551697 0.12399453669786453 0.00015581915795337409
0.63530617952346802 0.10904859751462936 0
0.89266502857208252 0.11021704226732254 0
0 0.34451460838317871 0
0.11965306848287582 0.35846215486526489 0
0.37350326776504517 0.35898053646087646 0
0.64605838060379028 0.3557741641998291 0
0.89712661504745483 0.35832363367080688 0
0 0.60742497444152832 3.4466913348296657e-05
0.11385679244995117 0.61841046810150146 0.00039761111838743091
0.37960457801818848 0.62181532382965088 0.00018238740449305624
0.66113746166229248 0.63385200500488281 9.6758674771990627e-05
0.9392397403717041 0.66017687320709229 0.014965864829719067
0.013369675725698471 0.89384591579437256 0.008283982053399086
0.17753244936466217 0.92687928676605225 0.01194184273481369
0.44902011752128601 0.97179073095321655 0.005122210830450058
0.72264832258224487 0.97380203008651733 0.0073220795020461082
0.97851616144180298 0.97820889949798584 0.0220986008644104
0.013290449976921082 0.01363239623606205 0.041964840143918991
0.075173228979110718 0.021589122712612152 0.070356555283069611
0.20659686625003815 0.016260439530014992 0.089575596153736115
0.40998247265815735 0.00036477480898611248 0.09313463419675827
0.71855586767196655 0 0.10020838677883148
0.015379916876554489 0.11969111114740372 0.11651977896690369
0.14252969622612 0.13174054026603699 0.12523464858531952
0.3658784031867981 0.12467977404594421 0.12393749505281448
0.64405900239944458 0.11152251064777374 0.10905411839485168
0.89534920454025269 0.10371854901313782 0.1029832735657692
0.0022936803288757801 0.34928679466247559 0.10205854475498199
0.12710542976856232 0.36031028628349304 0.11205577105283737
0.37767952680587769 0.36389803886413574 0.10834010690450668
0.64625662565231323 0.36096811294555664 0.10603227466344833
0.91208487749099731 0.36671656370162964 0.1188802644610405
0.0007108800346031785 0.61184287071228027 0.090449675917625427
0.12801657617092133 0.62236398458480835 0.10082326829433441
0.38644114136695862 0.63150203227996826 0.11412809789180756
0.66921257972717285 0.64271992444992065 0.12985613942146301
0.96746194362640381 0.6904304027557373 0.177043616771698
0.013735423795878887 0.90986758470535278 0.11270931363105774
0.18202002346515656 0.94970262050628662 0.15244545042514801
0.46227023005485535 0.97865301370620728 0.17883120477199554
0.72708719968795776 0.98478883504867554 0.1899251788854599
0.98259252309799194 0.98479104042053223 0.2004232257604599
0.01722685806453228 0.017584213986992836 0.099056512117385864
0.081760406494140625 0.020973026752471924 0.14665254950523376
0.22239632904529572 0.01058038417249918 0.1996128261089325
0.46195885539054871 0.0015242781955748796 0.24808044731616974
0.77742749452590942 0 0.29342696070671082
0.0082999886944890022 0.12436690926551819 0.27181389927864075
0.14028128981590271 0.13183514773845673 0.30822247266769409
0.37481626868247986 0.1243893951177597 0.338807612657547
0.65380311012268066 0.10909336805343628 0.34307968616485596
0.91538721323013306 0.096483565866947174 0.3386860191822052
0 0.35134521126747131 0.33181831240653992
0.12636202573776245 0.36361920833587646 0.34348204731941223
0.38406842947006226 0.36370113492012024 0.34046080708503723
0.65121632814407349 0.36470922827720642 0.34177899360656738
0.91095417737960815 0.36260107159614563 0.34755361080169678
0.00019782570598181337 0.61699724197387695 0.32312816381454468
0.13449752330780029 0.63238710165023804 0.33991396427154541
0.3926922082901001 0.64009755849838257 0.35270926356315613
0.69428980350494385 0.66908687353134155 0.38572117686271667
0.95799535512924194 0.68001264333724976 0.39384973049163818
0.019441148266196251 0.92339760065078735 0.35285928845405579
0.19013909995555878 0.96971589326858521 0.4058910608291626
0.47924518585205078 0.98769897222518921 0.42560282349586487
0.73339003324508667 0.98493021726608276 0.41983863711357117
0.97954249382019043 0.98449081182479858 0.4284781813621521
0.020499285310506821 0.021078431978821754 0.17349933087825775
0.092999853193759918 0.022466188296675682 0.25589960813522339
0.24178865551948547 0.010551632381975651 0.3392387330532074
0.49444976449012756 0.00086370727512985468 0.41905516386032104
0.80583113431930542 0 0.49972409009933472
0.0080011999234557152 0.12710006535053253 0.43964934349060059
0.1394435316324234 0.13155637681484222 0.50951963663101196
0.37724614143371582 0.12359743565320969 0.53630232810974121
0.65609872341156006 0.11002656817436218 0.55394250154495239
0.90945285558700562 0.10338124632835388 0.5488399863243103
0.0017968271858990192 0.35629415512084961 0.54285472631454468
0.13001580536365509 0.36448794603347778 0.55553275346755981
0.38742309808731079 0.36777308583259583 0.55876213312149048
0.65930509567260742 0.36996826529502869 0.55407923460006714
0.92016148567199707 0.37671136856079102 0.56833505630493164
0.00089281867258250713 0.61844795942306519 0.54634225368499756
0.13520237803459167 0.64091116189956665 0.55610382556915283
0.40449658036231995 0.64821761846542358 0.57428193092346191
0.69548457860946655 0.67606967687606812 0.59352570772171021
0.97958856821060181 0.70577013492584229 0.62621808052062988
0.0041419235058128834 0.94064569473266602 0.58738595247268677
0.19531185925006866 0.97403711080551147 0.62410122156143188
0.46641290187835693 0.98341917991638184 0.62835907936096191
0.73990106582641602 0.9869958758354187 0.63040840625762939
0.98261141777038574 0.98968744277954102 0.64814358949661255
0.022843290120363235 0.020823683589696884 0.31251835823059082
0.099459372460842133 0.02226206474006176 0.44682300090789795
0.26511314511299133 0.0033898595720529556 0.57211136817932129
0.51765590906143188 0 0.6888694167137146
0.82532256841659546 0.0042798062786459923 0.79419863224029541
0.0077780033461749554 0.11912447214126587 0.71973544359207153
0.1321902722120285 0.12366623431444168 0.82647436857223511
0.38201382756233215 0.11311011016368866 0.88917720317840576
0.64627307653427124 0.10317918658256531 0.88884425163269043
0.90197134017944336 0.11853815615177155 0.87352484464645386
0.0050546536222100258 0.34959796071052551 0.88360297679901123
0.12668725848197937 0.36229154467582703 0.89518779516220093
0.38794848322868347 0.36273887753486633 0.90538591146469116
0.64316940307617188 0.36324289441108704 0.89388376474380493
0.91046339273452759 0.3700408935546875 0.90078312158584595
0.0010028465185314417 0.61379796266555786 0.86921125650405884
0.12740606069564819 0.63645017147064209 0.90645754337310791
0.41765484213829041 0.6607978343963623 0.93440169095993042
0.68839609622955322 0.66991996765136719 0.94006669521331787
0.98003184795379639 0.71020239591598511 0.96894639730453491
0.01247005071491003 0.95219612121582031 0.925373375415802
0.20284862816333771 0.97475117444992065 0.95993983745574951
0.48214554786682129 0.98891657590866089 0.97203230857849121
0.74192118644714355 0.98866420984268188 0.97383761405944824
0.98527437448501587 0.98654830455780029 0.975780189037323
