assets/lut/alexjordan night 01.cube
# Created by: G'MIC (https://gmic.eu)
TITLE "night_01"
# LUT size
LUT_3D_SIZE 13
# Data domain
DOMAIN_MIN 0.0 0.0 0.0
DOMAIN_MAX 1.0 1.0 1.0
# LUT data points
0.00015927483036648482 0 0
0 0 0
0 0 0
0 0 0
0 0 0
0 0 0
0 0 0
0 0 0
0 0 0
0 0 0
0 0 0
5.1161823648726568e-05 0 0
0.010835535824298859 0.00070049811620265245 0.00094592524692416191
0.00020225375192239881 0.00013146494165994227 0
0 0 0
0 0 0
0 0 0
0 0 0
0 0 0
0 0 0
0 0 0
0 0 0
0.0021713555324822664 1.2341667570581194e-05 0
0.012826657854020596 0.00061379227554425597 0
0.032779887318611145 0.0017887488938868046 0
0.067743800580501556 0.0065301782451570034 0.0017253800760954618
0 0 0
0 0 0
0 0 0
0 0 0
0 0 0
6.7018998379353434e-05 0 0
0.0018701291410252452 0.00034048044472001493 0.00016868441889528185
0.008889426477253437 0.0025843451730906963 0.00066642015008255839
0.028047628700733185 0.0078172720968723297 0.00075004430254921317
0.061522927135229111 0.014989007264375687 0.00060321582714095712
0.10045778006315231 0.020637122914195061 0.00011830049334093928
0.14134217798709869 0.024413598701357841 0
0.18686819076538086 0.031629554927349091 0.00060890050372108817
2.1003274014219642e-05 0 0
0.00053390802349895239 5.7759003539104015e-05 0
0.0019058077596127987 0.0016789454966783524 0.00072112737689167261
0.0047210096381604671 0.004543050192296505 0.0019073036964982748
0.011037086136639118 0.0074774348177015781 0.0028133466839790344
0.024082722142338753 0.013602596707642078 0.003659925190731883
0.044365439563989639 0.023017389699816704 0.0047904369421303272
0.071858637034893036 0.033237636089324951 0.0045465803705155849
0.11000792682170868 0.043736729770898819 0.0022837920114398003
0.15857610106468201 0.052827812731266022 0.00046440571895800531
0.21360301971435547 0.059111129492521286 5.385455096984515e-06
0.27360767126083374 0.064615137875080109 0
0.33288675546646118 0.073480822145938873 0.00015635770978406072
0.0011728025274351239 0.002934369957074523 8.2576974818948656e-05
0.0073198205791413784 0.014466947875916958 0.0022934109438210726
0.016475139185786247 0.030582472681999207 0.0051786685362458229
0.02901223860681057 0.041522230952978134 0.006510117556899786
0.04711252823472023 0.049892980605363846 0.0067705339752137661
0.073598764836788177 0.060422215610742569 0.006554831750690937
0.10740354657173157 0.072573475539684296 0.0063044377602636814
0.14776021242141724 0.083990223705768585 0.0049572363495826721
0.19649690389633179 0.094563469290733337 0.001438140869140625
0.25447186827659607 0.10342932492494583 6.4625460254319478e-06
0.3197004497051239 0.11037050187587738 0
0.38909733295440674 0.11662406474351883 0
0.45322549343109131 0.12600573897361755 0.00074678310193121433
0.002276312094181776 0.046193335205316544 0.0002978156553581357
0.014669351279735565 0.067250147461891174 0.0030321157537400723
0.031692788004875183 0.088099338114261627 0.0056843026541173458
0.053205661475658417 0.10224054008722305 0.0050022946670651436
0.081704713404178619 0.11361704766750336 0.0032428666017949581
0.1188356876373291 0.12527899444103241 0.0023757785093039274
0.16373001039028168 0.13735133409500122 0.0032133962959051132
0.21472619473934174 0.14850476384162903 0.0042365281842648983
0.27050626277923584 0.15836292505264282 0.0016980788204818964
0.33153709769248962 0.16689038276672363 0.00017632877279538661
0.3985954225063324 0.1739063560962677 8.0422796600032598e-05
0.4697212278842926 0.18064491450786591 0.00056804582709446549
0.53593927621841431 0.18978689610958099 0.0047827479429543018
0.001482855062931776 0.12362748384475708 0
0.017665324732661247 0.14339801669120789 0.00038425219827331603
0.041471429169178009 0.16336295008659363 0.0010371189564466476
0.071330979466438293 0.17833396792411804 0.00058655085740610957
0.10848698019981384 0.19086919724941254 0.00010465733794262633
0.15319004654884338 0.20252950489521027 7.5396369538793806e-06
0.2058887779712677 0.21356417238712311 0.00068360869772732258
0.26335197687149048 0.22350743412971497 0.0048528485931456089
0.32179912924766541 0.23279602825641632 0.0071548609994351864
0.38116425275802612 0.24108953773975372 0.0058999154716730118
0.44480782747268677 0.24877355992794037 0.0058380723930895329
0.51265579462051392 0.25592151284217834 0.0092677697539329529
0.5786018967628479 0.26498633623123169 0.018863469362258911
0.00032312728581018746 0.21406832337379456 0
0.016004420816898346 0.23144997656345367 0
0.045663557946681976 0.24839076399803162 0
0.082018867135047913 0.26244112849235535 0
0.12528756260871887 0.27480918169021606 0
0.17529568076133728 0.28609353303909302 6.283030870690709e-06
0.2311536967754364 0.29600417613983154 0.0021239337511360645
0.29190549254417419 0.30510309338569641 0.012558521702885628
0.35066860914230347 0.314136803150177 0.021651023998856544
0.40857028961181641 0.32285699248313904 0.025137703865766525
0.46789819002151489 0.33111122250556946 0.027246961370110512
0.53079473972320557 0.33934098482131958 0.031685519963502884
0.59450167417526245 0.34845265746116638 0.041822455823421478
0 0.30845546722412109 0
0.013298004865646362 0.32394099235534668 0
0.047248661518096924 0.33784541487693787 0
0.088822431862354279 0.34979104995727539 6.1932732933200896e-05
0.13637669384479523 0.36097830533981323 0.00061623071087524295
0.18951992690563202 0.37136483192443848 0.0034500421024858952
0.24703793227672577 0.38072839379310608 0.01459268294274807
0.30685234069824219 0.38969197869300842 0.030837325379252434
0.36672377586364746 0.39905622601509094 0.042552933096885681
0.42508113384246826 0.40840038657188416 0.049284212291240692
0.48341304063796997 0.41742175817489624 0.053791254758834839
0.5435866117477417 0.42609855532646179 0.059074133634567261
0.60577273368835449 0.43551844358444214 0.069539733231067657
0 0.4007018506526947 1.3463637515087612e-05
0.013190161436796188 0.41435259580612183 0.00010981840023305267
0.050388440489768982 0.42653891444206238 0.0010699103586375713
0.095396138727664948 0.43714496493339539 0.0045863878913223743
0.14601191878318787 0.44730949401855469 0.012004882097244263
0.20105025172233582 0.45692700147628784 0.024367120116949081
0.25935986638069153 0.46611425280570984 0.041006006300449371
0.32015827298164368 0.47550389170646667 0.0558968186378479
0.38186052441596985 0.48555803298950195 0.065603889524936676
0.44297757744789124 0.4958227276802063 0.072405949234962463
0.50250393152236938 0.50522375106811523 0.079029306769371033
0.56303328275680542 0.51418763399124146 0.087535098195075989
0.62519264221191406 0.52390682697296143 0.10123946517705917
3.9672850107308477e-05 0.48972821235656738 0.0041617299430072308
0.017270630225539207 0.50175172090530396 0.0066105863079428673
0.057347629219293594 0.5132564902305603 0.013227829709649086
0.10517663508653641 0.52383893728256226 0.023806702345609665
0.15859892964363098 0.53368169069290161 0.036625295877456665
0.21586838364601135 0.54332119226455688 0.051515184342861176
0.27579876780509949 0.55304086208343506 0.066844373941421509
0.33863741159439087 0.56303149461746216 0.078818529844284058
0.40325495600700378 0.57344287633895874 0.086009427905082703
0.46736913919448853 0.58358824253082275 0.092567130923271179
0.53008931875228882 0.59334510564804077 0.10182356089353561
0.5922967791557312 0.6028018593788147 0.11629432439804077
0.65541172027587891 0.61290812492370605 0.13643160462379456
0.0013424891512840986 0.57774645090103149 0.023027576506137848
0.027303298935294151 0.58856666088104248 0.029028814285993576
0.070173464715480804 0.59959608316421509 0.038759060204029083
0.12061622738838196 0.61034005880355835 0.050349544733762741
0.17639407515525818 0.62079274654388428 0.06290619820356369
0.23634572327136993 0.63124829530715942 0.07588069885969162
0.2990301251411438 0.64154523611068726 0.087561771273612976
0.36457183957099915 0.65206128358840942 0.096670098602771759
0.43150424957275391 0.66227048635482788 0.1041630282998085
0.49859553575515747 0.67230123281478882 0.11293014883995056
0.56406277418136597 0.68205076456069946 0.12644876539707184
0.62788939476013184 0.69183790683746338 0.14774212241172791
0.69143927097320557 0.70265054702758789 0.17457796633243561
0.0093798767775297165 0.66662555932998657 0.050814084708690643
0.044676132500171661 0.67632687091827393 0.057889018207788467
0.089973598718643188 0.686961829662323 0.067722141742706299
0.14263662695884705 0.69786304235458374 0.078373044729232788
0.20080164074897766 0.70884197950363159 0.089283764362335205
0.26293998956680298 0.71977448463439941 0.099409393966197968
0.32833102345466614 0.73085516691207886 0.10806198418140411
0.39588081836700439 0.74174308776855469 0.11595584452152252
0.46471834182739258 0.75187253952026367 0.12616881728172302
0.53337979316711426 0.76168692111968994 0.13961502909660339
0.600699782371521 0.77151525020599365 0.15858051180839539
0.66564416885375977 0.78185498714447021 0.18502604961395264
0.72989815473556519 0.79305940866470337 0.21644166111946106
0 0 0
0 0 0
0 0 0
0 0 0
0 0 0
0 0 0
0 0 0
0 0 0
0 0 0
0 0 0
0 0 0
7.180606644396903e-06 0 0
0.0059733074158430099 0.00014935662329662591 0.00024776085047051311
0 0 0
0 0 0
0 0 0
0 0 0
0 0 0
0 0 0
0 0 0
0 0 0
7.2404450293106493e-06 0 1.5797335436218418e-05
0.0026561063714325428 0.00036004759022034705 0.00053609214955940843
0.014591905288398266 0.0015503228642046452 0.0010819379240274429
0.037913993000984192 0.0030994489789009094 0.0018602259224280715
0.077756978571414948 0.0079402551054954529 0.004631685558706522
0 0 0
0 0 0
0 0 0
0 0 0
0 0 0
9.9930111900903285e-05 0 2.5132123482762836e-05
0.0026854272000491619 0.00092249852605164051 0.00097488705068826675
0.011887329630553722 0.0043950700201094151 0.0032025955151766539
0.03300139307975769 0.011273328214883804 0.0063253217376768589
0.066719263792037964 0.01960284635424614 0.0087655913084745407
0.10875321924686432 0.024476025253534317 0.0080359065905213356
0.15575593709945679 0.027402257546782494 0.006622314453125
0.20672070980072021 0.033690959215164185 0.0083140358328819275
0 0 0
2.0734001736855134e-05 0 0
0.0009847304318100214 0.0013954013120383024 0.00075830199057236314
0.0041496427729725838 0.004735101480036974 0.002887725830078125
0.011638387106359005 0.0091925822198390961 0.0047371508553624153
0.026838071644306183 0.016590388491749763 0.0079658953472971916
0.050409473478794098 0.02696787565946579 0.012375326827168465
0.080597251653671265 0.037877518683671951 0.014900626614689827
0.11967942118644714 0.04839598760008812 0.014639043249189854
0.1681821197271347 0.05725422129034996 0.012072783894836903
0.2259095311164856 0.06267441064119339 0.0090557625517249107
0.29020035266876221 0.066633604466915131 0.0074642254039645195
0.35226297378540039 0.073765501379966736 0.01017634104937315
9.011661313707009e-05 0.0056635239161550999 0.0010444491636008024
0.004520162008702755 0.016184937208890915 0.0028370576910674572
0.014905578456819057 0.031586784869432449 0.0092264208942651749
0.029781760647892952 0.044023312628269196 0.014657039195299149
0.050453696399927139 0.054399736225605011 0.017156578600406647
0.079464919865131378 0.065562903881072998 0.018751421943306923
0.11611445993185043 0.077537417411804199 0.021692387759685516
0.15790827572345734 0.088862568140029907 0.021676769480109215
0.20709393918514252 0.098789766430854797 0.016888845711946487
0.26592478156089783 0.10712897777557373 0.010022331960499287
0.33268558979034424 0.11312661319971085 0.0072219101712107658
0.40426754951477051 0.11836395412683487 0.008645285852253437
0.4699464738368988 0.12623731791973114 0.015188224613666534
0.00079095875844359398 0.052342373877763748 0.0053660674020648003
0.012712695635855198 0.070878468453884125 0.0094901891425251961
0.030995208770036697 0.09073716402053833 0.015804290771484375
0.054793041199445724 0.1063288226723671 0.019483005627989769
0.085688270628452301 0.11903312802314758 0.018668126314878464
0.12472197413444519 0.13126474618911743 0.017522191628813744
0.17133525013923645 0.14294479787349701 0.020777534693479538
0.22249855101108551 0.15346801280975342 0.023138009011745453
0.27853184938430786 0.16271562874317169 0.019963297992944717
0.34073144197463989 0.17063944041728973 0.01360606774687767
0.40806058049201965 0.17715112864971161 0.012170379981398582
0.47858354449272156 0.1832362562417984 0.017265649512410164
0.54479926824569702 0.19112116098403931 0.027102017775177956
0.00069445441477000713 0.12901437282562256 0.0041325138881802559
0.015644343569874763 0.14823749661445618 0.0077210669405758381
0.040600765496492386 0.16777752339839935 0.012482542544603348
0.072070643305778503 0.18371397256851196 0.013595880009233952
0.11066319793462753 0.19711437821388245 0.009908309206366539
0.15690518915653229 0.20946706831455231 0.0077533349394798279
0.20983044803142548 0.21985644102096558 0.014959447085857391
0.26684725284576416 0.22899799048900604 0.025838231667876244
0.32539871335029602 0.23750324547290802 0.031029481440782547
0.38555800914764404 0.24560655653476715 0.03112773597240448
0.44828340411186218 0.25302806496620178 0.032181847840547562
0.51369863748550415 0.26017287373542786 0.037409164011478424
0.58019900321960449 0.26802182197570801 0.048180107027292252
3.1415154808200896e-05 0.22060105204582214 0.001552088069729507
0.013510865159332752 0.23863868415355682 0.0027345693670213223
0.043659299612045288 0.25509259104728699 0.0061128204688429832
0.081329315900802612 0.26915228366851807 0.0078801624476909637
0.12573732435703278 0.28203746676445007 0.0057015065103769302
0.17659583687782288 0.29362225532531738 0.005535544827580452
0.23281355202198029 0.30268919467926025 0.019082073122262955
0.29230421781539917 0.31096503138542175 0.038476727902889252
0.35073748230934143 0.31940504908561707 0.051256336271762848
0.40847444534301758 0.32810249924659729 0.058121252804994583
0.46725368499755859 0.33642494678497314 0.062555141746997833
0.52840864658355713 0.344186931848526 0.067564778029918671
0.59437799453735352 0.35195708274841309 0.077126458287239075
0 0.31660857796669006 0.0017987120663747191
0.0097859399393200874 0.33328989148139954 0.002558794105425477
0.044463243335485458 0.34601572155952454 0.0075529511086642742
0.086436524987220764 0.35736978054046631 0.013654656708240509
0.13510026037693024 0.36822047829627991 0.017904393374919891
0.18853335082530975 0.37833240628242493 0.026171531528234482
0.24594692885875702 0.38696438074111938 0.044351089745759964
0.30560871958732605 0.39535176753997803 0.06431242823600769
0.36527645587921143 0.40447816252708435 0.078975677490234375
0.42307385802268982 0.41399991512298584 0.089013136923313141
0.48134130239486694 0.42297270894050598 0.096043668687343597
0.54232347011566162 0.43073874711990356 0.10144355893135071
0.60811161994934082 0.4386238157749176 0.11077342182397842
0 0.40836408734321594 0.01038914080709219
0.0088394312188029289 0.42314237356185913 0.01346766110509634
0.045746389776468277 0.43446508049964905 0.022912731394171715
0.091511115431785583 0.44448888301849365 0.034386742860078812
0.14323237538337708 0.45392346382141113 0.046253353357315063
0.19884394109249115 0.46297532320022583 0.061782281845808029
0.25702515244483948 0.47156006097793579 0.081125788390636444
0.31800216436386108 0.48069348931312561 0.09791361540555954
0.38049647212028503 0.49073109030723572 0.1079421266913414
0.44090116024017334 0.50072789192199707 0.11607926338911057
0.50188374519348145 0.51013582944869995 0.12396059185266495
0.56424063444137573 0.5182228684425354 0.13250391185283661
0.62944555282592773 0.52662694454193115 0.14529463648796082
0 0.49618545174598694 0.033647261559963226
0.011328005231916904 0.50881552696228027 0.039846114814281464
0.051381878554821014 0.52000296115875244 0.050931639969348907
0.1003185361623764 0.53006649017333984 0.064093358814716339
0.1549704521894455 0.53944343328475952 0.078902974724769592
0.21283106505870819 0.54856306314468384 0.095913954079151154
0.27349817752838135 0.55763393640518188 0.11394668370485306
0.33669289946556091 0.56721794605255127 0.12641149759292603
0.40288165211677551 0.57755810022354126 0.13129355013370514
0.46853989362716675 0.58772718906402588 0.1360446959733963
0.53266012668609619 0.5972898006439209 0.14496035873889923
0.5961076021194458 0.60600465536117554 0.16036824882030487
0.66059219837188721 0.61511284112930298 0.18091501295566559
0.00014488369924947619 0.58278113603591919 0.063133031129837036
0.019750438630580902 0.59394049644470215 0.071536168456077576
0.063331231474876404 0.6049504280090332 0.082850240170955658
0.11540817469358444 0.61553144454956055 0.095429442822933197
0.1730552464723587 0.62542963027954102 0.10923412442207336
0.23412053287029266 0.63523340225219727 0.12352565675973892
0.29797220230102539 0.64511692523956299 0.13652624189853668
0.36460176110267639 0.65521979331970215 0.14508175849914551
0.43344193696975708 0.66559737920761108 0.14973817765712738
0.50247824192047119 0.67553353309631348 0.15525518357753754
0.56995415687561035 0.685036301612854 0.1670774519443512
0.63414835929870605 0.69428342580795288 0.19080345332622528
0.69796013832092285 0.70411854982376099 0.22012262046337128
0.0046522254124283791 0.67046898603439331 0.094475448131561279
0.037044838070869446 0.68046969175338745 0.10328776389360428
0.083106279373168945 0.69121593236923218 0.11405419558286667
0.13735181093215942 0.7020154595375061 0.12513488531112671
0.19759716093540192 0.71260750293731689 0.13641959428787231
0.26166597008705139 0.72322148084640503 0.14738650619983673
0.32849732041358948 0.73376238346099854 0.15679560601711273
0.39764350652694702 0.74415487051010132 0.16413328051567078
0.46843412518501282 0.75431424379348755 0.17152935266494751
0.53918242454528809 0.76411890983581543 0.1818486750125885
0.60780316591262817 0.77362251281738281 0.19990904629230499
0.6733543872833252 0.78336155414581299 0.22942234575748444
0.73698395490646362 0.79379987716674805 0.26382878422737122
0 0 0
0 0 0
0 0 0
0 0 0
0 0 0
0 0 0
0 0 0
0 0 0
0 0 0
0 0 0
0 0 0
1.7951516610992257e-06 0 0
0.0047443616203963757 0.00014935662329662591 0.00014935662329662591
0 0 0
0 0 0
0 0 0
0 0 0
0 0 0
0 0 0
0 0 0
0 0 0
0.00024370680330321193 2.3696002244832925e-05 0.00014694812125526369
0.0054883020929992199 0.0010501786600798368 0.0014194115065038204
0.020513961091637611 0.0028889225795865059 0.0033232145942747593
0.046523585915565491 0.0052298451773822308 0.0050879982300102711
0.086825966835021973 0.010779137723147869 0.0083343656733632088
0 0 0
0 0 0
0 0 0
0 0 0
0 0 0
0.00037204517866484821 0.00017846799164544791 8.6466468928847462e-05
0.0045870612375438213 0.0023587394971400499 0.0015745274722576141
0.017329690977931023 0.0075339372269809246 0.0057427650317549706
0.04274279996752739 0.01530145388096571 0.012224609032273293
0.078872323036193848 0.023451860994100571 0.018000822514295578
0.12232763320207596 0.028056768700480461 0.019150229170918465
0.17117320001125336 0.03115774504840374 0.018479187041521072
0.22283473610877991 0.037129435688257217 0.020276147872209549
0 0 0
0 0.00010932473378488794 5.1565730245783925e-05
0.00099539663642644882 0.001987203024327755 0.0012598524335771799
0.004916471429169178 0.0065066320821642876 0.0041536968201398849
0.013796473853290081 0.012827270664274693 0.0071093542501330376
0.032025430351495743 0.021980211138725281 0.012658736668527126
0.058608606457710266 0.03292001411318779 0.020157847553491592
0.091326110064983368 0.043594807386398315 0.025909572839736938
0.13171800971031189 0.053041346371173859 0.030028458684682846
0.18094810843467712 0.060980912297964096 0.031877435743808746
0.23965901136398315 0.06585007905960083 0.029681067913770676
0.30405938625335693 0.069382958114147186 0.027402646839618683
0.36526831984519958 0.075677730143070221 0.030068924650549889
5.1700368203455582e-05 0.010012487880885601 0.0049612754955887794
0.0043780310079455376 0.020332830026745796 0.0074126897379755974
0.015954321250319481 0.034973591566085815 0.016061551868915558
0.032652072608470917 0.048658289015293121 0.024895267561078072
0.055701866745948792 0.060582522302865982 0.029644610360264778
0.087006948888301849 0.072323955595493317 0.033083207905292511
0.12595885992050171 0.084060803055763245 0.038744233548641205
0.16876065731048584 0.094576515257358551 0.041069943457841873
0.21805085241794586 0.10347016155719757 0.04018624871969223
0.2765507698059082 0.11071117967367172 0.03755149245262146
0.34375444054603577 0.11611106991767883 0.03469574823975563
0.41578498482704163 0.12054872512817383 0.035135544836521149
0.4819580614566803 0.12727758288383484 0.040684346109628677
0.0011229570955038071 0.060688048601150513 0.016355043277144432
0.013307414017617702 0.076615035533905029 0.020720701664686203
0.032765917479991913 0.095095708966255188 0.029912132769823074
0.058637239038944244 0.11159506440162659 0.039081092923879623
0.091338485479354858 0.1254723072052002 0.041476693004369736
0.13169589638710022 0.13804608583450317 0.040283560752868652
0.17930568754673004 0.14923970401287079 0.044136632233858109
0.23046499490737915 0.15906529128551483 0.047574929893016815
0.28608641028404236 0.167490154504776 0.047344207763671875
0.34798780083656311 0.17476655542850494 0.044906213879585266
0.41532224416732788 0.1809336394071579 0.044763989746570587
0.4859279990196228 0.18649157881736755 0.048830684274435043
0.55251234769821167 0.19350069761276245 0.057891443371772766
0.0012895023683086038 0.13670183718204498 0.020988285541534424
0.017270885407924652 0.15373441576957703 0.025588225573301315
0.042758416384458542 0.17249602079391479 0.033171799033880234
0.075248375535011292 0.1888965517282486 0.038903120905160904
0.11477267742156982 0.20318764448165894 0.037780657410621643
0.16144749522209167 0.21544231474399567 0.036003202199935913
0.21408872306346893 0.22565597295761108 0.042884483933448792
0.27061381936073303 0.23444108664989471 0.053376410156488419
0.32919749617576599 0.24264542758464813 0.060478076338768005
0.38985827565193176 0.25034034252166748 0.064022421836853027
0.45213249325752258 0.2575218677520752 0.067775681614875793
0.51659959554672241 0.26453426480293274 0.073926277458667755
0.58285212516784668 0.27161678671836853 0.08430645614862442
0.00038197834510356188 0.22748051583766937 0.02132263220846653
0.015776675194501877 0.24449865520000458 0.025245411321520805
0.045812971889972687 0.26057583093643188 0.032636065036058426
0.083589129149913788 0.27482113242149353 0.037438023835420609
0.12813912332057953 0.2876121997833252 0.037051841616630554
0.17887009680271149 0.29903179407119751 0.038794126361608505
0.23456405103206635 0.30819782614707947 0.052334189414978027
0.29315125942230225 0.31636103987693787 0.070331558585166931
0.35217082500457764 0.32460099458694458 0.084508456289768219
0.41055017709732056 0.33296921849250793 0.094485141336917877
0.46889045834541321 0.34097781777381897 0.10242188721895218
0.52951556444168091 0.34862545132637024 0.10947361588478088
0.59624910354614258 0.3559395968914032 0.11896100640296936
0 0.32288852334022522 0.026555992662906647
0.011652538552880287 0.33878436684608459 0.030796874314546585
0.045697696506977081 0.35168859362602234 0.040425918996334076
0.087704800069332123 0.36300599575042725 0.049254309386014938
0.13627766072750092 0.37368246912956238 0.055373575538396835
0.1898980587720871 0.38365104794502258 0.064758777618408203
0.24728284776210785 0.39230009913444519 0.081699088215827942
0.30676695704460144 0.40071690082550049 0.10103897750377655
0.3665633499622345 0.40968760848045349 0.11683065444231033
0.42451739311218262 0.41889309883117676 0.12975694239139557
0.48267331719398499 0.42744556069374084 0.14035829901695251
0.54451292753219604 0.43476307392120361 0.14803636074066162
0.61154496669769287 0.44236993789672852 0.15673184394836426
0 0.41475820541381836 0.045064423233270645
0.0093709314242005348 0.42893174290657043 0.051593571901321411
0.046037711203098297 0.44032248854637146 0.063036993145942688
0.09204024076461792 0.45016786456108093 0.0759391188621521
0.14431191980838776 0.45939230918884277 0.089192256331443787
0.20045210421085358 0.46817538142204285 0.10473794490098953
0.25923025608062744 0.47676193714141846 0.12275305390357971
0.32023462653160095 0.48578965663909912 0.13829465210437775
