assets/lut/alexjordan magenta day 01.cube
# Created by: G'MIC (https://gmic.eu)
TITLE "magenta_day_01"
# LUT size
LUT_3D_SIZE 5
# Data domain
DOMAIN_MIN 0.0 0.0 0.0
DOMAIN_MAX 1.0 1.0 1.0
# LUT data points
0.0020384844392538071 0.00072072347393259406 0.0021981482859700918
0.0024280173238366842 0.0018349890597164631 0.0026363597717136145
0.051595665514469147 0.014311592094600201 0.0175323486328125
0.16379548609256744 0.02639223076403141 0.038356885313987732
0.35334593057632446 0.022475911304354668 0.044452037662267685
0.057040989398956299 0.068374678492546082 0.050403445959091187
0.13787458837032318 0.10196617245674133 0.071492977440357208
0.2755742073059082 0.12059963494539261 0.079531759023666382
0.44933193922042847 0.13262321054935455 0.085486650466918945
0.66209697723388672 0.1335064172744751 0.088197179138660431
0.096403829753398895 0.25694507360458374 0.081113509833812714
0.21695809066295624 0.28760117292404175 0.102231465280056
0.37189224362373352 0.30795738101005554 0.12186913937330246
0.55000334978103638 0.32431817054748535 0.1408468633890152
0.73844611644744873 0.34246993064880371 0.16225887835025787
0.14494699239730835 0.48022294044494629 0.13230559229850769
0.27212727069854736 0.50555264949798584 0.15705713629722595
0.4318651556968689 0.53030836582183838 0.18533049523830414
0.61427026987075806 0.55222046375274658 0.21228417754173279
0.80542248487472534 0.57600897550582886 0.24427933990955353
0.21753260493278503 0.72086238861083984 0.21279637515544891
0.34401112794876099 0.74585860967636108 0.23797774314880371
0.50319135189056396 0.77359271049499512 0.2672482430934906
0.68909788131713867 0.80039191246032715 0.29394921660423279
0.88471025228500366 0.83005785942077637 0.32648512721061707
0 0 0
0.008221091702580452 0.0035252440720796585 0.0089108934625983238
0.073678068816661835 0.020347265526652336 0.047068160027265549
0.20731824636459351 0.028369633480906487 0.082673303782939911
0.41236382722854614 0.018199561163783073 0.10887426882982254
0.065561167895793915 0.082606129348278046 0.10922223329544067
0.15585273504257202 0.11316631734371185 0.15317076444625854
0.29328972101211548 0.12960608303546906 0.17657274007797241
0.47255134582519531 0.13861918449401855 0.18754708766937256
0.66186052560806274 0.14626537263393402 0.19803544878959656
0.10633190721273422 0.26772180199623108 0.18927353620529175
0.22573447227478027 0.29811036586761475 0.22078898549079895
0.37869560718536377 0.32000130414962769 0.24061885476112366
0.55815666913986206 0.33698222041130066 0.25746017694473267
0.738106369972229 0.35735636949539185 0.27935850620269775
0.15060478448867798 0.48623308539390564 0.24833230674266815
0.27807584404945374 0.51519054174423218 0.27675220370292664
0.43992367386817932 0.54158854484558105 0.30523777008056641
0.62308353185653687 0.5656505823135376 0.33040225505828857
0.81702452898025513 0.58998829126358032 0.36032590270042419
0.22052958607673645 0.72302299737930298 0.32770892977714539
0.35005626082420349 0.75244688987731934 0.35484829545021057
0.51223260164260864 0.78281611204147339 0.38483107089996338
0.69940078258514404 0.81282049417495728 0.41148638725280762
0.89856451749801636 0.84380310773849487 0.44154143333435059
4.0929458918981254e-05 9.6938187198247761e-05 4.0929458918981254e-05
0.025270873680710793 0.011605027131736279 0.03809032216668129
0.1000339463353157 0.025279011577367783 0.10158827900886536
0.24928639829158783 0.026603041216731071 0.17143146693706512
0.44392308592796326 0.021451793611049652 0.22365681827068329
0.072679780423641205 0.09435570240020752 0.2102908194065094
0.1643541008234024 0.11967270821332932 0.27016907930374146
0.3094649612903595 0.1344074159860611 0.31811010837554932
0.48614856600761414 0.14374238252639771 0.3421846330165863
0.66544383764266968 0.15603524446487427 0.35746586322784424
0.10735632479190826 0.27803054451942444 0.34668797254562378
0.23154890537261963 0.30713191628456116 0.38008278608322144
0.39091497659683228 0.33103600144386292 0.40165528655052185
0.56582760810852051 0.34882953763008118 0.41467168927192688
0.7556685209274292 0.36491483449935913 0.43731525540351868
0.16158901154994965 0.49491599202156067 0.4063011109828949
0.29136422276496887 0.52594482898712158 0.43714648485183716
0.45589086413383484 0.55185186862945557 0.46718063950538635
0.63805794715881348 0.57693839073181152 0.4896361231803894
0.8333091139793396 0.60109496116638184 0.5174260139465332
0.23359769582748413 0.73072153329849243 0.47450631856918335
0.36485415697097778 0.76318538188934326 0.5067867636680603
0.52810919284820557 0.79458272457122803 0.54013252258300781
0.714222252368927 0.82563340663909912 0.56749236583709717
0.91215789318084717 0.85535311698913574 0.59827655553817749
0.002289012772962451 0.0011234508128836751 0.0081951068714261055
0.039880100637674332 0.014844318851828575 0.089690729975700378
0.13283243775367737 0.024871077388525009 0.20337028801441193
0.281707763671875 0.026043657213449478 0.29420647025108337
0.50972378253936768 0.01054063718765974 0.38544952869415283
0.082299612462520599 0.099832810461521149 0.3410528302192688
0.17469942569732666 0.12315476685762405 0.42884603142738342
0.32058680057525635 0.13813678920269012 0.49063971638679504
0.49267902970314026 0.14818361401557922 0.52280747890472412
0.68247067928314209 0.15840195119380951 0.53830105066299438
0.11943379044532776 0.28308284282684326 0.52017027139663696
0.23984353244304657 0.31511840224266052 0.55323553085327148
0.39723527431488037 0.33776766061782837 0.58444714546203613
0.57018798589706421 0.35718441009521484 0.59869492053985596
0.76126176118850708 0.37381121516227722 0.61638814210891724
0.17273406684398651 0.50262516736984253 0.58577746152877808
0.30302774906158447 0.5364946722984314 0.61983484029769897
0.46753779053688049 0.56281960010528564 0.65368586778640747
0.64899861812591553 0.58758699893951416 0.67600256204605103
0.84200519323348999 0.61252260208129883 0.69865363836288452
0.24687565863132477 0.73882794380187988 0.64904433488845825
0.37728974223136902 0.77624404430389404 0.68794554471969604
0.54078924655914307 0.80856853723526001 0.72497743368148804
0.72622132301330566 0.83886146545410156 0.75311100482940674
0.92277973890304565 0.86747318506240845 0.78218263387680054
0.0054518007673323154 0.0056797699071466923 0.052940864115953445
0.056802563369274139 0.024835415184497833 0.17449046671390533
0.15519201755523682 0.028784448280930519 0.31683477759361267
0.33177131414413452 0.016975536942481995 0.47489222884178162
0.52645552158355713 0.020030781626701355 0.5383836030960083
0.081936463713645935 0.10649237781763077 0.52513986825942993
0.17809179425239563 0.12913109362125397 0.61850458383560181
0.32056728005409241 0.14848561584949493 0.65588921308517456
0.50353801250457764 0.15266048908233643 0.72345775365829468
0.67929619550704956 0.1738080233335495 0.71955657005310059
0.12647418677806854 0.29226547479629517 0.7108803391456604
0.24756568670272827 0.32098597288131714 0.75831705331802368
0.402741938829422 0.34640181064605713 0.78006726503372192
0.58067971467971802 0.3647729754447937 0.80079329013824463
0.76661390066146851 0.38661691546440125 0.81180870532989502
0.1838991641998291 0.51170015335083008 0.78009498119354248
0.31368684768676758 0.54633206129074097 0.82180935144424438
0.47603371739387512 0.5752251148223877 0.85504090785980225
0.6588132381439209 0.59928399324417114 0.87823891639709473
0.85137331485748291 0.62469273805618286 0.89738821983337402
0.25739783048629761 0.74605751037597656 0.84844499826431274
0.38967493176460266 0.78861129283905029 0.88813620805740356
0.55231356620788574 0.82267647981643677 0.92528432607650757
0.73765677213668823 0.85131281614303589 0.95518255233764648
0.93628329038619995 0.87777829170227051 0.98067903518676758
