assets/lut/alexjordan only red.cube
# Created by: G'MIC (https://gmic.eu)
TITLE "only_red"
# LUT size
LUT_3D_SIZE 7
# Data domain
DOMAIN_MIN 0.0 0.0 0.0
DOMAIN_MAX 1.0 1.0 1.0
# LUT data points
0.039117161184549332 0.02977987565100193 0.030169019475579262
0.16774439811706543 0.038999475538730621 0.030862081795930862
0.31258335709571838 0.042384263128042221 0.035413525998592377
0.47082003951072693 0.044318463653326035 0.044802989810705185
0.62064820528030396 0.045766223222017288 0.05198771134018898
0.76706832647323608 0.051216978579759598 0.050557453185319901
0.9116787314414978 0.056377515196800232 0.052758354693651199
0.1360851377248764 0.14987082779407501 0.13422350585460663
0.18409250676631927 0.18238060176372528 0.15607805550098419
0.31618699431419373 0.19622303545475006 0.09049929678440094
0.49666473269462585 0.19545553624629974 0.048162661492824554
0.66117465496063232 0.19482104480266571 0.04081369936466217
0.81760019063949585 0.1977325975894928 0.045985832810401917
0.96801114082336426 0.20161576569080353 0.051572296768426895
0.23847046494483948 0.27052128314971924 0.23915448784828186
0.28569018840789795 0.30102843046188354 0.26766961812973022
0.33124184608459473 0.33316364884376526 0.29499530792236328
0.43336755037307739 0.36046028137207031 0.21660932898521423
0.6139519214630127 0.36134985089302063 0.11485613882541656
0.79682248830795288 0.36071380972862244 0.074012100696563721
0.96304816007614136 0.36203745007514954 0.059836249798536301
0.34212836623191833 0.38930866122245789 0.34228259325027466
0.38839206099510193 0.4206274151802063 0.37087222933769226
0.43798071146011353 0.45291918516159058 0.40442553162574768
0.4811827540397644 0.48222818970680237 0.42958050966262817
0.56416267156600952 0.51190656423568726 0.36106902360916138
0.72129476070404053 0.52553582191467285 0.24013014137744904
0.90567147731781006 0.52895134687423706 0.15468211472034454
0.44639843702316284 0.50752896070480347 0.4464118480682373
0.49288102984428406 0.54033643007278442 0.47652396559715271
0.53955674171447754 0.57052338123321533 0.50730353593826294
0.58459335565567017 0.60137224197387695 0.53990310430526733
0.63122260570526123 0.63314688205718994 0.5658760666847229
0.70298957824707031 0.66406041383743286 0.51467585563659668
0.83362084627151489 0.68733543157577515 0.40226995944976807
0.55006533861160278 0.62931656837463379 0.54897785186767578
0.59820950031280518 0.66135567426681519 0.57987791299819946
0.64493036270141602 0.69069069623947144 0.61040616035461426
0.69119209051132202 0.72139644622802734 0.64293861389160156
0.73470252752304077 0.7518584132194519 0.67242133617401123
0.78217339515686035 0.78272992372512817 0.70007145404815674
0.85149407386779785 0.81499648094177246 0.65977847576141357
0.65365505218505859 0.75086623430252075 0.65250390768051147
0.70229494571685791 0.78217542171478271 0.68403410911560059
0.7494087815284729 0.81228280067443848 0.71572989225387573
0.79482042789459229 0.84281414747238159 0.74691188335418701
0.83927857875823975 0.87302696704864502 0.7750048041343689
0.88549494743347168 0.9029533863067627 0.80773347616195679
0.93562304973602295 0.93463659286499023 0.83257377147674561
0.04365207627415657 0.040486998856067657 0.062628008425235748
0.093058675527572632 0.070162557065486908 0.09384492039680481
0.18815809488296509 0.088282220065593719 0.13550911843776703
0.33645790815353394 0.088261380791664124 0.16450756788253784
0.49655431509017944 0.084277689456939697 0.18512789905071259
0.65149247646331787 0.085884213447570801 0.1961657851934433
0.80289220809936523 0.089090995490550995 0.1967402845621109
0.145437091588974 0.16228924691677094 0.1604900062084198
0.19803586602210999 0.19088669121265411 0.18973454833030701
0.33095094561576843 0.19914522767066956 0.19282384216785431
0.48044568300247192 0.20018550753593445 0.19741037487983704
0.62696748971939087 0.20482629537582397 0.20204250514507294
0.77457189559936523 0.20900845527648926 0.20832052826881409
0.92759460210800171 0.21128939092159271 0.20974375307559967
0.24699875712394714 0.28252977132797241 0.26565802097320557
0.29670032858848572 0.31077313423156738 0.29391917586326599
0.34446439146995544 0.34373769164085388 0.32080373167991638
0.47756925225257874 0.35858005285263062 0.24854621291160583
0.65968042612075806 0.35658031702041626 0.20182265341281891
0.82447981834411621 0.35561051964759827 0.19854795932769775
0.97328311204910278 0.3587094247341156 0.20591706037521362
0.35164329409599304 0.40227946639060974 0.36881992220878601
0.3991580605506897 0.43176567554473877 0.39915350079536438
0.44700416922569275 0.46157059073448181 0.42808783054351807
0.49379926919937134 0.4927123486995697 0.45537897944450378
0.59755522012710571 0.51888984441757202 0.37621957063674927
0.77484971284866333 0.52375131845474243 0.27404975891113281
0.9545099139213562 0.52247160673141479 0.22867250442504883
0.45572885870933533 0.52149474620819092 0.47270441055297852
0.50372147560119629 0.55287414789199829 0.50362586975097656
0.55015933513641357 0.58068186044692993 0.53223156929016113
0.5983702540397644 0.61275976896286011 0.56266427040100098
0.64310169219970703 0.64292901754379272 0.59229326248168945
0.72627359628677368 0.67276513576507568 0.52223271131515503
0.88156455755233765 0.68752604722976685 0.40300291776657104
0.55951738357543945 0.6413530707359314 0.57522594928741455
0.60725706815719604 0.67246019840240479 0.60580170154571533
0.6525338888168335 0.69906693696975708 0.6380544900894165
0.70039528608322144 0.73059165477752686 0.66804707050323486
0.74702578783035278 0.76270157098770142 0.70147490501403809
0.78922730684280396 0.79380100965499878 0.7257920503616333
0.86538994312286377 0.82481354475021362 0.67870062589645386
0.66457450389862061 0.7603955864906311 0.67974108457565308
0.712696373462677 0.79136389493942261 0.71023350954055786
0.7596169114112854 0.82076942920684814 0.74151277542114258
0.80488735437393188 0.85045754909515381 0.77208417654037476
0.84855955839157104 0.88070809841156006 0.80137878656387329
0.89510452747344971 0.91282749176025391 0.83422261476516724
0.94478988647460938 0.94348412752151489 0.85801488161087036
0.053087137639522552 0.052389301359653473 0.093408040702342987
0.10364842414855957 0.080402478575706482 0.12415561825037003
0.15656088292598724 0.11040465533733368 0.15882371366024017
0.21921847760677338 0.13601662218570709 0.1945904940366745
0.33828124403953552 0.14261211454868317 0.23784753680229187
0.48801559209823608 0.14268691837787628 0.27767270803451538
0.6438489556312561 0.14151211082935333 0.30258238315582275
0.1541784256696701 0.17162089049816132 0.18972769379615784
0.20294056832790375 0.20268486440181732 0.22321498394012451
0.25444695353507996 0.23164787888526917 0.25551152229309082
0.35012790560722351 0.2480514794588089 0.29519468545913696
0.50549143552780151 0.24542072415351868 0.32536649703979492
0.65574485063552856 0.24570545554161072 0.34405875205993652
0.8123018741607666 0.24503454566001892 0.35728150606155396
0.25861099362373352 0.29278329014778137 0.29276594519615173
0.30543744564056396 0.32175540924072266 0.32196947932243347
0.35406944155693054 0.35377204418182373 0.35517093539237976
0.49150234460830688 0.35905468463897705 0.35215544700622559
0.6436493992805481 0.35997700691223145 0.35947215557098389
0.79115700721740723 0.36311084032058716 0.36599743366241455
0.93567848205566406 0.36910530924797058 0.36800381541252136
0.36291280388832092 0.4122408926486969 0.39691218733787537
0.40845230221748352 0.44199198484420776 0.42540761828422546
0.45937147736549377 0.47208467125892639 0.45518806576728821
0.50485485792160034 0.50273030996322632 0.47842395305633545
0.64208328723907471 0.51868826150894165 0.402719646692276
0.81350582838058472 0.51917338371276855 0.3686147928237915
0.97697842121124268 0.517913818359375 0.35963314771652222
0.46511507034301758 0.53259181976318359 0.49883410334587097
0.51283770799636841 0.56271487474441528 0.52949124574661255
0.56131064891815186 0.59088265895843506 0.55971252918243408
0.6101873517036438 0.62308681011199951 0.59122204780578613
0.65238916873931885 0.65315479040145874 0.61347603797912598
0.76071590185165405 0.67947161197662354 0.53367710113525391
0.92976301908493042 0.68697625398635864 0.4457869827747345
0.56826335191726685 0.65078037977218628 0.60176414251327515
0.61682432889938354 0.68121945858001709 0.63239151239395142
0.66157388687133789 0.71059530973434448 0.66327309608459473
0.70921945571899414 0.74339771270751953 0.69476425647735596
0.7597966194152832 0.77362889051437378 0.72875750064849854
0.80393475294113159 0.80304348468780518 0.75155675411224365
0.88826346397399902 0.83332264423370361 0.69276779890060425
0.6744542121887207 0.76875191926956177 0.70712268352508545
0.72286307811737061 0.80011266469955444 0.73694735765457153
0.76875948905944824 0.83109581470489502 0.76692551374435425
0.814350426197052 0.86220097541809082 0.79765653610229492
0.8618960976600647 0.89130812883377075 0.82968634366989136
0.9068029522895813 0.92383188009262085 0.85954099893569946
0.95462805032730103 0.95447206497192383 0.88506394624710083
0.063779093325138092 0.063945278525352478 0.12302766740322113
0.11394201219081879 0.091127075254917145 0.15473972260951996
0.16841596364974976 0.12082035094499588 0.18861456215381622
0.22095479071140289 0.14838017523288727 0.21782054007053375
0.27681300044059753 0.17581930756568909 0.25377634167671204
0.3624987006187439 0.19550254940986633 0.294984370470047
0.48728236556053162 0.20191150903701782 0.34091445803642273
0.16461308300495148 0.18267150223255157 0.22109387814998627
0.21240593492984772 0.21123746037483215 0.25335317850112915
0.26584321260452271 0.24297504127025604 0.28596872091293335
0.31862941384315491 0.2708604633808136 0.31859630346298218
0.38299739360809326 0.29545828700065613 0.35476300120353699
0.4963507354259491 0.30496710538864136 0.3979070782661438
0.64682334661483765 0.30199220776557922 0.43728774785995483
0.26731422543525696 0.3032296895980835 0.3218328058719635
0.315156489610672 0.33331063389778137 0.35098689794540405
0.36794522404670715 0.36336615681648254 0.38124549388885498
0.41309916973114014 0.39208486676216125 0.4157661497592926
0.50941866636276245 0.40902304649353027 0.45374909043312073
0.66073834896087646 0.4081890881061554 0.48540741205215454
0.81572610139846802 0.40501260757446289 0.50745093822479248
0.37225580215454102 0.42202267050743103 0.42191526293754578
0.41713893413543701 0.45320188999176025 0.45191332697868347
0.46494293212890625 0.48242190480232239 0.48381537199020386
0.52020347118377686 0.51264578104019165 0.51183134317398071
0.65186119079589844 0.52081358432769775 0.51648956537246704
0.80274981260299683 0.52160680294036865 0.51899451017379761
0.94676798582077026 0.52402377128601074 0.52649754285812378
0.47570362687110901 0.54221057891845703 0.52475780248641968
0.52259820699691772 0.57345253229141235 0.5547410249710083
0.57019585371017456 0.60214865207672119 0.58656841516494751
0.61938440799713135 0.63420617580413818 0.61406874656677246
0.66673094034194946 0.66435319185256958 0.63882756233215332
0.80592876672744751 0.67733079195022583 0.55648082494735718
0.9762614369392395 0.67770498991012573 0.52728712558746338
0.57727491855621338 0.6599540114402771 0.62892693281173706
0.62723690271377563 0.69118577241897583 0.65929549932479858
0.67214310169219971 0.72226732969284058 0.68931102752685547
0.72045785188674927 0.75226348638534546 0.72063976526260376
0.76940077543258667 0.78206783533096313 0.74970585107803345
0.81191796064376831 0.81352311372756958 0.77488356828689575
0.91716450452804565 0.8413621187210083 0.70331478118896484
0.68130970001220703 0.77852350473403931 0.73365312814712524
0.7309715747833252 0.81049591302871704 0.76336932182312012
0.77744686603546143 0.84233647584915161 0.79348742961883545
0.82403504848480225 0.87294584512710571 0.82433921098709106
0.87180382013320923 0.90211468935012817 0.85354983806610107
0.9179348349571228 0.93366402387619019 0.88733172416687012
0.96720141172409058 0.96446710824966431 0.91131281852722168
0.072560928761959076 0.070402465760707855 0.15331920981407166
0.12367576360702515 0.10120514780282974 0.18440517783164978
0.17566888034343719 0.131305992603302 0.21685656905174255
0.23010018467903137 0.15863910317420959 0.24978087842464447
0.28280425071716309 0.18744966387748718 0.28256130218505859
0.33696180582046509 0.21558648347854614 0.31264936923980713
0.41182848811149597 0.23772509396076202 0.35200294852256775
0.17305146157741547 0.19168336689472198 0.25013619661331177
0.22286021709442139 0.22194212675094604 0.28083696961402893
0.27257096767425537 0.25230294466018677 0.31381332874298096
0.32701593637466431 0.28068548440933228 0.34822472929954529
0.37876018881797791 0.31012922525405884 0.38050228357315063
0.4383334219455719 0.33740699291229248 0.41284793615341187
0.52483820915222168 0.35352686047554016 0.45277756452560425
0.27487912774085999 0.31347200274467468 0.35114535689353943
0.32376068830490112 0.34304407238960266 0.3806755542755127
0.37402620911598206 0.37241646647453308 0.41223892569541931
0.42610785365104675 0.40160715579986572 0.44650200009346008
0.4791012704372406 0.43178310990333557 0.47876304388046265
0.54556500911712646 0.45634227991104126 0.51579797267913818
0.66044831275939941 0.46586033701896667 0.55631750822067261
0.37889882922172546 0.43393218517303467 0.45022851228713989
0.4272758960723877 0.46440917253494263 0.48215267062187195
0.47621512413024902 0.49472621083259583 0.51185727119445801
0.52544975280761719 0.52444183826446533 0.54242753982543945
0.57491117715835571 0.55224907398223877 0.57581412792205811
0.67337191104888916 0.56830066442489624 0.61452031135559082
0.82144790887832642 0.56836587190628052 0.64729589223861694
0.48493435978889465 0.55294394493103027 0.55304288864135742
0.53112512826919556 0.58333545923233032 0.58255958557128906
0.57905364036560059 0.61255902051925659 0.61350101232528687
0.62623417377471924 0.64331942796707153 0.64402061700820923
0.68076992034912109 0.67273539304733276 0.67094004154205322
0.81282591819763184 0.68089890480041504 0.67479491233825684
0.95939242839813232 0.6824764609336853 0.6785508394241333
0.58862268924713135 0.67129850387573242 0.65670716762542725
0.63477295637130737 0.70281493663787842 0.68537932634353638
0.68304973840713501 0.7321966290473938 0.71667939424514771
0.73126101493835449 0.76298671960830688 0.74691730737686157
0.77848690748214722 0.79231351613998413 0.77402800321578979
0.82552558183670044 0.82562881708145142 0.80355262756347656
0.956745445728302 0.84161287546157837 0.72707349061965942
0.69268697500228882 0.7902640700340271 0.76062798500061035
0.73895782232284546 0.82180780172348022 0.78950387239456177
0.78597408533096313 0.85280698537826538 0.81999486684799194
0.83334332704544067 0.88515973091125488 0.84992331266403198
0.8816910982131958 0.91355109214782715 0.8787885308265686
0.92786389589309692 0.94350308179855347 0.91126358509063721
0.97836333513259888 0.97342336177825928 0.93228930234909058
0.084042057394981384 0.081522874534130096 0.18453177809715271
0.1337721049785614 0.1120634526014328 0.21576924622058868
0.18276989459991455 0.14160320162773132 0.24723228812217712
0.23611566424369812 0.16968260705471039 0.28067412972450256
0.29240554571151733 0.19904185831546783 0.31471920013427734
0.34720703959465027 0.2272922694683075 0.3473241925239563
0.40280666947364807 0.25480455160140991 0.3779451847076416
0.1849977970123291 0.20295310020446777 0.28213390707969666
0.23391272127628326 0.23312641680240631 0.31278261542320251
0.28202590346336365 0.26135343313217163 0.34535613656044006
0.33384391665458679 0.29043018817901611 0.37821784615516663
0.38988181948661804 0.32033815979957581 0.4115523099899292
0.44380655884742737 0.34759557247161865 0.44378584623336792
0.49663534760475159 0.37756869196891785 0.47466173768043518
0.28417661786079407 0.32288092374801636 0.38028872013092041
0.33425405621528625 0.35305288434028625 0.41227802634239197
0.38256308436393738 0.38233426213264465 0.44497686624526978
0.43399897217750549 0.41217142343521118 0.4771517813205719
0.48751699924468994 0.44075149297714233 0.50938218832015991
0.54112905263900757 0.46718516945838928 0.54239743947982788
0.59901160001754761 0.49981024861335754 0.57419824600219727
0.38730260729789734 0.44172966480255127 0.48067831993103027
0.43542256951332092 0.47287508845329285 0.51105779409408569
0.48515069484710693 0.50491911172866821 0.54196536540985107
0.53595471382141113 0.53412896394729614 0.5747414231300354
0.58441251516342163 0.5627819299697876 0.60568773746490479
0.63599419593811035 0.59209537506103516 0.63963288068771362
0.70949393510818481 0.61690014600753784 0.67696815729141235
0.49199530482292175 0.56324857473373413 0.58076518774032593
0.53983545303344727 0.59239488840103149 0.6113208532333374
0.58886295557022095 0.62248283624649048 0.64207130670547485
0.63497030735015869 0.65337610244750977 0.67123949527740479
0.68590164184570312 0.68305927515029907 0.70367062091827393
0.73802322149276733 0.71338260173797607 0.73744839429855347
0.83498632907867432 0.73034995794296265 0.77737241983413696
0.59719467163085938 0.68350708484649658 0.68293994665145874
0.64377003908157349 0.71414828300476074 0.71251147985458374
0.69181406497955322 0.74469953775405884 0.7433018684387207
0.73947751522064209 0.77351981401443481 0.77512574195861816
0.78717756271362305 0.80488675832748413 0.80444025993347168
0.83748281002044678 0.83524000644683838 0.83600425720214844
0.97155559062957764 0.8427613377571106 0.8351060152053833
0.70299553871154785 0.8024601936340332 0.78741854429244995
0.74972951412200928 0.83236145973205566 0.81719624996185303
0.79599452018737793 0.86247307062149048 0.84764856100082397
0.84259849786758423 0.89442408084869385 0.87793821096420288
0.8927072286605835 0.92465877532958984 0.90743565559387207
0.94028425216674805 0.95427209138870239 0.93609178066253662
0.98735421895980835 0.98293524980545044 0.96176236867904663
0.094216123223304749 0.092943109571933746 0.2143837958574295
0.14419558644294739 0.12095136195421219 0.24751719832420349
0.19293040037155151 0.1491159051656723 0.27951115369796753
0.24410828948020935 0.17958013713359833 0.31166771054267883
0.2985994815826416 0.2106645405292511 0.34581294655799866
0.35337603092193604 0.23983941972255707 0.37962836027145386
0.40936601161956787 0.26725780963897705 0.41020011901855469
0.19611293077468872 0.21281410753726959 0.31391248106956482
0.24564938247203827 0.24288326501846313 0.34509113430976868
0.29404774308204651 0.27213075757026672 0.37619215250015259
0.34403088688850403 0.30202189087867737 0.40847823023796082
0.39672648906707764 0.33340677618980408 0.44219318032264709
0.45086321234703064 0.36071157455444336 0.47597897052764893
0.50357884168624878 0.38966864347457886 0.5065464973449707
0.29616513848304749 0.33291283249855042 0.41195753216743469
0.3460041880607605 0.36354100704193115 0.44392836093902588
0.39421924948692322 0.39408740401268005 0.4747236967086792
0.44435456395149231 0.42335528135299683 0.5067286491394043
0.495391845703125 0.45151937007904053 0.53994035720825195
0.54870927333831787 0.47850883007049561 0.57245379686355591
0.60252851247787476 0.50850558280944824 0.603954017162323
0.39759910106658936 0.45516544580459595 0.50951689481735229
0.44569218158721924 0.48439660668373108 0.54242831468582153
0.49395489692687988 0.51470452547073364 0.57396692037582397
0.54540908336639404 0.54450398683547974 0.60365253686904907
0.59400105476379395 0.57326048612594604 0.63661044836044312
0.64715427160263062 0.60008102655410767 0.66917312145233154
0.70351135730743408 0.62856811285018921 0.70222920179367065
0.50185853242874146 0.57536935806274414 0.6093825101852417
0.55062925815582275 0.60408014059066772 0.64200186729431152
0.59728878736495972 0.63546866178512573 0.6724587082862854
0.6458856463432312 0.66252750158309937 0.7024303674697876
0.69685012102127075 0.69423413276672363 0.73445123434066772
0.75043082237243652 0.7239035964012146 0.76923340559005737
0.79887080192565918 0.7528807520866394 0.79647445678710938
0.60703659057617188 0.6932942271232605 0.7120659351348877
0.6557389497756958 0.72432810068130493 0.74275267124176025
0.70230704545974731 0.75625127553939819 0.77233397960662842
0.74860543012619019 0.78399628400802612 0.80228316783905029
0.79766058921813965 0.81660312414169312 0.83318096399307251
0.84514349699020386 0.84522414207458496 0.86430913209915161
0.90004003047943115 0.87459224462509155 0.89932888746261597
0.70982104539871216 0.81431704759597778 0.8149116039276123
0.75919729471206665 0.84429824352264404 0.84568965435028076
0.80570787191390991 0.87474536895751953 0.87539935111999512
0.85242998600006104 0.90361219644546509 0.90522611141204834
0.9014207124710083 0.93498462438583374 0.93559741973876953
0.9497571587562561 0.96500599384307861 0.96587508916854858
0.99271857738494873 0.98967993259429932 0.99094736576080322
