assets/lut/alexjordan orange dark look.cube
# Created by: G'MIC (https://gmic.eu)
TITLE "orange_dark_look"
# LUT size
LUT_3D_SIZE 13
# Data domain
DOMAIN_MIN 0.0 0.0 0.0
DOMAIN_MAX 1.0 1.0 1.0
# LUT data points
0 0 0
0.00031537821632809937 2.3696002244832925e-05 0
0.012982835993170738 0.0005882711848244071 0
0.045602582395076752 0.00088387285359203815 0
0.090894110500812531 0.00073206285014748573 0.00019311343203298748
0.13872537016868591 2.4309345462825149e-05 0.00011785170499933884
0.18093398213386536 0 0
0.22503510117530823 0 0
0.27375417947769165 0 0
0.32597583532333374 0 0
0.38262435793876648 7.9345700214616954e-05 4.434024594957009e-05
0.44411718845367432 0.0023640950676053762 0.0012606153031811118
0.5077093243598938 0.011337623931467533 0.0061751273460686207
4.9366670282324776e-05 0.00059250474441796541 0
0.0068306569010019302 0.0070625306107103825 0.00039005654980428517
0.029327452182769775 0.011594061739742756 0.0025210510939359665
0.06676318496465683 0.011564112268388271 0.0042396844364702702
0.11964868009090424 0.00994110107421875 0.0045323688536882401
0.17627896368503571 0.005417932290583849 0.0026181389112025499
0.23054520785808563 0.0030603297054767609 0.00084455899195745587
0.29003527760505676 0.0063535952940583229 0.0028010648675262928
0.35428279638290405 0.013146224431693554 0.0065317489206790924
0.42069089412689209 0.02093709260225296 0.011379885487258434
0.49057295918464661 0.031180677935481071 0.017158523201942444
0.56405919790267944 0.042598441243171692 0.022098705172538757
0.63456892967224121 0.058206342160701752 0.028962243348360062
0.0046142577193677425 0.016576251015067101 0.00072238396387547255
0.022384434938430786 0.029806474223732948 0.0076227225363254547
0.048597373068332672 0.038006339222192764 0.014092957600951195
0.094796262681484222 0.043108291923999786 0.017865618690848351
0.15985143184661865 0.046054869890213013 0.019381849095225334
0.22955560684204102 0.046609286218881607 0.019231131300330162
0.29734784364700317 0.05039520189166069 0.021014777943491936
0.36692795157432556 0.063230492174625397 0.028340013697743416
0.44050031900405884 0.080099932849407196 0.038485012948513031
0.51642888784408569 0.095893219113349915 0.048700787127017975
0.59357690811157227 0.11091835051774979 0.056660760194063187
0.67079073190689087 0.12378014624118805 0.061574734747409821
0.74114418029785156 0.13742257654666901 0.066755674779415131
0.023265734314918518 0.061416551470756531 0.012197651900351048
0.046545606106519699 0.079798832535743713 0.025357473641633987
0.080082282423973083 0.095555491745471954 0.035059072077274323
0.13716249167919159 0.10928124934434891 0.042479421943426132
0.21386212110519409 0.12067705392837524 0.048285704106092453
0.29537928104400635 0.12948153913021088 0.053336769342422485
0.37243819236755371 0.14197166264057159 0.059999249875545502
0.44620516896247864 0.1601778119802475 0.070647113025188446
0.52170389890670776 0.17886216938495636 0.08239428699016571
0.59737992286682129 0.19736282527446747 0.094077304005622864
0.67335408926010132 0.21559479832649231 0.10418451577425003
0.74702483415603638 0.23225164413452148 0.11188279837369919
0.81216716766357422 0.24556216597557068 0.11762460321187973
0.050487324595451355 0.14236186444759369 0.036384418606758118
0.081308312714099884 0.16713160276412964 0.052879378199577332
0.12604726850986481 0.19051028788089752 0.067197032272815704
0.19249115884304047 0.21002773940563202 0.078840442001819611
0.27579057216644287 0.22599256038665771 0.088786259293556213
0.36218681931495667 0.23973231017589569 0.09763665497303009
0.44258362054824829 0.25618484616279602 0.1075313612818718
0.51675927639007568 0.27485567331314087 0.11894402652978897
0.58776795864105225 0.29211592674255371 0.12910610437393188
0.65753722190856934 0.30935132503509521 0.13935288786888123
0.72761416435241699 0.328126460313797 0.14969177544116974
0.79635870456695557 0.34585899114608765 0.1592223048210144
0.85830581188201904 0.35785287618637085 0.16586162149906158
0.082336187362670898 0.25310122966766357 0.066669777035713196
0.12124642729759216 0.28109082579612732 0.086578980088233948
0.17571941018104553 0.30748644471168518 0.10465581715106964
0.24934615194797516 0.32772684097290039 0.11951889097690582
0.33694711327552795 0.3434542715549469 0.13231532275676727
0.42475628852844238 0.35742294788360596 0.14332030713558197
0.50392574071884155 0.37236914038658142 0.15296521782875061
0.57499808073043823 0.38824301958084106 0.16267095506191254
0.64064288139343262 0.40282079577445984 0.17130815982818604
0.70289713144302368 0.41829270124435425 0.17955769598484039
0.76572597026824951 0.4353376030921936 0.18890772759914398
0.82994788885116577 0.45144921541213989 0.19816423952579498
0.88889652490615845 0.46321237087249756 0.20594529807567596
0.11636831611394882 0.37386807799339294 0.099436752498149872
0.16189253330230713 0.40365535020828247 0.12123177945613861
0.2227039635181427 0.42951396107673645 0.1417788565158844
0.30109831690788269 0.44669866561889648 0.15785834193229675
0.38992482423782349 0.45871928334236145 0.17133499681949615
0.4774773120880127 0.46913602948188782 0.18221810460090637
0.55484223365783691 0.47970312833786011 0.19122405350208282
0.62302404642105103 0.49176156520843506 0.19961850345134735
0.68469840288162231 0.50424051284790039 0.20723815262317657
0.74244141578674316 0.51815462112426758 0.21437676250934601
0.79992592334747314 0.53368490934371948 0.22236110270023346
0.85806620121002197 0.54868733882904053 0.23102584481239319
0.91314858198165894 0.56039965152740479 0.23933839797973633
0.15006302297115326 0.49210017919540405 0.13160273432731628
0.20030222833156586 0.52085047960281372 0.1537439227104187
0.26492273807525635 0.54408115148544312 0.17474840581417084
0.34537765383720398 0.55695265531539917 0.19092278182506561
0.43421348929405212 0.56395983695983887 0.20363070070743561
0.52073109149932861 0.5695682168006897 0.21431557834148407
0.59715986251831055 0.57684582471847534 0.22361043095588684
0.66326504945755005 0.58612000942230225 0.23195405304431915
0.72223377227783203 0.59682232141494751 0.23881536722183228
0.77758067846298218 0.60920834541320801 0.24439164996147156
0.8313714861869812 0.62340492010116577 0.25041180849075317
0.88415729999542236 0.63779348134994507 0.25826415419578552
0.93510746955871582 0.64910721778869629 0.26709169149398804
0.18124011158943176 0.60186481475830078 0.16257648169994354
0.23477444052696228 0.62722504138946533 0.18330754339694977
0.30177086591720581 0.64609909057617188 0.20315277576446533
0.38308677077293396 0.6554146409034729 0.21933233737945557
0.47230720520019531 0.65844929218292236 0.23194250464439392
0.55851739645004272 0.66028755903244019 0.24274812638759613
0.63326197862625122 0.66497725248336792 0.25240802764892578
0.69703978300094604 0.67282861471176147 0.26106724143028259
0.75374472141265869 0.6821485161781311 0.26709073781967163
0.80739039182662964 0.69292020797729492 0.27037888765335083
0.85894924402236938 0.70541143417358398 0.27357703447341919
0.90844923257827759 0.71826142072677612 0.27925547957420349
0.95603328943252563 0.72904539108276367 0.28746497631072998
0.20887818932533264 0.70228654146194458 0.19275771081447601
0.26417157053947449 0.72417646646499634 0.2117948979139328
0.33192750811576843 0.73923665285110474 0.23003943264484406
0.41379961371421814 0.74505174160003662 0.24530716240406036
0.5038292407989502 0.74442315101623535 0.25751101970672607
0.59045869112014771 0.74325048923492432 0.26807314157485962
0.66370099782943726 0.74607199430465698 0.27758249640464783
0.72512602806091309 0.75277334451675415 0.28648519515991211
0.78035008907318115 0.76076620817184448 0.29223299026489258
0.83302348852157593 0.76997357606887817 0.29293879866600037
0.88319975137710571 0.78045946359634399 0.29324644804000854
0.93075281381607056 0.79143911600112915 0.29653900861740112
0.97609186172485352 0.8012731671333313 0.30365252494812012
0.23296715319156647 0.79383111000061035 0.22246704995632172
0.28939551115036011 0.81284505128860474 0.23909495770931244
0.35705304145812988 0.82498270273208618 0.25569665431976318
0.439271479845047 0.82758629322052002 0.26944729685783386
0.52958428859710693 0.82404738664627075 0.28032675385475159
0.61538064479827881 0.82075458765029907 0.28992459177970886
0.68845194578170776 0.82161009311676025 0.29852294921875
0.74985593557357788 0.82642650604248047 0.3067605197429657
0.80457156896591187 0.8332628607749939 0.31225606799125671
0.85613125562667847 0.84081321954727173 0.31262922286987305
0.90475887060165405 0.84986215829849243 0.31155455112457275
0.95068955421447754 0.85947388410568237 0.31351175904273987
0.99129921197891235 0.86878901720046997 0.32023531198501587
0.25571352243423462 0.8775830864906311 0.25157734751701355
0.3139306902885437 0.89323389530181885 0.26484411954879761
0.3823600709438324 0.90221142768859863 0.27893516421318054
0.46431106328964233 0.90245586633682251 0.29106375575065613
0.55364245176315308 0.89704656600952148 0.30134415626525879
0.6379019021987915 0.89248454570770264 0.30996128916740417
0.7101975679397583 0.89234757423400879 0.31722185015678406
0.77177631855010986 0.89565169811248779 0.32419157028198242
0.82659447193145752 0.90072411298751831 0.3300173282623291
0.8771241307258606 0.90727603435516357 0.33199253678321838
0.92409992218017578 0.91524863243103027 0.33089062571525574
0.96856808662414551 0.92437261343002319 0.33204251527786255
0.99864357709884644 0.93362092971801758 0.33902376890182495
0.27826386690139771 0.95477515459060669 0.28038662672042847
0.33903029561042786 0.96690154075622559 0.2902316153049469
0.40922403335571289 0.97259283065795898 0.30079641938209534
0.49005010724067688 0.9714013934135437 0.31160774827003479
0.5767446756362915 0.96556025743484497 0.32214313745498657
0.65840762853622437 0.96084094047546387 0.33071041107177734
0.72893619537353516 0.96040624380111694 0.33695700764656067
0.79028648138046265 0.96278488636016846 0.34335106611251831
0.84519690275192261 0.96650665998458862 0.3495943546295166
0.89497339725494385 0.97193098068237305 0.35326969623565674
0.94104444980621338 0.9784386157989502 0.35254892706871033
0.98391062021255493 0.98523139953613281 0.35392585396766663
1 0.99075478315353394 0.36152550578117371
0 0 0
0.0014633028768002987 0.00018238740449305624 0
0.015204769559204578 0.0012389837065711617 0
0.044239044189453125 0.00074630440212786198 0
0.086665287613868713 7.1806067580837407e-07 0
0.13500219583511353 0 0
0.18403191864490509 0 0
0.23452162742614746 9.8733344202628359e-06 0
0.28532811999320984 0.00012637868348974735 0.0001026826721499674
0.3352891206741333 4.3442669266369194e-05 0
0.38853096961975098 0 0
0.45184293389320374 0.001209887326695025 0.00062798894941806793
0.52159410715103149 0.007890753448009491 0.0043947109952569008
0.0011653376277536154 0.0012385499430820346 0
0.011704448610544205 0.007658984512090683 0.0010492063593119383
0.029777122661471367 0.012088431976735592 0.0029867433477193117
0.063335895538330078 0.011404508724808693 0.0026716345455497503
0.1163349524140358 0.0069445590488612652 0.001667082542553544
0.1762986034154892 0.0038349376991391182 0.00072637817356735468
0.23860767483711243 0.0050755818374454975 0.0014794891467317939
0.30405792593955994 0.012437962926924229 0.0055087818764150143
0.3700677752494812 0.02129923552274704 0.011268645524978638
0.43510359525680542 0.027241336181759834 0.015750197693705559
0.50123322010040283 0.032509088516235352 0.019664211198687553
0.57409846782684326 0.043166499584913254 0.025365432724356651
0.64744383096694946 0.060824435204267502 0.035479303449392319
0.010829895734786987 0.01975524052977562 0.001746009336784482
0.028715874999761581 0.031318232417106628 0.010939908213913441
0.052353758364915848 0.040749106556177139 0.01743997260928154
0.095273621380329132 0.044843904674053192 0.019369281828403473
0.16025511920452118 0.046056725084781647 0.019350148737430573
0.2331838458776474 0.048307172954082489 0.018977206200361252
0.30736353993415833 0.05644926056265831 0.022995548322796822
0.38271591067314148 0.071857139468193054 0.032069038599729538
0.45927435159683228 0.088189251720905304 0.043933942914009094
0.53613162040710449 0.10268931835889816 0.055736124515533447
0.61050558090209961 0.11603504419326782 0.064343519508838654
0.68540555238723755 0.13002736866474152 0.071512676775455475
0.75543195009231567 0.1466381847858429 0.080778099596500397
0.030465429648756981 0.068589679896831512 0.0162672009319067
0.054022993892431259 0.085928596556186676 0.030752668157219887
0.087611116468906403 0.10301313549280167 0.04148763045668602
0.14268885552883148 0.11624667793512344 0.048030555248260498
0.21928295493125916 0.12645715475082397 0.052747089415788651
0.30266153812408447 0.13668398559093475 0.056815531104803085
0.38405981659889221 0.15117180347442627 0.064038686454296112
0.46259883046150208 0.16967053711414337 0.075579851865768433
0.54072564840316772 0.18821901082992554 0.089033596217632294
0.61871218681335449 0.20612163841724396 0.10318419337272644
0.69301551580429077 0.22327376902103424 0.11429814249277115
0.76383763551712036 0.23990583419799805 0.12307967990636826
0.82817447185516357 0.25486722588539124 0.13253512978553772
0.058010909706354141 0.15369382500648499 0.042442753911018372
0.088506154716014862 0.17849844694137573 0.060195084661245346
0.13344094157218933 0.20226415991783142 0.075560323894023895
0.20014408230781555 0.22086729109287262 0.086733110249042511
0.28479400277137756 0.23576049506664276 0.095684722065925598
0.3728305995464325 0.24990437924861908 0.10356056690216064
0.45569649338722229 0.26772052049636841 0.11323997378349304
0.53224557638168335 0.2872980535030365 0.12545076012611389
0.60499507188796997 0.3034386932849884 0.13671877980232239
0.67568486928939819 0.31965354084968567 0.14834988117218018
0.74436765909194946 0.33747377991676331 0.1596759706735611
0.81117027997970581 0.35439267754554749 0.17023061215877533
0.87182700634002686 0.36747178435325623 0.18047989904880524
0.09150426834821701 0.26606565713882446 0.075063414871692657
0.12884294986724854 0.29531022906303406 0.095477312803268433
0.18271885812282562 0.32127374410629272 0.11407683044672012
0.25781702995300293 0.33981755375862122 0.12818032503128052
0.3471122682094574 0.35421141982078552 0.13990728557109833
0.43682849407196045 0.36819034814834595 0.14991168677806854
0.51702219247817993 0.38407385349273682 0.15960577130317688
0.58933955430984497 0.40076979994773865 0.17022909224033356
0.65516787767410278 0.4144749641418457 0.1791996955871582
0.71749413013458252 0.42877581715583801 0.18857651948928833
0.77928781509399414 0.44539561867713928 0.19880294799804688
0.84179556369781494 0.46128129959106445 0.209593266248703
0.89998000860214233 0.47334966063499451 0.22028167545795441
0.12753243744373322 0.3875897228717804 0.10958455502986908
0.17055435478687286 0.41699466109275818 0.13072045147418976
0.23032678663730621 0.4420335590839386 0.15060040354728699
0.30937254428863525 0.45826870203018188 0.16632217168807983
0.40011852979660034 0.46954619884490967 0.1787177175283432
0.48897829651832581 0.47972375154495239 0.18908943235874176
0.56703370809555054 0.49081805348396301 0.1980537623167038
0.63557910919189453 0.50290173292160034 0.20717549324035645
0.6972166895866394 0.51416891813278198 0.21573564410209656
0.75479602813720703 0.52694195508956909 0.22353418171405792
0.8112565279006958 0.54246366024017334 0.23205181956291199
0.86824333667755127 0.55769103765487671 0.24161781370639801
0.92249637842178345 0.56948834657669067 0.25234010815620422
0.16304412484169006 0.50544816255569458 0.14298520982265472
0.21009822189807892 0.53315901756286621 0.16384483873844147
0.27329933643341064 0.55491125583648682 0.1836031973361969
0.35383957624435425 0.56742912530899048 0.1991538405418396
0.4437011182308197 0.57433301210403442 0.21068844199180603
0.53091692924499512 0.58006131649017334 0.2203885018825531
0.6077725887298584 0.58709859848022461 0.23009636998176575
0.67409813404083252 0.59591853618621826 0.23969191312789917
0.73335534334182739 0.60532808303833008 0.24741359055042267
0.78840547800064087 0.61635887622833252 0.25326052308082581
0.84143072366714478 0.63065063953399658 0.25896075367927551
0.8933030366897583 0.64499932527542114 0.2667945921421051
0.94352567195892334 0.65644055604934692 0.27698782086372375
0.19562038779258728 0.61458921432495117 0.17517425119876862
0.24613116681575775 0.63917142152786255 0.19445937871932983
0.31100493669509888 0.65658318996429443 0.21293480694293976
0.39148655533790588 0.66540879011154175 0.22783373296260834
0.48046371340751648 0.6684306263923645 0.23885947465896606
0.56668740510940552 0.67023521661758423 0.24850587546825409
0.64199233055114746 0.67469632625579834 0.25869157910346985
0.70616179704666138 0.68166375160217285 0.26854661107063293
0.76348435878753662 0.68990254402160645 0.27529963850975037
0.81700760126113892 0.69979214668273926 0.27825736999511719
0.86811184883117676 0.7118719220161438 0.28096416592597961
0.91690713167190552 0.72442126274108887 0.28620755672454834
0.96393626928329468 0.73506009578704834 0.29575356841087341
0.22359330952167511 0.71382111310958862 0.20679293572902679
0.27643325924873352 0.73510873317718506 0.22350654006004333
0.3421083390712738 0.74888831377029419 0.24003836512565613
0.4223940372467041 0.75414741039276123 0.25370892882347107
0.51080483198165894 0.75377064943313599 0.26440519094467163
0.59627580642700195 0.75277149677276611 0.27404153347015381
0.67045915126800537 0.7551044225692749 0.28404852747917175
0.73293226957321167 0.76101583242416382 0.29376548528671265
0.78885233402252197 0.7682921290397644 0.29971444606781006
0.84162372350692749 0.77663141489028931 0.30028888583183289
0.89117324352264404 0.78635942935943604 0.30040499567985535
0.93822330236434937 0.79700368642807007 0.30370813608169556
0.98259806632995605 0.80664724111557007 0.31329381465911865
0.24684147536754608 0.80412358045578003 0.23864196240901947
0.30142444372177124 0.82211047410964966 0.25165951251983643
0.36769169569015503 0.83285146951675415 0.26513409614562988
0.44785591959953308 0.83534157276153564 0.27711984515190125
0.53590685129165649 0.83217918872833252 0.28732940554618835
0.62072962522506714 0.82920008897781372 0.2966035008430481
0.69446969032287598 0.82989978790283203 0.3050805926322937
0.75675046443939209 0.83406144380569458 0.31377154588699341
0.81202465295791626 0.84007203578948975 0.31931468844413757
0.86350339651107788 0.84691154956817627 0.31969305872917175
0.91168558597564697 0.85502558946609497 0.31907618045806885
0.95705658197402954 0.86432445049285889 0.32162556052207947
0.99464201927185059 0.87350326776504517 0.33182397484779358
0.26767727732658386 0.88658887147903442 0.26977866888046265
0.32398506999015808 0.90135753154754639 0.2787221372127533
0.39127069711685181 0.9092293381690979 0.28839671611785889
0.47118273377418518 0.9094163179397583 0.29851925373077393
0.55870246887207031 0.90454608201980591 0.3086012601852417
0.64281952381134033 0.90027314424514771 0.31725829839706421
0.71581745147705078 0.89967453479766846 0.32421994209289551
0.77823871374130249 0.90238279104232788 0.33096912503242493
0.83316707611083984 0.90685397386550903 0.33718481659889221
0.88326370716094971 0.91257703304290771 0.33897176384925842
0.92978203296661377 0.91987830400466919 0.33848440647125244
0.97367537021636963 0.92835891246795654 0.34140348434448242
0.99953055381774902 0.9373314380645752 0.3523901104927063
0.28772246837615967 0.9627150297164917 0.3009219765663147
0.34666550159454346 0.97378373146057129 0.30607736110687256
0.41513898968696594 0.9782567024230957 0.3123287558555603
0.49455681443214417 0.97727161645889282 0.32076367735862732
0.58033615350723267 0.97271209955215454 0.3308294415473938
0.66289639472961426 0.96790766716003418 0.33958965539932251
0.73436295986175537 0.96680796146392822 0.34557971358299255
0.79650771617889404 0.96844208240509033 0.35179489850997925
0.85141128301620483 0.97177457809448242 0.35820659995079041
0.90077996253967285 0.97607040405273438 0.36146044731140137
0.94606894254684448 0.98137319087982178 0.36125785112380981
0.98764228820800781 0.98714619874954224 0.36465364694595337
1 0.99231016635894775 0.37639817595481873
0.00030640247859992087 4.4878790504299104e-05 0
0.0048901727423071861 0.00090607290621846914 8.5868086898699403e-05
0.018076054751873016 0.001757453428581357 8.3324957813601941e-05
0.043616276234388351 0.00070696062175557017 0
0.084872797131538391 0 0
0.13460169732570648 0 0
0.18826429545879364 1.077091019396903e-05 8.3115519373677671e-05
0.24340181052684784 0.0013532151933759451 0.0017720690229907632
0.29568973183631897 0.003156998660415411 0.0028209162410348654
0.34374290704727173 0.0013477549655362964 0.00095712998881936073
0.3960186243057251 0.00070944393519312143 0.00053316005505621433
0.46131616830825806 0.0020369584672152996 0.0014276242582127452
0.53431791067123413 0.0075517394579946995 0.0065964194945991039
0.00516535434871912 0.0037286647129803896 1.9746668840525672e-05
0.015783810988068581 0.0093669965863227844 0.0023576924577355385
0.030797636136412621 0.013281235471367836 0.0047760610468685627
0.062204938381910324 0.012256113812327385 0.0029521717224270105
0.11603514850139618 0.0076746623963117599 0.0024769653100520372
0.17945051193237305 0.0060147903859615326 0.0029835121240466833
0.2473025918006897 0.01051940955221653 0.0065785874612629414
0.31678396463394165 0.021816762164235115 0.014294598251581192
0.38305357098579407 0.030614396557211876 0.020234052091836929
0.44637644290924072 0.03457704558968544 0.023737529292702675
0.5109483003616333 0.039090700447559357 0.02803853340446949
0.58431780338287354 0.048974938690662384 0.03544146940112114
0.65980339050292969 0.065215989947319031 0.049115948379039764
0.016419623047113419 0.023764815181493759 0.0042503206059336662
0.033669445663690567 0.033451348543167114 0.014966897666454315
0.055492956191301346 0.043697729706764221 0.02166830375790596
0.096224524080753326 0.049770757555961609 0.023570146411657333
0.16247625648975372 0.051008995622396469 0.025580732151865959
0.23895193636417389 0.05546843633055687 0.027828829362988472
0.31832420825958252 0.066078290343284607 0.033198367804288864
0.39685159921646118 0.08134789764881134 0.042835835367441177
0.47306853532791138 0.095990650355815887 0.054592866450548172
0.54805272817611694 0.10951409488916397 0.067423306405544281
0.62118959426879883 0.12358775734901428 0.079309277236461639
0.69556480646133423 0.139463871717453 0.090816274285316467
0.76684355735778809 0.15761186182498932 0.10506566613912582
0.035806708037853241 0.074541486799716949 0.022749762982130051
0.06157328188419342 0.091685518622398376 0.038131415843963623
0.096328854560852051 0.10917948931455612 0.051607288420200348
0.14862105250358582 0.12465231120586395 0.059658575803041458
0.22524052858352661 0.13467015326023102 0.065990760922431946
0.31039321422576904 0.14670896530151367 0.070255249738693237
0.39465042948722839 0.16186287999153137 0.076756693422794342
0.47507840394973755 0.1789153665304184 0.087929762899875641
0.55331718921661377 0.1961854100227356 0.10252431035041809
0.63027113676071167 0.214058518409729 0.11863251030445099
0.70265489816665649 0.23259870707988739 0.13292086124420166
0.7720637321472168 0.25056025385856628 0.14562259614467621
0.83623474836349487 0.26708865165710449 0.15979358553886414
0.065766908228397369 0.16398768126964569 0.05326760932803154
0.097764544188976288 0.18814009428024292 0.07185160368680954
0.1443328857421875 0.21159736812114716 0.089772544801235199
0.20999212563037872 0.23009912669658661 0.10314877331256866
0.29359984397888184 0.24435530602931976 0.11315641552209854
0.38186931610107422 0.25962561368942261 0.12016934901475906
0.46534141898155212 0.27710339426994324 0.12780675292015076
0.54236811399459839 0.2948392927646637 0.13880461454391479
0.61505746841430664 0.3114812970161438 0.15190212428569794
0.68509757518768311 0.32878986001014709 0.16568760573863983
0.7521938681602478 0.3474029004573822 0.17924514412879944
0.8168291449546814 0.36505106091499329 0.19308631122112274
0.87668406963348389 0.37925964593887329 0.20742475986480713
0.10249223560094833 0.27928271889686584 0.090588435530662537
