assets/lut/alexjordan highlights protection.cube
# Created by: G'MIC (https://gmic.eu)
TITLE "highlights_protection"
# LUT size
LUT_3D_SIZE 13
# Data domain
DOMAIN_MIN 0.0 0.0 0.0
DOMAIN_MAX 1.0 1.0 1.0
# LUT data points
0 0 0
0 0 0
0 0 0
0 0 0
0 0 0
0 0 0
0 0 0
0 0 0
0.0038895402103662491 0.00020542518177535385 0.00014708275557495654
0.061068382114171982 0.0092717492952942848 0.0089307893067598343
0.15191060304641724 0.020976422354578972 0.021445540711283684
0.26004859805107117 0.02889963798224926 0.029580298811197281
0.37192609906196594 0.033802706748247147 0.035310275852680206
0 0 0
0 0 0
0 0 0
0 0 0
0 0 0
0 0 0
0 0 0
0.00020108690659981221 0 4.9202113586943597e-05
0.009198581799864769 0.0016700595151633024 0.001644194358959794
0.06539897620677948 0.011976743116974831 0.011545548215508461
0.16054621338844299 0.023297702893614769 0.022502226755023003
0.26904615759849548 0.029790855944156647 0.029115086421370506
0.38372719287872314 0.034795049577951431 0.033616233617067337
0 0 0
0 0 0
0 0 0
0 0 0
0.00052268832223489881 0 0
0.0071180756203830242 0.0017868491122499108 0.00063811655854806304
0.027821185067296028 0.008784574456512928 0.0026423137169331312
0.077984482049942017 0.019583055749535561 0.0070914174430072308
0.14317457377910614 0.031367987394332886 0.014230900444090366
0.22163401544094086 0.043300479650497437 0.020554456859827042
0.31595763564109802 0.054458186030387878 0.023817863315343857
0.42556014657020569 0.061424538493156433 0.027376197278499603
0.54853701591491699 0.069067753851413727 0.032061781734228134
0.00011376773909432814 0.00068624160485342145 0.00022403492766898125
0 0.00085305608808994293 0.00022403492766898125
0.0024240082129836082 0.0063201906159520149 0.00086581660434603691
0.017272455617785454 0.021056545898318291 0.00097333121811971068
0.053875386714935303 0.038023464381694794 0.00092219933867454529
0.11162997782230377 0.056127257645130157 0.0048546586185693741
0.18576046824455261 0.074347957968711853 0.0080687133595347404
0.26830559968948364 0.088819913566112518 0.0097850421443581581
0.35331475734710693 0.10144691914319992 0.013866634108126163
0.44492968916893005 0.11384527385234833 0.017319278791546822
0.52881789207458496 0.12497769296169281 0.020271988585591316
0.618793785572052 0.13405032455921173 0.025088455528020859
0.71965044736862183 0.14418764412403107 0.032096788287162781
0.0011022828985005617 0.074562951922416687 0.0036620793398469687
0.00089482328621670604 0.075515434145927429 0.0035255581606179476
0.016772087663412094 0.094925478100776672 0.0031243716366589069
0.058650657534599304 0.12126509845256805 0.00094127282500267029
0.12796875834465027 0.14032132923603058 6.9233014073688537e-05
0.21677039563655853 0.15603187680244446 0.00060731475241482258
0.31494230031967163 0.1706402599811554 0.00075967825250700116
0.40714123845100403 0.18317021429538727 0.00061440560966730118
0.48901852965354919 0.19526271522045135 0.00225981161929667
0.56797182559967041 0.20756173133850098 0.0069540585391223431
0.64210289716720581 0.22007191181182861 0.018594345077872276
0.71922963857650757 0.23208615183830261 0.032977085560560226
0.79992133378982544 0.24477538466453552 0.044269293546676636
2.5281718990299851e-05 0.21619054675102234 0.0017097024247050285
8.0467674706596881e-05 0.21810664236545563 0.0012567706871777773
0.01587383821606636 0.23115238547325134 0.00021182789350859821
0.074948117136955261 0.24801069498062134 0
0.16642288863658905 0.26085349917411804 0
0.27212324738502502 0.27229213714599609 0
0.37774574756622314 0.28329724073410034 0
0.47187954187393188 0.29387447237968445 0.00014935662329662591
0.55101138353347778 0.30400946736335754 0.0027200288604944944
0.62157559394836426 0.31457033753395081 0.015179772861301899
0.69014835357666016 0.32732111215591431 0.040953811258077621
0.76293766498565674 0.34118768572807312 0.066474974155426025
0.84078913927078247 0.35445752739906311 0.079180486500263214
1.516903103038203e-05 0.35746455192565918 7.4678311648312956e-05
2.5670668037491851e-05 0.35971963405609131 0.00042901132837869227
0.014998491853475571 0.36928653717041016 0.00026993098435923457
0.086128875613212585 0.37783399224281311 0
0.19174237549304962 0.38466539978981018 0
0.30429768562316895 0.39323094487190247 0
0.41053521633148193 0.4024333655834198 0.000751495361328125
0.50396931171417236 0.4108143150806427 0.0070398366078734398
0.58334994316101074 0.41841873526573181 0.021514907479286194
0.65421169996261597 0.42658406496047974 0.04666798934340477
0.72288805246353149 0.43841564655303955 0.082275122404098511
0.79555189609527588 0.45244506001472473 0.11324779689311981
0.8736722469329834 0.46405372023582458 0.12368042767047882
0.0065750270150601864 0.47807177901268005 0.0095411110669374466
0.010605830699205399 0.48101723194122314 0.011623113416135311
0.043959300965070724 0.48825046420097351 0.010367090813815594
0.1211986169219017 0.4946075975894928 0.0028556224424391985
0.22684893012046814 0.50092071294784546 0.00038532930193468928
0.33633589744567871 0.51080381870269775 0.0033440534025430679
0.43833321332931519 0.51928228139877319 0.015360932797193527
0.52958452701568604 0.52528864145278931 0.03361179307103157
0.60807901620864868 0.52827024459838867 0.055207915604114532
0.67849922180175781 0.53183412551879883 0.082665145397186279
0.74968832731246948 0.54179853200912476 0.11623280495405197
0.82593297958374023 0.55624032020568848 0.14465580880641937
0.90156054496765137 0.56500113010406494 0.15337947010993958
0.038421884179115295 0.57919681072235107 0.036501295864582062
0.053572308272123337 0.58262860774993896 0.043895047158002853
0.10018076002597809 0.5891420841217041 0.048003822565078735
0.17692588269710541 0.59676903486251831 0.039381992071866989
0.27236485481262207 0.60630613565444946 0.03057493269443512
0.37072402238845825 0.61832624673843384 0.038531672209501266
0.4633696973323822 0.62422454357147217 0.053382288664579391
0.54886329174041748 0.62572556734085083 0.071099795401096344
0.62245643138885498 0.62228131294250488 0.088789574801921844
0.68904536962509155 0.61927586793899536 0.10848464816808701
0.75929552316665649 0.62369555234909058 0.13195107877254486
0.83566892147064209 0.63573759794235229 0.1513470858335495
0.91171455383300781 0.64477372169494629 0.1581399142742157
0.080748178064823151 0.66920393705368042 0.070277132093906403
0.10547257959842682 0.67220371961593628 0.085817508399486542
0.15879032015800476 0.6787712574005127 0.10185479372739792
0.23091895878314972 0.68604427576065063 0.099316254258155823
0.31190028786659241 0.69472187757492065 0.088148422539234161
0.39603990316390991 0.70442622900009155 0.088103398680686951
0.47625204920768738 0.70401912927627563 0.092244423925876617
0.55211728811264038 0.69891005754470825 0.10051504522562027
0.62100452184677124 0.69217926263809204 0.10977289825677872
0.68505865335464478 0.68587607145309448 0.11991273611783981
0.75141233205795288 0.68516391515731812 0.13222686946392059
0.82633966207504272 0.69402575492858887 0.1422756165266037
0.9072573184967041 0.70758706331253052 0.14887069165706635
0.12003646790981293 0.75480294227600098 0.09952247142791748
0.14450703561306 0.75606691837310791 0.11748862266540527
0.19768135249614716 0.76151269674301147 0.14103096723556519
0.26519009470939636 0.7648206353187561 0.14421823620796204
0.33542981743812561 0.76433205604553223 0.1294533759355545
0.40814095735549927 0.76480162143707275 0.11935883760452271
0.47905793786048889 0.76170617341995239 0.11727185547351837
0.54734700918197632 0.75521701574325562 0.11911971122026443
0.61454546451568604 0.75106525421142578 0.12065115571022034
0.679207444190979 0.74695473909378052 0.12316973507404327
0.74378246068954468 0.74448543787002563 0.12859839200973511
0.81883013248443604 0.7526930570602417 0.13474418222904205
0.90425145626068115 0.77076774835586548 0.14214281737804413
0.15550242364406586 0.84373593330383301 0.12796796858310699
0.17438121140003204 0.84399151802062988 0.14107599854469299
0.22001519799232483 0.84834045171737671 0.16156649589538574
0.28545668721199036 0.84851926565170288 0.17105206847190857
0.35437041521072388 0.84003424644470215 0.1605030745267868
0.42370370030403137 0.8351474404335022 0.14825540781021118
0.49059030413627625 0.83153808116912842 0.14304527640342712
0.55466151237487793 0.82432729005813599 0.13939937949180603
0.62158513069152832 0.82293659448623657 0.13315866887569427
0.68782055377960205 0.82252603769302368 0.12871667742729187
0.75508993864059448 0.82259643077850342 0.13001918792724609
0.83086317777633667 0.83084088563919067 0.13498800992965698
0.91642820835113525 0.84857100248336792 0.14397460222244263
0.19692894816398621 0.94251108169555664 0.16890347003936768
0.2159620076417923 0.94375830888748169 0.17887002229690552
0.25679883360862732 0.94870257377624512 0.19598905742168427
0.31756195425987244 0.94907468557357788 0.2070259302854538
0.38632375001907349 0.94112914800643921 0.20246367156505585
0.45620682835578918 0.93657821416854858 0.19306731224060059
0.52279031276702881 0.93293106555938721 0.18432439863681793
0.58467638492584229 0.92312484979629517 0.1721215695142746
0.64903509616851807 0.91820222139358521 0.15750026702880859
0.71554404497146606 0.91779869794845581 0.14698290824890137
0.78512322902679443 0.91956532001495361 0.14553798735141754
0.86123549938201904 0.9271436333656311 0.14933876693248749
0.94460701942443848 0.94227057695388794 0.15856112539768219
0 0 0
0 0 0
0 0 0
0 0 0
0 0 0
0 0 0
0 0 0
0 0 0
0.0043581943027675152 0.00024432013742625713 0.00019142300880048424
0.063751086592674255 0.011173322796821594 0.010273144580423832
0.15197819471359253 0.023252164945006371 0.024072280153632164
0.26277166604995728 0.030680444091558456 0.033303909003734589
0.37884610891342163 0.034501451998949051 0.041439864784479141
0 0 0
0 0 0
0 0 0
0 0 0
0 0 0
0 0 0
0 0 0
0 0 0
0.0084807006642222404 0.0010843015043064952 0.0012519387528300285
0.068741783499717712 0.012311434373259544 0.012022489681839943
0.16169655323028564 0.023758413270115852 0.023403976112604141
0.27029111981391907 0.030591119080781937 0.030082987621426582
0.38606280088424683 0.035335883498191833 0.035758119076490402
0 0 0
0 0 0
0 0 0
0 0 0
0.00010845707583939657 0 0
0.0054553165100514889 0.0020881353411823511 0.00046518363524228334
0.029479427263140678 0.0090793538838624954 0.0030027201864868402
0.073993191123008728 0.018282407894730568 0.0069872387684881687
0.14226134121417999 0.030383555218577385 0.015759382396936417
0.22713232040405273 0.044178996235132217 0.022694846615195274
0.32373973727226257 0.055616788566112518 0.026413757354021072
0.4349551796913147 0.062300737947225571 0.030911583453416824
0.54513412714004517 0.068591982126235962 0.036257531493902206
0 0.0009367999155074358 0
0 0.0010645698057487607 0
0.0024077023845165968 0.0064243990927934647 9.3168368039187044e-05
0.01788959838449955 0.021207487210631371 0.0002612693642731756
0.053452286869287491 0.038288339972496033 0.00076436059316620231
0.11078914254903793 0.057651758193969727 0.003904065815731883
0.18813149631023407 0.075113587081432343 0.0073058037087321281
0.26859879493713379 0.088211596012115479 0.010993089526891708
0.35594776272773743 0.1006946936249733 0.015832819044589996
0.44636279344558716 0.11424970626831055 0.018189689144492149
0.53513097763061523 0.12674364447593689 0.023364078253507614
0.62913155555725098 0.13560210168361664 0.03171895444393158
0.72200340032577515 0.14424218237400055 0.039894089102745056
0.00035900040529668331 0.077912256121635437 0.0055612600408494473
0.00074818928260356188 0.078745774924755096 0.0051002651453018188
0.01760571077466011 0.097356788814067841 0.0040968949906527996
0.062332812696695328 0.12344439327716827 0.001377045875415206
0.13327577710151672 0.1418711245059967 0.00048300050548277795
0.22158066928386688 0.15734556317329407 0.000214326151763089
0.31662136316299438 0.17150138318538666 0.00018066704797092825
0.40686705708503723 0.18315893411636353 0.00090005912352353334
0.49198651313781738 0.19483953714370728 0.002585242735221982
0.57063394784927368 0.20842403173446655 0.0062882066704332829
0.64207279682159424 0.22236695885658264 0.020385876297950745
0.71925252676010132 0.23515854775905609 0.040175836533308029
0.79865401983261108 0.24733220040798187 0.05179373174905777
0 0.21911086142063141 0.0077945333905518055
0.00010399911843705922 0.2212769091129303 0.0058325375430285931
0.017905037850141525 0.23311492800712585 0.001954695675522089
0.078853145241737366 0.24997057020664215 6.7422901338431984e-05
0.16978113353252411 0.26298901438713074 0
0.27327471971511841 0.27348703145980835 0
0.37528577446937561 0.28381910920143127 0
0.46819457411766052 0.29311686754226685 5.7594447753217537e-06
0.54973870515823364 0.30352318286895752 0.0018006119644269347
0.62298494577407837 0.31557464599609375 0.016055148094892502
0.68984603881835938 0.33002805709838867 0.044943343847990036
0.76042121648788452 0.34509289264678955 0.074379667639732361
0.83662992715835571 0.35827469825744629 0.089800186455249786
0 0.35667246580123901 0.004925956018269062
0 0.35891783237457275 0.0030018526595085859
0.016806239262223244 0.36722970008850098 0.00094311282737180591
0.088604182004928589 0.37764826416969299 2.9620002806041157e-06
0.19104161858558655 0.38610917329788208 0
0.30079531669616699 0.39339137077331543 0
0.40420034527778625 0.40075036883354187 4.5058306568535045e-05
0.49719902873039246 0.40864858031272888 0.0036347182467579842
0.57921808958053589 0.41723358631134033 0.019022459164261818
0.65482896566390991 0.42683926224708557 0.048978351056575775
0.72522515058517456 0.44015660881996155 0.087409362196922302
0.79662615060806274 0.45514979958534241 0.12080594152212143
0.87260806560516357 0.4666934609413147 0.13664144277572632
0.0017636168049648404 0.47530710697174072 0.015634410083293915
0.0033754385076463223 0.47717759013175964 0.014135533012449741
0.037428881973028183 0.48449233174324036 0.011567657813429832
0.11789143830537796 0.49335712194442749 0.0052206153050065041
0.22360661625862122 0.50124979019165039 0.0017419852083548903
0.33116617798805237 0.50922459363937378 0.0029551936313509941
0.43046686053276062 0.51589834690093994 0.0091939587146043777
0.5214841365814209 0.52207988500595093 0.02698262594640255
0.60337275266647339 0.52707010507583618 0.052923314273357391
0.67865133285522461 0.53202414512634277 0.085512124001979828
0.75173890590667725 0.54257833957672119 0.12216324359178543
0.82643276453018188 0.55544137954711914 0.15163916349411011
0.90073192119598389 0.56442433595657349 0.16509410738945007
0.029098166152834892 0.57668918371200562 0.047384973615407944
0.038821008056402206 0.57818913459777832 0.049394421279430389
0.086190074682235718 0.58629560470581055 0.051055446267127991
0.16842122375965118 0.59630447626113892 0.043769598007202148
0.2682589590549469 0.60526692867279053 0.034083332866430283
0.36640235781669617 0.61522454023361206 0.037163812667131424
0.45684468746185303 0.62149965763092041 0.049135155975818634
0.54088586568832397 0.62317442893981934 0.066114909946918488
0.61764836311340332 0.62163811922073364 0.087690137326717377
0.68886089324951172 0.62049168348312378 0.11219138652086258
0.76074028015136719 0.62484115362167358 0.13816501200199127
0.8356940746307373 0.63483470678329468 0.15805776417255402
0.91055202484130859 0.64312785863876343 0.1680329293012619
0.074911527335643768 0.6660459041595459 0.08767014741897583
0.092739388346672058 0.66863489151000977 0.09626460075378418
0.14249195158481598 0.67745983600616455 0.10398942232131958
0.21919097006320953 0.68710815906524658 0.10033565014600754
0.30626985430717468 0.69405782222747803 0.088913381099700928
0.39182621240615845 0.70067650079727173 0.086013764142990112
0.4722227156162262 0.70345193147659302 0.091861948370933533
0.54800546169281006 0.70046734809875488 0.10118324309587479
0.61862730979919434 0.69477134943008423 0.1125442236661911
0.68581229448318481 0.68945246934890747 0.12619782984256744
0.75407439470291138 0.68900465965270996 0.14100979268550873
0.82735860347747803 0.69620537757873535 0.15183007717132568
0.90545171499252319 0.70644980669021606 0.15934710204601288
0.11546552926301956 0.74867898225784302 0.11718668043613434
0.13120624423027039 0.74982911348342896 0.12677378952503204
0.17804530262947083 0.75768834352493286 0.1399291455745697
0.25174301862716675 0.76598268747329712 0.14462514221668243
0.32932618260383606 0.7666473388671875 0.13344880938529968
0.40466403961181641 0.76410281658172607 0.12125043570995331
0.47756636142730713 0.76277607679367065 0.11950939148664474
0.54821854829788208 0.76092284917831421 0.12430762499570847
0.61613553762435913 0.75720852613449097 0.12832430005073547
0.68179583549499512 0.75306051969528198 0.13401442766189575
0.74795937538146973 0.75108402967453003 0.14211004972457886
0.82059240341186523 0.75648170709609985 0.14975212514400482
0.90095895528793335 0.76933813095092773 0.15864025056362152
0.14958666265010834 0.83389139175415039 0.1430237740278244
0.15836559236049652 0.83331465721130371 0.14791128039360046
0.20038661360740662 0.84010708332061768 0.16313201189041138
0.27464234828948975 0.84695631265640259 0.17795580625534058
0.35073289275169373 0.84228032827377319 0.17163211107254028
0.42191722989082336 0.83398205041885376 0.15563040971755981
0.49125444889068604 0.83109456300735474 0.14982788264751434
0.55910760164260864 0.83092576265335083 0.14990712702274323
0.62569576501846313 0.83019614219665527 0.14651833474636078
0.69176256656646729 0.82912391424179077 0.14495199918746948
0.75859314203262329 0.82824438810348511 0.14998002350330353
0.830760657787323 0.8332439661026001 0.15602530539035797
0.91226601600646973 0.84665518999099731 0.16542671620845795
0.18970948457717896 0.93198627233505249 0.18681688606739044
0.20397759974002838 0.93265259265899658 0.19294461607933044
0.24508441984653473 0.9389958381652832 0.20823670923709869
0.31180793046951294 0.94337654113769531 0.22215043008327484
0.38546711206436157 0.93937861919403076 0.22138397395610809
0.45746058225631714 0.93346267938613892 0.21112212538719177
0.52519065141677856 0.92972689867019653 0.20123067498207092
0.58911037445068359 0.9255099892616272 0.19086034595966339
0.65355473756790161 0.92363893985748291 0.17775121331214905
0.71971648931503296 0.9234575629234314 0.16859006881713867
0.78768110275268555 0.92330640554428101 0.17126867175102234
0.86088806390762329 0.92835783958435059 0.17476257681846619
0.94099682569503784 0.9404798150062561 0.18181730806827545
0 0 0
0 0 0
0 0 0
0 0 0
0 0 0
0 0 0
0 0 0
0 0 0
0.010184209793806076 0.00095063750632107258 0.0012452518567442894
0.079124495387077332 0.014005863107740879 0.017762307077646255
0.16977956891059875 0.02546081505715847 0.036102220416069031
0.2756403386592865 0.030613154172897339 0.048347517848014832
0.40083137154579163 0.034655477851629257 0.060655869543552399
0 0 0
0 0 0
0 0 0
0 0 0
0 0 0
0 0 0
0 0 0
0.00050255272071808577 1.8923890820587985e-05 0.00027399999089539051
0.016135869547724724 0.0024436053354293108 0.0039020015392452478
0.083614051342010498 0.014260939322412014 0.018208388239145279
0.1837848424911499 0.025707947090268135 0.035464927554130554
0.29561156034469604 0.031663063913583755 0.046055514365434647
0.42103558778762817 0.037636328488588333 0.056215189397335052
0 0 0
0 0 0
0 0 0
0 0 0
0.00067946489434689283 0.00014645446208305657 1.1967677892243955e-05
0.0086869187653064728 0.0035941777750849724 0.00094348681159317493
0.037459727376699448 0.011540221981704235 0.006092490628361702
0.090242631733417511 0.021040448918938637 0.017157072201371193
0.15756277740001678 0.032341528683900833 0.028394227847456932
0.23732273280620575 0.044737678021192551 0.035295866429805756
0.33867824077606201 0.056106880307197571 0.045975390821695328
0.45060244202613831 0.063380420207977295 0.05528685450553894
0.56469863653182983 0.070185750722885132 0.064077176153659821
4.0256276406580582e-05 0.0020668029319494963 0.00066106457961723208
1.4810000720899552e-05 0.0019856172148138285 0.00089485320495441556
0.0033357357606291771 0.0071175368502736092 0.0022879207972437143
0.021862717345356941 0.022362442687153816 0.005046171136200428
0.062773808836936951 0.041108749806880951 0.0093101048842072487
0.12223184853792191 0.061328843235969543 0.013864045962691307
0.19936423003673553 0.077982932329177856 0.0187391247600317
0.28293061256408691 0.089714333415031433 0.03060130774974823
0.3714999258518219 0.10097988694906235 0.039658341556787491
0.46117448806762695 0.1137782409787178 0.044699590653181076
0.54432851076126099 0.12654544413089752 0.056803610175848007
0.63435202836990356 0.13599565625190735 0.069616563618183136
0.73132336139678955 0.14481019973754883 0.079459547996520996
0.001039662049151957 0.087418407201766968 0.021380361169576645
0.0017970964545384049 0.087831608951091766 0.021879443898797035
0.020808903500437737 0.10398293286561966 0.021686015650629997
0.068163014948368073 0.12822394073009491 0.018760425969958305
0.1426129937171936 0.14543241262435913 0.016691993921995163
0.23174762725830078 0.16006489098072052 0.013999385759234428
0.32623091340065002 0.17324240505695343 0.012384960427880287
0.41653484106063843 0.18333426117897034 0.02192484587430954
0.50530511140823364 0.19447430968284607 0.030837653204798698
0.58717912435531616 0.20781123638153076 0.04294891282916069
0.65401780605316162 0.22266308963298798 0.06486038863658905
0.72020143270492554 0.23684346675872803 0.089555658400058746
0.79918640851974487 0.24876438081264496 0.10241326689720154
2.2364598407875746e-05 0.22724165022373199 0.03408406674861908
0.00034384633181616664 0.22967332601547241 0.033066663891077042
0.021150281652808189 0.24025732278823853 0.026116494089365005
0.082300476729869843 0.25627586245536804 0.013251794502139091
0.17307958006858826 0.26804041862487793 0.0085388030856847763
0.27730652689933777 0.27615034580230713 0.011503945104777813
0.37918418645858765 0.2843683660030365 0.014431029558181763
0.47334548830986023 0.29256519675254822 0.018245697021484375
0.55959206819534302 0.30251869559288025 0.029432244598865509
0.63761043548583984 0.31487256288528442 0.053132794797420502
0.70333397388458252 0.33046755194664001 0.087346144020557404
0.76503223180770874 0.34775209426879883 0.12025758624076843
0.83700829744338989 0.36082065105438232 0.1380062997341156
0 0.36065998673439026 0.033537097275257111
0 0.36193671822547913 0.032523509114980698
0.018181998282670975 0.36958861351013184 0.026701504364609718
0.089521981775760651 0.38140591979026794 0.015351299196481705
0.18974891304969788 0.39020028710365295 0.010629302822053432
0.29836297035217285 0.3956928551197052 0.01392689161002636
0.40243625640869141 0.4011857807636261 0.019045541062951088
0.49815422296524048 0.40815472602844238 0.028298351913690567
0.58624911308288574 0.4167284369468689 0.04823925718665123
0.66678428649902344 0.42624491453170776 0.081588059663772583
0.73902565240859985 0.44029685854911804 0.12192945182323456
0.80767768621444702 0.45725211501121521 0.15773661434650421
0.87823450565338135 0.46884232759475708 0.17704087495803833
0.0016074087470769882 0.47834771871566772 0.048140253871679306
0.0013093238230794668 0.47730880975723267 0.04627787321805954
0.033522602170705795 0.48475876450538635 0.044983223080635071
0.11493706703186035 0.4962303638458252 0.037598211318254471
0.21876831352710724 0.50525170564651489 0.03109232522547245
0.32525753974914551 0.51200789213180542 0.032364565879106522
0.42529132962226868 0.51718199253082275 0.038350570946931839
0.51918339729309082 0.52257031202316284 0.054303787648677826
0.60646325349807739 0.52713054418563843 0.080195225775241852
0.68695497512817383 0.53234565258026123 0.11360523104667664
0.7635500431060791 0.54261559247970581 0.15170207619667053
0.83747351169586182 0.55601084232330322 0.18412061035633087
0.90823471546173096 0.56428569555282593 0.20103016495704651
0.029487011954188347 0.58014756441116333 0.089732527732849121
0.033225294202566147 0.57940000295639038 0.088803954422473907
0.079057939350605011 0.58898317813873291 0.089074201881885529
0.1622418612241745 0.60173493623733521 0.082471869885921478
0.26193159818649292 0.61106884479522705 0.072855941951274872
0.36001008749008179 0.620067298412323 0.073931373655796051
