assets/lut/alexjordan protect highlights 01.cube
# Created by: G'MIC (https://gmic.eu)
TITLE "protect_highlights_01"
# LUT size
LUT_3D_SIZE 13
# Data domain
DOMAIN_MIN 0.0 0.0 0.0
DOMAIN_MAX 1.0 1.0 1.0
# LUT data points
0.034901920706033707 0.034000352025032043 0.034666996449232101
0.1174112930893898 0.034732908010482788 0.037558224052190781
0.20062442123889923 0.036393348127603531 0.040808103978633881
0.28451648354530334 0.039043202996253967 0.043994124978780746
0.36857214570045471 0.042337186634540558 0.046999897807836533
0.45269891619682312 0.045787330716848373 0.049865841865539551
0.53685754537582397 0.049373026937246323 0.052566975355148315
0.62115377187728882 0.052876655012369156 0.055108644068241119
0.70551037788391113 0.056546304374933243 0.057823676615953445
0.79029107093811035 0.060273069888353348 0.060676738619804382
0.87549227476119995 0.064148925244808197 0.062818519771099091
0.96054983139038086 0.06766790896654129 0.06551583856344223
1 0.070553496479988098 0.066176474094390869
0.040289036929607391 0.1191609725356102 0.040929414331912994
0.12250177562236786 0.11942309141159058 0.043703820556402206
0.20545734465122223 0.12105222046375275 0.046315900981426239
0.28906482458114624 0.12391327321529388 0.049180708825588226
0.37267479300498962 0.1270940750837326 0.052014518529176712
0.45617645978927612 0.13025173544883728 0.054273776710033417
0.53957676887512207 0.13340337574481964 0.056586544960737228
0.62315952777862549 0.13648325204849243 0.058323130011558533
0.70662158727645874 0.13940896093845367 0.060842894017696381
0.79042112827301025 0.14247077703475952 0.062530949711799622
0.87475955486297607 0.14589497447013855 0.06573379784822464
0.95923930406570435 0.14925645291805267 0.066176474094390869
1 0.15149015188217163 0.066176474094390869
0.046229973435401917 0.20502340793609619 0.046963561326265335
0.12804804742336273 0.20493750274181366 0.049134392291307449
0.21078343689441681 0.20664288103580475 0.051651030778884888
0.29387372732162476 0.20912478864192963 0.053824946284294128
0.37661132216453552 0.21172416210174561 0.056228309869766235
0.45914375782012939 0.21423390507698059 0.058062966912984848
0.54172122478485107 0.21653972566127777 0.058985482901334763
0.62428009510040283 0.21890251338481903 0.061163283884525299
0.70691758394241333 0.22133000195026398 0.062252029776573181
0.78956824541091919 0.22339950501918793 0.063283331692218781
0.87255305051803589 0.22566333413124084 0.066176474094390869
0.95611011981964111 0.22837150096893311 0.065989337861537933
1 0.2312263697385788 0.064433634281158447
0.051811981946229935 0.29073324799537659 0.052116528153419495
0.13370649516582489 0.29175916314125061 0.053948063403367996
0.21597297489643097 0.29282063245773315 0.055590998381376266
0.29842859506607056 0.29456830024719238 0.05768859013915062
0.38008925318717957 0.29586660861968994 0.058367561548948288
0.46114328503608704 0.29686856269836426 0.060602106153964996
0.54257309436798096 0.29845771193504333 0.062200330197811127
0.62430983781814575 0.30053147673606873 0.062064796686172485
0.70610976219177246 0.30219891667366028 0.06174018606543541
0.78720903396606445 0.30290549993515015 0.062080368399620056
0.8682708740234375 0.30348989367485046 0.06315302848815918
0.95061570405960083 0.30526643991470337 0.061540178954601288
0.99971926212310791 0.30648750066757202 0.058537442237138748
0.056747257709503174 0.37693619728088379 0.055655743926763535
0.13839074969291687 0.37755453586578369 0.057764749974012375
0.22042010724544525 0.37857019901275635 0.058330222964286804
0.3019225001335144 0.37935101985931396 0.05833333358168602
0.38253006339073181 0.37910810112953186 0.058380007743835449
0.46083328127861023 0.37839797139167786 0.060193650424480438
0.54108345508575439 0.37866306304931641 0.060177791863679886
0.62227547168731689 0.37955304980278015 0.058444753289222717
0.70364600419998169 0.38163506984710693 0.056853350251913071
0.78318458795547485 0.38094428181648254 0.056092176586389542
0.8615260124206543 0.37900719046592712 0.055898524820804596
0.94156503677368164 0.37892255187034607 0.052869744598865509
0.99780178070068359 0.37840187549591064 0.048074252903461456
0.059467300772666931 0.46083769202232361 0.058295410126447678
0.14080904424190521 0.46184918284416199 0.05833333358168602
0.22253215312957764 0.46221265196800232 0.057841386646032333
0.30369693040847778 0.46218404173851013 0.056715197861194611
0.38284313678741455 0.46038800477981567 0.056305110454559326
0.45964601635932922 0.4569372832775116 0.056218404322862625
0.53632903099060059 0.45452681183815002 0.05571257695555687
0.61631685495376587 0.45510381460189819 0.052867919206619263
0.69675129652023315 0.45632246136665344 0.049003571271896362
0.77479565143585205 0.45465421676635742 0.045895922929048538
0.84953171014785767 0.44945076107978821 0.043655171990394592
0.9251331090927124 0.44525805115699768 0.039390966296195984
0.99115043878555298 0.44162231683731079 0.033250097185373306
0.058774687349796295 0.54136443138122559 0.056089200079441071
0.13904838263988495 0.54125458002090454 0.05586673691868782
0.22017814218997955 0.54117649793624878 0.053672999143600464
0.30116733908653259 0.54112130403518677 0.050725542008876801
0.37984961271286011 0.53829336166381836 0.048104170709848404
0.4544772207736969 0.53242212533950806 0.047090895473957062
0.52777707576751709 0.52638202905654907 0.046360015869140625
0.60372394323348999 0.52284091711044312 0.044001247733831406
0.68029099702835083 0.52025771141052246 0.039297215640544891
0.75437331199645996 0.51553952693939209 0.034282203763723373
0.82456851005554199 0.50556403398513794 0.030310850590467453
0.89526087045669556 0.49621668457984924 0.025003664195537567
0.96742856502532959 0.48887628316879272 0.019119711592793465
0.05376536026597023 0.61802423000335693 0.051185473799705505
0.13148272037506104 0.61703997850418091 0.050487145781517029
0.21055713295936584 0.61533242464065552 0.047156210988759995
0.29102048277854919 0.61306756734848022 0.041849307715892792
0.36890080571174622 0.60872244834899902 0.036604203283786774
0.44119358062744141 0.59986573457717896 0.03445802628993988
0.50981885194778442 0.58876794576644897 0.034262429922819138
0.57921516895294189 0.57863360643386841 0.03347289189696312
0.64941221475601196 0.56963014602661133 0.030312197282910347
0.718070387840271 0.55864435434341431 0.025473784655332565
0.78424394130706787 0.54467195272445679 0.019925076514482498
0.85099458694458008 0.5313982367515564 0.013691202737390995
0.92218887805938721 0.52185332775115967 0.0083060916513204575
0.043370820581912994 0.68873488903045654 0.042694509029388428
0.11661753803491592 0.68410730361938477 0.04255218431353569
0.19133719801902771 0.67837703227996826 0.039062947034835815
0.26825997233390808 0.67282938957214355 0.032567538321018219
0.34389874339103699 0.66627514362335205 0.025230243802070618
0.41317161917686462 0.65398591756820679 0.022131975740194321
0.47822019457817078 0.63845217227935791 0.022015396505594254
0.54319983720779419 0.62314474582672119 0.022711435332894325
0.60886508226394653 0.6079595685005188 0.021817585453391075
0.67318415641784668 0.59218031167984009 0.018311100080609322
0.73643785715103149 0.57518643140792847 0.012427101843059063
0.80116915702819824 0.55977725982666016 0.0057808221317827702
0.87283122539520264 0.55099868774414062 0.0016395718557760119
0.028343051671981812 0.74947428703308105 0.031489308923482895
0.094497784972190857 0.74003428220748901 0.033220641314983368
0.16192381083965302 0.72910612821578979 0.031177476048469543
0.23170536756515503 0.71904635429382324 0.024884602054953575
0.30226001143455505 0.70835387706756592 0.017266292124986649
0.36998462677001953 0.69443517923355103 0.012450199574232101
0.43508318066596985 0.67798060178756714 0.011102639138698578
0.4998164176940918 0.65996992588043213 0.012764979153871536
0.56443768739700317 0.64291936159133911 0.014545665122568607
0.6287805438041687 0.62582743167877197 0.013246738351881504
0.69283765554428101 0.60972821712493896 0.0081963483244180679
0.75817710161209106 0.59512883424758911 0.0026126187294721603
0.83205300569534302 0.58873355388641357 4.7392004489665851e-05
0.012688536196947098 0.79720598459243774 0.019844084978103638
0.067189686000347137 0.78431302309036255 0.023239480331540108
0.12598949670791626 0.7693713903427124 0.023972366005182266
0.18776978552341461 0.75537294149398804 0.019323745742440224
0.25329184532165527 0.74248707294464111 0.011037444695830345
0.32081100344657898 0.72878962755203247 0.0048509337939321995
0.38839966058731079 0.71354138851165771 0.0030859254766255617
0.45602959394454956 0.69764262437820435 0.0048096748068928719
0.52416831254959106 0.68164736032485962 0.0090010398998856544
0.5931631326675415 0.66891366243362427 0.010832183994352818
0.66339462995529175 0.65911734104156494 0.0074109095148742199
0.73516446352005005 0.65161007642745972 0.0034492493141442537
0.81448125839233398 0.65117073059082031 0.0018259834032505751
0.0022998885251581669 0.83577370643615723 0.0097766350954771042
0.038999103009700775 0.82122611999511719 0.014339790679514408
0.089475728571414948 0.80457943677902222 0.017748543992638588
0.14401011168956757 0.78874009847640991 0.015514852479100227
0.20691989362239838 0.77611660957336426 0.0066864015534520149
0.27583193778991699 0.76502341032028198 0.00076389685273170471
0.34712883830070496 0.75381308794021606 2.3696002244832925e-05
0.42015039920806885 0.74226760864257812 0.00061500398442149162
0.49462136626243591 0.73207497596740723 0.0046586128883063793
0.57164406776428223 0.72718054056167603 0.009206046350300312
0.65221881866455078 0.72835397720336914 0.0078692566603422165
0.73593795299530029 0.73338896036148071 0.0058896085247397423
0.82472175359725952 0.74305975437164307 0.0048712040297687054
2.5850184101727791e-05 0.87443983554840088 0.0028867085929960012
0.016286334022879601 0.85912686586380005 0.0065583321265876293
0.059934459626674652 0.84196555614471436 0.010915374383330345
0.10974143445491791 0.82652199268341064 0.011002618819475174
0.17190943658351898 0.81624448299407959 0.0033405229914933443
0.24273504316806793 0.80926460027694702 2.2439395252149552e-05
0.31815508008003235 0.80345451831817627 0
0.3968050479888916 0.79893612861633301 0
0.47898662090301514 0.79722458124160767 0.0016160702798515558
0.56490463018417358 0.80169618129730225 0.0067747677676379681
0.65529388189315796 0.81244343519210815 0.009565720334649086
0.75000810623168945 0.82844597101211548 0.010277347639203072
0.84701603651046753 0.84671986103057861 0.011813115328550339
0.034272018820047379 0.032750267535448074 0.11304672807455063
0.11636735498905182 0.033119022846221924 0.11566024273633957
0.19967421889305115 0.034831266850233078 0.11854948103427887
0.28326573967933655 0.037681877613067627 0.12169764190912247
0.36718079447746277 0.041051123291254044 0.12465688586235046
0.45103654265403748 0.044527523219585419 0.1274217814207077
0.53481036424636841 0.047901451587677002 0.12997297942638397
0.61862766742706299 0.051291327923536301 0.13240611553192139
0.70265722274780273 0.054848883301019669 0.13498911261558533
0.78729927539825439 0.05861867219209671 0.1379382461309433
0.87231051921844482 0.062662549316883087 0.14029239118099213
0.95759671926498413 0.066846840083599091 0.14283373951911926
1 0.070039503276348114 0.14338235557079315
0.040017355233430862 0.11812597513198853 0.11900810152292252
0.12157879769802094 0.11761026084423065 0.1215759739279747
0.20452503859996796 0.11937462538480759 0.12424881756305695
0.28800249099731445 0.12253328412771225 0.12689536809921265
0.37153175473213196 0.12577787041664124 0.12968876957893372
0.45471754670143127 0.12890982627868652 0.13208563625812531
0.53787076473236084 0.13174647092819214 0.13409891724586487
0.62061727046966553 0.1343289315700531 0.13553786277770996
0.70387536287307739 0.13717377185821533 0.13798235356807709
0.78753459453582764 0.14025069773197174 0.13999821245670319
0.87182241678237915 0.14393758773803711 0.14313338696956635
0.95653927326202393 0.14781811833381653 0.14340588450431824
1 0.15096312761306763 0.14338235557079315
0.045990962535142899 0.20377837121486664 0.12507978081703186
0.1274595707654953 0.20367719233036041 0.12702132761478424
0.20976497232913971 0.20487199723720551 0.12943041324615479
0.29301297664642334 0.2079634964466095 0.13171227276325226
0.37585949897766113 0.21048502624034882 0.13402462005615234
0.45812386274337769 0.21291767060756683 0.13577142357826233
0.5401381254196167 0.21483808755874634 0.13694840669631958
0.62220758199691772 0.21676801145076752 0.13854973018169403
0.70423382520675659 0.21858298778533936 0.13945743441581726
0.7865375280380249 0.2203984409570694 0.14125680923461914
0.86977982521057129 0.22320252656936646 0.14338235557079315
0.95373153686523438 0.22675074636936188 0.14349383115768433
1 0.22865113615989685 0.14229033887386322
0.052021820098161697 0.2905290424823761 0.13020053505897522
0.13342256844043732 0.29032436013221741 0.13194732367992401
0.2157018780708313 0.291982501745224 0.13356913626194
0.2977658212184906 0.29334333539009094 0.13527360558509827
0.37941482663154602 0.29492881894111633 0.13658517599105835
0.46030783653259277 0.2958882749080658 0.1388966292142868
0.54144024848937988 0.29690074920654297 0.1394488513469696
0.62270969152450562 0.29810169339179993 0.13939359784126282
0.70364904403686523 0.29898592829704285 0.13923513889312744
0.78427386283874512 0.29891723394393921 0.14014904201030731
0.86538374423980713 0.29992946982383728 0.14220505952835083
0.94818460941314697 0.30268663167953491 0.14078593254089355
0.99944007396697998 0.30475583672523499 0.13651438057422638
0.057209327816963196 0.37738192081451416 0.1341647207736969
0.13837538659572601 0.37732908129692078 0.13539855182170868
0.22008657455444336 0.37764501571655273 0.1355392187833786
0.30155104398727417 0.37823000550270081 0.13576120138168335
0.38237741589546204 0.37796282768249512 0.13695277273654938
0.46035018563270569 0.37720122933387756 0.13828612864017487
0.54064452648162842 0.37647423148155212 0.13794822990894318
0.62103688716888428 0.37853309512138367 0.1362316757440567
0.70138645172119141 0.37876933813095093 0.13487754762172699
0.77999073266983032 0.37669122219085693 0.13520035147666931
0.85835564136505127 0.37459918856620789 0.13532018661499023
0.93892580270767212 0.37517035007476807 0.13157407939434052
0.9973410964012146 0.37519171833992004 0.12490671128034592
0.060281760990619659 0.46212318539619446 0.1355392187833786
0.14089713990688324 0.46204754710197449 0.1355392187833786
0.22225134074687958 0.46164041757583618 0.13514119386672974
0.30309265851974487 0.4607824981212616 0.13410097360610962
0.38281813263893127 0.45919835567474365 0.13348792493343353
0.45953753590583801 0.45603829622268677 0.13311967253684998
0.5361020565032959 0.45274251699447632 0.13230061531066895
0.61541736125946045 0.4531886875629425 0.12956002354621887
0.69440191984176636 0.45285147428512573 0.12622471153736115
0.77133417129516602 0.44990649819374084 0.12356171011924744
0.84665381908416748 0.4448908269405365 0.1206812709569931
0.92246127128601074 0.4407305121421814 0.11480150371789932
0.98944312334060669 0.43653494119644165 0.1064264178276062
0.060210883617401123 0.54402267932891846 0.13304264843463898
0.13973526656627655 0.54229772090911865 0.13259732723236084
0.22003798186779022 0.54114210605621338 0.13016574084758759
0.30036634206771851 0.53970015048980713 0.12698277831077576
0.37863746285438538 0.53616213798522949 0.12403247505426407
0.45363110303878784 0.53072428703308105 0.1221151277422905
0.52753514051437378 0.52516680955886841 0.12054756283760071
0.6028476357460022 0.52116239070892334 0.11736085265874863
0.67771971225738525 0.51722818613052368 0.11265964806079865
0.75105887651443481 0.51076561212539673 0.10736167430877686
0.82167625427246094 0.50142073631286621 0.1009286642074585
0.89246541261672974 0.49194833636283875 0.092182457447052002
0.96398520469665527 0.48349618911743164 0.082080379128456116
0.056372683495283127 0.62101906538009644 0.12593285739421844
0.13343311846256256 0.61786079406738281 0.12480822950601578
0.21143391728401184 0.61458337306976318 0.12102456390857697
0.29012966156005859 0.61071711778640747 0.11522252857685089
0.36669269204139709 0.60537868738174438 0.10930473357439041
0.43926051259040833 0.5971834659576416 0.10553603619337082
0.50918781757354736 0.5871766209602356 0.10320265591144562
0.57919943332672119 0.57785463333129883 0.10065621882677078
0.64862561225891113 0.56791585683822632 0.095899440348148346
0.71651452779769897 0.55599045753479004 0.088522754609584808
0.78220510482788086 0.54176133871078491 0.078406870365142822
0.84850764274597168 0.52789491415023804 0.065497271716594696
0.91838568449020386 0.5171130895614624 0.053316783159971237
0.047756735235452652 0.69054430723190308 0.11383891105651855
0.12000501900911331 0.68470478057861328 0.11251632124185562
0.19381053745746613 0.67748337984085083 0.10766793042421341
0.26785752177238464 0.67041170597076416 0.099972851574420929
0.34129652380943298 0.6619531512260437 0.091100163757801056
0.41068312525749207 0.6505160927772522 0.084684424102306366
0.47724819183349609 0.63676023483276367 0.081521265208721161
0.54313915967941284 0.62238240242004395 0.080133907496929169
0.60878044366836548 0.60710954666137695 0.076215364038944244
0.67233544588088989 0.59090256690979004 0.068242229521274567
0.7349776029586792 0.57315558195114136 0.054933331906795502
0.79849636554718018 0.55666583776473999 0.037716194987297058
0.86852186918258667 0.5465390682220459 0.023557236418128014
0.035121332854032516 0.74973458051681519 0.096902318298816681
0.10052034258842468 0.73968499898910522 0.096267879009246826
0.16626639664173126 0.7279931902885437 0.091791234910488129
0.23391284048557281 0.71673345565795898 0.08288244903087616
0.30207338929176331 0.70509600639343262 0.071626909077167511
0.3686738908290863 0.69142085313796997 0.061816181987524033
0.43408066034317017 0.67572307586669922 0.057144913822412491
0.4993426501750946 0.65926200151443481 0.056505076587200165
0.56420356035232544 0.64246934652328491 0.055951662361621857
0.62799519300460815 0.62485384941101074 0.049665115773677826
0.69146674871444702 0.60839569568634033 0.035731624811887741
0.75595682859420776 0.59287244081497192 0.016843788325786591
0.82862365245819092 0.58573955297470093 0.0032879996579140425
0.019986590370535851 0.79536682367324829 0.076905101537704468
0.076513193547725677 0.78235143423080444 0.077585883438587189
0.13347433507442474 0.76763874292373657 0.075144626200199127
0.19292747974395752 0.75337547063827515 0.066060222685337067
0.25579437613487244 0.73977208137512207 0.05180671438574791
0.32087713479995728 0.72595959901809692 0.038036555051803589
0.38738825917243958 0.7113533616065979 0.031567204743623734
0.45506748557090759 0.69622123241424561 0.03319181501865387
0.52360296249389648 0.68166309595108032 0.038112536072731018
0.59255045652389526 0.66915220022201538 0.037082836031913757
0.66242152452468872 0.65848606824874878 0.02766488678753376
0.73395758867263794 0.65085333585739136 0.013545975089073181
0.81347501277923584 0.65063035488128662 0.0043754428625106812
0.0075815687887370586 0.83205461502075195 0.056510969996452332
0.051552582532167435 0.81796574592590332 0.059386864304542542
0.10030264407396317 0.80204039812088013 0.058956563472747803
0.15284214913845062 0.78676748275756836 0.05080902948975563
0.21196597814559937 0.77370756864547729 0.034550774842500687
0.27701008319854736 0.76209127902984619 0.017113808542490005
0.34630975127220154 0.75104624032974243 0.0091673461720347404
0.41870135068893433 0.74083006381988525 0.014165826141834259
0.49430227279663086 0.73262834548950195 0.024819333106279373
0.57186579704284668 0.72830075025558472 0.031196100637316704
0.65208190679550171 0.72859889268875122 0.029344880953431129
0.73530304431915283 0.73281657695770264 0.023608412593603134
0.82369804382324219 0.74214798212051392 0.021220562979578972
0.0011284024221822619 0.86866188049316406 0.037426233291625977
0.029987933114171028 0.85437095165252686 0.04210846871137619
0.073499731719493866 0.83883893489837646 0.043918311595916748
0.12151174992322922 0.82460576295852661 0.038211822509765625
0.17907887697219849 0.81401652097702026 0.022699378430843353
0.24531854689121246 0.80621147155761719 0.0058253267779946327
0.31783732771873474 0.80069661140441895 0.0010185990249738097
0.39596083760261536 0.79711765050888062 0.0053229238837957382
0.47891342639923096 0.79720103740692139 0.018452154472470284
0.565562903881073 0.80269330739974976 0.030555350705981255
0.65606111288070679 0.81345033645629883 0.036608152091503143
0.75002086162567139 0.82857012748718262 0.039511136710643768
0.84605652093887329 0.84559303522109985 0.04348386824131012
0.034348640590906143 0.032437551766633987 0.19223211705684662
0.11629267781972885 0.03302885964512825 0.19487325847148895
0.19932125508785248 0.034662779420614243 0.19766406714916229
0.28270462155342102 0.037491489201784134 0.20061841607093811
0.36628511548042297 0.040767773985862732 0.2034921795129776
0.44982278347015381 0.043846938759088516 0.2062888890504837
0.53320908546447754 0.047128237783908844 0.20857079327106476
0.61654704809188843 0.050133213400840759 0.21089331805706024
0.70022177696228027 0.05353902280330658 0.21327568590641022
0.78448677062988281 0.057417985051870346 0.21614016592502594
0.86950802803039551 0.061825141310691833 0.21888881921768188
0.95470541715621948 0.066044047474861145 0.22073647379875183
1 0.069543786346912384 0.22094660997390747
0.040209017693996429 0.11844735592603683 0.19850698113441467
0.12180039286613464 0.11814872920513153 0.20074698328971863
0.20449897646903992 0.11969640105962753 0.20337355136871338
0.28770208358764648 0.12261126935482025 0.20621660351753235
0.37111145257949829 0.1256413459777832 0.20874841511249542
0.45405066013336182 0.12854434549808502 0.21107259392738342
0.53661280870437622 0.13082851469516754 0.21297983825206757
0.61910241842269897 0.13336041569709778 0.21442125737667084
0.70165669918060303 0.13568706810474396 0.21634353697299957
0.78519570827484131 0.13889159262180328 0.21884496510028839
0.86944818496704102 0.14285923540592194 0.2213699072599411
0.95413482189178467 0.14699490368366241 0.2235666811466217
1 0.150581955909729 0.22302009165287018
0.046284515410661697 0.20472361147403717 0.20433498919010162
0.12760727107524872 0.20432513952255249 0.20645767450332642
0.20982369780540466 0.20559214055538177 0.20858189463615417
0.29292312264442444 0.20823727548122406 0.21098695695400238
0.37572780251502991 0.21058623492717743 0.21334999799728394
0.45782917737960815 0.21268109977245331 0.21524627506732941
0.53963553905487061 0.21449220180511475 0.21642057597637177
0.62095922231674194 0.21550458669662476 0.2168685644865036
0.70222920179367065 0.21678188443183899 0.21722801029682159
0.7844657301902771 0.21920850872993469 0.22007200121879578
0.86808782815933228 0.22216701507568359 0.2229745090007782
0.9521784782409668 0.22601544857025146 0.22419258952140808
1 0.22843137383460999 0.22176340222358704
0.052255190908908844 0.29210078716278076 0.20974692702293396
0.13343249261379242 0.29124024510383606 0.21137122809886932
0.2156367301940918 0.29226940870285034 0.21291933953762054
0.29776346683502197 0.29358300566673279 0.21479310095310211
0.37954825162887573 0.29509228467941284 0.21663784980773926
0.46065351366996765 0.29600232839584351 0.21780024468898773
0.54131436347961426 0.29669508337974548 0.21819324791431427
0.6221117377281189 0.29739215970039368 0.21773661673069
0.70227491855621338 0.29767268896102905 0.21739551424980164
0.78277766704559326 0.29779410362243652 0.21956980228424072
0.86463195085525513 0.29943886399269104 0.22182044386863708
0.9474979043006897 0.3021831214427948 0.22139370441436768
0.9992377758026123 0.30381330847740173 0.21697069704532623
0.057138960808515549 0.37830176949501038 0.21363732218742371
0.13786609470844269 0.37725844979286194 0.2148834764957428
0.21920835971832275 0.37703144550323486 0.21582455933094025
0.30091473460197449 0.37754929065704346 0.21655413508415222
0.38222134113311768 0.37787988781929016 0.21728429198265076
0.46169152855873108 0.37777954339981079 0.2177862823009491
