assets/lut/alexjordan saturated blue.cube
# Created by: G'MIC (https://gmic.eu)
TITLE "saturated_blue"
# LUT size
LUT_3D_SIZE 5
# Data domain
DOMAIN_MIN 0.0 0.0 0.0
DOMAIN_MAX 1.0 1.0 1.0
# LUT data points
0.027662359178066254 0.03042571060359478 0.021520458161830902
0.55447375774383545 0.065229602158069611 0.061168268322944641
0.86920279264450073 0.081860169768333435 0.10688229650259018
0.99324947595596313 0.11350513249635696 0.14283882081508636
1 0.14736467599868774 0.16661329567432404
0.082623966038227081 0.43616530299186707 0.074566848576068878
0.51064401865005493 0.39062318205833435 0.02486439049243927
0.74948078393936157 0.3846302330493927 0.022997628897428513
0.90087807178497314 0.39539322257041931 0.037020798772573471
0.99706053733825684 0.41068509221076965 0.054233040660619736
0.10988302528858185 0.637351393699646 0.10554682463407516
0.53281724452972412 0.57864725589752197 0.039618398994207382
0.76582795381546021 0.56648725271224976 0.032070562243461609
0.90977144241333008 0.57765358686447144 0.039905250072479248
1 0.59047693014144897 0.071872085332870483
0.094950549304485321 0.82601004838943481 0.10346757620573044
0.524760901927948 0.76189929246902466 0.050065793097019196
0.76980304718017578 0.74861568212509155 0.037496186792850494
0.92103743553161621 0.76103103160858154 0.043089114129543304
1 0.78090280294418335 0.093432106077671051
0.05942942202091217 0.99989229440689087 0.058641981333494186
0.47695812582969666 0.97885119915008545 0.015051643364131451
0.72983157634735107 0.97303515672683716 0.020616838708519936
0.88657611608505249 0.98471373319625854 0.047191079705953598
0.99616265296936035 0.99479091167449951 0.06525915116071701
0.068013839423656464 0.047148462384939194 0.53631985187530518
0.56155341863632202 0.055749662220478058 0.56319940090179443
0.85964477062225342 0.064960882067680359 0.59083634614944458
0.96871954202651978 0.099538736045360565 0.61943304538726807
0.99995851516723633 0.12989486753940582 0.65459007024765015
0.046655185520648956 0.42601802945137024 0.54433375597000122
0.48428460955619812 0.3694995641708374 0.48893678188323975
0.72767907381057739 0.36217346787452698 0.47568473219871521
0.88075357675552368 0.37273755669593811 0.48604398965835571
0.99595999717712402 0.38938316702842712 0.5068734884262085
0.078845575451850891 0.62166357040405273 0.57619798183441162
0.50675505399703979 0.55498439073562622 0.50720715522766113
0.74317061901092529 0.5411345362663269 0.49204561114311218
0.89008837938308716 0.55139011144638062 0.49918472766876221
0.99578273296356201 0.56764942407608032 0.51472586393356323
0.079735338687896729 0.80462944507598877 0.5829770565032959
0.51118308305740356 0.73638838529586792 0.50619196891784668
0.74752676486968994 0.72246623039245605 0.49464944005012512
0.89980751276016235 0.73812508583068848 0.50939559936523438
0.99768388271331787 0.76325011253356934 0.53789502382278442
0.053452137857675552 0.9977603554725647 0.50015687942504883
0.4650118350982666 0.96059638261795044 0.4367063045501709
0.71428781747817993 0.95874685049057007 0.46798628568649292
0.87808495759963989 0.97913706302642822 0.48197650909423828
0.99215978384017944 0.99436384439468384 0.49102237820625305
0.083824425935745239 0.079221777617931366 0.76962447166442871
0.59035378694534302 0.058489121496677399 0.76967716217041016
0.84836620092391968 0.08263319730758667 0.77898019552230835
0.98193001747131348 0.1107928529381752 0.80621641874313354
1 0.13618388772010803 0.82296878099441528
0.06282680481672287 0.43359941244125366 0.73467457294464111
0.48974588513374329 0.36789447069168091 0.66823047399520874
0.73095697164535522 0.36233720183372498 0.6596369743347168
0.87654668092727661 0.37089589238166809 0.66993600130081177
0.99647980928421021 0.38775566220283508 0.70911264419555664
0.091634832322597504 0.62047624588012695 0.76018434762954712
0.50692731142044067 0.55514556169509888 0.68386673927307129
0.74209386110305786 0.54036927223205566 0.6681552529335022
0.88422310352325439 0.54858124256134033 0.6778377890586853
0.99524956941604614 0.56798005104064941 0.71242892742156982
0.095317050814628601 0.80457431077957153 0.76880866289138794
0.51027339696884155 0.73693656921386719 0.68977588415145874
0.75001716613769531 0.72421592473983765 0.6735413670539856
0.90260767936706543 0.73902469873428345 0.694011390209198
1 0.76529276371002197 0.72547227144241333
0.055356372147798538 0.9975096583366394 0.71084451675415039
0.45938128232955933 0.96081221103668213 0.6450003981590271
0.72201108932495117 0.96398669481277466 0.64821499586105347
0.88778495788574219 0.98559474945068359 0.6795048713684082
0.99846863746643066 0.99586385488510132 0.71143549680709839
0.1069103479385376 0.097524695098400116 0.93224251270294189
0.61395466327667236 0.072814285755157471 0.94489878416061401
0.87135332822799683 0.087401986122131348 0.94424921274185181
0.99555832147598267 0.11648746579885483 0.94555193185806274
1 0.14332512021064758 0.92870146036148071
0.059171173721551895 0.43539914488792419 0.89574366807937622
0.49632963538169861 0.37453743815422058 0.826987624168396
0.73566520214080811 0.36594599485397339 0.81734800338745117
0.87524127960205078 0.37481105327606201 0.82835632562637329
0.99563902616500854 0.3913784921169281 0.85247677564620972
0.086052402853965759 0.62282800674438477 0.91824930906295776
0.50762724876403809 0.55891656875610352 0.84344351291656494
0.74265110492706299 0.54284763336181641 0.82294607162475586
0.88456672430038452 0.54931610822677612 0.8330388069152832
0.99636650085449219 0.57437193393707275 0.8623231053352356
0.10138458758592606 0.80564302206039429 0.91770666837692261
0.50987237691879272 0.74025750160217285 0.8512500524520874
0.75269103050231934 0.72577232122421265 0.83395934104919434
0.90295964479446411 0.74052965641021729 0.8543468713760376
1 0.77415913343429565 0.88699460029602051
0.054605774581432343 0.99842852354049683 0.87409299612045288
0.46307757496833801 0.96688812971115112 0.81558889150619507
0.72603952884674072 0.96779716014862061 0.81630194187164307
0.89328432083129883 0.98695480823516846 0.84320449829101562
0.99994868040084839 0.99776899814605713 0.87769448757171631
0.12782149016857147 0.13481214642524719 0.99087309837341309
0.62239688634872437 0.081811003386974335 0.99999356269836426
0.86697572469711304 0.093076355755329132 1
0.99831545352935791 0.11930688470602036 0.99939572811126709
1 0.13831599056720734 0.99921554327011108
0.063587680459022522 0.43159106373786926 1
0.5013967752456665 0.37576073408126831 0.98742920160293579
0.73325437307357788 0.367897629737854 0.98235040903091431
0.87964260578155518 0.37608295679092407 0.99141258001327515
0.99835675954818726 0.38745218515396118 0.98784542083740234
0.08193543553352356 0.61943119764328003 1
0.50595355033874512 0.56174445152282715 0.98992836475372314
0.74055957794189453 0.55062675476074219 0.97815883159637451
0.88775515556335449 0.55765616893768311 0.98956894874572754
0.99690920114517212 0.57885873317718506 0.99551993608474731
0.087174840271472931 0.80485349893569946 1
0.51991593837738037 0.74350857734680176 0.99045032262802124
0.75478142499923706 0.73887062072753906 0.98692381381988525
0.9089774489402771 0.74915683269500732 0.99904626607894897
1 0.781200110912323 1
0.038675554096698761 0.99911481142044067 0.99447476863861084
0.47238850593566895 0.97362762689590454 0.98507058620452881
0.73573565483093262 0.9762645959854126 0.98742657899856567
0.8989214301109314 0.98566597700119019 0.99807697534561157
0.99836140871047974 0.99847477674484253 0.99811732769012451
