assets/lut/alexjordan cross process cp 15.cube
# Created by: G'MIC (https://gmic.eu)
TITLE "cross_process_cp_15"
# LUT size
LUT_3D_SIZE 5
# Data domain
DOMAIN_MIN 0.0 0.0 0.0
DOMAIN_MAX 1.0 1.0 1.0
# LUT data points
0 0.0015318627702072263 0.0028644038829952478
0.029911654070019722 0.0015736748464405537 0.00030050839995965362
0.20907455682754517 0 0
0.64959508180618286 0.00070769368903711438 0.0014004127588123083
1 0 0
0 0.054736431688070297 0
0.027565900236368179 0.064037054777145386 0.00023049747687764466
0.22498224675655365 0.045656554400920868 0
0.67716389894485474 0.0012545567005872726 0.00063709932146593928
1 4.5507094910135493e-05 0
0 0.19813196361064911 0
0.01505598146468401 0.23203070461750031 0
0.23796637356281281 0.23183557391166687 0
0.71041041612625122 0.16041414439678192 0
1 0.10051175206899643 0
0 0.45190915465354919 0
0.010234473273158073 0.51276701688766479 0.00073530909139662981
0.23428584635257721 0.53995645046234131 0
0.72267770767211914 0.50384312868118286 0
1 0.41239067912101746 0
0 0.85168594121932983 0
0.0044669057242572308 0.91579741239547729 0.00047432395513169467
0.24382522702217102 0.95278561115264893 0
0.71801090240478516 0.95198720693588257 0
1 0.88423240184783936 0
0 0.0036641289480030537 0.051503755152225494
0.027043480426073074 0.00016282025899272412 0.046095080673694611
0.21424168348312378 0 0.0078477449715137482
0.65470623970031738 0.0039215688593685627 0
1 0 0
0.0011890187161043286 0.054895903915166855 0.03978298231959343
0.026493491604924202 0.068768836557865143 0.050698194652795792
0.23667407035827637 0.044870249927043915 0.034626364707946777
0.69542181491851807 0.012947740964591503 0.00078875973122194409
1 0 0
0 0.20311902463436127 0.014456192031502724
0.021490897983312607 0.23989315330982208 0.038463294506072998
0.2464694082736969 0.24282777309417725 0.037165876477956772
0.72040778398513794 0.18274326622486115 0.0018883649026975036
1 0.10235154628753662 0
0 0.4704224169254303 0
0.012124215252697468 0.53019869327545166 0.015792353078722954
0.23301747441291809 0.55758148431777954 0.028765389695763588
0.75032526254653931 0.52409505844116211 0.0099616404622793198
1 0.43252867460250854 0
0 0.86572009325027466 0
0.010094407014548779 0.94087839126586914 4.6045639464864507e-05
0.23819728195667267 0.97194379568099976 0.019181434065103531
0.73972970247268677 0.97483158111572266 0.0095178047195076942
1 0.91490155458450317 0.0024870778433978558
0 0 0.18391856551170349
0.024150175973773003 0 0.17383813858032227
0.21291205286979675 0 0.1292395293712616
0.64498943090438843 0.0011697657173499465 0.044067680835723877
1 0 0
0 0.055691439658403397 0.17016452550888062
0.024491418153047562 0.068397536873817444 0.18591015040874481
0.23466116189956665 0.050738450139760971 0.16489200294017792
0.70893722772598267 0.011837813071906567 0.08791225403547287
1 0 0.0024029749911278486
0.00019661398255266249 0.20995412766933441 0.14257423579692841
0.028356768190860748 0.24642816185951233 0.17799901962280273
0.25266367197036743 0.25061452388763428 0.18683537840843201
0.74509447813034058 0.19790522754192352 0.13097679615020752
1 0.088450275361537933 0.031726192682981491
0.0018500384176149964 0.4803498387336731 0.098549544811248779
0.027927294373512268 0.5441288948059082 0.14820592105388641
0.24863007664680481 0.57284224033355713 0.18116553127765656
0.76485717296600342 0.54521185159683228 0.1626029908657074
1 0.45207798480987549 0.080519281327724457
0 0.88220620155334473 0.03129119798541069
0.033486727625131607 0.95890766382217407 0.10069714486598969
0.26076552271842957 0.98585444688796997 0.16117705404758453
0.76900649070739746 0.97928214073181152 0.16966669261455536
1 0.93339091539382935 0.12335749715566635
0 0 0.41461479663848877
0.013279499486088753 0 0.39821699261665344
0.20268669724464417 0 0.35738536715507507
0.63279491662979126 0 0.26239916682243347
1 0 0.12887534499168396
0 0.04330483078956604 0.39747780561447144
0.013280441984534264 0.057988572865724564 0.41323384642601013
0.22752860188484192 0.042421303689479828 0.39517673850059509
0.711078941822052 0.011247716844081879 0.32239428162574768
1 0 0.19380243122577667
0 0.20794706046581268 0.37404903769493103
0.024824822321534157 0.24575313925743103 0.41394016146659851
0.25647231936454773 0.25289162993431091 0.41985794901847839
0.74643242359161377 0.20490509271621704 0.37073105573654175
1 0.099685639142990112 0.25891220569610596
0 0.48642835021018982 0.33844459056854248
0.024790775030851364 0.5547061562538147 0.39374390244483948
0.26118004322052002 0.57937365770339966 0.43122637271881104
0.78775578737258911 0.56203699111938477 0.40678933262825012
0.99915486574172974 0.46920502185821533 0.32104545831680298
0 0.89665907621383667 0.2885574996471405
0.026504442095756531 0.97239845991134644 0.35937312245368958
0.2824891209602356 0.9940483570098877 0.42013406753540039
0.80238008499145508 0.99483948945999146 0.42288163304328918
0.99891895055770874 0.96994572877883911 0.36373710632324219
0 0 0.72001785039901733
0.022693095728754997 0 0.70869272947311401
0.21295103430747986 0 0.66818070411682129
0.62088680267333984 0 0.58029294013977051
1 0 0.44820383191108704
0 0.031301714479923248 0.71526247262954712
0.011516227386891842 0.045704428106546402 0.73556017875671387
0.22054378688335419 0.039046972990036011 0.71732056140899658
0.68381637334823608 0.0081239435821771622 0.64379203319549561
1 0.0069724437780678272 0.52109992504119873
0 0.2075900137424469 0.69731086492538452
0.029128490015864372 0.2404487133026123 0.74154365062713623
0.25215590000152588 0.24827808141708374 0.75045144557952881
0.7507319450378418 0.20150083303451538 0.7074664831161499
1 0.1538512259721756 0.6008109450340271
0 0.48639312386512756 0.67501318454742432
0.016168108209967613 0.5505375862121582 0.74111992120742798
0.25417479872703552 0.58739441633224487 0.77199476957321167
0.79128432273864746 0.56530517339706421 0.74888145923614502
0.99997901916503906 0.49638670682907104 0.66678959131240845
0 0.9088243842124939 0.65048348903656006
0.02993398904800415 0.97562897205352783 0.71792232990264893
0.28617438673973083 0.99684625864028931 0.77100098133087158
0.80705565214157104 0.99751925468444824 0.77869081497192383
1 0.97513651847839355 0.72061145305633545
