assets/lut/alexjordan cross process cp 03.cube
# Created by: G'MIC (https://gmic.eu)
TITLE "cross_process_cp_3"
# LUT size
LUT_3D_SIZE 13
# Data domain
DOMAIN_MIN 0.0 0.0 0.0
DOMAIN_MAX 1.0 1.0 1.0
# LUT data points
0.0075861462391912937 0.004823632538318634 0.010714976117014885
0.022230334579944611 0.015666842460632324 0.03030579537153244
0.043964594602584839 0.032841328531503677 0.055246420204639435
0.07400842010974884 0.051637805998325348 0.079448044300079346
0.11251144111156464 0.065919674932956696 0.098190590739250183
0.15855388343334198 0.07266584038734436 0.10876554250717163
0.21275439858436584 0.075829721987247467 0.1160777360200882
0.27499508857727051 0.077549353241920471 0.12505307793617249
0.34668636322021484 0.078588046133518219 0.13623945415019989
0.43414422869682312 0.078490026295185089 0.14553521573543549
0.53223568201065063 0.077513933181762695 0.15384973585605621
0.63094061613082886 0.075486965477466583 0.16333207488059998
0.72245198488235474 0.072422236204147339 0.1713346391916275
0.044750198721885681 0.05683034285902977 0.070436917245388031
0.063823103904724121 0.075271099805831909 0.092250838875770569
0.087849467992782593 0.092069365084171295 0.11271296441555023
0.12362208962440491 0.10733599215745926 0.1311664879322052
0.17358241975307465 0.11779264360666275 0.14524534344673157
0.23793864250183105 0.12342911958694458 0.15240044891834259
0.31444135308265686 0.12561154365539551 0.15554842352867126
0.39839741587638855 0.12606224417686462 0.15840804576873779
0.48686870932579041 0.12691736221313477 0.16226381063461304
0.58300840854644775 0.12823054194450378 0.16489018499851227
0.68774384260177612 0.12669987976551056 0.16794784367084503
0.79631543159484863 0.12350058555603027 0.17214731872081757
0.89438039064407349 0.11965277045965195 0.17723983526229858
0.070536144077777863 0.12840345501899719 0.12788286805152893
0.088888160884380341 0.14690791070461273 0.1437118798494339
0.11589126288890839 0.16261498630046844 0.15735164284706116
0.15852724015712738 0.17485728859901428 0.16960228979587555
0.22032837569713593 0.18161360919475555 0.17831289768218994
0.30281510949134827 0.18518818914890289 0.18150441348552704
0.40086400508880615 0.1858026534318924 0.17955788969993591
0.50619560480117798 0.1845904141664505 0.17731024324893951
0.60841876268386841 0.18486462533473969 0.17462120950222015
0.70919764041900635 0.18696253001689911 0.17175352573394775
0.81463861465454102 0.18670386075973511 0.17029003798961639
0.92065560817718506 0.18404339253902435 0.17053595185279846
0.99125373363494873 0.18184557557106018 0.1751735657453537
0.071734346449375153 0.21250222623348236 0.16581287980079651
0.093864887952804565 0.23161233961582184 0.17777688801288605
0.12594816088676453 0.248172327876091 0.18577834963798523
0.17738968133926392 0.25915473699569702 0.19225753843784332
0.25194749236106873 0.26414954662322998 0.19561728835105896
0.34874936938285828 0.26479265093803406 0.19417290389537811
0.46110343933105469 0.26270982623100281 0.18890383839607239
0.57892990112304688 0.25981876254081726 0.18203775584697723
0.69092273712158203 0.25907739996910095 0.17501038312911987
0.79612582921981812 0.25950679183006287 0.16958612203598022
0.89869087934494019 0.25992140173912048 0.16639018058776855
0.98484212160110474 0.25945895910263062 0.166596919298172
1 0.2588164210319519 0.17208613455295563
0.054448161274194717 0.31064686179161072 0.18358629941940308
0.08081352710723877 0.33018109202384949 0.19218975305557251
0.11959315091371536 0.3469422459602356 0.19663028419017792
0.18059429526329041 0.3574003279209137 0.19907693564891815
0.26701584458351135 0.36039906740188599 0.19902035593986511
0.37451130151748657 0.35829439759254456 0.1947023868560791
0.49467101693153381 0.35392341017723083 0.18657809495925903
0.618019700050354 0.34928834438323975 0.17664638161659241
0.73561006784439087 0.34660148620605469 0.16753372550010681
0.84372913837432861 0.34606042504310608 0.1627039909362793
0.94315022230148315 0.34603318572044373 0.16177572309970856
0.99903678894042969 0.34547498822212219 0.16428259015083313
1 0.3447120189666748 0.17062695324420929
0.028218317776918411 0.41897842288017273 0.18451032042503357
0.058806460350751877 0.43757784366607666 0.19082255661487579
0.10470518469810486 0.45344215631484985 0.19391311705112457
0.17501941323280334 0.46233657002449036 0.19502069056034088
0.27115276455879211 0.462758868932724 0.19391223788261414
0.38549745082855225 0.45859310030937195 0.18849827349185944
0.50952708721160889 0.45239058136940002 0.1794569194316864
0.63497281074523926 0.4464670717716217 0.16843658685684204
0.75422143936157227 0.44240877032279968 0.15898182988166809
0.86234384775161743 0.44036996364593506 0.15603193640708923
0.95857697725296021 0.43938514590263367 0.15833760797977448
1 0.43847304582595825 0.16306446492671967
1 0.43686321377754211 0.17020611464977264
0.0060515012592077255 0.53107798099517822 0.17634399235248566
0.037974219769239426 0.54772627353668213 0.18107940256595612
0.092915087938308716 0.56031274795532227 0.18502983450889587
0.17205490171909332 0.56634944677352905 0.18714147806167603
0.27253538370132446 0.56517404317855835 0.18642082810401917
0.38940903544425964 0.55953264236450195 0.18140150606632233
0.51403480768203735 0.55235415697097778 0.17300225794315338
0.63860791921615601 0.54568815231323242 0.16322286427021027
0.75651121139526367 0.5406569242477417 0.1556466668844223
0.86306089162826538 0.53776794672012329 0.15341714024543762
0.95627307891845703 0.53639322519302368 0.15752701461315155
0.99997431039810181 0.53417801856994629 0.16296996176242828
1 0.53096842765808105 0.17008942365646362
0.00082738540368154645 0.64168155193328857 0.16778072714805603
0.029238173738121986 0.65544790029525757 0.1716320812702179
0.090781256556510925 0.66390454769134521 0.1770663857460022
0.17392940819263458 0.66663342714309692 0.18074961006641388
0.27618497610092163 0.66362029314041138 0.18064777553081512
0.39184564352035522 0.65715420246124268 0.17658136785030365
0.51425302028656006 0.64935702085494995 0.16960532963275909
0.63615787029266357 0.64224910736083984 0.16215026378631592
0.75139021873474121 0.63672113418579102 0.15675878524780273
0.85508477687835693 0.63361406326293945 0.15598864853382111
0.94555169343948364 0.63171309232711792 0.15858055651187897
0.99859374761581421 0.62896019220352173 0.16382093727588654
1 0.62362116575241089 0.17019326984882355
0.002838329179212451 0.74668723344802856 0.16544231772422791
0.038008894771337509 0.75723612308502197 0.16942395269870758
0.09987322986125946 0.7614065408706665 0.17455783486366272
0.18236070871353149 0.76079583168029785 0.17794732749462128
0.28228321671485901 0.75623530149459839 0.17808286845684052
0.39462968707084656 0.7489703893661499 0.17479351162910461
0.51351618766784668 0.74086272716522217 0.16936075687408447
0.63176465034484863 0.73336154222488403 0.16341874003410339
0.74370700120925903 0.72756499052047729 0.15963585674762726
0.84461808204650879 0.72416180372238159 0.15870131552219391
0.93245232105255127 0.72194755077362061 0.16092544794082642
0.9945148229598999 0.71862667798995972 0.16542477905750275
1 0.71170711517333984 0.17073391377925873
0.010479153133928776 0.83929163217544556 0.16764082014560699
0.053734514862298965 0.84715795516967773 0.17276753485202789
0.11455492675304413 0.84883105754852295 0.17690728604793549
0.19421260058879852 0.84640383720397949 0.17943879961967468
0.29045793414115906 0.84110432863235474 0.17916689813137054
0.39886224269866943 0.83368748426437378 0.17604814469814301
0.51373153924942017 0.82538288831710815 0.17118406295776367
0.6279941201210022 0.81768202781677246 0.16634924709796906
0.7360113263130188 0.81166982650756836 0.16317856311798096
0.83379876613616943 0.80740851163864136 0.16233150660991669
0.91874438524246216 0.80429011583328247 0.16406799852848053
0.98666495084762573 0.79999613761901855 0.16753040254116058
1 0.79258769750595093 0.17224697768688202
0.017538467422127724 0.91095340251922607 0.17248554527759552
0.066677212715148926 0.92010623216629028 0.17808522284030914
0.12844793498516083 0.92271327972412109 0.18173879384994507
0.20646576583385468 0.92153561115264893 0.18321819603443146
0.29936212301254272 0.91708660125732422 0.1821630448102951
0.40356907248497009 0.91026228666305542 0.17893168330192566
0.51409792900085449 0.90242987871170044 0.17432402074337006
0.62418472766876221 0.8948444128036499 0.16989411413669586
0.7284775972366333 0.88862442970275879 0.16699373722076416
0.82235962152481079 0.88364547491073608 0.16612160205841064
0.90426915884017944 0.87926185131072998 0.1676124781370163
0.97422260046005249 0.87416768074035645 0.17043955624103546
1 0.86679452657699585 0.1740366667509079
0.019693560898303986 0.96487879753112793 0.17810350656509399
0.074541829526424408 0.97756558656692505 0.18345075845718384
0.1393258273601532 0.98322600126266479 0.18639720976352692
0.21700248122215271 0.98418039083480835 0.18708685040473938
0.30770570039749146 0.98228311538696289 0.18554143607616425
0.40816709399223328 0.97803598642349243 0.18198373913764954
0.51438623666763306 0.97214776277542114 0.17743469774723053
0.62033653259277344 0.96510899066925049 0.17317698895931244
0.7203984260559082 0.95895576477050781 0.17030185461044312
0.81008064746856689 0.95365071296691895 0.16915498673915863
0.88873559236526489 0.94864976406097412 0.17079408466815948
0.95737248659133911 0.94306439161300659 0.17261095345020294
0.9987298846244812 0.93553513288497925 0.17594622075557709
0.021138284355401993 0.99819135665893555 0.18114505708217621
0.080520093441009521 0.99996501207351685 0.18659596145153046
0.14850907027721405 1 0.18941114842891693
0.22665661573410034 1 0.18966418504714966
0.31503444910049438 1 0.1877414882183075
0.41195660829544067 1 0.18420033156871796
0.51339340209960938 1 0.17984111607074738
0.61474835872650146 0.99998831748962402 0.17571352422237396
0.71039843559265137 0.99958300590515137 0.17247502505779266
0.79633700847625732 0.9986538290977478 0.17218136787414551
0.87240725755691528 0.99757587909698486 0.17218136787414551
0.93958735466003418 0.99543315172195435 0.17429591715335846
0.99247801303863525 0.99235761165618896 0.17610293626785278
0.012410616502165794 0.008793969638645649 0.020153913646936417
0.02822457067668438 0.022151738405227661 0.044298883527517319
0.048867333680391312 0.039789851754903793 0.070313423871994019
0.077825151383876801 0.05632820725440979 0.094982177019119263
0.11667555570602417 0.068613894283771515 0.11543872207403183
0.16440947353839874 0.075561732053756714 0.1287054568529129
0.22063948214054108 0.078849121928215027 0.13797208666801453
0.28617936372756958 0.080132953822612762 0.14921534061431885
0.36245423555374146 0.080244384706020355 0.16366872191429138
0.45004397630691528 0.079926416277885437 0.17708198726177216
0.54702609777450562 0.078695617616176605 0.18925929069519043
0.64785200357437134 0.075803317129611969 0.20164410769939423
0.74429523944854736 0.071851067245006561 0.21254254877567291
0.048693370074033737 0.064808666706085205 0.086877606809139252
0.067980192601680756 0.082690387964248657 0.11164145171642303
0.092249386012554169 0.098911896347999573 0.13440543413162231
0.12854999303817749 0.1130300760269165 0.15483687818050385
0.17990581691265106 0.12257455289363861 0.17121151089668274
0.24579827487468719 0.12724585831165314 0.18134672939777374
0.32370844483375549 0.128551185131073 0.18729589879512787
0.40964671969413757 0.12812934815883636 0.19286911189556122
0.50049465894699097 0.12833259999752045 0.19921807944774628
0.59743291139602661 0.12898136675357819 0.20509770512580872
0.70149344205856323 0.12800435721874237 0.21119968593120575
0.80784440040588379 0.12499602138996124 0.21870599687099457
0.90396207571029663 0.12172872573137283 0.22690390050411224
0.070832304656505585 0.134543776512146 0.14888212084770203
0.091618947684764862 0.15255263447761536 0.16976858675479889
0.11998386681079865 0.16867581009864807 0.18794012069702148
0.16418075561523438 0.18115010857582092 0.20309379696846008
0.22787296772003174 0.18815794587135315 0.21395391225814819
0.31141957640647888 0.19026771187782288 0.21939608454704285
0.4099012017250061 0.18908807635307312 0.2213173508644104
0.51491183042526245 0.18683934211730957 0.22131404280662537
0.61897885799407959 0.18644446134567261 0.22058020532131195
0.72225475311279297 0.18779756128787994 0.22025102376937866
0.8281320333480835 0.18777571618556976 0.22091983258724213
0.93171036243438721 0.18570396304130554 0.22484342753887177
0.99377167224884033 0.18396773934364319 0.231716588139534
0.072393588721752167 0.21741385757923126 0.19692391157150269
0.096021391451358795 0.23632034659385681 0.21320866048336029
0.12964710593223572 0.2531924843788147 0.2255626916885376
0.18245337903499603 0.26512384414672852 0.23502230644226074
0.25844541192054749 0.27058884501457214 0.24011412262916565
0.35609087347984314 0.27044114470481873 0.24055792391300201
0.46900975704193115 0.26684832572937012 0.23741777241230011
0.58677709102630615 0.26273959875106812 0.23266200721263885
0.70035749673843384 0.26076826453208923 0.22752410173416138
0.80823308229446411 0.2612231969833374 0.22367021441459656
0.91166067123413086 0.26177570223808289 0.222405806183815
0.99083876609802246 0.26070910692214966 0.22590669989585876
1 0.26030752062797546 0.23242856562137604
0.05569642037153244 0.31576386094093323 0.22466138005256653
0.082784734666347504 0.33480337262153625 0.23689760267734528
0.12289369106292725 0.3514866828918457 0.24463161826133728
0.18509183824062347 0.36251154541969299 0.24945823848247528
0.27196785807609558 0.36624887585639954 0.25033983588218689
0.37981748580932617 0.3643098771572113 0.24666395783424377
0.5007815957069397 0.35899490118026733 0.23990188539028168
0.6251225471496582 0.35331317782402039 0.23177516460418701
0.74414491653442383 0.34980523586273193 0.22489537298679352
0.85389852523803711 0.3486182689666748 0.22117708623409271
0.95410680770874023 0.34825170040130615 0.22153571248054504
0.99989241361618042 0.34788325428962708 0.22539296746253967
1 0.34747782349586487 0.23216937482357025
0.030145967379212379 0.42459502816200256 0.2349141538143158
0.061018537729978561 0.4429212212562561 0.24367885291576385
0.10811381787061691 0.45809102058410645 0.24881790578365326
0.17895039916038513 0.46708115935325623 0.25074100494384766
0.27449849247932434 0.4686468243598938 0.24989722669124603
0.3887481689453125 0.46491765975952148 0.24452370405197144
0.51365190744400024 0.45836296677589417 0.23592846095561981
0.64026123285293579 0.4515245258808136 0.22637970745563507
0.76075208187103271 0.44662261009216309 0.21908730268478394
0.86994796991348267 0.44402983784675598 0.21703994274139404
0.96591430902481079 0.44291156530380249 0.21954579651355743
1 0.44216325879096985 0.22498780488967896
1 0.44060817360877991 0.23186579346656799
0.0082490360364317894 0.53703296184539795 0.23419821262359619
0.041303180158138275 0.55365073680877686 0.24075371026992798
0.095337614417076111 0.5660434365272522 0.24503184854984283
0.17320257425308228 0.57219541072845459 0.2471010833978653
0.27333691716194153 0.57142162322998047 0.24552260339260101
0.390799880027771 0.5661582350730896 0.23998510837554932
0.51629245281219482 0.55859804153442383 0.23142939805984497
0.64227545261383057 0.55107629299163818 0.22244539856910706
0.76145744323730469 0.5455736517906189 0.21631802618503571
0.86821383237838745 0.54208666086196899 0.21563556790351868
0.96024256944656372 0.54031038284301758 0.21924082934856415
1 0.53854513168334961 0.2250860184431076
1 0.53576356172561646 0.23173549771308899
0.001383553259074688 0.64770156145095825 0.23069319128990173
0.031946908682584763 0.66201746463775635 0.23589156568050385
0.090984076261520386 0.67070060968399048 0.24034759402275085
0.1724025160074234 0.67343145608901978 0.24276053905487061
0.27443769574165344 0.67086696624755859 0.24154646694660187
0.39121100306510925 0.66422361135482788 0.236625075340271
0.51479583978652954 0.65579450130462646 0.22902126610279083
0.63863658905029297 0.64778608083724976 0.2215789407491684
0.75523418188095093 0.64157146215438843 0.21680589020252228
0.85923618078231812 0.63774150609970093 0.21652467548847198
0.94814574718475342 0.63554781675338745 0.22031041979789734
0.99877965450286865 0.63308751583099365 0.22566734254360199
1 0.62880325317382812 0.23142413794994354
0.0019917057361453772 0.75116562843322754 0.22990921139717102
0.035905875265598297 0.76326924562454224 0.23479156196117401
0.096255294978618622 0.76872283220291138 0.23900642991065979
0.1777149885892868 0.76856881380081177 0.24139511585235596
0.27778041362762451 0.76412039995193481 0.24022537469863892
0.39176234602928162 0.75635719299316406 0.23584157228469849
0.51266384124755859 0.74730563163757324 0.22941020131111145
0.63351321220397949 0.73902541399002075 0.22317104041576385
0.74740082025527954 0.73227787017822266 0.21912187337875366
0.84914296865463257 0.7280389666557312 0.21877466142177582
0.93609142303466797 0.72518104314804077 0.22151124477386475
0.99518793821334839 0.72204595804214478 0.22602963447570801
1 0.71672236919403076 0.23133935034275055
0.0059291613288223743 0.84277904033660889 0.23247839510440826
0.04677186906337738 0.8531264066696167 0.2377781867980957
0.10737349838018417 0.85646229982376099 0.24166104197502136
0.18668636679649353 0.85501599311828613 0.24341250956058502
0.28367382287979126 0.84958112239837646 0.24199438095092773
0.39419811964035034 0.84135586023330688 0.23757727444171906
0.51132678985595703 0.8320433497428894 0.23174044489860535
0.62845420837402344 0.82337892055511475 0.22598065435886383
0.73920524120330811 0.81637042760848999 0.22235415875911713
0.83841770887374878 0.81129759550094604 0.22172695398330688
0.92343252897262573 0.8076852560043335 0.22341148555278778
0.98858672380447388 0.80347198247909546 0.22709979116916656
1 0.79753059148788452 0.23153027892112732
0.010629032738506794 0.91660743951797485 0.23700864613056183
0.057584095746278763 0.92756038904190063 0.24265500903129578
0.11903516203165054 0.93164891004562378 0.24621017277240753
0.19704467058181763 0.93084955215454102 0.24722282588481903
0.29072612524032593 0.92609071731567383 0.24538248777389526
0.39739534258842468 0.91839832067489624 0.24073009192943573
0.51054930686950684 0.90948367118835449 0.23487289249897003
0.62392926216125488 0.90066683292388916 0.22932709753513336
0.73073214292526245 0.89336133003234863 0.22581276297569275
0.82665961980819702 0.88780909776687622 0.22489246726036072
0.90911686420440674 0.88329100608825684 0.22600629925727844
0.97739028930664062 0.87843543291091919 0.22897405922412872
1 0.87213927507400513 0.23235005140304565
0.013930780813097954 0.97472107410430908 0.24154280126094818
0.066110141575336456 0.98585402965545654 0.24728521704673767
0.12987934052944183 0.99000602960586548 0.25055655837059021
0.20714101195335388 0.99052625894546509 0.25100275874137878
0.29871585965156555 0.98859494924545288 0.2485337108373642
0.40148928761482239 0.98437875509262085 0.24367222189903259
0.51020115613937378 0.97827744483947754 0.23782467842102051
0.61901015043258667 0.97122633457183838 0.23238086700439453
0.72127515077590942 0.96422958374023438 0.22890345752239227
0.81352180242538452 0.95837879180908203 0.22712533175945282
0.89328628778457642 0.95322215557098389 0.22841164469718933
0.96095412969589233 0.9479709267616272 0.2301863431930542
0.99914097785949707 0.94136738777160645 0.23354041576385498
0.016907127574086189 0.99987167119979858 0.24387705326080322
0.073379069566726685 1 0.24977369606494904
0.13993668556213379 1 0.25243666768074036
0.21748225390911102 1 0.25248858332633972
0.30682933330535889 1 0.25022944808006287
0.40561404824256897 1 0.24536895751953125
0.5094640851020813 1 0.23985420167446136
0.61312764883041382 1 0.23479899764060974
0.71102195978164673 0.9999992847442627 0.23076313734054565
0.79908466339111328 0.99958533048629761 0.23008579015731812
0.87643599510192871 0.99856513738632202 0.23008579015731812
0.94379222393035889 0.99739575386047363 0.23061142861843109
0.99431926012039185 0.99486756324768066 0.23370400071144104
0.017916720360517502 0.01356398593634367 0.031397875398397446
0.034308742731809616 0.02903238870203495 0.057536434382200241
0.053577452898025513 0.045565824955701828 0.083167850971221924
0.082246311008930206 0.059878464788198471 0.10861469060182571
0.1224481612443924 0.070362001657485962 0.1314474493265152
0.1730332225561142 0.07662886381149292 0.14867570996284485
0.23283207416534424 0.079446069896221161 0.16152498126029968
0.30239173769950867 0.080228440463542938 0.17531122267246246
0.3810323178768158 0.080271415412425995 0.19217006862163544
0.46707737445831299 0.080184295773506165 0.20771610736846924
0.5615965723991394 0.079152993857860565 0.22234098613262177
0.66371327638626099 0.075448192656040192 0.23763255774974823
0.76473498344421387 0.070323511958122253 0.25186911225318909
0.054218009114265442 0.070603147149085999 0.10642260313034058
0.073120653629302979 0.088522441685199738 0.13205403089523315
0.096826635301113129 0.10456828773021698 0.15546976029872894
0.13359954953193665 0.11780264228582382 0.17761451005935669
0.18664325773715973 0.12638872861862183 0.19677412509918213
0.25454804301261902 0.12977062165737152 0.21055895090103149
0.33518028259277344 0.12932001054286957 0.22050139307975769
0.42328581213951111 0.12850856781005859 0.22941501438617706
0.51520311832427979 0.12868155539035797 0.23769161105155945
0.61134004592895508 0.12898284196853638 0.24558098614215851
0.71356296539306641 0.12870799005031586 0.25424888730049133
0.81862062215805054 0.12530755996704102 0.26482528448104858
0.91522073745727539 0.1221674457192421 0.27587613463401794
0.073985032737255096 0.13774333894252777 0.17458425462245941
0.095353670418262482 0.15641783177852631 0.19891172647476196
0.12452000379562378 0.17342016100883484 0.21917071938514709
0.16972401738166809 0.18651723861694336 0.23613156378269196
0.23531879484653473 0.19373883306980133 0.24956725537776947
0.31997540593147278 0.19485472142696381 0.25844523310661316
0.41945600509643555 0.19152361154556274 0.26400887966156006
0.52509599924087524 0.18789510428905487 0.26756945252418518
0.62919217348098755 0.18785911798477173 0.26861655712127686
0.73277950286865234 0.18865744769573212 0.26971203088760376
0.83793312311172485 0.18870361149311066 0.27345851063728333
0.93929201364517212 0.18719759583473206 0.28016453981399536
0.99563068151473999 0.18591757118701935 0.28885656595230103
0.073079325258731842 0.22162653505802155 0.23013325035572052
0.097989596426486969 0.24015399813652039 0.25046038627624512
0.1334584504365921 0.25736686587333679 0.26630750298500061
0.18790331482887268 0.27037855982780457 0.27799275517463684
0.26502752304077148 0.27625176310539246 0.28540617227554321
0.36297589540481567 0.27566829323768616 0.28798511624336243
0.47554919123649597 0.27093055844306946 0.28777101635932922
0.59298288822174072 0.26569867134094238 0.28582459688186646
0.70679843425750732 0.26375150680541992 0.2825181782245636
0.81560176610946655 0.26355242729187012 0.28058323264122009
0.91940808296203613 0.26351898908615112 0.28198572993278503
0.99351668357849121 0.26325753331184387 0.28694853186607361
1 0.26291677355766296 0.2943899929523468
0.05581207200884819 0.32094833254814148 0.26709890365600586
0.084373787045478821 0.33917200565338135 0.28270402550697327
0.12672834098339081 0.35553717613220215 0.29362666606903076
0.19014729559421539 0.36687493324279785 0.30077061057090759
0.27719056606292725 0.37148571014404297 0.30324611067771912
0.38449788093566895 0.36992180347442627 0.30069682002067566
0.50492227077484131 0.36426854133605957 0.29556381702423096
0.62895172834396362 0.35776177048683167 0.28960731625556946
0.74845039844512939 0.35352954268455505 0.28426754474639893
0.8592599630355835 0.35179758071899414 0.28230345249176025
0.95928823947906494 0.35123679041862488 0.28386947512626648
0.99999010562896729 0.35083523392677307 0.28864967823028564
1 0.35055768489837646 0.2957058846950531
0.032114334404468536 0.42950102686882019 0.28611662983894348
0.063910417258739471 0.4472789466381073 0.29783007502555847
0.11243253201246262 0.46194317936897278 0.30510589480400085
