assets/lut/alexjordan yellow 55b.cube
# Created by: G'MIC (https://gmic.eu)
TITLE "yellow_55b"
# LUT size
LUT_3D_SIZE 7
# Data domain
DOMAIN_MIN 0.0 0.0 0.0
DOMAIN_MAX 1.0 1.0 1.0
# LUT data points
0.00039708754047751427 0.00071698357351124287 0.016573004424571991
0.051266148686408997 0.0044828080572187901 0.02588634192943573
0.13478827476501465 0.0016186434077098966 0.022780504077672958
0.24157744646072388 0.0014705882640555501 0.016965365037322044
0.36674943566322327 0.0015203737420961261 0.013454168103635311
0.50749659538269043 0.0036532084923237562 0.013114884495735168
0.66175782680511475 0.010007611475884914 0.013896867632865906
0.014893296174705029 0.06105702742934227 0.03763854131102562
0.074119731783866882 0.07241617888212204 0.049249686300754547
0.16055342555046082 0.074781633913516998 0.051282696425914764
0.2733922004699707 0.077934980392456055 0.047029875218868256
0.40561175346374512 0.078426435589790344 0.044520478695631027
0.55385404825210571 0.075923487544059753 0.043343666940927505
0.71571868658065796 0.077494196593761444 0.042584184557199478
0.031975824385881424 0.15595416724681854 0.051727835088968277
0.0966368168592453 0.16972728073596954 0.066065303981304169
0.18747365474700928 0.18113048374652863 0.075205996632575989
0.30577769875526428 0.18947657942771912 0.077503681182861328
0.4442887008190155 0.19053360819816589 0.07836468517780304
0.6007387638092041 0.18486621975898743 0.078492648899555206
0.7693600058555603 0.18181081116199493 0.078690819442272186
0.04939187690615654 0.27837464213371277 0.065400294959545135
0.12190966308116913 0.29734903573989868 0.083795703947544098
0.21637046337127686 0.3157494068145752 0.099266007542610168
0.33749651908874512 0.32897156476974487 0.10916537046432495
0.48186275362968445 0.33541542291641235 0.11498042196035385
0.64346933364868164 0.33788278698921204 0.11853539198637009
0.8165428638458252 0.34296533465385437 0.12120355665683746
0.066807731986045837 0.42811241745948792 0.084515638649463654
0.1452319473028183 0.45232829451560974 0.10640067607164383
0.24379822611808777 0.47573003172874451 0.12699350714683533
0.36851182579994202 0.49383270740509033 0.14269682765007019
0.51774793863296509 0.50591152906417847 0.15283627808094025
0.68597179651260376 0.51457542181015015 0.15966640412807465
0.864402174949646 0.52447468042373657 0.16520798206329346
0.086488671600818634 0.60540127754211426 0.11096812039613724
0.17006957530975342 0.63084423542022705 0.13481171429157257
0.27243509888648987 0.65668433904647827 0.15884281694889069
0.40055587887763977 0.67847806215286255 0.17865833640098572
0.5554814338684082 0.69418632984161377 0.192178875207901
0.72934019565582275 0.7060164213180542 0.20144174993038177
0.91281336545944214 0.71826893091201782 0.20943371951580048
0.11587867140769958 0.79761743545532227 0.14212021231651306
0.20493321120738983 0.82325756549835205 0.16692431271076202
0.31027007102966309 0.85065943002700806 0.19317102432250977
0.43983998894691467 0.87542778253555298 0.21627463400363922
0.59867501258850098 0.89393645524978638 0.23181775212287903
0.77563774585723877 0.90894591808319092 0.24338677525520325
0.96102195978164673 0.92392933368682861 0.25385335087776184
0.0017964680446311831 0.0023807003162801266 0.06856951117515564
0.053662765771150589 0.011045986786484718 0.07322133332490921
0.13508716225624084 0.0035282957833260298 0.071855343878269196
0.24126726388931274 0.0014016544446349144 0.066617287695407867
0.36898323893547058 0.0006324319401755929 0.062707282602787018
0.51308941841125488 0.00017233456310350448 0.05944061279296875
0.67159372568130493 0.00025168026331812143 0.055473897606134415
0.022815898060798645 0.065871536731719971 0.087359137833118439
0.079725511372089386 0.077238284051418304 0.09839196503162384
0.16396638751029968 0.080608248710632324 0.10149841010570526
0.27620631456375122 0.081764489412307739 0.098449215292930603
0.40900453925132751 0.078208118677139282 0.096168294548988342
0.55935579538345337 0.072487771511077881 0.092930935323238373
0.72281116247177124 0.070681840181350708 0.089432075619697571
0.035542178899049759 0.16432821750640869 0.1039130687713623
0.099876582622528076 0.17852506041526794 0.11908548325300217
0.19087651371955872 0.1902967095375061 0.1295512467622757
0.30973711609840393 0.19721777737140656 0.13333050906658173
0.44921407103538513 0.19646041095256805 0.13439570367336273
0.6058616042137146 0.19168849289417267 0.13399991393089294
0.77443844079971313 0.19098758697509766 0.13342057168483734
0.053664728999137878 0.29016309976577759 0.12075842916965485
0.12544602155685425 0.30849817395210266 0.14029672741889954
0.22010433673858643 0.32622504234313965 0.1577504575252533
0.34219077229499817 0.33857709169387817 0.1691005527973175
0.48745501041412354 0.344463050365448 0.17548881471157074
0.64994323253631592 0.34790629148483276 0.17916925251483917
0.8236393928527832 0.3523954451084137 0.1823381632566452
0.071658149361610413 0.4392530620098114 0.14299137890338898
0.14933480322360992 0.46335768699645996 0.16550873219966888
0.24818551540374756 0.48644733428955078 0.18783736228942871
0.37391406297683716 0.50428766012191772 0.20535142719745636
0.52471363544464111 0.51619642972946167 0.21692213416099548
0.69449508190155029 0.5242774486541748 0.22448535263538361
0.87464314699172974 0.53141814470291138 0.23066709935665131
0.0911407470703125 0.61363774538040161 0.17045767605304718
0.17401684820652008 0.64087212085723877 0.19515655934810638
0.27729839086532593 0.66728335618972778 0.22118054330348969
0.40676501393318176 0.68944418430328369 0.24301236867904663
0.56249535083770752 0.70598864555358887 0.2584134042263031
0.73877537250518799 0.71659177541732788 0.26896798610687256
0.92542195320129395 0.72476893663406372 0.2779201865196228
0.11863607913255692 0.80488818883895874 0.2032310962677002
0.20759843289852142 0.83258545398712158 0.22884991765022278
0.31502330303192139 0.86112582683563232 0.25686275959014893
0.44674479961395264 0.8865172266960144 0.28168204426765442
0.60526806116104126 0.90693879127502441 0.30001550912857056
0.7835497260093689 0.92200380563735962 0.31340280175209045
0.96973758935928345 0.93357211351394653 0.32506829500198364
0.0014154022792354226 0.00079309800639748573 0.13451452553272247
0.055779267102479935 0.0057788174599409103 0.13798122107982635
0.13633927702903748 0.0045078652910888195 0.13487476110458374
0.24285989999771118 0.0020237641874700785 0.1286444216966629
0.37315812706947327 0.00024126838252414018 0.12354087084531784
0.52173882722854614 0 0.11731286346912384
0.68390476703643799 0 0.10795099288225174
0.023859346285462379 0.067860715091228485 0.15380337834358215
0.085839532315731049 0.080078452825546265 0.1638849675655365
0.16857334971427917 0.084075525403022766 0.1672617495059967
0.2800675630569458 0.086208224296569824 0.16392526030540466
0.41448381543159485 0.081223778426647186 0.159993976354599
0.567485511302948 0.07274029403924942 0.15401910245418549
0.73300564289093018 0.068382352590560913 0.14660501480102539
0.042481906712055206 0.17045752704143524 0.17084947228431702
0.10961957275867462 0.18484234809875488 0.18649774789810181
0.19918835163116455 0.19672438502311707 0.19780579209327698
0.3167940080165863 0.20467311143875122 0.20077602565288544
0.45682671666145325 0.20366570353507996 0.20127840340137482
0.6141168475151062 0.1995033323764801 0.19903664290904999
0.78295266628265381 0.19946970045566559 0.19782160222530365
0.062068700790405273 0.29860544204711914 0.18864138424396515
0.13545332849025726 0.31778833270072937 0.20846886932849884
0.2300347238779068 0.33556124567985535 0.22678405046463013
0.35224401950836182 0.34787321090698242 0.23881259560585022
0.49772241711616516 0.35333383083343506 0.24534770846366882
0.660209059715271 0.35565370321273804 0.24813450872898102
0.83376854658126831 0.359718918800354 0.25103059411048889
0.082714587450027466 0.44850236177444458 0.21041452884674072
0.16122445464134216 0.47327250242233276 0.23341487348079681
0.25996249914169312 0.49662092328071594 0.25727063417434692
0.38594701886177063 0.51449728012084961 0.27605968713760376
0.53660494089126587 0.52640664577484131 0.28833299875259399
0.70587402582168579 0.53354024887084961 0.29616716504096985
0.88583695888519287 0.53993552923202515 0.30264467000961304
0.10272497683763504 0.62284034490585327 0.23689922690391541
0.18682852387428284 0.65061527490615845 0.2621665894985199
0.29067632555961609 0.67762935161590576 0.28999930620193481
0.42050236463546753 0.70041817426681519 0.31373715400695801
0.57541406154632568 0.71793615818023682 0.33096426725387573
0.75055336952209473 0.72941774129867554 0.34273087978363037
0.9365726113319397 0.73665577173233032 0.35264167189598083
0.12805928289890289 0.81495505571365356 0.2697928249835968
0.21904078125953674 0.84333342313766479 0.29616084694862366
0.32844698429107666 0.87196505069732666 0.32651242613792419
0.4613831639289856 0.89810007810592651 0.35329362750053406
0.61868095397949219 0.92066699266433716 0.37378281354904175
0.79505586624145508 0.93831562995910645 0.38883733749389648
0.97815442085266113 0.94794321060180664 0.40189141035079956
6.8933826696593314e-05 1.2925092050863896e-05 0.20810215175151825
0.050152335315942764 0.0027084650937467813 0.21122945845127106
0.13390810787677765 0.0048836502246558666 0.20855216681957245
0.24301840364933014 0.0035970499739050865 0.2035391628742218
0.37769535183906555 0.00039062500582076609 0.19827821850776672
0.52950692176818848 0 0.19173099100589752
0.69308936595916748 0 0.18697516620159149
0.014370189048349857 0.068128056824207306 0.23043167591094971
0.08410162478685379 0.082110553979873657 0.2399737536907196
0.17062734067440033 0.089876048266887665 0.24274924397468567
0.28351894021034241 0.091597706079483032 0.24151647090911865
0.42063981294631958 0.084979861974716187 0.23721949756145477
0.57516258955001831 0.075588062405586243 0.23134392499923706
0.74133861064910889 0.072253219783306122 0.22723384201526642
0.041774868965148926 0.17416787147521973 0.2502063512802124
0.11423780024051666 0.1900031566619873 0.26552110910415649
0.20623178780078888 0.20219564437866211 0.27684956789016724
0.32465285062789917 0.20927281677722931 0.28136140108108521
0.46529096364974976 0.20902115106582642 0.28112572431564331
0.62270331382751465 0.20585103332996368 0.27868384122848511
0.79156321287155151 0.20744544267654419 0.27809801697731018
0.067816101014614105 0.30285874009132385 0.26940032839775085
0.14364162087440491 0.3239206075668335 0.28938382863998413
0.23959624767303467 0.34211456775665283 0.30791535973548889
0.36314693093299866 0.35376548767089844 0.32020676136016846
0.50850290060043335 0.35916623473167419 0.32648733258247375
0.67022955417633057 0.36218303442001343 0.32901549339294434
0.84327411651611328 0.36758750677108765 0.33199214935302734
0.093731269240379333 0.45418447256088257 0.29023173451423645
0.17247354984283447 0.48098617792129517 0.31386911869049072
0.27189552783966064 0.5048021674156189 0.33838757872581482
0.39862838387489319 0.52208036184310913 0.35810458660125732
0.54888468980789185 0.53373569250106812 0.37078028917312622
0.7166515588760376 0.54122179746627808 0.37834131717681885
0.8956030011177063 0.54881972074508667 0.38485938310623169
0.11508012562990189 0.63129323720932007 0.31564396619796753
0.20021805167198181 0.6598503589630127 0.3416658341884613
0.30480203032493591 0.68687701225280762 0.37086057662963867
0.43487206101417542 0.70940268039703369 0.39574944972991943
0.58880949020385742 0.72711992263793945 0.41392284631729126
0.76232105493545532 0.73921602964401245 0.42600870132446289
0.9470636248588562 0.74794226884841919 0.43599092960357666
0.14005616307258606 0.82562798261642456 0.34784829616546631
0.23298759758472443 0.85385477542877197 0.37531325221061707
0.34377166628837585 0.88190925121307373 0.40693521499633789
0.47730103135108948 0.9081728458404541 0.43521559238433838
0.63372218608856201 0.93111729621887207 0.45713630318641663
0.80930739641189575 0.94860547780990601 0.47335445880889893
0.98614603281021118 0.95924109220504761 0.48707500100135803
0 0 0.28934332728385925
0.044289235025644302 0.0012435015523806214 0.29369089007377625
0.13351495563983917 0.0044855605810880661 0.29257291555404663
0.24718558788299561 0.0035949707962572575 0.28921964764595032
0.38483408093452454 0.00039062500582076609 0.28567934036254883
0.53830444812774658 0 0.28198674321174622
0.70269590616226196 0 0.28131717443466187
0.0072796689346432686 0.067183084785938263 0.31459888815879822
0.080138921737670898 0.083277896046638489 0.32431766390800476
0.1727348119020462 0.09319063276052475 0.32911008596420288
0.28956332802772522 0.093779154121875763 0.32910138368606567
0.42808347940444946 0.088063091039657593 0.32678070664405823
0.58294969797134399 0.081160195171833038 0.32359322905540466
0.74963784217834473 0.080823473632335663 0.32305505871772766
0.038237776607275009 0.17665773630142212 0.33760398626327515
0.11517461389303207 0.19470351934432983 0.35319465398788452
0.21104949712753296 0.20726890861988068 0.36508390307426453
0.33223941922187805 0.21287113428115845 0.37094536423683167
0.47327503561973572 0.21390596032142639 0.37221044301986694
0.63037782907485962 0.21345600485801697 0.37154063582420349
0.7995416522026062 0.21770980954170227 0.37257081270217896
0.069464243948459625 0.30786827206611633 0.35973554849624634
0.14763481914997101 0.33021977543830872 0.38019081950187683
0.24594889581203461 0.34805279970169067 0.39894324541091919
0.37137514352798462 0.35876908898353577 0.41190773248672485
0.51693129539489746 0.36510533094406128 0.41894254088401794
0.67793595790863037 0.36969417333602905 0.42192810773849487
0.85128039121627808 0.3776039183139801 0.42523685097694397
0.097183823585510254 0.4639551043510437 0.38267919421195984
0.17875386774539948 0.49012073874473572 0.4066847562789917
0.28024744987487793 0.5122416615486145 0.43104293942451477
0.40760833024978638 0.52858561277389526 0.45130094885826111
0.55721586942672729 0.54028582572937012 0.46422269940376282
0.724903404712677 0.54876595735549927 0.47191449999809265
0.90446954965591431 0.55823665857315063 0.47797048091888428
0.12268075346946716 0.64246165752410889 0.40960955619812012
0.20989838242530823 0.67018598318099976 0.43549472093582153
0.31627699732780457 0.6954999566078186 0.46422693133354187
0.44577121734619141 0.71704715490341187 0.4894428551197052
0.5991935133934021 0.73468881845474243 0.50799423456192017
0.77271157503128052 0.74724429845809937 0.52000361680984497
0.95844781398773193 0.75693583488464355 0.52908515930175781
0.15279288589954376 0.83533638715744019 0.44293081760406494
0.24701280891895294 0.86339414119720459 0.46964019536972046
0.35864078998565674 0.89085257053375244 0.50023436546325684
0.49177861213684082 0.91668355464935303 0.52864909172058105
0.64737927913665771 0.93961524963378906 0.55128848552703857
0.82333230972290039 0.95739251375198364 0.56772977113723755
0.99302548170089722 0.96736150979995728 0.5805668830871582
0 0 0.37823194265365601
0.043052807450294495 0.00034825943293981254 0.38460773229598999
0.13997407257556915 0.0021122652105987072 0.38672855496406555
0.25856032967567444 0.0018522375030443072 0.38529723882675171
0.39679050445556641 0.00064643408404663205 0.38350439071655273
0.5504269003868103 0 0.38216912746429443
0.71521222591400146 4.434024594957009e-05 0.38374027609825134
0.0046827127225697041 0.066040903329849243 0.40583464503288269
0.079491741955280304 0.083468466997146606 0.41704991459846497
0.17805869877338409 0.093325532972812653 0.42381533980369568
0.2990073561668396 0.094974279403686523 0.42602849006652832
0.43805646896362305 0.092634968459606171 0.42576467990875244
0.59307610988616943 0.090595468878746033 0.42491316795349121
0.7599368691444397 0.094542846083641052 0.42664986848831177
0.037707880139350891 0.17795820534229279 0.43163409829139709
0.11878753453493118 0.19762329757213593 0.44791954755783081
0.21773071587085724 0.21129176020622253 0.46084952354431152
0.33992871642112732 0.21787501871585846 0.4684789776802063
0.48111423850059509 0.22158604860305786 0.47175922989845276
0.63856208324432373 0.22466781735420227 0.47305366396903992
0.80837029218673706 0.23271691799163818 0.47547674179077148
0.07408643513917923 0.31130108237266541 0.45655873417854309
0.15455980598926544 0.33482259511947632 0.47735419869422913
0.25405082106590271 0.35364410281181335 0.49659794569015503
0.37767618894577026 0.36552271246910095 0.51072293519973755
0.52240478992462158 0.37353172898292542 0.51913082599639893
0.68453788757324219 0.38056588172912598 0.52358025312423706
0.85893493890762329 0.39155504107475281 0.52763426303863525
0.10186224430799484 0.4734911322593689 0.48327508568763733
0.18575584888458252 0.49885895848274231 0.5072750449180603
0.28881931304931641 0.51957255601882935 0.53150933980941772
0.4141862690448761 0.53582698106765747 0.55203253030776978
0.56289458274841309 0.54823237657546997 0.56604254245758057
0.73111391067504883 0.55836755037307739 0.57422733306884766
0.91186672449111938 0.57037961483001709 0.58040773868560791
0.13082310557365417 0.65425944328308105 0.51295232772827148
0.2203802615404129 0.68030780553817749 0.538726806640625
0.32727929949760437 0.70359760522842407 0.56652915477752686
0.45524600148200989 0.72437721490859985 0.591968834400177
0.60710197687149048 0.742645263671875 0.61093282699584961
0.77998453378677368 0.75742137432098389 0.6233978271484375
0.96653538942337036 0.76925396919250488 0.63209885358810425
0.16731303930282593 0.84573864936828613 0.54734355211257935
0.26289123296737671 0.87248694896697998 0.57367855310440063
0.37454459071159363 0.89905911684036255 0.60290110111236572
0.50645667314529419 0.92441117763519287 0.63090044260025024
0.66059404611587524 0.94841933250427246 0.65384650230407715
0.83511483669281006 0.96749484539031982 0.67097902297973633
0.99689239263534546 0.97827303409576416 0.68359309434890747
0 0 0.47239181399345398
0.049794036895036697 4.4878790504299104e-05 0.48103302717208862
0.15212413668632507 0.0014705882640555501 0.48549911379814148
0.27450639009475708 0.0016502828802913427 0.48645833134651184
0.41384100914001465 0.0014705882640555501 0.48664641380310059
0.56742554903030396 0.001491052913479507 0.48740816116333008
0.73226577043533325 0.0030294980388134718 0.49045690894126892
0.0066342223435640335 0.067445985972881317 0.50208866596221924
0.085414230823516846 0.085659965872764587 0.51506537199020386
0.18761594593524933 0.096675187349319458 0.52358710765838623
0.31134882569313049 0.1004159227013588 0.52753490209579468
0.45196515321731567 0.10198201239109039 0.52959245443344116
0.60737043619155884 0.10485679656267166 0.53106415271759033
0.77454608678817749 0.1132844090461731 0.53440767526626587
0.045009970664978027 0.18197058141231537 0.52996838092803955
0.128080815076828 0.20248731970787048 0.54702252149581909
0.22844633460044861 0.2184356153011322 0.5608370304107666
0.35087794065475464 0.22772960364818573 0.57023733854293823
0.49268367886543274 0.23405088484287262 0.57564765214920044
0.65059417486190796 0.24096706509590149 0.57909864187240601
0.82076489925384521 0.25287947058677673 0.58309364318847656
0.086335621774196625 0.31443342566490173 0.55748063325881958
0.16796466708183289 0.34014385938644409 0.57855361700057983
0.26712095737457275 0.36125263571739197 0.59806793928146362
0.38902288675308228 0.37552782893180847 0.61342209577560425
0.5330086350440979 0.38605991005897522 0.62340372800827026
0.69515466690063477 0.39619919657707214 0.62957990169525146
0.86992847919464111 0.41067919135093689 0.63493233919143677
0.11691586673259735 0.47892653942108154 0.58745241165161133
0.20202217996120453 0.50505799055099487 0.61131668090820312
0.30361151695251465 0.52732139825820923 0.6355016827583313
0.42689952254295349 0.54504275321960449 0.65666276216506958
0.57369709014892578 0.558918297290802 0.67135286331176758
0.74147927761077881 0.57127827405929565 0.68083870410919189
0.92182356119155884 0.58705461025238037 0.68787521123886108
0.14759598672389984 0.663543701171875 0.62007689476013184
0.23881454765796661 0.68830817937850952 0.64543908834457397
0.34527033567428589 0.71154576539993286 0.67266005277633667
0.47063592076301575 0.73278039693832397 0.69805020093917847
0.62077683210372925 0.75132673978805542 0.71737682819366455
0.79228401184082031 0.76666027307510376 0.73087918758392334
0.97395586967468262 0.78324860334396362 0.74069470167160034
0.18714991211891174 0.85696780681610107 0.65585863590240479
0.28457048535346985 0.88195300102233887 0.68158221244812012
0.39619866013526917 0.90748518705368042 0.70978391170501709
0.52679097652435303 0.93246912956237793 0.73696321249008179
0.67896121740341187 0.95660120248794556 0.75986957550048828
0.85106807947158813 0.97474116086959839 0.77790194749832153
0.99906331300735474 0.98694974184036255 0.79130250215530396
