assets/lut/alexjordan action red 01.cube
# Created by: G'MIC (https://gmic.eu)
TITLE "action_red_01"
# LUT size
LUT_3D_SIZE 5
# Data domain
DOMAIN_MIN 0.0 0.0 0.0
DOMAIN_MAX 1.0 1.0 1.0
# LUT data points
0.0094873765483498573 0.010902943089604378 0.052692487835884094
0.080827467143535614 0.0094111273065209389 0.054714366793632507
0.23995472490787506 0.0090086692944169044 0.052692368626594543
0.47107565402984619 0 0.033704556524753571
0.80422145128250122 0 0.0018592984415590763
0.085755698382854462 0.10003561526536942 0.15748222172260284
0.12898540496826172 0.1459951251745224 0.13888804614543915
0.33530130982398987 0.14396809041500092 0.11070592701435089
0.66637134552001953 0.1068459153175354 0.079328052699565887
0.99986517429351807 0.072172857820987701 0.032740350812673569
0.22469428181648254 0.24636879563331604 0.31196048855781555
0.24150118231773376 0.31225147843360901 0.29249140620231628
0.34248808026313782 0.3688596785068512 0.15501497685909271
0.66321438550949097 0.35516813397407532 0.08818131685256958
1 0.31648758053779602 0.035356767475605011
0.40311285853385925 0.42574083805084229 0.46777898073196411
0.43062120676040649 0.49782735109329224 0.46937313675880432
0.44660112261772156 0.59253197908401489 0.32171469926834106
0.62353616952896118 0.64559710025787354 0.14306941628456116
0.97918659448623657 0.63209611177444458 0.063373371958732605
0.61563360691070557 0.6314842700958252 0.63323336839675903
0.65313345193862915 0.70633280277252197 0.65034455060958862
0.6446189284324646 0.81342583894729614 0.53806489706039429
0.70896214246749878 0.91324573755264282 0.32057753205299377
0.94559997320175171 0.96016842126846313 0.12108606100082397
0.0054286434315145016 0.0091911768540740013 0.05322825163602829
0.032858964055776596 0.034491743892431259 0.087761774659156799
0.15849564969539642 0.035916376858949661 0.13196161389350891
0.40374147891998291 0.0099144726991653442 0.13699707388877869
0.74724674224853516 0 0.11036580055952072
0.10004650801420212 0.11599256098270416 0.17277547717094421
0.14021420478820801 0.15414004027843475 0.21572639048099518
0.36046123504638672 0.1494947224855423 0.22289377450942993
0.69823539257049561 0.11338309198617935 0.19807159900665283
1 0.070847362279891968 0.1568620353937149
0.24046079814434052 0.26305997371673584 0.32711416482925415
0.28745836019515991 0.31602895259857178 0.3739524781703949
0.35879018902778625 0.37848696112632751 0.27600929141044617
0.70397889614105225 0.36209380626678467 0.19376745820045471
1 0.31478103995323181 0.15293624997138977
0.42136242985725403 0.44360578060150146 0.48276743292808533
0.48255553841590881 0.5036502480506897 0.52889418601989746
0.49924817681312561 0.58636903762817383 0.4822772741317749
0.63539540767669678 0.65698820352554321 0.27547755837440491
0.99304312467575073 0.64057344198226929 0.16808761656284332
0.63561242818832397 0.65129059553146362 0.64862996339797974
0.70354324579238892 0.71832394599914551 0.70390647649765015
0.73439860343933105 0.80013388395309448 0.70310860872268677
0.7486802339553833 0.91369438171386719 0.50655192136764526
0.95838487148284912 0.96946853399276733 0.27330270409584045
0.010570676065981388 0.013086864724755287 0.061055921018123627
0.038306862115859985 0.045309614390134811 0.096308641135692596
0.069311536848545074 0.073309548199176788 0.14306400716304779
0.22244678437709808 0.071140050888061523 0.212932288646698
0.53392177820205688 0.033815961331129074 0.25829797983169556
0.11131449788808823 0.12873989343643188 0.18984429538249969
0.15099868178367615 0.16951093077659607 0.23338954150676727
0.20721876621246338 0.20847095549106598 0.28699743747711182
0.5122789740562439 0.1754932701587677 0.37101566791534424
0.96566498279571533 0.10619082301855087 0.37594062089920044
0.25594702363014221 0.28031274676322937 0.34171000123023987
0.30722126364707947 0.33328187465667725 0.38809287548065186
0.37141123414039612 0.38483679294586182 0.4288938045501709
0.72999042272567749 0.35850799083709717 0.41368728876113892
1 0.30899965763092041 0.38656282424926758
0.44231364130973816 0.46442249417304993 0.49845871329307556
0.50511157512664795 0.52377504110336304 0.54737722873687744
0.56813979148864746 0.58674687147140503 0.60011625289916992
0.65836852788925171 0.66086775064468384 0.45356291532516479
0.99960309267044067 0.63845819234848022 0.34463357925415039
0.65750372409820557 0.67272698879241943 0.666229248046875
0.72676843404769897 0.74107283353805542 0.72064977884292603
0.79816752672195435 0.80884075164794922 0.77741307020187378
0.81887775659561157 0.90372776985168457 0.71327322721481323
0.97502326965332031 0.97498077154159546 0.46477708220481873
0.016197727993130684 0.024251466616988182 0.073438800871372223
0.046137433499097824 0.05547783151268959 0.1097625270485878
0.078143909573554993 0.087453879415988922 0.14841458201408386
0.12576258182525635 0.12367303669452667 0.19890005886554718
0.30418521165847778 0.11692389845848083 0.29732465744018555
0.12305586785078049 0.14227522909641266 0.20341995358467102
0.16415902972221375 0.18399748206138611 0.2491423636674881
0.2105153352022171 0.22770626842975616 0.29610845446586609
0.274711012840271 0.27300211787223816 0.35930702090263367
0.58543562889099121 0.24115492403507233 0.48527976870536804
0.27237561345100403 0.29875907301902771 0.35813102126121521
0.32415640354156494 0.35119476914405823 0.40301302075386047
0.3841281533241272 0.40484175086021423 0.45234969258308411
0.45992991328239441 0.45593404769897461 0.50987154245376587
0.88247859477996826 0.40006190538406372 0.62017977237701416
0.46267193555831909 0.48502597212791443 0.5145074725151062
0.52437734603881836 0.54404062032699585 0.56213241815567017
0.59079474210739136 0.60822546482086182 0.61425280570983887
0.66356521844863892 0.67051535844802856 0.6597282886505127
0.99709868431091309 0.63484179973602295 0.63059067726135254
0.68016260862350464 0.6948014497756958 0.68531632423400879
0.75264859199523926 0.76189976930618286 0.74095940589904785
0.82130336761474609 0.83089989423751831 0.79583144187927246
0.89456534385681152 0.90175163745880127 0.85697323083877563
0.98652482032775879 0.97760581970214844 0.68129408359527588
0.013910644687712193 0.030858477577567101 0.082106061279773712
0.052797339856624603 0.064498260617256165 0.12119691073894501
0.086046613752841949 0.10128658264875412 0.16235539317131042
0.11975976079702377 0.14059449732303619 0.20828516781330109
0.2026364654302597 0.17510280013084412 0.2691551148891449
0.13793303072452545 0.1543840765953064 0.2202959805727005
0.18009749054908752 0.20094987750053406 0.26672843098640442
0.22778207063674927 0.24651138484477997 0.31334871053695679
0.27865642309188843 0.29246580600738525 0.36246606707572937
0.36233842372894287 0.3377220630645752 0.42406940460205078
0.29040259122848511 0.31560984253883362 0.37448993325233459
0.34348773956298828 0.36894190311431885 0.42190587520599365
0.40279194712638855 0.42562311887741089 0.46810144186019897
0.4650568962097168 0.48145052790641785 0.51696515083312988
0.55324208736419678 0.53286468982696533 0.58301174640655518
0.48371055722236633 0.50474965572357178 0.53335696458816528
0.54670178890228271 0.56592279672622681 0.58152586221694946
0.6112101674079895 0.62887787818908691 0.63000810146331787
0.67814773321151733 0.69250035285949707 0.68551516532897949
0.77342253923416138 0.75189781188964844 0.75409191846847534
0.70065861940383911 0.71962261199951172 0.70497888326644897
0.77492785453796387 0.78495842218399048 0.75963717699050903
0.84322082996368408 0.85523051023483276 0.81494182348251343
0.92225658893585205 0.92668026685714722 0.87651914358139038
0.98867559432983398 0.98824548721313477 0.92306673526763916
