assets/lut/alexjordan contrasty afternoon.cube
# Created by: G'MIC (https://gmic.eu)
TITLE "contrasty_afternoon"
# LUT size
LUT_3D_SIZE 5
# Data domain
DOMAIN_MIN 0.0 0.0 0.0
DOMAIN_MAX 1.0 1.0 1.0
# LUT data points
0 0 0
0.055612124502658844 0.0040903878398239613 0
0.32343670725822449 0 0
0.57727891206741333 0 0
0.80746555328369141 0.00096906773978844285 0
5.561978105106391e-05 0.093813695013523102 0
0.090758442878723145 0.094160951673984528 0
0.36357113718986511 0.087754540145397186 0
0.6207088828086853 0.10763512551784515 0.0057937172241508961
0.84834599494934082 0.13970465958118439 0
0.0058368309400975704 0.37245208024978638 0.011241628788411617
0.15067188441753387 0.37111565470695496 2.423454679956194e-05
0.40822339057922363 0.37338107824325562 0.00083627138519659638
0.6640547513961792 0.38804030418395996 0.011914092116057873
0.89014679193496704 0.40864557027816772 0.0072875679470598698
0.027024617418646812 0.64341330528259277 0.037798833101987839
0.19817683100700378 0.64456045627593994 0.0079738693311810493
0.44684576988220215 0.65101379156112671 0.0054217320866882801
0.70521658658981323 0.65958523750305176 0.021845918148756027
0.93794596195220947 0.68007999658584595 0.039596334099769592
0.077713161706924438 0.92610293626785278 0.073927871882915497
0.25905013084411621 0.92620635032653809 0.0401027612388134
0.49625924229621887 0.93261587619781494 0.029034020379185677
0.74789780378341675 0.94080114364624023 0.049461424350738525
0.98184734582901001 0.96117502450942993 0.076958931982517242
0 0 0.11722711473703384
0.055775482207536697 0.00092006009072065353 0.10947936028242111
0.32953420281410217 0 0.11060403287410736
0.58112388849258423 0.0016604105476289988 0.12063577771186829
0.80770987272262573 0 0.1374102383852005
0 0.097179874777793884 0.15660989284515381
0.090547583997249603 0.090614423155784607 0.1514633446931839
0.37012067437171936 0.094315424561500549 0.15409594774246216
0.62200546264648438 0.11753088235855103 0.16297106444835663
0.84814560413360596 0.10500411689281464 0.18250714242458344
0 0.36795476078987122 0.19953607022762299
0.12819841504096985 0.37603676319122314 0.1883312463760376
0.40653485059738159 0.37799122929573059 0.19934919476509094
0.66644781827926636 0.38619095087051392 0.21057634055614471
0.89063948392868042 0.39602404832839966 0.21977522969245911
0.00037594963214360178 0.64514219760894775 0.24337753653526306
0.16088084876537323 0.64907819032669067 0.22314363718032837
0.43733784556388855 0.6552281379699707 0.22450044751167297
0.70344668626785278 0.6643480658531189 0.24580922722816467
0.92912602424621582 0.68244343996047974 0.26980727910995483
0.040346033871173859 0.92610293626785278 0.28724819421768188
0.22949163615703583 0.92733585834503174 0.26473161578178406
0.48481002449989319 0.93234944343566895 0.26178571581840515
0.74534595012664795 0.93955910205841064 0.28198674321174622
0.97748219966888428 0.95836150646209717 0.30953255295753479
2.6927275030175224e-05 0 0.37834781408309937
0.086702041327953339 0 0.37448343634605408
0.33153480291366577 0 0.37434887886047363
0.58194077014923096 0.00033318015630356967 0.38369861245155334
0.8081246018409729 0.002621878869831562 0.40303272008895874
0.0030701281502842903 0.097342140972614288 0.41267219185829163
0.10716301202774048 0.091763578355312347 0.41098180413246155
0.37484407424926758 0.10787536203861237 0.41461703181266785
0.62733322381973267 0.1321527510881424 0.42454513907432556
0.85082155466079712 0.13280148804187775 0.44289121031761169
0 0.37693485617637634 0.4494268000125885
0.13610565662384033 0.374982088804245 0.45202293992042542
0.41426673531532288 0.38078469038009644 0.45749899744987488
0.67080914974212646 0.39128124713897705 0.46259373426437378
0.89718985557556152 0.39772039651870728 0.47673618793487549
0.00011237649596296251 0.65065199136734009 0.49048605561256409
0.16544725000858307 0.65229350328445435 0.48734128475189209
0.44409096240997314 0.65801811218261719 0.49227339029312134
0.7056928277015686 0.66744887828826904 0.50159847736358643
0.93227970600128174 0.68196076154708862 0.52114641666412354
0.024439014494419098 0.92727196216583252 0.53270578384399414
0.22152838110923767 0.92905992269515991 0.52375543117523193
0.48988962173461914 0.93406462669372559 0.526478111743927
0.75090330839157104 0.9391779899597168 0.53966844081878662
0.97721230983734131 0.95743864774703979 0.56108015775680542
0.0066307066008448601 0 0.63144403696060181
0.10713574290275574 0 0.63001745939254761
0.33404254913330078 0 0.63324964046478271
0.58398878574371338 0 0.64437943696975708
0.81010478734970093 0.0010749368229880929 0.66163891553878784
0.00011587703920667991 0.09868931770324707 0.66663551330566406
0.10581986606121063 0.1029135137796402 0.66677534580230713
0.37221845984458923 0.12203638255596161 0.67235243320465088
0.62795764207839966 0.1406419426202774 0.68419981002807617
0.85017645359039307 0.14034952223300934 0.7011113166809082
0 0.38096213340759277 0.70460450649261475
0.13870495557785034 0.37880977988243103 0.70565462112426758
0.41756096482276917 0.38369610905647278 0.71354073286056519
0.67168539762496948 0.39205694198608398 0.72244811058044434
0.89696252346038818 0.39704224467277527 0.7387128472328186
0.0025869482196867466 0.65475636720657349 0.74580264091491699
0.17598211765289307 0.65343135595321655 0.74660557508468628
0.45547348260879517 0.6576346755027771 0.75431913137435913
0.70924431085586548 0.66697442531585693 0.75973278284072876
0.93544125556945801 0.68075484037399292 0.78015661239624023
0.017363904044032097 0.92798423767089844 0.78839361667633057
0.21337580680847168 0.92750078439712524 0.78453481197357178
0.49589776992797852 0.93547004461288452 0.78967094421386719
0.75122529268264771 0.94270330667495728 0.79661935567855835
0.97381329536437988 0.9611627459526062 0.8197053074836731
5.834242983837612e-05 0 0.89158123731613159
0.10636991262435913 0 0.89024192094802856
0.32882589101791382 0 0.8946765661239624
0.57759028673171997 0 0.90529918670654297
0.81274223327636719 0.00014935662329662591 0.92022144794464111
0 0.10091041028499603 0.92582100629806519
0.10318849980831146 0.097606807947158813 0.92547273635864258
0.3624207079410553 0.12110592424869537 0.93178945779800415
0.61891716718673706 0.14351136982440948 0.94412112236022949
0.85245376825332642 0.1578991562128067 0.95918697118759155
0.0061180265620350838 0.38037192821502686 0.96416008472442627
0.15940408408641815 0.37763085961341858 0.96272844076156616
0.41407755017280579 0.3848382830619812 0.96949917078018188
0.66476285457611084 0.39562514424324036 0.9794842004776001
0.8939242959022522 0.40721985697746277 0.98934304714202881
0.020322432741522789 0.65517586469650269 0.99132585525512695
0.19158723950386047 0.65174198150634766 0.99061685800552368
0.45059481263160706 0.65748977661132812 0.99320882558822632
0.70605278015136719 0.66867029666900635 0.99688184261322021
0.9324263334274292 0.68789452314376831 0.99995958805084229
0.030083360150456429 0.9291616678237915 1
0.21951904892921448 0.92629736661911011 1
0.4886573851108551 0.93332076072692871 1
0.75299280881881714 0.94264042377471924 1
0.97343355417251587 0.96460837125778198 1
