assets/lut/alexjordan green g 09.cube
# Created by: G'MIC (https://gmic.eu)
TITLE "green_g_09"
# LUT size
LUT_3D_SIZE 5
# Data domain
DOMAIN_MIN 0.0 0.0 0.0
DOMAIN_MAX 1.0 1.0 1.0
# LUT data points
0 0 0
0.00010501637007109821 0 0.00014917709631845355
0.053698714822530746 0.014517002739012241 0.038286697119474411
0.26403346657752991 0.041256967931985855 0.16207705438137054
0.60258549451828003 0.032132796943187714 0.3174501359462738
0.044761240482330322 0.16041524708271027 0.031886037439107895
0.17123442888259888 0.22284118831157684 0.0749855637550354
0.42333653569221497 0.24171708524227142 0.14885921776294708
0.69846546649932861 0.24057510495185852 0.28512200713157654
0.953338623046875 0.2268100380897522 0.41151288151741028
0.18155397474765778 0.4389723539352417 0.090449824929237366
0.32490155100822449 0.48394486308097839 0.10154679417610168
0.54154509305953979 0.490488201379776 0.12112245708703995
0.8345412015914917 0.4642578661441803 0.21889650821685791
1 0.4335939884185791 0.34891033172607422
0.30773785710334778 0.65878397226333618 0.10459240525960922
0.44511023163795471 0.69218748807907104 0.10531538724899292
0.64736855030059814 0.70491564273834229 0.085040882229804993
0.93932801485061646 0.67994785308837891 0.14774943888187408
1 0.64356112480163574 0.26086965203285217
0.41922417283058167 0.87078022956848145 0.055798877030611038
0.55442255735397339 0.90616118907928467 0.056495413184165955
0.75011724233627319 0.92298662662506104 0.023450110107660294
0.99726885557174683 0.89971214532852173 0.060100704431533813
1 0.86236065626144409 0.16070428490638733
0 0 0
0.0007296842522919178 0.0029966018628329039 0.0097554521635174751
0.062274903059005737 0.041076928377151489 0.10761962831020355
0.23782959580421448 0.074749231338500977 0.28143054246902466
0.47130474448204041 0.095445774495601654 0.43662002682685852
0.011001287959516048 0.20110310614109039 0.14477710425853729
0.12809829413890839 0.25961583852767944 0.24449068307876587
0.30112379789352417 0.29491972923278809 0.34620827436447144
0.50380963087081909 0.31788456439971924 0.44987308979034424
0.72798252105712891 0.31588751077651978 0.55458229780197144
0.1372961550951004 0.47611603140830994 0.24499593675136566
0.29102808237075806 0.50376850366592407 0.32514935731887817
0.45062544941902161 0.52077180147171021 0.37830266356468201
0.71407908201217651 0.50596243143081665 0.44161760807037354
0.96917134523391724 0.48517477512359619 0.56080442667007446
0.26944538950920105 0.6822659969329834 0.28344708681106567
0.4135686457157135 0.70283645391464233 0.34420812129974365
0.57358443737030029 0.72656869888305664 0.34886658191680908
0.82217824459075928 0.72012531757354736 0.35683941841125488
1 0.68240565061569214 0.47211775183677673
0.38135436177253723 0.89209723472595215 0.26046255230903625
0.52275896072387695 0.9162563681602478 0.30148428678512573
0.69102901220321655 0.9384339451789856 0.28141900897026062
0.93174737691879272 0.93285262584686279 0.27937242388725281
1 0.89977598190307617 0.36690154671669006
0 0 0
0.0018914764514192939 0.017521951347589493 0.044158365577459335
0.062984496355056763 0.072224713861942291 0.2192857563495636
0.21977545320987701 0.10630463063716888 0.41557532548904419
0.43586984276771545 0.13051256537437439 0.56316781044006348
5.1700368203455582e-05 0.24481767416000366 0.26422184705734253
0.065144285559654236 0.29963064193725586 0.3829304575920105
0.25076621770858765 0.33277526497840881 0.47386568784713745
0.43486061692237854 0.35287734866142273 0.56489413976669312
0.61965751647949219 0.36665409803390503 0.65699392557144165
0.099987104535102844 0.51060038805007935 0.36580252647399902
0.24212020635604858 0.53358668088912964 0.44672521948814392
0.41226363182067871 0.54577916860580444 0.52381998300552368
0.58534103631973267 0.55336570739746094 0.60846036672592163
0.80496931076049805 0.54883205890655518 0.69999319314956665
0.22300191223621368 0.71215903759002686 0.39584356546401978
0.37903499603271484 0.72906649112701416 0.47367027401924133
0.54523903131484985 0.74091219902038574 0.55813926458358765
0.7317078709602356 0.75256586074829102 0.57794409990310669
0.99731796979904175 0.7228158712387085 0.67467004060745239
0.34365978837013245 0.91664230823516846 0.40157276391983032
0.49829185009002686 0.93385189771652222 0.48094025254249573
0.66596943140029907 0.94571769237518311 0.54496508836746216
0.85649126768112183 0.96121597290039062 0.51596152782440186
1 0.9377937912940979 0.56289708614349365
0 0.0010395722929388285 0.0045624678023159504
0 0.042739465832710266 0.12595729529857635
0.03781929612159729 0.10256211459636688 0.35923072695732117
0.1911187469959259 0.14071826636791229 0.56702536344528198
0.39211595058441162 0.16909655928611755 0.67981284856796265
0 0.28982323408126831 0.39797022938728333
0.025184197351336479 0.34023019671440125 0.50974541902542114
0.20707221329212189 0.37097316980361938 0.59970009326934814
0.39251002669334412 0.39030921459197998 0.68757802248001099
0.57655972242355347 0.40153461694717407 0.77626621723175049
0.056743308901786804 0.54506051540374756 0.49183881282806396
0.18679167330265045 0.56267750263214111 0.56830203533172607
0.36485302448272705 0.57659435272216797 0.64359521865844727
0.53842008113861084 0.58466488122940063 0.72595328092575073
0.7206999659538269 0.59157764911651611 0.81167787313461304
0.1747748851776123 0.74390846490859985 0.51620388031005859
0.32803118228912354 0.75805586576461792 0.59058612585067749
0.50250887870788574 0.76955252885818481 0.67360347509384155
0.68410509824752808 0.77795374393463135 0.76193571090698242
0.90056484937667847 0.77189314365386963 0.84406298398971558
0.30531817674636841 0.9463610053062439 0.52524042129516602
0.46107038855552673 0.96285790205001831 0.60817104578018188
0.63435655832290649 0.97061443328857422 0.69511687755584717
0.81381940841674805 0.97851169109344482 0.74895346164703369
0.99937188625335693 0.97582352161407471 0.76068013906478882
0 0.013339652679860592 0.046293865889310837
0.0019615173805505037 0.080679573118686676 0.26113483309745789
0.011775356717407703 0.14181140065193176 0.52701348066329956
0.14184209704399109 0.17370611429214478 0.72012335062026978
0.33832138776779175 0.18973574042320251 0.78857344388961792
0 0.33605089783668518 0.54927337169647217
0.0047716028057038784 0.38064154982566833 0.65638196468353271
0.14144724607467651 0.40473651885986328 0.74311864376068115
0.31828004121780396 0.41853302717208862 0.84053510427474976
0.51135963201522827 0.42181110382080078 0.90596526861190796
0.026974381878972054 0.57247060537338257 0.62167686223983765
0.12767280638217926 0.59375846385955811 0.69590872526168823
0.30024576187133789 0.60761582851409912 0.77680331468582153
0.47980755567550659 0.61695045232772827 0.86215746402740479
0.66972112655639648 0.62081128358840942 0.94006311893463135
0.13653376698493958 0.77427786588668823 0.64253360033035278
0.27071064710617065 0.79077553749084473 0.72081327438354492
0.44360443949699402 0.8004724383354187 0.80279070138931274
0.62920099496841431 0.80695432424545288 0.88698285818099976
0.81536489725112915 0.81389564275741577 0.97171396017074585
0.27319011092185974 0.97592556476593018 0.6484254002571106
0.4173508882522583 0.9879574179649353 0.73561990261077881
0.58754450082778931 0.99275213479995728 0.8188633918762207
0.7704843282699585 0.99476677179336548 0.89812314510345459
0.96445578336715698 0.99501705169677734 0.97513836622238159
