assets/lut/alexjordan agressive highligjtes recovery 5.cube
# Created by: G'MIC (https://gmic.eu)
TITLE "agressive_highligjtes_recovery_5"
# LUT size
LUT_3D_SIZE 5
# Data domain
DOMAIN_MIN 0.0 0.0 0.0
DOMAIN_MAX 1.0 1.0 1.0
# LUT data points
8.1858917837962508e-05 0 0
0.039843585342168808 0.016173733398318291 0.015282215550541878
0.25185894966125488 0.052969448268413544 0.053603243082761765
0.57021439075469971 0.12412828952074051 0.12170618027448654
0.53648459911346436 0.12239240854978561 0.10966818034648895
0.033966813236474991 0.20582626760005951 0.03744862973690033
0.17867116630077362 0.17551873624324799 0.025780217722058296
0.48208239674568176 0.15425315499305725 0.12861017882823944
0.55985236167907715 0.10246919840574265 0.11360348016023636
0.54968732595443726 0.12262639403343201 0.12373969703912735
0.11815755814313889 0.59820359945297241 0.11890365183353424
0.061217889189720154 0.50615924596786499 0.097376681864261627
0.41785541176795959 0.39460161328315735 0.036063175648450851
0.65435224771499634 0.3108525276184082 0.21482174098491669
0.59954094886779785 0.25009506940841675 0.19120520353317261
0.17911055684089661 0.89889466762542725 0.16988752782344818
0.15684221684932709 0.85389667749404907 0.17040231823921204
0.12126249074935913 0.69476932287216187 0.1383432000875473
0.61861521005630493 0.58732825517654419 0.026495706290006638
0.82961040735244751 0.49843725562095642 0.20504593849182129
0.16719318926334381 0.93327385187149048 0.15706300735473633
0.18007081747055054 0.93082767724990845 0.17657360434532166
0.15470477938652039 0.92240387201309204 0.19645154476165771
0.23934110999107361 0.83363300561904907 0.10055600106716156
0.78247398138046265 0.73782360553741455 0.0023881201632320881
6.4625460254319478e-06 0.00028722427668981254 0.0019367891363799572
0.088138073682785034 0.000975560222286731 0.077965937554836273
0.34147116541862488 0.040780909359455109 0.16229686141014099
0.58537209033966064 0.11585590243339539 0.19845005869865417
0.57446175813674927 0.12534759938716888 0.18445734679698944
0.070213988423347473 0.17640917003154755 0.18207681179046631
0.14821964502334595 0.14113651216030121 0.15804347395896912
0.42715334892272949 0.12638959288597107 0.13828146457672119
0.55657416582107544 0.1139926090836525 0.12635414302349091
0.5396152138710022 0.12229388207197189 0.11698533594608307
0.10375921428203583 0.55063939094543457 0.094473324716091156
0.068443343043327332 0.46291276812553406 0.079085089266300201
0.37504750490188599 0.35445287823677063 0.026752293109893799
0.63139051198959351 0.28009501099586487 0.19791252911090851
0.58852988481521606 0.19779989123344421 0.16199764609336853
0.16651178896427155 0.87752407789230347 0.16550293564796448
0.16035881638526917 0.83408272266387939 0.16004353761672974
0.1222960501909256 0.66980260610580444 0.13614958524703979
0.58499312400817871 0.56620758771896362 0.037376031279563904
0.81194138526916504 0.48169830441474915 0.215836301445961
0.17771242558956146 0.93066143989562988 0.17715558409690857
0.18219432234764099 0.93019253015518188 0.1836356520652771
0.17327612638473511 0.93408083915710449 0.18798226118087769
0.2195112556219101 0.83297199010848999 0.1013689860701561
0.77669793367385864 0.7419438362121582 0.0017612233059480786
0 0.00043658088543452322 0.0069474163465201855
0.085629284381866455 0 0.20113401114940643
0.47159069776535034 0.00028480080072768033 0.47572940587997437
0.91934585571289062 0.026062220335006714 0.63739311695098877
0.90995234251022339 0.029852818697690964 0.62008941173553467
0.0095828184857964516 0.15958423912525177 0.69817489385604858
0.10479997843503952 0.10260877758264542 0.76425492763519287
0.68855565786361694 0.021099420264363289 0.70098495483398438
0.85875505208969116 0.043647870421409607 0.54581326246261597
0.82900261878967285 0.052510805428028107 0.48373562097549438
0.20232236385345459 0.48212844133377075 0.5179440975189209
0.16439738869667053 0.39933550357818604 0.42432323098182678
0.31421491503715515 0.29704481363296509 0.32343381643295288
0.63953703641891479 0.22567532956600189 0.24319678544998169
0.5935785174369812 0.16400747001171112 0.18011163175106049
0.18670971691608429 0.82288628816604614 0.23073281347751617
0.17346279323101044 0.74486511945724487 0.20459127426147461
0.11428135633468628 0.60587817430496216 0.11935921758413315
0.52356874942779541 0.49904739856719971 0.019706547260284424
0.76266777515411377 0.4223516583442688 0.22216865420341492
0.16928213834762573 0.93167567253112793 0.15166708827018738
0.17915171384811401 0.93813920021057129 0.16922000050544739
0.16796195507049561 0.88184946775436401 0.17134253680706024
0.19758082926273346 0.77168726921081543 0.1077595129609108
0.70937764644622803 0.68792331218719482 0.0013153075706213713
0 0.00068449130048975348 0.014336949214339256
0.09371040016412735 0 0.36134827136993408
0.51316344738006592 0.00077354582026600838 0.88002526760101318
1 0 0.99985295534133911
1 0 1
0 0.12141022086143494 0.99981856346130371
0.084853410720825195 0.057199038565158844 1
0.64361119270324707 0.00034179686917923391 1
1 0 1
1 0 1
0.092006340622901917 0.44845658540725708 0.89252561330795288
0.037162691354751587 0.36950632929801941 0.92665940523147583
0.25382727384567261 0.23135745525360107 0.9972693920135498
0.96480739116668701 0.074642255902290344 0.95106488466262817
0.97870218753814697 0.02366911992430687 0.86259526014328003
0.30236601829528809 0.74438714981079102 0.75519543886184692
0.29135018587112427 0.67896175384521484 0.7080807089805603
0.21226905286312103 0.52851051092147827 0.56387436389923096
0.4662221372127533 0.44100388884544373 0.47740209102630615
0.71744841337203979 0.3899894654750824 0.41342911124229431
0.31059616804122925 0.90066361427307129 0.55987364053726196
0.29621654748916626 0.89556503295898438 0.51022601127624512
0.23257212340831757 0.81330287456512451 0.35212507843971252
0.17231951653957367 0.70723992586135864 0.18906998634338379
0.65787959098815918 0.62265658378601074 0.0068215462379157543
0.00048288083053193986 0 0.0056498809717595577
0.082185588777065277 0 0.3095242977142334
0.49683228135108948 0.0010265276068821549 0.87054586410522461
1 0 1
1 0 1
0.00013399311865214258 0.11069335788488388 0.9999469518661499
0.11182307451963425 0.053846217691898346 1
0.60652703046798706 0.01557546854019165 0.99695473909378052
1 0 1
1 0 1
0.07041478157043457 0.42241725325584412 0.87414228916168213
0.05097656324505806 0.34517174959182739 0.93195164203643799
0.21114586293697357 0.20265758037567139 0.99811649322509766
0.93661892414093018 0.03708895668387413 0.9946669340133667
1 0.00095699535449966788 1
0.28908717632293701 0.7028387188911438 0.82542884349822998
0.237295001745224 0.65024638175964355 0.80852454900741577
0.12297004461288452 0.51084214448928833 0.84541767835617065
0.40171051025390625 0.38148820400238037 0.98877793550491333
0.99332582950592041 0.24182911217212677 0.99875378608703613
0.40139904618263245 0.90281051397323608 0.91844230890274048
0.39205598831176758 0.88943415880203247 0.90125745534896851
0.33530619740486145 0.76159274578094482 0.79075890779495239
0.29640305042266846 0.63406074047088623 0.64199018478393555
0.60163384675979614 0.56692564487457275 0.57201766967773438
