assets/lut/alexjordan cross process cp 14.cube
# Created by: G'MIC (https://gmic.eu)
TITLE "cross_process_cp_14"
# LUT size
LUT_3D_SIZE 13
# Data domain
DOMAIN_MIN 0.0 0.0 0.0
DOMAIN_MAX 1.0 1.0 1.0
# LUT data points
0 0.019577085971832275 0.019291402772068977
0.000451540487119928 0.018107051029801369 0.017758164554834366
0.021208610385656357 0.016004195436835289 0.017611140385270119
0.073488764464855194 0.0095813972875475883 0.016225507482886314
0.14786665141582489 0.0036770838778465986 0.01385707501322031
0.23670743405818939 0.00094209559028968215 0.010510283522307873
0.33543568849563599 0.00095591827994212508 0.0071724685840308666
0.44327089190483093 0.0024955449625849724 0.0039175744168460369
0.56024563312530518 0.004686407744884491 0.0018712810706347227
0.68763256072998047 0.0040972540155053139 0.00021294986072462052
0.82441401481628418 0.00079302320955321193 0
0.95967036485671997 0.00074796489207074046 0
1 0.0030450709164142609 0
0 0.053148739039897919 0.017050664871931076
0.0011129491031169891 0.053137402981519699 0.016299020498991013
0.02299174852669239 0.053757701069116592 0.015975607559084892
0.075601689517498016 0.048287965357303619 0.01441370602697134
0.15246689319610596 0.039079762995243073 0.011502987705171108
0.24325981736183167 0.031028149649500847 0.0085443835705518723
0.34344914555549622 0.028900057077407837 0.0054589514620602131
0.45265886187553406 0.030491145327687263 0.0026389476843178272
0.57167321443557739 0.029366062954068184 0.00056475470773875713
0.70109808444976807 0.023856563493609428 0
0.83832722902297974 0.016188632696866989 0
0.96959888935089111 0.014951802790164948 0
1 0.019613003358244896 0
0 0.096661075949668884 0.016453821212053299
0.002009477699175477 0.09939517080783844 0.016431950032711029
0.024666819721460342 0.10149114578962326 0.015998061746358871
0.079386629164218903 0.09843030571937561 0.013686894439160824
0.15959921479225159 0.092138849198818207 0.010015823878347874
0.25184193253517151 0.084823340177536011 0.0068667242303490639
0.35212963819503784 0.078834488987922668 0.0042556612752377987
0.46232917904853821 0.074057996273040771 0.0014261283213272691
0.58308744430541992 0.067688494920730591 4.4878790504299104e-05
0.71337753534317017 0.058108668774366379 0
0.85036188364028931 0.048141226172447205 0
0.97718292474746704 0.043617278337478638 0
1 0.046461667865514755 0.00035880593350157142
0 0.15186358988285065 0.01364288292825222
0.0031371172517538071 0.15460993349552155 0.015451782383024693
0.026863442733883858 0.15762391686439514 0.016834333539009094
0.08099009096622467 0.15645922720432281 0.014753139577805996
0.16327224671840668 0.15319067239761353 0.010698565281927586
0.25661501288414001 0.14677311480045319 0.0073038139380514622
0.35802146792411804 0.13872067630290985 0.0041650212369859219
0.47015318274497986 0.1300191730260849 0.001044538919813931
0.59219694137573242 0.11960695683956146 0
0.72347164154052734 0.10662859678268433 0
0.86116564273834229 0.093210048973560333 0
0.98353058099746704 0.084572121500968933 0.00025793336681090295
1 0.085741810500621796 0.0026152366772294044
0 0.21615304052829742 0.0097324596717953682
0.0053027733229100704 0.21822163462638855 0.012792759574949741
0.031272303313016891 0.22042036056518555 0.015789061784744263
0.083556950092315674 0.22124488651752472 0.01621602289378643
0.16206583380699158 0.21968196332454681 0.013669421896338463
0.25545719265937805 0.21487985551357269 0.010040163062512875
0.36024832725524902 0.206639364361763 0.0052477819845080376
0.47501710057258606 0.19636422395706177 0.0011782776564359665
0.599273681640625 0.18379306793212891 0
0.73150050640106201 0.1686236709356308 0
0.87033456563949585 0.15172713994979858 0
0.98770487308502197 0.13961106538772583 0.0020632725208997726
1 0.13946150243282318 0.006495367269963026
0 0.28752896189689636 0.0057547925971448421
0.0088236043229699135 0.28919443488121033 0.0093613117933273315
0.037719111889600754 0.29172244668006897 0.012894200161099434
0.088872767984867096 0.29308986663818359 0.015474805608391762
0.16311396658420563 0.29217970371246338 0.015097360126674175
0.25549900531768799 0.2888333797454834 0.011834252625703812
0.36189121007919312 0.28121757507324219 0.006198628805577755
0.47914803028106689 0.27087640762329102 0.0014981587883085012
0.60503900051116943 0.25776389241218567 0
0.73840051889419556 0.24196197092533112 0
0.87791931629180908 0.22472627460956573 2.1182790078455582e-05
0.99040669202804565 0.2116410881280899 0.0028019326273351908
1 0.20925317704677582 0.008283921517431736
0 0.3651929497718811 0.0026223426684737206
0.011847043409943581 0.3671259880065918 0.0058163362555205822
0.042560096830129623 0.36984434723854065 0.0098615912720561028
0.093615077435970306 0.37172234058380127 0.012928263284265995
0.16639374196529388 0.37107154726982117 0.013557313941419125
0.2583003044128418 0.36778712272644043 0.011259774677455425
0.36534824967384338 0.36125385761260986 0.0062795304693281651
0.48370254039764404 0.35185366868972778 0.0017107196617871523
0.61054354906082153 0.33985146880149841 0
0.74409419298171997 0.32534265518188477 0
0.8833005428314209 0.30950653553009033 2.297794162586797e-05
0.99255192279815674 0.29680976271629333 0.0023053188342601061
1 0.29156020283699036 0.0085317576304078102
0 0.44851434230804443 0.00080279179383069277
0.010805272497236729 0.4507843554019928 0.0031659891828894615
0.04384613037109375 0.45364302396774292 0.0068258247338235378
0.09601294994354248 0.45560848712921143 0.010180334560573101
0.1694614440202713 0.45511385798454285 0.011634273454546928
0.26195618510246277 0.45189988613128662 0.00977300014346838
0.37002059817314148 0.44615736603736877 0.0057987887412309647
0.48904982209205627 0.43799960613250732 0.0017817179905250669
0.61610209941864014 0.42790001630783081 4.451976201380603e-05
0.74975985288619995 0.41558864712715149 0
0.88854604959487915 0.40153059363365173 2.297794162586797e-05
0.99448275566101074 0.389058917760849 0.0025008856318891048
1 0.38261780142784119 0.009629836305975914
0 0.53706574440002441 9.1911766503471881e-05
0.0072037340141832829 0.53960537910461426 0.0014691222459077835
0.041776783764362335 0.54235982894897461 0.0043019764125347137
0.096154920756816864 0.54420328140258789 0.0073717604391276836
0.17140844464302063 0.54363179206848145 0.0090183336287736893
0.26554650068283081 0.54060184955596924 0.0084615973755717278
0.3748106062412262 0.53534984588623047 0.0057396981865167618
0.49476724863052368 0.52821892499923706 0.0022188224829733372
0.62190991640090942 0.51971596479415894 0.00024701288202777505
0.75505936145782471 0.50949549674987793 0
0.89397865533828735 0.49659448862075806 0.00042666267836466432
0.99573469161987305 0.48523411154747009 0.0051674037240445614
1 0.47871288657188416 0.012613244354724884
0 0.63004595041275024 0
0.00376154575496912 0.63265520334243774 0.00052921072347089648
0.038175739347934723 0.63580620288848877 0.0024226021487265825
0.095094002783298492 0.6368224024772644 0.0048727896064519882
0.17228923738002777 0.63637924194335938 0.0068332599475979805
0.2683052122592926 0.63342928886413574 0.0069565866142511368
0.37916827201843262 0.62844926118850708 0.0060832006856799126
0.50004333257675171 0.62200373411178589 0.0035055570770055056
0.62745887041091919 0.61434805393218994 0.0014790853019803762
0.76040196418762207 0.60517615079879761 0.00086264515994116664
0.89930635690689087 0.59432315826416016 0.0035145629663020372
0.99654102325439453 0.58474612236022949 0.010069349780678749
1 0.57940137386322021 0.015766428783535957
0 0.72684174776077271 0
0.0018333285115659237 0.72928547859191895 9.4424976850859821e-05
0.034670617431402206 0.73252969980239868 0.0011482388945296407
0.094038881361484528 0.73339188098907471 0.0031587190460413694
0.17353776097297668 0.73290020227432251 0.004933076910674572
0.27096349000930786 0.73004531860351562 0.0065040886402130127
0.38257738947868347 0.72540754079818726 0.0064668990671634674
0.50390768051147461 0.71954339742660522 0.0046015721745789051
0.63133728504180908 0.71275877952575684 0.0034502963535487652
0.76428055763244629 0.70483303070068359 0.003592382650822401
0.90242785215377808 0.69595658779144287 0.0064577437005937099
0.99716269969940186 0.68840545415878296 0.011964311823248863
1 0.68382322788238525 0.01691882498562336
0 0.82664990425109863 0
0.0013220394030213356 0.82932722568511963 0
0.034149035811424255 0.83183300495147705 0.0005103616276755929
0.095848351716995239 0.83318209648132324 0.0019544265232980251
0.1769401878118515 0.83245879411697388 0.0037302952259778976
0.27526107430458069 0.82994228601455688 0.0046235928311944008
0.38677141070365906 0.82577621936798096 0.0052106818184256554
0.50787901878356934 0.82059955596923828 0.0052190595306456089
0.6354028582572937 0.81487226486206055 0.0049830419011414051
0.76814943552017212 0.80820059776306152 0.0052502951584756374
0.90569561719894409 0.80145305395126343 0.0072756600566208363
0.99761378765106201 0.79529976844787598 0.01138604898005724
1 0.79119712114334106 0.016341041773557663
0 0.92852532863616943 0
0.0029085646383464336 0.9312552809715271 0
0.04013468325138092 0.93363237380981445 0.00026424633688293397
0.1035030409693718 0.93498843908309937 0.0012758142547681928
0.18560619652271271 0.93438327312469482 0.002904166467487812
0.28396528959274292 0.93217355012893677 0.0043830121867358685
0.39502549171447754 0.92862749099731445 0.0045483158901333809
0.51527523994445801 0.92435431480407715 0.0052600936032831669
0.64243364334106445 0.91944772005081177 0.0053308825008571148
0.7752344012260437 0.91425317525863647 0.0056614894419908524
0.91192507743835449 0.90881103277206421 0.0074487426318228245
0.99865627288818359 0.90396708250045776 0.011060692369937897
1 0.90062123537063599 0.016137620434165001
7.7012009569443762e-05 0.02038898877799511 0.052609104663133621
0.0039743310771882534 0.015474476851522923 0.049510013312101364
0.025095216929912567 0.01294072438031435 0.048627458512783051
0.073809817433357239 0.0080050146207213402 0.047124482691287994
0.1458413153886795 0.0034117007162421942 0.043216105550527573
0.23403806984424591 0.0011404597898945212 0.037341337651014328
0.33293595910072327 0.0009465834591537714 0.02930368110537529
0.44115245342254639 0.0019067203393206 0.019446922466158867
0.55929327011108398 0.0027658052276819944 0.0095201525837182999
0.68732941150665283 0.0020077424123883247 0.0014680450549349189
0.82323288917541504 0.00049728690646588802 0
0.95798963308334351 0.0010324515169486403 0
1 0.0035495085176080465 0.00033780265948735178
0 0.054222989827394485 0.050337638705968857
0.0015414967201650143 0.052858360111713409 0.047882650047540665
0.02258351631462574 0.052814796566963196 0.047764960676431656
0.073805011808872223 0.04752248153090477 0.046233471482992172
0.15007032454013824 0.038920998573303223 0.04214724525809288
0.24083051085472107 0.03193887323141098 0.036332551389932632
0.34126713871955872 0.028662797063589096 0.028703533113002777
0.45146113634109497 0.028569299727678299 0.019135434180498123
0.57132416963577271 0.026878850534558296 0.009484938345849514
0.70089447498321533 0.021149205043911934 0.0018536436837166548
0.83805572986602783 0.014298277907073498 0
0.96931028366088867 0.013614624738693237 8.7767955847084522e-05
1 0.017555685713887215 0.0020860708318650723
0 0.098656252026557922 0.050161831080913544
0.000451540487119928 0.10148804634809494 0.049864452332258224
0.020991440862417221 0.1031307578086853 0.049275655299425125
0.07632572203874588 0.098836950957775116 0.046668287366628647
0.1559746265411377 0.091904118657112122 0.041851431131362915
0.24872492253780365 0.084731936454772949 0.035917274653911591
0.35030472278594971 0.078597031533718109 0.028523329645395279
0.46155089139938354 0.073142737150192261 0.01878783293068409
0.58278846740722656 0.065843038260936737 0.0084762722253799438
0.71345824003219604 0.055923238396644592 0.0020650378428399563
0.85070919990539551 0.045542728155851364 0.00033849079045467079
0.97726207971572876 0.040393184870481491 0.0010374629637226462
1 0.042552422732114792 0.0046338248066604137
0 0.15328092873096466 0.048026036471128464
0.0014829149004071951 0.15624527633190155 0.049952175468206406
0.024941641837358475 0.15829411149024963 0.050175521522760391
0.079940542578697205 0.15753425657749176 0.048482079058885574
0.15986981987953186 0.153323695063591 0.043817959725856781
0.25379398465156555 0.14660429954528809 0.037663433700799942
0.35651487112045288 0.13878367841243744 0.029751915484666824
0.46953341364860535 0.13015322387218475 0.019437871873378754
0.59207367897033691 0.11956022679805756 0.0083361910656094551
0.72341752052307129 0.1068655401468277 0.0018709668656811118
0.86155647039413452 0.092325694859027863 0.00080105650704354048
0.98384243249893188 0.082658268511295319 0.0035853516310453415
1 0.081862658262252808 0.0089138252660632133
0 0.21542808413505554 0.044408012181520462
0.004839534405618906 0.21879072487354279 0.047846805304288864
0.031140197068452835 0.22201336920261383 0.05014660581946373
0.083366423845291138 0.22283940017223358 0.050091300159692764
0.16055786609649658 0.22081559896469116 0.047280628234148026
0.25484561920166016 0.21563497185707092 0.041435703635215759
0.35956090688705444 0.20794674754142761 0.032831050455570221
0.4747888445854187 0.19818201661109924 0.02153625525534153
0.59919172525405884 0.18615229427814484 0.0099041657522320747
0.73131787776947021 0.17137514054775238 0.0030501571018248796
0.87041151523590088 0.15417718887329102 0.0029296875
0.98777204751968384 0.14071862399578094 0.0086097568273544312
1 0.13702130317687988 0.015014319680631161
8.6167281551752239e-05 0.28581777215003967 0.038871839642524719
0.0094383237883448601 0.28917163610458374 0.044328399002552032
0.036989308893680573 0.29288110136985779 0.049085114151239395
0.087440922856330872 0.29530784487724304 0.050158943980932236
0.1614324152469635 0.29485899209976196 0.049737714231014252
0.25491690635681152 0.29058021306991577 0.044725906103849411
0.36132371425628662 0.28370127081871033 0.035789668560028076
0.47895064949989319 0.27407160401344299 0.024402782320976257
0.60505920648574829 0.26200839877128601 0.013358470983803272
0.73843395709991455 0.24660955369472504 0.0073768463917076588
0.87808442115783691 0.22879911959171295 0.0078422101214528084
0.99063998460769653 0.21396712958812714 0.014135203324258327
1 0.20879288017749786 0.020733732730150223
0.000507354736328125 0.36265215277671814 0.032453887164592743
0.011805680580437183 0.36653941869735718 0.039602525532245636
0.040355697274208069 0.37085500359535217 0.046365130692720413
0.089729785919189453 0.37368869781494141 0.050023097544908524
0.16266289353370667 0.37391233444213867 0.050122547894716263
0.2557794451713562 0.37088623642921448 0.045695122331380844
0.36415880918502808 0.3648834228515625 0.037506341934204102
0.48320877552032471 0.35627025365829468 0.026503948494791985
0.61064678430557251 0.34514549374580383 0.015764722600579262
0.74456238746643066 0.33098000288009644 0.0099169565364718437
0.88404947519302368 0.31428605318069458 0.010772211477160454
0.99296665191650391 0.29958879947662354 0.017388587817549706
1 0.29156851768493652 0.024907371029257774
0.00014314838335849345 0.4455898106098175 0.02645721472799778
0.010372805409133434 0.45001155138015747 0.03490854799747467
0.039345670491456985 0.45483365654945374 0.042878616601228714
0.089815609157085419 0.45798459649085999 0.048021428287029266
0.16354614496231079 0.45832964777946472 0.049332082271575928
0.25785639882087708 0.45585682988166809 0.0455486960709095
0.36773884296417236 0.45058369636535645 0.038381762802600861
0.48830094933509827 0.44317817687988281 0.027736455202102661
0.61618703603744507 0.43377912044525146 0.016477128490805626
0.75014042854309082 0.42182013392448425 0.0096907671540975571
0.88961654901504517 0.40688979625701904 0.011357954703271389
0.99488496780395508 0.39254933595657349 0.020052067935466766
1 0.3833974301815033 0.028653942048549652
0 0.53403252363204956 0.021962244063615799
0.005251267459243536 0.5387607216835022 0.030528349801898003
0.035123474895954132 0.54368752241134644 0.038953356444835663
0.087783083319664001 0.54686105251312256 0.044765233993530273
0.16360816359519958 0.54735070466995239 0.04681357741355896
0.25993478298187256 0.54490256309509277 0.045122873038053513
0.37183773517608643 0.54012906551361084 0.039363306015729904
0.49399557709693909 0.53345274925231934 0.030224684625864029
0.6222379207611084 0.52578628063201904 0.019562141969799995
0.75562155246734619 0.51599669456481934 0.011965583078563213
0.89512842893600464 0.50279498100280762 0.014775549061596394
0.99592119455337524 0.48947227001190186 0.02448323555290699
1 0.48057124018669128 0.033092036843299866
0 0.62733155488967896 0.018438046798110008
0.0014395919861271977 0.63185709714889526 0.026415580883622169
0.029447354376316071 0.63690876960754395 0.034650437533855438
0.084881879389286041 0.64005434513092041 0.040893465280532837
0.16292805969715118 0.64033442735671997 0.044106561690568924
0.26137366890907288 0.6380113959312439 0.043794415891170502
0.37542113661766052 0.63332325220108032 0.040753666311502457
0.49913880228996277 0.62708121538162231 0.034420311450958252
0.62774354219436646 0.62030774354934692 0.026276353746652603
0.76120305061340332 0.61154276132583618 0.021223090589046478
0.90024685859680176 0.60048145055770874 0.023613305762410164
0.99684184789657593 0.58955270051956177 0.030532956123352051
1 0.58182990550994873 0.037335637956857681
0 0.72432482242584229 0.016007831320166588
0.00012950523523613811 0.72908812761306763 0.02295755036175251
0.023847423493862152 0.73384207487106323 0.030577192083001137
0.081756561994552612 0.73685187101364136 0.036882065236568451
0.16237598657608032 0.73714238405227661 0.041031152009963989
0.26221612095832825 0.73484915494918823 0.042505301535129547
0.37725460529327393 0.73046475648880005 0.041329927742481232
0.50163000822067261 0.72483885288238525 0.037373844534158707
0.63094139099121094 0.71870321035385132 0.032213561236858368
0.76498627662658691 0.71102440357208252 0.028955137357115746
0.90454262495040894 0.70201003551483154 0.029749313369393349
0.99758929014205933 0.69325035810470581 0.034019336104393005
1 0.68658185005187988 0.039591290056705475
0 0.82447206974029541 0.014555389061570168
0 0.8291742205619812 0.020561367273330688
0.020553678274154663 0.83393067121505737 0.027388254180550575
0.08097471296787262 0.83662134408950806 0.033713769167661667
0.16356438398361206 0.83686333894729614 0.038254488259553909
0.26456514000892639 0.83490848541259766 0.040521331131458282
0.37945279479026794 0.8311571478843689 0.040427427738904953
0.50358462333679199 0.82635712623596191 0.038365144282579422
0.63364386558532715 0.82067763805389404 0.034930869936943054
0.76908606290817261 0.81438183784484863 0.032095532864332199
0.90903663635253906 0.80743181705474854 0.03165416419506073
0.99845975637435913 0.80021560192108154 0.034261547029018402
1 0.79426437616348267 0.040129013359546661
0 0.92677509784698486 0.014796926639974117
9.6265008323825896e-05 0.93142879009246826 0.019837653264403343
0.024347582831978798 0.93600332736968994 0.025839816778898239
0.086811274290084839 0.93853646516799927 0.031760767102241516
0.17077271640300751 0.93871164321899414 0.036401141434907913
0.27174672484397888 0.93717163801193237 0.039273012429475784
0.38580530881881714 0.93407881259918213 0.039688020944595337
0.509166419506073 0.93008005619049072 0.038487184792757034
0.6393389105796814 0.92548799514770508 0.036486875265836716
0.77534705400466919 0.92048323154449463 0.033396448940038681
0.91588848829269409 0.91492539644241333 0.032230585813522339
0.99955713748931885 0.90895038843154907 0.034689780324697495
1 0.90363794565200806 0.041241604834794998
0.00089633418247103691 0.024441422894597054 0.0921517014503479
0.0072466232813894749 0.017934134230017662 0.088381640613079071
0.029738930985331535 0.01261794101446867 0.08593565970659256
0.077219896018505096 0.0075328154489398003 0.083864681422710419
0.14807634055614471 0.0032832126598805189 0.07899659126996994
0.23498149216175079 0.0014680749736726284 0.070692725479602814
0.33375442028045654 0.0014590992359444499 0.058240178972482681
0.44204184412956238 0.0020384546369314194 0.042315717786550522
0.56007832288742065 0.0023986217565834522 0.023745039477944374
0.68740487098693848 0.0025179246440529823 0.0062053157016634941
0.82211971282958984 0.0023390825372189283 0.00012536141730379313
0.95736211538314819 0.0034428914077579975 0.00014084461145102978
1 0.004786771722137928 0.0028548445552587509
0 0.057913012802600861 0.089497402310371399
0.0037623685784637928 0.055036894977092743 0.086800083518028259
0.026746219024062157 0.052587799727916718 0.08576444536447525
0.077262476086616516 0.046823941171169281 0.084245540201663971
0.15120971202850342 0.039005924016237259 0.079569317400455475
0.24117068946361542 0.032789193093776703 0.071636170148849487
0.34208899736404419 0.030531041324138641 0.060147304087877274
0.45258209109306335 0.028843240812420845 0.045152328908443451
0.57254785299301147 0.026381518691778183 0.02825482003390789
0.70177143812179565 0.021385492756962776 0.01300704013556242
0.83805817365646362 0.016169006004929543 0.0043611414730548859
0.96933317184448242 0.01516621932387352 0.0037681579124182463
1 0.017171194776892662 0.0074666938744485378
0 0.10106932371854782 0.088783830404281616
0.0018383549759164453 0.10197751224040985 0.088302627205848694
0.025560745969414711 0.10240653902292252 0.087681218981742859
0.078968256711959839 0.098501093685626984 0.085672594606876373
0.15574614703655243 0.091761179268360138 0.081192493438720703
0.24812190234661102 0.084910072386264801 0.073618389666080475
0.3506411612033844 0.078850626945495605 0.06254858523607254
0.46284449100494385 0.072749927639961243 0.048640381544828415
0.58456093072891235 0.065312407910823822 0.033090014010667801
0.71490955352783203 0.054907120764255524 0.019416211172938347
0.85210889577865601 0.044642489403486252 0.011357984505593777
0.97823727130889893 0.038993146270513535 0.010216642171144485
1 0.04011555016040802 0.013715886510908604
0 0.15384913980960846 0.08697529137134552
0.0031902238260954618 0.15713681280612946 0.088653102517127991
0.029201118275523186 0.15883937478065491 0.089244171977043152
0.082542896270751953 0.15811891853809357 0.088108837604522705
0.15967032313346863 0.1535947322845459 0.08389747142791748
0.25289785861968994 0.14684398472309113 0.076664283871650696
0.35728240013122559 0.13953252136707306 0.066174119710922241
0.47117859125137329 0.13067625463008881 0.05276653915643692
0.59422093629837036 0.11985199898481369 0.03772398829460144
0.72562098503112793 0.10614531487226486 0.024403860792517662
0.86384165287017822 0.091388344764709473 0.017277183011174202
0.98490971326828003 0.080965436995029449 0.016799582168459892
1 0.079121775925159454 0.021345879882574081
0 0.21637952327728271 0.084116481244564056
0.0071495804004371166 0.21993798017501831 0.087514840066432953
0.034822352230548859 0.22341611981391907 0.090089596807956696
0.086664490401744843 0.22438870370388031 0.090377271175384521
0.16199079155921936 0.22218386828899384 0.087515436112880707
0.25535362958908081 0.21694140136241913 0.080853827297687531
0.36136043071746826 0.20934288203716278 0.070761725306510925
0.47719034552574158 0.19988185167312622 0.05780855193734169
0.60169148445129395 0.18815016746520996 0.043881930410861969
0.73393374681472778 0.17340853810310364 0.031692966818809509
0.87288028001785278 0.15585276484489441 0.025751315057277679
0.98868483304977417 0.14132216572761536 0.026092365384101868
1 0.13598676025867462 0.030569817870855331
0.00080223829718306661 0.28576242923736572 0.079582527279853821
0.011968530714511871 0.29010620713233948 0.084988780319690704
0.039407946169376373 0.2947784960269928 0.089927792549133301
0.089438751339912415 0.29747271537780762 0.092252917587757111
0.16323317587375641 0.2966284453868866 0.090565294027328491
0.25644448399543762 0.29301488399505615 0.084721118211746216
0.36392351984977722 0.28635281324386597 0.075167320668697357
0.48177021741867065 0.27743327617645264 0.063132539391517639
0.60768324136734009 0.26593536138534546 0.050893582403659821
