assets/lut/alexjordan agressive highligjtes recovery 5.cube
# Created by: G'MIC (https://gmic.eu)
TITLE "agressive_highligjtes_recovery_5"
# LUT size
LUT_3D_SIZE 13
# Data domain
DOMAIN_MIN 0.0 0.0 0.0
DOMAIN_MAX 1.0 1.0 1.0
# LUT data points
8.1858917837962508e-05 0 0
0.0043901032768189907 0.0016272750217467546 0.0016208573943004012
0.017616914585232735 0.0089452704414725304 0.0073105604387819767
0.039843585342168808 0.016173733398318291 0.015282215550541878
0.078438945114612579 0.020430171862244606 0.020925110206007957
0.15905861556529999 0.033372361212968826 0.033953454345464706
0.25185894966125488 0.052969448268413544 0.053603243082761765
0.37719768285751343 0.081236712634563446 0.081367328763008118
0.52089136838912964 0.11335619539022446 0.11155278980731964
0.57021439075469971 0.12412828952074051 0.12170618027448654
0.55292683839797974 0.12204507738351822 0.11942062526941299
0.53854578733444214 0.12183582037687302 0.11368538439273834
0.53648459911346436 0.12239240854978561 0.10966818034648895
0.0077919154427945614 0.026569889858365059 0.0074187335558235645
0.027618108317255974 0.03457145020365715 0.0076069403439760208
0.069624893367290497 0.041133806109428406 0.014689172618091106
0.10850011557340622 0.046312969177961349 0.029215749353170395
0.15900938212871552 0.047444932162761688 0.040181625634431839
0.24023382365703583 0.056584630161523819 0.053561162203550339
0.34225735068321228 0.07550010085105896 0.073653198778629303
0.45728448033332825 0.098624087870121002 0.098501823842525482
0.54792624711990356 0.11574805527925491 0.11630741506814957
0.57131266593933105 0.12225066870450974 0.12227918207645416
0.55287319421768188 0.12237143516540527 0.12050560116767883
0.53801006078720093 0.12176275998353958 0.11513949930667877
0.53560048341751099 0.1241745725274086 0.11139897257089615
0.020490055903792381 0.0989266037940979 0.02183462493121624
0.036805544048547745 0.10468841344118118 0.0088877659291028976
0.09855014830827713 0.10407013446092606 0.0084257088601589203
0.18502427637577057 0.095781750977039337 0.031873635947704315
0.24993018805980682 0.092940375208854675 0.060566306114196777
0.32683464884757996 0.097918204963207245 0.084014102816581726
0.43697178363800049 0.10973687469959259 0.10068954527378082
0.54020220041275024 0.11960175633430481 0.11692096292972565
0.57747888565063477 0.11514720320701599 0.11942991614341736
0.57005643844604492 0.11066831648349762 0.11856894195079803
0.55073279142379761 0.11073539406061172 0.11796477437019348
0.54101955890655518 0.11391963809728622 0.11666236072778702
0.54218101501464844 0.12178806960582733 0.11629912257194519
0.033966813236474991 0.20582626760005951 0.03744862973690033
0.035650230944156647 0.20222912728786469 0.027970707044005394
0.071424342691898346 0.19490569829940796 0.014860504306852818
0.17867116630077362 0.17551873624324799 0.025780217722058296
0.29109615087509155 0.16112832725048065 0.062244772911071777
0.38005954027175903 0.15562880039215088 0.11027130484580994
0.48208239674568176 0.15425315499305725 0.12861017882823944
0.55815541744232178 0.14259342849254608 0.12931160628795624
0.5686260461807251 0.11688854545354843 0.11943109333515167
0.55985236167907715 0.10246919840574265 0.11360348016023636
0.5471494197845459 0.098617479205131531 0.11293221265077591
0.54395604133605957 0.10734003037214279 0.11769109964370728
0.54968732595443726 0.12262639403343201 0.12373969703912735
0.055704034864902496 0.33505025506019592 0.060706734657287598
0.043402891606092453 0.32105562090873718 0.057103056460618973
0.046101275831460953 0.30440080165863037 0.040088098496198654
0.11877580732107162 0.28139463067054749 0.027608983218669891
0.26474034786224365 0.25297069549560547 0.036237034946680069
0.39555218815803528 0.23125483095645905 0.10093799978494644
0.4877723753452301 0.22102123498916626 0.15608280897140503
0.55478870868682861 0.20024162530899048 0.1663060337305069
0.57403379678726196 0.16463556885719299 0.14803969860076904
0.5655941367149353 0.1337202787399292 0.12947611510753632
0.5509224534034729 0.11558093130588531 0.12116542458534241
0.54894787073135376 0.12226542830467224 0.12699112296104431
0.55596500635147095 0.13925975561141968 0.13594701886177063
0.085990056395530701 0.46974372863769531 0.090832516551017761
0.067721635103225708 0.45099180936813354 0.088141843676567078
0.048965964466333389 0.42541775107383728 0.074974626302719116
0.068521119654178619 0.39492270350456238 0.056304514408111572
0.16519448161125183 0.36306607723236084 0.031451132148504257
0.34662711620330811 0.32612219452857971 0.033733353018760681
0.49413666129112244 0.29823580384254456 0.1034337505698204
0.57807320356369019 0.28181082010269165 0.17718856036663055
0.6206892728805542 0.25653865933418274 0.18920989334583282
0.60257679224014282 0.21590068936347961 0.16878816485404968
0.57673788070678711 0.1827109158039093 0.15241533517837524
0.56715136766433716 0.1741664707660675 0.153769850730896
0.56914442777633667 0.1823173314332962 0.15867713093757629
0.11815755814313889 0.59820359945297241 0.11890365183353424
0.10569145530462265 0.57861757278442383 0.11685352772474289
0.07983088493347168 0.54619920253753662 0.10733542591333389
0.061217889189720154 0.50615924596786499 0.097376681864261627
0.096419252455234528 0.46640068292617798 0.069866001605987549
0.22841291129589081 0.43201789259910583 0.025474952533841133
0.41785541176795959 0.39460161328315735 0.036063175648450851
0.57696801424026489 0.36324200034141541 0.10677982121706009
0.65474247932434082 0.34115880727767944 0.1877598911523819
0.65435224771499634 0.3108525276184082 0.21482174098491669
0.63044863939285278 0.27498042583465576 0.20184807479381561
0.60758918523788452 0.25342729687690735 0.19443365931510925
0.59954094886779785 0.25009506940841675 0.19120520353317261
0.1476501077413559 0.71887362003326416 0.14067928493022919
0.14429716765880585 0.69984596967697144 0.13868172466754913
0.1245051845908165 0.66564357280731201 0.12909464538097382
0.089677564799785614 0.62072497606277466 0.1282171905040741
0.076251789927482605 0.57192009687423706 0.11944343894720078
0.13305102288722992 0.53233522176742554 0.078290663659572601
0.27804335951805115 0.50245130062103271 0.027880394831299782
0.48774451017379761 0.46106964349746704 0.019265865907073021
0.65142738819122314 0.42324170470237732 0.1185358539223671
0.71733832359313965 0.39569935202598572 0.21815535426139832
0.71057885885238647 0.36341953277587891 0.23690001666545868
0.67082101106643677 0.33865618705749512 0.2273666113615036
0.65313708782196045 0.33073395490646362 0.22178028523921967
0.16886968910694122 0.82420051097869873 0.15849560499191284
0.17143866419792175 0.80876779556274414 0.15744522213935852
0.15889424085617065 0.78086990118026733 0.15056391060352325
0.1248740553855896 0.74129295349121094 0.15273265540599823
0.09033406525850296 0.69000375270843506 0.15426141023635864
0.094323687255382538 0.63799476623535156 0.12989823520183563
0.16928544640541077 0.59940844774246216 0.074859932065010071
0.34054470062255859 0.56428629159927368 0.022448625415563583
0.55570638179779053 0.52301084995269775 0.044270757585763931
0.72227883338928223 0.48393014073371887 0.12803752720355988
0.77456635236740112 0.44796645641326904 0.19300468266010284
0.75096136331558228 0.42286965250968933 0.22579845786094666
0.73227989673614502 0.41514819860458374 0.23419305682182312
0.17911055684089661 0.89889466762542725 0.16988752782344818
0.18432606756687164 0.89013171195983887 0.17145064473152161
0.17833249270915985 0.87675678730010986 0.1685362309217453
0.15684221684932709 0.85389667749404907 0.17040231823921204
0.12457570433616638 0.80867171287536621 0.17493054270744324
0.10289614647626877 0.74946999549865723 0.16871264576911926
0.12126249074935913 0.69476932287216187 0.1383432000875473
0.21587719023227692 0.66277569532394409 0.079379543662071228
0.3918156623840332 0.63415801525115967 0.02930704690515995
0.61861521005630493 0.58732825517654419 0.026495706290006638
0.77391523122787476 0.54071515798568726 0.092646367847919464
0.8307761549949646 0.5087854266166687 0.17246325314044952
0.82961040735244751 0.49843725562095642 0.20504593849182129
0.17931082844734192 0.93277579545974731 0.17087239027023315
0.18531987071037292 0.92894989252090454 0.17520081996917725
0.18679967522621155 0.92909973859786987 0.17487560212612152
0.18085366487503052 0.92626273632049561 0.17649483680725098
0.16335324943065643 0.9007035493850708 0.18029192090034485
0.14267256855964661 0.85841614007949829 0.18109026551246643
0.12653596699237823 0.80664443969726562 0.1716456264257431
0.14817725121974945 0.76502835750579834 0.13770945370197296
0.25662782788276672 0.73476815223693848 0.076598599553108215
0.46072569489479065 0.69658863544464111 0.023869218304753304
0.68309986591339111 0.64988857507705688 0.038029104471206665
0.86008667945861816 0.60149800777435303 0.094160802662372589
0.90264558792114258 0.58244627714157104 0.12681837379932404
0.17386147379875183 0.93784159421920776 0.16479876637458801
0.17941194772720337 0.9336467981338501 0.17154552042484283
0.18442566692829132 0.93731093406677246 0.17434890568256378
0.18704603612422943 0.94216299057006836 0.17659090459346771
0.1854998916387558 0.94081026315689087 0.1789710521697998
0.17771562933921814 0.92848581075668335 0.18105918169021606
0.14959387481212616 0.89121711254119873 0.18512736260890961
0.1304740309715271 0.84206616878509521 0.17519314587116241
0.1786249577999115 0.80609148740768433 0.12946398556232452
0.31530725955963135 0.78527241945266724 0.06188240647315979
0.52209603786468506 0.75740128755569458 0.024486212059855461
0.76094716787338257 0.70237630605697632 0.032234609127044678
0.86214733123779297 0.67270553112030029 0.042754571884870529
0.16719318926334381 0.93327385187149048 0.15706300735473633
0.17195875942707062 0.92797774076461792 0.16641061007976532
0.17641083896160126 0.92757230997085571 0.1721460223197937
0.18007081747055054 0.93082767724990845 0.17657360434532166
0.18323458731174469 0.93945795297622681 0.18071238696575165
0.17898100614547729 0.94413226842880249 0.18693234026432037
0.15470477938652039 0.92240387201309204 0.19645154476165771
0.13084961473941803 0.88056987524032593 0.19658064842224121
0.14981526136398315 0.84490811824798584 0.16595359146595001
0.23934110999107361 0.83363300561904907 0.10055600106716156
0.4097994863986969 0.81890493631362915 0.03942253440618515
0.63462954759597778 0.77370947599411011 0.010420257225632668
0.78247398138046265 0.73782360553741455 0.0023881201632320881
0.00022421444009523839 2.3696002244832925e-05 0.00013337976997718215
0.0045087924227118492 0.0013156217755749822 0.0032208461780101061
0.017875611782073975 0.0059640919789671898 0.0097944075241684914
0.04977315291762352 0.014136863872408867 0.023586945608258247
0.088687285780906677 0.02070273645222187 0.031097382307052612
0.16466215252876282 0.033314842730760574 0.043928332626819611
0.25594848394393921 0.052109692245721817 0.063772417604923248
0.3682224452495575 0.078943349421024323 0.086529076099395752
0.50744098424911499 0.11190862953662872 0.11086451262235641
0.56669479608535767 0.12788571417331696 0.12383739650249481
0.55089253187179565 0.12876255810260773 0.12461391091346741
0.53421574831008911 0.12892688810825348 0.12043187767267227
0.5310179591178894 0.12889149785041809 0.11809428781270981
0.01303730346262455 0.025073107331991196 0.022332239896059036
0.031633354723453522 0.031175112351775169 0.027700357139110565
0.067160435020923615 0.035495340824127197 0.034179627895355225
0.10304246842861176 0.042172990739345551 0.043474789708852768
0.15806819498538971 0.044697150588035583 0.047928962856531143
0.24004235863685608 0.053442906588315964 0.057474441826343536
0.3370831310749054 0.072180651128292084 0.075445137917995453
0.44484004378318787 0.096168264746665955 0.097199954092502594
0.53605037927627563 0.11681108921766281 0.11398472636938095
0.56375479698181152 0.12703469395637512 0.12122146040201187
0.54606020450592041 0.12873290479183197 0.12105534970760345
0.53060978651046753 0.12853223085403442 0.11684824526309967
0.5286293625831604 0.13000842928886414 0.11508177220821381
0.027671528980135918 0.09363720566034317 0.043182194232940674
0.044265523552894592 0.095543518662452698 0.032614585012197495
0.098729215562343597 0.092884749174118042 0.024087134748697281
0.17013891041278839 0.088955149054527283 0.036537542939186096
0.23533961176872253 0.088228173553943634 0.063048422336578369
0.31402283906936646 0.094082944095134735 0.083940289914608002
0.42290604114532471 0.10616906732320786 0.097764603793621063
0.53070235252380371 0.11966009438037872 0.11367908865213394
0.57765001058578491 0.12119797617197037 0.1187635213136673
0.56740856170654297 0.11700917035341263 0.11685973405838013
0.54492068290710449 0.11575339734554291 0.11554590612649918
0.53505939245223999 0.11830637603998184 0.11459968239068985
0.5380060076713562 0.12535451352596283 0.11734234541654587
0.03910369798541069 0.19605304300785065 0.044383689761161804
0.04733918234705925 0.18877802789211273 0.040284745395183563
0.079213745892047882 0.18120457231998444 0.014640972949564457
0.17219498753547668 0.16556036472320557 0.0173073410987854
0.27443897724151611 0.15402024984359741 0.059303596615791321
0.3575359582901001 0.15204988420009613 0.10994315147399902
0.46085816621780396 0.15095649659633636 0.12421701103448868
0.54431939125061035 0.14716075360774994 0.13234834372997284
0.57289654016494751 0.12926340103149414 0.12546534836292267
0.56116777658462524 0.10967713594436646 0.11392074078321457
0.54323416948318481 0.10092044621706009 0.10958348959684372
0.54069453477859497 0.10676800459623337 0.1135382279753685
0.54979103803634644 0.12115345150232315 0.12193626165390015
0.054717164486646652 0.3222733736038208 0.052759088575839996
0.05145568773150444 0.30723214149475098 0.057609707117080688
0.04676486924290657 0.29153203964233398 0.039733961224555969
0.099716603755950928 0.27177178859710693 0.026627829298377037
0.2466881275177002 0.24413850903511047 0.033764317631721497
0.38341882824897766 0.22537200152873993 0.09180595725774765
0.47675666213035583 0.21707242727279663 0.14451940357685089
0.54321432113647461 0.20242954790592194 0.16707576811313629
0.57421326637268066 0.17320935428142548 0.15269051492214203
0.5661318302154541 0.13733093440532684 0.12898093461990356
0.54782372713088989 0.11329484730958939 0.1170770525932312
0.5451582670211792 0.11506529897451401 0.12018983066082001
0.55321866273880005 0.13015127182006836 0.12941108644008636
0.08342742919921875 0.45711603760719299 0.082471542060375214
0.073622517287731171 0.44016730785369873 0.084549456834793091
0.050248794257640839 0.41444811224937439 0.078012935817241669
0.058263935148715973 0.38136622309684753 0.069846674799919128
0.16057844460010529 0.35009205341339111 0.041195783764123917
0.34560313820838928 0.31942674517631531 0.033732321113348007
0.48960351943969727 0.29476606845855713 0.099869668483734131
0.56184399127960205 0.27853769063949585 0.18024542927742004
0.60845315456390381 0.25375211238861084 0.18606458604335785
0.60032874345779419 0.21388600766658783 0.16900624334812164
0.57406842708587646 0.17634335160255432 0.15108856558799744
0.56158453226089478 0.16282573342323303 0.14622539281845093
0.56245338916778564 0.16812872886657715 0.14991280436515808
0.11845722794532776 0.58967369794845581 0.11764774471521378
0.11483746767044067 0.57262313365936279 0.11764802783727646
0.089114107191562653 0.54004967212677002 0.11217790842056274
0.064174994826316833 0.49590855836868286 0.10949316620826721
0.097569562494754791 0.45714786648750305 0.080514393746852875
0.22590485215187073 0.42750087380409241 0.027283687144517899
0.40676575899124146 0.39218032360076904 0.040464676916599274
0.55817604064941406 0.360696941614151 0.11531080305576324
0.64688116312026978 0.33808904886245728 0.18689379096031189
0.6552269458770752 0.30862441658973694 0.21980167925357819
0.62936609983444214 0.27017402648925781 0.20357595384120941
0.60223311185836792 0.24518567323684692 0.18909552693367004
0.59160077571868896 0.23828490078449249 0.18417812883853912
0.14852309226989746 0.71683168411254883 0.14248304069042206
0.1515096127986908 0.6986701488494873 0.14404715597629547
0.13382761180400848 0.66398841142654419 0.1372249573469162
0.10134313255548477 0.61647504568099976 0.13408061861991882
0.086777947843074799 0.56914442777633667 0.11701875925064087
0.13840731978416443 0.53083574771881104 0.0699043869972229
0.28311768174171448 0.49565890431404114 0.02486126497387886
0.48575079441070557 0.45546767115592957 0.024255206808447838
0.65212339162826538 0.42060491442680359 0.11282731592655182
0.71920037269592285 0.39264789223670959 0.20763055980205536
0.70873010158538818 0.3608449399471283 0.23110413551330566
0.66935831308364868 0.33698269724845886 0.227204829454422
0.64721429347991943 0.32549771666526794 0.2196420431137085
0.17019686102867126 0.83017295598983765 0.16397731006145477
0.17673830687999725 0.81357204914093018 0.16640850901603699
0.16650241613388062 0.7843438982963562 0.15965606272220612
0.13685932755470276 0.74203205108642578 0.15725493431091309
0.10299088805913925 0.68920862674713135 0.15232937037944794
0.10342708230018616 0.63502770662307739 0.1265149861574173
0.17871488630771637 0.59353476762771606 0.072032779455184937
0.34449809789657593 0.56213808059692383 0.017440555617213249
0.55713385343551636 0.51957780122756958 0.032771211117506027
0.71818768978118896 0.47827205061912537 0.1147691011428833
0.77031522989273071 0.44485723972320557 0.19547384977340698
0.75196105241775513 0.42157509922981262 0.236628457903862
0.73127460479736328 0.41319352388381958 0.23517335951328278
0.18115362524986267 0.91080635786056519 0.17934341728687286
0.18764990568161011 0.89845305681228638 0.18165817856788635
0.1837611198425293 0.8826906681060791 0.17647063732147217
0.1644691675901413 0.85643059015274048 0.17500795423984528
0.13244003057479858 0.80915743112564087 0.17687296867370605
0.10828395187854767 0.74724322557449341 0.17167580127716064
0.12519273161888123 0.69287347793579102 0.13762485980987549
0.21612849831581116 0.66138654947280884 0.072364076972007751
0.38839107751846313 0.63108104467391968 0.024136591702699661
0.60588937997817993 0.58625578880310059 0.0418686643242836
0.77160000801086426 0.53866523504257202 0.11889152973890305
0.83529943227767944 0.50548118352890015 0.19144622981548309
0.83007723093032837 0.49733993411064148 0.20644974708557129
0.18087829649448395 0.94059985876083374 0.18012991547584534
0.18705596029758453 0.93370944261550903 0.18409369885921478
0.18880452215671539 0.93289691209793091 0.18146540224552155
0.18359194695949554 0.92818588018417358 0.18031150102615356
0.1657530665397644 0.90228188037872314 0.18308517336845398
0.1405477374792099 0.85637122392654419 0.18657834827899933
0.12415040284395218 0.80211693048477173 0.17577800154685974
0.14967028796672821 0.75750613212585449 0.13507072627544403
0.25668007135391235 0.72833710908889771 0.069360874593257904
0.45401003956794739 0.69449514150619507 0.028425075113773346
0.68542176485061646 0.64654844999313354 0.05081591010093689
0.86286908388137817 0.59740811586380005 0.10323598235845566
0.89697891473770142 0.58258438110351562 0.12752027809619904
0.1752852201461792 0.93900191783905029 0.17310725152492523
0.17954263091087341 0.93089449405670166 0.17873655259609222
0.18500179052352905 0.93602412939071655 0.17956571280956268
0.18780720233917236 0.94332605600357056 0.18022611737251282
0.18492728471755981 0.94216036796569824 0.18126882612705231
0.17116586863994598 0.92623251676559448 0.18622228503227234
0.14503620564937592 0.88723397254943848 0.19000299274921417
0.13162067532539368 0.83744728565216064 0.17523014545440674
0.17896676063537598 0.8020814061164856 0.12416134774684906
0.31240004301071167 0.78225237131118774 0.058557920157909393
0.52598476409912109 0.75121849775314331 0.025643322616815567
0.76270824670791626 0.69814503192901611 0.03113129548728466
0.85810941457748413 0.67497009038925171 0.039544243365526199
0.16907103359699249 0.9304811954498291 0.16512198746204376
0.17279636859893799 0.92257547378540039 0.17328658699989319
0.17709393799304962 0.92320090532302856 0.17741398513317108
0.18083351850509644 0.9289478063583374 0.17988793551921844
0.18338911235332489 0.93972146511077881 0.18241029977798462
0.17790168523788452 0.94508397579193115 0.18907763063907623
0.15530507266521454 0.92437946796417236 0.19868470728397369
0.13277116417884827 0.88174313306808472 0.19783350825309753
0.14979155361652374 0.84542703628540039 0.16494888067245483
0.23422583937644958 0.8329588770866394 0.10066160559654236
0.40469121932983398 0.81648916006088257 0.041775092482566833
0.64021164178848267 0.77010029554367065 0.011218381114304066
0.79058903455734253 0.73839336633682251 0.0012770858593285084
0.00023354923177976161 0.00025221880059689283 0.00065056298626586795
0.0033074922394007444 0.0014369291020557284 0.0076353931799530983
0.020909462124109268 0.0028781816363334656 0.02086658775806427
0.073460839688777924 0.0064819934777915478 0.04572518914937973
0.12324375659227371 0.013699071481823921 0.061537470668554306
0.19284160435199738 0.02760620042681694 0.077587738633155823
0.28230088949203491 0.049125026911497116 0.096507035195827484
0.3809935450553894 0.0766419917345047 0.11311560124158859
0.50375610589981079 0.10860864818096161 0.13053414225578308
0.56865763664245605 0.12752512097358704 0.14388622343540192
0.56382018327713013 0.13218100368976593 0.14681585133075714
0.54577577114105225 0.13250993192195892 0.14139260351657867
0.53930962085723877 0.13175031542778015 0.13816367089748383
0.0139197101816535 0.025916304439306259 0.044648427516222
0.030424050986766815 0.029662877321243286 0.067327074706554413
0.070563159883022308 0.030164008960127831 0.082773350179195404
0.12586081027984619 0.031621146947145462 0.085315033793449402
0.18454548716545105 0.034682855010032654 0.078647881746292114
0.25572347640991211 0.045644871890544891 0.083325408399105072
0.34605175256729126 0.066868439316749573 0.097753770649433136
0.44166886806488037 0.092193767428398132 0.11273445934057236
0.52454096078872681 0.11445669829845428 0.12390975654125214
0.55839747190475464 0.12687060236930847 0.1307312399148941
0.54929471015930176 0.13117729127407074 0.13249774277210236
0.53465348482131958 0.13246305286884308 0.12940798699855804
0.53231096267700195 0.13322767615318298 0.12816865742206573
0.034561365842819214 0.089039251208305359 0.087938405573368073
0.044707339257001877 0.087908096611499786 0.090089850127696991
0.092282570898532867 0.085417710244655609 0.089596785604953766
0.15876379609107971 0.083629995584487915 0.084165863692760468
0.23080621659755707 0.079096592962741852 0.083000719547271729
0.3086165189743042 0.084012962877750397 0.090558432042598724
0.40933457016944885 0.099211931228637695 0.10634931921958923
0.51449775695800781 0.11557815968990326 0.11996633559465408
0.56561803817749023 0.12135013937950134 0.12365330755710602
0.5617106556892395 0.11964337527751923 0.1212276816368103
0.5437355637550354 0.11938771605491638 0.11942452937364578
0.53393185138702393 0.1230664849281311 0.11946674436330795
0.53713184595108032 0.12870270013809204 0.12202737480401993
0.054627019912004471 0.18505989015102386 0.08820284903049469
0.058642130345106125 0.17579340934753418 0.086586654186248779
0.074354507029056549 0.16760458052158356 0.052823998034000397
0.15731005370616913 0.15324695408344269 0.041659291833639145
0.25773632526397705 0.13850052654743195 0.066198281943798065
0.33471408486366272 0.13806439936161041 0.10271775722503662
0.43120184540748596 0.14358936250209808 0.12315335869789124
0.52311772108078003 0.14392223954200745 0.13181546330451965
0.56409215927124023 0.13245192170143127 0.12764446437358856
0.55756741762161255 0.1156947985291481 0.11684676259756088
0.54100143909454346 0.10721104592084885 0.10936137288808823
0.53705370426177979 0.11085928976535797 0.11008182913064957
0.54512476921081543 0.12148142606019974 0.11703247576951981
0.065425083041191101 0.3065280020236969 0.072453230619430542
0.065030179917812347 0.29130282998085022 0.074024289846420288
0.056251227855682373 0.27230668067932129 0.048092503100633621
0.10186800360679626 0.24954666197299957 0.023186851292848587
