assets/lut/alexjordan highlights protection.cube
# Created by: G'MIC (https://gmic.eu)
TITLE "highlights_protection"
# LUT size
LUT_3D_SIZE 5
# Data domain
DOMAIN_MIN 0.0 0.0 0.0
DOMAIN_MAX 1.0 1.0 1.0
# LUT data points
0 0 0
0 0 0
0 0 0
0.061068382114171982 0.0092717492952942848 0.0089307893067598343
0.37192609906196594 0.033802706748247147 0.035310275852680206
0.00011376773909432814 0.00068624160485342145 0.00022403492766898125
0.017272455617785454 0.021056545898318291 0.00097333121811971068
0.18576046824455261 0.074347957968711853 0.0080687133595347404
0.44492968916893005 0.11384527385234833 0.017319278791546822
0.71965044736862183 0.14418764412403107 0.032096788287162781
1.516903103038203e-05 0.35746455192565918 7.4678311648312956e-05
0.086128875613212585 0.37783399224281311 0
0.41053521633148193 0.4024333655834198 0.000751495361328125
0.65421169996261597 0.42658406496047974 0.04666798934340477
0.8736722469329834 0.46405372023582458 0.12368042767047882
0.080748178064823151 0.66920393705368042 0.070277132093906403
0.23091895878314972 0.68604427576065063 0.099316254258155823
0.47625204920768738 0.70401912927627563 0.092244423925876617
0.68505865335464478 0.68587607145309448 0.11991273611783981
0.9072573184967041 0.70758706331253052 0.14887069165706635
0.19692894816398621 0.94251108169555664 0.16890347003936768
0.31756195425987244 0.94907468557357788 0.2070259302854538
0.52279031276702881 0.93293106555938721 0.18432439863681793
0.71554404497146606 0.91779869794845581 0.14698290824890137
0.94460701942443848 0.94227057695388794 0.15856112539768219
0 0 0
0 0 0
0 0 0
0.11300847679376602 0.01701018400490284 0.038333594799041748
0.4152069091796875 0.031683575361967087 0.096890516579151154
0.00026740279281511903 0.0037982417270541191 0.0045223012566566467
0.027327533811330795 0.028088139370083809 0.022879745811223984
0.2234262079000473 0.080314606428146362 0.068813055753707886
0.49547123908996582 0.11339524388313293 0.11002819240093231
0.72974061965942383 0.14600583910942078 0.14472310245037079
0 0.36635124683380127 0.096306249499320984
0.084857180714607239 0.38727456331253052 0.081840366125106812
0.40481618046760559 0.40442934632301331 0.085803955793380737
0.68916338682174683 0.42656698822975159 0.14725781977176666
0.8916810154914856 0.46947968006134033 0.24013367295265198
0.088176876306533813 0.68140029907226562 0.22169356048107147
0.20835147798061371 0.70826321840286255 0.20733827352523804
0.46088963747024536 0.72456449270248413 0.18626616895198822
0.6924397349357605 0.69709908962249756 0.19314740598201752
0.91062456369400024 0.69759213924407959 0.25329717993736267
0.19907975196838379 0.93287950754165649 0.31154462695121765
0.32580482959747314 0.95398473739624023 0.33409178256988525
0.52554607391357422 0.93979859352111816 0.29885697364807129
0.72265952825546265 0.92906701564788818 0.28916895389556885
0.93723481893539429 0.93752187490463257 0.29832428693771362
0 0 0
0 0 0
7.0010914896556642e-06 0 0
0.19069692492485046 0.023539628833532333 0.12793523073196411
0.49550306797027588 0.029494611546397209 0.24396917223930359
0.0026338465977460146 0.017138192430138588 0.033962592482566833
0.04530194029211998 0.0495108962059021 0.11938017606735229
0.26611053943634033 0.084905616939067841 0.26590785384178162
0.55280381441116333 0.10815058648586273 0.33352181315422058
0.78226208686828613 0.15015788376331329 0.36933514475822449
0.0048823338001966476 0.37773895263671875 0.37691006064414978
0.079687707126140594 0.40168321132659912 0.39888110756874084
0.41565939784049988 0.41793134808540344 0.42177367210388184
0.73180818557739258 0.42765998840332031 0.42426976561546326
0.9490896463394165 0.46180245280265808 0.4567742645740509
0.082193635404109955 0.69328361749649048 0.46705347299575806
0.18576599657535553 0.7242310643196106 0.4620460569858551
0.42626285552978516 0.73321992158889771 0.42615106701850891
0.70043766498565674 0.70159471035003662 0.3951270580291748
0.95268243551254272 0.69117790460586548 0.42949986457824707
0.19566571712493896 0.93727147579193115 0.53225249052047729
0.30392831563949585 0.9507448673248291 0.53108042478561401
0.45248430967330933 0.94732701778411865 0.45379453897476196
0.68049341440200806 0.94113028049468994 0.42257943749427795
0.9469677209854126 0.94749629497528076 0.45871704816818237
0 0 0
0 0 0
0.021986838430166245 0.0031770444475114346 0.029892208054661751
0.26317006349563599 0.030775571241974831 0.26394408941268921
0.58011245727539062 0.023227721452713013 0.43238094449043274
0.011757420375943184 0.035043962299823761 0.10231094062328339
0.062238298356533051 0.069183990359306335 0.22221469879150391
0.29148173332214355 0.10348629206418991 0.46118372678756714
0.56773370504379272 0.11905165761709213 0.56850922107696533
0.80965834856033325 0.16021279990673065 0.59766751527786255
0.03231334313750267 0.37218195199966431 0.58681505918502808
0.12420070916414261 0.39889338612556458 0.65755504369735718
0.41686755418777466 0.4172147810459137 0.72268790006637573
0.74009722471237183 0.42943620681762695 0.73987507820129395
0.97967529296875 0.46477556228637695 0.72377586364746094
0.11150732636451721 0.68549817800521851 0.68261218070983887
0.19746634364128113 0.70339924097061157 0.70376729965209961
0.4106905460357666 0.7178962230682373 0.71620458364486694
0.68936192989349365 0.69267350435256958 0.69215112924575806
0.97674143314361572 0.67659491300582886 0.67541879415512085
0.19560535252094269 0.91140222549438477 0.71435701847076416
0.30181512236595154 0.94354903697967529 0.73273026943206787
0.42347562313079834 0.95215421915054321 0.69167155027389526
0.6457524299621582 0.94928699731826782 0.64897346496582031
0.94822973012924194 0.94913983345031738 0.6567421555519104
6.5732470829971135e-05 0.00023006364062894136 0.00055872596567496657
0 0 0
0.077601686120033264 0.018447531387209892 0.1460520327091217
0.31909817457199097 0.033025778830051422 0.42588609457015991
0.61843079328536987 0.018349995836615562 0.61835014820098877
0.022320017218589783 0.059566304087638855 0.22849011421203613
0.087511695921421051 0.088473781943321228 0.37957325577735901
0.29566442966461182 0.12268181890249252 0.61947643756866455
0.56009447574615479 0.14213599264621735 0.75683283805847168
0.80585014820098877 0.17618301510810852 0.80581569671630859
0.04355417937040329 0.38177916407585144 0.79264891147613525
0.18756659328937531 0.39923945069313049 0.81992858648300171
0.43846800923347473 0.43158191442489624 0.93984562158584595
0.71514791250228882 0.45146393775939941 0.96406924724578857
0.95760762691497803 0.47298949956893921 0.95617574453353882
0.11456950753927231 0.68254613876342773 0.88816899061203003
0.25805053114891052 0.70820897817611694 0.91985422372817993
0.44769579172134399 0.71329116821289062 0.97194886207580566
0.6914970874786377 0.68869763612747192 0.98011088371276855
0.96940982341766357 0.66566616296768188 0.96932625770568848
0.2254936546087265 0.92900967597961426 0.93392115831375122
0.34169310331344604 0.94410568475723267 0.9442482590675354
0.45022666454315186 0.93918013572692871 0.94091498851776123
0.66299772262573242 0.95042353868484497 0.94482433795928955
0.96234375238418579 0.96039736270904541 0.96154534816741943
