assets/lut/alexjordan subtle blue.cube
# Created by: G'MIC (https://gmic.eu)
TITLE "subtle_blue"
# LUT size
LUT_3D_SIZE 7
# Data domain
DOMAIN_MIN 0.0 0.0 0.0
DOMAIN_MAX 1.0 1.0 1.0
# LUT data points
0.0042799259535968304 0.026610953733325005 0.046320479363203049
0.12657032907009125 0.020398233085870743 0.047887898981571198
0.26674661040306091 0.03061644546687603 0.054253969341516495
0.39616018533706665 0.04056181013584137 0.063366025686264038
0.5208936333656311 0.049373790621757507 0.074411146342754364
0.64141064882278442 0.058072004467248917 0.085972987115383148
0.7591177225112915 0.065456926822662354 0.095165744423866272
0.017621343955397606 0.16606277227401733 0.075451388955116272
0.15366801619529724 0.16636712849140167 0.080129049718379974
0.2990230917930603 0.17401883006095886 0.08687920868396759
0.43115857243537903 0.18384814262390137 0.095476485788822174
0.55843836069107056 0.19257034361362457 0.10565599799156189
0.68029850721359253 0.20103999972343445 0.11612891405820847
0.79878520965576172 0.20984479784965515 0.12503449618816376
0.041813239455223083 0.31354200839996338 0.10571686923503876
0.17953920364379883 0.31526580452919006 0.11153138428926468
0.32466328144073486 0.32040685415267944 0.11871818453073502
0.46177062392234802 0.32798510789871216 0.1273486465215683
0.59249669313430786 0.33543169498443604 0.13667157292366028
0.71753257513046265 0.34296369552612305 0.14583320915699005
0.83423280715942383 0.35323336720466614 0.15476517379283905
0.077227376401424408 0.46204882860183716 0.13584096729755402
0.21331292390823364 0.46331483125686646 0.14367064833641052
0.35511845350265503 0.46745568513870239 0.15165786445140839
0.49270862340927124 0.47366541624069214 0.16017386317253113
0.62366181612014771 0.48085212707519531 0.16920018196105957
0.747780442237854 0.48947921395301819 0.17850179970264435
0.86340564489364624 0.50189167261123657 0.18759635090827942
0.11393996328115463 0.60971057415008545 0.16416378319263458
0.25025644898414612 0.61168897151947021 0.17427647113800049
0.38971099257469177 0.61472976207733154 0.18368275463581085
0.52589988708496094 0.62031453847885132 0.19258859753608704
0.65531015396118164 0.62824481725692749 0.20143291354179382
0.7765386700630188 0.63919973373413086 0.21084174513816833
0.89047688245773315 0.65321850776672363 0.21983048319816589
0.14920307695865631 0.75970065593719482 0.19038850069046021
0.28656768798828125 0.7599482536315918 0.20246483385562897
0.42533582448959351 0.76321995258331299 0.2133735716342926
0.56072151660919189 0.76765298843383789 0.22301396727561951
0.68937873840332031 0.77575063705444336 0.23102879524230957
0.81066751480102539 0.78664910793304443 0.23862317204475403
0.9262269139289856 0.80001473426818848 0.24529066681861877
0.18216140568256378 0.91029411554336548 0.21364517509937286
0.32045948505401611 0.91029411554336548 0.2273775041103363
0.4588896632194519 0.91395431756973267 0.23946535587310791
0.59393525123596191 0.91781711578369141 0.24945221841335297
0.72190350294113159 0.92526227235794067 0.25695714354515076
0.84368413686752319 0.93591630458831787 0.2629663348197937
0.96032470464706421 0.94811487197875977 0.2676292359828949
0.0078249312937259674 0.02560080774128437 0.17325179278850555
0.13099625706672668 0.02922382764518261 0.17277425527572632
0.27213236689567566 0.037094924598932266 0.179213747382164
0.40125849843025208 0.045402631163597107 0.18898805975914001
0.52599155902862549 0.053492601960897446 0.20026394724845886
0.64664930105209351 0.061289381235837936 0.21161945164203644
0.76489841938018799 0.06779760867357254 0.22118636965751648
0.013140270486474037 0.16663922369480133 0.20250774919986725
0.15973576903343201 0.16877897083759308 0.20463947951793671
0.30173113942146301 0.17893362045288086 0.21048076450824738
0.4351295530796051 0.18838727474212646 0.2199275940656662
0.56237000226974487 0.19687803089618683 0.23023071885108948
0.68387281894683838 0.20505732297897339 0.24044634401798248
0.80148828029632568 0.21341072022914886 0.25043943524360657
0.0362827368080616 0.3158562183380127 0.23503434658050537
0.18153291940689087 0.31700310111045837 0.23832879960536957
0.32771071791648865 0.32406860589981079 0.24394100904464722
0.46532726287841797 0.3321387767791748 0.2522771954536438
0.59507983922958374 0.34023168683052063 0.26137211918830872
0.71824771165847778 0.34849157929420471 0.27044391632080078
0.83549505472183228 0.35826787352561951 0.28035348653793335
0.074011906981468201 0.46317732334136963 0.26635974645614624
0.21514691412448883 0.46524089574813843 0.27246621251106262
0.35900565981864929 0.47002875804901123 0.27901062369346619
0.49610301852226257 0.47748169302940369 0.28656095266342163
0.62585306167602539 0.48579424619674683 0.29496884346008301
0.74914389848709106 0.49501538276672363 0.30438241362571716
0.86567646265029907 0.50656139850616455 0.31467345356941223
0.11151960492134094 0.6114203929901123 0.29592877626419067
0.25134900212287903 0.61314022541046143 0.30463674664497375
0.39288020133972168 0.61684173345565796 0.31265822052955627
0.52941572666168213 0.62320554256439209 0.32050055265426636
0.65883511304855347 0.6316789984703064 0.32857292890548706
0.78176993131637573 0.64160043001174927 0.33767411112785339
0.89704281091690063 0.65481531620025635 0.34771281480789185
0.14822681248188019 0.75988411903381348 0.32367181777954102
0.28773102164268494 0.76148396730422974 0.33442389965057373
0.42849826812744141 0.76414972543716431 0.34417045116424561
0.56513530015945435 0.76935732364654541 0.35286769270896912
0.69520694017410278 0.77715110778808594 0.36010283231735229
0.81902563571929932 0.78666967153549194 0.36719605326652527
0.93429827690124512 0.79971075057983398 0.37523540854454041
0.18239009380340576 0.91029411554336548 0.3488653302192688
0.32236754894256592 0.91150140762329102 0.36129879951477051
0.46251362562179565 0.91421568393707275 0.37241062521934509
0.5990716814994812 0.91827636957168579 0.38171738386154175
0.72844749689102173 0.92583560943603516 0.38864296674728394
0.85137224197387695 0.93583542108535767 0.39479911327362061
0.96742278337478638 0.94843846559524536 0.4007323682308197
0.011078120209276676 0.02688293531537056 0.2989509105682373
0.13494718074798584 0.032630458474159241 0.30019727349281311
0.2724604606628418 0.040316428989171982 0.30561703443527222
0.40408056974411011 0.048259302973747253 0.31449127197265625
0.53027617931365967 0.055791445076465607 0.32479456067085266
0.6521419882774353 0.062566690146923065 0.33543086051940918
0.76964128017425537 0.068538948893547058 0.34537854790687561
0.024305680766701698 0.1699301153421402 0.33082371950149536
0.16387298703193665 0.1737900972366333 0.33239072561264038
0.30566719174385071 0.18222814798355103 0.33724233508110046
0.43907499313354492 0.19158685207366943 0.34515607357025146
0.56617814302444458 0.20008015632629395 0.35445478558540344
0.68798136711120605 0.20797529816627502 0.3640323281288147
0.80603182315826416 0.21559029817581177 0.37430527806282043
0.047253374010324478 0.31685155630111694 0.36332747340202332
0.19358460605144501 0.31925761699676514 0.36658754944801331
0.33749976754188538 0.32633957266807556 0.37118333578109741
0.47117650508880615 0.33558085560798645 0.37762558460235596
0.59901535511016846 0.34443220496177673 0.38553160429000854
0.72153526544570923 0.35297352075576782 0.39410495758056641
0.83919942378997803 0.36192572116851807 0.40466722846031189
0.079075098037719727 0.46480545401573181 0.3945765495300293
0.22363288700580597 0.46683850884437561 0.40000772476196289
0.36703714728355408 0.47250008583068848 0.40562859177589417
0.50167608261108398 0.48112380504608154 0.41181328892707825
0.62968236207962036 0.49056673049926758 0.41917335987091064
0.75346666574478149 0.49932765960693359 0.42814734578132629
0.87142503261566162 0.50925284624099731 0.43865704536437988
0.11294183135032654 0.61319386959075928 0.42474651336669922
0.25525590777397156 0.61504167318344116 0.43220669031143188
0.39760032296180725 0.61954754590988159 0.43924614787101746
0.53371840715408325 0.62694525718688965 0.44606879353523254
0.66275447607040405 0.63611441850662231 0.45335745811462402
0.78798192739486694 0.64467602968215942 0.46189504861831665
0.9053078293800354 0.65560287237167358 0.47195044159889221
0.14833396673202515 0.76254266500473022 0.45363375544548035
0.2897302508354187 0.76375943422317505 0.46299532055854797
0.4313150942325592 0.76720696687698364 0.47151833772659302
0.56837916374206543 0.77285504341125488 0.4790852963924408
0.6995970606803894 0.78051924705505371 0.48621490597724915
0.82483184337615967 0.78913009166717529 0.49360918998718262
0.94077765941619873 0.80123192071914673 0.5022704005241394
0.18300366401672363 0.91340065002441406 0.48054206371307373
0.32405078411102295 0.91421568393707275 0.49159687757492065
0.46470382809638977 0.91700261831283569 0.50126367807388306
0.60156881809234619 0.92160242795944214 0.50959020853042603
0.73230773210525513 0.92870157957077026 0.51670348644256592
0.85585635900497437 0.93823504447937012 0.52362573146820068
0.97170495986938477 0.95058518648147583 0.53076368570327759
0.011627406813204288 0.027315700426697731 0.42442607879638672
0.13702748715877533 0.033187821507453918 0.42769482731819153
0.27352198958396912 0.041304450482130051 0.43351489305496216
0.40674290060997009 0.049349121749401093 0.44156667590141296
0.53428834676742554 0.056698068976402283 0.45104870200157166
0.65683412551879883 0.062710873782634735 0.46092396974563599
0.77562963962554932 0.068060152232646942 0.47099250555038452
0.029013330116868019 0.17080526053905487 0.45642873644828796
0.16650710999965668 0.17555318772792816 0.45958030223846436
0.30803897976875305 0.18417887389659882 0.46493521332740784
0.44254595041275024 0.19351030886173248 0.4720596969127655
0.57063204050064087 0.20208843052387238 0.4804740846157074
0.69334167242050171 0.20979174971580505 0.48998108506202698
0.81138259172439575 0.216944620013237 0.50067245960235596
0.056213796138763428 0.31779864430427551 0.48922401666641235
0.19983957707881927 0.32121029496192932 0.49344590306282043
0.34255781769752502 0.3287166953086853 0.49827003479003906
0.4764607846736908 0.33809572458267212 0.5042223334312439
0.60458111763000488 0.34727436304092407 0.51150131225585938
0.72770518064498901 0.35583975911140442 0.52041304111480713
0.84554517269134521 0.36457398533821106 0.53137081861495972
0.085403978824615479 0.46657627820968628 0.52108091115951538
0.22980396449565887 0.46928545832633972 0.52662903070449829
0.37281182408332825 0.47520160675048828 0.53176796436309814
0.50782102346420288 0.48392406105995178 0.5377039909362793
0.63669437170028687 0.493318110704422 0.54473447799682617
0.76050740480422974 0.50241035223007202 0.55365729331970215
0.87777698040008545 0.51205533742904663 0.56455111503601074
0.1159648522734642 0.61546796560287476 0.55171042680740356
0.25942578911781311 0.61760610342025757 0.55867117643356323
0.40241897106170654 0.62257146835327148 0.56513106822967529
0.53921312093734741 0.63018184900283813 0.57141757011413574
0.66983610391616821 0.63903212547302246 0.57870912551879883
0.79446566104888916 0.64825886487960815 0.58769243955612183
0.91102391481399536 0.65881013870239258 0.59812945127487183
0.15055541694164276 0.76422226428985596 0.58190512657165527
0.29256343841552734 0.76698529720306396 0.59023922681808472
0.43454480171203613 0.77055364847183228 0.59754568338394165
0.57219028472900391 0.77659726142883301 0.60460513830184937
0.70402252674102783 0.78466427326202393 0.61205196380615234
0.82858484983444214 0.79397070407867432 0.62077873945236206
0.94311487674713135 0.80548262596130371 0.63034093379974365
0.18480566143989563 0.9143860936164856 0.61029672622680664
0.3261106014251709 0.91739070415496826 0.61996680498123169
0.46695077419281006 0.91990560293197632 0.62842309474945068
0.60386079549789429 0.9253881573677063 0.63610613346099854
0.73487532138824463 0.93299180269241333 0.64367175102233887
0.85834741592407227 0.94260472059249878 0.6519775390625
0.97228467464447021 0.9546360969543457 0.66035526990890503
0.014443551190197468 0.029437091201543808 0.55151927471160889
0.1415649950504303 0.035442352294921875 0.5561261773109436
0.27692762017250061 0.042968854308128357 0.56265765428543091
0.40992191433906555 0.050326164811849594 0.57050341367721558
0.5379643440246582 0.057009231299161911 0.5792883038520813
0.66086763143539429 0.062479715794324875 0.58885097503662109
0.78036177158355713 0.066454567015171051 0.59872090816497803
0.034198462963104248 0.17390695214271545 0.58314019441604614
0.16987816989421844 0.17906595766544342 0.58748716115951538
0.31011742353439331 0.18727289140224457 0.59368693828582764
0.44547522068023682 0.19582736492156982 0.60076355934143066
0.57457876205444336 0.20378053188323975 0.60897922515869141
0.69837117195129395 0.21103039383888245 0.61834108829498291
0.81538695096969604 0.21754024922847748 0.6290665864944458
0.063113704323768616 0.32116207480430603 0.61595070362091064
0.20269401371479034 0.32533180713653564 0.62052315473556519
0.34397563338279724 0.3324885368347168 0.62605452537536621
0.47982531785964966 0.34105846285820007 0.63223779201507568
0.60959762334823608 0.34977710247039795 0.63966655731201172
0.73368793725967407 0.35792255401611328 0.64872968196868896
0.85016250610351562 0.3665013313293457 0.65995478630065918
0.0924391970038414 0.46984976530075073 0.64818155765533447
0.2340543270111084 0.47313857078552246 0.6535375714302063
0.37588587403297424 0.47897255420684814 0.65900260210037231
0.51242667436599731 0.48704716563224792 0.66495680809020996
0.64271080493927002 0.49603793025016785 0.67225974798202515
0.7662501335144043 0.50526350736618042 0.68152695894241333
0.88225877285003662 0.51513171195983887 0.6928786039352417
0.12246460467576981 0.61818885803222656 0.67948758602142334
0.26468971371650696 0.62127166986465454 0.6858251690864563
0.40689614415168762 0.62614661455154419 0.69196462631225586
0.54415428638458252 0.63334143161773682 0.69800513982772827
0.67548894882202148 0.64221030473709106 0.70555329322814941
0.79954952001571655 0.65199494361877441 0.71533423662185669
0.91372627019882202 0.66281294822692871 0.72655874490737915
0.15518608689308167 0.76761412620544434 0.71018987894058228
0.29712122678756714 0.76999801397323608 0.71769016981124878
0.4386022686958313 0.77392691373825073 0.72432196140289307
0.57590478658676147 0.78019940853118896 0.73083752393722534
0.70759046077728271 0.78869247436523438 0.73846840858459473
0.8329315185546875 0.7984083890914917 0.74861812591552734
0.94339483976364136 0.81015735864639282 0.75926381349563599
0.18788211047649384 0.91811704635620117 0.73948580026626587
0.32933995127677917 0.91956555843353271 0.74823272228240967
0.46991929411888123 0.922862708568573 0.75584334135055542
0.60628288984298706 0.92887258529663086 0.76292181015014648
0.73688632249832153 0.93687266111373901 0.7705807089805603
0.8594927191734314 0.94705349206924438 0.7802046537399292
0.97025537490844727 0.95927298069000244 0.79019957780838013
0.02257932722568512 0.03506801649928093 0.68130958080291748
0.15104328095912933 0.040312014520168304 0.68694567680358887
0.28286910057067871 0.045823924243450165 0.69363242387771606
0.41364902257919312 0.051499638706445694 0.70111572742462158
0.54044216871261597 0.057224318385124207 0.70968830585479736
0.6634286642074585 0.062136121094226837 0.71890223026275635
0.78063726425170898 0.06617216020822525 0.72828572988510132
0.046245202422142029 0.18095061182975769 0.71307975053787231
0.17969295382499695 0.18579912185668945 0.71824699640274048
0.31536725163459778 0.1919218897819519 0.72451984882354736
0.44861489534378052 0.19874313473701477 0.73171573877334595
0.57721614837646484 0.2054794579744339 0.73977565765380859
0.69955062866210938 0.21208979189395905 0.74913173913955688
0.81821519136428833 0.21770632266998291 0.75940382480621338
0.072931773960590363 0.32706594467163086 0.74526333808898926
0.20976383984088898 0.33147576451301575 0.75038844347000122
0.34785690903663635 0.33750426769256592 0.75619328022003174
0.48259112238883972 0.34478789567947388 0.76271027326583862
0.61201280355453491 0.35260841250419617 0.77044558525085449
0.73462319374084473 0.36068266630172729 0.77984821796417236
0.85136336088180542 0.36867862939834595 0.7908511757850647
0.10130416601896286 0.47426238656044006 0.77729862928390503
0.24061897397041321 0.47814005613327026 0.78280371427536011
0.37996074557304382 0.48354429006576538 0.78835773468017578
0.51552039384841919 0.49076685309410095 0.79458737373352051
0.64517414569854736 0.49933549761772156 0.80222475528717041
0.76763439178466797 0.50885403156280518 0.81211215257644653
0.88251644372940063 0.51870745420455933 0.82342177629470825
0.13096095621585846 0.62186402082443237 0.80880916118621826
0.27133288979530334 0.62530350685119629 0.81495732069015503
0.41156643629074097 0.62998217344284058 0.82076096534729004
0.54772037267684937 0.63674628734588623 0.82675027847290039
0.67793411016464233 0.64552932977676392 0.83443427085876465
0.79978877305984497 0.65592604875564575 0.84478729963302612
0.91298443078994751 0.66721677780151367 0.85664981603622437
0.16141963005065918 0.77091938257217407 0.83957821130752563
0.30256551504135132 0.77321213483810425 0.8466612696647644
0.44299578666687012 0.77708429098129272 0.8529052734375
0.57922011613845825 0.78323149681091309 0.85890048742294312
0.70905333757400513 0.79193413257598877 0.86596912145614624
0.83274221420288086 0.80227625370025635 0.87680423259735107
0.94243866205215454 0.8146025538444519 0.88918048143386841
0.19186604022979736 0.92085927724838257 0.86923086643218994
0.33327603340148926 0.92234349250793457 0.8773995041847229
0.47324925661087036 0.92604660987854004 0.88459193706512451
0.6092456579208374 0.93123596906661987 0.89104384183883667
0.73862642049789429 0.93959897756576538 0.89813542366027832
0.86045581102371216 0.95037633180618286 0.90850794315338135
0.97039633989334106 0.96336203813552856 0.92058604955673218
0.031028402969241142 0.038816504180431366 0.81250160932540894
0.15958571434020996 0.043090656399726868 0.81898146867752075
0.28836724162101746 0.047091376036405563 0.82592213153839111
0.41624128818511963 0.051367860287427902 0.83350497484207153
0.54158967733383179 0.055605899542570114 0.84172159433364868
0.66367954015731812 0.059275787323713303 0.85053122043609619
0.78063726425170898 0.062254901975393295 0.85932087898254395
0.056567233055830002 0.18615956604480743 0.84462428092956543
0.18863339722156525 0.19095636904239655 0.85065358877182007
0.32075992226600647 0.19569423794746399 0.85713249444961548
0.45093581080436707 0.20078994333744049 0.86438727378845215
0.57756364345550537 0.20634891092777252 0.87256097793579102
0.69947165250778198 0.21237514913082123 0.88168162107467651
0.8163871169090271 0.21666666865348816 0.8914225697517395
0.082388810813426971 0.33197987079620361 0.87649345397949219
0.21755677461624146 0.33683568239212036 0.88235580921173096
0.35245645046234131 0.34188687801361084 0.88856112957000732
0.48453766107559204 0.34799277782440186 0.89542442560195923
0.61180156469345093 0.35500606894493103 0.90350055694580078
0.73357963562011719 0.3625175952911377 0.91292822360992432
0.84974724054336548 0.3697875440120697 0.92332786321640015
0.10953135788440704 0.47831785678863525 0.90813016891479492
0.24713575839996338 0.48269897699356079 0.91417568922042847
0.38391771912574768 0.48772689700126648 0.9201628565788269
0.51738816499710083 0.49420598149299622 0.92677706480026245
0.64503294229507446 0.50225287675857544 0.93475860357284546
0.76548296213150024 0.5117034912109375 0.94471770524978638
0.88022136688232422 0.52094411849975586 0.95563751459121704
0.13779298961162567 0.62537229061126709 0.93950986862182617
0.27710625529289246 0.62918150424957275 0.94593155384063721
0.41544148325920105 0.63374245166778564 0.95190256834030151
0.54993909597396851 0.63985997438430786 0.95822066068649292
0.67839968204498291 0.64821982383728027 0.96600264310836792
0.79909497499465942 0.65892928838729858 0.97555834054946899
0.91093236207962036 0.67051351070404053 0.9846808910369873
0.16651277244091034 0.77354943752288818 0.97008275985717773
0.30708622932434082 0.77642965316772461 0.97649139165878296
0.44632109999656677 0.78032416105270386 0.98148024082183838
0.58195286989212036 0.78569996356964111 0.98577612638473511
0.71186810731887817 0.79342520236968994 0.98995023965835571
0.83340257406234741 0.80415225028991699 0.99488192796707153
0.94382035732269287 0.81727701425552368 0.99861901998519897
0.19464331865310669 0.92257285118103027 0.99154376983642578
0.33586007356643677 0.9259636402130127 0.99521225690841675
0.47565233707427979 0.92937159538269043 0.9974970817565918
0.6117631196975708 0.93365049362182617 0.99897497892379761
0.74209427833557129 0.94070959091186523 0.99973756074905396
0.86354607343673706 0.95148533582687378 1
0.97491252422332764 0.96534991264343262 1
