assets/lut/alexjordan low contrast blue.cube
# Created by: G'MIC (https://gmic.eu)
TITLE "low_contrast_blue"
# LUT size
LUT_3D_SIZE 5
# Data domain
DOMAIN_MIN 0.0 0.0 0.0
DOMAIN_MAX 1.0 1.0 1.0
# LUT data points
0.1038910374045372 0.13356658816337585 0.18319013714790344
0.21671365201473236 0.16111315786838531 0.20624858140945435
0.34362104535102844 0.18611493706703186 0.23331786692142487
0.4774722158908844 0.21108734607696533 0.25985664129257202
0.61352741718292236 0.22849695384502411 0.27920135855674744
0.1709236204624176 0.31803768873214722 0.2506033182144165
0.28836193680763245 0.34664997458457947 0.27828249335289001
0.41363281011581421 0.37270873785018921 0.30313107371330261
0.54799330234527588 0.39709442853927612 0.32931250333786011
0.68573516607284546 0.41414579749107361 0.34943190217018127
0.2374730259180069 0.5040661096572876 0.3157522976398468
0.35841250419616699 0.53385770320892334 0.34666436910629272
0.48350977897644043 0.55930942296981812 0.37147408723831177
0.61675786972045898 0.58018934726715088 0.39410650730133057
0.75474905967712402 0.59503871202468872 0.41266593337059021
0.30107656121253967 0.68938219547271729 0.37673309445381165
0.42539355158805847 0.72015941143035889 0.41198822855949402
0.55165797472000122 0.74521046876907349 0.43889757990837097
0.68434113264083862 0.76423478126525879 0.45874658226966858
0.82155394554138184 0.77732694149017334 0.47286656498908997
0.36040583252906799 0.87126016616821289 0.42938825488090515
0.48879608511924744 0.90313035249710083 0.46938794851303101
0.61720699071884155 0.92831134796142578 0.49902397394180298
0.75059199333190918 0.94607758522033691 0.5175660252571106
0.88723587989807129 0.95721310377120972 0.52867579460144043
0.11206945031881332 0.1401570588350296 0.30296799540519714
0.22711081802845001 0.17033816874027252 0.32890468835830688
0.35318225622177124 0.19679570198059082 0.3564814031124115
0.48775634169578552 0.22375650703907013 0.38386714458465576
0.62477695941925049 0.24331213533878326 0.40458202362060547
0.1828170120716095 0.32625904679298401 0.37285605072975159
0.2966620922088623 0.35713070631027222 0.39802765846252441
0.42274397611618042 0.38133856654167175 0.42429822683334351
0.55736768245697021 0.4076789915561676 0.45046848058700562
0.69550997018814087 0.42865684628486633 0.47272661328315735
0.25141432881355286 0.51471728086471558 0.44156536459922791
0.36868757009506226 0.54280203580856323 0.4697934091091156
0.49236747622489929 0.56831121444702148 0.49241971969604492
0.62532311677932739 0.59069085121154785 0.5144922137260437
0.76370394229888916 0.609943687915802 0.53490471839904785
0.31737694144248962 0.70206385850906372 0.50615638494491577
0.43738791346549988 0.73090863227844238 0.53852552175521851
0.56122511625289917 0.75617963075637817 0.56336528062820435
0.69396740198135376 0.7769739031791687 0.58284837007522583
0.8327363133430481 0.79235160350799561 0.60020977258682251
0.37785437703132629 0.88612419366836548 0.56341016292572021
0.50253474712371826 0.91666227579116821 0.60096627473831177
0.62849730253219604 0.94223231077194214 0.62871390581130981
0.76179438829421997 0.96128183603286743 0.64762222766876221
0.90013182163238525 0.97341179847717285 0.6620364785194397
0.11884278059005737 0.14997600018978119 0.41879081726074219
0.23467637598514557 0.17880833148956299 0.44518804550170898
0.36209464073181152 0.20705649256706238 0.47371616959571838
0.4975208044052124 0.23399649560451508 0.5009838342666626
0.634815514087677 0.25373104214668274 0.52191901206970215
0.19161595404148102 0.33852583169937134 0.49091586470603943
0.3061642050743103 0.3659726083278656 0.51658016443252563
0.43176683783531189 0.39137876033782959 0.54194837808609009
0.5671316385269165 0.41721326112747192 0.5678093433380127
0.70537698268890381 0.43895301222801208 0.58975231647491455
0.26154738664627075 0.52521884441375732 0.56028550863265991
0.37635135650634766 0.55196666717529297 0.58700025081634521
0.50019049644470215 0.57677602767944336 0.608986496925354
0.63528662919998169 0.60102552175521851 0.63263499736785889
0.77480399608612061 0.62107157707214355 0.65417230129241943
0.32953852415084839 0.71150356531143188 0.62644034624099731
0.44591867923736572 0.73849934339523315 0.65683078765869141
0.56931257247924805 0.76453375816345215 0.68012785911560059
0.70339131355285645 0.78808200359344482 0.70085543394088745
0.84442102909088135 0.80424469709396362 0.72119307518005371
0.39004862308502197 0.89622741937637329 0.68688952922821045
0.51262181997299194 0.92535209655761719 0.72202056646347046
0.63810938596725464 0.95212513208389282 0.74761146306991577
0.77156156301498413 0.97335672378540039 0.76765722036361694
0.91141790151596069 0.98345160484313965 0.78673470020294189
0.13086132705211639 0.16357125341892242 0.53646177053451538
0.24797216057777405 0.19128002226352692 0.56312340497970581
0.37482506036758423 0.2188761830329895 0.5907103419303894
0.50900137424468994 0.24439939856529236 0.61699897050857544
0.64515095949172974 0.26299455761909485 0.63688129186630249
0.20484291017055511 0.35129636526107788 0.6091797947883606
0.31956785917282104 0.37920597195625305 0.63475316762924194
0.44439885020256042 0.40388250350952148 0.66008931398391724
0.57853305339813232 0.42718154191970825 0.68474894762039185
0.71593880653381348 0.44683459401130676 0.70550549030303955
0.27264732122421265 0.53558206558227539 0.67700481414794922
0.38619929552078247 0.56392967700958252 0.70310860872268677
0.51173824071884155 0.58687859773635864 0.72761362791061401
0.64670419692993164 0.6087842583656311 0.75106239318847656
0.78486573696136475 0.6299324631690979 0.77159541845321655
0.33580374717712402 0.72070538997650146 0.74224531650543213
0.45328924059867859 0.74670767784118652 0.77283984422683716
0.57870769500732422 0.77337396144866943 0.79701215028762817
0.71339142322540283 0.79725772142410278 0.81922423839569092
0.85335201025009155 0.81948333978652954 0.83987724781036377
0.39672079682350159 0.90455269813537598 0.80367648601531982
0.52069282531738281 0.93338119983673096 0.83827358484268188
0.64774608612060547 0.96129339933395386 0.86491203308105469
0.78139770030975342 0.98186594247817993 0.88576853275299072
0.92145800590515137 0.98944401741027832 0.90854060649871826
0.14449895918369293 0.17556013166904449 0.65239191055297852
0.26542571187019348 0.20421613752841949 0.68156963586807251
0.39005836844444275 0.22889310121536255 0.70752805471420288
0.52094215154647827 0.25173184275627136 0.73117935657501221
0.65451252460479736 0.26845008134841919 0.7492184042930603
0.2181047797203064 0.36184048652648926 0.72547709941864014
0.33672124147415161 0.3917689323425293 0.7535545825958252
0.45994427800178528 0.41573348641395569 0.77858179807662964
0.5906977653503418 0.43630039691925049 0.80152171850204468
0.72532856464385986 0.45269054174423218 0.81966888904571533
0.28414329886436462 0.54414975643157959 0.79199451208114624
0.40213629603385925 0.57526904344558716 0.82085812091827393
0.52597260475158691 0.59904146194458008 0.84613561630249023
0.65746605396270752 0.61838209629058838 0.86935710906982422
0.79345375299453735 0.6362805962562561 0.88763976097106934
0.34251135587692261 0.72973167896270752 0.85463172197341919
0.46514818072319031 0.75982761383056641 0.88681048154830933
0.59089982509613037 0.78579992055892944 0.9126620888710022
0.72277426719665527 0.80479204654693604 0.9381864070892334
0.86148005723953247 0.82809305191040039 0.95750683546066284
0.40183153748512268 0.91162270307540894 0.91514909267425537
0.52956312894821167 0.94333481788635254 0.95142847299575806
0.65914708375930786 0.97078990936279297 0.98107349872589111
0.79152446985244751 0.98891985416412354 0.99489301443099976
0.92955636978149414 0.99622064828872681 0.99986428022384644
