assets/lut/alexjordan saturated blue.cube
# Created by: G'MIC (https://gmic.eu)
TITLE "saturated_blue"
# LUT size
LUT_3D_SIZE 13
# Data domain
DOMAIN_MIN 0.0 0.0 0.0
DOMAIN_MAX 1.0 1.0 1.0
# LUT data points
0.027662359178066254 0.03042571060359478 0.021520458161830902
0.22273571789264679 0.044867243617773056 0.039378490298986435
0.41457867622375488 0.054722670465707779 0.050299372524023056
0.55447375774383545 0.065229602158069611 0.061168268322944641
0.67217934131622314 0.074950046837329865 0.073281168937683105
0.77830445766448975 0.077300533652305603 0.09438692033290863
0.86920279264450073 0.081860169768333435 0.10688229650259018
0.93905997276306152 0.090634696185588837 0.11297806352376938
0.97893911600112915 0.10138166695833206 0.12570066750049591
0.99324947595596313 0.11350513249635696 0.14283882081508636
0.99869930744171143 0.12683765590190887 0.15175095200538635
0.99997627735137939 0.13976798951625824 0.15521074831485748
1 0.14736467599868774 0.16661329567432404
0.067750968039035797 0.22500871121883392 0.065683312714099884
0.2524203360080719 0.2164166271686554 0.054054662585258484
0.41095644235610962 0.2043866366147995 0.044584177434444427
0.54315119981765747 0.19789735972881317 0.042069721966981888
0.64892345666885376 0.19957858324050903 0.043574672192335129
0.7416045069694519 0.19817537069320679 0.053329110145568848
0.81818902492523193 0.20006589591503143 0.058058466762304306
0.87615960836410522 0.2074349969625473 0.058338120579719543
0.92122411727905273 0.21469789743423462 0.066767282783985138
0.95537275075912476 0.22245775163173676 0.080147914588451385
0.97906363010406494 0.23350045084953308 0.084750063717365265
0.99360227584838867 0.24510914087295532 0.085157044231891632
0.99944639205932617 0.2518862783908844 0.094975128769874573
0.078719362616539001 0.35131329298019409 0.072995670139789581
0.24223189055919647 0.33568689227104187 0.043643366545438766
0.39407980442047119 0.31917154788970947 0.032939385622739792
0.52082788944244385 0.30717265605926514 0.029482210054993629
0.62173342704772949 0.30276697874069214 0.028965983539819717
0.70526808500289917 0.30084559321403503 0.031109528616070747
0.77263349294662476 0.30260393023490906 0.031933803111314774
0.82495111227035522 0.30780011415481567 0.031774017959833145
0.8741416335105896 0.31232219934463501 0.03810432180762291
0.91966313123703003 0.31707212328910828 0.046894088387489319
0.95519024133682251 0.32487237453460693 0.050777062773704529
0.98026901483535767 0.33439558744430542 0.052150126546621323
0.99713075160980225 0.33989048004150391 0.058652166277170181
0.082623966038227081 0.43616530299186707 0.074566848576068878
0.24259355664253235 0.41780310869216919 0.040709730237722397
0.38907387852668762 0.40200656652450562 0.029501836746931076
0.51064401865005493 0.39062318205833435 0.02486439049243927
0.60742151737213135 0.38492327928543091 0.022775806486606598
0.68555974960327148 0.38323867321014404 0.022334109991788864
0.74948078393936157 0.3846302330493927 0.022997628897428513
0.80332446098327637 0.38791146874427795 0.025069518014788628
0.85349440574645996 0.39122253656387329 0.030998993664979935
0.90087807178497314 0.39539322257041931 0.037020798772573471
0.94188374280929565 0.40122807025909424 0.041005812585353851
0.97419744729995728 0.40717688202857971 0.045516952872276306
0.99706053733825684 0.41068509221076965 0.054233040660619736
0.087032213807106018 0.51003885269165039 0.08653298020362854
0.24851715564727783 0.48945054411888123 0.050364594906568527
0.39433807134628296 0.47171282768249512 0.033277846872806549
0.51326453685760498 0.45935839414596558 0.025775356218218803
0.60761946439743042 0.45260810852050781 0.021902136504650116
0.68348109722137451 0.45081910490989685 0.021278815343976021
0.74640357494354248 0.45175772905349731 0.022794626653194427
0.80057388544082642 0.45443964004516602 0.025859024375677109
0.85047417879104614 0.45772436261177063 0.030936909839510918
0.89707690477371216 0.46164864301681519 0.035874474793672562
0.93892067670822144 0.46625456213951111 0.040953468531370163
0.97467958927154541 0.47040119767189026 0.048472058027982712
0.99830257892608643 0.47336453199386597 0.059256803244352341
0.097895920276641846 0.57612663507461548 0.098470456898212433
0.26126900315284729 0.55378460884094238 0.061232339590787888
0.4060509204864502 0.53422397375106812 0.04056771844625473
0.522796630859375 0.5204736590385437 0.03187083825469017
0.61621129512786865 0.51263880729675293 0.026774777099490166
0.6918451189994812 0.51015430688858032 0.025397567078471184
0.75441849231719971 0.51063674688339233 0.026819804683327675
0.80799216032028198 0.51332610845565796 0.029926704242825508
0.85645252466201782 0.51692694425582886 0.033911909908056259
0.90166717767715454 0.5211104154586792 0.03780243918299675
0.94314652681350708 0.52526581287384033 0.043177466839551926
0.9792664647102356 0.5291363000869751 0.053210929036140442
0.99959808588027954 0.53227806091308594 0.065274074673652649
0.10988302528858185 0.637351393699646 0.10554682463407516
0.27523475885391235 0.61335617303848267 0.06838863343000412
0.41779634356498718 0.59298485517501831 0.047762405127286911
0.53281724452972412 0.57864725589752197 0.039618398994207382
0.62617373466491699 0.5699770450592041 0.034832179546356201
0.70281535387039185 0.56632488965988159 0.031889431178569794
0.76582795381546021 0.56648725271224976 0.032070562243461609
0.81898939609527588 0.56897544860839844 0.034633710980415344
0.86580854654312134 0.57292908430099487 0.037581365555524826
0.90977144241333008 0.57765358686447144 0.039905250072479248
0.95063799619674683 0.58220112323760986 0.044710405170917511
0.98648828268051147 0.58607155084609985 0.05774109810590744
1 0.59047693014144897 0.071872085332870483
0.1141049712896347 0.6977999210357666 0.11026698350906372
0.28215223550796509 0.67214393615722656 0.072755925357341766
0.42357021570205688 0.65122437477111816 0.053967762738466263
0.53803366422653198 0.63680028915405273 0.046361420303583145
0.63275116682052612 0.62769407033920288 0.04078979417681694
0.71137493848800659 0.62335795164108276 0.035469070076942444
0.77508580684661865 0.62284672260284424 0.034556910395622253
0.82774853706359863 0.62536120414733887 0.03750590980052948
0.87431102991104126 0.62931209802627563 0.040100231766700745
0.91775655746459961 0.63455337285995483 0.040605209767818451
0.95886439085006714 0.63952833414077759 0.045162111520767212
0.9929957389831543 0.64389610290527344 0.062565311789512634
1 0.64951187372207642 0.080086514353752136
0.10684480518102646 0.76037120819091797 0.11151580512523651
0.27357828617095947 0.73364681005477905 0.078833714127540588
0.4172947108745575 0.71235883235931396 0.060689050704240799
0.53487610816955566 0.69743341207504272 0.050873477011919022
0.63180243968963623 0.68832790851593018 0.043661680072546005
0.71205818653106689 0.68381792306900024 0.037033259868621826
0.77702003717422485 0.68312197923660278 0.035790134221315384
0.83060133457183838 0.68523645401000977 0.038928911089897156
0.87810313701629639 0.68933999538421631 0.040791738778352737
0.92265093326568604 0.69463187456130981 0.041233420372009277
0.96480768918991089 0.69973218441009521 0.04712328314781189
0.99634528160095215 0.70517253875732422 0.067306458950042725
1 0.71213662624359131 0.087991707026958466
0.094950549304485321 0.82601004838943481 0.10346757620573044
0.2596624493598938 0.79820889234542847 0.078445583581924438
0.40450531244277954 0.77668851613998413 0.061609216034412384
0.524760901927948 0.76189929246902466 0.050065793097019196
0.62261724472045898 0.7532271146774292 0.042621761560440063
0.70304960012435913 0.74914145469665527 0.037810936570167542
0.76980304718017578 0.74861568212509155 0.037496186792850494
0.82595747709274292 0.75079846382141113 0.040184155106544495
0.87534850835800171 0.75533992052078247 0.042177312076091766
0.92103743553161621 0.76103103160858154 0.043089114129543304
0.96448147296905518 0.76657545566558838 0.049824435263872147
0.9965749979019165 0.77311640977859497 0.071767337620258331
1 0.78090280294418335 0.093432106077671051
0.083432681858539581 0.89458596706390381 0.09264683723449707
0.24627664685249329 0.86634308099746704 0.070886336266994476
0.39089229702949524 0.84504550695419312 0.053776834160089493
0.51119959354400635 0.83091646432876587 0.042393345385789871
0.60910886526107788 0.8229290246963501 0.036240477114915848
0.68961340188980103 0.8196292519569397 0.034364588558673859
0.75763553380966187 0.81962490081787109 0.036606807261705399
0.81586742401123047 0.82238811254501343 0.040756810456514359
0.86666077375411987 0.82745945453643799 0.044614754617214203
0.91305834054946899 0.8339991569519043 0.049282733350992203
0.95722675323486328 0.84065461158752441 0.059739671647548676
0.99350488185882568 0.84770828485488892 0.078152664005756378
1 0.85498309135437012 0.09384588897228241
0.072638839483261108 0.96525883674621582 0.081308998167514801
0.23397189378738403 0.93852847814559937 0.056926742196083069
0.37689244747161865 0.91764861345291138 0.038723394274711609
0.49641463160514832 0.90425986051559448 0.028870511800050735
0.5947527289390564 0.89715349674224854 0.024114871397614479
0.67635750770568848 0.89447492361068726 0.024492479860782623
0.74492102861404419 0.89525699615478516 0.030416674911975861
0.80350023508071899 0.89882183074951172 0.038488604128360748
0.85455548763275146 0.90444165468215942 0.044988997280597687
0.90107935667037964 0.91126507520675659 0.053033072501420975
0.94486069679260254 0.91847372055053711 0.063618198037147522
0.98380255699157715 0.9255414605140686 0.076265893876552582
0.99992799758911133 0.93246173858642578 0.084739923477172852
0.05942942202091217 0.99989229440689087 0.058641981333494186
0.21735164523124695 0.99572467803955078 0.03651568666100502
0.35858100652694702 0.98690235614776611 0.021337650716304779
0.47695812582969666 0.97885119915008545 0.015051643364131451
0.57696330547332764 0.97375243902206421 0.012354024685919285
0.66097086668014526 0.97215473651885986 0.01363867986947298
0.72983157634735107 0.97303515672683716 0.020616838708519936
0.78829044103622437 0.97601830959320068 0.030975505709648132
0.83996564149856567 0.98038244247436523 0.039423894137144089
0.88657611608505249 0.98471373319625854 0.047191079705953598
0.92968428134918213 0.98883134126663208 0.055988729000091553
0.96820211410522461 0.99216538667678833 0.063324347138404846
0.99616265296936035 0.99479091167449951 0.06525915116071701
0.034180764108896255 0.034478235989809036 0.19781793653964996
0.22667142748832703 0.050061739981174469 0.23726136982440948
0.41750067472457886 0.052262820303440094 0.25591084361076355
0.56114053726196289 0.055394671857357025 0.26236668229103088
0.67982858419418335 0.060180291533470154 0.27541586756706238
0.78363192081451416 0.061282511800527573 0.29912549257278442
0.86753541231155396 0.068557009100914001 0.30806338787078857
0.92841464281082153 0.080271385610103607 0.31093013286590576
0.96542167663574219 0.092165060341358185 0.32340359687805176
0.98333418369293213 0.10415098816156387 0.34429210424423218
0.99216991662979126 0.11712897568941116 0.35833841562271118
0.99665558338165283 0.13034753501415253 0.36523294448852539
0.99891221523284912 0.13860912621021271 0.37725841999053955
0.060424055904150009 0.22295725345611572 0.27163085341453552
0.24852237105369568 0.20820502936840057 0.25450390577316284
0.40574273467063904 0.19507654011249542 0.24739781022071838
0.53748464584350586 0.18599602580070496 0.23872637748718262
0.64483529329299927 0.18534786999225616 0.23770050704479218
0.73684799671173096 0.18458731472492218 0.24765491485595703
0.81145983934402466 0.18780456483364105 0.25185474753379822
0.86746811866760254 0.19577702879905701 0.25233256816864014
0.90996855497360229 0.20406164228916168 0.26218524575233459
0.94307237863540649 0.2124229371547699 0.27713802456855774
0.96745151281356812 0.22372837364673615 0.28409358859062195
0.98423385620117188 0.23532378673553467 0.28755861520767212
0.99598211050033569 0.24241222441196442 0.29822412133216858
0.060498375445604324 0.34622612595558167 0.26429474353790283
0.23045088350772858 0.32408353686332703 0.2333863377571106
0.38397952914237976 0.30606874823570251 0.22073540091514587
0.5090751051902771 0.29393658041954041 0.21474197506904602
0.60985636711120605 0.29073044657707214 0.21012257039546967
0.69340968132019043 0.28978279232978821 0.2111942321062088
0.7620542049407959 0.29130250215530396 0.21057711541652679
0.81645643711090088 0.29585930705070496 0.21219216287136078
0.86448854207992554 0.3004668653011322 0.22293463349342346
0.90871798992156982 0.3063957691192627 0.23325558006763458
0.94527935981750488 0.31491297483444214 0.23701803386211395
0.97330558300018311 0.32414829730987549 0.24044056236743927
0.99466902017593384 0.32977026700973511 0.24931707978248596
0.059224445372819901 0.43277665972709656 0.26584136486053467
0.22464816272258759 0.40919303894042969 0.22958046197891235
0.3769690990447998 0.39015686511993408 0.2111513614654541
0.49881622195243835 0.37797641754150391 0.20288634300231934
0.59482991695404053 0.37311413884162903 0.19710509479045868
0.672504723072052 0.37239232659339905 0.19409084320068359
0.73768693208694458 0.37355419993400574 0.19313059747219086
0.79243171215057373 0.37628066539764404 0.19764918088912964
0.84291106462478638 0.37932500243186951 0.20832017064094543
0.89076197147369385 0.38413301110267639 0.21524287760257721
0.93333667516708374 0.39061996340751648 0.21882940828800201
0.96845483779907227 0.3965553343296051 0.22611592710018158
0.99515450000762939 0.40034496784210205 0.23713244497776031
0.062621578574180603 0.50693351030349731 0.27884629368782043
0.22978109121322632 0.48158887028694153 0.24144904315471649
0.38191697001457214 0.46036744117736816 0.21611626446247101
0.50317728519439697 0.44684305787086487 0.20419074594974518
0.59745824337005615 0.43991038203239441 0.19704653322696686
0.67243278026580811 0.43856436014175415 0.19269192218780518
0.73523563146591187 0.4401296079158783 0.19244043529033661
0.78975397348403931 0.44282311201095581 0.19672167301177979
0.84005415439605713 0.44604223966598511 0.20439063012599945
0.88773441314697266 0.45024904608726501 0.21055619418621063
0.93133175373077393 0.45515826344490051 0.21664345264434814
0.96918570995330811 0.45923742651939392 0.22690151631832123
0.99690306186676025 0.46254488825798035 0.23910059034824371
0.076355084776878357 0.57173937559127808 0.29132258892059326
0.24437624216079712 0.54518193006515503 0.25590735673904419
0.3940386176109314 0.52244859933853149 0.22848764061927795
0.51292455196380615 0.50749778747558594 0.21422451734542847
0.60698902606964111 0.49940040707588196 0.20666271448135376
0.68229794502258301 0.49678602814674377 0.20226280391216278
0.74440115690231323 0.49807998538017273 0.20117752254009247
0.79811251163482666 0.50103640556335449 0.20376761257648468
0.84692496061325073 0.50478380918502808 0.20892630517482758
0.89285242557525635 0.50892823934555054 0.21434508264064789
0.93543064594268799 0.51341778039932251 0.22079738974571228
0.9732096791267395 0.51750761270523071 0.23141549527645111
0.99831730127334595 0.52170866727828979 0.24265997111797333
0.091699965298175812 0.63113582134246826 0.30101701617240906
0.25966772437095642 0.60378861427307129 0.26596835255622864
0.40552198886871338 0.58060997724533081 0.24015252292156219
0.52236133813858032 0.56544226408004761 0.22645542025566101
0.61702603101730347 0.55626708269119263 0.21838128566741943
0.69398283958435059 0.552692711353302 0.21272741258144379
0.75666052103042603 0.5531306266784668 0.21056745946407318
0.80968713760375977 0.55585765838623047 0.21299770474433899
0.85690367221832275 0.55976110696792603 0.21827425062656403
0.90118944644927979 0.56435364484786987 0.22219796478748322
0.94311612844467163 0.56917864084243774 0.22671662271022797
0.9797549843788147 0.57372814416885376 0.23830555379390717
0.99958407878875732 0.5794568657875061 0.24979588389396667
0.097075894474983215 0.68970382213592529 0.31083190441131592
0.26649600267410278 0.66173988580703735 0.27361348271369934
0.41152438521385193 0.63879656791687012 0.2488744854927063
0.52845746278762817 0.62343376874923706 0.23714952170848846
0.62411558628082275 0.61398512125015259 0.22696852684020996
0.7027820348739624 0.6096186637878418 0.21706464886665344
0.76618343591690063 0.60895997285842896 0.21475107967853546
0.81868010759353638 0.61138218641281128 0.21895445883274078
0.86524945497512817 0.61531859636306763 0.22485226392745972
0.90915364027023315 0.6202390193939209 0.22809019684791565
0.95124846696853638 0.62569749355316162 0.2316320389509201
0.98707133531570435 0.63052606582641602 0.24757643043994904
0.99998617172241211 0.63774943351745605 0.26071423292160034
0.092816613614559174 0.75017940998077393 0.31473112106323242
0.26201298832893372 0.72143828868865967 0.27966678142547607
0.40857025980949402 0.69908970594406128 0.25504496693611145
0.5276191234588623 0.68375176191329956 0.24203440546989441
0.62425154447555542 0.67462682723999023 0.22962717711925507
0.70364141464233398 0.67002606391906738 0.21744462847709656
0.76822668313980103 0.66908353567123413 0.2147439569234848
0.82159131765365601 0.67103713750839233 0.21971748769283295
0.86881953477859497 0.67521417140960693 0.22415059804916382
0.91345638036727905 0.68084156513214111 0.22573916614055634
0.95628786087036133 0.68614721298217773 0.23299580812454224
0.99063324928283691 0.69183570146560669 0.25434613227844238
1 0.70038735866546631 0.27008774876594543
0.086775012314319611 0.81329917907714844 0.30475571751594543
0.25286704301834106 0.78415387868881226 0.27592325210571289
0.3993498682975769 0.76247966289520264 0.25259208679199219
0.51942187547683716 0.74799156188964844 0.23682694137096405
0.61546677350997925 0.73962587118148804 0.22401851415634155
0.69416087865829468 0.7356986403465271 0.21547454595565796
0.76040232181549072 0.73503726720809937 0.21465785801410675
0.81670987606048584 0.73722213506698608 0.2189888209104538
0.86572480201721191 0.74221926927566528 0.22170655429363251
0.91068500280380249 0.74869555234909058 0.2230878621339798
0.95329993963241577 0.75500339269638062 0.2321564257144928
0.98873734474182129 0.76165831089019775 0.25576844811439514
1 0.77031600475311279 0.27348899841308594
0.079515881836414337 0.88124507665634155 0.2914503812789917
0.24330013990402222 0.85207074880599976 0.26328834891319275
0.38820728659629822 0.83089244365692139 0.23929132521152496
0.50742501020431519 0.81725060939788818 0.22128240764141083
0.60196518898010254 0.81008756160736084 0.21025094389915466
0.67922484874725342 0.80718588829040527 0.20783671736717224
0.74717855453491211 0.80730915069580078 0.21179080009460449
0.80633437633514404 0.81041127443313599 0.21768741309642792
0.85687887668609619 0.81641572713851929 0.2222297191619873
0.90153831243515015 0.82424336671829224 0.22678299248218536
0.94466030597686768 0.83191168308258057 0.23836801946163177
0.98468631505966187 0.83894842863082886 0.25811672210693359
1 0.84709113836288452 0.27019220590591431
0.070760630071163177 0.95492225885391235 0.27493986487388611
0.23274810612201691 0.9261476993560791 0.2410784512758255
0.37591871619224548 0.90470272302627563 0.21249620616436005
0.49372312426567078 0.89178872108459473 0.19442722201347351
0.58888298273086548 0.88545322418212891 0.18641914427280426
0.66712743043899536 0.88368421792984009 0.18984521925449371
0.73553711175918579 0.88499206304550171 0.20158439874649048
0.79514259099960327 0.88906431198120117 0.21276500821113586
0.84620332717895508 0.89576590061187744 0.21968896687030792
0.89123153686523438 0.90411537885665894 0.22688065469264984
0.93461316823959351 0.91229695081710815 0.23817192018032074
0.97619080543518066 0.91974443197250366 0.25110718607902527
0.99938452243804932 0.92744755744934082 0.25636452436447144
0.05977834016084671 0.99924981594085693 0.23845216631889343
0.21808037161827087 0.99166285991668701 0.20478832721710205
0.3590695858001709 0.97976058721542358 0.17630974948406219
0.47652795910835266 0.97017210721969604 0.16068349778652191
0.57434195280075073 0.96498674154281616 0.15575432777404785
0.65609490871429443 0.96383315324783325 0.16307465732097626
0.72416061162948608 0.9658811092376709 0.18225854635238647
0.78297710418701172 0.96984350681304932 0.19835937023162842
0.83471274375915527 0.97508198022842407 0.20767250657081604
0.88104397058486938 0.9811827540397644 0.21509072184562683
0.92449647188186646 0.98610806465148926 0.22354130446910858
0.96440643072128296 0.99039894342422485 0.23053929209709167
0.99493050575256348 0.99347937107086182 0.23052604496479034
0.051427476108074188 0.041582278907299042 0.39214956760406494
0.23098906874656677 0.055795677006244659 0.41958931088447571
0.41485506296157837 0.055254694074392319 0.43592789769172668
0.55899983644485474 0.055206883698701859 0.43629395961761475
0.67929732799530029 0.055451754480600357 0.44533935189247131
0.7821120023727417 0.055938467383384705 0.46366536617279053
0.8626214861869812 0.063085444271564484 0.47193178534507751
0.91821014881134033 0.074900008738040924 0.47563621401786804
0.95261120796203613 0.087474018335342407 0.4868721067905426
0.9727318286895752 0.099140152335166931 0.50606483221054077
0.98485630750656128 0.11125195026397705 0.52378261089324951
0.99281054735183716 0.12302983552217484 0.53741765022277832
0.99836039543151855 0.13132001459598541 0.54712945222854614
0.057317622005939484 0.21954056620597839 0.44686931371688843
0.2408631443977356 0.20118853449821472 0.43557995557785034
0.40090140700340271 0.18843308091163635 0.42542195320129395
0.52773797512054443 0.18281418085098267 0.41015404462814331
0.63694852590560913 0.17954050004482269 0.40771231055259705
0.73089635372161865 0.17759564518928528 0.4154188334941864
0.80511987209320068 0.18066467344760895 0.41838738322257996
0.8599056601524353 0.18834701180458069 0.41959837079048157
0.90061378479003906 0.19698835909366608 0.42793220281600952
0.93299573659896851 0.20582751929759979 0.44089785218238831
0.95876866579055786 0.21604272723197937 0.45127850770950317
0.97916799783706665 0.2264244556427002 0.46052145957946777
0.99571794271469116 0.23329541087150574 0.46978527307510376
0.048073217272758484 0.34037750959396362 0.4349999725818634
0.21945834159851074 0.31523150205612183 0.41240054368972778
0.3762107789516449 0.29801252484321594 0.39755964279174805
0.49880349636077881 0.28846704959869385 0.38424834609031677
0.59985405206680298 0.28426751494407654 0.37826061248779297
0.68530023097991943 0.2822558581829071 0.37842270731925964
0.75557279586791992 0.28319922089576721 0.37728646397590637
0.81104618310928345 0.28718277812004089 0.37909266352653503
0.8582160472869873 0.29188504815101624 0.3878752589225769
0.9010612964630127 0.29832848906517029 0.39552658796310425
0.93884426355361938 0.30673572421073914 0.39980313181877136
0.97029167413711548 0.31505778431892395 0.40600723028182983
0.99481701850891113 0.32046887278556824 0.41517725586891174
0.046528700739145279 0.42724063992500305 0.43389862775802612
0.21175430715084076 0.40194058418273926 0.40506625175476074
0.36750152707099915 0.38257598876953125 0.38555529713630676
0.4893811047077179 0.37114068865776062 0.37286776304244995
0.58533358573913574 0.36600098013877869 0.36605769395828247
0.66407400369644165 0.3647039532661438 0.36174517869949341
0.73051333427429199 0.3653930127620697 0.35853162407875061
0.78638112545013428 0.36782184243202209 0.36134204268455505
0.83692657947540283 0.37065783143043518 0.37014728784561157
0.88442528247833252 0.37573862075805664 0.37458407878875732
0.92787975072860718 0.38226661086082458 0.37699085474014282
0.96589952707290649 0.38809043169021606 0.38417372107505798
0.99469196796417236 0.39203143119812012 0.39473116397857666
0.052669376134872437 0.50166118144989014 0.44132620096206665
0.21812798082828522 0.4744095504283905 0.41268870234489441
0.37163537740707397 0.45300370454788208 0.38844513893127441
0.49378553032875061 0.43938437104225159 0.37430298328399658
0.58864074945449829 0.4322471022605896 0.36839947104454041
0.66441243886947632 0.43044739961624146 0.36234328150749207
0.72771596908569336 0.4319705069065094 0.35756728053092957
0.78288465738296509 0.43441200256347656 0.35854619741439819
