assets/lut/alexjordan retro brown 01.cube
# Created by: G'MIC (https://gmic.eu)
TITLE "retro_brown_01"
# LUT size
LUT_3D_SIZE 5
# Data domain
DOMAIN_MIN 0.0 0.0 0.0
DOMAIN_MAX 1.0 1.0 1.0
# LUT data points
0.00018961289606522769 0 0
0.032404102385044098 0.0025017084553837776 0.0019040126353502274
0.12714482843875885 0.025606058537960052 0.014520877040922642
0.24598652124404907 0.091369673609733582 0.071911796927452087
0.36483860015869141 0.16777200996875763 0.13663829863071442
0.15563662350177765 0.15259671211242676 0.091553524136543274
0.27684938907623291 0.23324409127235413 0.16488836705684662
0.38195016980171204 0.29578682780265808 0.22527928650379181
0.48319461941719055 0.35281544923782349 0.27734532952308655
0.57699406147003174 0.40364173054695129 0.32320922613143921
0.38323628902435303 0.41092559695243835 0.29630738496780396
0.46836426854133606 0.45452898740768433 0.33640563488006592
0.54523998498916626 0.48771828413009644 0.36777237057685852
0.62761378288269043 0.52685052156448364 0.40158382058143616
0.70712107419967651 0.56170624494552612 0.43148893117904663
0.52199852466583252 0.58537662029266357 0.41721639037132263
0.59749853610992432 0.61683946847915649 0.44484877586364746
0.67550897598266602 0.65354931354522705 0.47590282559394836
0.75793647766113281 0.69607555866241455 0.51029312610626221
0.84139794111251831 0.73403233289718628 0.54480409622192383
0.64937949180603027 0.75786584615707397 0.53143256902694702
0.72798633575439453 0.79119729995727539 0.56017708778381348
0.8098292350769043 0.83016848564147949 0.59225791692733765
0.89224857091903687 0.8719819188117981 0.62739771604537964
0.96206581592559814 0.91092103719711304 0.66168522834777832
4.7392004489665851e-05 0 0
0.053623918443918228 0.0083724977448582649 0.0089634610339999199
0.15700425207614899 0.049460556358098984 0.048988267779350281
0.28095903992652893 0.12857720255851746 0.12385913729667664
0.40110951662063599 0.20398238301277161 0.19690051674842834
0.19105027616024017 0.18873690068721771 0.15050601959228516
0.30644825100898743 0.2618861198425293 0.21948972344398499
0.41396543383598328 0.32585161924362183 0.28138375282287598
0.50978749990463257 0.37748581171035767 0.33002576231956482
0.59817653894424438 0.42383775115013123 0.37133356928825378
0.40532487630844116 0.43275260925292969 0.34469464421272278
0.48847028613090515 0.47582757472991943 0.38305845856666565
0.56531828641891479 0.50972485542297363 0.41437646746635437
0.6442832350730896 0.54461091756820679 0.44559654593467712
0.7276872992515564 0.58058720827102661 0.47670090198516846
0.53568774461746216 0.59715390205383301 0.45798194408416748
0.614085853099823 0.63356536626815796 0.48891165852546692
0.69404119253158569 0.67226815223693848 0.52067714929580688
0.78145933151245117 0.71455651521682739 0.55605143308639526
0.86598837375640869 0.75117802619934082 0.5901341438293457
0.6657833456993103 0.76934933662414551 0.57223755121231079
0.74587619304656982 0.80627280473709106 0.60264629125595093
0.83233183622360229 0.84810018539428711 0.63712722063064575
0.92043286561965942 0.88965058326721191 0.67417192459106445
0.97527289390563965 0.92684084177017212 0.70755881071090698
0.0014396219048649073 0.00018095129053108394 0.00096085492987185717
0.080565176904201508 0.019731814041733742 0.040683537721633911
0.19282522797584534 0.079153500497341156 0.10694221407175064
0.31454315781593323 0.15981857478618622 0.18187998235225677
0.43306821584701538 0.23512959480285645 0.25343137979507446
0.22678716480731964 0.22166968882083893 0.20984390377998352
0.33784794807434082 0.29255825281143188 0.2776847779750824
0.43792954087257385 0.35219821333885193 0.33075883984565735
0.52798467874526978 0.39863920211791992 0.3752058744430542
0.61760234832763672 0.44306594133377075 0.4160015881061554
0.42275664210319519 0.45102173089981079 0.39034146070480347
0.50589287281036377 0.49231076240539551 0.42754119634628296
0.58142006397247314 0.52264940738677979 0.45770594477653503
0.66101622581481934 0.56206351518630981 0.48831617832183838
0.74610501527786255 0.59973716735839844 0.52016013860702515
0.55179834365844727 0.61343890428543091 0.50132042169570923
0.63141345977783203 0.64960998296737671 0.5341796875
0.71242082118988037 0.69012981653213501 0.56823307275772095
0.79752975702285767 0.73095673322677612 0.60174083709716797
0.87882667779922485 0.76863580942153931 0.63690590858459473
0.68361455202102661 0.78512883186340332 0.61621761322021484
0.76411998271942139 0.82492387294769287 0.64894700050354004
0.84964281320571899 0.86801564693450928 0.68502014875411987
0.93343108892440796 0.90708130598068237 0.7220117449760437
0.97424948215484619 0.94362872838973999 0.7549782395362854
0.020285423845052719 0.0072843516245484352 0.035876702517271042
0.10960973054170609 0.040555316954851151 0.094142422080039978
0.22942550480365753 0.11517529934644699 0.16870129108428955
0.3472379744052887 0.18914279341697693 0.23999267816543579
0.46313443779945374 0.26089662313461304 0.30948317050933838
0.25491800904273987 0.24979746341705322 0.26682120561599731
0.36678948998451233 0.31926864385604858 0.33210000395774841
0.46255996823310852 0.37385612726211548 0.3828311562538147
0.54950273036956787 0.41614043712615967 0.42373538017272949
0.63777279853820801 0.45864826440811157 0.4637090265750885
0.43852719664573669 0.46337822079658508 0.4346407949924469
0.52122080326080322 0.50519227981567383 0.46926379203796387
0.59633046388626099 0.53937268257141113 0.50005573034286499
0.67693591117858887 0.57548022270202637 0.53288942575454712
0.76349562406539917 0.61792629957199097 0.56973403692245483
0.56752365827560425 0.62927097082138062 0.54517143964767456
0.64735710620880127 0.6668626070022583 0.57853227853775024
0.73312067985534668 0.70706135034561157 0.61747002601623535
0.81318342685699463 0.74728256464004517 0.6491432785987854
0.89513546228408813 0.78875619173049927 0.68688243627548218
0.70347195863723755 0.80273103713989258 0.66278403997421265
0.78478819131851196 0.84197759628295898 0.69775813817977905
0.87025517225265503 0.8849869966506958 0.73523038625717163
0.94771909713745117 0.92496973276138306 0.77113610506057739
0.98069816827774048 0.96295958757400513 0.80355775356292725
0.036795895546674728 0.024202175438404083 0.092335566878318787
0.14071550965309143 0.069465339183807373 0.15377292037010193
0.25945878028869629 0.14155556261539459 0.22573387622833252
0.37487974762916565 0.2156105637550354 0.29522201418876648
0.46592524647712708 0.26669999957084656 0.34484827518463135
0.28467676043510437 0.27985700964927673 0.32455256581306458
0.38956126570701599 0.34475567936897278 0.38541018962860107
0.47933074831962585 0.38810449838638306 0.42763236165046692
0.57301431894302368 0.43776360154151917 0.47322961688041687
0.64314717054367065 0.46420776844024658 0.50030142068862915
0.46152815222740173 0.48771768808364868 0.48706904053688049
0.53928089141845703 0.52291440963745117 0.51796972751617432
0.61681640148162842 0.55581361055374146 0.54888510704040527
0.69871491193771362 0.59604573249816895 0.58274614810943604
0.78285044431686401 0.63316148519515991 0.61830705404281616
0.58659082651138306 0.6507224440574646 0.59445333480834961
0.66631311178207397 0.68638229370117188 0.62802445888519287
0.75060641765594482 0.72687196731567383 0.6654510498046875
0.83550983667373657 0.76749831438064575 0.70000135898590088
0.91599410772323608 0.80603319406509399 0.73813211917877197
0.72214853763580322 0.82125937938690186 0.71178078651428223
0.80392414331436157 0.85895842313766479 0.74872314929962158
0.89032506942749023 0.90273416042327881 0.78613728284835815
0.96923208236694336 0.9434775710105896 0.82189226150512695
0.98793619871139526 0.97661232948303223 0.8518785834312439
