assets/lut/alexjordan contrast with highlights protection.cube
# Created by: G'MIC (https://gmic.eu)
TITLE "contrast_with_highlights_protection"
# LUT size
LUT_3D_SIZE 7
# Data domain
DOMAIN_MIN 0.0 0.0 0.0
DOMAIN_MAX 1.0 1.0 1.0
# LUT data points
0 0 0
0 0 0
0 0 0
0.026299361139535904 0.004179591778665781 0.0044009936973452568
0.13208350539207458 0.023115435615181923 0.017963888123631477
0.28710871934890747 0.041218344122171402 0.039591606706380844
0.47375369071960449 0.05401470884680748 0.051352363079786301
0.0063742692582309246 0.023660263046622276 0.0098758023232221603
0.055096779018640518 0.061644069850444794 0.0063902311958372593
0.18088734149932861 0.10044030845165253 0.010032833553850651
0.32716798782348633 0.12551538646221161 0.011873805895447731
0.4763047993183136 0.14568904042243958 0.025010261684656143
0.61812686920166016 0.16716207563877106 0.046989306807518005
0.76908618211746216 0.1853739470243454 0.056015674024820328
0.019894963130354881 0.25203180313110352 0.0037893408443778753
0.13297222554683685 0.27823582291603088 0.0017234502593055367
0.29554891586303711 0.29336655139923096 0
0.46372956037521362 0.30783817172050476 0.0014662051107734442
0.60362875461578369 0.32586047053337097 0.02759278193116188
0.72822743654251099 0.3525250256061554 0.081397607922554016
0.84566807746887207 0.37629953026771545 0.12158125638961792
0.05025806650519371 0.46014124155044556 0.022668801248073578
0.16917321085929871 0.48107388615608215 0.0089330337941646576
0.33858659863471985 0.49271172285079956 0.0092870378866791725
0.50491553544998169 0.50280630588531494 0.036000076681375504
0.65273553133010864 0.51867210865020752 0.087471082806587219
0.78633147478103638 0.53721803426742554 0.14137245714664459
0.90801942348480225 0.55494517087936401 0.17710909247398376
0.12136361747980118 0.63703501224517822 0.10297978669404984
0.24433930218219757 0.66567987203598022 0.093024246394634247
0.38716080784797668 0.66964668035507202 0.086734816431999207
0.53286635875701904 0.67066442966461182 0.10585517436265945
0.66995865106582642 0.67277401685714722 0.1405738890171051
0.78964006900787354 0.66948139667510986 0.16514402627944946
0.91278910636901855 0.68046480417251587 0.196563720703125
0.19748339056968689 0.78543704748153687 0.18734645843505859
0.30338212847709656 0.79060983657836914 0.16993629932403564
0.42075046896934509 0.79101955890655518 0.15094944834709167
0.54458904266357422 0.79417401552200317 0.14758627116680145
0.65443521738052368 0.77409821748733521 0.14466458559036255
0.76695334911346436 0.76263254880905151 0.15299855172634125
0.90035557746887207 0.78543025255203247 0.19935397803783417
0.27191281318664551 0.94569289684295654 0.26488259434700012
0.36720818281173706 0.93737119436264038 0.24552024900913239
0.47628733515739441 0.93229448795318604 0.22754327952861786
0.58341532945632935 0.93523532152175903 0.20508080720901489
0.68974244594573975 0.92003864049911499 0.20084093511104584
0.80343014001846313 0.9106820821762085 0.21239854395389557
0.93218648433685303 0.92867213487625122 0.2402806282043457
0 0 0
0 0 0
0.0008324118098244071 0.00015707577404100448 0.00038685518666170537
0.045680131763219833 0.0090085044503211975 0.017997518181800842
0.18085744976997375 0.025341393426060677 0.062414940446615219
0.33884546160697937 0.042872767895460129 0.10403451323509216
0.527171790599823 0.053588837385177612 0.13585628569126129
0.0072177066467702389 0.040201824158430099 0.043609619140625
0.074782170355319977 0.07825952023267746 0.075276561081409454
0.21161022782325745 0.10651728510856628 0.10105413943529129
0.36882036924362183 0.12565344572067261 0.11887610703706741
0.52888911962509155 0.14025282859802246 0.13943482935428619
0.65980428457260132 0.16385339200496674 0.16853271424770355
0.79073500633239746 0.18809889256954193 0.19185841083526611
0.011922335252165794 0.26276060938835144 0.11826732754707336
0.12558761239051819 0.28945624828338623 0.12065226584672928
0.30439415574073792 0.30004745721817017 0.10884848237037659
0.48742100596427917 0.30991986393928528 0.1223461702466011
0.64537805318832397 0.32260814309120178 0.1559939980506897
0.76634746789932251 0.34530273079872131 0.20253130793571472
0.8713030219078064 0.37026122212409973 0.24243287742137909
0.032805051654577255 0.47384259104728699 0.15613482892513275
0.14962628483772278 0.49457436800003052 0.14289000630378723
0.32989254593849182 0.50779050588607788 0.13949316740036011
0.5112844705581665 0.51093846559524536 0.16131529211997986
0.6779600977897644 0.52020978927612305 0.19530735909938812
0.81327623128890991 0.53034043312072754 0.23969976603984833
0.92177838087081909 0.54218149185180664 0.2803347110748291
0.098487600684165955 0.64869272708892822 0.22691705822944641
0.21978732943534851 0.6817086935043335 0.21590860188007355
0.37164404988288879 0.68993175029754639 0.20278838276863098
0.52939462661743164 0.6862291693687439 0.20462155342102051
0.67919421195983887 0.68142521381378174 0.21686384081840515
0.80794221162796021 0.67413628101348877 0.2526724636554718
0.92198050022125244 0.67614054679870605 0.29772451519966125
0.17164300382137299 0.78411287069320679 0.29826995730400085
0.27697393298149109 0.80314964056015015 0.27961635589599609
0.39625754952430725 0.80588388442993164 0.24974048137664795
0.52521824836730957 0.80225765705108643 0.23063474893569946
0.65224391222000122 0.78805834054946899 0.22701485455036163
0.78063225746154785 0.78121739625930786 0.25527966022491455
0.90905392169952393 0.79169118404388428 0.30076214671134949
0.25339335203170776 0.95140451192855835 0.37030273675918579
0.35200381278991699 0.95464968681335449 0.35620406270027161
0.46369674801826477 0.94384551048278809 0.33807182312011719
0.5683484673500061 0.94099968671798706 0.30611705780029297
0.68830591440200806 0.9325411319732666 0.30897864699363708
0.80910098552703857 0.9260362982749939 0.31574919819831848
0.93728554248809814 0.93657082319259644 0.33343762159347534
0 0 0
0 0 0
0.0079078227281570435 0.0013350542867556214 0.0079011954367160797
0.076574765145778656 0.013872318901121616 0.057122908532619476
0.22365818917751312 0.03181973472237587 0.12597881257534027
0.39287155866622925 0.044330507516860962 0.18541128933429718
0.56967204809188843 0.055003207176923752 0.23083752393722534
0.011702758260071278 0.053353253751993179 0.08921419084072113
0.086484514176845551 0.089286297559738159 0.16857396066188812
0.22928434610366821 0.10983458906412125 0.22684423625469208
0.39888128638267517 0.12497516721487045 0.26505774259567261
0.55735915899276733 0.14127197861671448 0.28386235237121582
0.69496750831604004 0.1637255996465683 0.30470573902130127
0.81565183401107788 0.18952947854995728 0.32399526238441467
0.0064741545356810093 0.27290940284729004 0.26934882998466492
0.11363739520311356 0.29424440860748291 0.29719153046607971
0.29970312118530273 0.30179065465927124 0.29869386553764343
0.49716982245445251 0.30698186159133911 0.30662122368812561
0.67227327823638916 0.32110044360160828 0.32333379983901978
0.80529391765594482 0.34123402833938599 0.34597855806350708
0.90635687112808228 0.36553633213043213 0.36778655648231506
0.024841278791427612 0.48192763328552246 0.32572489976882935
0.1356855183839798 0.49921369552612305 0.3253723680973053
0.32157778739929199 0.51385939121246338 0.32328945398330688
0.51891988515853882 0.51854008436203003 0.32888507843017578
0.69856834411621094 0.51942580938339233 0.3408738374710083
0.84300774335861206 0.52453958988189697 0.36340275406837463
0.94904094934463501 0.53187286853790283 0.38987439870834351
0.090678542852401733 0.6618427038192749 0.37902060151100159
0.20242483913898468 0.68915188312530518 0.37055167555809021
0.35245147347450256 0.69788885116577148 0.35090738534927368
0.52018505334854126 0.69525551795959473 0.33816805481910706
0.67772245407104492 0.67724829912185669 0.32965177297592163
0.82752424478530884 0.66865628957748413 0.35136705636978149
0.94529277086257935 0.66566693782806396 0.38367629051208496
0.16141392290592194 0.79905003309249878 0.42568585276603699
0.24744643270969391 0.81392788887023926 0.39750447869300842
0.35406777262687683 0.8089255690574646 0.35189035534858704
0.49133983254432678 0.80576556921005249 0.32608082890510559
0.62600064277648926 0.78481608629226685 0.3052227795124054
0.7814096212387085 0.78330701589584351 0.3346465528011322
0.92432409524917603 0.78946381807327271 0.37475317716598511
0.24342651665210724 0.94727218151092529 0.48285120725631714
0.32524541020393372 0.95235401391983032 0.45694208145141602
0.41935688257217407 0.94835120439529419 0.42072874307632446
0.53376370668411255 0.9498637318611145 0.39179202914237976
0.65333777666091919 0.9357636570930481 0.37157303094863892
0.7951056957244873 0.93354111909866333 0.38226804137229919
0.94207501411437988 0.94348651170730591 0.40852153301239014
0 0 0
0 0 0
0.020279364660382271 0.0038112564943730831 0.027127807959914207
0.11347661912441254 0.018556796014308929 0.11335444450378418
0.2737286388874054 0.03101004846394062 0.21229016780853271
0.43038541078567505 0.045198909938335419 0.28340697288513184
0.60001891851425171 0.054097734391689301 0.3373202383518219
0.016772640869021416 0.065118052065372467 0.14926084876060486
0.096473321318626404 0.099915191531181335 0.25859242677688599
0.23772460222244263 0.1161312460899353 0.35206913948059082
0.40397569537162781 0.129473015666008 0.40284287929534912
0.57431936264038086 0.14207981526851654 0.43443092703819275
0.71154296398162842 0.16478948295116425 0.44930604100227356
0.8267662525177002 0.19100598990917206 0.45701202750205994
0.0053004096262156963 0.27552735805511475 0.40859636664390564
0.1189085990190506 0.2957477867603302 0.45805048942565918
0.30615988373756409 0.30328473448753357 0.48979324102401733
0.50232058763504028 0.31057122349739075 0.50172567367553711
0.6801908016204834 0.32186692953109741 0.50160026550292969
0.81610637903213501 0.34323498606681824 0.50136661529541016
0.92033594846725464 0.36871063709259033 0.50681477785110474
0.02119993232190609 0.48361322283744812 0.48138710856437683
0.14289590716362 0.49983710050582886 0.50000858306884766
0.32435071468353271 0.51273262500762939 0.51498281955718994
0.5198180079460144 0.52219712734222412 0.52000594139099121
0.71009653806686401 0.51882946491241455 0.52068060636520386
0.85690605640411377 0.52109098434448242 0.51739275455474854
0.97088402509689331 0.53052765130996704 0.5267176628112793
0.098550610244274139 0.6666487455368042 0.52650851011276245
0.20660474896430969 0.68892580270767212 0.53057163953781128
0.34669861197471619 0.70097029209136963 0.52311694622039795
0.50340533256530762 0.69617342948913574 0.50148147344589233
0.67654043436050415 0.67543083429336548 0.48661723732948303
0.8346552848815918 0.65840345621109009 0.48329553008079529
0.96540671586990356 0.65467363595962524 0.4964640736579895
0.15434703230857849 0.78525847196578979 0.53946471214294434
0.24117732048034668 0.80972743034362793 0.53011661767959595
0.34364551305770874 0.81882023811340332 0.50247663259506226
0.46710106730461121 0.80893462896347046 0.46468180418014526
0.61567103862762451 0.79102510213851929 0.4392600953578949
0.7817874550819397 0.78146648406982422 0.4422757625579834
0.93820863962173462 0.78221946954727173 0.46509870886802673
0.24234265089035034 0.93723267316818237 0.59727299213409424
0.3233012855052948 0.95430058240890503 0.58105993270874023
0.39660307765007019 0.95483160018920898 0.53773915767669678
0.50107365846633911 0.95421689748764038 0.49962049722671509
0.62752711772918701 0.94351315498352051 0.47093483805656433
0.78429549932479858 0.94233173131942749 0.47032022476196289
0.95051425695419312 0.95109331607818604 0.49460980296134949
0 0 0
0.0011974259978160262 0.00034143784432671964 0.0026028801221400499
0.035246517509222031 0.010047090239822865 0.059381477534770966
0.14500851929187775 0.024523431435227394 0.18037952482700348
0.29961469769477844 0.036873146891593933 0.29583817720413208
0.45631492137908936 0.050556495785713196 0.37658578157424927
0.64737904071807861 0.050245068967342377 0.4546380341053009
0.023154808208346367 0.079272910952568054 0.22178687155246735
0.10619671642780304 0.11148350685834885 0.35349732637405396
0.2435244619846344 0.12785875797271729 0.46507886052131653
0.40924686193466187 0.13600693643093109 0.53973472118377686
0.57927387952804565 0.14827628433704376 0.58054709434509277
0.71646857261657715 0.17212127149105072 0.58894163370132446
0.84423977136611938 0.19373896718025208 0.59432673454284668
0.020062301307916641 0.27678379416465759 0.52579391002655029
0.14095838367938995 0.29838377237319946 0.59842211008071899
0.31037265062332153 0.31010079383850098 0.64800471067428589
0.49719035625457764 0.31444588303565979 0.67241150140762329
0.68062669038772583 0.32616093754768372 0.68046444654464722
0.82471054792404175 0.35053807497024536 0.67234331369400024
0.9352765679359436 0.37568581104278564 0.66096806526184082
0.050160907208919525 0.48329776525497437 0.61866515874862671
0.17186079919338226 0.50230127573013306 0.6564674973487854
0.33254784345626831 0.51245450973510742 0.68945658206939697
0.51729422807693481 0.51705771684646606 0.70688390731811523
0.71146100759506226 0.51732838153839111 0.70990705490112305
0.86894333362579346 0.52445775270462036 0.70026051998138428
0.98824656009674072 0.53932511806488037 0.69665676355361938
0.11259815096855164 0.65920376777648926 0.65697282552719116
0.22277256846427917 0.68252098560333252 0.6811332106590271
0.35162907838821411 0.69606995582580566 0.69674462080001831
0.50204944610595703 0.68925446271896362 0.69185924530029297
0.67155420780181885 0.66819185018539429 0.67045807838439941
0.83616006374359131 0.65103781223297119 0.65380889177322388
0.97963547706604004 0.64981180429458618 0.65166890621185303
0.14740142226219177 0.77326518297195435 0.65450531244277954
0.24448134005069733 0.80204969644546509 0.66744488477706909
0.33845016360282898 0.81210249662399292 0.65746968984603882
0.45179986953735352 0.80033725500106812 0.62835854291915894
0.60059040784835815 0.78547346591949463 0.60302925109863281
0.7756197452545166 0.77524131536483765 0.59254759550094604
0.95125597715377808 0.77571803331375122 0.60096335411071777
0.22886954247951508 0.92721426486968994 0.70676058530807495
0.31514379382133484 0.94828838109970093 0.70376980304718018
0.38100108504295349 0.94820785522460938 0.66785359382629395
0.47384381294250488 0.94387704133987427 0.63018923997879028
0.60561823844909668 0.94388753175735474 0.60533809661865234
0.77543658018112183 0.95180410146713257 0.60099846124649048
0.95975804328918457 0.96000850200653076 0.61898994445800781
0 0 0
0.0056428946554660797 0.0019756241235882044 0.013873575255274773
0.051184188574552536 0.01529591903090477 0.10574153810739517
0.16673620045185089 0.032622244209051132 0.25080028176307678
0.31657600402832031 0.046295735985040665 0.37948250770568848
0.49263301491737366 0.052494078874588013 0.4930134117603302
0.66955065727233887 0.05876922607421875 0.5686449408531189
0.031955480575561523 0.092625230550765991 0.2931901216506958
0.12043286859989166 0.12043343484401703 0.44489812850952148
0.25052261352539062 0.13620896637439728 0.57001751661300659
0.4103720486164093 0.14587263762950897 0.6573907732963562
0.57284015417098999 0.15969718992710114 0.70624798536300659
0.71402651071548462 0.18361026048660278 0.71879458427429199
0.84585601091384888 0.20679689943790436 0.72261422872543335
0.041366696357727051 0.28050336241722107 0.62423235177993774
0.16733567416667938 0.30163389444351196 0.71114218235015869
0.32123976945877075 0.31556642055511475 0.77462679147720337
0.49085664749145508 0.32351768016815186 0.8086855411529541
0.66768813133239746 0.33689051866531372 0.82681512832641602
0.82038652896881104 0.36245492100715637 0.82397580146789551
0.94248670339584351 0.38595941662788391 0.80899995565414429
0.084331691265106201 0.48083913326263428 0.72558242082595825
0.20671968162059784 0.50041496753692627 0.77858650684356689
0.34927293658256531 0.51441437005996704 0.82590717077255249
0.51365447044372559 0.51731878519058228 0.8546183705329895
0.6963810920715332 0.51705425977706909 0.86832910776138306
0.86706161499023438 0.52743989229202271 0.86995261907577515
0.99251806735992432 0.53934264183044434 0.85582524538040161
0.140654057264328 0.65869534015655518 0.77884727716445923
0.25564509630203247 0.67761725187301636 0.81377780437469482
0.36549794673919678 0.68506854772567749 0.83991783857345581
0.50184345245361328 0.67846614122390747 0.8537452220916748
0.65783250331878662 0.6564449667930603 0.84461408853530884
0.82779186964035034 0.6430363655090332 0.83373141288757324
0.98288118839263916 0.64602243900299072 0.82440680265426636
0.16383002698421478 0.78122085332870483 0.77997028827667236
0.2651233971118927 0.79624491930007935 0.79476428031921387
0.35048148036003113 0.80096995830535889 0.80050325393676758
0.46418994665145874 0.79913949966430664 0.8015739917755127
0.5982433557510376 0.7805752158164978 0.78571349382400513
0.76735252141952515 0.76641881465911865 0.77365958690643311
0.95776146650314331 0.77161598205566406 0.77640813589096069
0.23143510520458221 0.9327932596206665 0.82519090175628662
0.31821486353874207 0.9424668550491333 0.82255572080612183
0.38525986671447754 0.93938738107681274 0.8006322979927063
0.4811115562915802 0.94320476055145264 0.78633970022201538
0.60775077342987061 0.94753241539001465 0.7725834846496582
0.77313005924224854 0.95824593305587769 0.76841264963150024
0.96161377429962158 0.96050351858139038 0.78177440166473389
0.00059217563830316067 0.00069077435182407498 0.0036038118414580822
0.011509734205901623 0.0066770813427865505 0.036695249378681183
0.074237674474716187 0.026410870254039764 0.1739262193441391
0.19392094016075134 0.043497450649738312 0.33324211835861206
0.36022680997848511 0.048838447779417038 0.50475198030471802
0.53543949127197266 0.05299416184425354 0.62451815605163574
0.67082756757736206 0.073764517903327942 0.66835910081863403
0.043901480734348297 0.10862340033054352 0.39423450827598572
0.1387544572353363 0.13542073965072632 0.53059172630310059
0.26078337430953979 0.15270578861236572 0.65184891223907471
0.39924728870391846 0.16614410281181335 0.72918826341629028
0.55382812023162842 0.17707791924476624 0.79428207874298096
0.69763088226318359 0.19646532833576202 0.81974369287490845
0.81496459245681763 0.22631253302097321 0.81531220674514771
0.051747623831033707 0.29120495915412903 0.74044585227966309
0.19428417086601257 0.31085970997810364 0.78711807727813721
0.33605507016181946 0.32747310400009155 0.85690248012542725
0.48280435800552368 0.33995750546455383 0.89867854118347168
0.64103114604949951 0.35155051946640015 0.92397165298461914
0.79194879531860352 0.37530720233917236 0.9291684627532959
0.92094022035598755 0.39886528253555298 0.92138397693634033
0.10591328889131546 0.48391807079315186 0.83597826957702637
0.23842804133892059 0.49983671307563782 0.86666607856750488
0.37163972854614258 0.51526790857315063 0.92836374044418335
0.51536864042282104 0.52077776193618774 0.96768742799758911
0.677845299243927 0.52080792188644409 0.98631858825683594
0.84776705503463745 0.53119480609893799 0.99336338043212891
0.98791080713272095 0.54324662685394287 0.98916769027709961
0.16056740283966064 0.66266906261444092 0.8938140869140625
0.27596119046211243 0.66871577501296997 0.91570532321929932
0.3900797963142395 0.68067026138305664 0.95919579267501831
0.51519381999969482 0.67689931392669678 0.98471444845199585
0.65909308195114136 0.65735799074172974 0.9866795539855957
0.82359778881072998 0.64625048637390137 0.98614269495010376
0.97974586486816406 0.64840221405029297 0.98216944932937622
0.19677899777889252 0.79739636182785034 0.91020387411117554
0.29203295707702637 0.78906798362731934 0.90677523612976074
0.38756036758422852 0.80062192678451538 0.93521213531494141
0.49761262536048889 0.80477917194366455 0.95878332853317261
0.62581568956375122 0.78887617588043213 0.95831477642059326
0.78539949655532837 0.77418398857116699 0.95538175106048584
0.95794624090194702 0.77118825912475586 0.95745754241943359
0.2517341673374176 0.94336694478988647 0.94579601287841797
0.33563119173049927 0.93723881244659424 0.93503201007843018
0.41600233316421509 0.94047576189041138 0.93638217449188232
0.5150073766708374 0.94955217838287354 0.94563841819763184
0.63815009593963623 0.95286780595779419 0.94707399606704712
0.79191774129867554 0.95599532127380371 0.9498637318611145
0.96414637565612793 0.9621891975402832 0.96292233467102051
