assets/lut/alexjordan magenta day.cube
# Created by: G'MIC (https://gmic.eu)
TITLE "magenta_day"
# LUT size
LUT_3D_SIZE 7
# Data domain
DOMAIN_MIN 0.0 0.0 0.0
DOMAIN_MAX 1.0 1.0 1.0
# LUT data points
0.0014715456636622548 0.0014363457448780537 0.0007263332954607904
0.040853641927242279 0.0017907535657286644 0.0017751207342371345
0.10764668881893158 3.6621095205191523e-05 0.0012613931903615594
0.19324374198913574 4.0929458918981254e-05 0.00057444855337962508
0.28792604804039001 0.00076958152931183577 0.00042509191553108394
0.38955175876617432 0.0021903542801737785 0.00076545268530026078
0.49653655290603638 0.0062361476011574268 0.0031475143041461706
0.017698580399155617 0.056156516075134277 0.016140073537826538
0.074590854346752167 0.066155634820461273 0.025732241570949554
0.14906072616577148 0.069913528859615326 0.030578119680285454
0.23951806128025055 0.077521122992038727 0.034556340426206589
0.33916547894477844 0.086599789559841156 0.038885287940502167
0.44528001546859741 0.09471999853849411 0.047955591231584549
0.55596375465393066 0.105515256524086 0.061652582138776779
0.03586437925696373 0.15532343089580536 0.037034548819065094
0.10718057304620743 0.17027182877063751 0.053579725325107574
0.19224141538143158 0.18172946572303772 0.067708246409893036
0.28827610611915588 0.19387383759021759 0.079020418226718903
0.39257681369781494 0.20701766014099121 0.088662780821323395
0.50267356634140015 0.21865186095237732 0.1017659530043602
0.61664259433746338 0.23022997379302979 0.11957750469446182
0.068792305886745453 0.28251180052757263 0.069321967661380768
0.14895834028720856 0.29759788513183594 0.089212186634540558
0.23902176320552826 0.31324732303619385 0.10898112505674362
0.33836627006530762 0.32879084348678589 0.12540274858474731
0.4456726610660553 0.34399288892745972 0.13963533937931061
0.55961054563522339 0.35771244764328003 0.15500742197036743
0.67667460441589355 0.37244701385498047 0.1735687255859375
0.10909727215766907 0.42622268199920654 0.10549738258123398
0.193828284740448 0.44242334365844727 0.12781377136707306
0.28700041770935059 0.46072974801063538 0.15180055797100067
0.38693314790725708 0.47879326343536377 0.17266684770584106
0.49573317170143127 0.49532783031463623 0.19086241722106934
0.61291700601577759 0.51033645868301392 0.20928843319416046
0.73349606990814209 0.52673721313476562 0.22932194173336029
0.1506953090429306 0.58231312036514282 0.14311511814594269
0.23814207315444946 0.59993183612823486 0.16671425104141235
0.33163860440254211 0.62033933401107788 0.19336463510990143
0.43127667903900146 0.64104151725769043 0.21845878660678864
0.54052329063415527 0.65998631715774536 0.24018649756908417
0.65991860628128052 0.67689776420593262 0.26041170954704285
0.78288465738296509 0.69506615400314331 0.28117349743843079
0.19375832378864288 0.74776244163513184 0.18435922265052795
0.28254154324531555 0.76681226491928101 0.20746025443077087
0.3757801353931427 0.78874707221984863 0.23504512012004852
0.47472470998764038 0.81184893846511841 0.26301005482673645
0.58383709192276001 0.8333362340927124 0.28793513774871826
0.70443630218505859 0.85247242450714111 0.3087802529335022
0.82856273651123047 0.87266147136688232 0.3308386504650116
0.0011496898951008916 0.00041758219595067203 0.023671558126807213
0.04650421068072319 0.0052297702059149742 0.028819439932703972
0.11489761620759964 0.0017831390723586082 0.031974013894796371
0.19804847240447998 0.0015305463457480073 0.033205173909664154
0.29146701097488403 0.0033608530648052692 0.032382350414991379
0.39198973774909973 0.0075981440022587776 0.031718745827674866
0.49830427765846252 0.016201304271817207 0.036856260150671005
0.019937088713049889 0.060068197548389435 0.049797162413597107
0.081654585897922516 0.071929767727851868 0.060084085911512375
0.15762753784656525 0.075165063142776489 0.06981678307056427
0.2463534027338028 0.083449013531208038 0.078694179654121399
0.34495183825492859 0.094404198229312897 0.084206901490688324
0.45001369714736938 0.10592452436685562 0.090680547058582306
0.55992919206619263 0.11977199465036392 0.10161437839269638
0.042537912726402283 0.16205570101737976 0.081407271325588226
0.11446230858564377 0.17574684321880341 0.09795728325843811
0.19964054226875305 0.18661338090896606 0.11390341818332672
0.29583549499511719 0.19941090047359467 0.12700410187244415
0.39989215135574341 0.21384279429912567 0.1367814689874649
0.50964164733886719 0.22754941880702972 0.14755535125732422
0.62304294109344482 0.24196167290210724 0.1630575954914093
0.075537599623203278 0.28712967038154602 0.11950450390577316
0.15473082661628723 0.30316480994224548 0.13930176198482513
0.24562656879425049 0.31943058967590332 0.15960916876792908
0.34611836075782776 0.33552733063697815 0.17626690864562988
0.45418807864189148 0.35148358345031738 0.18957753479480743
0.56820881366729736 0.36652770638465881 0.20286677777767181
0.68473798036575317 0.38288477063179016 0.21949928998947144
0.11481538414955139 0.42962291836738586 0.15800398588180542
0.19945447146892548 0.44736325740814209 0.1803213357925415
0.29315298795700073 0.46700817346572876 0.2038930356502533
0.39467945694923401 0.48639193177223206 0.22426100075244904
0.50474953651428223 0.50416755676269531 0.24160487949848175
0.62225937843322754 0.52046054601669312 0.25843545794487
0.74225789308547974 0.53816425800323486 0.27759113907814026
0.15660382807254791 0.58565831184387207 0.19616682827472687
0.24417714774608612 0.60482704639434814 0.21910163760185242
0.33822000026702881 0.62694579362869263 0.24542905390262604
0.43943452835083008 0.64939767122268677 0.26980844140052795
0.55021274089813232 0.66992080211639404 0.29075855016708374
0.66966623067855835 0.68854731321334839 0.31018874049186707
0.79222381114959717 0.70759803056716919 0.33145898580551147
0.19978658854961395 0.75159633159637451 0.23637360334396362
0.28871801495552063 0.77218806743621826 0.25947067141532898
0.38273417949676514 0.79602682590484619 0.28708848357200623
0.48344692587852478 0.82062065601348877 0.31442227959632874
0.59381282329559326 0.84380698204040527 0.33835592865943909
0.71394723653793335 0.86508095264434814 0.35945165157318115
0.83755731582641602 0.88605839014053345 0.38260412216186523
0.00055577897001057863 0.00013786765339318663 0.074571274220943451
0.049006741493940353 0.0040710447356104851 0.080386519432067871
0.11978152394294739 0.0040894900448620319 0.08691888302564621
0.20387731492519379 0.0042103487066924572 0.090687789022922516
0.29737547039985657 0.0069176466204226017 0.091958798468112946
0.39784717559814453 0.013002896681427956 0.092778436839580536
0.50397825241088867 0.023995043709874153 0.099701449275016785
0.02227039635181427 0.062597773969173431 0.1063077300786972
0.085590675473213196 0.077324464917182922 0.11865600943565369
0.16416683793067932 0.080869980156421661 0.13036711513996124
0.25463700294494629 0.089225322008132935 0.13914711773395538
0.35332450270652771 0.10077573359012604 0.14560969173908234
0.45797884464263916 0.11324506253004074 0.15255512297153473
0.56713187694549561 0.12961189448833466 0.16261762380599976
0.049649674445390701 0.16848602890968323 0.14338144659996033
0.12052878737449646 0.18402442336082458 0.16076870262622833
0.20763358473777771 0.19428464770317078 0.17709682881832123
0.30547168850898743 0.20653256773948669 0.19004733860492706
0.4100189208984375 0.21952773630619049 0.20073208212852478
0.51933497190475464 0.23276326060295105 0.21229805052280426
0.63186407089233398 0.25105011463165283 0.22474382817745209
0.082687601447105408 0.29420498013496399 0.18401853740215302
0.1620195060968399 0.31106781959533691 0.203746497631073
0.25398862361907959 0.32779529690742493 0.22346819937229156
0.35598701238632202 0.34387284517288208 0.23972973227500916
0.46497920155525208 0.35877171158790588 0.25338217616081238
0.57901990413665771 0.37396073341369629 0.26664859056472778
0.69496685266494751 0.39253789186477661 0.28179135918617249
0.12194248288869858 0.43537881970405579 0.22391282021999359
0.20663854479789734 0.45391282439231873 0.24588382244110107
0.30089905858039856 0.47499516606330872 0.26737195253372192
0.40437230467796326 0.49528473615646362 0.28656631708145142
0.51599138975143433 0.51363557577133179 0.30381679534912109
0.63410991430282593 0.53046721220016479 0.32137855887413025
0.7538570761680603 0.54882758855819702 0.34176522493362427
0.16397571563720703 0.59108948707580566 0.25976800918579102
0.25164687633514404 0.61135309934616089 0.28272286057472229
0.34652644395828247 0.63508063554763794 0.30772846937179565
0.44971820712089539 0.65892046689987183 0.33055999875068665
0.56210994720458984 0.68080323934555054 0.35123544931411743
0.68157398700714111 0.70081144571304321 0.37129923701286316
0.80368977785110474 0.72071486711502075 0.39432451128959656
0.20738328993320465 0.7575950026512146 0.29804405570030212
0.29675617814064026 0.77949446439743042 0.32108154892921448
0.39173668622970581 0.80471080541610718 0.3485356867313385
0.49448868632316589 0.83079975843429565 0.37466150522232056
0.60614413022994995 0.85555505752563477 0.39796370267868042
0.72578030824661255 0.87874847650527954 0.41970637440681458
0.84817558526992798 0.90119266510009766 0.44370070099830627
0.00025114172603935003 0.00035615809611044824 0.14588397741317749
0.047737795859575272 0.0080648381263017654 0.1529143750667572
0.12174326926469803 0.010162967257201672 0.16033646464347839
0.20847474038600922 0.0087522473186254501 0.16543681919574738
0.30365809798240662 0.010760737583041191 0.16912271082401276
0.40531983971595764 0.016714343801140785 0.17451825737953186
0.51210141181945801 0.027467047795653343 0.18584886193275452
0.023579003289341927 0.067552141845226288 0.18144367635250092
0.089052252471446991 0.08147062361240387 0.19533437490463257
0.16935256123542786 0.088555790483951569 0.20750947296619415
0.26216533780097961 0.097596064209938049 0.21544109284877777
0.36227124929428101 0.10793175548315048 0.22285041213035583
0.46714425086975098 0.1196640282869339 0.23219598829746246
0.57618093490600586 0.13623270392417908 0.24425986409187317
0.05532277375459671 0.17488685250282288 0.22040706872940063
0.12777018547058105 0.18946228921413422 0.23761735856533051
0.21611437201499939 0.20171104371547699 0.25472709536552429
0.31547096371650696 0.21485953032970428 0.26730185747146606
0.42048156261444092 0.22696439921855927 0.27849897742271423
0.52983903884887695 0.24015168845653534 0.29137369990348816
0.64167332649230957 0.25943973660469055 0.30465614795684814
0.089699327945709229 0.30163130164146423 0.2636469304561615
0.16999116539955139 0.31883919239044189 0.28238189220428467
0.26330459117889404 0.33626115322113037 0.30097654461860657
0.36665526032447815 0.35258275270462036 0.31717854738235474
0.47623181343078613 0.3670591413974762 0.33165261149406433
0.59039652347564697 0.38229823112487793 0.34647464752197266
0.70572859048843384 0.4013742208480835 0.36371985077857971
0.12936455011367798 0.44221663475036621 0.30628308653831482
0.21479730308055878 0.46092107892036438 0.3275703489780426
0.31016486883163452 0.48351868987083435 0.34578028321266174
0.41480007767677307 0.50465697050094604 0.3640320897102356
0.52728772163391113 0.5231393575668335 0.38197025656700134
0.64580750465393066 0.54016953706741333 0.40128791332244873
0.76541715860366821 0.55835753679275513 0.42449694871902466
0.17144057154655457 0.59820914268493652 0.34082674980163574
0.25981611013412476 0.6190493106842041 0.36315310001373291
0.35551556944847107 0.64401638507843018 0.38590294122695923
0.46005597710609436 0.6690363883972168 0.40746143460273743
0.57339674234390259 0.69169473648071289 0.42836752533912659
0.69351965188980103 0.71188640594482422 0.45065534114837646
0.81523305177688599 0.73147088289260864 0.47614526748657227
0.21512158215045929 0.76527392864227295 0.37641516327857971
0.30515393614768982 0.787850022315979 0.39984577894210815
0.4009840190410614 0.8142210841178894 0.42639601230621338
0.50486695766448975 0.84157150983810425 0.45103469491004944
0.61750739812850952 0.8673478364944458 0.47440412640571594
0.73742103576660156 0.89069527387619019 0.49823036789894104
0.85938340425491333 0.9125673770904541 0.52538818120956421
0.00013786765339318663 0.00026478487416170537 0.23433969914913177
0.047429148107767105 0.0076906392350792885 0.24196904897689819
0.12303492426872253 0.01304098404943943 0.24985489249229431
0.21132728457450867 0.012898942455649376 0.25593599677085876
0.30866706371307373 0.014409158378839493 0.2622370719909668
0.4119267463684082 0.019712232053279877 0.27147087454795837
0.51984065771102905 0.030441328883171082 0.28605857491493225
0.025564141571521759 0.070162862539291382 0.27126705646514893
0.093513712286949158 0.083965480327606201 0.28670713305473328
0.17411823570728302 0.096773765981197357 0.29801744222640991
0.26833558082580566 0.10635694861412048 0.30580276250839233
0.36968636512756348 0.11551681160926819 0.31432047486305237
0.47505733370780945 0.12723091244697571 0.32554298639297485
0.58435326814651489 0.14294758439064026 0.34073212742805481
0.062088295817375183 0.1787705272436142 0.31399703025817871
0.13647401332855225 0.19302737712860107 0.33048179745674133
0.22426320612430573 0.2080526202917099 0.34577241539955139
0.32390239834785461 0.22238817811012268 0.3581593930721283
0.4295697808265686 0.23529478907585144 0.37000685930252075
0.53844195604324341 0.25021255016326904 0.38261821866035461
0.64988237619400024 0.26905551552772522 0.39814305305480957
0.097557798027992249 0.30748972296714783 0.35996511578559875
0.17919191718101501 0.3250901997089386 0.37613040208816528
0.27285265922546387 0.34330463409423828 0.39259868860244751
0.37601646780967712 0.35993343591690063 0.4100860059261322
0.48548373579978943 0.37507143616676331 0.42606824636459351
0.59899729490280151 0.39169982075691223 0.4405437707901001
0.71367794275283813 0.41129893064498901 0.45815521478652954
0.13620635867118835 0.45034778118133545 0.40402844548225403
0.22287951409816742 0.46987321972846985 0.42231482267379761
0.31917676329612732 0.49219200015068054 0.4400615394115448
0.42409735918045044 0.51286667585372925 0.45994135737419128
0.5367581844329834 0.53153210878372192 0.47908958792686462
0.65460604429244995 0.54962682723999023 0.49769419431686401
0.77261149883270264 0.56866729259490967 0.51975661516189575
0.17795872688293457 0.6068950891494751 0.44181478023529053
0.26728445291519165 0.62818509340286255 0.46175095438957214
0.3640289306640625 0.6531529426574707 0.4832155704498291
0.46919310092926025 0.67824858427047729 0.50464791059494019
0.5828741192817688 0.70098638534545898 0.52586817741394043
0.70294815301895142 0.72135025262832642 0.5486176609992981
0.82357627153396606 0.74106794595718384 0.57450836896896362
0.2214246541261673 0.77392667531967163 0.48127093911170959
0.31274133920669556 0.79680120944976807 0.50103992223739624
0.4096674919128418 0.82361304759979248 0.52464073896408081
0.51398909091949463 0.85166835784912109 0.54726576805114746
0.62699353694915771 0.87764847278594971 0.57046616077423096
0.7474830150604248 0.89993172883987427 0.59716254472732544
0.869609534740448 0.92108035087585449 0.62680786848068237
0.00013786765339318663 0 0.33968809247016907
0.04836629331111908 0.0026627932675182819 0.34739059209823608
0.123757503926754 0.0084680141881108284 0.35514965653419495
0.21162289381027222 0.011947347782552242 0.36229404807090759
0.3110809326171875 0.015656130388379097 0.37059611082077026
0.41664671897888184 0.021850990131497383 0.3823511004447937
0.52606803178787231 0.033017762005329132 0.39909759163856506
0.028083367273211479 0.068594194948673248 0.3811071515083313
0.098450981080532074 0.08517041802406311 0.39331904053688049
0.17784826457500458 0.099941372871398926 0.40412646532058716
0.27090716361999512 0.11112655699253082 0.41295617818832397
0.37330403923988342 0.12096307426691055 0.42305782437324524
0.48020410537719727 0.13292263448238373 0.4360809326171875
0.59054297208786011 0.14833378791809082 0.45337536931037903
0.068688459694385529 0.18039286136627197 0.42737036943435669
0.14421437680721283 0.19695641100406647 0.44133827090263367
0.23050239682197571 0.21388168632984161 0.45469909906387329
0.32874408364295959 0.22868967056274414 0.46733817458152771
0.43440929055213928 0.24209406971931458 0.48039832711219788
0.5438804030418396 0.25690290331840515 0.49420666694641113
0.65585130453109741 0.27511385083198547 0.51166272163391113
0.10371635109186172 0.31228834390640259 0.47460895776748657
0.18623323738574982 0.33036994934082031 0.48992916941642761
0.27961480617523193 0.34945425391197205 0.50478553771972656
0.38218873739242554 0.36581900715827942 0.52318519353866577
0.49146398901939392 0.38104769587516785 0.5403018593788147
0.60475432872772217 0.39724642038345337 0.55528700351715088
0.71915161609649658 0.41614916920661926 0.5736091136932373
0.1418965607881546 0.45859426259994507 0.51931214332580566
0.22879710793495178 0.47817304730415344 0.53698313236236572
0.32594093680381775 0.49921950697898865 0.55539000034332275
0.43151375651359558 0.51861900091171265 0.57762229442596436
0.54385024309158325 0.53674757480621338 0.59755456447601318
0.66050547361373901 0.55484902858734131 0.61480712890625
0.77771461009979248 0.57435661554336548 0.63533347845077515
0.18329395353794098 0.61651742458343506 0.55984973907470703
0.27356526255607605 0.63733649253845215 0.57907718420028687
0.37174347043037415 0.66081053018569946 0.60078996419906616
0.4777795672416687 0.68434160947799683 0.62394416332244873
0.59123915433883667 0.70658332109451294 0.64546221494674683
0.71037065982818604 0.72718685865402222 0.6664167046546936
0.83011078834533691 0.74793249368667603 0.69033652544021606
0.22775241732597351 0.78362113237380981 0.60168492794036865
0.32009881734848022 0.80583363771438599 0.62027966976165771
0.41851836442947388 0.83144748210906982 0.6424441933631897
0.52374088764190674 0.85852015018463135 0.66502970457077026
0.6369774341583252 0.88406234979629517 0.68824225664138794
0.75699365139007568 0.90666300058364868 0.71430885791778564
0.8782426118850708 0.92863208055496216 0.74273473024368286
0.00013786765339318663 0 0.45886930823326111
0.048688732087612152 0.00059150246670469642 0.4655303955078125
0.12439926713705063 0.0047160726971924305 0.47348704934120178
0.21172128617763519 0.010088946670293808 0.4818938672542572
0.31328901648521423 0.01569734513759613 0.49192547798156738
0.42081892490386963 0.023630717769265175 0.50516194105148315
0.53152632713317871 0.036335844546556473 0.52296793460845947
0.02843259833753109 0.066726237535476685 0.50498175621032715
0.10122305154800415 0.084369346499443054 0.51471841335296631
0.18010140955448151 0.10069294273853302 0.52482062578201294
0.27172785997390747 0.11379363387823105 0.53499120473861694
0.37480050325393677 0.12518945336341858 0.54650962352752686
0.48372450470924377 0.13765335083007812 0.56084990501403809
0.59542006254196167 0.15366540849208832 0.57905620336532593
0.072704121470451355 0.18324322998523712 0.55385452508926392
0.14830400049686432 0.20103633403778076 0.56691098213195801
0.23385545611381531 0.21893726289272308 0.57925689220428467
0.33089098334312439 0.2342848926782608 0.59235560894012451
0.43665161728858948 0.24806363880634308 0.60644745826721191
0.54722422361373901 0.26225453615188599 0.62199580669403076
0.66013425588607788 0.27999868988990784 0.64049607515335083
0.10759803652763367 0.31895351409912109 0.60211861133575439
0.18986962735652924 0.33641830086708069 0.61920076608657837
0.28311869502067566 0.35488742589950562 0.6345633864402771
0.38576576113700867 0.37144589424133301 0.65183472633361816
0.49500727653503418 0.38644501566886902 0.66896539926528931
0.60819751024246216 0.40146747231483459 0.68587011098861694
0.72318428754806519 0.41922172904014587 0.70549464225769043
0.14597325026988983 0.46775063872337341 0.64726632833480835
0.23279644548892975 0.48604455590248108 0.6671750545501709
0.33079060912132263 0.50542646646499634 0.68663811683654785
0.43708527088165283 0.52375388145446777 0.70923084020614624
0.54908335208892822 0.54131120443344116 0.72877711057662964
0.66483539342880249 0.5589708685874939 0.74541723728179932
0.78165018558502197 0.57867491245269775 0.76513200998306274
0.18882080912590027 0.62685310840606689 0.68883764743804932
0.27985256910324097 0.64637851715087891 0.70907986164093018
0.37902086973190308 0.66772675514221191 0.73158758878707886
0.48600500822067261 0.68918085098266602 0.75630909204483032
0.59924006462097168 0.71048855781555176 0.77782601118087769
0.71675336360931396 0.73184150457382202 0.79661118984222412
0.83522403240203857 0.75419700145721436 0.81818443536758423
0.23423284292221069 0.79427540302276611 0.73192781209945679
0.32803547382354736 0.81509196758270264 0.75078749656677246
0.42782646417617798 0.83869463205337524 0.77302253246307373
0.53457450866699219 0.86333376169204712 0.79665237665176392
0.64783817529678345 0.88794243335723877 0.81997591257095337
0.76602637767791748 0.91182208061218262 0.84363812208175659
0.88579881191253662 0.93595772981643677 0.86959272623062134
