assets/lut/alexjordan faded retro 02.cube
# Created by: G'MIC (https://gmic.eu)
TITLE "faded_retro_02"
# LUT size
LUT_3D_SIZE 13
# Data domain
DOMAIN_MIN 0.0 0.0 0.0
DOMAIN_MAX 1.0 1.0 1.0
# LUT data points
0.12029555439949036 0.13421951234340668 0.02711467444896698
0.14934711158275604 0.13708937168121338 0.032461952418088913
0.18860474228858948 0.13585449755191803 0.029673706740140915
0.24855709075927734 0.1258736252784729 0.017652144655585289
0.32660520076751709 0.11163882166147232 0.0054203555919229984
0.41223323345184326 0.095216043293476105 0.00047038958291523159
0.49524196982383728 0.080475524067878723 0
0.56791532039642334 0.070697963237762451 0
0.62421500682830811 0.067484945058822632 0
0.6664460301399231 0.069562025368213654 0
0.70021349191665649 0.076253481209278107 0
0.72888731956481934 0.087121821939945221 0.0002209831727668643
0.75204753875732422 0.10093835741281509 0.004088966641575098
0.12040873616933823 0.15703238546848297 0.029912581667304039
0.15059331059455872 0.15855720639228821 0.033316474407911301
0.19050078094005585 0.15740637481212616 0.028825214132666588
0.25146213173866272 0.14817345142364502 0.018740111961960793
0.33161801099777222 0.13744978606700897 0.0086524961516261101
0.4226737916469574 0.12936186790466309 0.0027455347590148449
0.51075142621994019 0.12234792113304138 0.00070123112527653575
0.58681005239486694 0.11902990937232971 0.00041264551691710949
0.64724349975585938 0.12070729583501816 0.00028985715471208096
0.69322502613067627 0.12686187028884888 0.00063654582481831312
0.72973984479904175 0.13689428567886353 0.0038580053951591253
0.76034170389175415 0.15077799558639526 0.01698283851146698
0.78421729803085327 0.16797074675559998 0.037370242178440094
0.11320746690034866 0.19278748333454132 0.027007414028048515
0.14643111824989319 0.19539555907249451 0.029804544523358345
0.1889059841632843 0.19632376730442047 0.026003982871770859
0.2512451708316803 0.19119115173816681 0.018875719979405403
0.33388176560401917 0.18492914736270905 0.011321811936795712
0.42945384979248047 0.18162496387958527 0.0064576840959489346
0.52230280637741089 0.18000373244285583 0.0046931249089539051
0.60125398635864258 0.18184955418109894 0.0054228091612458229
0.66458255052566528 0.18757560849189758 0.0078152073547244072
0.71434199810028076 0.19654439389705658 0.014485318213701248
0.753947913646698 0.20901800692081451 0.029131706804037094
0.78603768348693848 0.22557908296585083 0.052133418619632721
0.80978184938430786 0.24461120367050171 0.07657768577337265
0.098861798644065857 0.24937619268894196 0.017422320321202278
0.13502921164035797 0.25565561652183533 0.020357409492135048
0.18133543431758881 0.26165932416915894 0.019598508253693581
0.2457108199596405 0.26268088817596436 0.01605040580034256
0.33102878928184509 0.26069962978363037 0.01100006140768528
0.4298245906829834 0.25827854871749878 0.007268314715474844
0.52612853050231934 0.25807633996009827 0.0065444046631455421
0.60768169164657593 0.26198467612266541 0.0088329687714576721
0.6738240122795105 0.2698681652545929 0.015789046883583069
0.72663033008575439 0.28014615178108215 0.028946086764335632
0.76815879344940186 0.29405975341796875 0.049173809587955475
0.79990589618682861 0.31281614303588867 0.07371184229850769
0.82294940948486328 0.33241361379623413 0.098510250449180603
0.08355298638343811 0.32606795430183411 0.0060455920174717903
0.12196200340986252 0.33693772554397583 0.0092886677011847496
0.17160722613334656 0.34721612930297852 0.01170272845774889
0.23789075016975403 0.35342592000961304 0.011440366506576538
0.32395318150520325 0.35455048084259033 0.0084995795041322708
0.42377802729606628 0.35310471057891846 0.0054084328003227711
0.52117544412612915 0.35277298092842102 0.0046102334745228291
0.60577660799026489 0.35638824105262756 0.0071389442309737206
0.6746256947517395 0.36386236548423767 0.015907421708106995
0.72923904657363892 0.37511608004570007 0.032217826694250107
0.77101457118988037 0.39044740796089172 0.053897708654403687
0.80169045925140381 0.4106600284576416 0.078459613025188446
0.82373619079589844 0.43016511201858521 0.10241434723138809
0.071711413562297821 0.42003747820854187 0.00042362586827948689
0.11242439597845078 0.43304795026779175 0.0029311235994100571
0.16577202081680298 0.44465795159339905 0.0068975412286818027
0.23489673435688019 0.45229607820510864 0.0088135218247771263
0.32126614451408386 0.4548187255859375 0.0075834835879504681
0.41906085610389709 0.45396322011947632 0.0048823785036802292
0.51548689603805542 0.45325961709022522 0.003148695919662714
0.60079324245452881 0.45587050914764404 0.0044047036208212376
0.67080932855606079 0.46266362071037292 0.011555690318346024
0.72529244422912598 0.47406899929046631 0.027497565373778343
0.7659115195274353 0.49031609296798706 0.048898838460445404
0.7954820990562439 0.50954842567443848 0.073317073285579681
0.81696593761444092 0.52697628736495972 0.097744837403297424
0.067332081496715546 0.51980865001678467 0.0002371395385125652
0.10981900244951248 0.53426319360733032 0.0029494191985577345
0.16723769903182983 0.5448148250579834 0.0080582117661833763
0.23972241580486298 0.55126821994781494 0.011351671069860458
0.32589191198348999 0.55322945117950439 0.010673402808606625
0.42016002535820007 0.55221104621887207 0.0071859918534755707
0.51335710287094116 0.5501708984375 0.0040525547228753567
0.59743624925613403 0.55112826824188232 0.0037025900091975927
0.66654682159423828 0.55653876066207886 0.0087964078411459923
0.71978759765625 0.56726419925689697 0.022668756544589996
0.75852096080780029 0.58262699842453003 0.042511526495218277
0.78629076480865479 0.59999591112136841 0.065332360565662384
0.80703079700469971 0.6138451099395752 0.088612347841262817
0.073733128607273102 0.61462652683258057 0.0040523456409573555
0.11774296313524246 0.62964856624603271 0.010666372254490852
0.17773339152336121 0.6387285590171814 0.018133783712983131
0.25142619013786316 0.64353936910629272 0.022165380418300629
0.33603835105895996 0.64447349309921265 0.021247221156954765
0.4270835816860199 0.64144831895828247 0.016026709228754044
0.51688110828399658 0.63723576068878174 0.010119808837771416
0.59817290306091309 0.63575780391693115 0.0074165794067084789
0.66522812843322754 0.63877338171005249 0.010700958780944347
0.71640211343765259 0.64765352010726929 0.021580461412668228
0.75296217203140259 0.6609499454498291 0.037830952554941177
0.77830767631530762 0.67608028650283813 0.057607732713222504
0.79742401838302612 0.68705904483795166 0.078354358673095703
0.092537865042686462 0.69689911603927612 0.021652176976203918
0.1380455493927002 0.71096634864807129 0.030200060456991196
0.19774465262889862 0.71932369470596313 0.03818899393081665
0.26997634768486023 0.72321230173110962 0.041849024593830109
0.35209423303604126 0.72286629676818848 0.039970278739929199
0.43975430727005005 0.71717542409896851 0.032924994826316833
0.5263945460319519 0.70976972579956055 0.024419613182544708
0.60461479425430298 0.704933762550354 0.018820803612470627
0.66921168565750122 0.705341637134552 0.018993737176060677
0.71815955638885498 0.71160155534744263 0.025477675721049309
0.75245058536529541 0.72227245569229126 0.03709576278924942
0.77543473243713379 0.73488974571228027 0.052242696285247803
0.79267007112503052 0.74382466077804565 0.069375582039356232
0.11974732577800751 0.76556897163391113 0.051888260990381241
0.16659337282180786 0.77781218290328979 0.060107871890068054
0.22489912807941437 0.78487515449523926 0.067630738019943237
0.29446703195571899 0.78661197423934937 0.069994352757930756
0.37361207604408264 0.78390258550643921 0.065692365169525146
0.4581025242805481 0.77579671144485474 0.055608771741390228
0.54193252325057983 0.76558548212051392 0.044371720403432846
0.61760962009429932 0.75797903537750244 0.035773258656263351
0.67971223592758179 0.75563597679138184 0.032259505242109299
0.72616326808929443 0.75910317897796631 0.033697418868541718
0.75801181793212891 0.76683294773101807 0.039838440716266632
0.77931344509124756 0.77625960111618042 0.049929242581129074
0.79527741670608521 0.78273540735244751 0.062824532389640808
0.15167813003063202 0.82227766513824463 0.090110257267951965
0.19881199300289154 0.83226531744003296 0.098154060542583466
0.25524309277534485 0.83712422847747803 0.10485953837633133
0.32197213172912598 0.83636265993118286 0.10553725063800812
0.39813154935836792 0.83013683557510376 0.097476944327354431
0.48005306720733643 0.81936055421829224 0.08283562958240509
0.56179118156433105 0.80685997009277344 0.06785188615322113
0.63593041896820068 0.79644840955734253 0.056518197059631348
0.69595086574554443 0.79126232862472534 0.049285992980003357
0.73947960138320923 0.79226619005203247 0.045962944626808167
0.76864892244338989 0.79773211479187012 0.046484000980854034
0.78785860538482666 0.80451518297195435 0.051077496260404587
0.80218559503555298 0.80899441242218018 0.059483710676431656
0.18525898456573486 0.86883914470672607 0.13242354989051819
0.2323911041021347 0.87609845399856567 0.1402050107717514
0.28676727414131165 0.87823468446731567 0.14648550748825073
0.35028946399688721 0.87505334615707397 0.14598608016967773
0.42327365279197693 0.86591964960098267 0.133710116147995
0.50334316492080688 0.85256916284561157 0.11321543902158737
0.58345717191696167 0.83754241466522217 0.09406096488237381
0.65669649839401245 0.82418370246887207 0.080141820013523102
0.71494394540786743 0.81668084859848022 0.069889441132545471
0.75493192672729492 0.81605702638626099 0.061928350478410721
0.78084093332290649 0.8195611834526062 0.057129714637994766
0.79788732528686523 0.82486474514007568 0.056425340473651886
0.81031382083892822 0.82823246717453003 0.060664188116788864
0.2180817723274231 0.90741574764251709 0.17485275864601135
0.26537415385246277 0.91203689575195312 0.18200819194316864
0.31835117936134338 0.91174554824829102 0.18744845688343048
0.37897086143493652 0.9060370922088623 0.18579846620559692
0.44879785180091858 0.89484775066375732 0.17020544409751892
0.52569222450256348 0.87915986776351929 0.14464250206947327
0.60316914319992065 0.8624834418296814 0.12221681326627731
0.67486244440078735 0.84705513715744019 0.10608532279729843
0.73106426000595093 0.83711040019989014 0.093242883682250977
0.76806968450546265 0.83543127775192261 0.080989941954612732
0.79166382551193237 0.83771151304244995 0.071784183382987976
0.80688756704330444 0.84136992692947388 0.066852346062660217
0.81814855337142944 0.84434455633163452 0.067138031125068665
0.12720286846160889 0.13684453070163727 0.058916084468364716
0.15112899243831635 0.13713234663009644 0.061519905924797058
0.18736673891544342 0.13514447212219238 0.054532848298549652
0.24615523219108582 0.12447819113731384 0.040065046399831772
0.3249267041683197 0.11003583669662476 0.026356955990195274
0.41043785214424133 0.09430491179227829 0.013462395407259464
0.49084103107452393 0.079077459871768951 0.0023184234742075205
0.56221699714660645 0.069097049534320831 0.00013625201245304197
0.62165957689285278 0.065731361508369446 0.00037255379720591009
0.66489452123641968 0.067697204649448395 0.00042126225889660418
0.697826087474823 0.074464119970798492 0.0017399806529283524
0.72584074735641479 0.086184844374656677 0.010205916129052639
0.74857622385025024 0.10079969465732574 0.029440591111779213
0.12526848912239075 0.15767350792884827 0.061059001833200455
0.15109100937843323 0.15942928194999695 0.062324836850166321
0.18863968551158905 0.15854465961456299 0.05559081956744194
0.24970300495624542 0.14981852471828461 0.043194491416215897
0.33193644881248474 0.13885453343391418 0.031873080879449844
0.42278650403022766 0.12930676341056824 0.022121833637356758
0.5097653865814209 0.12100660800933838 0.013181080110371113
0.58603900671005249 0.11694328486919403 0.0098627423867583275
0.64803206920623779 0.11885697394609451 0.01097290962934494
0.69428718090057373 0.12489728629589081 0.013682152144610882
0.72985619306564331 0.13542346656322479 0.024183625355362892
0.76007682085037231 0.14991763234138489 0.04850146546959877
0.78299534320831299 0.16789937019348145 0.076301202178001404
0.11653979122638702 0.19296295940876007 0.056305933743715286
0.14703269302845001 0.19669906795024872 0.058868933469057083
0.18833379447460175 0.19940608739852905 0.055905777961015701
0.25195035338401794 0.19487760961055756 0.048860572278499603
0.33656376600265503 0.18824766576290131 0.040337938815355301
0.43182581663131714 0.18358540534973145 0.032766573131084442
0.52433544397354126 0.18080410361289978 0.029035305604338646
0.60435742139816284 0.18161113560199738 0.030069343745708466
0.66877448558807373 0.1870943158864975 0.033912718296051025
0.71834462881088257 0.19667729735374451 0.042415276169776917
0.75696724653244019 0.20971588790416718 0.060253772884607315
0.78809809684753418 0.22645743191242218 0.088639698922634125
0.81076604127883911 0.24540263414382935 0.11949890851974487
0.10145539045333862 0.2509896457195282 0.041963331401348114
0.13622167706489563 0.25771033763885498 0.047605209052562714
0.18303456902503967 0.26450327038764954 0.050568778067827225
0.24936474859714508 0.26594391465187073 0.049037110060453415
0.33577558398246765 0.2638973593711853 0.043420366942882538
0.43395838141441345 0.26211285591125488 0.036985136568546295
0.52999579906463623 0.26168555021286011 0.03557484969496727
0.61312329769134521 0.26442357897758484 0.039925951510667801
0.68004930019378662 0.27168372273445129 0.04773985967040062
0.73199445009231567 0.28333184123039246 0.060291454195976257
0.77191990613937378 0.29916027188301086 0.080624841153621674
0.80269038677215576 0.31717631220817566 0.11013038456439972
0.82529926300048828 0.33575960993766785 0.14262348413467407
0.085820682346820831 0.32961377501487732 0.025187848135828972
0.1239808201789856 0.33985811471939087 0.034118413925170898
0.17478553950786591 0.35015305876731873 0.04237988218665123
0.24336719512939453 0.35623395442962646 0.045450322329998016
0.33099833130836487 0.35784870386123657 0.042738523334264755
0.43011572957038879 0.3574642539024353 0.037365589290857315
0.52771776914596558 0.35784289240837097 0.035665325820446014
0.61283427476882935 0.3608667254447937 0.040097612887620926
0.6819038987159729 0.36859393119812012 0.049650020897388458
0.73512351512908936 0.38113737106323242 0.06418367475271225
0.77504646778106689 0.3980274498462677 0.085289962589740753
0.8047100305557251 0.41680386662483215 0.11464826017618179
0.82651716470718384 0.43392455577850342 0.14757262170314789
0.074766434729099274 0.42371827363967896 0.01549948938190937
0.11539530754089355 0.43625405430793762 0.026111992076039314
0.16973207890987396 0.44775128364562988 0.03711375966668129
0.2409842312335968 0.45528468489646912 0.043533086776733398
0.32847607135772705 0.45837882161140442 0.042982123792171478
0.42620915174484253 0.45856216549873352 0.038392502814531326
0.52310085296630859 0.45887193083763123 0.035004798322916031
0.6089712381362915 0.46166160702705383 0.036459259688854218
0.67869412899017334 0.46885699033737183 0.045496456325054169
0.73177355527877808 0.48109093308448792 0.062100280076265335
0.7706943154335022 0.49727547168731689 0.08454691618680954
0.79906529188156128 0.51528394222259521 0.11313379555940628
0.81986629962921143 0.5302768349647522 0.14412765204906464
0.072116509079933167 0.52346491813659668 0.016472252085804939
0.11468805372714996 0.53728222846984863 0.027282923460006714
0.17189106345176697 0.54793030023574829 0.039437118917703629
0.2447856068611145 0.55460178852081299 0.046755697578191757
0.33172190189361572 0.55740147829055786 0.04739520326256752
0.42679029703140259 0.55689609050750732 0.043086573481559753
0.52109628915786743 0.55611222982406616 0.037185654044151306
0.60579556226730347 0.55756580829620361 0.035186752676963806
0.67453134059906006 0.56333762407302856 0.042646549642086029
0.72625136375427246 0.57388848066329956 0.059183143079280853
0.76357495784759521 0.5886613130569458 0.082018308341503143
0.7901921272277832 0.6044195294380188 0.10889572650194168
0.80979788303375244 0.61651450395584106 0.13689205050468445
0.080079562962055206 0.618824303150177 0.027792178094387054
0.12418757379055023 0.63271653652191162 0.038775157183408737
0.18287575244903564 0.6420249342918396 0.050970159471035004
0.25621828436851501 0.64691352844238281 0.058450423181056976
0.3413240909576416 0.64778155088424683 0.058908067643642426
0.43311870098114014 0.6455996036529541 0.053598292171955109
0.52393078804016113 0.64230531454086304 0.046185661107301712
0.60564059019088745 0.64157134294509888 0.042098641395568848
0.67234724760055542 0.64496505260467529 0.046674333512783051
0.72223889827728271 0.65338504314422607 0.06049511581659317
0.75757133960723877 0.66558349132537842 0.080058813095092773
0.78217655420303345 0.67897170782089233 0.10334783792495728
0.80025011301040649 0.68857419490814209 0.12781412899494171
0.099244467914104462 0.70220470428466797 0.050926506519317627
0.14446257054805756 0.71531552076339722 0.061489958316087723
0.20301377773284912 0.72320818901062012 0.072677955031394958
0.27469852566719055 0.72588932514190674 0.078808337450027466
0.35710933804512024 0.72490400075912476 0.07761789858341217
0.44529533386230469 0.72008585929870605 0.070623181760311127
0.53238606452941895 0.71377545595169067 0.061761908233165741
0.61093872785568237 0.70971173048019409 0.055881112813949585
0.67495507001876831 0.71025598049163818 0.057090893387794495
0.72278553247451782 0.71588587760925293 0.065960720181465149
0.75576961040496826 0.72544819116592407 0.080280199646949768
0.77751588821411133 0.73616182804107666 0.098554529249668121
0.79479515552520752 0.74369806051254272 0.11889629065990448
0.12703870236873627 0.77155876159667969 0.08628266304731369
0.17289721965789795 0.78295868635177612 0.095507465302944183
0.23016054928302765 0.78902536630630493 0.10413284599781036
0.29918625950813293 0.79033070802688599 0.10714353621006012
0.37823468446731567 0.78564894199371338 0.10257796943187714
0.46285641193389893 0.77802330255508423 0.092079147696495056
0.54663348197937012 0.76851314306259155 0.080951198935508728
0.62235051393508911 0.76134949922561646 0.072990357875823975
0.68395912647247314 0.7586815357208252 0.070837579667568207
0.72930598258972168 0.76145309209823608 0.074569821357727051
0.76015013456344604 0.76853877305984497 0.083148792386054993
0.78019946813583374 0.77635526657104492 0.095753870904445648
0.79498380422592163 0.78185540437698364 0.11132732033729553
0.15984542667865753 0.82785141468048096 0.12963250279426575
0.20594526827335358 0.83700263500213623 0.13701276481151581
0.26111850142478943 0.84060966968536377 0.14292219281196594
0.32719364762306213 0.83860510587692261 0.14200527966022491
0.40268826484680176 0.83175528049468994 0.13199949264526367
0.48436865210533142 0.82065129280090332 0.11652623862028122
0.56532841920852661 0.80848026275634766 0.10184802114963531
0.63915824890136719 0.79848116636276245 0.091675490140914917
0.69829237461090088 0.79295259714126587 0.086747251451015472
0.74108421802520752 0.79315239191055298 0.085789486765861511
0.76892757415771484 0.7974591851234436 0.088825061917304993
0.78670299053192139 0.80309087038040161 0.09547945111989975
0.79962819814682007 0.8071097731590271 0.10642285645008087
0.19466179609298706 0.87364423274993896 0.17601999640464783
0.2405017763376236 0.88013249635696411 0.18217071890830994
0.29373815655708313 0.88139921426773071 0.18540702760219574
0.35634148120880127 0.87631511688232422 0.18055123090744019
0.4284941554069519 0.86642920970916748 0.16458351910114288
0.50722545385360718 0.85266965627670288 0.14249756932258606
0.5868765115737915 0.83768117427825928 0.12440647929906845
0.65854173898696899 0.82475417852401733 0.11264051496982574
0.71552121639251709 0.81710195541381836 0.10515462607145309
0.75488156080245972 0.81598091125488281 0.10021338611841202
0.77962851524353027 0.817432701587677 0.098093248903751373
0.79513746500015259 0.82144045829772949 0.099325023591518402
0.80621564388275146 0.82475429773330688 0.10565673559904099
0.22867763042449951 0.91113799810409546 0.22230070829391479
0.27445727586746216 0.91457504034042358 0.22675243020057678
0.32601672410964966 0.91329383850097656 0.22799792885780334
0.38573309779167175 0.90621024370193481 0.21978661417961121
0.45446842908859253 0.89388382434844971 0.19890762865543365
0.53010517358779907 0.87804901599884033 0.17166042327880859
0.60670679807662964 0.86117005348205566 0.15090546011924744
0.67561525106430054 0.84656256437301636 0.13754889369010925
0.72997820377349854 0.8366464376449585 0.1274595707654953
0.76670819520950317 0.83325111865997314 0.11901438236236572
0.78924131393432617 0.83389496803283691 0.11235222965478897
0.8032153844833374 0.83627939224243164 0.10921773314476013
0.8130144476890564 0.83892029523849487 0.11152614653110504
0.12856794893741608 0.13700982928276062 0.11228010803461075
0.14812007546424866 0.1370895653963089 0.1132931262254715
0.18271960318088531 0.13313977420330048 0.10566042363643646
0.24228216707706451 0.12156923860311508 0.089966714382171631
0.32330185174942017 0.10765711218118668 0.076774522662162781
0.40926000475883484 0.092652730643749237 0.061075802892446518
0.48823040723800659 0.07784976065158844 0.04061521589756012
0.55930715799331665 0.068345479667186737 0.028809072449803352
0.62106025218963623 0.06566329300403595 0.030306946486234665
0.66571885347366333 0.06756184995174408 0.03390776738524437
0.69786733388900757 0.074330709874629974 0.042666535824537277
0.72288310527801514 0.08618386834859848 0.059542082250118256
0.74324506521224976 0.10202041268348694 0.081468351185321808
0.12472458183765411 0.15778039395809174 0.11316768825054169
0.147003173828125 0.16005304455757141 0.11354750394821167
0.18428203463554382 0.15867361426353455 0.10826076567173004
0.24782010912895203 0.149046391248703 0.096409320831298828
0.33194005489349365 0.13820554316043854 0.086058765649795532
0.42292666435241699 0.12887908518314362 0.074685417115688324
0.50936591625213623 0.12044923007488251 0.062961801886558533
0.58635193109512329 0.1166788712143898 0.058500342071056366
0.64950144290924072 0.11830490827560425 0.061530347913503647
0.69683218002319336 0.12456629425287247 0.067846380174160004
0.73196947574615479 0.13500671088695526 0.082637757062911987
0.7594304084777832 0.14989429712295532 0.10709042847156525
0.77987486124038696 0.16861775517463684 0.13384245336055756
0.1159687265753746 0.19329111278057098 0.10574637353420258
0.14421170949935913 0.19756877422332764 0.10955557972192764
0.18694397807121277 0.20168112218379974 0.11077187955379486
0.25379541516304016 0.19617481529712677 0.10721754282712936
0.33885785937309265 0.18934540450572968 0.098987117409706116
0.43309178948402405 0.18459621071815491 0.090250693261623383
0.52563083171844482 0.18208825588226318 0.0866585373878479
0.60731595754623413 0.18172246217727661 0.088929660618305206
0.67233943939208984 0.18740351498126984 0.093109667301177979
0.72179311513900757 0.19753538072109222 0.10197877883911133
0.7594984769821167 0.21118013560771942 0.12038231641054153
0.78830480575561523 0.22767353057861328 0.14870816469192505
0.80885380506515503 0.24723365902900696 0.17897132039070129
0.10193715989589691 0.25234946608543396 0.087686605751514435
0.13583877682685852 0.25944128632545471 0.097109518945217133
0.18377542495727539 0.26745599508285522 0.10556407272815704
0.25233107805252075 0.26881840825080872 0.10846922546625137
0.33919635415077209 0.26657804846763611 0.10386911779642105
0.43683978915214539 0.26567396521568298 0.096980661153793335
0.53253942728042603 0.26489928364753723 0.09599863737821579
0.61648964881896973 0.26664823293685913 0.10179954767227173
0.68396365642547607 0.27398043870925903 0.10941553860902786
0.73544394969940186 0.28670990467071533 0.12044113874435425
0.7739417552947998 0.30297732353210449 0.13911958038806915
0.80297291278839111 0.32100990414619446 0.16886402666568756
0.82389789819717407 0.33916395902633667 0.20333591103553772
0.087229169905185699 0.33240392804145813 0.066635429859161377
0.12550593912601471 0.34232485294342041 0.082215584814548492
0.17736019194126129 0.35246303677558899 0.096969857811927795
0.24795795977115631 0.35848277807235718 0.10454113781452179
