assets/lut/alexjordan green 2025.cube
# Created by: G'MIC (https://gmic.eu)
TITLE "green_2025"
# LUT size
LUT_3D_SIZE 5
# Data domain
DOMAIN_MIN 0.0 0.0 0.0
DOMAIN_MAX 1.0 1.0 1.0
# LUT data points
0.0079432614147663116 0.0065669640898704529 0.0065887602977454662
0.041192207485437393 0.029231276363134384 0.02744567021727562
0.15116056799888611 0.073047146201133728 0.068261153995990753
0.33523526787757874 0.10398653894662857 0.096693821251392365
0.55480831861495972 0.1095588207244873 0.10104475170373917
0.13448317348957062 0.18075431883335114 0.12041658908128738
0.23196125030517578 0.22449155151844025 0.15288171172142029
0.36443877220153809 0.23893161118030548 0.15655054152011871
0.54769223928451538 0.23675370216369629 0.15235207974910736
0.780131995677948 0.22595198452472687 0.12967440485954285
0.17005094885826111 0.36196145415306091 0.15472562611103058
0.26796504855155945 0.39044597744941711 0.16435970366001129
0.42419007420539856 0.40938833355903625 0.16368083655834198
0.64452999830245972 0.4111332893371582 0.14893680810928345
0.95177257061004639 0.38999256491661072 0.12314363569021225
0.12435892224311829 0.5920981764793396 0.10708662867546082
0.23172768950462341 0.63186430931091309 0.11061540246009827
0.40816488862037659 0.65837371349334717 0.11554674804210663
0.67345511913299561 0.66036731004714966 0.10078105330467224
0.99188679456710815 0.6459086537361145 0.07217109203338623
0.025831693783402443 0.90373349189758301 0.0009806914022192359
0.14007216691970825 0.94691479206085205 0.0053218617103993893
0.32547751069068909 0.97162777185440063 0.0177790317684412
0.61270821094512939 0.97356551885604858 0.013481155037879944
0.96526038646697998 0.96449774503707886 0.00056762696476653218
0.0055819493718445301 0.0062647503800690174 0.0069389790296554565
0.063235640525817871 0.046390771865844727 0.053415216505527496
0.17596074938774109 0.087031573057174683 0.10044366866350174
0.3518524169921875 0.10729416459798813 0.13146099448204041
0.58235543966293335 0.10538190603256226 0.14518676698207855
0.14623922109603882 0.19542203843593597 0.17057640850543976
0.24162814021110535 0.23194882273674011 0.20375779271125793
0.3726867139339447 0.24300523102283478 0.21058513224124908
0.55644780397415161 0.23817631602287292 0.20439925789833069
0.80557751655578613 0.22799293696880341 0.18692617118358612
0.17082864046096802 0.37418836355209351 0.20881190896034241
0.27502214908599854 0.402191162109375 0.22007812559604645
0.43191340565681458 0.4179040789604187 0.22447200119495392
0.6617082953453064 0.41490945219993591 0.21525344252586365
0.96024823188781738 0.40244594216346741 0.19132211804389954
0.12105534970760345 0.60944265127182007 0.16337582468986511
0.23703771829605103 0.64987647533416748 0.1737917959690094
0.417570561170578 0.67373234033584595 0.1823401004076004
0.68578958511352539 0.67305111885070801 0.16913565993309021
0.99515199661254883 0.66128373146057129 0.14128634333610535
0.016217086464166641 0.92134350538253784 0.04337456077337265
0.13304997980594635 0.96457588672637939 0.064836673438549042
0.33052545785903931 0.98325282335281372 0.087138578295707703
0.62558984756469727 0.98460119962692261 0.081712506711483002
0.97713941335678101 0.9772065281867981 0.057240042835474014
0.014127454720437527 0.014513097703456879 0.028947582468390465
0.079914703965187073 0.058845296502113342 0.10175832360982895
0.20958864688873291 0.10235752910375595 0.17746554315090179
0.38483706116676331 0.11871670186519623 0.22438190877437592
0.61033684015274048 0.10652034729719162 0.24259793758392334
0.15869995951652527 0.21156704425811768 0.27430102229118347
0.24277028441429138 0.23484896123409271 0.30519050359725952
0.37891238927841187 0.24855156242847443 0.32304972410202026
0.56747835874557495 0.24441505968570709 0.32437893748283386
0.82569944858551025 0.22863505780696869 0.31177672743797302
0.17374546825885773 0.38076600432395935 0.3268204927444458
0.27643230557441711 0.40644612908363342 0.34792989492416382
0.44179022312164307 0.42432007193565369 0.3642098605632782
0.67240446805953979 0.42212826013565063 0.36117732524871826
0.97379976511001587 0.40978360176086426 0.33669236302375793
0.12673014402389526 0.61645179986953735 0.31322234869003296
0.24302089214324951 0.65621000528335571 0.32282686233520508
0.42710551619529724 0.68082344532012939 0.33293643593788147
0.69681298732757568 0.68378555774688721 0.32544901967048645
0.99862277507781982 0.66981303691864014 0.3026452362537384
0.018464226275682449 0.92831456661224365 0.19894316792488098
0.14402398467063904 0.97011649608612061 0.22053276002407074
0.34314286708831787 0.98841828107833862 0.24503020942211151
0.6323249340057373 0.99171155691146851 0.24508796632289886
0.98447674512863159 0.98499208688735962 0.22239899635314941
0.024241264909505844 0.023979755118489265 0.084827348589897156
0.10380818694829941 0.072220548987388611 0.20198348164558411
0.22375218570232391 0.10737087577581406 0.30402436852455139
0.39996558427810669 0.12034586071968079 0.37760081887245178
0.61527335643768311 0.10603898018598557 0.40764316916465759
0.16083244979381561 0.21342982351779938 0.44097486138343811
0.24715138971805573 0.23648177087306976 0.49057134985923767
0.37178236246109009 0.24213652312755585 0.51473301649093628
0.56961572170257568 0.23838363587856293 0.52850937843322754
0.83251512050628662 0.22448845207691193 0.53683066368103027
0.16932308673858643 0.38011568784713745 0.55039745569229126
0.2716100811958313 0.40368923544883728 0.57791268825531006
0.43404635787010193 0.41991761326789856 0.60646212100982666
0.67652708292007446 0.41881421208381653 0.6167600154876709
0.98357707262039185 0.40162757039070129 0.60816437005996704
0.11853554099798203 0.61972218751907349 0.57055127620697021
0.23524090647697449 0.65555155277252197 0.59846240282058716
0.4225553572177887 0.67772197723388672 0.61563503742218018
0.69699680805206299 0.6789359450340271 0.6137738823890686
0.99972105026245117 0.66398197412490845 0.6007157564163208
0.012512057088315487 0.92938309907913208 0.49204543232917786
0.13614653050899506 0.97202062606811523 0.51443493366241455
0.34273234009742737 0.98836588859558105 0.5412592887878418
0.63281017541885376 0.99250739812850952 0.54452317953109741
0.98340249061584473 0.98454833030700684 0.52184170484542847
0.037489619106054306 0.03692525252699852 0.19105352461338043
0.11519830673933029 0.077114969491958618 0.37368068099021912
0.23202647268772125 0.0933113694190979 0.50628513097763062
0.39897352457046509 0.10116861015558243 0.5976831316947937
0.60965639352798462 0.10177169740200043 0.65937834978103638
0.15121613442897797 0.20594108104705811 0.68678969144821167
0.2349577397108078 0.2241707444190979 0.75902032852172852
0.36445233225822449 0.23019787669181824 0.80756056308746338
0.56510418653488159 0.22785189747810364 0.83917587995529175
0.82342714071273804 0.21805439889431 0.86580097675323486
0.15797498822212219 0.37273874878883362 0.87681514024734497
0.25908207893371582 0.39352059364318848 0.91772842407226562
0.42206540703773499 0.41015970706939697 0.96228718757629395
0.6660081148147583 0.40990233421325684 0.98021805286407471
0.97460359334945679 0.38845476508140564 0.98684406280517578
0.10978440195322037 0.60443234443664551 0.96360909938812256
0.22144734859466553 0.64281284809112549 0.98609870672225952
0.41184753179550171 0.6636999249458313 0.99637973308563232
0.68272697925567627 0.66878914833068848 0.99625170230865479
0.99491393566131592 0.66135776042938232 0.99227786064147949
0.013293188065290451 0.91541266441345215 0.93334090709686279
0.12878265976905823 0.95964795351028442 0.96671152114868164
0.34297096729278564 0.97906100749969482 0.97370725870132446
0.62930488586425781 0.9868808388710022 0.9718620777130127
0.98200076818466187 0.98268002271652222 0.97444432973861694
