assets/lut/alexjordan orange dark 04.cube
# Created by: G'MIC (https://gmic.eu)
TITLE "orange_dark_4"
# LUT size
LUT_3D_SIZE 5
# Data domain
DOMAIN_MIN 0.0 0.0 0.0
DOMAIN_MAX 1.0 1.0 1.0
# LUT data points
0.010663365013897419 0.0071007972583174706 0.0070288563147187233
0.042585037648677826 0.010687076486647129 0.01899375207722187
0.13280284404754639 0.018872398883104324 0.031288895756006241
0.27424249053001404 0.028148859739303589 0.029865160584449768
0.47828364372253418 0.02297687903046608 0.027167031541466713
0.041524190455675125 0.10956937074661255 0.04969310387969017
0.17527402937412262 0.12642605602741241 0.044761955738067627
0.38122054934501648 0.12855248153209686 0.028100226074457169
0.6155504584312439 0.12751491367816925 0.018524857237935066
0.89289098978042603 0.11435374617576599 0.0070159910246729851
0.009415091946721077 0.33371731638908386 0.031904228031635284
0.22967883944511414 0.33160045742988586 0.0055178473703563213
0.51175838708877563 0.3231360912322998 0
0.75508534908294678 0.32920145988464355 0
0.99594360589981079 0.32705122232437134 0
0.0068903905339539051 0.58804875612258911 0.022812472656369209
0.27725696563720703 0.56983339786529541 0.0035378399770706892
0.58961588144302368 0.55709892511367798 0.00087779923342168331
0.82791435718536377 0.5693209171295166 0.0034413356333971024
1 0.57476699352264404 0.0053553711622953415
0.078891217708587646 0.83638679981231689 0.068101711571216583
0.37541863322257996 0.81645715236663818 0.051896560937166214
0.68073111772537231 0.80816870927810669 0.051208123564720154
0.93630737066268921 0.81804114580154419 0.054457973688840866
1 0.82879185676574707 0.063608579337596893
0.0022161295637488365 0.0034205566626042128 0.0059219659306108952
0.054915424436330795 0.019085334613919258 0.02895323745906353
0.15626764297485352 0.028583750128746033 0.048796381801366806
0.31560853123664856 0.03125 0.060071758925914764
0.53654938936233521 0.021565726026892662 0.060025501996278763
0.050575196743011475 0.12553268671035767 0.088794827461242676
0.19634637236595154 0.13973906636238098 0.092136964201927185
0.41393566131591797 0.13792112469673157 0.078702427446842194
0.65556007623672485 0.13212119042873383 0.064260907471179962
0.92106705904006958 0.12104538828134537 0.046440199017524719
0.01527080126106739 0.3475700318813324 0.093966133892536163
0.24839280545711517 0.34668105840682983 0.068829149007797241
0.53069496154785156 0.33739325404167175 0.041577987372875214
0.77125352621078491 0.34310758113861084 0.033204890787601471
0.99523168802261353 0.34510472416877747 0.030523233115673065
0.02888214960694313 0.5955510139465332 0.093145363032817841
0.3059735894203186 0.58157789707183838 0.073451802134513855
0.60653722286224365 0.57300406694412231 0.066539451479911804
0.84918254613876343 0.5846368670463562 0.075534194707870483
1 0.59003221988677979 0.084546990692615509
0.097572088241577148 0.84237134456634521 0.1554243415594101
0.40478017926216125 0.82387691736221313 0.13783633708953857
0.70817452669143677 0.81910234689712524 0.14079256355762482
0.95423585176467896 0.8316834568977356 0.15373414754867554
1 0.84165722131729126 0.16550873219966888
0.0067486632615327835 0.010205257683992386 0.026875544339418411
0.067999295890331268 0.027072727680206299 0.059240378439426422
0.18864335119724274 0.033393964171409607 0.090592406690120697
0.36296996474266052 0.031315702944993973 0.11966485530138016
0.57974928617477417 0.024654403328895569 0.13066940009593964
0.055305615067481995 0.13881057500839233 0.1557927131652832
0.20827500522136688 0.15131226181983948 0.171497642993927
0.43573927879333496 0.14633366465568542 0.1696690171957016
0.67958515882492065 0.13849388062953949 0.1722249835729599
0.91373205184936523 0.13776461780071259 0.16198761761188507
0.018025565892457962 0.35983946919441223 0.20536091923713684
0.25619947910308838 0.35885122418403625 0.19258034229278564
0.54694521427154541 0.34545215964317322 0.17395742237567902
0.79187333583831787 0.35004046559333801 0.16826242208480835
0.99643111228942871 0.35688647627830505 0.16704277694225311
0.036231424659490585 0.60526055097579956 0.22849453985691071
0.31831350922584534 0.59290808439254761 0.21550656855106354
0.62126070261001587 0.58223962783813477 0.2108684629201889
0.8669847846031189 0.59398108720779419 0.21731878817081451
1 0.6029973030090332 0.22491742670536041
0.10199228674173355 0.8529168963432312 0.29318082332611084
0.41002920269966125 0.83711332082748413 0.28274998068809509
0.72263211011886597 0.83171260356903076 0.28329899907112122
0.97059142589569092 0.8462645411491394 0.29549199342727661
1 0.85694563388824463 0.30562308430671692
0.0093239732086658478 0.018857739865779877 0.05447571724653244
0.086167760193347931 0.03308621421456337 0.098870493471622467
0.21568439900875092 0.038405653089284897 0.14473612606525421
0.39641004800796509 0.035249102860689163 0.18851426243782043
0.6458473801612854 0.017083335667848587 0.22543314099311829
0.055250354111194611 0.15366603434085846 0.23805435001850128
0.22470808029174805 0.160112664103508 0.26809951663017273
0.4553380012512207 0.15224367380142212 0.28201258182525635
0.71054983139038086 0.14236271381378174 0.29762831330299377
0.97135657072067261 0.13148801028728485 0.30496394634246826
0.016127463430166245 0.37203583121299744 0.33787307143211365
0.26486325263977051 0.36975693702697754 0.32841664552688599
0.55301064252853394 0.35560455918312073 0.31458184123039246
0.80248510837554932 0.36028963327407837 0.31922876834869385
0.9965088963508606 0.36887621879577637 0.32085493206977844
0.035346221178770065 0.61508083343505859 0.38395968079566956
0.32928270101547241 0.60205954313278198 0.36862534284591675
0.63023138046264648 0.59262621402740479 0.35845804214477539
0.87923812866210938 0.60622203350067139 0.36613160371780396
1 0.61701565980911255 0.37674656510353088
0.11826762557029724 0.86252862215042114 0.44193398952484131
0.43335506319999695 0.84696334600448608 0.43338492512702942
0.74085903167724609 0.84298110008239746 0.43183606863021851
0.96889770030975342 0.85926228761672974 0.44269365072250366
1 0.87250584363937378 0.45423799753189087
0.025774937123060226 0.028875254094600677 0.10000310838222504
0.1010892242193222 0.040806833654642105 0.15466693043708801
0.2480609118938446 0.042618170380592346 0.21421840786933899
0.44153919816017151 0.036897473037242889 0.27348318696022034
0.68029063940048218 0.021677592769265175 0.31859257817268372
0.053910903632640839 0.16765917837619781 0.33220300078392029
0.24077542126178741 0.16675242781639099 0.37050250172615051
0.48459517955780029 0.15527169406414032 0.40598198771476746
0.74617958068847656 0.14493405818939209 0.43086957931518555
0.9838988184928894 0.14245419204235077 0.43340164422988892
0.01574891060590744 0.38363897800445557 0.46658191084861755
0.2753082811832428 0.37622487545013428 0.46429780125617981
0.56525146961212158 0.36539569497108459 0.4585672914981842
0.80820900201797485 0.37251186370849609 0.46003365516662598
1 0.37135088443756104 0.47442597150802612
0.039616003632545471 0.62899696826934814 0.52432459592819214
0.34162646532058716 0.61317634582519531 0.51283478736877441
0.64472174644470215 0.60354828834533691 0.50128674507141113
0.896953284740448 0.61663037538528442 0.50831085443496704
1 0.62770551443099976 0.52486234903335571
0.13602980971336365 0.87687379121780396 0.58147352933883667
0.45016354322433472 0.86118435859680176 0.57524967193603516
0.76013696193695068 0.85782939195632935 0.57375884056091309
0.99245959520339966 0.87419885396957397 0.58499646186828613
0.99944889545440674 0.88935339450836182 0.5999637246131897
