assets/lut/alexjordan brownish.cube
# Created by: G'MIC (https://gmic.eu)
TITLE "brownish"
# LUT size
LUT_3D_SIZE 7
# Data domain
DOMAIN_MIN 0.0 0.0 0.0
DOMAIN_MAX 1.0 1.0 1.0
# LUT data points
0 0 0
0 0 0
0.006878572516143322 0.0023306005168706179 0.00078765267971903086
0.053133450448513031 0.011290621012449265 0.0054023293778300285
0.12883836030960083 0.020458491519093513 0.017878858372569084
0.21217373013496399 0.029999557882547379 0.031719088554382324
0.30399194359779358 0.041593872010707855 0.030882608145475388
0.023181645199656487 0.029640527442097664 0.020301640033721924
0.066137872636318207 0.051979407668113708 0.03315570205450058
0.12911772727966309 0.066902101039886475 0.037801105529069901
0.21256372332572937 0.079267807304859161 0.041664034128189087
0.3069145679473877 0.08764832466840744 0.045770280063152313
0.40335363149642944 0.099267818033695221 0.053346537053585052
0.47444942593574524 0.13188187777996063 0.073249951004981995
0.081414617598056793 0.13817095756530762 0.056688748300075531
0.1414950042963028 0.15445369482040405 0.056998547166585922
0.2217029482126236 0.16773904860019684 0.059187989681959152
0.31870564818382263 0.18667712807655334 0.068820059299468994
0.41752228140830994 0.20678521692752838 0.078593358397483826
0.51178443431854248 0.23033811151981354 0.098199211061000824
0.59127938747406006 0.26554715633392334 0.12735152244567871
0.11582418531179428 0.27522963285446167 0.076556108891963959
0.198947474360466 0.29383617639541626 0.083921588957309723
0.29336854815483093 0.31331875920295715 0.095874637365341187
0.40309065580368042 0.3357451856136322 0.1121523380279541
0.50641471147537231 0.36349618434906006 0.13116191327571869
0.60261052846908569 0.3933958113193512 0.16261988878250122
0.68551546335220337 0.42881524562835693 0.19780592620372772
0.16733419895172119 0.43049588799476624 0.11673078685998917
0.27429667115211487 0.45416367053985596 0.13522212207317352
0.38579040765762329 0.47775059938430786 0.15937197208404541
0.49627271294593811 0.50226527452468872 0.18463271856307983
0.60094404220581055 0.53029161691665649 0.21015508472919464
0.69500136375427246 0.56037825345993042 0.24597769975662231
0.77563154697418213 0.59416931867599487 0.28223529458045959
0.2573850154876709 0.59139740467071533 0.19881041347980499
0.37492808699607849 0.61678814888000488 0.22482801973819733
0.49116584658622742 0.64097875356674194 0.25943627953529358
0.59721213579177856 0.66394859552383423 0.29036781191825867
0.69563168287277222 0.68872940540313721 0.31396108865737915
0.78459405899047852 0.71658003330230713 0.34245121479034424
0.86270678043365479 0.74684244394302368 0.37520986795425415
0.36985108256340027 0.74666464328765869 0.31012639403343201
0.48539578914642334 0.77100551128387451 0.34190309047698975
0.59628349542617798 0.79424881935119629 0.38153353333473206
0.69632351398468018 0.81558692455291748 0.41308552026748657
0.78794479370117188 0.83698403835296631 0.42827436327934265
0.87145000696182251 0.86217600107192993 0.44776138663291931
0.94676613807678223 0.89006006717681885 0.47465083003044128
0 0 0
0.0002062629209831357 8.7962427642196417e-05 0.00018292595632374287
0.015514493919909 0.0067560086026787758 0.0085119958966970444
0.069631941616535187 0.018946882337331772 0.027138683944940567
0.14881724119186401 0.026383118703961372 0.045694150030612946
0.24512144923210144 0.029632389545440674 0.059700552374124527
0.34101173281669617 0.03763141855597496 0.070493273437023163
0.032409533858299255 0.038398399949073792 0.038955073803663254
0.077874280512332916 0.058962669223546982 0.055540826171636581
0.14323139190673828 0.073661208152770996 0.070094361901283264
0.22994531691074371 0.084049016237258911 0.082544408738613129
0.32157620787620544 0.093217454850673676 0.093288853764533997
0.41642701625823975 0.10483478009700775 0.10687655210494995
0.50015616416931152 0.13096348941326141 0.12748974561691284
0.082516074180603027 0.14508505165576935 0.09256058931350708
0.14622318744659424 0.16177479922771454 0.099041372537612915
0.23195980489253998 0.17625756561756134 0.11005023121833801
0.33259740471839905 0.19361531734466553 0.12520737946033478
0.42862728238105774 0.21481224894523621 0.14115343987941742
0.51826721429824829 0.23708538711071014 0.16452014446258545
0.60564851760864258 0.27041536569595337 0.19312754273414612
0.11928696185350418 0.28224644064903259 0.12930724024772644
0.20421178638935089 0.30044785141944885 0.14134347438812256
0.30584031343460083 0.3196866512298584 0.15954959392547607
0.41608095169067383 0.34383994340896606 0.18112073838710785
0.51875507831573486 0.37440198659896851 0.2045242041349411
0.6125374436378479 0.40309414267539978 0.23646020889282227
0.69624847173690796 0.43727287650108337 0.27017241716384888
0.17605961859226227 0.44083294272422791 0.18587286770343781
0.28212732076644897 0.46232351660728455 0.20675942301750183
0.39553508162498474 0.48496907949447632 0.23485784232616425
0.50750637054443359 0.51057571172714233 0.26299813389778137
0.61241668462753296 0.5394783616065979 0.29155686497688293
0.70643097162246704 0.56995236873626709 0.32621720433235168
0.78678625822067261 0.60288482904434204 0.36070176959037781
0.27346479892730713 0.60356277227401733 0.27935820817947388
0.39045765995979309 0.62564003467559814 0.30719968676567078
0.50391274690628052 0.64883530139923096 0.34221124649047852
0.60902327299118042 0.671703040599823 0.37254762649536133
0.70767533779144287 0.69558525085449219 0.39581319689750671
0.79682058095932007 0.72399801015853882 0.42397359013557434
0.87465447187423706 0.75459277629852295 0.45670795440673828
0.39509698748588562 0.75591152906417847 0.39651721715927124
0.51159656047821045 0.7786296010017395 0.42920523881912231
0.61659747362136841 0.80138176679611206 0.46691963076591492
0.71167999505996704 0.82148522138595581 0.49456650018692017
0.80120456218719482 0.83986532688140869 0.50730478763580322
0.88395982980728149 0.86474430561065674 0.52717572450637817
0.95838028192520142 0.89342385530471802 0.55521684885025024
0 0 0
0.003241176251322031 0.0014749264810234308 0.0020739985629916191
0.029308872297406197 0.011337160132825375 0.020270448178052902
0.094797484576702118 0.020804820582270622 0.050424791872501373
0.17686527967453003 0.028763206675648689 0.077402360737323761
0.27227514982223511 0.034265853464603424 0.10003617405891418
0.36080321669578552 0.043782401829957962 0.12420103698968887
0.043017070740461349 0.048094220459461212 0.066573753952980042
0.090303041040897369 0.066166713833808899 0.091209501028060913
0.15584011375904083 0.079804904758930206 0.11289131641387939
0.24404415488243103 0.08977247029542923 0.13264232873916626
0.33934283256530762 0.10070674866437912 0.15131416916847229
0.43563497066497803 0.11403343081474304 0.1711050271987915
0.51238518953323364 0.13978339731693268 0.1983020156621933
0.08436477929353714 0.15277665853500366 0.14579637348651886
0.15466025471687317 0.16846112906932831 0.16055555641651154
0.24259544909000397 0.1857113242149353 0.17503437399864197
0.3445010781288147 0.20476211607456207 0.19412682950496674
0.44441497325897217 0.22579452395439148 0.2167375236749649
0.53544193506240845 0.24877528846263885 0.24360658228397369
0.61572086811065674 0.2802433967590332 0.27503547072410583
0.119797483086586 0.29001134634017944 0.19714722037315369
0.21163038909435272 0.308563232421875 0.21671666204929352
0.31705713272094727 0.33025577664375305 0.23895995318889618
0.42713755369186401 0.35698139667510986 0.26332500576972961
0.53095650672912598 0.38732057809829712 0.29025256633758545
0.62376612424850464 0.41548007726669312 0.32381218671798706
0.70443165302276611 0.44831821322441101 0.35832026600837708
0.18589666485786438 0.44914364814758301 0.26812887191772461
0.2925572395324707 0.47135308384895325 0.29431906342506409
0.40593534708023071 0.49506554007530212 0.32547825574874878
0.51743274927139282 0.52208298444747925 0.35520768165588379
0.62244635820388794 0.5517992377281189 0.38501125574111938
0.71569406986236572 0.5824243426322937 0.41898387670516968
0.79502779245376587 0.61415153741836548 0.45374366641044617
0.29496473073959351 0.6110541820526123 0.37414312362670898
0.40732470154762268 0.63450008630752563 0.40282770991325378
0.51433616876602173 0.6591675877571106 0.43578439950942993
0.61713963747024536 0.68295812606811523 0.46488648653030396
0.71690851449966431 0.7065359354019165 0.4901796281337738
0.80657041072845459 0.73464977741241455 0.51919615268707275
0.88244152069091797 0.76468002796173096 0.55090111494064331
0.42152750492095947 0.7630266547203064 0.49546274542808533
0.53616976737976074 0.78584885597229004 0.52602946758270264
0.63032299280166626 0.81053996086120605 0.55693835020065308
0.71993815898895264 0.83056527376174927 0.5805433988571167
0.80966824293136597 0.84666824340820312 0.59643131494522095
0.89207220077514648 0.86977255344390869 0.61798238754272461
0.96420907974243164 0.89701426029205322 0.64473122358322144
0 0 6.7856730311177671e-05
0.0078744925558567047 0.004786771722137928 0.011861240491271019
0.043535046279430389 0.018085749819874763 0.047752216458320618
0.11632071435451508 0.024785285815596581 0.089670844376087189
0.20379962027072906 0.030405066907405853 0.12772239744663239
0.29255276918411255 0.038363993167877197 0.16357509791851044
0.37521448731422424 0.049235325306653976 0.19570177793502808
0.044782988727092743 0.057535015046596527 0.11109532415866852
0.09862111508846283 0.072148866951465607 0.1479642242193222
0.17038080096244812 0.083582811057567596 0.18018920719623566
0.26340138912200928 0.091228947043418884 0.20509466528892517
0.35821551084518433 0.10477935522794724 0.22901739180088043
0.44607996940612793 0.12221734970808029 0.25686562061309814
0.51681071519851685 0.14828629791736603 0.28665634989738464
0.086350776255130768 0.160981684923172 0.22166948020458221
0.16174434125423431 0.17625989019870758 0.24227100610733032
0.25529173016548157 0.19202978909015656 0.26295149326324463
0.359845370054245 0.20978942513465881 0.28473111987113953
0.46102911233901978 0.23160365223884583 0.30984002351760864
0.54907691478729248 0.25668364763259888 0.3403276801109314
0.62210369110107422 0.28827226161956787 0.37335634231567383
0.12791214883327484 0.29894301295280457 0.29071831703186035
0.22095026075839996 0.31866243481636047 0.31130015850067139
0.32842534780502319 0.34007751941680908 0.33641234040260315
0.43992340564727783 0.36520639061927795 0.36337971687316895
0.54512125253677368 0.39426809549331665 0.39264726638793945
0.63769698143005371 0.42264887690544128 0.42842179536819458
0.71544736623764038 0.4546101987361908 0.4646587073802948
0.20124788582324982 0.45858949422836304 0.37086686491966248
0.3049074113368988 0.48269015550613403 0.39781707525253296
0.41710597276687622 0.50627952814102173 0.43005761504173279
0.52887582778930664 0.53206789493560791 0.46144753694534302
0.63459223508834839 0.56213253736495972 0.49247920513153076
0.7282484769821167 0.59122008085250854 0.52749228477478027
0.80552059412002563 0.62247103452682495 0.56223064661026001
0.31364357471466064 0.6193011999130249 0.48147144913673401
0.41949683427810669 0.64545136690139771 0.50986182689666748
0.5232195258140564 0.67092466354370117 0.54084223508834839
0.62552249431610107 0.69526714086532593 0.56978470087051392
0.72695374488830566 0.71931511163711548 0.59736162424087524
0.81766486167907715 0.74481523036956787 0.62714892625808716
0.88928747177124023 0.77295666933059692 0.65524041652679443
0.43982654809951782 0.77063149213790894 0.60327070951461792
0.54456919431686401 0.79576617479324341 0.63129669427871704
0.63649952411651611 0.82072275876998901 0.65693992376327515
0.72580879926681519 0.84048807621002197 0.67907601594924927
0.81655335426330566 0.85608977079391479 0.69829392433166504
0.89854109287261963 0.87411558628082275 0.71852117776870728
0.96519666910171509 0.89543414115905762 0.73880791664123535
3.6621095205191523e-05 0.00059688789770007133 0.003666986245661974
0.014112943783402443 0.0096308840438723564 0.031834665685892105
0.060340628027915955 0.023572973906993866 0.087500058114528656
0.13157474994659424 0.032215327024459839 0.1379733681678772
0.22578871250152588 0.033352315425872803 0.18832872807979584
0.32385021448135376 0.033599719405174255 0.23748290538787842
0.39840614795684814 0.048693519085645676 0.27455288171768188
0.047334708273410797 0.063390336930751801 0.16779740154743195
0.10629250109195709 0.078132539987564087 0.21466432511806488
0.18124675750732422 0.089069083333015442 0.25603517889976501
0.27308139204978943 0.098646588623523712 0.28353771567344666
0.37138044834136963 0.11014875769615173 0.31359782814979553
0.46147215366363525 0.12546654045581818 0.34898734092712402
0.5270991325378418 0.15316544473171234 0.38007274270057678
0.092842862010002136 0.16683590412139893 0.30693131685256958
0.16999216377735138 0.18415719270706177 0.33135724067687988
0.26353701949119568 0.20058013498783112 0.35480555891990662
0.36775007843971252 0.21791160106658936 0.37749946117401123
0.47120240330696106 0.2387554943561554 0.40671160817146301
0.55927377939224243 0.26419174671173096 0.44117492437362671
0.62932461500167847 0.29569834470748901 0.47502526640892029
0.1398312896490097 0.30777093768119812 0.39279636740684509
0.23180192708969116 0.32932928204536438 0.41169977188110352
0.33889573812484741 0.35092270374298096 0.43722802400588989
0.45001360774040222 0.37498682737350464 0.46513503789901733
0.55631732940673828 0.40217563509941101 0.49724006652832031
0.64909261465072632 0.43147966265678406 0.53523701429367065
0.7261892557144165 0.46344280242919922 0.57256191968917847
0.21642602980136871 0.46915015578269958 0.48103955388069153
0.31919011473655701 0.49403849244117737 0.50789254903793335
0.43051394820213318 0.51762247085571289 0.53887844085693359
0.54081010818481445 0.54366230964660645 0.56835073232650757
0.64551246166229248 0.57348227500915527 0.59956365823745728
0.73889946937561035 0.60180604457855225 0.63653290271759033
0.81595975160598755 0.63229900598526001 0.67269033193588257
0.3277687132358551 0.62915229797363281 0.59112483263015747
0.43111112713813782 0.65611034631729126 0.61941021680831909
0.53523653745651245 0.68000763654708862 0.64864850044250488
0.63660526275634766 0.70442324876785278 0.67502087354660034
0.73508697748184204 0.729461669921875 0.70192664861679077
0.82298994064331055 0.75141113996505737 0.73162323236465454
0.89411383867263794 0.7748258113861084 0.75840801000595093
0.45297852158546448 0.77850919961929321 0.71120321750640869
0.55160140991210938 0.80452054738998413 0.73623883724212646
0.64404380321502686 0.82720428705215454 0.75820028781890869
0.73332691192626953 0.84524083137512207 0.77830708026885986
0.82082325220108032 0.85973584651947021 0.79737603664398193
0.89886373281478882 0.87332677841186523 0.81495654582977295
0.96230125427246094 0.8880886435508728 0.82931238412857056
0.0013354731490835547 0.0032584397122263908 0.012207509949803352
0.027972472831606865 0.015021709725260735 0.062980905175209045
0.079169392585754395 0.026390794664621353 0.13546006381511688
0.15113011002540588 0.035242266952991486 0.19405798614025116
0.24181404709815979 0.039112571626901627 0.25175696611404419
0.33991524577140808 0.039312772452831268 0.30651307106018066
0.42065256834030151 0.051907811313867569 0.34927931427955627
0.057009350508451462 0.069780789315700531 0.22377316653728485
0.11646300554275513 0.083749793469905853 0.28332316875457764
0.19264312088489532 0.094344913959503174 0.32894593477249146
0.28346672654151917 0.1059248074889183 0.35930052399635315
0.38163864612579346 0.11831285059452057 0.39294978976249695
0.47175180912017822 0.1360030323266983 0.43106168508529663
0.54450094699859619 0.16270270943641663 0.46541231870651245
0.099325500428676605 0.17343664169311523 0.38123005628585815
0.17880657315254211 0.19211781024932861 0.41215765476226807
0.27290618419647217 0.21028643846511841 0.43812969326972961
0.37530040740966797 0.22900368273258209 0.461809903383255
0.47917068004608154 0.24980074167251587 0.49289485812187195
0.57016301155090332 0.2760981023311615 0.53010755777359009
0.64516723155975342 0.30724531412124634 0.5661807656288147
0.14706510305404663 0.31680160760879517 0.47957435250282288
0.2435900866985321 0.33890539407730103 0.50092720985412598
0.35086512565612793 0.36265528202056885 0.52599596977233887
0.4600406289100647 0.38689091801643372 0.55407547950744629
0.5651623010635376 0.41435199975967407 0.58625900745391846
0.65893006324768066 0.44418507814407349 0.62638241052627563
0.73822969198226929 0.47448983788490295 0.66587918996810913
0.2242085337638855 0.47877296805381775 0.57526886463165283
0.3337649405002594 0.50289350748062134 0.60548466444015503
0.44527646899223328 0.52851170301437378 0.63292777538299561
0.55294203758239746 0.55481791496276855 0.65937107801437378
0.65530484914779663 0.58380746841430664 0.68980079889297485
0.74756944179534912 0.61415749788284302 0.72827160358428955
0.82622659206390381 0.64295655488967896 0.76692670583724976
0.3343026340007782 0.63797998428344727 0.68426704406738281
0.44183182716369629 0.66493058204650879 0.71402657032012939
0.54787272214889526 0.68882495164871216 0.74117910861968994
0.64794272184371948 0.71083974838256836 0.7654796838760376
0.74309152364730835 0.73449259996414185 0.79107391834259033
0.8294605016708374 0.75958693027496338 0.82132083177566528
0.90324693918228149 0.78346335887908936 0.85169029235839844
0.45491015911102295 0.78757929801940918 0.79834461212158203
0.55574631690979004 0.81274271011352539 0.82545530796051025
0.65096783638000488 0.83340364694595337 0.84702473878860474
0.74041002988815308 0.84866011142730713 0.86684024333953857
0.82419693470001221 0.86095952987670898 0.88592952489852905
0.90278458595275879 0.87887918949127197 0.9046330451965332
0.97264719009399414 0.89890867471694946 0.92383265495300293
0.0043405867181718349 0.0081235095858573914 0.034711860120296478
0.042234219610691071 0.021568253636360168 0.10278458148241043
0.098092980682849884 0.032256722450256348 0.17886970937252045
0.17504869401454926 0.037703808397054672 0.24302023649215698
0.27058562636375427 0.035629406571388245 0.3124726414680481
0.36006021499633789 0.043810885399580002 0.36752414703369141
0.44004780054092407 0.059000439941883087 0.41278043389320374
0.068480424582958221 0.078556627035140991 0.27696013450622559
0.12893490493297577 0.093911036849021912 0.3360435962677002
0.20708358287811279 0.10561173409223557 0.38247153162956238
0.30191034078598022 0.11372862011194229 0.42172977328300476
0.40059748291969299 0.12409424036741257 0.46355587244033813
0.48520389199256897 0.14795050024986267 0.50005704164505005
0.55986142158508301 0.17569580674171448 0.53530234098434448
0.10643894225358963 0.18275018036365509 0.44466504454612732
0.19105564057826996 0.20430248975753784 0.47505924105644226
0.28756171464920044 0.22376154363155365 0.50464743375778198
0.39121159911155701 0.24138495326042175 0.53451138734817505
0.49113178253173828 0.26271957159042358 0.56485027074813843
0.58122932910919189 0.29009786248207092 0.60218334197998047
0.65921270847320557 0.32042282819747925 0.64020317792892456
0.15578801929950714 0.32952269911766052 0.54590219259262085
0.25523489713668823 0.35263311862945557 0.56759756803512573
0.36541113257408142 0.37616127729415894 0.59754663705825806
0.47402891516685486 0.39967802166938782 0.62898421287536621
0.57549965381622314 0.42678424715995789 0.65920323133468628
0.66872811317443848 0.45541340112686157 0.69914823770523071
0.74979633092880249 0.48326763510704041 0.73988980054855347
0.23018023371696472 0.49095416069030762 0.64484161138534546
0.34420123696327209 0.51594322919845581 0.67404180765151978
0.4586123526096344 0.54087275266647339 0.70263266563415527
0.56561660766601562 0.56521034240722656 0.73237711191177368
0.66628849506378174 0.59304922819137573 0.76360201835632324
0.75766974687576294 0.6216011643409729 0.80068933963775635
0.83615219593048096 0.64559108018875122 0.83797013759613037
0.33850952982902527 0.6481090784072876 0.75496017932891846
0.4497891366481781 0.67508977651596069 0.78497588634490967
0.55883198976516724 0.69876682758331299 0.81211549043655396
0.65901482105255127 0.71912938356399536 0.83878636360168457
0.75472784042358398 0.74376821517944336 0.86557799577713013
0.8418433666229248 0.77019292116165161 0.89559751749038696
0.9155152440071106 0.78987431526184082 0.92660981416702271
0.45284929871559143 0.79715532064437866 0.86622744798660278
0.55685615539550781 0.82141560316085815 0.89571487903594971
0.65635275840759277 0.84146726131439209 0.91996532678604126
0.74816954135894775 0.85685056447982788 0.94194561243057251
0.83429533243179321 0.87241905927658081 0.96294212341308594
0.9157416820526123 0.89390599727630615 0.98322176933288574
0.98659646511077881 0.9150729775428772 0.9965357780456543
