assets/lut/alexjordan conflict 01.cube
# Created by: G'MIC (https://gmic.eu)
TITLE "conflict_01"
# LUT size
LUT_3D_SIZE 5
# Data domain
DOMAIN_MIN 0.0 0.0 0.0
DOMAIN_MAX 1.0 1.0 1.0
# LUT data points
0 0 0.029975337907671928
0.1605180948972702 0 0.021303154528141022
0.41606530547142029 0 0.022093290463089943
0.66810941696166992 0 0.022728055715560913
0.92616069316864014 0 0.019388925284147263
0.00051179772708564997 0.16930633783340454 0.027262803167104721
0.1706298440694809 0.16944678127765656 0.029095817357301712
0.42646148800849915 0.16481210291385651 0.028859186917543411
0.67834609746932983 0.16445581614971161 0.030882352963089943
0.9339594841003418 0.16486577689647675 0.031409125775098801
0.004041619598865509 0.41766425967216492 0.029669802635908127
0.18100905418395996 0.41794997453689575 0.037419084459543228
0.43081071972846985 0.41777953505516052 0.037255365401506424
0.6867637038230896 0.41859033703804016 0.034803923219442368
0.94485479593276978 0.41618704795837402 0.031965367496013641
0.0083038331940770149 0.66393125057220459 0.028899293392896652
0.19699288904666901 0.66573995351791382 0.038879066705703735
0.44041329622268677 0.66847771406173706 0.041850488632917404
0.6969153881072998 0.66963177919387817 0.038785763084888458
0.95649361610412598 0.66867470741271973 0.031517688184976578
0.016981013119220734 0.91802430152893066 0.021262673661112785
0.21641512215137482 0.92076599597930908 0.032237183302640915
0.45409804582595825 0.92270040512084961 0.037371542304754257
0.70866578817367554 0.92321538925170898 0.03474673256278038
0.96921294927597046 0.92321538925170898 0.026115387678146362
0.00013912425492890179 0 0.25062328577041626
0.15841041505336761 0 0.2499387264251709
0.41418653726577759 0 0.25073528289794922
0.66758882999420166 0 0.2506318986415863
0.92602169513702393 0 0.24863341450691223
0 0.1660444587469101 0.25742366909980774
0.17275184392929077 0.16837914288043976 0.25857841968536377
0.42955243587493896 0.16519652307033539 0.25840824842453003
0.68129414319992065 0.16532395780086517 0.25833594799041748
0.93636709451675415 0.1662747859954834 0.25861653685569763
0.00029620001441799104 0.41758430004119873 0.2632746696472168
0.18448375165462494 0.42091035842895508 0.26854163408279419
0.43805137276649475 0.42077204585075378 0.26688513159751892
0.69225990772247314 0.41985738277435303 0.26455375552177429
0.94707328081130981 0.41811242699623108 0.26356250047683716
0.0037481121253222227 0.66533762216567993 0.26793399453163147
0.19228538870811462 0.66813236474990845 0.27541694045066833
0.44084754586219788 0.66778743267059326 0.27719858288764954
0.69822996854782104 0.66700059175491333 0.27468439936637878
0.95534425973892212 0.66734069585800171 0.2714022696018219
0.0080302068963646889 0.91884851455688477 0.26426205039024353
0.20205850899219513 0.92058825492858887 0.27601531147956848
0.44450265169143677 0.92132353782653809 0.28073441982269287
0.70242434740066528 0.92088788747787476 0.27951270341873169
0.96415859460830688 0.92111539840698242 0.27304041385650635
0.021066434681415558 0 0.48016065359115601
0.17361915111541748 0 0.48080065846443176
0.40711897611618042 0 0.48062893748283386
0.66394650936126709 0 0.47937873005867004
0.9267084002494812 0 0.47682580351829529
0.0023108688183128834 0.15921284258365631 0.48644697666168213
0.16855262219905853 0.17258724570274353 0.48797726631164551
0.4201502799987793 0.17171470820903778 0.48782169818878174
0.6788407564163208 0.17069973051548004 0.48682597279548645
0.93810749053955078 0.16824136674404144 0.48623368144035339
0.0016170726157724857 0.41381305456161499 0.49460354447364807
0.18717248737812042 0.42040440440177917 0.49724358320236206
0.44072410464286804 0.42000612616539001 0.49611946940422058
0.69507491588592529 0.42004060745239258 0.49607843160629272
0.94941991567611694 0.41839700937271118 0.49479642510414124
0.0057628857903182507 0.667247474193573 0.50168699026107788
0.19985926151275635 0.66980797052383423 0.50585436820983887
0.44591867923736572 0.66871601343154907 0.50628197193145752
0.699790358543396 0.66786575317382812 0.50657063722610474
0.95497632026672363 0.66817045211791992 0.5052177906036377
0.0089413663372397423 0.92110997438430786 0.50123381614685059
0.20382091403007507 0.92251837253570557 0.50980395078659058
0.44493755698204041 0.92157512903213501 0.51372551918029785
0.70097094774246216 0.92078620195388794 0.51372551918029785
0.96157330274581909 0.92059016227722168 0.51118022203445435
0.029618969187140465 0 0.71237742900848389
0.18463651835918427 0 0.71081507205963135
0.40654879808425903 0 0.7104371190071106
0.6629975438117981 0 0.71004903316497803
0.92968916893005371 0 0.70618671178817749
0.0041149514727294445 0.16439266502857208 0.71789216995239258
0.16159099340438843 0.17654356360435486 0.71663075685501099
0.40764757990837097 0.17935886979103088 0.71788609027862549
0.67313086986541748 0.17747293412685394 0.71806597709655762
0.93842977285385132 0.17257595062255859 0.7161412239074707
0.0045562596060335636 0.41693073511123657 0.72500669956207275
0.18094460666179657 0.42271345853805542 0.72396302223205566
0.4294765293598175 0.42355808615684509 0.72507196664810181
0.68980729579925537 0.42477613687515259 0.72664153575897217
0.94928997755050659 0.42125877737998962 0.72528743743896484
0.011315887793898582 0.67032688856124878 0.73046284914016724
0.20549668371677399 0.67334979772567749 0.73312938213348389
0.4447610080242157 0.6726076602935791 0.73360294103622437
0.69731813669204712 0.67247551679611206 0.73471438884735107
0.95451390743255615 0.67145282030105591 0.73230987787246704
0.016267528757452965 0.92379140853881836 0.7328382134437561
0.21765752136707306 0.92560607194900513 0.73789358139038086
0.45249593257904053 0.92438846826553345 0.7414548397064209
0.70428252220153809 0.92354857921600342 0.74228817224502563
0.9636082649230957 0.9238511323928833 0.73716634511947632
0.031198045238852501 0 0.94350719451904297
0.19707542657852173 0 0.94262945652008057
0.41714143753051758 0 0.94172501564025879
0.6711849570274353 0 0.94129818677902222
0.9390263557434082 0 0.9360663890838623
0.0044798310846090317 0.16884183883666992 0.94950979948043823
0.16734384000301361 0.17817990481853485 0.94760620594024658
0.40773683786392212 0.18069852888584137 0.94939637184143066
0.67220878601074219 0.17910988628864288 0.94928044080734253
0.94214308261871338 0.17380131781101227 0.94541436433792114
0.0042433794587850571 0.41775780916213989 0.95379900932312012
0.18005836009979248 0.42430630326271057 0.95343136787414551
0.42129907011985779 0.42549020051956177 0.95426046848297119
0.68376857042312622 0.42505750060081482 0.95637094974517822
0.95060616731643677 0.4213387668132782 0.95344072580337524
0.014380017295479774 0.67086547613143921 0.96102678775787354
0.20870572328567505 0.67516100406646729 0.96127450466156006
0.4423871636390686 0.67518383264541626 0.96127772331237793
0.69768989086151123 0.6734997034072876 0.96412885189056396
0.96011674404144287 0.67193621397018433 0.96088439226150513
0.027454584836959839 0.92539447546005249 0.96127450466156006
0.231212317943573 0.92757350206375122 0.96532148122787476
0.46273881196975708 0.92689281702041626 0.9690592885017395
0.714935302734375 0.92418110370635986 0.97223562002182007
0.97297996282577515 0.92444854974746704 0.96516573429107666
