assets/lut/alexjordan dream 01.cube
# Created by: G'MIC (https://gmic.eu)
TITLE "dream_1"
# LUT size
LUT_3D_SIZE 13
# Data domain
DOMAIN_MIN 0.0 0.0 0.0
DOMAIN_MAX 1.0 1.0 1.0
# LUT data points
0.033701639622449875 0.033641155809164047 0.038757983595132828
0.11659292876720428 0.040634993463754654 0.0054233777336776257
0.20050953328609467 0.046475443989038467 0
0.28566348552703857 0.05201282724738121 0
0.37191623449325562 0.057715814560651779 0
0.45904189348220825 0.063588447868824005 0
0.54669344425201416 0.06944148987531662 0
0.63408422470092773 0.075240008533000946 0
0.72147715091705322 0.081045307219028473 0
0.80888152122497559 0.08690045028924942 0
0.89582651853561401 0.092194437980651855 0
0.97854524850845337 0.096727572381496429 0
1 0.099570959806442261 0
0.029090313240885735 0.10147535800933838 0.17639133334159851
0.108890101313591 0.10808808356523514 0.10296548902988434
0.19109705090522766 0.11381017416715622 0.041294950991868973
0.27547243237495422 0.11974388360977173 0.0070749619044363499
0.3615233302116394 0.12594915926456451 0
0.44879120588302612 0.13236331939697266 0
0.53644484281539917 0.13863606750965118 0
0.62384897470474243 0.14491082727909088 0
0.71097636222839355 0.15112647414207458 0
0.79792338609695435 0.15729238092899323 0
0.88458305597305298 0.16310912370681763 0
0.96960383653640747 0.16804365813732147 0
1 0.17168496549129486 0
0.025448398664593697 0.16895566880702972 0.32378590106964111
0.10207325220108032 0.17498338222503662 0.24814532697200775
0.18173897266387939 0.18068647384643555 0.17568540573120117
0.26481395959854126 0.18695694208145142 0.10593476891517639
0.35077646374702454 0.19371344149112701 0.04126308485865593
0.43841949105262756 0.20046147704124451 0.0055612600408494473
0.52621364593505859 0.20691387355327606 0
0.61334288120269775 0.21342520415782928 0
0.70000344514846802 0.22001124918460846 0
0.78650671243667603 0.22638092935085297 0
0.8728485107421875 0.2325405478477478 0
0.95856380462646484 0.23794570565223694 0
1 0.2421334981918335 0
0.02316652238368988 0.23718734085559845 0.47301223874092102
0.095459118485450745 0.24297566711902618 0.3974297046661377
0.17235665023326874 0.24863363802433014 0.3229985237121582
0.25397565960884094 0.25484845042228699 0.24904413521289825
0.33974167704582214 0.26143506169319153 0.1730227917432785
0.42792123556137085 0.26793354749679565 0.094684988260269165
0.51587384939193726 0.27445033192634583 0.032266519963741302
0.60254430770874023 0.28140965104103088 0.0058489330112934113
0.68870300054550171 0.28799483180046082 8.2936006947420537e-05
0.77488327026367188 0.2945857048034668 0
0.86087286472320557 0.30088219046592712 0
0.94634532928466797 0.30671855807304382 0
0.99927043914794922 0.31160923838615417 0
0.022097673267126083 0.30622106790542603 0.62362939119338989
0.090289048850536346 0.312032550573349 0.54787993431091309
0.16362731158733368 0.31763720512390137 0.47357147932052612
0.24366839230060577 0.32360291481018066 0.40041714906692505
0.32920652627944946 0.32979413866996765 0.32423904538154602
0.41720107197761536 0.33585706353187561 0.24257795512676239
0.50488519668579102 0.34233361482620239 0.16290917992591858
0.59122401475906372 0.34904342889785767 0.095984891057014465
0.67704063653945923 0.3554844856262207 0.043985944241285324
0.76298439502716064 0.36191782355308533 0.011229615658521652
0.84878808259963989 0.36841762065887451 0.00037602442898787558
0.93402457237243652 0.37468776106834412 0
0.99673211574554443 0.38043907284736633 0
0.023041011765599251 0.37550431489944458 0.77530199289321899
0.087207987904548645 0.38136476278305054 0.69877755641937256
0.15701425075531006 0.3869825005531311 0.62419450283050537
0.23548994958400726 0.39265084266662598 0.55149239301681519
0.31941971182823181 0.39860188961029053 0.47659468650817871
0.40624240040779114 0.40449601411819458 0.39750412106513977
0.49312034249305725 0.41090306639671326 0.31488412618637085
0.5793265700340271 0.41723603010177612 0.23626537621021271
0.66515713930130005 0.42296969890594482 0.16727615892887115
0.75103521347045898 0.42884233593940735 0.10406096279621124
0.83666312694549561 0.43527430295944214 0.044815078377723694
0.92176896333694458 0.44218152761459351 0.0067498600110411644
0.99236243963241577 0.44854569435119629 0
0.022293839603662491 0.44448822736740112 0.92555052042007446
0.08555130660533905 0.45048832893371582 0.84988003969192505
0.15356875956058502 0.45605096220970154 0.7745017409324646
0.22933325171470642 0.46164184808731079 0.70040547847747803
0.31066837906837463 0.46767351031303406 0.62488055229187012
0.39503005146980286 0.47396132349967957 0.545937180519104
0.48111003637313843 0.48056533932685852 0.4655100405216217
0.56751984357833862 0.4863782525062561 0.38715681433677673
0.6533665657043457 0.4909425675868988 0.31214779615402222
0.7390100359916687 0.49587750434875488 0.23883527517318726
0.82477623224258423 0.50221210718154907 0.16499534249305725
0.90984785556793213 0.5092470645904541 0.092146076261997223
0.98636764287948608 0.51617324352264404 0.032501954585313797
0.016395000740885735 0.51293325424194336 0.99912399053573608
0.08054681122303009 0.51889300346374512 0.97924679517745972
0.14953127503395081 0.52472931146621704 0.92288792133331299
0.22345580160617828 0.53046953678131104 0.84844428300857544
0.30230596661567688 0.5366024374961853 0.77219623327255249
0.38464656472206116 0.54315251111984253 0.69428431987762451
0.46982631087303162 0.55003893375396729 0.61653596162796021
0.55627429485321045 0.55604249238967896 0.54016900062561035
0.6417769193649292 0.5598369836807251 0.46427345275878906
0.72723591327667236 0.56392586231231689 0.38767784833908081
0.81290721893310547 0.56974095106124878 0.31034845113754272
0.8979918360710144 0.57634490728378296 0.23394176363945007
0.97882574796676636 0.58325004577636719 0.16177241504192352
0.0093129025772213936 0.5807797908782959 1
0.071358688175678253 0.58703005313873291 1
0.14253638684749603 0.59286928176879883 0.99884194135665894
0.21628642082214355 0.59863197803497314 0.97737830877304077
0.29351255297660828 0.60477352142333984 0.91887897253036499
0.37436598539352417 0.61127328872680664 0.84288758039474487
0.45815271139144897 0.61804717779159546 0.76678222417831421
0.54389280080795288 0.62409055233001709 0.69145721197128296
0.62974804639816284 0.62858408689498901 0.61603587865829468
0.71527481079101562 0.63289439678192139 0.53972923755645752
0.80076742172241211 0.6382828950881958 0.46352320909500122
0.88595449924468994 0.64463132619857788 0.38809636235237122
0.96968197822570801 0.65120851993560791 0.31253555417060852
0.003551288740709424 0.64878970384597778 1
0.059369448572397232 0.65483522415161133 1
0.1326117068529129 0.66081970930099487 1
0.20708122849464417 0.66655701398849487 1
0.28379389643669128 0.67242306470870972 0.99840795993804932
0.36353430151939392 0.6784929633140564 0.97468423843383789
0.44578060507774353 0.68465816974639893 0.9150315523147583
0.530875563621521 0.69078934192657471 0.84054112434387207
0.61706274747848511 0.69620668888092041 0.76541280746459961
0.70288217067718506 0.70160704851150513 0.68972510099411011
0.78844636678695679 0.70748347043991089 0.61383473873138428
0.87380099296569824 0.71374934911727905 0.53772532939910889
0.95905411243438721 0.72035253047943115 0.46203804016113281
0.00040947410161606967 0.71652770042419434 1
0.045490041375160217 0.72282475233078003 1
0.12063392251729965 0.7286689281463623 1
0.19646407663822174 0.73444253206253052 1
0.27366280555725098 0.74014902114868164 1
0.35300430655479431 0.74587565660476685 1
0.43465623259544373 0.75181502103805542 0.99812126159667969
0.51908910274505615 0.75765711069107056 0.97339844703674316
0.60483145713806152 0.76398217678070068 0.912994384765625
0.69051212072372437 0.77021574974060059 0.83770167827606201
0.77602732181549072 0.77683538198471069 0.76164549589157104
0.86163228750228882 0.78364330530166626 0.68529921770095825
0.94758754968643188 0.79011863470077515 0.61017698049545288
0 0.7844197154045105 1
0.030728299170732498 0.79075831174850464 1
0.1079167053103447 0.79676622152328491 1
0.18496552109718323 0.80254667997360229 1
0.26299223303794861 0.80825328826904297 1
0.34274041652679443 0.81393724679946899 1
0.42457503080368042 0.81977880001068115 1
0.50833427906036377 0.82598215341567993 1
0.5933762788772583 0.83218479156494141 0.99796515703201294
0.67863219976425171 0.83896899223327637 0.97144275903701782
0.76417547464370728 0.84600889682769775 0.9084821343421936
0.85031980276107788 0.8533514142036438 0.83259773254394531
0.93711847066879272 0.85970252752304077 0.7582622766494751
0 0.85244953632354736 1
0.018323188647627831 0.85891890525817871 1
0.093126051127910614 0.86501407623291016 1
0.17195340991020203 0.87094986438751221 1
0.25148719549179077 0.87669098377227783 1
0.33201965689659119 0.88262295722961426 1
0.41416740417480469 0.88847434520721436 1
0.49776700139045715 0.89455580711364746 1
0.58238017559051514 0.90102487802505493 1
0.66741538047790527 0.90786254405975342 1
0.75333636999130249 0.91514897346496582 0.99746412038803101
0.83992308378219604 0.92236548662185669 0.96900379657745361
0.9270818829536438 0.92867696285247803 0.90698301792144775
0.039607387036085129 0.039890933781862259 0.046000774949789047
0.12314672768115997 0.04716428741812706 0.0067131640389561653
0.20713847875595093 0.052994508296251297 0
0.29169237613677979 0.058618806302547455 0
0.37759089469909668 0.064556866884231567 0
0.46434205770492554 0.070558167994022369 0
0.55154705047607422 0.076388277113437653 0
0.63900738954544067 0.082256197929382324 0
0.72642719745635986 0.087680220603942871 0
0.81370240449905396 0.09387475997209549 0
0.90085005760192871 0.10013225674629211 0
0.98198622465133667 0.10498063266277313 0
1 0.10811883956193924 0
0.032536990940570831 0.10726682096719742 0.18563507497310638
0.11413327604532242 0.11376279592514038 0.10839863121509552
0.19650585949420929 0.11937590688467026 0.043671954423189163
0.28058245778083801 0.12546652555465698 0.0075045418925583363
0.36652621626853943 0.13223931193351746 0
0.45370286703109741 0.13924725353717804 0
0.54105210304260254 0.14549922943115234 0
0.62823396921157837 0.15157893300056458 0
0.71533763408660889 0.15778355300426483 0
0.80253463983535767 0.1641010046005249 0
0.88937783241271973 0.17033283412456512 0
0.97348487377166748 0.1757759153842926 0
1 0.17964981496334076 0
0.026475675404071808 0.17443399131298065 0.3319762647151947
0.10415477305650711 0.18008579313755035 0.25491759181022644
0.18475426733493805 0.18518112599849701 0.18058943748474121
0.26874253153800964 0.19196389615535736 0.10737591981887817
0.35533061623573303 0.1994439959526062 0.040446680039167404
0.44296711683273315 0.20690108835697174 0.0053665908053517342
0.53037142753601074 0.21376435458660126 0
0.61742186546325684 0.22024396061897278 0
0.70416581630706787 0.22663179039955139 0
0.790871262550354 0.2330905944108963 0
0.87735664844512939 0.23944397270679474 0
0.96283888816833496 0.2451867014169693 0
1 0.24966447055339813 0
0.020733373239636421 0.24262034893035889 0.47985738515853882
0.093956291675567627 0.24796073138713837 0.40361884236335754
0.17272429168224335 0.25337380170822144 0.32795435190200806
0.25672474503517151 0.25991281867027283 0.25164338946342468
0.34420061111450195 0.2670367956161499 0.17356382310390472
0.43246513605117798 0.27417877316474915 0.096122026443481445
0.51975142955780029 0.28104463219642639 0.034473881125450134
0.6061597466468811 0.28797680139541626 0.005730348639190197
0.69242674112319946 0.29466754198074341 1.5079273907758761e-05
0.77883785963058472 0.30132848024368286 0
0.86492860317230225 0.30767977237701416 0
0.95026004314422607 0.31360077857971191 0
0.99964994192123413 0.31886023283004761 0
0.01680075004696846 0.31197941303253174 0.62890893220901489
0.084319382905960083 0.31743630766868591 0.55250281095504761
0.16070541739463806 0.32299655675888062 0.47773101925849915
0.24510271847248077 0.32903656363487244 0.40417778491973877
0.33331185579299927 0.33516192436218262 0.32744595408439636
0.42157652974128723 0.34172108769416809 0.24551016092300415
0.50853776931762695 0.3484838604927063 0.16476419568061829
0.59456741809844971 0.35548406839370728 0.094133667647838593
0.68056035041809082 0.36193451285362244 0.039499919861555099
0.7666550874710083 0.36855769157409668 0.0091876611113548279
0.85247021913528442 0.37500476837158203 0.00027178594609722495
0.93707120418548584 0.38124880194664001 0
0.99735456705093384 0.38733720779418945 0
0.014654720202088356 0.38142293691635132 0.77910768985748291
0.077421806752681732 0.38708186149597168 0.70201432704925537
0.15077859163284302 0.39271563291549683 0.62768048048019409
0.23487561941146851 0.39828911423683167 0.5564696192741394
0.32246249914169312 0.40411454439163208 0.48247963190078735
0.41006606817245483 0.4101766049861908 0.40235960483551025
0.49675783514976501 0.41676455736160278 0.31826967000961304
0.58274561166763306 0.42322853207588196 0.23812676966190338
0.66862183809280396 0.42929252982139587 0.16608436405658722
0.7547340989112854 0.43518385291099548 0.10286452621221542
0.84022396802902222 0.44170659780502319 0.04497840628027916
0.9242979884147644 0.44856008887290955 0.007677923422306776
0.99295270442962646 0.45525261759757996 0
0.013385817408561707 0.45048832893371582 0.92830437421798706
0.075403831899166107 0.45619106292724609 0.85309326648712158
0.14712277054786682 0.46188575029373169 0.77867323160171509
0.22757519781589508 0.46755459904670715 0.70637929439544678
0.31219953298568726 0.47321334481239319 0.63247960805892944
0.39822483062744141 0.47943243384361267 0.5541955828666687
0.48468098044395447 0.48592153191566467 0.47327592968940735
0.57104432582855225 0.49195316433906555 0.3935697078704834
0.65714091062545776 0.49710145592689514 0.31750670075416565
0.74320858716964722 0.50223714113235474 0.24295571446418762
0.82859963178634644 0.50842976570129395 0.16853107511997223
0.91224789619445801 0.51542222499847412 0.096269838511943817
0.98702001571655273 0.52262181043624878 0.036718152463436127
0.010427781380712986 0.51891422271728516 0.99927246570587158
0.072729103267192841 0.52481359243392944 0.98101985454559326
0.14470359683036804 0.53044205904006958 0.92750257253646851
0.22174869477748871 0.5361214280128479 0.8546675443649292
0.30328521132469177 0.54212409257888794 0.77984100580215454
0.38736218214035034 0.54855954647064209 0.70330488681793213
0.47313937544822693 0.55524826049804688 0.62570428848266602
0.55962544679641724 0.56117182970046997 0.54878991842269897
0.64589548110961914 0.56584233045578003 0.47316139936447144
0.73187011480331421 0.57035833597183228 0.39522016048431396
0.81718212366104126 0.5758710503578186 0.31579846143722534
0.90087920427322388 0.58264732360839844 0.23669975996017456
0.98000907897949219 0.58972334861755371 0.16381694376468658
0.006235713604837656 0.58698356151580811 1
0.0658082515001297 0.59287899732589722 1
0.13896343111991882 0.59861147403717041 0.99920821189880371
0.21508125960826874 0.60430163145065308 0.98058384656906128
0.29452615976333618 0.61038041114807129 0.92591714859008789
0.37688562273979187 0.61694955825805664 0.85135424137115479
0.46163648366928101 0.62356984615325928 0.77563869953155518
0.54787278175354004 0.62975239753723145 0.7002711296081543
0.63425564765930176 0.63459175825119019 0.62448477745056152
0.72032874822616577 0.6392093300819397 0.5474134087562561
0.80555611848831177 0.64464467763900757 0.46887758374214172
0.88970154523849487 0.65097886323928833 0.38963568210601807
0.97182238101959229 0.65778452157974243 0.31271696090698242
0.0023263220209628344 0.65483522415161133 1
0.055813882499933243 0.6608351469039917 1
0.13047081232070923 0.66653233766555786 1
0.20635762810707092 0.67232006788253784 1
0.28530886769294739 0.67828953266143799 0.99905598163604736
0.36650806665420532 0.68449252843856812 0.9789741039276123
0.45014134049415588 0.69083225727081299 0.92275094985961914
0.53594446182250977 0.69713383913040161 0.84862035512924194
0.62241256237030029 0.70276367664337158 0.77325713634490967
0.70841246843338013 0.70816373825073242 0.6967359185218811
0.79351353645324707 0.71395224332809448 0.6193317174911499
0.87821996212005615 0.7202257513999939 0.5409243106842041
0.96252602338790894 0.72684508562088013 0.46322658658027649
0.00020303165365476161 0.72282475233078003 1
0.043319102376699448 0.72884821891784668 1
0.11969810724258423 0.73469823598861694 1
0.19647258520126343 0.74033719301223755 1
0.27557435631752014 0.74619799852371216 1
0.35624995827674866 0.75211977958679199 1
0.43942081928253174 0.75836443901062012 0.99886161088943481
0.52460378408432007 0.76453864574432373 0.97760188579559326
0.6108132004737854 0.77050608396530151 0.92004233598709106
0.69646787643432617 0.7767643928527832 0.84443801641464233
0.78150290250778198 0.78337943553924561 0.76710182428359985
0.86643147468566895 0.79023009538650513 0.68911808729171753
0.95185798406600952 0.79665380716323853 0.6121443510055542
0 0.79085183143615723 1
0.030353860929608345 0.79702067375183105 1
0.10797715932130814 0.80286610126495361 1
0.18586117029190063 0.80860030651092529 1
0.26520752906799316 0.81447839736938477 1
0.34615686535835266 0.82033771276473999 1
0.4290560781955719 0.82635277509689331 1
0.51380342245101929 0.83253771066665649 1
0.59939652681350708 0.83894699811935425 0.99858444929122925
0.68463420867919922 0.84559118747711182 0.9750170111656189
0.76976078748703003 0.85280203819274902 0.91350370645523071
0.85522127151489258 0.85994505882263184 0.83659303188323975
0.94115865230560303 0.86632651090621948 0.7607884407043457
0 0.85907310247421265 1
0.018758032470941544 0.86537885665893555 1
0.094025403261184692 0.87131661176681519 1
0.17382337152957916 0.87727981805801392 1
0.25409474968910217 0.88300728797912598 1
0.33560052514076233 0.88908141851425171 1
0.41853219270706177 0.89501559734344482 1
0.50285309553146362 0.90121555328369141 1
0.58791542053222656 0.90775656700134277 1
0.67316454648971558 0.91476213932037354 1
0.758800208568573 0.92186784744262695 0.99809306859970093
0.84464192390441895 0.92909711599349976 0.9713941216468811
0.93119519948959351 0.93545264005661011 0.90943127870559692
0.045890074223279953 0.045641340315341949 0.048992544412612915
0.13023130595684052 0.052689958363771439 0.0078579774126410484
0.21421636641025543 0.058824576437473297 3.5903033221984515e-06
0.29839235544204712 0.064688891172409058 0
0.38375404477119446 0.070948868989944458 0
0.47014567255973816 0.076977014541625977 0
0.5569646954536438 0.082548804581165314 0
0.64411705732345581 0.087745651602745056 0
0.7314295768737793 0.09323660284280777 0
0.81893116235733032 0.099218659102916718 0
0.90626615285873413 0.10569538921117783 0.00056339340517297387
0.98519885540008545 0.11130299419164658 0.0014743132051080465
1 0.11458589136600494 0
0.037209112197160721 0.11275485157966614 0.18840223550796509
0.12015361338853836 0.1191173642873764 0.11202753335237503
0.20317105948925018 0.12479612976312637 0.045776486396789551
0.28696978092193604 0.13123495876789093 0.0080859316512942314
0.37254947423934937 0.13851070404052734 0
0.45915579795837402 0.14548543095588684 0
0.54605227708816528 0.15167351067066193 0
0.63305807113647461 0.15728598833084106 0
0.72028762102127075 0.16302585601806641 0
0.80758547782897949 0.16915766894817352 0
0.89473658800125122 0.1756596714258194 0
0.97757500410079956 0.18154382705688477 0
1 0.18592549860477448 0
0.028357172384858131 0.17989370226860046 0.33608242869377136
0.10802112519741058 0.18505577743053436 0.25916346907615662
0.19041265547275543 0.19028596580028534 0.18390241265296936
0.27475956082344055 0.19757440686225891 0.10850913822650909
0.36118727922439575 0.205569788813591 0.040146563202142715
0.4482387900352478 0.21326622366905212 0.0050597097724676132
0.53516608476638794 0.22000186145305634 0
0.62188953161239624 0.22603410482406616 0
0.7087177038192749 0.23221102356910706 0
0.79596579074859619 0.23851051926612854 0
0.8826940655708313 0.24486860632896423 0
0.96758937835693359 0.25094160437583923 0
1 0.2558656632900238 0
0.019928965717554092 0.24821707606315613 0.48441034555435181
0.095571257174015045 0.25341150164604187 0.40801239013671875
0.17698676884174347 0.25887200236320496 0.33144155144691467
0.26270362734794617 0.26567950844764709 0.25360417366027832
0.35040360689163208 0.27303978800773621 0.17426086962223053
0.43755382299423218 0.28041484951972961 0.097384147346019745
0.52401137351989746 0.28728756308555603 0.037070002406835556
0.61030632257461548 0.29402652382850647 0.0059413234703242779
0.69679087400436401 0.30064481496810913 0
0.78372180461883545 0.30701076984405518 0
0.87013548612594604 0.31330659985542297 0
0.95518094301223755 0.31942176818847656 0
0.99992907047271729 0.32482665777206421 0
0.014303992502391338 0.31777527928352356 0.63297069072723389
0.083952061831951141 0.32324612140655518 0.5566522479057312
0.16406376659870148 0.32919585704803467 0.48147422075271606
0.25090309977531433 0.3352959156036377 0.4071601927280426
0.33996918797492981 0.3412136435508728 0.33072897791862488
0.42705270648002625 0.34758955240249634 0.24890200793743134
0.51275849342346191 0.3544715940952301 0.16743402183055878
0.59852588176727295 0.36144101619720459 0.093144454061985016
0.68458902835845947 0.36825570464134216 0.034520361572504044
0.77141541242599487 0.37457954883575439 0.0072020883671939373
0.8573601245880127 0.3808286190032959 0.00015557980805169791
0.94132930040359497 0.38731756806373596 0
0.9980730414390564 0.39338025450706482 0
0.010590152814984322 0.38728663325309753 0.78249794244766235
0.075033403933048248 0.39314797520637512 0.70606815814971924
0.15332704782485962 0.39898532629013062 0.63201814889907837
0.23954784870147705 0.40463283658027649 0.56042563915252686
0.32816752791404724 0.41004613041877747 0.48689857125282288
0.41521915793418884 0.41591194272041321 0.40646791458129883
0.50106298923492432 0.42241522669792175 0.32182750105857849
0.58678501844406128 0.42903116345405579 0.24034504592418671
0.67298543453216553 0.43517819046974182 0.16668611764907837
0.75958585739135742 0.44121143221855164 0.10197985917329788
0.84511274099349976 0.44747760891914368 0.045305993407964706
0.92790460586547852 0.4543633759021759 0.0083963731303811073
0.99381077289581299 0.46118351817131042 7.7909578976687044e-05
0.0084077725186944008 0.45622485876083374 0.93119233846664429
0.070740684866905212 0.46219605207443237 0.85686624050140381
0.14732322096824646 0.4678727388381958 0.78279232978820801
0.2303934246301651 0.4734901487827301 0.7107851505279541
0.31666478514671326 0.47907251119613647 0.63750195503234863
0.40307846665382385 0.48498496413230896 0.55997508764266968
0.48922061920166016 0.49130687117576599 0.47965151071548462
0.57533091306686401 0.49743449687957764 0.40125554800033569
0.66185122728347778 0.50288325548171997 0.3258928656578064
0.74859035015106201 0.50814801454544067 0.24951884150505066
0.8336796760559082 0.51414316892623901 0.17301775515079498
0.91563409566879272 0.52122002840042114 0.099350914359092712
0.98773336410522461 0.52851361036300659 0.039327014237642288
0.0065649296157062054 0.52465087175369263 0.99940341711044312
0.067371636629104614 0.53051000833511353 0.98260617256164551
0.14284177124500275 0.5361906886100769 0.93107789754867554
0.22306802868843079 0.54183149337768555 0.85925436019897461
0.30649751424789429 0.54766499996185303 0.78529888391494751
0.39166352152824402 0.55393904447555542 0.7096753716468811
0.47763955593109131 0.56051468849182129 0.63314807415008545
0.56417715549468994 0.5664372444152832 0.5573621392250061
0.65102744102478027 0.57175254821777344 0.48193144798278809
0.73774892091751099 0.57640761137008667 0.40365812182426453
0.82282543182373047 0.58183848857879639 0.32198131084442139
0.90491008758544922 0.58850014209747314 0.23956771194934845
0.98142963647842407 0.59587091207504272 0.16496792435646057
0.0038269043434411287 0.59269040822982788 1
0.061221644282341003 0.5984235405921936 1
0.13679675757884979 0.60400474071502686 0.99938440322875977
0.21569757163524628 0.6097571849822998 0.9826127290725708
0.29715922474861145 0.61585259437561035 0.93058860301971436
0.38098913431167603 0.62241101264953613 0.85731750726699829
