assets/lut/alexjordan cross process cp 130.cube
# Created by: G'MIC (https://gmic.eu)
TITLE "cross_process_cp_130"
# LUT size
LUT_3D_SIZE 7
# Data domain
DOMAIN_MIN 0.0 0.0 0.0
DOMAIN_MAX 1.0 1.0 1.0
# LUT data points
0 0 0
0 0 0
0.013248742558062077 0 4.5237822632770985e-05
0.091321967542171478 0 0.0018179201288148761
0.27538177371025085 0 0.0027902340516448021
0.54976677894592285 0 0.001155165140517056
0.78140050172805786 0 0.0028922136407345533
0.018305430188775063 0.018294913694262505 0.0025640150997787714
0.10031586885452271 0.029142102226614952 0.0031644634436815977
0.23925112187862396 0.025382338091731071 0.0039712046273052692
0.41575592756271362 0.022759756073355675 0.0003100526228081435
0.60433566570281982 0.022841120138764381 0.002056181663647294
0.79131972789764404 0.014759781770408154 0.00070311600575223565
0.9352225661277771 0.029391882941126823 0.00043095607543364167
0.014350158162415028 0.15952757000923157 0.0018382202833890915
0.1430385559797287 0.16267459094524384 0
0.29171448945999146 0.16503840684890747 0
0.44496917724609375 0.16582807898521423 0
0.60671627521514893 0.16046558320522308 0.00091965618776157498
0.77520710229873657 0.15548484027385712 0.00026424633688293397
0.90864145755767822 0.17406453192234039 0
0.0084131872281432152 0.31970486044883728 0.0015762030379846692
0.12534062564373016 0.3251100480556488 0
0.28066790103912354 0.33041203022003174 0.0012296190252527595
0.43300116062164307 0.3335055410861969 0.0011557484976947308
0.58098572492599487 0.33818301558494568 0.0029687320347875357
0.76199859380722046 0.33429586887359619 9.4784008979331702e-05
0.89006173610687256 0.35134923458099365 7.4678311648312956e-05
0.0064390143379569054 0.49539688229560852 0.00046985101653262973
0.096870511770248413 0.50387281179428101 0
0.25401335954666138 0.50540828704833984 0
0.40272623300552368 0.51345348358154297 0.00022759531566407531
0.5599939227104187 0.51781678199768066 0.00050303142052143812
0.75464004278182983 0.50883316993713379 0
0.86072248220443726 0.53362876176834106 0.00027245914679951966
0.0044856499880552292 0.70203661918640137 0.00075106153963133693
0.053427048027515411 0.70651453733444214 0
0.16483016312122345 0.71248286962509155 0
0.31869304180145264 0.71741384267807007 0
0.47696813941001892 0.72106921672821045 0
0.66368520259857178 0.71618133783340454 0
0.77433258295059204 0.73931574821472168 0.00016141404921654612
0.0024161543697118759 0.88129067420959473 0.0055398079566657543
0.057797733694314957 0.88455832004547119 3.7922578485449776e-05
0.17499186098575592 0.88806664943695068 0.00016180300735868514
0.3319697380065918 0.89084619283676147 0.0016081117792055011
0.50237798690795898 0.89233189821243286 0.0053251679055392742
0.70236045122146606 0.88443291187286377 0.0012154672294855118
0.81316268444061279 0.90823078155517578 0.01064593717455864
0 0 0
0.00037913603591732681 0 0
0.033427353948354721 0 0.0063315597362816334
0.12302872538566589 0 0.02230345830321312
0.33469760417938232 0 0.043820444494485855
0.6013224720954895 0.0010464687366038561 0.043637759983539581
0.80567938089370728 0 0.05268261581659317
0.023669134825468063 0.022945433855056763 0.034281354397535324
0.1164623349905014 0.032011143863201141 0.051767401397228241
0.26266446709632874 0.027963945642113686 0.063650913536548615
0.43266561627388 0.02649402990937233 0.063087224960327148
0.60998368263244629 0.032927166670560837 0.064169026911258698
0.7930833101272583 0.019225774332880974 0.054707396775484085
0.90463733673095703 0.019164679571986198 0.058026690036058426
0.024134887382388115 0.16252659261226654 0.053360208868980408
0.15298852324485779 0.1675875335931778 0.052022326737642288
0.29934123158454895 0.16875945031642914 0.050432182848453522
0.44834968447685242 0.17057210206985474 0.047560539096593857
0.60285335779190063 0.16965365409851074 0.052007593214511871
0.78565782308578491 0.15999922156333923 0.049859348684549332
0.90239018201828003 0.1737654060125351 0.052818119525909424
0.0094947069883346558 0.32569688558578491 0.045080702751874924
0.12963336706161499 0.33142921328544617 0.037929892539978027
0.28613370656967163 0.33407744765281677 0.039802536368370056
0.43492540717124939 0.33887875080108643 0.044336713850498199
0.58423590660095215 0.34448897838592529 0.04514668881893158
0.78292191028594971 0.33563715219497681 0.037111889570951462
0.89178800582885742 0.35508635640144348 0.048889100551605225
0.0020703782793134451 0.50314795970916748 0.028090637177228928
0.09566294401884079 0.51070046424865723 0.013027161359786987
0.25731632113456726 0.51409685611724854 0.010682154446840286
0.40705031156539917 0.5211145281791687 0.025087857618927956
0.55119425058364868 0.53001737594604492 0.027437919750809669
0.75695669651031494 0.52110105752944946 0.020009029656648636
0.86293560266494751 0.54224783182144165 0.029145140200853348
0 0.69822794198989868 0.0094637554138898849
0.049655601382255554 0.70563811063766479 2.6328891181037761e-05
0.18269893527030945 0.71519917249679565 0
0.326375812292099 0.72800201177597046 0.00071972119621932507
0.47606691718101501 0.73294234275817871 0.0012632482685148716
0.6650879979133606 0.72846126556396484 0
0.78054535388946533 0.74845129251480103 0.0021340313833206892
0 0.87160766124725342 0.011188432574272156
0.047976773232221603 0.87563550472259521 0.00053519452922046185
0.19506099820137024 0.88330507278442383 0.001222079386934638
0.36047881841659546 0.89056295156478882 0.0074430429376661777
0.51037693023681641 0.89927750825881958 0.018207356333732605
0.69764822721481323 0.89634466171264648 0.012955101206898689
0.81537604331970215 0.91613203287124634 0.02694021537899971
0 0 0
0.0016755496617406607 0 0.001560211181640625
0.045606844127178192 0 0.023555532097816467
0.15941397845745087 0 0.06352774053812027
0.38466855883598328 0 0.11222714930772781
0.65266597270965576 0.00040120142512023449 0.12969467043876648
0.85315620899200439 0.00018708471907302737 0.1587369292974472
0.025785662233829498 0.028116382658481598 0.089240461587905884
0.12663502991199493 0.032953344285488129 0.1273047924041748
0.27797755599021912 0.034758280962705612 0.15334758162498474
0.4443836510181427 0.029600270092487335 0.1633225679397583
0.61748182773590088 0.028994735330343246 0.16785989701747894
0.80564993619918823 0.018530169501900673 0.15786774456501007
0.90815871953964233 0.026594243943691254 0.17024935781955719
0.021776536479592323 0.17037060856819153 0.15282927453517914
0.15635563433170319 0.17170554399490356 0.15462006628513336
0.30175977945327759 0.17351308465003967 0.15421870350837708
0.45157614350318909 0.17418701946735382 0.15403610467910767
0.6113627552986145 0.17223499715328217 0.15364721417427063
0.80307680368423462 0.16614542901515961 0.15098144114017487
0.91179192066192627 0.18279561400413513 0.16472092270851135
0.015508809126913548 0.33264321088790894 0.13949434459209442
0.13583433628082275 0.33834120631217957 0.13412600755691528
0.28769069910049438 0.34021690487861633 0.14011384546756744
0.43860715627670288 0.34348931908607483 0.1432059109210968
0.59257239103317261 0.34931346774101257 0.14525702595710754
0.78923821449279785 0.34207236766815186 0.1430346816778183
0.89881795644760132 0.36014765501022339 0.15422205626964569
0.0062943403609097004 0.50782734155654907 0.10626067966222763
0.096037276089191437 0.51894843578338623 0.094556890428066254
0.25325772166252136 0.52087104320526123 0.10498588532209396
0.41115319728851318 0.52485805749893188 0.11649193614721298
0.56792008876800537 0.52881538867950439 0.12700650095939636
0.76172780990600586 0.52403140068054199 0.12618748843669891
0.8610614538192749 0.54862123727798462 0.12490991503000259
0 0.69843262434005737 0.062678180634975433
0.047186430543661118 0.71204829216003418 0.044596638530492783
0.17753647267818451 0.72794866561889648 0.041705816984176636
0.33603030443191528 0.73225575685501099 0.060172166675329208
0.48967009782791138 0.73480367660522461 0.063093148171901703
0.67714041471481323 0.73210841417312622 0.051862094551324844
0.78432351350784302 0.75497573614120483 0.065798081457614899
0 0.87095040082931519 0.06393057107925415
0.058724317699670792 0.87854158878326416 0.053510777652263641
0.2006925493478775 0.89007705450057983 0.061424389481544495
0.36505535244941711 0.89564979076385498 0.081685267388820648
0.52871793508529663 0.90026938915252686 0.086381040513515472
0.70853227376937866 0.9019542932510376 0.081979356706142426
0.8170325756072998 0.92424106597900391 0.10387083888053894
0 0 0.00067829806357622147
0.0063546872697770596 0 0.013777848333120346
0.06358153373003006 0 0.05708688497543335
0.20581609010696411 0 0.1306910514831543
0.43549785017967224 0 0.20408003032207489
0.70978766679763794 0.00087863695807754993 0.23784229159355164
0.87266188859939575 0 0.26822450757026672
0.032606519758701324 0.031597975641489029 0.16245874762535095
0.1418473869562149 0.034630075097084045 0.22520522773265839
0.2951953113079071 0.03742758184671402 0.27152213454246521
0.45651116967201233 0.030847512185573578 0.28158584237098694
0.61969089508056641 0.025252353399991989 0.28580951690673828
0.79905003309249878 0.02429097518324852 0.27692162990570068
0.91158723831176758 0.027389166876673698 0.28569099307060242
0.017686223611235619 0.17468419671058655 0.2692754864692688
0.15615116059780121 0.17495171725749969 0.27101480960845947
0.30524900555610657 0.1764538586139679 0.27327024936676025
0.45391279458999634 0.17955774068832397 0.27323824167251587
0.61433452367782593 0.17525437474250793 0.27187886834144592
0.80167341232299805 0.17102237045764923 0.26605799794197083
0.91304224729537964 0.18150788545608521 0.2822222113609314
0.014800127595663071 0.33552330732345581 0.25912919640541077
0.13926005363464355 0.34110784530639648 0.25328764319419861
0.29075992107391357 0.34422776103019714 0.257017582654953
0.44112926721572876 0.35072878003120422 0.26086360216140747
0.59581577777862549 0.35470202565193176 0.26487815380096436
0.784412682056427 0.34818300604820251 0.26081499457359314
0.9021720290184021 0.36106589436531067 0.27551090717315674
0.0039085987955331802 0.51176035404205322 0.22085078060626984
0.091187484562397003 0.52259206771850586 0.2148098349571228
0.2573915421962738 0.52383625507354736 0.22873270511627197
0.41020822525024414 0.53168767690658569 0.23061053454875946
0.57018554210662842 0.53322982788085938 0.241999551653862
0.76345902681350708 0.52912825345993042 0.24220536649227142
0.86815279722213745 0.54834699630737305 0.25371992588043213
0 0.71004122495651245 0.15006917715072632
0.04521922767162323 0.72176128625869751 0.14474709331989288
0.18611432611942291 0.73007667064666748 0.15618479251861572
0.33302551507949829 0.73930388689041138 0.15778040885925293
0.48470437526702881 0.74292737245559692 0.16610361635684967
0.68000173568725586 0.73780596256256104 0.16868847608566284
0.78618812561035156 0.75796657800674438 0.18560969829559326
0.0014590393984690309 0.87914359569549561 0.15892751514911652
0.077339127659797668 0.88457405567169189 0.16785703599452972
0.21591684222221375 0.89318829774856567 0.18459054827690125
0.36530581116676331 0.90153956413269043 0.19233369827270508
0.53468835353851318 0.90374606847763062 0.19714751839637756
0.73271000385284424 0.90068894624710083 0.20413367450237274
0.83131676912307739 0.92595887184143066 0.22775425016880035
0.00032689710496924818 0 0.020757218822836876
0.011585280299186707 0 0.040434908121824265
0.08910638839006424 0 0.11085575819015503
0.24382472038269043 0 0.21199619770050049
0.47153797745704651 0 0.31560775637626648
0.72581064701080322 0.00024834426585584879 0.3532155454158783
0.88720262050628662 0 0.39230263233184814
0.038389932364225388 0.03443603590130806 0.25035816431045532
0.15980565547943115 0.034790892153978348 0.34692448377609253
0.30544373393058777 0.034997560083866119 0.39284214377403259
0.46095532178878784 0.036394622176885605 0.40626490116119385
0.62082523107528687 0.031262475997209549 0.41230717301368713
0.81321448087692261 0.026676326990127563 0.40173724293708801
0.92247122526168823 0.029234359040856361 0.4122931957244873
0.025673555210232735 0.17251533269882202 0.3861144483089447
0.15996143221855164 0.17609928548336029 0.40018033981323242
0.30764013528823853 0.17616079747676849 0.39919310808181763
0.45664539933204651 0.18157683312892914 0.39839485287666321
0.61642146110534668 0.17964568734169006 0.39650461077690125
0.80697757005691528 0.17012616991996765 0.39061027765274048
0.91948187351226807 0.17485103011131287 0.40629556775093079
0.014858455397188663 0.3370550274848938 0.38114583492279053
0.14139547944068909 0.34270811080932617 0.38056808710098267
0.29197201132774353 0.34825003147125244 0.38128355145454407
0.44495818018913269 0.35383075475692749 0.38709264993667603
0.60246729850769043 0.35837054252624512 0.38866457343101501
0.79528564214706421 0.35104119777679443 0.38699078559875488
0.90253615379333496 0.36209592223167419 0.40168240666389465
0.0086664985865354538 0.51382845640182495 0.34984377026557922
0.10347247868776321 0.52245825529098511 0.34796422719955444
0.26788103580474854 0.52582395076751709 0.35842207074165344
0.41684421896934509 0.53366005420684814 0.35980668663978577
0.57558631896972656 0.53626090288162231 0.36607024073600769
0.76996225118637085 0.5315508246421814 0.36313369870185852
0.87119823694229126 0.54876983165740967 0.38298985362052917
0.0043438929133117199 0.71811366081237793 0.26380890607833862
0.059899318963289261 0.72228097915649414 0.2778436541557312
0.18951977789402008 0.73440814018249512 0.27614122629165649
0.33474084734916687 0.74401724338531494 0.27897316217422485
0.49030318856239319 0.74643760919570923 0.2934880256652832
0.6804966926574707 0.74393552541732788 0.29080590605735779
0.79781705141067505 0.7592388391494751 0.3162086009979248
0.0018923591123893857 0.88211739063262939 0.28730165958404541
0.080970704555511475 0.88464093208312988 0.30402541160583496
0.21497970819473267 0.89724236726760864 0.30719664692878723
0.36514869332313538 0.90713173151016235 0.31091272830963135
0.52999818325042725 0.90909624099731445 0.32563719153404236
0.72775214910507202 0.90411728620529175 0.32886528968811035
0.83117973804473877 0.93113076686859131 0.34858131408691406
0.00071272009517997503 0 0.037122644484043121
0.024529984220862389 0 0.08212713897228241
0.1189386397600174 0 0.19130492210388184
0.28993159532546997 0 0.33389827609062195
0.51371771097183228 0 0.44900530576705933
0.74723297357559204 0 0.49222502112388611
0.88256007432937622 0 0.52376586198806763
0.03947116807103157 0.033910218626260757 0.38141545653343201
0.1668781042098999 0.032877873629331589 0.49211317300796509
0.313799649477005 0.038046684116125107 0.53393292427062988
0.47071617841720581 0.036625251173973083 0.54965227842330933
0.62297713756561279 0.034942597150802612 0.55199670791625977
0.8154672384262085 0.028425553813576698 0.5417783260345459
0.9126778244972229 0.030422748997807503 0.54889523983001709
0.025840908288955688 0.17358583211898804 0.52546036243438721
0.16142839193344116 0.17790144681930542 0.5365593433380127
0.30733385682106018 0.17899684607982635 0.5294983983039856
0.45785620808601379 0.179491326212883 0.53582471609115601
0.61031216382980347 0.18304932117462158 0.53402745723724365
0.80502307415008545 0.17729340493679047 0.52803409099578857
0.91725867986679077 0.18240536749362946 0.54292243719100952
0.010709770023822784 0.34270349144935608 0.50802010297775269
0.1438918262720108 0.34706506133079529 0.51473832130432129
0.29605650901794434 0.35122677683830261 0.51757931709289551
0.44513693451881409 0.35762029886245728 0.52220827341079712
0.59864383935928345 0.36072328686714172 0.5264551043510437
0.79164391756057739 0.35529693961143494 0.52391761541366577
0.90495216846466064 0.36686128377914429 0.5356452465057373
0.0090585146099328995 0.52005904912948608 0.47591650485992432
0.10927252471446991 0.52486294507980347 0.48574104905128479
0.26392501592636108 0.53232556581497192 0.48846492171287537
0.41906929016113281 0.53657734394073486 0.49646344780921936
0.57493263483047485 0.54030525684356689 0.50488674640655518
0.76771533489227295 0.53727054595947266 0.50122052431106567
0.86564552783966064 0.55796122550964355 0.50818276405334473
0.0031701480038464069 0.72132515907287598 0.39609968662261963
0.06038849800825119 0.72278624773025513 0.41403406858444214
0.18588808178901672 0.73908299207687378 0.40229114890098572
0.33865562081336975 0.7461782693862915 0.41083666682243347
0.4984239935874939 0.74901455640792847 0.42882290482521057
0.68797296285629272 0.74790346622467041 0.42462179064750671
0.79340618848800659 0.76645761728286743 0.44205400347709656
0.0012736450880765915 0.88235938549041748 0.42671024799346924
0.082124389708042145 0.88314038515090942 0.44506984949111938
0.21038952469825745 0.90043121576309204 0.43411952257156372
0.37322753667831421 0.9077754020690918 0.44375935196876526
0.54351258277893066 0.90807139873504639 0.46562269330024719
0.73515814542770386 0.90612888336181641 0.46506166458129883
0.83538329601287842 0.93373101949691772 0.47550037503242493
0.0016825657803565264 0 0.063040576875209808
0.037864863872528076 0 0.14026659727096558
0.14592482149600983 0.00083838071441277862 0.29240921139717102
0.33094948530197144 1.4002182979311328e-05 0.47100740671157837
0.52941185235977173 0 0.56442588567733765
0.78186261653900146 0 0.63959461450576782
0.89041650295257568 0.00063457112992182374 0.65611010789871216
0.038997918367385864 0.036982264369726181 0.52433758974075317
0.16720381379127502 0.034929476678371429 0.6203758716583252
0.31121009588241577 0.047049637883901596 0.65215247869491577
0.4687807559967041 0.042857300490140915 0.68237161636352539
0.61617845296859741 0.032391194254159927 0.68295574188232422
0.81544119119644165 0.029803542420268059 0.6783403754234314
0.91438347101211548 0.045086968690156937 0.68546527624130249
0.029205964878201485 0.17809920012950897 0.66577547788619995
0.16251380741596222 0.18021875619888306 0.66955828666687012
0.30841407179832458 0.18275906145572662 0.66974616050720215
0.45754045248031616 0.17992202937602997 0.67570078372955322
0.61402177810668945 0.17936065793037415 0.6775241494178772
0.80198252201080322 0.18250159919261932 0.67024475336074829
0.90615451335906982 0.20199340581893921 0.68524515628814697
0.017620056867599487 0.34313830733299255 0.65361255407333374
0.14843255281448364 0.3497256338596344 0.65625208616256714
0.29687690734863281 0.35304701328277588 0.65733230113983154
0.44525319337844849 0.356689453125 0.65954685211181641
0.61162340641021729 0.35718604922294617 0.66610026359558105
0.80173283815383911 0.35721474885940552 0.65980237722396851
0.90859246253967285 0.37563389539718628 0.67463237047195435
0.013455290347337723 0.52256345748901367 0.61390739679336548
0.1215677484869957 0.52832567691802979 0.62278515100479126
0.26884147524833679 0.5335996150970459 0.62877470254898071
0.42010384798049927 0.54018634557723999 0.62835854291915894
0.58243191242218018 0.5442318320274353 0.63477843999862671
0.76938855648040771 0.54319006204605103 0.6270064115524292
0.8703191876411438 0.56402397155761719 0.64679253101348877
0.0013075585011392832 0.72720944881439209 0.52979069948196411
0.0440395288169384 0.73317861557006836 0.53227847814559937
0.18799710273742676 0.74243319034576416 0.5398256778717041
0.34458142518997192 0.74817514419555664 0.54386597871780396
0.50190258026123047 0.75389564037322998 0.55503898859024048
0.68673866987228394 0.7528948187828064 0.55145102739334106
0.79133033752441406 0.7715073823928833 0.57059884071350098
0.0110307727009058 0.89372575283050537 0.54814767837524414
0.086157403886318207 0.89509153366088867 0.5621756911277771
0.21046662330627441 0.90765821933746338 0.56036853790283203
0.36989685893058777 0.91296756267547607 0.5731576681137085
0.54804825782775879 0.91013401746749878 0.59834063053131104
0.73992884159088135 0.90632063150405884 0.59805643558502197
0.84425866603851318 0.93269890546798706 0.6061241626739502
