assets/lut/alexjordan cross process cp 14.cube
# Created by: G'MIC (https://gmic.eu)
TITLE "cross_process_cp_14"
# LUT size
LUT_3D_SIZE 7
# Data domain
DOMAIN_MIN 0.0 0.0 0.0
DOMAIN_MAX 1.0 1.0 1.0
# LUT data points
0 0.019577085971832275 0.019291402772068977
0.021208610385656357 0.016004195436835289 0.017611140385270119
0.14786665141582489 0.0036770838778465986 0.01385707501322031
0.33543568849563599 0.00095591827994212508 0.0071724685840308666
0.56024563312530518 0.004686407744884491 0.0018712810706347227
0.82441401481628418 0.00079302320955321193 0
1 0.0030450709164142609 0
0 0.096661075949668884 0.016453821212053299
0.024666819721460342 0.10149114578962326 0.015998061746358871
0.15959921479225159 0.092138849198818207 0.010015823878347874
0.35212963819503784 0.078834488987922668 0.0042556612752377987
0.58308744430541992 0.067688494920730591 4.4878790504299104e-05
0.85036188364028931 0.048141226172447205 0
1 0.046461667865514755 0.00035880593350157142
0 0.21615304052829742 0.0097324596717953682
0.031272303313016891 0.22042036056518555 0.015789061784744263
0.16206583380699158 0.21968196332454681 0.013669421896338463
0.36024832725524902 0.206639364361763 0.0052477819845080376
0.599273681640625 0.18379306793212891 0
0.87033456563949585 0.15172713994979858 0
1 0.13946150243282318 0.006495367269963026
0 0.3651929497718811 0.0026223426684737206
0.042560096830129623 0.36984434723854065 0.0098615912720561028
0.16639374196529388 0.37107154726982117 0.013557313941419125
0.36534824967384338 0.36125385761260986 0.0062795304693281651
0.61054354906082153 0.33985146880149841 0
0.8833005428314209 0.30950653553009033 2.297794162586797e-05
1 0.29156020283699036 0.0085317576304078102
0 0.53706574440002441 9.1911766503471881e-05
0.041776783764362335 0.54235982894897461 0.0043019764125347137
0.17140844464302063 0.54363179206848145 0.0090183336287736893
0.3748106062412262 0.53534984588623047 0.0057396981865167618
0.62190991640090942 0.51971596479415894 0.00024701288202777505
0.89397865533828735 0.49659448862075806 0.00042666267836466432
1 0.47871288657188416 0.012613244354724884
0 0.72684174776077271 0
0.034670617431402206 0.73252969980239868 0.0011482388945296407
0.17353776097297668 0.73290020227432251 0.004933076910674572
0.38257738947868347 0.72540754079818726 0.0064668990671634674
0.63133728504180908 0.71275877952575684 0.0034502963535487652
0.90242785215377808 0.69595658779144287 0.0064577437005937099
1 0.68382322788238525 0.01691882498562336
0 0.92852532863616943 0
0.04013468325138092 0.93363237380981445 0.00026424633688293397
0.18560619652271271 0.93438327312469482 0.002904166467487812
0.39502549171447754 0.92862749099731445 0.0045483158901333809
0.64243364334106445 0.91944772005081177 0.0053308825008571148
0.91192507743835449 0.90881103277206421 0.0074487426318228245
1 0.90062123537063599 0.016137620434165001
0.00089633418247103691 0.024441422894597054 0.0921517014503479
0.029738930985331535 0.01261794101446867 0.08593565970659256
0.14807634055614471 0.0032832126598805189 0.07899659126996994
0.33375442028045654 0.0014590992359444499 0.058240178972482681
0.56007832288742065 0.0023986217565834522 0.023745039477944374
0.82211971282958984 0.0023390825372189283 0.00012536141730379313
1 0.004786771722137928 0.0028548445552587509
0 0.10106932371854782 0.088783830404281616
0.025560745969414711 0.10240653902292252 0.087681218981742859
0.15574614703655243 0.091761179268360138 0.081192493438720703
0.3506411612033844 0.078850626945495605 0.06254858523607254
0.58456093072891235 0.065312407910823822 0.033090014010667801
0.85210889577865601 0.044642489403486252 0.011357984505593777
1 0.04011555016040802 0.013715886510908604
0 0.21637952327728271 0.084116481244564056
0.034822352230548859 0.22341611981391907 0.090089596807956696
0.16199079155921936 0.22218386828899384 0.087515436112880707
0.36136043071746826 0.20934288203716278 0.070761725306510925
0.60169148445129395 0.18815016746520996 0.043881930410861969
0.87288028001785278 0.15585276484489441 0.025751315057277679
1 0.13598676025867462 0.030569817870855331
0.0027266708202660084 0.36182647943496704 0.073678694665431976
0.04094155877828598 0.37272745370864868 0.088605992496013641
0.16298611462116241 0.37690892815589905 0.092235490679740906
0.3661121129989624 0.36862236261367798 0.078442730009555817
0.61330002546310425 0.35018301010131836 0.055402237921953201
0.88692796230316162 0.31960928440093994 0.043503135442733765
1 0.29373311996459961 0.048982761800289154
0 0.53196430206298828 0.064302511513233185
0.031523656100034714 0.54567104578018188 0.083564326167106628
0.15990373492240906 0.55154603719711304 0.09141337126493454
0.37103104591369629 0.54530465602874756 0.082457557320594788
0.62421613931655884 0.53119772672653198 0.061382323503494263
0.89862692356109619 0.50766056776046753 0.050728414207696915
1 0.48385259509086609 0.061154458671808243
0 0.72237592935562134 0.058933243155479431
0.01985587365925312 0.73547577857971191 0.075056113302707672
0.15646015107631683 0.74175161123275757 0.08588910847902298
0.37418794631958008 0.73649507761001587 0.084783501923084259
0.63155555725097656 0.72512328624725342 0.072638370096683502
0.90791940689086914 0.70822739601135254 0.063680075109004974
1 0.69045913219451904 0.069333754479885101
0 0.92540591955184937 0.058213401585817337
0.018127515912055969 0.93833905458450317 0.070614174008369446
0.16327376663684845 0.94359958171844482 0.081729531288146973
0.38075101375579834 0.94036900997161865 0.083926692605018616
0.63862007856369019 0.93205469846725464 0.076597012579441071
0.92159545421600342 0.92137646675109863 0.06479085236787796
1 0.90758895874023438 0.07316116988658905
0 0.021213246509432793 0.18701675534248352
0.02571379765868187 0.012900617904961109 0.17961043119430542
0.15233944356441498 0.0035715440753847361 0.17144912481307983
0.33776950836181641 0.0022472457494586706 0.14611837267875671
0.56341749429702759 0.0045268340036273003 0.10340510308742523
0.82505553960800171 0.0015328649897128344 0.057507742196321487
1 0.00064571603434160352 0.041863206773996353
0 0.10206492990255356 0.18438751995563507
0.03380889818072319 0.10195273905992508 0.18409785628318787
0.16082629561424255 0.093437090516090393 0.17986446619033813
0.35513657331466675 0.080518670380115509 0.15973038971424103
0.5897713303565979 0.061864815652370453 0.12622864544391632
0.85760432481765747 0.032438840717077255 0.092131853103637695
1 0.029561839997768402 0.073505684733390808
0 0.21851745247840881 0.18175750970840454
0.041243415325880051 0.22750090062618256 0.18909896910190582
0.16953402757644653 0.22621853649616241 0.18871113657951355
0.37051761150360107 0.21236330270767212 0.17310994863510132
0.60995256900787354 0.18892532587051392 0.14722339808940887
0.88036435842514038 0.15335598587989807 0.11818708479404449
1 0.13357627391815186 0.10144516825675964
0.0013901205966249108 0.36250892281532288 0.17504379153251648
0.043891549110412598 0.37635982036590576 0.19012272357940674
0.17032834887504578 0.38214984536170959 0.19526621699333191
0.37577557563781738 0.37447658181190491 0.18307678401470184
0.62277764081954956 0.35650807619094849 0.16225552558898926
0.89648818969726562 0.32560598850250244 0.14079241454601288
1 0.29818391799926758 0.12802448868751526
0 0.529552161693573 0.16674678027629852
0.037038333714008331 0.54724216461181641 0.18598043918609619
0.16415536403656006 0.55785328149795532 0.19572332501411438
0.3744843602180481 0.55444025993347168 0.1876685619354248
0.63060146570205688 0.53970831632614136 0.16964663565158844
0.90962600708007812 0.51466000080108643 0.15233981609344482
1 0.48992764949798584 0.1459527313709259
0 0.71895897388458252 0.15924639999866486
0.032492812722921371 0.73738545179367065 0.17764335870742798
0.16139987111091614 0.74971139430999756 0.19055630266666412
0.37323597073554993 0.74867206811904907 0.18942631781101227
0.6332085132598877 0.73680639266967773 0.17739537358283997
0.91724914312362671 0.71701896190643311 0.16377425193786621
1 0.69683313369750977 0.15848137438297272
0 0.922882080078125 0.15823821723461151
0.038382869213819504 0.94062250852584839 0.17373675107955933
0.17051021754741669 0.95242428779602051 0.18720020353794098
0.38016858696937561 0.95293635129928589 0.18959784507751465
0.63959527015686035 0.94431430101394653 0.18179075419902802
0.9261060357093811 0.92985868453979492 0.16955825686454773
1 0.91341638565063477 0.16855683922767639
0 0.012639782391488552 0.30297595262527466
0.024198435246944427 0.01181239727884531 0.2955576479434967
0.15254954993724823 0.0074654226191341877 0.28637418150901794
0.3377203643321991 0.0055271522141993046 0.26479396224021912
0.56464076042175293 0.0028397503774613142 0.23217083513736725
0.82684552669525146 0 0.19262708723545074
1 0 0.1583644300699234
0 0.09917806088924408 0.30310827493667603
0.036980602890253067 0.10324329882860184 0.30416786670684814
0.16323681175708771 0.098900303244590759 0.30071571469306946
0.35599878430366516 0.086209587752819061 0.28436031937599182
0.59080815315246582 0.062188465148210526 0.25737977027893066
0.85975563526153564 0.02260957658290863 0.22550979256629944
1 0.020830955356359482 0.18985266983509064
0 0.21921399235725403 0.30304759740829468
0.04282626137137413 0.23005609214305878 0.31158259510993958
0.17361737787723541 0.2299630343914032 0.31280505657196045
0.37547704577445984 0.21653123199939728 0.29973086714744568
0.61311542987823486 0.19479435682296753 0.27471855282783508
0.88343852758407593 0.15728229284286499 0.24327684938907623
1 0.13519416749477386 0.21657276153564453
0 0.36480951309204102 0.29831087589263916
0.045628625899553299 0.37884074449539185 0.31331363320350647
0.1753820925951004 0.38529857993125916 0.31929782032966614
0.38414713740348816 0.37822073698043823 0.30948710441589355
0.63074350357055664 0.36097601056098938 0.28792187571525574
0.90461534261703491 0.33067098259925842 0.26127833127975464
1 0.30341631174087524 0.24093720316886902
0.00073143455665558577 0.53137975931167603 0.29003721475601196
0.046586848795413971 0.54952627420425415 0.30862343311309814
0.17291335761547089 0.56208169460296631 0.31921142339706421
0.38181406259536743 0.56011331081390381 0.3141072690486908
0.63915395736694336 0.54536104202270508 0.29704484343528748
0.91980135440826416 0.51993602514266968 0.27606615424156189
1 0.49505114555358887 0.26125362515449524
0.0027149873785674572 0.71967136859893799 0.28085291385650635
0.051962248980998993 0.74078464508056641 0.30085495114326477
0.17373411357402802 0.75683188438415527 0.31582671403884888
0.37886884808540344 0.75802862644195557 0.31638902425765991
0.6399993896484375 0.74573647975921631 0.30485156178474426
0.92817741632461548 0.72374612092971802 0.28844591975212097
1 0.70171403884887695 0.27785512804985046
0.0093617606908082962 0.9232671856880188 0.27917522192001343
0.06417451798915863 0.94485044479370117 0.29844287037849426
0.18497869372367859 0.9610486626625061 0.31468707323074341
0.38591289520263672 0.96324551105499268 0.3185984194278717
0.64483880996704102 0.95469409227371216 0.31135842204093933
0.93265444040298462 0.93685853481292725 0.29981899261474609
1 0.91786670684814453 0.29419291019439697
0 0.0059509878046810627 0.43728363513946533
0.039334002882242203 0.0074400659650564194 0.43053877353668213
0.15963111817836761 0.0091911768540740013 0.42036166787147522
0.33761680126190186 0.0068607106804847717 0.40091302990913391
0.56372648477554321 0.0016222785925492644 0.37033265829086304
0.8256838321685791 0 0.33110234141349792
1 0 0.2964116632938385
0 0.093116134405136108 0.44072428345680237
0.046288523823022842 0.098209619522094727 0.44170570373535156
0.16695235669612885 0.099223613739013672 0.43833833932876587
0.35303133726119995 0.088550612330436707 0.42394977807998657
0.58802461624145508 0.065945476293563843 0.39802765846252441
0.8572571873664856 0.035240069031715393 0.36206644773483276
1 0.02581431157886982 0.32679563760757446
0 0.21653549373149872 0.44207960367202759
0.047280643135309219 0.22579015791416168 0.45089110732078552
0.17277400195598602 0.22791953384876251 0.4526483416557312
0.36982589960098267 0.21814538538455963 0.44131994247436523
0.61136102676391602 0.19907444715499878 0.41712117195129395
0.88429003953933716 0.16647891700267792 0.38401514291763306
1 0.14163424074649811 0.35407096147537231
0.00042832319741137326 0.36708146333694458 0.43833237886428833
0.046245649456977844 0.37983852624893188 0.45369508862495422
0.17486390471458435 0.38525667786598206 0.4603097140789032
0.3829006552696228 0.37898313999176025 0.45175692439079285
0.63356941938400269 0.36285144090652466 0.43051770329475403
0.90837967395782471 0.33590617775917053 0.40244483947753906
1 0.30945283174514771 0.3783571720123291
0.0034580754581838846 0.53713756799697876 0.43114960193634033
0.052600245922803879 0.55399447679519653 0.45003160834312439
0.17859350144863129 0.56419354677200317 0.46096467971801758
0.38905772566795349 0.56163203716278076 0.45715907216072083
0.64541929960250854 0.54643839597702026 0.440784752368927
0.9230150580406189 0.52266275882720947 0.41825249791145325
1 0.4996485710144043 0.39929622411727905
0.0090623293071985245 0.72462910413742065 0.42549026012420654
0.062586136162281036 0.74625259637832642 0.44525390863418579
0.18219715356826782 0.76280134916305542 0.46043810248374939
0.38612833619117737 0.76320785284042358 0.46139281988143921
0.64519041776657104 0.75004148483276367 0.45007228851318359
0.92934232950210571 0.72736543416976929 0.43228867650032043
1 0.7056194543838501 0.41806629300117493
0.019083000719547272 0.92727833986282349 0.42659661173820496
0.078145794570446014 0.95091581344604492 0.44510915875434875
0.19351252913475037 0.96840196847915649 0.46223899722099304
0.39285668730735779 0.96982491016387939 0.46579247713088989
0.65088683366775513 0.96052432060241699 0.45874696969985962
0.93668264150619507 0.94192367792129517 0.44650992751121521
1 0.9222216010093689 0.43710437417030334
5.0982307584490627e-05 0.0034339756239205599 0.58385175466537476
0.056319635361433029 0.0055994070135056973 0.57757127285003662
0.17090241611003876 0.0084439441561698914 0.56744396686553955
0.33990713953971863 0.0065330206416547298 0.54899650812149048
0.56055259704589844 0.00097689160611480474 0.51904726028442383
0.8243248462677002 0 0.47736752033233643
1 0 0.44352242350578308
0.00064104865305125713 0.089452184736728668 0.59106141328811646
0.055983763188123703 0.095312915742397308 0.59224015474319458
0.17200908064842224 0.096630319952964783 0.58808034658432007
0.35215967893600464 0.085457369685173035 0.57472383975982666
0.58643555641174316 0.057582061737775803 0.55025380849838257
0.85849177837371826 0.027448078617453575 0.51498627662658691
1 0.026164859533309937 0.47926878929138184
0.00051855947822332382 0.21383573114871979 0.5947265625
0.049045920372009277 0.22323237359523773 0.60342955589294434
0.17146390676498413 0.22581113874912262 0.6047096848487854
0.36597996950149536 0.21414124965667725 0.59462523460388184
0.6106371283531189 0.19060932099819183 0.57290846109390259
0.88490307331085205 0.15992523729801178 0.54173678159713745
1 0.14370231330394745 0.50979244709014893
0.00031531837885268033 0.36811137199401855 0.59259712696075439
0.042594492435455322 0.38097983598709106 0.60811781883239746
0.17156364023685455 0.38530328869819641 0.61427271366119385
0.37998253107070923 0.37717732787132263 0.60694962739944458
0.63270992040634155 0.35991019010543823 0.58846580982208252
0.90724503993988037 0.3340325653553009 0.56149423122406006
1 0.31326216459274292 0.53444629907608032
0.0067664203234016895 0.53938478231430054 0.5873904824256897
0.054576411843299866 0.55616670846939087 0.60624271631240845
0.18225494027137756 0.5651969313621521 0.61653417348861694
0.39302659034729004 0.56120473146438599 0.61339980363845825
0.64658224582672119 0.54736638069152832 0.599415123462677
0.92121940851211548 0.52546793222427368 0.57749044895172119
1 0.50554007291793823 0.5553891658782959
0.013910091482102871 0.72652095556259155 0.58571463823318481
0.072051301598548889 0.74768543243408203 0.60404664278030396
0.1945040225982666 0.76325732469558716 0.61771899461746216
0.39670205116271973 0.76346123218536377 0.61887460947036743
0.64875346422195435 0.751442551612854 0.60947614908218384
0.92956095933914185 0.73025226593017578 0.59172987937927246
1 0.71182090044021606 0.57454729080200195
0.028778120875358582 0.93005716800689697 0.58849042654037476
0.094930462539196014 0.95236927270889282 0.60520052909851074
0.21379928290843964 0.96888530254364014 0.6202017068862915
0.4095863401889801 0.97058272361755371 0.62391430139541626
0.66152971982955933 0.96186137199401855 0.61791610717773438
0.94388467073440552 0.94444733858108521 0.60549753904342651
1 0.92812573909759521 0.59335458278656006
0.0067507573403418064 0.0051566329784691334 0.73789680004119873
0.078024543821811676 0.0072723091579973698 0.73168957233428955
0.19019751250743866 0.010185915045440197 0.72158408164978027
0.35105401277542114 0.0096245706081390381 0.70460277795791626
0.5595545768737793 0.0044231638312339783 0.67844033241271973
0.81891602277755737 2.3336971935350448e-05 0.63861876726150513
1 0.00047529631410725415 0.60210490226745605
0.008383164182305336 0.092649675905704498 0.74788826704025269
0.071147516369819641 0.098101295530796051 0.74845099449157715
0.18521295487880707 0.099692776799201965 0.74411314725875854
0.3600003719329834 0.087763436138629913 0.73179489374160767
0.58880496025085449 0.059445161372423172 0.70989698171615601
0.86047875881195068 0.024902643635869026 0.67862051725387573
1 0.028717638924717903 0.64304733276367188
0.0042596855200827122 0.21539406478404999 0.75572472810745239
0.055156093090772629 0.22586879134178162 0.76299124956130981
0.17779338359832764 0.22765533626079559 0.76307517290115356
0.37084758281707764 0.21432650089263916 0.7537040114402771
0.61352616548538208 0.18708264827728271 0.7348407506942749
0.88692170381546021 0.15629920363426208 0.70672255754470825
1 0.14976383745670319 0.67471963167190552
0 0.36894083023071289 0.75782859325408936
0.036303456872701645 0.38476535677909851 0.77185887098312378
0.17414599657058716 0.38770294189453125 0.77523124217987061
0.38257181644439697 0.3788590133190155 0.76871263980865479
0.6331971287727356 0.3617088794708252 0.75332808494567871
0.90685838460922241 0.33706808090209961 0.72819268703460693
1 0.32333835959434509 0.69983625411987305
0.0052130604162812233 0.53677332401275635 0.75598883628845215
0.058223292231559753 0.55648481845855713 0.77161520719528198
0.19144812226295471 0.56668537855148315 0.77941316366195679
0.39811843633651733 0.56363201141357422 0.77718591690063477
0.64624518156051636 0.55296039581298828 0.76615673303604126
0.92128175497055054 0.53344601392745972 0.74532222747802734
1 0.51801502704620361 0.72113311290740967
0.023588577285408974 0.72708112001419067 0.75444555282592773
0.0906258225440979 0.74633467197418213 0.76985156536102295
0.21849922835826874 0.76085519790649414 0.78065651655197144
0.41382026672363281 0.76310765743255615 0.78284883499145508
0.6546931266784668 0.75607872009277344 0.77663755416870117
0.93597632646560669 0.73826509714126587 0.75977498292922974
1 0.72428685426712036 0.74004501104354858
0.048956882208585739 0.93327528238296509 0.75684142112731934
0.12625078856945038 0.95080322027206421 0.77049607038497925
0.25363895297050476 0.96467429399490356 0.78215700387954712
0.44209527969360352 0.96838867664337158 0.78669148683547974
0.68311774730682373 0.96298909187316895 0.78277510404586792
0.95785260200500488 0.95003479719161987 0.77117103338241577
1 0.93890440464019775 0.75733870267868042
