assets/lut/alexjordan blue dark.cube
# Created by: G'MIC (https://gmic.eu)
TITLE "blue_dark"
# LUT size
LUT_3D_SIZE 5
# Data domain
DOMAIN_MIN 0.0 0.0 0.0
DOMAIN_MAX 1.0 1.0 1.0
# LUT data points
0.0060597886331379414 0.0077205882407724857 0.010821457952260971
0.039853010326623917 0.0076093487441539764 0.008025703951716423
0.086850233376026154 0.0055282744579017162 0.0098835965618491173
0.14862160384654999 0.0088452659547328949 0.017177686095237732
0.22500957548618317 0.024283735081553459 0.036857247352600098
0.018706915900111198 0.0652313232421875 0.042665999382734299
0.067071340978145599 0.081790640950202942 0.060012802481651306
0.12679444253444672 0.094415955245494843 0.080138005316257477
0.19896821677684784 0.11097147315740585 0.09862760454416275
0.28297674655914307 0.12941320240497589 0.1285758763551712
0.057101920247077942 0.17111991345882416 0.10290151834487915
0.1131245493888855 0.19551669061183929 0.13239501416683197
0.18331466615200043 0.22287310659885406 0.16533049941062927
0.26523026823997498 0.24772568047046661 0.19551922380924225
0.35491758584976196 0.27000415325164795 0.23314458131790161
0.12208276242017746 0.32226204872131348 0.20186139643192291
0.18174691498279572 0.34776562452316284 0.23709896206855774
0.25683024525642395 0.37936174869537354 0.27773946523666382
0.3459770679473877 0.41016823053359985 0.31558153033256531
0.44287359714508057 0.44199010729789734 0.3588624894618988
0.20408144593238831 0.49759784340858459 0.32690674066543579
0.26863446831703186 0.52534002065658569 0.36357074975967407
0.34770411252975464 0.56018650531768799 0.4073912501335144
0.44151869416236877 0.59690910577774048 0.45065367221832275
0.54363709688186646 0.63631325960159302 0.498850017786026
0.0022671569604426622 0.0049201515503227711 0.054960213601589203
0.040580675005912781 0.0092279473319649696 0.061188388615846634
0.090271219611167908 0.0099441679194569588 0.067229054868221283
0.15355832874774933 0.015835586935281754 0.072898924350738525
0.23084861040115356 0.030712023377418518 0.090668559074401855
0.022097913548350334 0.069239132106304169 0.095215365290641785
0.070456318557262421 0.088567949831485748 0.11537903547286987
0.134306401014328 0.10241298377513885 0.13628846406936646
0.20660802721977234 0.12143664062023163 0.15617996454238892
0.28942155838012695 0.14182132482528687 0.18510447442531586
0.063067160546779633 0.17781300842761993 0.15829169750213623
0.11901962012052536 0.20555876195430756 0.19171066582202911
0.19316117465496063 0.23307247459888458 0.22734616696834564
0.2760862410068512 0.25878360867500305 0.25941556692123413
0.36455193161964417 0.28381708264350891 0.29751884937286377
0.12690581381320953 0.32738524675369263 0.25982797145843506
0.19010373950004578 0.3580176830291748 0.29895675182342529
0.26888856291770935 0.39280712604522705 0.34271761775016785
0.35906648635864258 0.42510107159614563 0.38331654667854309
0.45558169484138489 0.45756298303604126 0.42809593677520752
0.20780037343502045 0.50211852788925171 0.38831475377082825
0.27688983082771301 0.53662902116775513 0.4282371997833252
0.3603527843952179 0.57653337717056274 0.47488918900489807
0.45587360858917236 0.61568957567214966 0.52137058973312378
0.55838978290557861 0.65562772750854492 0.57178741693496704
0.0014474457129836082 0.0040987050160765648 0.11680592596530914
0.043022483587265015 0.0098745459690690041 0.12965136766433716
0.095594994723796844 0.015883082523941994 0.14151486754417419
0.16092501580715179 0.022844277322292328 0.14738602936267853
0.24005720019340515 0.03853333368897438 0.16538767516613007
0.026209497824311256 0.074740312993526459 0.16694740951061249
0.077355295419692993 0.094494804739952087 0.19039334356784821
0.14082531630992889 0.11106639355421066 0.21409894526004791
0.2138201892375946 0.12939907610416412 0.23342166841030121
0.29802855849266052 0.15238404273986816 0.26178678870201111
0.068949468433856964 0.18567663431167603 0.23847395181655884
0.12895888090133667 0.21357578039169312 0.2729036808013916
0.20278987288475037 0.24075476825237274 0.30894383788108826
0.28408581018447876 0.26732009649276733 0.33982738852500916
0.37471339106559753 0.29555821418762207 0.37836849689483643
0.13423736393451691 0.33578059077262878 0.34097763895988464
0.20182698965072632 0.36921393871307373 0.38178327679634094
0.28216895461082458 0.40594643354415894 0.42512381076812744
0.37210914492607117 0.4386746883392334 0.46614363789558411
0.47009509801864624 0.47232124209403992 0.51318776607513428
0.21617178618907928 0.51098525524139404 0.46711024641990662
0.28973981738090515 0.5506584644317627 0.50981020927429199
0.37636399269104004 0.59506624937057495 0.55827409029006958
0.47355175018310547 0.63538098335266113 0.60707956552505493
0.57759708166122437 0.67821305990219116 0.65983819961547852
0.0021672416478395462 0.0041520362719893456 0.19937042891979218
0.046343337744474411 0.0099935345351696014 0.21287602186203003
0.10091328620910645 0.017126405611634254 0.22623948752880096
0.16835907101631165 0.02696012519299984 0.23882758617401123
0.25025486946105957 0.045601639896631241 0.26244023442268372
0.029126051813364029 0.079818755388259888 0.25559398531913757
0.081653550267219543 0.098711736500263214 0.27975457906723022
0.14423884451389313 0.11722447723150253 0.30431938171386719
0.21886971592903137 0.1354907900094986 0.3261566162109375
0.30642494559288025 0.16061145067214966 0.35692983865737915
0.074704788625240326 0.19313529133796692 0.33259806036949158
0.13502253592014313 0.22201687097549438 0.36708146333694458
0.20699803531169891 0.24990782141685486 0.40180128812789917
0.28922402858734131 0.27543950080871582 0.43369722366333008
0.38274464011192322 0.30505940318107605 0.47339794039726257
0.14179410040378571 0.34553736448287964 0.43559417128562927
0.21091796457767487 0.38065135478973389 0.47791928052902222
0.29137787222862244 0.41589128971099854 0.52068406343460083
0.38142320513725281 0.45012125372886658 0.56285536289215088
0.48113301396369934 0.48565354943275452 0.61200606822967529
0.22652904689311981 0.5205269455909729 0.55923354625701904
0.30185475945472717 0.56055164337158203 0.60382020473480225
0.38949227333068848 0.60506093502044678 0.6543501615524292
0.48706093430519104 0.64805346727371216 0.70640861988067627
0.59138029813766479 0.6917538046836853 0.76249450445175171
0.0091019421815872192 0.010112418793141842 0.2972378134727478
0.05565255880355835 0.014732091687619686 0.30969810485839844
0.11196888983249664 0.022594047710299492 0.32509851455688477
0.18207763135433197 0.035846814513206482 0.34375938773155212
0.26756516098976135 0.059108208864927292 0.3730430006980896
0.037181314080953598 0.086503572762012482 0.35575422644615173
0.090833880007266998 0.10603697597980499 0.38058057427406311
0.15362080931663513 0.12576895952224731 0.40719503164291382
0.23072446882724762 0.14633190631866455 0.43252083659172058
0.32138875126838684 0.17483744025230408 0.4668830931186676
0.084841214120388031 0.20263317227363586 0.43622070550918579
0.14520657062530518 0.23183108866214752 0.47026246786117554
0.21705770492553711 0.26030713319778442 0.50666511058807373
0.30073416233062744 0.28715193271636963 0.54098767042160034
0.39564034342765808 0.31905236840248108 0.58178633451461792
0.15502764284610748 0.3586307168006897 0.540580153465271
0.22299157083034515 0.3926946222782135 0.58082371950149536
0.30342671275138855 0.42778909206390381 0.6256248950958252
0.39463326334953308 0.46328064799308777 0.67148703336715698
0.49556717276573181 0.50355488061904907 0.72291320562362671
0.24239030480384827 0.53435659408569336 0.66362917423248291
0.31694665551185608 0.57256436347961426 0.70772957801818848
0.40433815121650696 0.61592262983322144 0.76000690460205078
0.5021820068359375 0.66115248203277588 0.81648284196853638
0.60775613784790039 0.7091677188873291 0.87687551975250244
