assets/lut/alexjordan yellow film 01.cube
# Created by: G'MIC (https://gmic.eu)
TITLE "yellow_film_01"
# LUT size
LUT_3D_SIZE 5
# Data domain
DOMAIN_MIN 0.0 0.0 0.0
DOMAIN_MAX 1.0 1.0 1.0
# LUT data points
0.034183800220489502 0.036102086305618286 0.036950983107089996
0.082462430000305176 0.054031714797019958 0.053533531725406647
0.17755088210105896 0.068412885069847107 0.068003125488758087
0.31832858920097351 0.07802291214466095 0.076745279133319855
0.51059013605117798 0.079430915415287018 0.080203160643577576
0.049075480550527573 0.18154579401016235 0.049347449094057083
0.19641630351543427 0.19696332514286041 0.043694291263818741
0.38416272401809692 0.20292419195175171 0.06534682959318161
0.53945034742355347 0.22341702878475189 0.10570067167282104
0.72793012857437134 0.23969340324401855 0.12550276517868042
0.017793243750929832 0.4229373037815094 0.018614510074257851
0.18361444771289825 0.44572961330413818 0.020678186789155006
0.44654899835586548 0.44696733355522156 0.025229090824723244
0.72856295108795166 0.44304090738296509 0.052095450460910797
0.95727914571762085 0.46035084128379822 0.10255435109138489
0.0015549154486507177 0.71209090948104858 0.0019853329285979271
0.160490483045578 0.74368447065353394 0.014169909991323948
0.43278777599334717 0.75488537549972534 0.02190113440155983
0.76136374473571777 0.76721745729446411 0.0037066142540425062
0.99999243021011353 0.76143187284469604 0.051695477217435837
0.009871150366961956 0.99562084674835205 0.011613838374614716
0.19023403525352478 1 0.071340911090373993
0.58402270078659058 0.99982142448425293 0.32216113805770874
0.92436563968658447 0.99788951873779297 0.77888762950897217
0.99987363815307617 0.99984580278396606 0.99830400943756104
0.037420429289340973 0.038471955806016922 0.085265979170799255
0.1252080500125885 0.049994152039289474 0.12323861569166183
0.24844183027744293 0.059039980173110962 0.13745081424713135
0.39644601941108704 0.066804058849811554 0.15237027406692505
0.57940483093261719 0.071116261184215546 0.16553714871406555
0.044521842151880264 0.18698970973491669 0.18545319139957428
0.20011094212532043 0.2008368968963623 0.20225834846496582
0.34771046042442322 0.22312918305397034 0.22335457801818848
0.51163375377655029 0.24256987869739532 0.24269957840442657
0.69890445470809937 0.26242658495903015 0.25974473357200623
0.0084151476621627808 0.42903017997741699 0.17163479328155518
0.19187815487384796 0.45071589946746826 0.19110757112503052
0.45791009068489075 0.45360538363456726 0.19999261200428009
0.69579684734344482 0.46270543336868286 0.26333019137382507
0.8988112211227417 0.49197190999984741 0.32328072190284729
0.017615897580981255 0.71953707933425903 0.14059294760227203
0.16965380311012268 0.75454646348953247 0.17028120160102844
0.44143927097320557 0.77087008953094482 0.18012504279613495
0.77844572067260742 0.77472490072250366 0.19280919432640076
1 0.77920615673065186 0.28919699788093567
0.010150610469281673 0.99972856044769287 0.13515375554561615
0.23630838096141815 1 0.25197741389274597
0.67296922206878662 1 0.54808264970779419
0.97147375345230103 0.99830013513565063 0.92620021104812622
1 1 1
0.04210783913731575 0.044643595814704895 0.18933483958244324
0.13144919276237488 0.04989338293671608 0.2648087739944458
0.32127794623374939 0.034389525651931763 0.31980162858963013
0.58156675100326538 0.01708749495446682 0.33687222003936768
0.7878413200378418 0.028930274769663811 0.31908592581748962
0.039156761020421982 0.18577019870281219 0.41691917181015015
0.19708192348480225 0.20055395364761353 0.44948014616966248
0.44561442732810974 0.19321966171264648 0.44493317604064941
0.64057832956314087 0.21252179145812988 0.41591557860374451
0.79678094387054443 0.24605818092823029 0.4045574963092804
0.0099695995450019836 0.42874488234519958 0.42902666330337524
0.19516947865486145 0.45245093107223511 0.44828388094902039
0.45251792669296265 0.45745807886123657 0.45983299612998962
0.65060591697692871 0.4855039119720459 0.48600682616233826
0.85510247945785522 0.5142587423324585 0.51670342683792114
0.0073462543077766895 0.72535556554794312 0.40215128660202026
0.17316946387290955 0.76162219047546387 0.43432790040969849
0.44126814603805542 0.78066229820251465 0.44288486242294312
0.78497952222824097 0.77909117937088013 0.46044826507568359
0.99878668785095215 0.80294406414031982 0.60175877809524536
0.050792887806892395 1 0.39921024441719055
0.30985257029533386 1 0.51476728916168213
0.75409811735153198 0.99997955560684204 0.75983732938766479
0.99478930234909058 0.99944818019866943 0.98935812711715698
1 1 1
0.041688371449708939 0.041757605969905853 0.32888633012771606
0.13770465552806854 0.041430946439504623 0.46807634830474854
0.33726793527603149 0.023510906845331192 0.57704788446426392
0.64096438884735107 0.0091709960252046585 0.63115561008453369
0.98258870840072632 0.0013672324130311608 0.64880883693695068
0.028018113225698471 0.17931319773197174 0.71599829196929932
0.19207428395748138 0.19101174175739288 0.76947474479675293
0.44387856125831604 0.18651172518730164 0.77408915758132935
0.75669306516647339 0.1707569807767868 0.76042592525482178
0.99959635734558105 0.17315532267093658 0.7149510383605957
0.0071501489728689194 0.42556655406951904 0.75678151845932007
0.19168020784854889 0.44918069243431091 0.77532804012298584
0.45371860265731812 0.45687675476074219 0.78426456451416016
0.78636831045150757 0.45315194129943848 0.77598863840103149
0.98966425657272339 0.48256069421768188 0.73760408163070679
0.0085369786247611046 0.72453814744949341 0.72777855396270752
0.1767459511756897 0.76229989528656006 0.756725013256073
0.44418066740036011 0.77949458360671997 0.77949917316436768
0.78178328275680542 0.78438973426818848 0.78555631637573242
0.97628134489059448 0.83032584190368652 0.83108735084533691
0.073551967740058899 1 0.71414989233016968
0.42993259429931641 0.99978011846542358 0.80101996660232544
0.86884802579879761 0.99934113025665283 0.93118250370025635
1 1 1
1 1 1
0.037024702876806259 0.038860142230987549 0.53794264793395996
0.13800281286239624 0.031505182385444641 0.75289976596832275
0.34013321995735168 0.0095061361789703369 0.9026331901550293
0.6508781909942627 0.0037150215357542038 0.98681831359863281
0.99282193183898926 0.004070925060659647 0.98981094360351562
0.020034894347190857 0.16652856767177582 0.99981212615966797
0.18631695210933685 0.17587898671627045 1
0.43797850608825684 0.17156858742237091 1
0.76241409778594971 0.15555939078330994 1
0.99825865030288696 0.14103183150291443 1
0.012744814157485962 0.41619372367858887 0.99990898370742798
0.18787585198879242 0.43830597400665283 1
0.45290616154670715 0.44516849517822266 1
0.77849882841110229 0.44484499096870422 1
1 0.4363962709903717 1
0.0041796816512942314 0.72358995676040649 1
0.16971178352832794 0.75770109891891479 0.99983316659927368
0.44209972023963928 0.7769782543182373 0.99999654293060303
0.78794169425964355 0.78909933567047119 1
0.99908554553985596 0.82020217180252075 0.99528670310974121
0.071075722575187683 0.99934756755828857 0.99432975053787231
0.53469479084014893 0.99963885545730591 0.99769777059555054
0.95259815454483032 0.99764996767044067 0.99718004465103149
1 1 1
0.99848508834838867 0.9989432692527771 0.99764257669448853
