assets/lut/alexjordan orange underexposed.cube
# Created by: G'MIC (https://gmic.eu)
TITLE "orange_underexposed"
# LUT size
LUT_3D_SIZE 7
# Data domain
DOMAIN_MIN 0.0 0.0 0.0
DOMAIN_MAX 1.0 1.0 1.0
# LUT data points
0.00027829338796436787 0 0.00047043446102179587
0 0 0
0 0 0
0.042387705296278 0.00030221376800909638 0
0.15101785957813263 0.00097937486134469509 0
0.24688787758350372 0 0
0.33666101098060608 0.00016180300735868514 0.00047043446102179587
0.0016777337295934558 0 0.0022942188661545515
0 0 0.0011295094154775143
0.0076764575205743313 0 0
0.10412533581256866 0 0
0.21097710728645325 0 0
0.30680215358734131 3.5903033221984515e-06 0
0.39796477556228638 0.002148856408894062 0.0016641205875203013
0.0010371936950832605 0.018820295110344887 0.00037358602276071906
0.00096939684590324759 0.030157875269651413 0.00012998393503949046
0.058181479573249817 0.04329618439078331 0
0.16773751378059387 0.063502788543701172 0
0.26832824945449829 0.074789859354496002 0
0.36519202589988708 0.086256392300128937 0
0.45577818155288696 0.10543437302112579 0.00021703384118154645
0 0.15246507525444031 0
0.025764135643839836 0.1720859706401825 0.00010645249130902812
0.11448545008897781 0.18309082090854645 0
0.22609786689281464 0.20034182071685791 0.00011381261720089242
0.32657775282859802 0.21595399081707001 0.00094849831657484174
0.42334195971488953 0.23224036395549774 0.0049299350939691067
0.51345700025558472 0.25373649597167969 0.015380230732262135
0.0040434743277728558 0.29149499535560608 0.0005058139213360846
0.070523463189601898 0.30581331253051758 0.0073082568123936653
0.17524583637714386 0.31835010647773743 0.013550597243010998
0.28638899326324463 0.33485478162765503 0.021430550143122673
0.38744929432868958 0.35141494870185852 0.03485126793384552
0.48430991172790527 0.36635699868202209 0.052797954529523849
0.57528394460678101 0.38463655114173889 0.073891609907150269
0.032999090850353241 0.42618519067764282 0.026237651705741882
0.12137451022863388 0.43996649980545044 0.043665342032909393
0.23180161416530609 0.4555513858795166 0.058745052665472031
0.34380757808685303 0.47192183136940002 0.071167968213558197
0.44580420851707458 0.4867188036441803 0.087328694760799408
0.5421680212020874 0.50145387649536133 0.10679921507835388
0.63430845737457275 0.51990461349487305 0.12890538573265076
0.085624366998672485 0.56063294410705566 0.084150843322277069
0.18040646612644196 0.57559937238693237 0.099852800369262695
0.29025059938430786 0.59244096279144287 0.11643281579017639
0.39918702840805054 0.60845601558685303 0.13013792037963867
0.50122731924057007 0.62370097637176514 0.14520764350891113
0.59802460670471191 0.63977909088134766 0.16306306421756744
0.69190680980682373 0.65949517488479614 0.18487711250782013
0 0 0
0 0 0
0 0 0
0.053351711481809616 0 0
0.15857411921024323 0 0
0.2565883994102478 0 0
0.34642124176025391 0.0025392570532858372 0.0013834934215992689
0.0030334172770380974 0 0
0 0 0
0.01542301569133997 0 0
0.11297197639942169 0 0.00028863045736216009
0.21817363798618317 0 0.00040573420119471848
0.31732523441314697 0.0057129203341901302 0.00015707577404100448
0.40671080350875854 0.022669039666652679 0.014122936874628067
0.0061337491497397423 0.02872028760612011 0
0.00020105698786210269 0.040891699492931366 0.00090341008035466075
0.066609926521778107 0.057587552815675735 0.00032576019293628633
0.17516367137432098 0.068437106907367706 0.0036310830619186163
0.27466502785682678 0.086133740842342377 0.0090238535776734352
0.37579721212387085 0.10419008135795593 0.021432943642139435
0.46517986059188843 0.12108764797449112 0.043243438005447388
0 0.16411833465099335 0.012649386189877987
0.02723967656493187 0.17979070544242859 0.025534491986036301
0.1300821453332901 0.19258579611778259 0.025929231196641922
0.23557324707508087 0.21108169853687286 0.035408318042755127
0.33434674143791199 0.2278534471988678 0.053518813103437424
0.43319606781005859 0.24225595593452454 0.075450226664543152
0.52232980728149414 0.25726556777954102 0.096097402274608612
0.0039903828874230385 0.29839277267456055 0.053415380418300629
0.073920950293540955 0.31351384520530701 0.06960131973028183
0.18593983352184296 0.32738339900970459 0.080167375504970551
0.29559493064880371 0.34427165985107422 0.092798389494419098
0.39504009485244751 0.3609987199306488 0.11077658087015152
0.49136656522750854 0.37690475583076477 0.131806880235672
0.58195763826370239 0.39185929298400879 0.15412949025630951
0.036172289401292801 0.43219146132469177 0.10246450453996658
0.12780262529850006 0.448047935962677 0.12240205705165863
0.24246446788311005 0.46427452564239502 0.13918033242225647
0.35308414697647095 0.48015660047531128 0.15184056758880615
0.45372691750526428 0.49532607197761536 0.16733261942863464
0.54938185214996338 0.51030725240707397 0.18614836037158966
0.64082098007202148 0.52701747417449951 0.20701166987419128
0.090885043144226074 0.56755459308624268 0.16203285753726959
0.19018912315368652 0.58388197422027588 0.18228816986083984
0.30325126647949219 0.60133343935012817 0.20067819952964783
0.41014474630355835 0.61673462390899658 0.21229563653469086
0.5103411078453064 0.63139551877975464 0.22538973391056061
0.60594683885574341 0.64684796333312988 0.24209550023078918
0.69876450300216675 0.66506338119506836 0.26228836178779602
0 0.00065168493892997503 0
0 6.3787723775021732e-05 0
4.8828125727595761e-05 0 0
0.061856437474489212 8.0901503679342568e-05 4.5955883251735941e-05
0.16567045450210571 0 0.0018090790836140513
0.26488348841667175 0 0.0065000494942069054
0.35525485873222351 0.0059132594615221024 0.026861647143959999
8.6152322182897478e-05 0 0.00032079359516501427
0 0 0.0027564403135329485
0.016522860154509544 0 0.0071299085393548012
0.12188370525836945 0.00014525768347084522 0.027049299329519272
0.22495043277740479 0 0.03604850172996521
0.32547441124916077 0.0028384488541632891 0.044546104967594147
0.41353723406791687 0.029286058619618416 0.0677461177110672
0.00013263178698252887 0.029461594298481941 0.024057306349277496
0.0016277089016512036 0.044641532003879547 0.04037310928106308
0.078678756952285767 0.059735242277383804 0.056134644895792007
0.18152251839637756 0.076707981526851654 0.073630765080451965
0.28279986977577209 0.083404883742332458 0.085383713245391846
0.38342252373695374 0.10322624444961548 0.10227792710065842
0.47188350558280945 0.12710382044315338 0.12245777994394302
0 0.16820575296878815 0.077068910002708435
0.030114941298961639 0.18435387313365936 0.096622809767723083
0.13728225231170654 0.2000385969877243 0.11218433827161789
0.24206492304801941 0.21523703634738922 0.13076116144657135
0.34162232279777527 0.22980912029743195 0.14653337001800537
0.44077411293983459 0.24928806722164154 0.16351231932640076
0.53071707487106323 0.26534950733184814 0.18024830520153046
0.0064861522987484932 0.30374613404273987 0.14068883657455444
0.080250710248947144 0.31932169198989868 0.15998619794845581
0.19406913220882416 0.33452638983726501 0.17534071207046509
0.3008456826210022 0.35037195682525635 0.18841966986656189
0.40027076005935669 0.36634570360183716 0.20356312394142151
0.49739792943000793 0.38503357768058777 0.21880835294723511
0.58863645792007446 0.40167650580406189 0.23659975826740265
0.045165356248617172 0.43885800242424011 0.19560627639293671
0.13739475607872009 0.45546379685401917 0.21624511480331421
0.25099635124206543 0.47172227501869202 0.23202358186244965
0.35888928174972534 0.48705551028251648 0.24329271912574768
0.45921805500984192 0.50220048427581787 0.25646123290061951
0.55510181188583374 0.51839667558670044 0.27257010340690613
0.64682459831237793 0.53580820560455322 0.29083836078643799
0.10110552608966827 0.57558459043502808 0.25201421976089478
0.20080803334712982 0.59244406223297119 0.27271884679794312
0.31242343783378601 0.60936319828033447 0.28982049226760864
0.41787558794021606 0.62436145544052124 0.30067092180252075
0.5171809196472168 0.63897722959518433 0.3125687837600708
0.61245578527450562 0.65472686290740967 0.327993243932724
0.70507007837295532 0.67280566692352295 0.34670481085777283
0.00021139407181181014 0.00095000921282917261 0.0057838140055537224
0 0.0022181791719049215 0.018525486811995506
0.0014616424450650811 0 0.027123633772134781
0.068821683526039124 0.00084460387006402016 0.038245752453804016
0.17368410527706146 0 0.052431352436542511
0.27190685272216797 0 0.070755451917648315
0.3621712327003479 0.00034149768180213869 0.092202357947826385
0.0006861069705337286 0 0.04983978345990181
0 0 0.070580139756202698
0.020796323195099831 0 0.084228411316871643
0.12945133447647095 0.00085486617172136903 0.099019832909107208
0.23347894847393036 7.3002833232749254e-05 0.11385425925254822
0.33114555478096008 0.0018610337283462286 0.13272407650947571
0.41914588212966919 0.023310372605919838 0.15129971504211426
0 0.036089204251766205 0.111075758934021
0.002200826071202755 0.052867963910102844 0.12723709642887115
0.082433559000492096 0.067886501550674438 0.14306558668613434
0.18907937407493591 0.080522544682025909 0.16014522314071655
0.2919640839099884 0.089822717010974884 0.17413657903671265
0.3902033269405365 0.11152075976133347 0.19029666483402252
0.47831547260284424 0.13137269020080566 0.20981591939926147
0.0027609881944954395 0.18057358264923096 0.1689201146364212
0.044278506189584732 0.19626672565937042 0.1857258677482605
0.14843544363975525 0.20926329493522644 0.20122611522674561
0.24825119972229004 0.22207652032375336 0.21777105331420898
0.35025617480278015 0.23744212090969086 0.23160335421562195
0.44922417402267456 0.25959432125091553 0.24595992267131805
0.53939461708068848 0.27457156777381897 0.26408606767654419
0.022171169519424438 0.31432443857192993 0.22942498326301575
0.0987076535820961 0.32961374521255493 0.24823653697967529
0.2048255056142807 0.34296402335166931 0.26294618844985962
0.30664786696434021 0.35742709040641785 0.27499818801879883
0.40771681070327759 0.37294980883598328 0.28814861178398132
0.50618594884872437 0.38945150375366211 0.30352753400802612
0.59697574377059937 0.40922203660011292 0.32055872678756714
0.059549771249294281 0.44779133796691895 0.28637337684631348
0.15225189924240112 0.46413999795913696 0.3053303062915802
0.26084697246551514 0.47931778430938721 0.31941857933998108
0.36452257633209229 0.49398759007453918 0.32959210872650146
0.46526378393173218 0.50918591022491455 0.34301921725273132
0.56199902296066284 0.52523213624954224 0.35931313037872314
0.65364593267440796 0.54412388801574707 0.37663149833679199
0.11312152445316315 0.58404070138931274 0.34175455570220947
0.21223953366279602 0.60078871250152588 0.36009964346885681
0.3205835223197937 0.61681383848190308 0.37524154782295227
0.42442035675048828 0.63155829906463623 0.38704913854598999
0.52368724346160889 0.64652889966964722 0.40006902813911438
0.61911171674728394 0.66267925500869751 0.41585269570350647
0.71158242225646973 0.68118691444396973 0.43357843160629272
0.0037967157550156116 0 0.083859041333198547
0 0.00015713561151642352 0.10355473309755325
0.0025143492966890335 0.00021217195899225771 0.11634548753499985
0.070976555347442627 0.0005040785763412714 0.13070513308048248
0.18062010407447815 0 0.1470823734998703
0.27782353758811951 0 0.16127230226993561
0.3680664598941803 0 0.18073053658008575
0.0036328185815364122 0 0.14014585316181183
5.2657782362075523e-05 0 0.16108147799968719
0.035280264914035797 0 0.17562438547611237
0.13296195864677429 0.00056520348880439997 0.19015228748321533
0.23971496522426605 0.0018861059797927737 0.20648281276226044
0.33732745051383972 0.0039657293818891048 0.22235265374183655
0.42689889669418335 0.01399078406393528 0.24078036844730377
0 0.047726888209581375 0.20119890570640564
0.0035393359139561653 0.057793978601694107 0.21615765988826752
0.086489401757717133 0.076277248561382294 0.22972099483013153
0.19540581107139587 0.09162449836730957 0.24647819995880127
0.29939574003219604 0.10225607454776764 0.26342114806175232
0.39696985483169556 0.11948201805353165 0.27845540642738342
0.48689797520637512 0.13414761424064636 0.29659748077392578
0.0023316924925893545 0.18567156791687012 0.25855520367622375
0.048127371817827225 0.20363712310791016 0.27283549308776855
0.15136320888996124 0.2181142121553421 0.28599649667739868
0.2540619969367981 0.23230832815170288 0.30180901288986206
0.35788926482200623 0.246453657746315 0.31757983565330505
0.45668670535087585 0.26557135581970215 0.33287233114242554
0.54761064052581787 0.28041040897369385 0.35050034523010254
0.030119039118289948 0.32229840755462646 0.31580990552902222
0.11101695150136948 0.33798068761825562 0.3319377601146698
0.2148313969373703 0.35051929950714111 0.34632039070129395
0.3149007260799408 0.36361336708068848 0.36022064089775085
0.41603964567184448 0.38129803538322449 0.37346944212913513
0.51462697982788086 0.39677774906158447 0.39040842652320862
0.60558003187179565 0.41595536470413208 0.4074542224407196
0.069433428347110748 0.45570462942123413 0.37242299318313599
0.16562816500663757 0.47186130285263062 0.38932019472122192
0.27245801687240601 0.48610299825668335 0.40362915396690369
0.37418249249458313 0.50080770254135132 0.41599881649017334
0.47410207986831665 0.51776903867721558 0.43020898103713989
0.57112067937850952 0.53333467245101929 0.44823405146598816
0.66177022457122803 0.55211865901947021 0.46481946110725403
0.12342550605535507 0.59188514947891235 0.42858672142028809
0.2241748571395874 0.6084941029548645 0.44499439001083374
0.33082160353660583 0.62395751476287842 0.45978957414627075
0.43294411897659302 0.63829690217971802 0.47330984473228455
0.53178727626800537 0.65364497900009155 0.48822003602981567
0.62733060121536255 0.6701551079750061 0.50524806976318359
0.71927261352539062 0.68915098905563354 0.52223080396652222
0.00092667224816977978 0 0.17302271723747253
0 0 0.19031441211700439
0.0023531445767730474 0 0.20646940171718597
0.074755065143108368 0 0.22226043045520782
0.18301011621952057 0 0.23768001794815063
0.2824288010597229 0 0.25217598676681519
0.3737715482711792 0 0.27032002806663513
0.0028728409670293331 0 0.22985607385635376
5.3854550060350448e-05 0 0.24807685613632202
0.039233803749084473 0.00027106789639219642 0.26348927617073059
0.13852258026599884 0.002831373130902648 0.2792108952999115
0.24606533348560333 0.0040441178716719151 0.29522329568862915
0.34422054886817932 0.0072221793234348297 0.31052693724632263
0.43432563543319702 0.021107811480760574 0.32834833860397339
0 0.04991912841796875 0.28849121928215027
0.0084366891533136368 0.067296870052814484 0.30402830243110657
0.090072944760322571 0.084609508514404297 0.31831341981887817
0.20285762846469879 0.099079921841621399 0.33501449227333069
0.30760034918785095 0.11070389300584793 0.3514752984046936
0.40482544898986816 0.12522976100444794 0.36617028713226318
0.49532082676887512 0.14115546643733978 0.3834344744682312
0.00053654093062505126 0.18751914799213409 0.34492203593254089
0.047821179032325745 0.20963037014007568 0.35944110155105591
0.15253172814846039 0.22475434839725494 0.3737129271030426
0.26194053888320923 0.23913957178592682 0.3903099000453949
0.36595240235328674 0.25305619835853577 0.40654003620147705
0.46413227915763855 0.27000758051872253 0.42185887694358826
0.5555800199508667 0.28567615151405334 0.43850859999656677
0.020748857408761978 0.32649099826812744 0.40124920010566711
0.11231870204210281 0.34266024827957153 0.41621118783950806
0.22087833285331726 0.357412189245224 0.43143162131309509
0.32358229160308838 0.37264141440391541 0.44688913226127625
0.42447578907012939 0.3883502185344696 0.46237641572952271
0.52245253324508667 0.40385618805885315 0.47971302270889282
0.61424905061721802 0.42251822352409363 0.49588444828987122
0.067094020545482635 0.46133124828338623 0.45800450444221497
0.16866771876811981 0.47667616605758667 0.47379064559936523
0.27989035844802856 0.49179971218109131 0.48902809619903564
0.38286435604095459 0.50769436359405518 0.5030551552772522
0.48216789960861206 0.52418977022171021 0.51861846446990967
0.58001035451889038 0.53955012559890747 0.53787225484848022
0.67113798856735229 0.55839687585830688 0.55374002456665039
0.12779508531093597 0.59815728664398193 0.51520651578903198
0.22932028770446777 0.61345279216766357 0.53060233592987061
0.33722701668739319 0.62892603874206543 0.54569697380065918
0.44005599617958069 0.64417707920074463 0.56015503406524658
0.53908842802047729 0.6597517728805542 0.57613235712051392
0.63528746366500854 0.67602944374084473 0.59380829334259033
0.72790849208831787 0.69545704126358032 0.6107897162437439
0 0 0.26153606176376343
0 0 0.27706453204154968
0.016704006120562553 0 0.29318639636039734
0.094728954136371613 0 0.3089025616645813
0.19425703585147858 0 0.3241296112537384
0.29069840908050537 0 0.33925613760948181
0.38162979483604431 0.0044454988092184067 0.35715818405151367
0 0.00099921133369207382 0.31662741303443909
0 0 0.33292824029922485
0.044735327363014221 0.00012715657067019492 0.3487275242805481
0.15060929954051971 0.0027424681466072798 0.36433926224708557
0.2559669017791748 0.0047436435706913471 0.38009470701217651
0.35254505276679993 0.016204699873924255 0.3956247866153717
0.44230234622955322 0.050657056272029877 0.41321823000907898
0.00074464385397732258 0.06480669230222702 0.37376505136489868
0.018455175682902336 0.076803945004940033 0.38911852240562439
0.096262089908123016 0.086746886372566223 0.4042627215385437
0.21174868941307068 0.099086359143257141 0.42009615898132324
0.31659898161888123 0.11186874657869339 0.43631640076637268
0.41300779581069946 0.13077977299690247 0.45217159390449524
0.50369423627853394 0.15828150510787964 0.46948063373565674
0.0032231947407126427 0.19426105916500092 0.43092608451843262
0.060702469199895859 0.21563851833343506 0.44620642066001892
0.15802569687366486 0.2290060967206955 0.4605487585067749
0.26890784502029419 0.24219551682472229 0.47587811946868896
0.37355515360832214 0.25672480463981628 0.49215212464332581
0.47136744856834412 0.27650696039199829 0.5084107518196106
0.56354588270187378 0.29530969262123108 0.52561235427856445
0.015291969291865826 0.3328646719455719 0.48777079582214355
0.11006595194339752 0.34887987375259399 0.50297832489013672
0.221345454454422 0.36468607187271118 0.51791739463806152
0.32876235246658325 0.38091233372688293 0.5324522852897644
0.43033111095428467 0.39658945798873901 0.54818177223205566
0.52837616205215454 0.41363656520843506 0.56544148921966553
0.62190049886703491 0.43197354674339294 0.58292573690414429
0.066403180360794067 0.46856188774108887 0.54498648643493652
0.16846014559268951 0.48218333721160889 0.56041562557220459
0.28264519572257996 0.49767234921455383 0.57585680484771729
0.38757675886154175 0.5147850513458252 0.58963453769683838
0.48675215244293213 0.53144323825836182 0.60471898317337036
0.58506369590759277 0.54725605249404907 0.62269562482833862
0.67940527200698853 0.56620830297470093 0.64017242193222046
0.13319815695285797 0.60624992847442627 0.60315132141113281
0.232322096824646 0.61913669109344482 0.6179579496383667
0.34052002429962158 0.63443624973297119 0.63295829296112061
0.44464555382728577 0.65057599544525146 0.64743196964263916
0.5443800687789917 0.66668504476547241 0.66294378042221069
0.64178657531738281 0.68288487195968628 0.68026274442672729
0.73714983463287354 0.70209002494812012 0.69806760549545288
