assets/lut/alexjordan protect highlights 01.cube
# Created by: G'MIC (https://gmic.eu)
TITLE "protect_highlights_01"
# LUT size
LUT_3D_SIZE 7
# Data domain
DOMAIN_MIN 0.0 0.0 0.0
DOMAIN_MAX 1.0 1.0 1.0
# LUT data points
0.034901920706033707 0.034000352025032043 0.034666996449232101
0.20062442123889923 0.036393348127603531 0.040808103978633881
0.36857214570045471 0.042337186634540558 0.046999897807836533
0.53685754537582397 0.049373026937246323 0.052566975355148315
0.70551037788391113 0.056546304374933243 0.057823676615953445
0.87549227476119995 0.064148925244808197 0.062818519771099091
1 0.070553496479988098 0.066176474094390869
0.046229973435401917 0.20502340793609619 0.046963561326265335
0.21078343689441681 0.20664288103580475 0.051651030778884888
0.37661132216453552 0.21172416210174561 0.056228309869766235
0.54172122478485107 0.21653972566127777 0.058985482901334763
0.70691758394241333 0.22133000195026398 0.062252029776573181
0.87255305051803589 0.22566333413124084 0.066176474094390869
1 0.2312263697385788 0.064433634281158447
0.056747257709503174 0.37693619728088379 0.055655743926763535
0.22042010724544525 0.37857019901275635 0.058330222964286804
0.38253006339073181 0.37910810112953186 0.058380007743835449
0.54108345508575439 0.37866306304931641 0.060177791863679886
0.70364600419998169 0.38163506984710693 0.056853350251913071
0.8615260124206543 0.37900719046592712 0.055898524820804596
0.99780178070068359 0.37840187549591064 0.048074252903461456
0.058774687349796295 0.54136443138122559 0.056089200079441071
0.22017814218997955 0.54117649793624878 0.053672999143600464
0.37984961271286011 0.53829336166381836 0.048104170709848404
0.52777707576751709 0.52638202905654907 0.046360015869140625
0.68029099702835083 0.52025771141052246 0.039297215640544891
0.82456851005554199 0.50556403398513794 0.030310850590467453
0.96742856502532959 0.48887628316879272 0.019119711592793465
0.043370820581912994 0.68873488903045654 0.042694509029388428
0.19133719801902771 0.67837703227996826 0.039062947034835815
0.34389874339103699 0.66627514362335205 0.025230243802070618
0.47822019457817078 0.63845217227935791 0.022015396505594254
0.60886508226394653 0.6079595685005188 0.021817585453391075
0.73643785715103149 0.57518643140792847 0.012427101843059063
0.87283122539520264 0.55099868774414062 0.0016395718557760119
0.012688536196947098 0.79720598459243774 0.019844084978103638
0.12598949670791626 0.7693713903427124 0.023972366005182266
0.25329184532165527 0.74248707294464111 0.011037444695830345
0.38839966058731079 0.71354138851165771 0.0030859254766255617
0.52416831254959106 0.68164736032485962 0.0090010398998856544
0.66339462995529175 0.65911734104156494 0.0074109095148742199
0.81448125839233398 0.65117073059082031 0.0018259834032505751
2.5850184101727791e-05 0.87443983554840088 0.0028867085929960012
0.059934459626674652 0.84196555614471436 0.010915374383330345
0.17190943658351898 0.81624448299407959 0.0033405229914933443
0.31815508008003235 0.80345451831817627 0
0.47898662090301514 0.79722458124160767 0.0016160702798515558
0.65529388189315796 0.81244343519210815 0.009565720334649086
0.84701603651046753 0.84671986103057861 0.011813115328550339
0.034348640590906143 0.032437551766633987 0.19223211705684662
0.19932125508785248 0.034662779420614243 0.19766406714916229
0.36628511548042297 0.040767773985862732 0.2034921795129776
0.53320908546447754 0.047128237783908844 0.20857079327106476
0.70022177696228027 0.05353902280330658 0.21327568590641022
0.86950802803039551 0.061825141310691833 0.21888881921768188
1 0.069543786346912384 0.22094660997390747
0.046284515410661697 0.20472361147403717 0.20433498919010162
0.20982369780540466 0.20559214055538177 0.20858189463615417
0.37572780251502991 0.21058623492717743 0.21334999799728394
0.53963553905487061 0.21449220180511475 0.21642057597637177
0.70222920179367065 0.21678188443183899 0.21722801029682159
0.86808782815933228 0.22216701507568359 0.2229745090007782
1 0.22843137383460999 0.22176340222358704
0.057138960808515549 0.37830176949501038 0.21363732218742371
0.21920835971832275 0.37703144550323486 0.21582455933094025
0.38222134113311768 0.37787988781929016 0.21728429198265076
0.54119300842285156 0.37765586376190186 0.2173619419336319
0.69997859001159668 0.37601044774055481 0.21516700088977814
0.85847264528274536 0.37439700961112976 0.21607100963592529
0.99680787324905396 0.3733656108379364 0.20579124987125397
0.059113461524248123 0.5446467399597168 0.21295908093452454
0.21795079112052917 0.53879523277282715 0.21042214334011078
0.3766523003578186 0.53363049030303955 0.20407681167125702
0.52759569883346558 0.5247228741645813 0.19846883416175842
0.67647141218185425 0.5149911642074585 0.19067241251468658
0.82016539573669434 0.4990476667881012 0.17849451303482056
0.96197140216827393 0.48004472255706787 0.1544366180896759
0.048976417630910873 0.68884050846099854 0.19030503928661346
0.19271120429039001 0.67435687780380249 0.18212074041366577
0.33756116032600403 0.65715473890304565 0.16356037557125092
0.47517460584640503 0.63424915075302124 0.14827395975589752
0.60854226350784302 0.60724931955337524 0.13786704838275909
0.7355048656463623 0.57370418310165405 0.10955246537923813
0.86850696802139282 0.54625219106674194 0.066737949848175049
0.027020294219255447 0.78898972272872925 0.13940520584583282
0.13967905938625336 0.76396143436431885 0.13129785656929016
0.25759223103523254 0.73660188913345337 0.10117610543966293
0.38640594482421875 0.70914149284362793 0.073225639760494232
0.52426302433013916 0.68309420347213745 0.075556285679340363
0.66528415679931641 0.66229712963104248 0.060294732451438904
0.81752443313598633 0.65508174896240234 0.026589561253786087
0.0069028665311634541 0.86114859580993652 0.083405107259750366
0.087505340576171875 0.83539789915084839 0.081451058387756348
0.18755754828453064 0.81263381242752075 0.052132848650217056
0.31939277052879333 0.79957669973373413 0.020725131034851074
0.48115700483322144 0.79983687400817871 0.048145204782485962
0.66087669134140015 0.81862246990203857 0.073579482734203339
0.85188978910446167 0.85108262300491333 0.08812279999256134
0.036132872104644775 0.03425140306353569 0.35324722528457642
0.20084109902381897 0.037476677447557449 0.35854235291481018
0.36673223972320557 0.042429473251104355 0.3643341064453125
0.53181725740432739 0.04765961691737175 0.36907732486724854
0.69674539566040039 0.053185854107141495 0.37283682823181152
0.86412513256072998 0.060983456671237946 0.3773249089717865
0.99969804286956787 0.068669036030769348 0.37910217046737671
0.04874744638800621 0.20797838270664215 0.36550894379615784
0.21268215775489807 0.21025738120079041 0.36995053291320801
0.37785327434539795 0.21393445134162903 0.37553504109382629
0.54057300090789795 0.2163015753030777 0.3787110447883606
0.70099407434463501 0.21784709393978119 0.37959969043731689
0.86493557691574097 0.222559854388237 0.38275247812271118
0.99938011169433594 0.22841581702232361 0.38163506984710693
0.057827908545732498 0.37997663021087646 0.37517371773719788
0.21993209421634674 0.37862351536750793 0.37794932723045349
0.38387641310691833 0.38027319312095642 0.38110798597335815
0.54373747110366821 0.37924408912658691 0.3809085488319397
0.69918835163116455 0.37821674346923828 0.37820520997047424
0.85705035924911499 0.3751075267791748 0.37729233503341675
0.99604713916778564 0.37051570415496826 0.36750799417495728
0.056477952748537064 0.54398912191390991 0.37762042880058289
0.21364995837211609 0.53500211238861084 0.37572821974754333
0.37372481822967529 0.53100967407226562 0.37031629681587219
0.52497059106826782 0.52341580390930176 0.35976222157478333
0.67239481210708618 0.51314562559127808 0.34966441988945007
0.81580543518066406 0.49599263072013855 0.33665132522583008
0.95551460981369019 0.47334575653076172 0.31006893515586853
0.041972454637289047 0.68567699193954468 0.35679352283477783
0.18641644716262817 0.66821348667144775 0.34438273310661316
0.3315201997756958 0.65040159225463867 0.32493782043457031
0.46594658493995667 0.62644869089126587 0.29694771766662598
0.60090208053588867 0.60166126489639282 0.27674385905265808
0.73175114393234253 0.57136213779449463 0.24960179626941681
0.86610496044158936 0.54401564598083496 0.2129272073507309
0.027533721178770065 0.77870643138885498 0.28572335839271545
0.13899844884872437 0.7550886869430542 0.26888769865036011
0.25355842709541321 0.72830474376678467 0.23627902567386627
0.37925750017166138 0.70129907131195068 0.20209573209285736
0.51892364025115967 0.67818403244018555 0.19208578765392303
0.66888302564620972 0.66630095243453979 0.18320085108280182
0.83092111349105835 0.66921621561050415 0.17329272627830505
0.01765512116253376 0.84778958559036255 0.20011892914772034
0.099598348140716553 0.82767611742019653 0.19036577641963959
0.19458109140396118 0.80822038650512695 0.16179585456848145
0.32293981313705444 0.79723352193832397 0.13918732106685638
0.48555877804756165 0.80281651020050049 0.15891480445861816
0.67430645227432251 0.83195441961288452 0.19565662741661072
0.87660473585128784 0.87628293037414551 0.23344820737838745
0.038226842880249023 0.035539217293262482 0.5155479907989502
0.20319752395153046 0.039588239043951035 0.52147597074508667
0.36837530136108398 0.044702760875225067 0.52741771936416626
0.53189080953598022 0.049409590661525726 0.53161382675170898
0.6943671703338623 0.054052241146564484 0.53399074077606201
0.85884124040603638 0.060964785516262054 0.53600126504898071
0.99833911657333374 0.067897751927375793 0.53642177581787109
0.05154622346162796 0.20931372046470642 0.52792799472808838
0.21670849621295929 0.21271318197250366 0.53394025564193726
0.38163530826568604 0.21701514720916748 0.54019349813461304
0.54296082258224487 0.21892470121383667 0.54295003414154053
0.69951808452606201 0.21887721121311188 0.54199385643005371
0.86046910285949707 0.22133582830429077 0.54138880968093872
0.99829226732254028 0.225692018866539 0.53937149047851562
0.060321599245071411 0.38010731339454651 0.53597450256347656
0.22423447668552399 0.38131663203239441 0.54097431898117065
0.38697603344917297 0.38282537460327148 0.5458911657333374
0.54461002349853516 0.38260248303413391 0.54474908113479614
0.69776701927185059 0.37688061594963074 0.53904181718826294
0.85020297765731812 0.37121209502220154 0.53268659114837646
0.991912841796875 0.3642907440662384 0.52127933502197266
0.055729765444993973 0.54148644208908081 0.5369257926940918
0.21350260078907013 0.53560668230056763 0.53557777404785156
0.36939123272895813 0.52965289354324341 0.53209048509597778
0.51830250024795532 0.51925128698348999 0.51902920007705688
0.66494572162628174 0.50735205411911011 0.50481623411178589
0.80495870113372803 0.48676571249961853 0.48650640249252319
0.94071716070175171 0.46075454354286194 0.45986658334732056
0.032250512391328812 0.68014037609100342 0.51939254999160767
0.17422385513782501 0.6604912281036377 0.50298148393630981
0.31380930542945862 0.63908916711807251 0.48145502805709839
0.44791057705879211 0.61336016654968262 0.45084065198898315
0.58491218090057373 0.58768069744110107 0.42484411597251892
0.71697121858596802 0.55731326341629028 0.39799803495407104
0.85011297464370728 0.52917647361755371 0.37071850895881653
0.014356306754052639 0.77012568712234497 0.44527080655097961
0.12036870419979095 0.74329441785812378 0.42323571443557739
0.23008570075035095 0.71321278810501099 0.39183688163757324
0.36047324538230896 0.68672555685043335 0.3601454496383667
0.50342381000518799 0.66293072700500488 0.34131541848182678
0.65854817628860474 0.65586596727371216 0.33686402440071106
0.82348740100860596 0.6619073748588562 0.34027549624443054
0.0069276848807930946 0.84332388639450073 0.35512098670005798
0.087672755122184753 0.82012104988098145 0.33784392476081848
0.18283210694789886 0.79971098899841309 0.31538251042366028
0.31723648309707642 0.7924121618270874 0.30209106206893921
0.48375785350799561 0.8007131814956665 0.3142264187335968
0.67511725425720215 0.83308792114257812 0.34951382875442505
0.87750530242919922 0.87731802463531494 0.39172852039337158
0.03896293044090271 0.035880908370018005 0.67785865068435669
0.20406411588191986 0.040373411029577255 0.68435138463973999
0.36889386177062988 0.045658022165298462 0.6902579665184021
0.53175020217895508 0.050522074103355408 0.6939130425453186
0.69236475229263306 0.054815672338008881 0.69463068246841431
0.85364019870758057 0.060455188155174255 0.69396531581878662
0.99672776460647583 0.065981216728687286 0.69241613149642944
0.051775988191366196 0.20801036059856415 0.6902536153793335
0.21760299801826477 0.21262505650520325 0.69759583473205566
0.38327431678771973 0.21791322529315948 0.70392274856567383
0.54462569952011108 0.22028186917304993 0.70650249719619751
0.70183390378952026 0.21967923641204834 0.70437127351760864
0.85936820507049561 0.2215045839548111 0.70218396186828613
0.99758249521255493 0.22450980544090271 0.69747191667556763
0.060204941779375076 0.37922832369804382 0.69731974601745605
0.22582609951496124 0.38286599516868591 0.70445472002029419
0.38898375630378723 0.38571292161941528 0.70908105373382568
0.54619008302688599 0.38278472423553467 0.7070918083190918
0.69831347465515137 0.37620300054550171 0.69981664419174194
0.84955745935440063 0.36972728371620178 0.69157445430755615
0.99109095335006714 0.36401492357254028 0.68057703971862793
0.05551949143409729 0.53869521617889404 0.69214898347854614
0.21344810724258423 0.53668886423110962 0.69442695379257202
0.36764329671859741 0.53007584810256958 0.69036686420440674
0.51313173770904541 0.51567012071609497 0.6762232780456543
0.65938407182693481 0.50076687335968018 0.65969061851501465
0.80085057020187378 0.48133167624473572 0.64093548059463501
0.93673515319824219 0.45755931735038757 0.61698275804519653
0.032082889229059219 0.66504663228988647 0.66030442714691162
0.16828006505966187 0.65163230895996094 0.65107959508895874
0.30060777068138123 0.62991368770599365 0.63104832172393799
0.43269833922386169 0.60188508033752441 0.60224038362503052
0.57176810503005981 0.57611203193664551 0.57527774572372437
0.71018743515014648 0.55034703016281128 0.55146074295043945
0.8531000018119812 0.53150033950805664 0.53459739685058594
0.010342721827328205 0.75383269786834717 0.59019339084625244
0.10996270179748535 0.73023086786270142 0.57237958908081055
0.21497330069541931 0.70084881782531738 0.54506218433380127
0.34531340003013611 0.67607855796813965 0.517375648021698
0.49395459890365601 0.65826398134231567 0.49897322058677673
0.65290772914886475 0.65231305360794067 0.49426001310348511
0.82421022653579712 0.66372805833816528 0.50537371635437012
0.0031496533192694187 0.83480268716812134 0.51072567701339722
0.081591740250587463 0.81309974193572998 0.49469605088233948
0.17794637382030487 0.79477310180664062 0.47750762104988098
0.31455552577972412 0.79232537746429443 0.47078675031661987
0.48564404249191284 0.80622738599777222 0.48376137018203735
0.67615699768066406 0.8365548849105835 0.51412034034729004
0.87418490648269653 0.8751024603843689 0.55141675472259521
0.038626294583082199 0.037207599729299545 0.83929657936096191
0.20273019373416901 0.040777333080768585 0.84576678276062012
0.36729463934898376 0.045426789671182632 0.85143071413040161
0.53016585111618042 0.05066540464758873 0.854747474193573
0.6896967887878418 0.054773665964603424 0.85401767492294312
0.84760212898254395 0.058884892612695694 0.85053074359893799
0.99317950010299683 0.06231008842587471 0.84553289413452148
0.049777459353208542 0.2075924277305603 0.85121256113052368
0.21505376696586609 0.21177086234092712 0.8585856556892395
0.38053795695304871 0.21610504388809204 0.86417359113693237
0.54401761293411255 0.22019430994987488 0.86749511957168579
0.70130401849746704 0.21936652064323425 0.86479789018630981
0.85737347602844238 0.21934130787849426 0.85999214649200439
0.99627816677093506 0.22113168239593506 0.85374373197555542
0.05713203176856041 0.37952426075935364 0.85803490877151489
0.22268751263618469 0.38349875807762146 0.86549270153045654
0.38716459274291992 0.3850921094417572 0.86953127384185791
0.54679721593856812 0.3828919529914856 0.86801624298095703
0.69844096899032593 0.37466913461685181 0.85960614681243896
0.84827059507369995 0.36462342739105225 0.84941083192825317
0.98967856168746948 0.35835132002830505 0.8378182053565979
0.053744520992040634 0.5386660099029541 0.84759664535522461
0.21285748481750488 0.53849774599075317 0.85163068771362305
0.3685111403465271 0.5320899486541748 0.84972137212753296
0.51177966594696045 0.51462703943252563 0.83414763212203979
0.65392184257507324 0.49464854598045349 0.81450015306472778
0.79413235187530518 0.47304186224937439 0.79501760005950928
0.93358707427978516 0.45151233673095703 0.77339416742324829
0.034929491579532623 0.65534454584121704 0.80428200960159302
0.17050489783287048 0.64623624086380005 0.79974055290222168
0.30032116174697876 0.62635117769241333 0.78334856033325195
0.42430597543716431 0.59367674589157104 0.75287020206451416
0.55948436260223389 0.56397151947021484 0.7235901951789856
0.70067965984344482 0.54091060161590576 0.70165693759918213
0.84753274917602539 0.52553880214691162 0.68790417909622192
0.014294463209807873 0.73917233943939209 0.73312294483184814
0.11691015213727951 0.72112727165222168 0.71971988677978516
0.2183808833360672 0.69448035955429077 0.69549834728240967
0.33729276061058044 0.66731280088424683 0.66848748922348022
0.48661822080612183 0.65241712331771851 0.65278297662734985
0.64887797832489014 0.64892566204071045 0.64922326803207397
0.82258409261703491 0.66225570440292358 0.66301113367080688
0.0072465036064386368 0.82470506429672241 0.6628536581993103
0.093708619475364685 0.80924302339553833 0.65092915296554565
0.19071033596992493 0.79624360799789429 0.63890552520751953
0.32277634739875793 0.79747641086578369 0.63830184936523438
0.49926105141639709 0.82208967208862305 0.66106539964675903
0.69462496042251587 0.85751795768737793 0.69553118944168091
0.89185613393783569 0.89380937814712524 0.73161458969116211
0.038568146526813507 0.039139706641435623 0.99006730318069458
0.2012726366519928 0.041881367564201355 0.99290424585342407
0.3648507297039032 0.045193422585725784 0.99482125043869019
0.52784126996994019 0.050399556756019592 0.99611133337020874
0.68706893920898438 0.054278727620840073 0.99552726745605469
0.84279626607894897 0.056466765701770782 0.99327778816223145
0.98960369825363159 0.056746210902929306 0.98993581533432007
0.048439040780067444 0.21123898029327393 0.99462711811065674
0.21117100119590759 0.21220399439334869 0.99700355529785156
0.37530696392059326 0.21338985860347748 0.99790275096893311
0.54049915075302124 0.2189645916223526 0.99867105484008789
0.69948649406433105 0.22001349925994873 0.99835705757141113
0.85482406616210938 0.21851004660129547 0.99728298187255859
0.99461120367050171 0.21635395288467407 0.99461370706558228
0.054392240941524506 0.38191163539886475 0.99659579992294312
0.21654285490512848 0.38149067759513855 0.99792498350143433
0.37981939315795898 0.37952667474746704 0.99852943420410156
0.54242974519729614 0.38092595338821411 0.99873477220535278
0.69683760404586792 0.37409073114395142 0.99710249900817871
0.84665864706039429 0.36228609085083008 0.99353712797164917
0.98994648456573486 0.35374760627746582 0.98868918418884277
0.051085095852613449 0.5373004674911499 0.99094164371490479
0.20683637261390686 0.53233891725540161 0.99278742074966431
0.36213809251785278 0.52529478073120117 0.99205160140991211
0.50823366641998291 0.51040703058242798 0.98436874151229858
0.64947515726089478 0.48917773365974426 0.96818053722381592
0.78778767585754395 0.46405029296875 0.94801217317581177
0.93140548467636108 0.44516953825950623 0.93047595024108887
0.037344343960285187 0.64706635475158691 0.9520028829574585
0.17088161408901215 0.63767158985137939 0.94847363233566284
0.29926159977912903 0.61875039339065552 0.93542337417602539
0.42104887962341309 0.58659094572067261 0.90631115436553955
0.55351519584655762 0.55466866493225098 0.87603878974914551
0.6950719952583313 0.53218710422515869 0.85564666986465454
0.84354043006896973 0.51819306612014771 0.84323197603225708
0.022730359807610512 0.72981667518615723 0.88247078657150269
0.12896193563938141 0.71597975492477417 0.87226426601409912
0.22741957008838654 0.69128674268722534 0.85068756341934204
0.3374972939491272 0.66248172521591187 0.82363331317901611
0.490590900182724 0.6514509916305542 0.81403356790542603
0.65748828649520874 0.65556234121322632 0.81840264797210693
0.82231009006500244 0.6594662070274353 0.8224407434463501
0.020010540261864662 0.81981366872787476 0.81995493173599243
0.11502669006586075 0.81206429004669189 0.81358516216278076
0.21273915469646454 0.80411642789840698 0.80598145723342896
0.34239065647125244 0.80924201011657715 0.81072330474853516
0.52789080142974854 0.84756028652191162 0.8479912281036377
0.72833490371704102 0.89013338088989258 0.89030998945236206
0.92700421810150146 0.92675936222076416 0.92682284116744995
