assets/lut/alexjordan red afternoon 01.cube
# Created by: G'MIC (https://gmic.eu)
TITLE "red_afternoon_01"
# LUT size
LUT_3D_SIZE 13
# Data domain
DOMAIN_MIN 0.0 0.0 0.0
DOMAIN_MAX 1.0 1.0 1.0
# LUT data points
0 0 0
0 0 0
0 0 0
0 0 0
0 0 0
0 0 0
0 0 0
0 0 0
0 0 0
6.8395274865906686e-05 0 0
0.0057855192571878433 0.00026334874564781785 4.3083641685370822e-06
0.024218840524554253 0.0019231609767302871 0.00046808578190393746
0.061873551458120346 0.0049122083000838757 0.002649703761562705
0 0 0
0 0 0
0 0 0
0 0 0
0 0 0
0 0 0
3.7518668250413612e-05 0 0
0.0033684973604977131 0.00037271835026331246 3.5544002457754686e-05
0.016266677528619766 0.0023611779324710369 0.0003626655088737607
0.042233038693666458 0.006123516708612442 0.0010579128284007311
0.082311905920505524 0.011016097851097584 0.0017898859223350883
0.12926486134529114 0.015072003938257694 0.0021722682286053896
0.18689371645450592 0.019165143370628357 0.0043494133278727531
0 0 0
1.9746668840525672e-05 1.9746668840525672e-05 0
0.00048484053695574403 0.000651310954708606 0.00038790234248153865
0.0016724230954423547 0.0017941494006663561 0.0011313643772155046
0.0052870805375277996 0.0038710201624780893 0.0014837526250630617
0.014190210029482841 0.0078789656981825829 0.0016758937854319811
0.033095698803663254 0.013467990793287754 0.002306575421243906
0.064207129180431366 0.020096737891435623 0.0035411759745329618
0.10215745866298676 0.026156526058912277 0.0046503851190209389
0.14689625799655914 0.031091786921024323 0.0046371910721063614
0.20159830152988434 0.034224864095449448 0.0030494092497974634
0.26791322231292725 0.036376878619194031 0.0019793491810560226
0.33759742975234985 0.040171079337596893 0.0034670811146497726
0.00073649088153615594 0.0022565803956240416 0.0021151225082576275
0.0081363748759031296 0.011918355710804462 0.0057522640563547611
0.018289647996425629 0.022581242024898529 0.0091638900339603424
0.029420740902423859 0.028471000492572784 0.01075191143900156
0.046474352478981018 0.035639520734548569 0.010190761648118496
0.071682468056678772 0.043558906763792038 0.0091891717165708542
0.10552374273538589 0.051179565489292145 0.0087136812508106232
0.14835156500339508 0.057630874216556549 0.0084606390446424484
0.1983117014169693 0.063038833439350128 0.0079519087448716164
0.25503689050674438 0.067044787108898163 0.0055368160828948021
0.32095792889595032 0.069632828235626221 0.0020598915871232748
0.39639893174171448 0.071367494761943817 0.0006110845715738833
0.46946665644645691 0.075875617563724518 0.001835497678257525
0.0063685397617518902 0.03548787534236908 0.011325431987643242
0.022530365735292435 0.053124595433473587 0.0133272809907794
0.038912873715162277 0.065283037722110748 0.014696696773171425
0.060305681079626083 0.072724074125289917 0.015482255257666111
0.089680828154087067 0.081846915185451508 0.013799555599689484
0.12691336870193481 0.090932480990886688 0.012073112651705742
0.17231635749340057 0.098819315433502197 0.010736114345490932
0.22534577548503876 0.105293869972229 0.010035421699285507
0.28459605574607849 0.11058890819549561 0.0086248358711600304
0.34797403216362 0.1153269037604332 0.004900061059743166
0.41478773951530457 0.11967755854129791 0.00089335720986127853
0.48575755953788757 0.12347704172134399 1.4361213516167481e-06
0.5522233247756958 0.12922868132591248 0.0013186585856601596
0.0077205882407724857 0.094527915120124817 0.012204472906887531
0.028605695813894272 0.11189381033182144 0.011500668711960316
0.053224407136440277 0.1256847083568573 0.010625921189785004
0.085837572813034058 0.13347806036472321 0.011134084314107895
0.1264292299747467 0.14096276462078094 0.011171617545187473
0.1738714724779129 0.14889682829380035 0.010174875147640705
0.22772878408432007 0.15648220479488373 0.0095222024247050285
0.28710272908210754 0.16319230198860168 0.0091229453682899475
0.35146346688270569 0.16926132142543793 0.0077230567112565041
0.41601690649986267 0.1754840761423111 0.0036997476126998663
0.47724640369415283 0.1822822242975235 0.00026424633688293397
0.54021143913269043 0.18789699673652649 0.00015412873472087085
0.60108679533004761 0.19436752796173096 0.0028812333475798368
0.0065700756385922432 0.16655734181404114 0.0061346613802015781
0.032900162041187286 0.18222683668136597 0.0047832564450800419
0.066188469529151917 0.19525986909866333 0.0042206407524645329
0.10886106640100479 0.20274908840656281 0.0053386464715003967
0.15832437574863434 0.2085125595331192 0.0066987881436944008
0.21280345320701599 0.21517083048820496 0.0077777639962732792
0.27142873406410217 0.22235225141048431 0.0077952663414180279
0.33299505710601807 0.22971734404563904 0.0077742631547152996
0.39648726582527161 0.23698405921459198 0.0063475365750491619
0.45832058787345886 0.24483773112297058 0.0032615212257951498
0.51660436391830444 0.25273215770721436 0.0010823268676176667
0.5754692554473877 0.25893506407737732 0.0025514191947877407
0.63382816314697266 0.26534569263458252 0.009748091921210289
0.0066545521840453148 0.24398529529571533 0.0016716003883630037
0.038788814097642899 0.25739213824272156 0.0011206533527001739
0.080820776522159576 0.26813039183616638 0.0015230515273287892
0.13100425899028778 0.27491718530654907 0.0028357412666082382
0.1869470477104187 0.28017452359199524 0.0048588323406875134
0.24563758075237274 0.2863432765007019 0.0073083615861833096
0.30580344796180725 0.29368475079536438 0.0082554686814546585
0.36674687266349792 0.30168265104293823 0.0086424732580780983
0.42763885855674744 0.31011742353439331 0.0086070038378238678
0.48775312304496765 0.3182426393032074 0.007653853390365839
0.5465734601020813 0.32560747861862183 0.008539147675037384
0.60512948036193848 0.33201134204864502 0.014287642203271389
0.66349148750305176 0.3389318585395813 0.025174668058753014
0.010760587640106678 0.32275545597076416 0.00052364572184160352
0.048650674521923065 0.33465534448623657 0.00013014848809689283
0.097374662756919861 0.34295651316642761 0.00096803554333746433
0.15341004729270935 0.34885784983634949 0.0031998427584767342
0.21327739953994751 0.35411301255226135 0.0065697911195456982
0.27427616715431213 0.36029443144798279 0.010220980271697044
0.33478805422782898 0.36779311299324036 0.013262281194329262
0.39470243453979492 0.37640535831451416 0.015433127991855145
0.45406600832939148 0.38536781072616577 0.016785146668553352
0.51371186971664429 0.39324787259101868 0.019385408610105515
0.57407420873641968 0.39970150589942932 0.024968374520540237
0.63389796018600464 0.40624094009399414 0.033747024834156036
0.69254684448242188 0.4138849675655365 0.045610822737216949
0.022717868909239769 0.40049982070922852 0.0014444986591115594
0.065767802298069 0.41075578331947327 0.0013230267213657498
0.11780679970979691 0.41834259033203125 0.0028916152659803629
0.17660541832447052 0.42407411336898804 0.0067857927642762661
0.23835790157318115 0.42951563000679016 0.012365019880235195
0.30040809512138367 0.43591487407684326 0.018435189500451088
0.36141699552536011 0.44362279772758484 0.023383107036352158
0.42129409313201904 0.45221593976020813 0.027400268241763115
0.48061355948448181 0.46095693111419678 0.031340893357992172
0.54067981243133545 0.46859267354011536 0.03695330023765564
0.60160613059997559 0.47531065344810486 0.045354042202234268
0.66199451684951782 0.48208314180374146 0.055966828018426895
0.72110074758529663 0.49053692817687988 0.068600401282310486
0.04121755063533783 0.47690188884735107 0.0059947292320430279
0.087779566645622253 0.48629847168922424 0.0064306072890758514
0.14168724417686462 0.49375420808792114 0.0097884833812713623
0.20119854807853699 0.50000238418579102 0.016330555081367493
0.26331716775894165 0.50613439083099365 0.024139627814292908
0.32571837306022644 0.51281309127807617 0.031567022204399109
0.38733908534049988 0.52044498920440674 0.038137070834636688
0.44792187213897705 0.52873879671096802 0.044283352792263031
0.50807285308837891 0.53706246614456177 0.050421576946973801
0.56858760118484497 0.5448688268661499 0.058205757290124893
0.62948697805404663 0.55230730772018433 0.067890763282775879
0.68993467092514038 0.56009513139724731 0.079488374292850494
0.74903982877731323 0.56909549236297607 0.092555433511734009
0.064070679247379303 0.55414813756942749 0.017752420157194138
0.11269912868738174 0.56241536140441895 0.019262874498963356
0.1676747053861618 0.56993937492370605 0.024482697248458862
0.22709362208843231 0.57669126987457275 0.032198421657085419
0.28900963068008423 0.58335524797439575 0.040549889206886292
0.35143032670021057 0.59033232927322388 0.048786807805299759
0.41351568698883057 0.59799599647521973 0.056689228862524033
0.47477260231971741 0.60618466138839722 0.064266800880432129
0.53567540645599365 0.61449003219604492 0.072363011538982391
0.59659916162490845 0.62268745899200439 0.081494078040122986
0.65739107131958008 0.63084715604782104 0.092026084661483765
0.71773427724838257 0.63941431045532227 0.10417386144399643
0.77703523635864258 0.64917808771133423 0.11788774281740189
0.089039698243141174 0.63204926252365112 0.03616027906537056
0.13961069285869598 0.63973718881607056 0.038593906909227371
0.19504915177822113 0.64716392755508423 0.044191785156726837
0.25423955917358398 0.65426450967788696 0.051918599754571915
0.31574365496635437 0.66132968664169312 0.060656290501356125
0.37801209092140198 0.66871964931488037 0.069606930017471313
0.44022229313850403 0.67648828029632568 0.078348122537136078
0.50192862749099731 0.68483006954193115 0.087102614343166351
0.56330931186676025 0.69325077533721924 0.09640204906463623
0.62439471483230591 0.70181846618652344 0.10644412785768509
0.68532329797744751 0.71068370342254639 0.11778658628463745
0.74546056985855103 0.72011846303939819 0.13047441840171814
0.80470758676528931 0.73048150539398193 0.14455488324165344
0 0 0
0 0 0
0 0 0
0 0 0
0 0 0
0 0 0
0 0 0
0 0 0
0 0 0
0.00094155705301091075 0 5.9240005612082314e-06
0.013414195738732815 0.00075951369944959879 0.00058705947594717145
0.035574324429035187 0.0023509454913437366 0.0018022125586867332
0.066597834229469299 0.0036368425935506821 0.0037819058634340763
0 0 0
0 0 0
0 0 0
0 0 0
0 0 0
0 0 0
0.00056212180061265826 3.6531335354084149e-05 0.00016274546214845031
0.0065903756767511368 0.0010947432601824403 0.001072423649020493
0.023435615003108978 0.0037733938079327345 0.0029793085996061563
0.055695582181215286 0.0083165634423494339 0.0054254122078418732
0.10112836956977844 0.013274667784571648 0.0066877030767500401
0.14844699203968048 0.015624760650098324 0.0066487332805991173
0.19769430160522461 0.018164375796914101 0.008507193997502327
0 0 0
0.00022783466556575149 0.00010531556472415105 0.00010367000504629686
0.0016121359076350927 0.0019386591156944633 0.0011864007683470845
0.0036874809302389622 0.0039181429892778397 0.0030061311554163694
0.0087649179622530937 0.0065270368941128254 0.004866491537541151
0.020186271518468857 0.010755546391010284 0.0065241646952927113
0.042381152510643005 0.016713565215468407 0.0085585499182343483
0.074742324650287628 0.023092351853847504 0.010811734944581985
0.11355689913034439 0.028984159231185913 0.012477021664381027
0.16011716425418854 0.033573433756828308 0.012063763104379177
0.21779361367225647 0.036472529172897339 0.010093614459037781
0.28373792767524719 0.037497531622648239 0.0078547606244683266
0.34863072633743286 0.040822092443704605 0.0089778527617454529
0.0014385448303073645 0.0047113904729485512 0.0044700922444462776
0.011937339790165424 0.016925109550356865 0.0096439588814973831
0.023156918585300446 0.029028261080384254 0.01455987710505724
0.035501547157764435 0.035412013530731201 0.017554204910993576
0.053718745708465576 0.041217923164367676 0.018343234434723854
0.080273330211639404 0.048039380460977554 0.018250932916998863
0.11574817448854446 0.054904654622077942 0.018471317365765572
0.1594991534948349 0.06099102646112442 0.018725765869021416
0.20950648188591003 0.066304229199886322 0.017994046211242676
0.26676371693611145 0.070332348346710205 0.015103792771697044
0.3339349627494812 0.072865143418312073 0.010766003280878067
0.40961533784866333 0.074170447885990143 0.0073993909172713757
0.48014497756958008 0.077941879630088806 0.0089670969173312187
0.0068066916428506374 0.043394770473241806 0.018550379201769829
0.024551091715693474 0.059880740940570831 0.022174237295985222
0.043416880071163177 0.072654977440834045 0.024692371487617493
0.066523186862468719 0.080861620604991913 0.02598227746784687
0.097055338323116302 0.088306710124015808 0.025444913655519485
0.13580048084259033 0.096071876585483551 0.024210851639509201
0.18218638002872467 0.10328046232461929 0.023248964920639992
0.23551344871520996 0.10965260863304138 0.022561496123671532
0.29344552755355835 0.11521642655134201 0.020735124126076698
0.35607844591140747 0.12043026089668274 0.01642342284321785
0.42414796352386475 0.12435503304004669 0.010919025167822838
0.49709489941596985 0.12749855220317841 0.0084114968776702881
0.56477338075637817 0.13221967220306396 0.012178473174571991
0.007056262344121933 0.102202408015728 0.02531789056956768
0.029690029099583626 0.11805334687232971 0.026398885995149612
0.057510599493980408 0.13094787299633026 0.026977494359016418
0.092022240161895752 0.13960123062133789 0.027251912280917168
0.13379865884780884 0.14704391360282898 0.02700062096118927
0.18239060044288635 0.15452767908573151 0.025921361520886421
0.2368587851524353 0.16175661981105804 0.024908551946282387
0.29564943909645081 0.16878654062747955 0.023937225341796875
0.35724282264709473 0.17540162801742554 0.022247029468417168
0.41942119598388672 0.18226638436317444 0.017283705994486809
0.48210442066192627 0.18902488052845001 0.01188164483755827
0.54772555828094482 0.19358767569065094 0.012633290141820908
0.61078178882598877 0.19906699657440186 0.020231403410434723
0.0061270622536540031 0.17289462685585022 0.025014301761984825
0.034044783562421799 0.18740664422512054 0.024403456598520279
0.070362403988838196 0.1995357871055603 0.024366850033402443
0.11460638791322708 0.20748044550418854 0.025768101215362549
0.16553576290607452 0.21399691700935364 0.026870323345065117
0.220932736992836 0.22082594037055969 0.027108585461974144
0.27940678596496582 0.22807306051254272 0.027284001931548119
0.34005752205848694 0.23565673828125 0.027048418298363686
0.40126743912696838 0.24352781474590302 0.025129685178399086
0.46099331974983215 0.25201728940010071 0.021241506561636925
0.51915627717971802 0.26009219884872437 0.017821786925196648
0.5800020694732666 0.2655213475227356 0.022748026996850967
0.64036613702774048 0.27109161019325256 0.033796630799770355
0.0069969776086509228 0.24949300289154053 0.021408230066299438
0.040527988225221634 0.26250770688056946 0.020407464355230331
0.084621995687484741 0.2725713849067688 0.021899159997701645
0.13691921532154083 0.27954250574111938 0.02511800080537796
0.1942911297082901 0.28520628809928894 0.028182938694953918
0.25350755453109741 0.29169034957885742 0.030375177040696144
0.31339260935783386 0.2991577684879303 0.031839080154895782
0.37341600656509399 0.30748707056045532 0.032886207103729248
0.43310374021530151 0.31605455279350281 0.032733406871557236
0.49181070923805237 0.3244057297706604 0.032117355614900589
0.5502631664276123 0.33175992965698242 0.034211117774248123
0.60943412780761719 0.33778166770935059 0.041597314178943634
0.6686631441116333 0.34421184659004211 0.053609121590852737
0.012017836794257164 0.32784095406532288 0.020466091111302376
0.051218293607234955 0.33949774503707886 0.019580960273742676
0.10160676389932632 0.3477141261100769 0.022975219413638115
0.15937542915344238 0.35357528924942017 0.028464283794164658
0.22104564309120178 0.35874471068382263 0.033848587423563004
0.28231313824653625 0.36514347791671753 0.03810468316078186
0.34235933423042297 0.37300002574920654 0.041294291615486145
0.40153738856315613 0.38177505135536194 0.043601781129837036
0.4603475034236908 0.39056414365768433 0.045803848654031754
0.51926726102828979 0.39825594425201416 0.049209848046302795
0.57917779684066772 0.40459552407264709 0.055779863148927689
0.63911706209182739 0.41068559885025024 0.065349981188774109
0.69808757305145264 0.41826370358467102 0.077169917523860931
0.0247623510658741 0.4053017795085907 0.025580687448382378
0.068586669862270355 0.41546398401260376 0.025553325191140175
0.12223643809556961 0.42307683825492859 0.030071347951889038
0.18266305327415466 0.42866206169128418 0.037022653967142105
0.2457854151725769 0.43417394161224365 0.044081654399633408
0.30821779370307922 0.44068291783332825 0.050217811018228531
0.36875587701797485 0.44858327507972717 0.055115643888711929
0.42827731370925903 0.45723757147789001 0.059283610433340073
0.48709845542907715 0.46579211950302124 0.063841231167316437
0.54676663875579834 0.4732423722743988 0.069945767521858215
0.60748380422592163 0.47958949208259583 0.078870140016078949
0.66797506809234619 0.48609951138496399 0.089766860008239746
0.72723746299743652 0.49455830454826355 0.10197745263576508
0.043938804417848587 0.48162296414375305 0.036936428397893906
0.091045752167701721 0.49086505174636841 0.0379779152572155
0.14624892175197601 0.49838915467262268 0.043115414679050446
0.20696717500686646 0.50462174415588379 0.050660375505685806
0.27018791437149048 0.51061016321182251 0.058864638209342957
0.33309608697891235 0.51740074157714844 0.066249296069145203
0.39457523822784424 0.52516388893127441 0.072710923850536346
0.45474594831466675 0.53360682725906372 0.078714869916439056
0.51450884342193604 0.54184609651565552 0.085058562457561493
0.57476115226745605 0.5495678186416626 0.09299139678478241
0.63553702831268311 0.55664575099945068 0.10283183306455612
0.69618135690689087 0.56416821479797363 0.11431100964546204
0.75584161281585693 0.57291769981384277 0.12696422636508942
0.066861368715763092 0.55822116136550903 0.052806973457336426
0.11647015810012817 0.56671810150146484 0.055090662091970444
0.17229928076267242 0.57432520389556885 0.06057903915643692
0.2327786386013031 0.58108848333358765 0.06870105117559433
0.29550358653068542 0.58768343925476074 0.077043749392032623
0.3584953248500824 0.5949404239654541 0.085732616484165192
0.42054048180580139 0.60264557600021362 0.093351148068904877
0.48158949613571167 0.6109657883644104 0.1008748933672905
0.54226619005203247 0.61914223432540894 0.10864242911338806
0.60292261838912964 0.62722355127334595 0.11756850779056549
0.66373938322067261 0.63522613048553467 0.12783759832382202
0.72431188821792603 0.64354401826858521 0.13981917500495911
0.78390437364578247 0.65302830934524536 0.15289504826068878
0.092376857995986938 0.63578063249588013 0.072990775108337402
0.14338813722133636 0.64355695247650146 0.075483717024326324
0.19965992867946625 0.65112841129302979 0.081554174423217773
0.25980833172798157 0.65840345621109009 0.089628897607326508
0.32201412320137024 0.66555678844451904 0.098667636513710022
0.38469859957695007 0.67299515008926392 0.10770269483327866
0.44702675938606262 0.68097400665283203 0.11629312485456467
0.50862497091293335 0.68930524587631226 0.12478920072317123
0.56995862722396851 0.69778764247894287 0.13358280062675476
0.63099300861358643 0.70636838674545288 0.14324915409088135
0.69185853004455566 0.7150346040725708 0.1543010026216507
0.75237500667572021 0.72430169582366943 0.1663648933172226
0.81187599897384644 0.73441082239151001 0.17998808622360229
0 0 0
0 0 0
0 0 0
0 0 0
0 0 0
0 0 0
0 0 0
0 0 0
0 0 0
0.0023027756251394749 1.9387638531043194e-05 0.00034718232927843928
0.016929132863879204 0.0010065265232697129 0.0012915816623717546
0.041337780654430389 0.0022969115525484085 0.0025549645069986582
0.073675654828548431 0.003266951534897089 0.0047972286120057106
0 0 0
0 0 0
0 0 0
0 0 0
0 0 0
2.6493446057429537e-05 0 9.0670117060653865e-05
0.0022543065715581179 0.00028270645998418331 0.0010595882777124643
0.011845681816339493 0.0019971809815615416 0.0032946867868304253
0.032073810696601868 0.0055403914302587509 0.0069939708337187767
0.066115960478782654 0.010329467244446278 0.010501323267817497
0.11228965222835541 0.014722621999680996 0.011859504505991936
0.16161333024501801 0.016060443595051765 0.011678957380354404
0.20983424782752991 0.018769687041640282 0.013831433840095997
0 0 0
0.0001344867778243497 6.7467779444996268e-05 3.2911113976297202e-06
0.0014281029580160975 0.0016853183042258024 0.0012251312145963311
0.0046286340802907944 0.0049144672229886055 0.0041593965142965317
0.012353605590760708 0.0084252748638391495 0.008159383200109005
0.02827383391559124 0.01331691350787878 0.011973870918154716
0.054246414452791214 0.01961822435259819 0.015390687622129917
0.087599508464336395 0.025999316945672035 0.018649442121386528
0.12601135671138763 0.031779643148183823 0.02117837592959404
0.17225608229637146 0.036213506013154984 0.021526515483856201
0.23129640519618988 0.038857448846101761 0.019507808610796928
0.29815179109573364 0.040114175528287888 0.017011335119605064
0.36191800236701965 0.042818706482648849 0.017917856574058533
0.0016254350775852799 0.006475396454334259 0.0046815462410449982
0.011203287169337273 0.018064267933368683 0.010570750571787357
0.023231357336044312 0.030545342713594437 0.017503341659903526
0.038131847977638245 0.038958605378866196 0.023216502740979195
0.059660937637090683 0.045214246958494186 0.026852311566472054
0.089616738259792328 0.051864638924598694 0.028338966891169548
0.12800502777099609 0.058310415595769882 0.029497811570763588
0.17280380427837372 0.064268939197063446 0.030644016340374947
0.22207024693489075 0.069615907967090607 0.030832193791866302
0.27819344401359558 0.073862619698047638 0.02870573103427887
0.34566238522529602 0.076410107314586639 0.024599965661764145
0.42220041155815125 0.077642790973186493 0.021002884954214096
0.49373456835746765 0.080845803022384644 0.021839171648025513
0.0055671092122793198 0.049517583101987839 0.023893184959888458
0.024023931473493576 0.06465466320514679 0.029323054477572441
0.044794045388698578 0.077493973076343536 0.03408406674861908
0.070518508553504944 0.086389116942882538 0.037508033215999603
0.10346747189760208 0.093790791928768158 0.038625214248895645
0.14450722932815552 0.10103044658899307 0.037897489964962006
0.19318611919879913 0.10785984992980957 0.037446625530719757
0.24706192314624786 0.11396001279354095 0.038175005465745926
0.30380353331565857 0.11977846920490265 0.037484157830476761
0.36444938182830811 0.12513020634651184 0.034307666122913361
0.43249312043190002 0.12899419665336609 0.03011506050825119
0.50659996271133423 0.13186934590339661 0.028137894347310066
0.57561814785003662 0.13613402843475342 0.031860515475273132
0.0055442210286855698 0.1097162738442421 0.038421105593442917
0.030321711674332619 0.12367447465658188 0.041426520794630051
0.060722038149833679 0.13604319095611572 0.043691627681255341
0.097153805196285248 0.14529760181903839 0.045037005096673965
0.14045964181423187 0.15309131145477295 0.044710598886013031
0.19032719731330872 0.16063706576824188 0.043154310435056686
0.24546220898628235 0.16757743060588837 0.042865872383117676
0.30411317944526672 0.17414671182632446 0.043733544647693634
0.36375296115875244 0.18105615675449371 0.043331578373908997
0.42423355579376221 0.1879778653383255 0.040439397096633911
0.48791605234146118 0.19400985538959503 0.037691392004489899
0.55414211750030518 0.19892846047878265 0.039649754762649536
0.61744588613510132 0.2043011486530304 0.047262392938137054
0.0062644360587000847 0.1795591413974762 0.046094618737697601
0.036365166306495667 0.19262875616550446 0.047354139387607574
0.075042486190795898 0.20386342704296112 0.048286765813827515
0.12051267176866531 0.21261511743068695 0.049287654459476471
0.17218698561191559 0.21985325217247009 0.049505136907100677
0.22792556881904602 0.22707150876522064 0.049203939735889435
0.28657302260398865 0.23434551060199738 0.049713853746652603
0.34645995497703552 0.24165412783622742 0.050926119089126587
0.40584376454353333 0.2493893951177597 0.051510829478502274
0.46469700336456299 0.25745615363121033 0.050213608890771866
0.52405792474746704 0.26482275128364563 0.05044720321893692
0.58446836471557617 0.271016925573349 0.056030977517366409
0.64414805173873901 0.27721479535102844 0.066527873277664185
