assets/lut/alexjordan green 2025.cube
# Created by: G'MIC (https://gmic.eu)
TITLE "green_2025"
# LUT size
LUT_3D_SIZE 13
# Data domain
DOMAIN_MIN 0.0 0.0 0.0
DOMAIN_MAX 1.0 1.0 1.0
# LUT data points
0.0079432614147663116 0.0065669640898704529 0.0065887602977454662
0.012181106023490429 0.010407720692455769 0.0093814926221966743
0.023696301504969597 0.018852278590202332 0.017686372622847557
0.041192207485437393 0.029231276363134384 0.02744567021727562
0.065122090280056 0.040316220372915268 0.03734220564365387
0.10486730188131332 0.05608304962515831 0.051953021436929703
0.15116056799888611 0.073047146201133728 0.068261153995990753
0.19795778393745422 0.085597798228263855 0.080728955566883087
0.2599693238735199 0.096200309693813324 0.090212009847164154
0.33523526787757874 0.10398653894662857 0.096693821251392365
0.40567752718925476 0.10727452486753464 0.10003697872161865
0.4775732159614563 0.10904015600681305 0.10180903226137161
0.55480831861495972 0.1095588207244873 0.10104475170373917
0.03901488333940506 0.039090532809495926 0.034428242594003677
0.060353491455316544 0.057225201278924942 0.048108194023370743
0.089739181101322174 0.077815786004066467 0.065969400107860565
0.1233241930603981 0.095490425825119019 0.081225015223026276
0.16132970154285431 0.11004868894815445 0.092700153589248657
0.20799076557159424 0.12432873249053955 0.10436860471963882
0.25753945112228394 0.13655999302864075 0.11541590839624405
0.30805310606956482 0.14464907348155975 0.12240196764469147
0.37141281366348267 0.15112943947315216 0.1266850084066391
0.43568378686904907 0.15333931148052216 0.1274288147687912
0.49383652210235596 0.1510840505361557 0.1247263178229332
0.56012874841690063 0.14821310341358185 0.12138082832098007
0.63626360893249512 0.14816176891326904 0.11739123612642288
0.08480333536863327 0.099939621984958649 0.075712881982326508
0.11526826024055481 0.12361817061901093 0.093718267977237701
0.15105633437633514 0.14647530019283295 0.11192163079977036
0.1901385635137558 0.1631493866443634 0.12498818337917328
0.23128402233123779 0.17462831735610962 0.13244999945163727
0.27500113844871521 0.18323272466659546 0.13746766746044159
0.32670551538467407 0.19080004096031189 0.14358359575271606
0.3825652003288269 0.19565995037555695 0.1475311666727066
0.44273969531059265 0.19736464321613312 0.14807000756263733
0.50136631727218628 0.19462686777114868 0.14434565603733063
0.56016677618026733 0.18909427523612976 0.13803760707378387
0.63026005029678345 0.18676470220088959 0.13149544596672058
0.71092313528060913 0.18676470220088959 0.12570945918560028
0.13448317348957062 0.18075431883335114 0.12041658908128738
0.16387100517749786 0.19889490306377411 0.13488025963306427
0.19684146344661713 0.2151520699262619 0.14675000309944153
0.23196125030517578 0.22449155151844025 0.15288171172142029
0.2685580849647522 0.22982071340084076 0.15380695462226868
0.31028100848197937 0.23388545215129852 0.15365436673164368
0.36443877220153809 0.23893161118030548 0.15655054152011871
0.42498019337654114 0.2421795129776001 0.15911182761192322
0.48639801144599915 0.24164669215679169 0.15782053768634796
0.54769223928451538 0.23675370216369629 0.15235207974910736
0.61340117454528809 0.22997660934925079 0.14447773993015289
0.69242125749588013 0.22633451223373413 0.13669277727603912
0.780131995677948 0.22595198452472687 0.12967440485954285
0.16536632180213928 0.25141438841819763 0.14851094782352448
0.19280509650707245 0.26360765099525452 0.1584523618221283
0.22243104875087738 0.27374705672264099 0.16457085311412811
0.25524231791496277 0.27933380007743835 0.1664050817489624
0.29194101691246033 0.2826690673828125 0.16504645347595215
0.33609279990196228 0.28573304414749146 0.16351379454135895
0.39102122187614441 0.28941404819488525 0.16366863250732422
0.4528125524520874 0.29171290993690491 0.16387325525283813
0.51787799596786499 0.29082116484642029 0.1613444983959198
0.58645343780517578 0.28590816259384155 0.15535350143909454
0.66322511434555054 0.27923175692558289 0.14724992215633392
0.75122988224029541 0.27377349138259888 0.13887001574039459
0.84527862071990967 0.27182713150978088 0.13101302087306976
0.17357151210308075 0.30653470754623413 0.15687468647956848
0.20204362273216248 0.31737872958183289 0.16469074785709381
0.23186147212982178 0.32614728808403015 0.16838301718235016
0.26598569750785828 0.33241423964500427 0.16943253576755524
0.30600255727767944 0.33740705251693726 0.16829352080821991
0.35415363311767578 0.34181925654411316 0.16691878437995911
0.41097933053970337 0.34559726715087891 0.1663275808095932
0.47421175241470337 0.34818431735038757 0.16464723646640778
0.54313546419143677 0.34795677661895752 0.16068527102470398
0.61886966228485107 0.34412118792533875 0.15417876839637756
0.70554190874099731 0.33755823969841003 0.14630278944969177
0.80348712205886841 0.33017656207084656 0.1378537118434906
0.90440165996551514 0.32502123713493347 0.1293904185295105
0.17005094885826111 0.36196145415306091 0.15472562611103058
0.19985981285572052 0.37256646156311035 0.16089239716529846
0.23126508295536041 0.38226777315139771 0.16341494023799896
0.26796504855155945 0.39044597744941711 0.16435970366001129
0.31206569075584412 0.39816498756408691 0.164642333984375
0.36469992995262146 0.40461653470993042 0.16457663476467133
0.42419007420539856 0.40938833355903625 0.16368083655834198
0.49041032791137695 0.41252577304840088 0.16081824898719788
0.56344407796859741 0.41342002153396606 0.15594236552715302
0.64452999830245972 0.4111332893371582 0.14893680810928345
0.73864644765853882 0.40500441193580627 0.14077478647232056
0.84515899419784546 0.39590021967887878 0.13208396732807159
0.95177257061004639 0.38999256491661072 0.12314363569021225
0.16078245639801025 0.42773482203483582 0.14646764099597931
0.1916583925485611 0.43800881505012512 0.1510467529296875
0.22477832436561584 0.4490865170955658 0.15270359814167023
0.26368269324302673 0.45952406525611877 0.1536075621843338
0.31109350919723511 0.46909067034721375 0.15471874177455902
0.3669377863407135 0.47676315903663635 0.15555831789970398
0.42994749546051025 0.48212170600891113 0.15510433912277222
0.499603271484375 0.48551210761070251 0.15192820131778717
0.57700258493423462 0.48716604709625244 0.14620183408260345
0.66456979513168335 0.48528096079826355 0.13861101865768433
0.76498985290527344 0.4797116219997406 0.12991608679294586
0.87538629770278931 0.47160059213638306 0.1208743080496788
0.97792953252792358 0.46668606996536255 0.11125899851322174
0.14601752161979675 0.504558265209198 0.13161887228488922
0.17765773832798004 0.51551681756973267 0.13448290526866913
0.2121662050485611 0.5281369686126709 0.13519485294818878
0.25226122140884399 0.54051446914672852 0.13614928722381592
0.30108258128166199 0.55132877826690674 0.13753949105739594
0.35885527729988098 0.55948507785797119 0.13925835490226746
0.42513498663902283 0.56502026319503784 0.13938799500465393
0.49881651997566223 0.56878542900085449 0.13634957373142242
0.58128601312637329 0.57016998529434204 0.13037528097629547
0.67550003528594971 0.56823515892028809 0.12252945452928543
0.78133606910705566 0.56278711557388306 0.11354905366897583
0.89447027444839478 0.55613529682159424 0.10422112047672272
0.98901718854904175 0.55227303504943848 0.093835867941379547
0.12435892224311829 0.5920981764793396 0.10708662867546082
0.15592756867408752 0.60429912805557251 0.10899841040372849
0.19083915650844574 0.61831086874008179 0.10941901057958603
0.23172768950462341 0.63186430931091309 0.11061540246009827
0.28130194544792175 0.64339625835418701 0.11255524307489395
0.34007436037063599 0.65224319696426392 0.11471909284591675
0.40816488862037659 0.65837371349334717 0.11554674804210663
0.48539206385612488 0.66193562746047974 0.11360814422369003
0.57343298196792603 0.66282147169113159 0.10840379446744919
0.67345511913299561 0.66036731004714966 0.10078105330467224
0.78369951248168945 0.65527862310409546 0.091796666383743286
0.89951562881469727 0.6495857834815979 0.082253068685531616
0.99188679456710815 0.6459086537361145 0.07217109203338623
0.094505444169044495 0.69000977277755737 0.071280568838119507
0.12702260911464691 0.70291930437088013 0.074114032089710236
0.16211308538913727 0.71755707263946533 0.075380273163318634
0.20355589687824249 0.7316209077835083 0.077685907483100891
0.25357785820960999 0.7439647912979126 0.080623403191566467
0.31311148405075073 0.75328350067138672 0.083960063755512238
0.38276854157447815 0.75972718000411987 0.086179293692111969
0.46268188953399658 0.76335358619689941 0.085494905710220337
0.55455970764160156 0.7638736367225647 0.081421568989753723
0.65897125005722046 0.76130157709121704 0.074317827820777893
0.77292698621749878 0.75644266605377197 0.065204903483390808
0.89075452089309692 0.75116133689880371 0.055491115897893906
0.98866581916809082 0.74839073419570923 0.045869864523410797
0.060370337218046188 0.79502081871032715 0.029632912948727608
0.093596078455448151 0.80831891298294067 0.03317057341337204
0.12960490584373474 0.8232346773147583 0.036177795380353928
0.17121832072734833 0.83782392740249634 0.03974456712603569
0.22192861139774323 0.85020756721496582 0.044320650398731232
0.2827032208442688 0.85972511768341064 0.04907519742846489
0.35318002104759216 0.86644810438156128 0.052782066166400909
0.43443334102630615 0.8702358603477478 0.053979478776454926
0.52880632877349854 0.87093973159790039 0.051346257328987122
0.63659399747848511 0.86821156740188599 0.044626630842685699
0.75309604406356812 0.86357372999191284 0.035645652562379837
0.87231338024139404 0.85879451036453247 0.026094444096088409
0.97973579168319702 0.85593318939208984 0.01748555526137352
0.025831693783402443 0.90373349189758301 0.0009806914022192359
0.060161665081977844 0.91735565662384033 0.0019172518514096737
0.097322754561901093 0.93243062496185303 0.0032108679879456758
0.14007216691970825 0.94691479206085205 0.0053218617103993893
0.1918717622756958 0.9585118293762207 0.0086885038763284683
0.25381219387054443 0.96624106168746948 0.013254412449896336
0.32547751069068909 0.97162777185440063 0.0177790317684412
0.40762874484062195 0.97470057010650635 0.020419970154762268
0.50305020809173584 0.97534763813018799 0.01910725049674511
0.61270821094512939 0.97356551885604858 0.013481155037879944
0.73045063018798828 0.97014403343200684 0.0070322374813258648
0.8503563404083252 0.96684837341308594 0.0024917004629969597
0.96526038646697998 0.96449774503707886 0.00056762696476653218
0.0021308299619704485 0.0020905737765133381 0.0014015347696840763
0.0079423040151596069 0.0072214165702462196 0.0059561487287282944
0.023681819438934326 0.018404118716716766 0.018380424007773399
0.047698091715574265 0.033769585192203522 0.033672094345092773
0.078007899224758148 0.04961618036031723 0.047965541481971741
0.11761015653610229 0.065437361598014832 0.063210248947143555
0.16322726011276245 0.08032844215631485 0.078420229256153107
0.21126915514469147 0.092554904520511627 0.089964129030704498
0.26957619190216064 0.10147722810506821 0.09832291305065155
0.33867695927619934 0.10638441145420074 0.10532824695110321
0.41018024086952209 0.10830017924308777 0.11004828661680222
0.48419997096061707 0.10910880565643311 0.11275909841060638
0.56335926055908203 0.10923483222723007 0.11357194185256958
0.038094151765108109 0.039376262575387955 0.034661103039979935
0.059538420289754868 0.057092014700174332 0.050041094422340393
0.092439495027065277 0.079658076167106628 0.072848796844482422
0.12934413552284241 0.10036245733499527 0.091296374797821045
0.16928680241107941 0.117326520383358 0.10442742705345154
0.21582649648189545 0.13084116578102112 0.11670429259538651
0.26729238033294678 0.14222677052021027 0.12857356667518616
0.31723040342330933 0.1495220810174942 0.13505332171916962
0.37238499522209167 0.15327814221382141 0.13711659610271454
0.43390336632728577 0.15366446971893311 0.13680976629257202
0.49694180488586426 0.15184600651264191 0.13529978692531586
0.5670740008354187 0.14833290874958038 0.13272224366664886
0.64500170946121216 0.14816176891326904 0.1303793340921402
0.091846704483032227 0.10677924007177353 0.086692586541175842
0.120389424264431 0.12875367701053619 0.10444004088640213
0.15643499791622162 0.15163789689540863 0.12419164180755615
0.19502949714660645 0.16783203184604645 0.13782058656215668
0.23355920612812042 0.17786552011966705 0.14422996342182159
0.27764061093330383 0.1858053058385849 0.14926083385944366
0.33237496018409729 0.19388909637928009 0.15708407759666443
0.38816303014755249 0.19851310551166534 0.16137668490409851
0.44427213072776794 0.19873258471488953 0.16052781045436859
0.50293219089508057 0.19541165232658386 0.15594936907291412
0.56632083654403687 0.19063267111778259 0.14979031682014465
0.63901388645172119 0.18680420517921448 0.14373832941055298
0.72028344869613647 0.18676470220088959 0.13929012417793274
0.14141190052032471 0.18662841618061066 0.13467325270175934
0.16956596076488495 0.20386619865894318 0.14842863380908966
0.20219734311103821 0.21980591118335724 0.16088348627090454
0.23595546185970306 0.22812646627426147 0.16680368781089783
0.26975235342979431 0.23084913194179535 0.16636015474796295
0.31000706553459167 0.23425145447254181 0.16517646610736847
0.3663044273853302 0.23992562294006348 0.16966605186462402
0.42790335416793823 0.2435392290353775 0.17311285436153412
0.48931014537811279 0.24267119169235229 0.17150393128395081
0.55257934331893921 0.23786289989948273 0.16576017439365387
0.62211126089096069 0.23205490410327911 0.15761649608612061
0.70196068286895752 0.22765669226646423 0.14964444935321808
0.78945082426071167 0.22614957392215729 0.14404600858688354
0.17012880742549896 0.25573933124542236 0.1635768711566925
0.19655410945415497 0.26716357469558716 0.17211718857288361
0.22580613195896149 0.27680122852325439 0.17822247743606567
0.25790330767631531 0.28178441524505615 0.18003116548061371
0.29350242018699646 0.2836097776889801 0.17807184159755707
0.3362220823764801 0.28623887896537781 0.17604129016399384
0.39157935976982117 0.29012522101402283 0.17703886330127716
0.45461881160736084 0.29236030578613281 0.17812334001064301
0.52091115713119507 0.29146817326545715 0.17585229873657227
0.5917542576789856 0.28688380122184753 0.16994605958461761
0.67045748233795166 0.28077441453933716 0.16180646419525146
0.75907725095748901 0.2752230167388916 0.15363745391368866
0.85303735733032227 0.27270787954330444 0.14686597883701324
0.17656853795051575 0.31086060404777527 0.17198912799358368
0.20335352420806885 0.32026350498199463 0.17782475054264069
0.23347114026546478 0.32869991660118103 0.18139702081680298
0.26766279339790344 0.33496320247650146 0.18270225822925568
0.30783742666244507 0.33952486515045166 0.18206104636192322
0.35530990362167358 0.3433593213558197 0.18103605508804321
0.41183763742446899 0.34702649712562561 0.18049934506416321
0.47599175572395325 0.34870678186416626 0.17965862154960632
0.54637104272842407 0.34853255748748779 0.17618997395038605
0.62392568588256836 0.34484371542930603 0.17013590037822723
0.71190071105957031 0.33867165446281433 0.16230173408985138
0.80929422378540039 0.33165252208709717 0.15412569046020508
0.90982943773269653 0.32780343294143677 0.14659880101680756
0.1718953549861908 0.36650335788726807 0.17003029584884644
0.2004191130399704 0.37564381957054138 0.17413099110126495
0.23244199156761169 0.38551080226898193 0.1768222451210022
0.27036535739898682 0.39447343349456787 0.17878682911396027
0.3149864673614502 0.40190884470939636 0.17962421476840973
0.36660018563270569 0.40761083364486694 0.17962108552455902
0.42581042647361755 0.41191589832305908 0.17904917895793915
0.49251660704612732 0.41417300701141357 0.17682980000972748
0.56664729118347168 0.41424310207366943 0.17251965403556824
0.64992749691009521 0.41180670261383057 0.16590328514575958
0.74465310573577881 0.40581735968589783 0.15778204798698425
0.84977954626083374 0.39811179041862488 0.14959646761417389
0.95516312122344971 0.39304652810096741 0.14119793474674225
0.16184507310390472 0.43211585283279419 0.16167524456977844
0.1922476589679718 0.44198417663574219 0.16517831385135651
0.22624103724956512 0.45332071185112 0.16717341542243958
0.2667754590511322 0.46450647711753845 0.16905346512794495
0.3144812285900116 0.4741109311580658 0.17087899148464203
0.36942994594573975 0.48121732473373413 0.17186123132705688
0.43175789713859558 0.48585301637649536 0.17134089767932892
0.50173485279083252 0.48868903517723083 0.16857275366783142
0.580494225025177 0.4892309308052063 0.1635453850030899
0.66943538188934326 0.48698940873146057 0.15624286234378815
0.77026253938674927 0.48130661249160767 0.14765845239162445
0.87968152761459351 0.47405937314033508 0.13879072666168213
0.98049908876419067 0.46928709745407104 0.12997995316982269
0.14592172205448151 0.50911891460418701 0.14620502293109894
0.17742156982421875 0.52022355794906616 0.14888687431812286
0.21276532113552094 0.53326272964477539 0.15047907829284668
0.2543206512928009 0.54605770111083984 0.15191026031970978
0.30384588241577148 0.55690544843673706 0.15461906790733337
0.36116912961006165 0.56497573852539062 0.15524181723594666
0.42658513784408569 0.56993293762207031 0.15533699095249176
0.50047951936721802 0.5726698637008667 0.15348751842975616
0.58429259061813354 0.57325297594070435 0.1481160968542099
0.6793791651725769 0.57074946165084839 0.14026093482971191
0.78536474704742432 0.56556284427642822 0.13179399073123932
0.89794445037841797 0.55925053358078003 0.12256086617708206
0.99068963527679443 0.55517578125 0.11273691803216934
0.12258942425251007 0.5973784327507019 0.12055887281894684
0.15465898811817169 0.60968965291976929 0.12296223640441895
0.1900838166475296 0.62402975559234619 0.12452685832977295
0.23197497427463531 0.63796532154083252 0.1266615092754364
0.28207096457481384 0.64964264631271362 0.12930887937545776
0.3412337601184845 0.65834283828735352 0.13178001344203949
0.40930387377738953 0.66369891166687012 0.13303162157535553
0.4873071014881134 0.6664615273475647 0.13104946911334991
0.57631969451904297 0.6666790246963501 0.12607672810554504
0.67684751749038696 0.6641305685043335 0.11861762404441833
0.78745049238204956 0.65911209583282471 0.10927131772041321
0.9034392237663269 0.6533195972442627 0.099610708653926849
0.9931904673576355 0.6498267650604248 0.090497575700283051
0.091841951012611389 0.69541281461715698 0.084631718695163727
0.12403513491153717 0.70878481864929199 0.087478488683700562
0.15958796441555023 0.72390782833099365 0.09004656970500946
0.20122334361076355 0.73854106664657593 0.093172259628772736
0.25183194875717163 0.75075799226760864 0.097159169614315033
0.31229308247566223 0.7598462700843811 0.10109794139862061
0.38307404518127441 0.76558917760848999 0.10343544185161591
0.46438983082771301 0.76863682270050049 0.10313672572374344
0.55747359991073608 0.76867693662643433 0.099172301590442657
0.66238701343536377 0.76577281951904297 0.091818578541278839
0.7765878438949585 0.76089668273925781 0.082739569246768951
0.89475280046463013 0.75564378499984741 0.072668708860874176
0.9905889630317688 0.75217115879058838 0.064081586897373199
0.056639950722455978 0.80050694942474365 0.042893413454294205
0.089133501052856445 0.81462931632995605 0.046363964676856995
0.12447965890169144 0.8303183913230896 0.050284381955862045
0.16609911620616913 0.84542208909988403 0.055021863430738449
0.21740435063838959 0.8580135703086853 0.060150265693664551
0.27976888418197632 0.86695021390914917 0.066121406853199005
0.35239312052726746 0.87292337417602539 0.070363439619541168
0.43600058555603027 0.87613463401794434 0.071590915322303772
0.53187084197998047 0.8762403130531311 0.068791903555393219
0.64002311229705811 0.87336033582687378 0.062020111829042435
0.75688713788986206 0.86881124973297119 0.052806422114372253
0.87705773115158081 0.86386239528656006 0.043338295072317123
0.98298025131225586 0.86017197370529175 0.035718776285648346
0.021232200786471367 0.90936160087585449 0.005855306051671505
0.054250050336122513 0.92418360710144043 0.0080411126837134361
0.090461999177932739 0.94006389379501343 0.011419138871133327
0.13246126472949982 0.9550434947013855 0.016220765188336372
0.18492522835731506 0.96557414531707764 0.022587854415178299
0.24912905693054199 0.97234928607940674 0.029721412807703018
0.32350262999534607 0.97637027502059937 0.035443805158138275
0.40857806801795959 0.97834539413452148 0.037918705493211746
0.50613808631896973 0.97853004932403564 0.036472484469413757
0.61592483520507812 0.97705954313278198 0.030967786908149719
0.73400628566741943 0.97441744804382324 0.022832578048110008
0.85517233610153198 0.97106492519378662 0.014581268653273582
0.96999883651733398 0.9682011604309082 0.0090973349288105965
0.0029370177071541548 0.0029673557728528976 0.0027829487808048725
0.010135515592992306 0.0092681888490915298 0.0090646184980869293
0.028177253901958466 0.021873697638511658 0.023843398317694664
0.056029435247182846 0.040198128670454025 0.042513109743595123
0.088447064161300659 0.057861372828483582 0.058888588100671768
0.12603318691253662 0.071910277009010315 0.073701418936252594
0.1709061861038208 0.084634862840175629 0.088157102465629578
0.2216499000787735 0.095631048083305359 0.10020087659358978
0.27844470739364624 0.10338295996189117 0.1087147444486618
0.34400984644889832 0.10700751096010208 0.11567305028438568
0.41573819518089294 0.10808528959751129 0.12115569412708282
0.49199789762496948 0.10815680772066116 0.12474437057971954
0.57253998517990112 0.10649414360523224 0.12707073986530304
0.044397719204425812 0.046421978622674942 0.044869501143693924
0.066387444734573364 0.064871981739997864 0.061869017779827118
0.098988130688667297 0.085811138153076172 0.085459567606449127
0.13651140034198761 0.10673573613166809 0.10510893911123276
0.17662453651428223 0.12392695993185043 0.11872256547212601
0.22109013795852661 0.13530074059963226 0.13063932955265045
0.27312034368515015 0.14529582858085632 0.14275823533535004
0.32207578420639038 0.15129457414150238 0.14851142466068268
0.3732503354549408 0.15287336707115173 0.14906693994998932
0.4328644871711731 0.15245464444160461 0.14861322939395905
0.49970456957817078 0.15057121217250824 0.1473873108625412
0.57386982440948486 0.1481616199016571 0.14574527740478516
0.65392023324966431 0.14643594622612 0.14501523971557617
0.098922863602638245 0.11504211276769638 0.10200820863246918
0.12755528092384338 0.13722722232341766 0.12063860148191452
0.16425645351409912 0.16028833389282227 0.14189939200878143
0.20122376084327698 0.17389850318431854 0.15482477843761444
0.23863124847412109 0.18091338872909546 0.16016465425491333
0.28321689367294312 0.18821951746940613 0.166362464427948
0.33692044019699097 0.1957075297832489 0.1739501953125
0.39022508263587952 0.19922049343585968 0.17705850303173065
0.44329217076301575 0.19768610596656799 0.17463445663452148
0.50284725427627563 0.19448406994342804 0.16982901096343994
0.57045620679855347 0.19079004228115082 0.16380795836448669
0.64652448892593384 0.18707266449928284 0.15831655263900757
0.72926080226898193 0.18575304746627808 0.15516181290149689
0.14377056062221527 0.18961982429027557 0.14958831667900085
0.17346160113811493 0.20838961005210876 0.16439045965671539
0.20744892954826355 0.22531576454639435 0.17850595712661743
0.24046711623668671 0.2313372939825058 0.1837620884180069
0.27437600493431091 0.23139649629592896 0.18263538181781769
0.31684222817420959 0.23567208647727966 0.18413004279136658
0.37068614363670349 0.24139827489852905 0.18791781365871429
0.42921313643455505 0.24377340078353882 0.18979184329509735
0.48963701725006104 0.2423534095287323 0.18766322731971741
0.55490076541900635 0.23806796967983246 0.18183869123458862
0.62836843729019165 0.23333539068698883 0.17398053407669067
0.71009188890457153 0.22943302989006042 0.16618993878364563
0.7979966402053833 0.22701635956764221 0.16165319085121155
0.16875913739204407 0.25569242238998413 0.17750176787376404
0.19670005142688751 0.26801630854606628 0.18694353103637695
0.22725331783294678 0.2785639762878418 0.1939772367477417
0.26017910242080688 0.28334477543830872 0.19662459194660187
0.29614689946174622 0.28466475009918213 0.19502018392086029
0.3399585485458374 0.28750517964363098 0.19368146359920502
