assets/lut/alexjordan green indoor.cube
# Created by: G'MIC (https://gmic.eu)
TITLE "green_indoor"
# LUT size
LUT_3D_SIZE 13
# Data domain
DOMAIN_MIN 0.0 0.0 0.0
DOMAIN_MAX 1.0 1.0 1.0
# LUT data points
0.039215415716171265 0.044850487262010574 0.036175191402435303
0.058371420949697495 0.051656492054462433 0.04494808241724968
0.077027387917041779 0.060527339577674866 0.052640862762928009
0.095200933516025543 0.06951981782913208 0.05965939536690712
0.11673715710639954 0.077173896133899689 0.067304529249668121
0.14104989171028137 0.084293752908706665 0.076418139040470123
0.16882045567035675 0.091723799705505371 0.085407093167304993
0.20254229009151459 0.098851628601551056 0.090855434536933899
0.24408264458179474 0.10309922695159912 0.093435995280742645
0.28949630260467529 0.10655754059553146 0.095402061939239502
0.33610802888870239 0.11102209985256195 0.098154298961162567
0.38346055150032043 0.11703072488307953 0.10286290943622589
0.43107128143310547 0.12408912181854248 0.11227406561374664
0.061604563146829605 0.084087416529655457 0.060997609049081802
0.083908021450042725 0.092278741300106049 0.065920792520046234
0.11249113082885742 0.099169395864009857 0.070620551705360413
0.14107207953929901 0.10703690350055695 0.077086970210075378
0.16869165003299713 0.11607890576124191 0.085267536342144012
0.19774997234344482 0.12460726499557495 0.095632724463939667
0.23035259544849396 0.13133156299591064 0.10608155280351639
0.2659810483455658 0.14010231196880341 0.1133742555975914
0.30625203251838684 0.14763723313808441 0.11879649758338928
0.35090181231498718 0.15380880236625671 0.12361296266317368
0.3971436619758606 0.16100099682807922 0.12823119759559631
0.44353792071342468 0.1700884997844696 0.13371098041534424
0.49029445648193359 0.18009799718856812 0.14329877495765686
0.074835203588008881 0.13173091411590576 0.071402624249458313
0.10156926512718201 0.14107874035835266 0.072209693491458893
0.13839186728000641 0.14836853742599487 0.072097271680831909
0.18069986999034882 0.15442469716072083 0.077846497297286987
0.21973060071468353 0.16206091642379761 0.087672725319862366
0.2566678524017334 0.17040896415710449 0.099298842251300812
0.29344090819358826 0.17850352823734283 0.11255482584238052
0.32971245050430298 0.18843959271907806 0.12528336048126221
0.36952507495880127 0.19829697906970978 0.13616357743740082
0.41409629583358765 0.20635631680488586 0.14578942954540253
0.46041145920753479 0.21504677832126617 0.15395797789096832
0.50623369216918945 0.22630970180034637 0.16159191727638245
0.55234086513519287 0.23878224194049835 0.17263096570968628
0.078612320125102997 0.19313222169876099 0.07103295624256134
0.11409217864274979 0.20097708702087402 0.072227492928504944
0.15804339945316315 0.20798608660697937 0.071737088263034821
0.20811372995376587 0.21436479687690735 0.074207216501235962
0.25864282250404358 0.22051666676998138 0.081471569836139679
0.30790290236473083 0.22669930756092072 0.092380061745643616
0.3517414927482605 0.2347932904958725 0.10940617322921753
0.39169186353683472 0.24526888132095337 0.128034308552742
0.43248763680458069 0.25644311308860779 0.14481498301029205
0.47872051596641541 0.26569280028343201 0.15900848805904388
0.52632582187652588 0.27522608637809753 0.17144009470939636
0.57258093357086182 0.28736519813537598 0.18334697186946869
0.61862224340438843 0.30123937129974365 0.19791567325592041
0.081281192600727081 0.26336634159088135 0.071142099797725677
0.12343214452266693 0.27028724551200867 0.074251331388950348
0.17208157479763031 0.27720832824707031 0.075592830777168274
0.22576233744621277 0.28426286578178406 0.077324964106082916
0.28223177790641785 0.29062959551811218 0.082418449223041534
0.33959627151489258 0.29621163010597229 0.092438928782939911
0.39458274841308594 0.3025757372379303 0.10817328095436096
0.44537067413330078 0.31100675463676453 0.12645202875137329
0.49530473351478577 0.32082945108413696 0.1447606086730957
0.54624444246292114 0.33061319589614868 0.1626199334859848
0.59631001949310303 0.34126502275466919 0.17959769070148468
0.64452546834945679 0.35373905301094055 0.1963927149772644
0.69167029857635498 0.36782783269882202 0.2149638831615448
0.085970498621463776 0.33860114216804504 0.076041638851165771
0.13248366117477417 0.34571945667266846 0.080920994281768799
0.18378341197967529 0.35336926579475403 0.084411069750785828
0.23959319293498993 0.36104181408882141 0.087210066616535187
0.2984917163848877 0.36857947707176208 0.09172338992357254
0.36011183261871338 0.3753962516784668 0.099664799869060516
0.42482736706733704 0.38097313046455383 0.11025640368461609
0.48920491337776184 0.38689014315605164 0.12423136085271835
0.55220919847488403 0.39392820000648499 0.14095355570316315
0.61174005270004272 0.40299573540687561 0.16008318960666656
0.66846144199371338 0.41343623399734497 0.17980125546455383
0.72264754772186279 0.42500531673431396 0.1992211639881134
0.77338290214538574 0.4387071430683136 0.22148817777633667
0.092878378927707672 0.41881203651428223 0.08369775116443634
0.14267478883266449 0.42653089761734009 0.090169034898281097
0.19589462876319885 0.4349370002746582 0.094956010580062866
0.25355800986289978 0.44341441988945007 0.09881533682346344
0.31548920273780823 0.45189735293388367 0.10276022553443909
0.38131150603294373 0.45969405770301819 0.10803897678852081
0.4508003294467926 0.46630951762199402 0.11506675183773041
0.52359569072723389 0.4721372127532959 0.12528704106807709
0.59740900993347168 0.47782057523727417 0.13982947170734406
0.66803973913192749 0.48551580309867859 0.1570085883140564
0.73602718114852905 0.49391934275627136 0.17501989006996155
0.80136746168136597 0.50308108329772949 0.19320228695869446
0.85844999551773071 0.51528722047805786 0.21767640113830566
0.10088278353214264 0.50328576564788818 0.093025252223014832
0.15344539284706116 0.51188337802886963 0.10027890652418137
0.2086828351020813 0.52156931161880493 0.10534010082483292
0.26856490969657898 0.53091365098953247 0.10963290184736252
0.33316472172737122 0.54025459289550781 0.11360988020896912
0.40228164196014404 0.54903852939605713 0.1177939772605896
0.47576731443405151 0.55693799257278442 0.12397444248199463
0.55343979597091675 0.56361055374145508 0.13270384073257446
0.63303220272064209 0.5701601505279541 0.1431889533996582
0.7123902440071106 0.57707595825195312 0.15586692094802856
0.79224902391433716 0.58320492506027222 0.16902679204940796
0.87000936269760132 0.58977890014648438 0.18176655471324921
0.93450731039047241 0.60051649808883667 0.21014848351478577
0.10902529209852219 0.59220397472381592 0.10279032588005066
0.16421595215797424 0.60173624753952026 0.11119495332241058
0.22117865085601807 0.61286920309066772 0.11521265655755997
0.28297692537307739 0.6235160231590271 0.11966439336538315
0.34986945986747742 0.63370692729949951 0.1234859973192215
0.42087244987487793 0.64409399032592773 0.12604509294033051
0.49756056070327759 0.65308010578155518 0.13312472403049469
0.5788303017616272 0.66059279441833496 0.14353431761264801
0.66010594367980957 0.66861188411712646 0.149217888712883
0.7439534068107605 0.67564535140991211 0.15767887234687805
0.83128410577774048 0.68106889724731445 0.16662111878395081
0.91551196575164795 0.6876218318939209 0.17869891226291656
0.98048621416091919 0.69816005229949951 0.22352512180805206
0.11589135229587555 0.68721526861190796 0.10953628271818161
0.17317189276218414 0.69780051708221436 0.11882620304822922
0.23200914263725281 0.71006184816360474 0.12363582104444504
0.29684063792228699 0.72133708000183105 0.12972268462181091
0.36618950963020325 0.73239243030548096 0.13454864919185638
0.43685510754585266 0.74552857875823975 0.1310899406671524
0.51413553953170776 0.75651168823242188 0.13649342954158783
0.59854793548583984 0.76373392343521118 0.15385046601295471
0.68076717853546143 0.77216196060180664 0.16038541495800018
0.76561474800109863 0.77933025360107422 0.17229509353637695
0.85519695281982422 0.78499758243560791 0.18967629969120026
0.93796467781066895 0.79310154914855957 0.22057782113552094
0.99316918849945068 0.80409526824951172 0.30244350433349609
0.12042080610990524 0.78953260183334351 0.11051465570926666
0.18012087047100067 0.80102938413619995 0.12213373929262161
0.24428600072860718 0.81277543306350708 0.13343660533428192
0.31443193554878235 0.82333070039749146 0.14610287547111511
0.3876282274723053 0.83448958396911621 0.1537589430809021
0.45824703574180603 0.84992390871047974 0.14737242460250854
0.53628456592559814 0.86233890056610107 0.15449169278144836
0.62552249431610107 0.86763030290603638 0.18987329304218292
0.71053975820541382 0.87338531017303467 0.22135908901691437
0.79391336441040039 0.8784644603729248 0.26057717204093933
0.87817257642745972 0.88346415758132935 0.31928601861000061
0.95092582702636719 0.89295738935470581 0.39353764057159424
0.99480193853378296 0.90594297647476196 0.51464265584945679
0.12779253721237183 0.89643943309783936 0.11447963118553162
0.19463334977626801 0.90677517652511597 0.13661520183086395
0.26927843689918518 0.91530579328536987 0.16374288499355316
0.34909117221832275 0.92293953895568848 0.19151955842971802
0.43131411075592041 0.93149209022521973 0.21400824189186096
0.51247882843017578 0.94291895627975464 0.23033849895000458
0.60194450616836548 0.95038086175918579 0.27073624730110168
0.70151162147521973 0.94955915212631226 0.3527492880821228
0.78680366277694702 0.95227968692779541 0.42986869812011719
0.86150455474853516 0.95596772432327271 0.52180522680282593
0.92961698770523071 0.96131628751754761 0.64664626121520996
0.97659111022949219 0.97255140542984009 0.7754172682762146
0.9976922869682312 0.98436051607131958 0.88806235790252686
0.1539766937494278 0.98788899183273315 0.14749331772327423
0.23245424032211304 0.99116504192352295 0.18837498128414154
0.32105603814125061 0.99313122034072876 0.23959051072597504
0.41654491424560547 0.99447578191757202 0.29555514454841614
0.51659536361694336 0.99594807624816895 0.3566322922706604
0.62118464708328247 0.99746847152709961 0.43063473701477051
0.73237049579620361 0.99698126316070557 0.5365024209022522
0.84192770719528198 0.99453413486480713 0.6772158145904541
0.92745465040206909 0.99435698986053467 0.81842881441116333
0.97702229022979736 0.99606359004974365 0.92545652389526367
0.99636638164520264 0.99912881851196289 0.98417955636978149
0.99997431039810181 1 0.99984598159790039
1 1 1
0.044630538672208786 0.049968089908361435 0.051796484738588333
0.061955366283655167 0.054708130657672882 0.058775480836629868
0.079087123274803162 0.064782224595546722 0.068230226635932922
0.097449719905853271 0.074304647743701935 0.076172128319740295
0.12039870023727417 0.080852359533309937 0.083704076707363129
0.14695450663566589 0.086915828287601471 0.091340459883213043
0.17590299248695374 0.093216165900230408 0.098913438618183136
0.20921194553375244 0.10141948610544205 0.10640726983547211
0.25049090385437012 0.10599378496408463 0.11217869818210602
0.29550603032112122 0.10944752395153046 0.1163514107465744
0.34061944484710693 0.11479876935482025 0.12037272751331329
0.38665705919265747 0.12148533016443253 0.12572671473026276
0.43436974287033081 0.12846866250038147 0.13538971543312073
0.062979333102703094 0.087028592824935913 0.078080452978610992
0.085229702293872833 0.094672843813896179 0.083523094654083252
0.11269798874855042 0.10328198969364166 0.091993220150470734
0.13905106484889984 0.1123061403632164 0.099506109952926636
0.16750746965408325 0.12173561006784439 0.10863940417766571
0.19750066101551056 0.13033629953861237 0.1178491935133934
0.23056969046592712 0.13715949654579163 0.12629558145999908
0.26742196083068848 0.14487633109092712 0.13517116010189056
0.30889174342155457 0.15145033597946167 0.14236593246459961
0.35306563973426819 0.15771816670894623 0.14838051795959473
0.3976714015007019 0.16598032414913177 0.15372148156166077
0.44278994202613831 0.17557382583618164 0.15976966917514801
0.48976686596870422 0.18541918694972992 0.1692272424697876
0.075176894664764404 0.13496500253677368 0.094597592949867249
0.10413652658462524 0.14361220598220825 0.097536541521549225
0.14218159019947052 0.15109109878540039 0.10040094703435898
0.18338769674301147 0.1583847850561142 0.10778121650218964
0.21991147100925446 0.16769808530807495 0.12206507474184036
0.2525276243686676 0.17793336510658264 0.13471658527851105
0.28913801908493042 0.18578946590423584 0.14524498581886292
0.32713460922241211 0.19463939964771271 0.15696832537651062
0.36716809868812561 0.20409464836120605 0.16765299439430237
0.41099369525909424 0.21243607997894287 0.17664378881454468
0.45618700981140137 0.22181397676467896 0.18475210666656494
0.50119251012802124 0.23307593166828156 0.19276751577854156
0.54774367809295654 0.24506346881389618 0.2031223326921463
0.078567206859588623 0.19652967154979706 0.10125968605279922
0.11569207906723022 0.20430374145507812 0.1037113144993782
0.16106367111206055 0.21183043718338013 0.10480672866106033
0.21031104028224945 0.21968258917331696 0.10764462500810623
0.25872766971588135 0.22654522955417633 0.12045859545469284
0.30577889084815979 0.23308968544006348 0.13690893352031708
0.34993630647659302 0.24030126631259918 0.15239384770393372
0.38825342059135437 0.25055572390556335 0.17056681215763092
0.42758950591087341 0.26285889744758606 0.18586130440235138
0.47239869832992554 0.27282363176345825 0.19828899204730988
0.51874113082885742 0.28274697065353394 0.21023942530155182
0.56412702798843384 0.294931560754776 0.22194895148277283
0.61040937900543213 0.30812293291091919 0.23462849855422974
0.08105131983757019 0.26680302619934082 0.10708622634410858
0.12416905164718628 0.27413371205329895 0.11119894683361053
0.17356573045253754 0.2818375825881958 0.11372902244329453
0.22727730870246887 0.28986337780952454 0.11573546379804611
0.28481951355934143 0.296222984790802 0.12341627478599548
0.3444112241268158 0.30049821734428406 0.13711532950401306
0.39991113543510437 0.30596515536308289 0.15416683256626129
0.44709885120391846 0.31467565894126892 0.17446149885654449
0.49355775117874146 0.3254770040512085 0.19213385879993439
0.54100775718688965 0.33671700954437256 0.2093924880027771
0.58811700344085693 0.3482520580291748 0.22695249319076538
0.63416361808776855 0.3610503077507019 0.2437625378370285
0.68107098340988159 0.3750157356262207 0.2598414421081543
0.086990326642990112 0.34214034676551819 0.11681217700242996
0.13339924812316895 0.34991157054901123 0.12251805514097214
0.18492944538593292 0.35796466469764709 0.1275947093963623
0.24137289822101593 0.36593317985534668 0.1313370019197464
0.30333921313285828 0.37321591377258301 0.13561365008354187
0.36857897043228149 0.37887614965438843 0.14422008395195007
0.4337250292301178 0.38392698764801025 0.15671232342720032
0.49588498473167419 0.38981389999389648 0.17238672077655792
0.55570554733276367 0.39705374836921692 0.1896684467792511
0.61043030023574829 0.40783143043518066 0.21088558435440063
0.6618158221244812 0.41992846131324768 0.23378211259841919
0.71256834268569946 0.43195834755897522 0.25438854098320007
0.76243895292282104 0.44567084312438965 0.27421209216117859
0.094864144921302795 0.42254668474197388 0.12787213921546936
0.14423002302646637 0.43114450573921204 0.13472634553909302
0.19775025546550751 0.43984955549240112 0.14138257503509521
0.25676807761192322 0.44806453585624695 0.14674948155879974
0.3211328387260437 0.45618981122970581 0.1504221111536026
0.38977140188217163 0.4633752703666687 0.15523023903369904
0.46068426966667175 0.46980574727058411 0.16237975656986237
0.5326656699180603 0.47555944323539734 0.17288503050804138
0.60376596450805664 0.48192155361175537 0.18824402987957001
0.66972726583480835 0.49086841940879822 0.208412766456604
0.73269659280776978 0.50046789646148682 0.23018352687358856
0.79370421171188354 0.50960057973861694 0.25221499800682068
0.84914880990982056 0.52170324325561523 0.27529799938201904
0.10387688130140305 0.50727534294128418 0.13949327170848846
0.15592235326766968 0.51710963249206543 0.14640173316001892
0.21153150498867035 0.52713859081268311 0.15282571315765381
0.27275550365447998 0.53583240509033203 0.15958958864212036
0.33941733837127686 0.54447513818740845 0.16483837366104126
0.4103037416934967 0.55299502611160278 0.16855962574481964
0.48444315791130066 0.5610840916633606 0.17219659686088562
0.56125062704086304 0.56844949722290039 0.17854174971580505
0.6389661431312561 0.57580429315567017 0.18979373574256897
0.71639907360076904 0.58354306221008301 0.20505419373512268
0.79318201541900635 0.59042739868164062 0.21936818957328796
0.86734837293624878 0.59645301103591919 0.23550426959991455
0.92873626947402954 0.60689663887023926 0.26454964280128479
0.11323738843202591 0.5965762734413147 0.1517302393913269
0.16724832355976105 0.60762679576873779 0.15852987766265869
0.22448201477527618 0.61891549825668335 0.1641184538602829
0.2876686155796051 0.62869852781295776 0.17149084806442261
0.35648688673973083 0.63805866241455078 0.17792880535125732
0.42885053157806396 0.64809268712997437 0.18027433753013611
0.50437945127487183 0.65832698345184326 0.18143127858638763
0.58292627334594727 0.66746526956558228 0.18492427468299866
0.66419225931167603 0.67553746700286865 0.19306005537509918
0.74935275316238403 0.68229633569717407 0.20736651122570038
0.83729672431945801 0.68780636787414551 0.21357500553131104
0.92087697982788086 0.69396895170211792 0.22201216220855713
0.982341468334198 0.70419555902481079 0.26600489020347595
0.12154023349285126 0.69128561019897461 0.16216279566287994
0.1764855682849884 0.70390927791595459 0.16835786402225494
0.23505550622940063 0.71651113033294678 0.17336732149124146
0.30072781443595886 0.72711122035980225 0.18184258043766022
0.37215360999107361 0.73713725805282593 0.19000163674354553
0.44516366720199585 0.74926668405532837 0.18976561725139618
0.52060317993164062 0.76166105270385742 0.18855828046798706
0.60019165277481079 0.77161002159118652 0.19415555894374847
0.68351691961288452 0.77970600128173828 0.20602324604988098
0.77232658863067627 0.78551477193832397 0.22742936015129089
0.86448091268539429 0.79096698760986328 0.24380500614643097
0.94876974821090698 0.79841601848602295 0.26611530780792236
0.99772506952285767 0.80930370092391968 0.34179937839508057
0.12926529347896576 0.7928040623664856 0.16933201253414154
0.1843014657497406 0.80756640434265137 0.17433980107307434
0.24647830426692963 0.8202507495880127 0.18275119364261627
0.31657865643501282 0.83035147190093994 0.19562816619873047
0.39216363430023193 0.84017312526702881 0.20790417492389679
0.46851775050163269 0.85260915756225586 0.21162422001361847
0.5484391450881958 0.86440116167068481 0.22072489559650421
0.63180637359619141 0.87297779321670532 0.24488325417041779
0.71626144647598267 0.87892860174179077 0.27934259176254272
0.80387020111083984 0.88269203901290894 0.32968726754188538
0.88900154829025269 0.88819950819015503 0.38967710733413696
0.95853310823440552 0.89826953411102295 0.46110206842422485
0.99708545207977295 0.91120058298110962 0.57556438446044922
0.13821209967136383 0.90066885948181152 0.17570158839225769
0.19937381148338318 0.91466724872589111 0.18836040794849396
0.27149978280067444 0.92438215017318726 0.2107873409986496
0.3523763120174408 0.9308132529258728 0.23806546628475189
0.4377015233039856 0.93723756074905396 0.2663821280002594
0.52918756008148193 0.94360983371734619 0.29994291067123413
0.62542730569839478 0.94793915748596191 0.35149288177490234
0.71552890539169312 0.95219773054122925 0.41903164982795715
0.79939889907836914 0.95466959476470947 0.50027358531951904
0.87841367721557617 0.95710510015487671 0.603432297706604
0.94333493709564209 0.96431654691696167 0.72094190120697021
0.98292320966720581 0.97737085819244385 0.83361518383026123
0.99833691120147705 0.98833715915679932 0.92833250761032104
0.16593450307846069 0.99024385213851929 0.20648193359375
0.23956093192100525 0.99452275037765503 0.23783017694950104
0.32750394940376282 0.99633604288101196 0.28466752171516418
0.42573088407516479 0.99706912040710449 0.34153765439987183
0.53224879503250122 0.9974403977394104 0.40966275334358215
0.64863681793212891 0.99717748165130615 0.49870714545249939
0.76798051595687866 0.99552267789840698 0.61587667465209961
0.86687773466110229 0.99542057514190674 0.74399161338806152
0.94403070211410522 0.99546569585800171 0.87088924646377563
0.98532724380493164 0.99675291776657104 0.95569050312042236
0.9988633394241333 0.99946451187133789 0.99478155374526978
1 1 1
1 1 1
0.04904663935303688 0.051897428929805756 0.067018382251262665
0.066549710929393768 0.058044523000717163 0.075760319828987122
0.088411279022693634 0.064341001212596893 0.085606925189495087
0.11091245710849762 0.072081468999385834 0.093834899365901947
0.13421964645385742 0.079889543354511261 0.10126124322414398
0.16006952524185181 0.087515406310558319 0.1082802414894104
0.18924136459827423 0.095088392496109009 0.11540842801332474
0.22371727228164673 0.10228965431451797 0.12378034740686417
0.26511254906654358 0.10660422593355179 0.13139720261096954
0.30838868021965027 0.11082451045513153 0.13754735887050629
0.35051590204238892 0.11761473119258881 0.14309242367744446
0.39409393072128296 0.12517954409122467 0.14982177317142487
0.44159480929374695 0.1318814754486084 0.16020315885543823
0.066849716007709503 0.089221283793449402 0.099324427545070648
0.089136146008968353 0.097948662936687469 0.10688538104295731
0.1173541471362114 0.10437168926000595 0.11479537189006805
0.14427325129508972 0.11380171030759811 0.12206847220659256
0.17296445369720459 0.12361308187246323 0.13179706037044525
0.2039618194103241 0.13309113681316376 0.13915495574474335
0.23726922273635864 0.1413256824016571 0.14652368426322937
0.27498313784599304 0.14849558472633362 0.15617264807224274
0.31774505972862244 0.15425688028335571 0.16452613472938538
0.36083507537841797 0.16103607416152954 0.17166508734226227
0.40211778879165649 0.17067828774452209 0.17844551801681519
0.4452282190322876 0.18083074688911438 0.18584084510803223
0.4920383095741272 0.19041958451271057 0.19606530666351318
0.076180867850780487 0.13798166811466217 0.12322410196065903
0.1056717187166214 0.14650815725326538 0.12852047383785248
0.1422957181930542 0.1535722017288208 0.13411833345890045
0.18143512308597565 0.16212451457977295 0.14377419650554657
0.21765188872814178 0.17230360209941864 0.15726950764656067
0.25101053714752197 0.18278449773788452 0.16737078130245209
0.28719335794448853 0.1920529305934906 0.17579157650470734
0.32576730847358704 0.20083306729793549 0.18673914670944214
0.36758700013160706 0.20998004078865051 0.19615542888641357
0.4114166796207428 0.21876068413257599 0.20474448800086975
0.45446884632110596 0.22884812951087952 0.213640496134758
0.4984278678894043 0.24011589586734772 0.22241023182868958
0.54573231935501099 0.25162950158119202 0.23321235179901123
0.079675920307636261 0.19909904897212982 0.13839100301265717
0.11700320988893509 0.20720663666725159 0.14249691367149353
0.1621023416519165 0.21545195579528809 0.14611329138278961
0.2110619843006134 0.22382734715938568 0.15230923891067505
0.25741779804229736 0.23061297833919525 0.16666167974472046
0.30257275700569153 0.237595334649086 0.18327975273132324
0.34394636750221252 0.24684719741344452 0.19660539925098419
0.38120079040527344 0.25741356611251831 0.21357059478759766
0.42192310094833374 0.26965439319610596 0.22512023150920868
0.46653667092323303 0.28056192398071289 0.23549719154834747
0.5114554762840271 0.29135611653327942 0.24704580008983612
0.55652320384979248 0.30336025357246399 0.25862923264503479
0.60423779487609863 0.31607905030250549 0.27042889595031738
0.082774549722671509 0.26948091387748718 0.14994485676288605
0.12567412853240967 0.2775980532169342 0.15487866103649139
0.17506416141986847 0.28634172677993774 0.15847131609916687
0.22874070703983307 0.29463368654251099 0.16210177540779114
0.28586700558662415 0.30032145977020264 0.17111317813396454
0.3469148576259613 0.30500954389572144 0.18589156866073608
0.39893606305122375 0.31184333562850952 0.20437212288379669
0.44157293438911438 0.32107481360435486 0.22627413272857666
0.48547589778900146 0.33285316824913025 0.24250940978527069
0.53137487173080444 0.34499284625053406 0.25762808322906494
