assets/lut/alexjordan cross process cp 130.cube
# Created by: G'MIC (https://gmic.eu)
TITLE "cross_process_cp_130"
# LUT size
LUT_3D_SIZE 5
# Data domain
DOMAIN_MIN 0.0 0.0 0.0
DOMAIN_MAX 1.0 1.0 1.0
# LUT data points
0 0 0
0.001207194640301168 0 0
0.091321967542171478 0 0.0018179201288148761
0.40553402900695801 0 0.0019315084209665656
0.78140050172805786 0 0.0028922136407345533
0.024311752989888191 0.07831680029630661 0.0036619747988879681
0.21217206120491028 0.085911862552165985 0.00032694198307581246
0.44783475995063782 0.086271263659000397 0
0.69787836074829102 0.073153026401996613 0.0015522675821557641
0.9246450662612915 0.090575277805328369 3.7339155824156478e-05
0.0084131872281432152 0.31970486044883728 0.0015762030379846692
0.20169153809547424 0.32801195979118347 0.00025239831302314997
0.43300116062164307 0.3335055410861969 0.0011557484976947308
0.6666606068611145 0.33762094378471375 0.0019700592383742332
0.89006173610687256 0.35134923458099365 7.4678311648312956e-05
0.0065961503423750401 0.59725910425186157 0.00031874413252808154
0.13390465080738068 0.60740166902542114 0
0.36109018325805664 0.61478370428085327 0
0.60477918386459351 0.61782413721084595 0
0.81680768728256226 0.63605731725692749 0
0.0024161543697118759 0.88129067420959473 0.0055398079566657543
0.10813595354557037 0.88656938076019287 2.2753547455067746e-05
0.3319697380065918 0.89084619283676147 0.0016081117792055011
0.60076725482940674 0.88874363899230957 0.0041753132827579975
0.81316268444061279 0.90823078155517578 0.01064593717455864
0 0 0
0.0099567193537950516 0 0.0037795421667397022
0.13632719218730927 0 0.037885896861553192
0.47222983837127686 0 0.083794884383678436
0.82572793960571289 0 0.10259399563074112
0.032934285700321198 0.08688761293888092 0.095471985638141632
0.22570101916790009 0.094544261693954468 0.1055167093873024
0.46199694275856018 0.091032557189464569 0.10537430644035339
0.69634664058685303 0.084227345883846283 0.10477983206510544
0.90805888175964355 0.093458674848079681 0.11081258952617645
0.01281413622200489 0.329559326171875 0.087387233972549438
0.20844238996505737 0.33664298057556152 0.08187585324048996
0.4368356466293335 0.34091746807098389 0.089172154664993286
0.68382048606872559 0.34441420435905457 0.088192537426948547
0.89675182104110718 0.35752737522125244 0.097774505615234375
0.00030930462526157498 0.60197168588638306 0.044363372027873993
0.13780918717384338 0.61703610420227051 0.022350519895553589
0.36989474296569824 0.62678414583206177 0.039894148707389832
0.60682851076126099 0.63163161277770996 0.035298127681016922
0.82071369886398315 0.649647057056427 0.041439969092607498
0 0.86937034130096436 0.030887065455317497
0.11829895526170731 0.88138109445571899 0.015668293461203575
0.36424928903579712 0.89308291673660278 0.035292711108922958
0.60790693759918213 0.90075069665908813 0.040493354201316833
0.81295067071914673 0.92164415121078491 0.056049749255180359
0 0 0.00067829806357622147
0.029787624254822731 0 0.035234116017818451
0.20581609010696411 0 0.1306910514831543
0.56819820404052734 0.00022850785171613097 0.224472776055336
0.87266188859939575 0 0.26822450757026672
0.031418595463037491 0.095124714076519012 0.24906112253665924
0.23597024381160736 0.098405487835407257 0.27754232287406921
0.46279999613761902 0.096419751644134521 0.28083318471908569
0.70241272449493408 0.088957764208316803 0.27434185147285461
0.9103703498840332 0.09663468599319458 0.2847040593624115
0.014800127595663071 0.33552330732345581 0.25912919640541077
0.21462532877922058 0.34263768792152405 0.25402534008026123
0.44112926721572876 0.35072878003120422 0.26086360216140747
0.68453973531723022 0.35292112827301025 0.26298576593399048
0.9021720290184021 0.36106589436531067 0.27551090717315674
5.1700368203455582e-05 0.61142796277999878 0.18314611911773682
0.13386799395084381 0.62635838985443115 0.17964132130146027
0.36929568648338318 0.63526171445846558 0.19149525463581085
0.61638236045837402 0.63629233837127686 0.20412932336330414
0.82372856140136719 0.65305572748184204 0.21609322726726532
0.0014590393984690309 0.87914359569549561 0.15892751514911652
0.14370976388454437 0.88830739259719849 0.17790254950523376
0.36530581116676331 0.90153956413269043 0.19233369827270508
0.63402915000915527 0.90170156955718994 0.19843284785747528
0.83131676912307739 0.92595887184143066 0.22775425016880035
0.00024934657267294824 0 0.030747268348932266
0.051682192832231522 0 0.098176397383213043
0.26898777484893799 0 0.27135100960731506
0.60560745000839233 0 0.40311866998672485
0.8839259147644043 0 0.4576336145401001
0.040494568645954132 0.095082990825176239 0.42456933856010437
0.24380232393741608 0.098284564912319183 0.47662276029586792
0.46816951036453247 0.10005871951580048 0.47818315029144287
0.70459198951721191 0.088632591068744659 0.46444228291511536
0.91939830780029297 0.093324758112430573 0.47695887088775635
0.013759882189333439 0.33970180153846741 0.44203019142150879
0.21863788366317749 0.3464997410774231 0.44742694497108459
0.4446527361869812 0.35707306861877441 0.45318394899368286
0.69500565528869629 0.35688817501068115 0.45520797371864319
0.90147203207015991 0.36447489261627197 0.46696874499320984
0.010801577009260654 0.61806070804595947 0.3695012629032135
0.14860500395298004 0.62837845087051392 0.37690302729606628
0.37748599052429199 0.63787418603897095 0.38733425736427307
0.62062197923660278 0.6441800594329834 0.39296239614486694
0.83143025636672974 0.6570466160774231 0.41221624612808228
0.00059703754959627986 0.88042670488357544 0.35988840460777283
0.14249476790428162 0.89052122831344604 0.37374025583267212
0.37013095617294312 0.90711838006973267 0.37725147604942322
0.62405604124069214 0.90926629304885864 0.39779984951019287
0.8298952579498291 0.93459892272949219 0.41219890117645264
0.0016825657803565264 0 0.063040576875209808
0.08309667557477951 0.00017677755386102945 0.2121606171131134
0.33094948530197144 1.4002182979311328e-05 0.47100740671157837
0.654205322265625 0 0.6069488525390625
0.89041650295257568 0.00063457112992182374 0.65611010789871216
0.036147486418485641 0.099895268678665161 0.65116685628890991
0.24166207015514374 0.10396961867809296 0.67318242788314819
0.46550384163856506 0.10227359086275101 0.68361490964889526
0.70925700664520264 0.095104917883872986 0.67649662494659424
0.91106903553009033 0.11560592800378799 0.68576490879058838
0.017620056867599487 0.34313830733299255 0.65361255407333374
0.22331389784812927 0.35176101326942444 0.65676867961883545
0.44525319337844849 0.356689453125 0.65954685211181641
0.70564299821853638 0.35715365409851074 0.66414928436279297
0.90859246253967285 0.37563389539718628 0.67463237047195435
0.0082791643217206001 0.62710928916931152 0.56456184387207031
0.14836232364177704 0.63393557071685791 0.57916516065597534
0.38137507438659668 0.6432722806930542 0.58471488952636719
0.62516170740127563 0.6524168848991394 0.58814209699630737
0.82524985074996948 0.66898685693740845 0.60662508010864258
0.0110307727009058 0.89372575283050537 0.54814767837524414
0.14345824718475342 0.90051561594009399 0.56265997886657715
0.36989685893058777 0.91296756267547607 0.5731576681137085
0.64426249265670776 0.90842515230178833 0.59841752052307129
0.84425866603851318 0.93269890546798706 0.6061241626739502
