assets/lut/alexjordan contrast with highlights protection.cube
# Created by: G'MIC (https://gmic.eu)
TITLE "contrast_with_highlights_protection"
# LUT size
LUT_3D_SIZE 5
# Data domain
DOMAIN_MIN 0.0 0.0 0.0
DOMAIN_MAX 1.0 1.0 1.0
# LUT data points
0 0 0
0 0 0
0.026299361139535904 0.004179591778665781 0.0044009936973452568
0.19856424629688263 0.03442179411649704 0.030456079170107841
0.47375369071960449 0.05401470884680748 0.051352363079786301
0.015343026258051395 0.12910284101963043 0.0082738986238837242
0.17532762885093689 0.18144890666007996 0.001598986447788775
0.41868835687637329 0.21225015819072723 0.0018249661661684513
0.62661212682723999 0.24271440505981445 0.039040718227624893
0.8163989782333374 0.27855882048606873 0.085583783686161041
0.05025806650519371 0.46014124155044556 0.022668801248073578
0.25191831588745117 0.4880622923374176 0.0074639711529016495
0.50491553544998169 0.50280630588531494 0.036000076681375504
0.72175079584121704 0.52817249298095703 0.11678969115018845
0.90801942348480225 0.55494517087936401 0.17710909247398376
0.16165518760681152 0.71388155221939087 0.14785793423652649
0.34317117929458618 0.73747849464416504 0.12951242923736572
0.53929871320724487 0.73543769121170044 0.12966533005237579
0.71771955490112305 0.71716576814651489 0.14671520888805389
0.90234988927841187 0.73008936643600464 0.19547201693058014
0.27191281318664551 0.94569289684295654 0.26488259434700012
0.42056182026863098 0.9321141242980957 0.23673138022422791
0.58341532945632935 0.93523532152175903 0.20508080720901489
0.745106041431427 0.91166782379150391 0.20577317476272583
0.93218648433685303 0.92867213487625122 0.2402806282043457
0 0 0
0 0 0
0.059413954615592957 0.01179009210318327 0.034635864198207855
0.28700578212738037 0.035483971238136292 0.11862145364284515
0.55632269382476807 0.052986457943916321 0.18345187604427338
0.010112014599144459 0.15235708653926849 0.14833919703960419
0.19109691679477692 0.19389861822128296 0.18886861205101013
0.46234533190727234 0.20956030488014221 0.20873145759105682
0.69550061225891113 0.23458868265151978 0.24229688942432404
0.86076110601425171 0.27523356676101685 0.2836366593837738
0.029547402635216713 0.47814729809761047 0.24093678593635559
0.22810971736907959 0.50570029020309448 0.22877898812294006
0.51526278257369995 0.51467835903167725 0.2417532354593277
0.76502335071563721 0.52305835485458374 0.27961674332618713
0.93574106693267822 0.53592324256896973 0.33307561278343201
0.13076554238796234 0.72885525226593018 0.33495527505874634
0.30019804835319519 0.75869977474212646 0.3001350462436676
0.51524937152862549 0.75082457065582275 0.26706850528717041
0.72827011346817017 0.72950273752212524 0.27186164259910583
0.92218303680419922 0.73017221689224243 0.33823567628860474
0.24714386463165283 0.95009016990661621 0.42588889598846436
0.3890935480594635 0.94958865642547607 0.39386886358261108
0.55137336254119873 0.94385451078414917 0.34718963503837585
0.73647129535675049 0.93014329671859741 0.34352806210517883
0.93984293937683105 0.94036698341369629 0.37225121259689331
0 0 0
0.0030764411203563213 0.00058486039051786065 0.0045271478593349457
0.11347661912441254 0.018556796014308929 0.11335444450378418
0.35920092463493347 0.035788696259260178 0.25505128502845764
0.60001891851425171 0.054097734391689301 0.3373202383518219
0.01353816594928503 0.16663332283496857 0.31146359443664551
0.19880698621273041 0.19902218878269196 0.42100697755813599
0.47211536765098572 0.21271708607673645 0.47153714299201965
0.71687823534011841 0.23620942234992981 0.48236951231956482
0.88173806667327881 0.27880766987800598 0.48607251048088074
0.02119993232190609 0.48361322283744812 0.48138710856437683
0.23107077181339264 0.50605219602584839 0.50820082426071167
0.5198180079460144 0.52219712734222412 0.52000594139099121
0.78867775201797485 0.51869285106658936 0.51740443706512451
0.97088402509689331 0.53052765130996704 0.5267176628112793
0.12988539040088654 0.73323935270309448 0.53645354509353638
0.28621682524681091 0.76564007997512817 0.5273669958114624
0.4825626015663147 0.75446027517318726 0.48008003830909729
0.72537422180175781 0.72444778680801392 0.45486283302307129
0.9489365816116333 0.71375888586044312 0.47457286715507507
0.24234265089035034 0.93723267316818237 0.59727299213409424
0.35581788420677185 0.95426106452941895 0.55898523330688477
0.50107365846633911 0.95421689748764038 0.49962049722671509
0.70312356948852539 0.94138145446777344 0.46700054407119751
0.95051425695419312 0.95109331607818604 0.49460980296134949
0 0 0
0.015933690592646599 0.0054811066947877407 0.035171285271644592
0.15678597986698151 0.028146406635642052 0.21577613055706024
0.38439378142356873 0.049096543341875076 0.38446283340454102
0.66138488054275513 0.05375589057803154 0.5126538872718811
0.028838962316513062 0.1786041259765625 0.45359790325164795
0.21118804812431335 0.21008607745170593 0.61534333229064941
0.46933293342590332 0.22239319980144501 0.70071649551391602
0.71625137329101562 0.2491689920425415 0.72075271606445312
0.90004515647888184 0.28904232382774353 0.70380032062530518
0.067700572311878204 0.48200109601020813 0.67536401748657227
0.26070961356163025 0.50911486148834229 0.74393057823181152
0.51464802026748657 0.51568973064422607 0.78512018918991089
0.79411536455154419 0.52081704139709473 0.79377830028533936
0.99175238609313965 0.54005140066146851 0.77911704778671265
0.14022515714168549 0.72002160549163818 0.71838754415512085
0.29473170638084412 0.74944567680358887 0.74947339296340942
0.47674250602722168 0.74333125352859497 0.74774128198623657
0.70962303876876831 0.70950460433959961 0.71558654308319092
0.96657586097717285 0.70230382680892944 0.70580655336380005
0.22511053085327148 0.92750358581542969 0.76355904340744019
0.34237173199653625 0.94289016723632812 0.7478097677230835
0.47319287061691284 0.94272136688232422 0.7065579891204834
0.68325024843215942 0.95089691877365112 0.68183887004852295
0.96077513694763184 0.96092313528060913 0.69644546508789062
0.00059217563830316067 0.00069077435182407498 0.0036038118414580822
0.034873154014348984 0.014857991598546505 0.094026409089565277
0.19392094016075134 0.043497450649738312 0.33324211835861206
0.44845467805862427 0.050242867320775986 0.57072460651397705
0.67082756757736206 0.073764517903327942 0.66835910081863403
0.047501135617494583 0.19822825491428375 0.60972410440444946
0.23921766877174377 0.22851794958114624 0.74309617280960083
0.45248857140541077 0.24893899261951447 0.83686202764511108
0.67411863803863525 0.27243509888648987 0.87148523330688477
0.86598068475723267 0.31369498372077942 0.86616450548171997
0.10591328889131546 0.48391807079315186 0.83597826957702637
0.30443575978279114 0.50797444581985474 0.89786016941070557
0.51536864042282104 0.52077776193618774 0.96768742799758911
0.76326507329940796 0.5241396427154541 0.99081099033355713
0.98791080713272095 0.54324662685394287 0.98916769027709961
0.17994707822799683 0.7343561053276062 0.90538328886032104
0.3355538547039032 0.73623883724212646 0.92988961935043335
0.50547081232070923 0.7423519492149353 0.97553777694702148
0.7174646258354187 0.71106314659118652 0.97319626808166504
0.96770167350769043 0.70299899578094482 0.96916109323501587
0.2517341673374176 0.94336694478988647 0.94579601287841797
0.37400811910629272 0.93629276752471924 0.93293970823287964
0.5150073766708374 0.94955217838287354 0.94563841819763184
0.71088880300521851 0.95408117771148682 0.94768428802490234
0.96414637565612793 0.9621891975402832 0.96292233467102051
