assets/lut/alexjordan dark green 01.cube
# Created by: G'MIC (https://gmic.eu)
TITLE "dark_green_1"
# LUT size
LUT_3D_SIZE 5
# Data domain
DOMAIN_MIN 0.0 0.0 0.0
DOMAIN_MAX 1.0 1.0 1.0
# LUT data points
0.0089109530672430992 0.011641558259725571 0.016129827126860619
0.063392236828804016 0.015215600840747356 0.016534663736820221
0.1297602504491806 0.014624981209635735 0.021087346598505974
0.20324800908565521 0.017182309180498123 0.027639815583825111
0.2816462516784668 0.022873403504490852 0.036844216287136078
0.017857689410448074 0.089165918529033661 0.028148410841822624
0.084584899246692657 0.10050506889820099 0.036686617881059647
0.15641787648200989 0.10893777757883072 0.047391720116138458
0.23197269439697266 0.12016989290714264 0.056311946362257004
0.31290760636329651 0.12999822199344635 0.06892859935760498
0.040176451206207275 0.1907220333814621 0.045721180737018585
0.11104665696620941 0.20335625112056732 0.05878201499581337
0.1866828054189682 0.21825546026229858 0.07337622344493866
0.26594293117523193 0.23315222561359406 0.087728120386600494
0.34977450966835022 0.24546676874160767 0.10400769114494324
0.071710802614688873 0.30941742658615112 0.073789961636066437
0.14532497525215149 0.32206693291664124 0.089006297290325165
0.22330816090106964 0.33797851204872131 0.10710262507200241
0.30574345588684082 0.35451489686965942 0.12603208422660828
0.39137163758277893 0.37040978670120239 0.14461767673492432
0.10667480528354645 0.43509677052497864 0.11091570556163788
0.1830250471830368 0.44817045331001282 0.12719722092151642
0.26323568820953369 0.46445575356483459 0.1469779908657074
0.34722360968589783 0.48216420412063599 0.16835196316242218
0.43370670080184937 0.49995177984237671 0.18983522057533264
0.0047589917667210102 0.0095391515642404556 0.087084122002124786
0.065200209617614746 0.014586669392883778 0.089774683117866516
0.13407796621322632 0.016571568325161934 0.095390975475311279
0.2068764865398407 0.021203059703111649 0.10361193120479584
0.28465592861175537 0.02774881012737751 0.11453646421432495
0.018361903727054596 0.095432445406913757 0.10119551420211792
0.085594937205314636 0.1050100103020668 0.10860453546047211
0.16162458062171936 0.11400990188121796 0.11941387504339218
0.23696193099021912 0.12588100135326385 0.13105893135070801
0.31817972660064697 0.13557259738445282 0.14523988962173462
0.042918603867292404 0.19662950932979584 0.12107422947883606
0.11348284780979156 0.20957367122173309 0.13386374711990356
0.19069267809391022 0.22495527565479279 0.14926078915596008
0.27196106314659119 0.23861643671989441 0.16383560001850128
0.35684299468994141 0.25129920244216919 0.17922213673591614
0.074713930487632751 0.31342205405235291 0.1521897166967392
0.14813882112503052 0.32696071267127991 0.16730476915836334
0.22708785533905029 0.34361332654953003 0.18576207756996155
0.31121835112571716 0.35950079560279846 0.2035449743270874
0.39766672253608704 0.37501496076583862 0.22089201211929321
0.10960009694099426 0.43789774179458618 0.19246631860733032
0.18603330850601196 0.45196771621704102 0.20820344984531403
0.26676636934280396 0.46881565451622009 0.22752363979816437
0.35158219933509827 0.48631006479263306 0.2478901594877243
0.43835675716400146 0.50328093767166138 0.26807472109794617
0.0044973636977374554 0.0077089047990739346 0.16448718309402466
0.067789234220981598 0.013202741742134094 0.16927394270896912
0.13726052641868591 0.018511977046728134 0.17663432657718658
0.21052464842796326 0.025237154215574265 0.18566146492958069
0.28825369477272034 0.03319588303565979 0.19695530831813812
0.022439830005168915 0.097373113036155701 0.1818649023771286
0.089636452496051788 0.10830871015787125 0.19069951772689819
0.16460004448890686 0.11929135769605637 0.20339606702327728
0.24290622770786285 0.12959228456020355 0.21603116393089294
0.32397705316543579 0.14085248112678528 0.22906120121479034
0.047942817211151123 0.19887982308864594 0.20575326681137085
0.11796212196350098 0.21410241723060608 0.21862086653709412
0.19538785517215729 0.23105037212371826 0.2357015460729599
0.27940726280212402 0.24216291308403015 0.2512069046497345
0.36362111568450928 0.25629648566246033 0.2643904983997345
0.079075559973716736 0.31607532501220703 0.23945698142051697
0.15254932641983032 0.33162584900856018 0.25395059585571289
0.23201663792133331 0.34947323799133301 0.27195888757705688
0.31714197993278503 0.36513742804527283 0.28898096084594727
0.40351182222366333 0.37991422414779663 0.305400550365448
0.11371272802352905 0.44145190715789795 0.28087076544761658
0.19026422500610352 0.45644587278366089 0.2956465482711792
0.27120140194892883 0.47418418526649475 0.3138066828250885
0.35629594326019287 0.49155664443969727 0.33285892009735107
0.44318544864654541 0.50775980949401855 0.35223710536956787
0.0075597427785396576 0.0087246913462877274 0.25201189517974854
0.071921616792678833 0.014180606231093407 0.25827199220657349
0.13994759321212769 0.021119855344295502 0.26600885391235352
0.21290135383605957 0.029491020366549492 0.2745547890663147
0.2906823456287384 0.038954894989728928 0.28529438376426697
0.028954958543181419 0.099853873252868652 0.27327263355255127
0.095420405268669128 0.11021009087562561 0.2836042046546936
0.16742461919784546 0.1221042275428772 0.29598623514175415
0.24589471518993378 0.13380511105060577 0.30765470862388611
0.32764139771461487 0.14560030400753021 0.32045125961303711
0.054209720343351364 0.20173317193984985 0.29985690116882324
0.12360640615224838 0.21675603091716766 0.31345096230506897
0.19956301152706146 0.23343199491500854 0.32918143272399902
0.28256434202194214 0.24832209944725037 0.34354925155639648
0.36757543683052063 0.26067396998405457 0.35839048027992249
0.084444440901279449 0.3203309178352356 0.33507642149925232
0.15775115787982941 0.33554047346115112 0.34883937239646912
0.2365877628326416 0.3545415997505188 0.36528363823890686
0.32112959027290344 0.37195104360580444 0.381754070520401
0.40742391347885132 0.3848319947719574 0.39898490905761719
0.11853447556495667 0.44672906398773193 0.37634682655334473
0.1951732337474823 0.46157965064048767 0.3901917040348053
0.27584114670753479 0.47958666086196899 0.40698456764221191
0.36055955290794373 0.4970022439956665 0.42496418952941895
0.44729483127593994 0.5125916600227356 0.44402453303337097
0.011765439063310623 0.013314610347151756 0.34756013751029968
0.076363988220691681 0.017712641507387161 0.35424157977104187
0.14363227784633636 0.024366671219468117 0.36177283525466919
0.21607576310634613 0.033865507692098618 0.36951136589050293
0.29350411891937256 0.045114420354366302 0.37939006090164185
0.034368090331554413 0.10834340006113052 0.37286928296089172
0.1006554514169693 0.11513184010982513 0.38317295908927917
0.17128579318523407 0.12508513033390045 0.39456969499588013
0.24929878115653992 0.13778774440288544 0.40494990348815918
0.3314310610294342 0.15025658905506134 0.41740667819976807
0.059833690524101257 0.21214529871940613 0.40222123265266418
0.12923808395862579 0.22212117910385132 0.41486883163452148
0.20378971099853516 0.23622740805149078 0.42904239892959595
0.28619465231895447 0.25152623653411865 0.44229570031166077
0.37164211273193359 0.26424956321716309 0.45745575428009033
0.089986361563205719 0.32919430732727051 0.43725734949111938
0.16344961524009705 0.34174653887748718 0.45017540454864502
0.24157068133354187 0.35849297046661377 0.46526730060577393
0.32511836290359497 0.37516456842422485 0.48091435432434082
0.41123229265213013 0.38902580738067627 0.4980635941028595
0.1240353137254715 0.45510834455490112 0.47765296697616577
0.20062470436096191 0.46836930513381958 0.49073708057403564
0.28095361590385437 0.48500040173530579 0.50621908903121948
0.3649497926235199 0.50186598300933838 0.52340078353881836
0.45138362050056458 0.51749783754348755 0.54206061363220215
