assets/lut/alexjordan cross process cp 130.cube
# Created by: G'MIC (https://gmic.eu)
TITLE "cross_process_cp_130"
# LUT size
LUT_3D_SIZE 13
# Data domain
DOMAIN_MIN 0.0 0.0 0.0
DOMAIN_MAX 1.0 1.0 1.0
# LUT data points
0 0 0
0 0 0
0 0 0
0.001207194640301168 0 0
0.013248742558062077 0 4.5237822632770985e-05
0.048984497785568237 0 0.00082057877443730831
0.091321967542171478 0 0.0018179201288148761
0.1675696074962616 0 0.0032016080804169178
0.27538177371025085 0 0.0027902340516448021
0.40553402900695801 0 0.0019315084209665656
0.54976677894592285 0 0.001155165140517056
0.68975824117660522 0 5.8521942264633253e-05
0.78140050172805786 0 0.0028922136407345533
0.0010477701434865594 0.00010482189827598631 0
0.0063692876137793064 0.0016111037693917751 0.00063606712501496077
0.026805996894836426 0.0023013544268906116 0.0014389936113730073
0.063601672649383545 0.0021178899332880974 0.0029787849634885788
0.11743061989545822 0.0010627746814861894 0.0042325337417423725
0.18650752305984497 0.00041418636101298034 0.0034756530076265335
0.284963458776474 0.00058457616250962019 0.0028217989020049572
0.39212647080421448 0.0017964830622076988 0.0040495181456208229
0.50155013799667358 0.00082322664093226194 0.0032537870574742556
0.60874468088150024 1.7772001228877343e-05 0.0019621157553046942
0.74249911308288574 9.7042910056188703e-05 0.0015392528148368001
0.8547433614730835 0.0006114286370575428 0.00053262151777744293
0.90589261054992676 0.0023366142995655537 0.0023747463710606098
0.018305430188775063 0.018294913694262505 0.0025640150997787714
0.050637621432542801 0.02655925415456295 0.005511818453669548
0.10031586885452271 0.029142102226614952 0.0031644634436815977
0.16516920924186707 0.026932928711175919 0.0039855209179222584
0.23925112187862396 0.025382338091731071 0.0039712046273052692
0.32198798656463623 0.022996222600340843 0.0014779483899474144
0.41575592756271362 0.022759756073355675 0.0003100526228081435
0.51378542184829712 0.026003729552030563 0.00093998626107349992
0.60433566570281982 0.022841120138764381 0.002056181663647294
0.68541866540908813 0.015147624537348747 0.0021023917943239212
0.79131972789764404 0.014759781770408154 0.00070311600575223565
0.88623499870300293 0.020102886483073235 3.9493338590546045e-06
0.9352225661277771 0.029391882941126823 0.00043095607543364167
0.024311752989888191 0.07831680029630661 0.0036619747988879681
0.076171696186065674 0.084667235612869263 0.0026286854408681393
0.13948653638362885 0.087013736367225647 0.00025880103930830956
0.21217206120491028 0.085911862552165985 0.00032694198307581246
0.28711274266242981 0.086127668619155884 0.00028340957942418754
0.36539965867996216 0.086200132966041565 9.6938192655215971e-06
0.44783475995063782 0.086271263659000397 0
0.53554773330688477 0.085151880979537964 3.3030792110366747e-05
0.61872446537017822 0.080172054469585419 0.00084801466437056661
0.69787836074829102 0.073153026401996613 0.0015522675821557641
0.7877805233001709 0.071880027651786804 0.00036226160591468215
0.86985969543457031 0.07784697413444519 0
0.9246450662612915 0.090575277805328369 3.7339155824156478e-05
0.014350158162415028 0.15952757000923157 0.0018382202833890915
0.072491846978664398 0.16185614466667175 0.00041029686690308154
0.1430385559797287 0.16267459094524384 0
0.21738019585609436 0.16338340938091278 0
0.29171448945999146 0.16503840684890747 0
0.36700189113616943 0.16619096696376801 0
0.44496917724609375 0.16582807898521423 0
0.5258183479309082 0.16401511430740356 7.180606644396903e-06
0.60671627521514893 0.16046558320522308 0.00091965618776157498
0.68885737657546997 0.15649503469467163 0.0017419852083548903
0.77520710229873657 0.15548484027385712 0.00026424633688293397
0.85266220569610596 0.16067600250244141 0
0.90864145755767822 0.17406453192234039 0
0.010229821316897869 0.24000468850135803 0.0016543818637728691
0.064758092164993286 0.2414679080247879 0.00031020221649669111
0.13471126556396484 0.24328912794589996 0
0.20959852635860443 0.24559682607650757 0.00011632582754828036
0.28529903292655945 0.24799631536006927 0.00043125526281073689
0.36206790804862976 0.24881358444690704 0.00012242933735251427
0.43802347779273987 0.24902531504631042 9.4424976850859821e-05
0.5141981840133667 0.24920612573623657 0.00048844580305740237
0.5921558141708374 0.24897532165050507 0.0020013847388327122
0.6754307746887207 0.24816372990608215 0.0026436152402311563
0.76475286483764648 0.24640156328678131 0.00036537321284413338
0.84292465448379517 0.25066390633583069 0
0.89646714925765991 0.2639184296131134 0
0.0084131872281432152 0.31970486044883728 0.0015762030379846692
0.057633686810731888 0.32232505083084106 0.0001608455932000652
0.12534062564373016 0.3251100480556488 0
0.20169153809547424 0.32801195979118347 0.00025239831302314997
0.28066790103912354 0.33041203022003174 0.0012296190252527595
0.35838261246681213 0.33160683512687683 0.001236455631442368
0.43300116062164307 0.3335055410861969 0.0011557484976947308
0.50576955080032349 0.33602946996688843 0.0018427680479362607
0.58098572492599487 0.33818301558494568 0.0029687320347875357
0.6666606068611145 0.33762094378471375 0.0019700592383742332
0.76199859380722046 0.33429586887359619 9.4784008979331702e-05
0.84148859977722168 0.33736580610275269 0
0.89006173610687256 0.35134923458099365 7.4678311648312956e-05
0.006796862930059433 0.40365904569625854 0.000864934001583606
0.049647416919469833 0.4067632257938385 1.2566061968755093e-06
0.11387095600366592 0.41060107946395874 0
0.1919323056936264 0.41286531090736389 0
0.27483779191970825 0.41408643126487732 4.2724608647404239e-05
0.35244393348693848 0.41653850674629211 0.0004890142590738833
0.42482244968414307 0.42036610841751099 0.0017252304824069142
0.49739214777946472 0.42399829626083374 0.0026950761675834656
0.57319998741149902 0.42679554224014282 0.002253109822049737
0.66091537475585938 0.42546334862709045 0.00066854438045993447
0.76344388723373413 0.41970711946487427 0
0.84329193830490112 0.42260950803756714 0
0.88263458013534546 0.43950331211090088 0.00032788445241749287
0.0064390143379569054 0.49539688229560852 0.00046985101653262973
0.041293438524007797 0.49950298666954041 0
0.096870511770248413 0.50387281179428101 0
0.17057515680789948 0.50517278909683228 0
0.25401335954666138 0.50540828704833984 0
0.33055156469345093 0.50853931903839111 0
0.40272623300552368 0.51345348358154297 0.00022759531566407531
0.47983667254447937 0.51664119958877563 0.00078443641541525722
0.5599939227104187 0.51781678199768066 0.00050303142052143812
0.64826369285583496 0.51611268520355225 1.2925092050863896e-05
0.75464004278182983 0.50883316993713379 0
0.83211451768875122 0.51265555620193481 0
0.86072248220443726 0.53362876176834106 0.00027245914679951966
0.0065961503423750401 0.59725910425186157 0.00031874413252808154
0.032996218651533127 0.60156512260437012 0
0.074271440505981445 0.6050528883934021 0
0.13390465080738068 0.60740166902542114 0
0.2087426632642746 0.60820901393890381 0
0.28621363639831543 0.61068975925445557 0
0.36109018325805664 0.61478370428085327 0
0.44074109196662903 0.61690741777420044 0
0.52105748653411865 0.61801415681838989 0
0.60477918386459351 0.61782413721084595 0
0.71038728952407837 0.61157345771789551 0
0.78846538066864014 0.61550110578536987 0
0.81680768728256226 0.63605731725692749 0
0.0044856499880552292 0.70203661918640137 0.00075106153963133693
0.023885630071163177 0.7047237753868103 0
0.053427048027515411 0.70651453733444214 0
0.098457843065261841 0.71010500192642212 0
0.16483016312122345 0.71248286962509155 0
0.24263320863246918 0.71390372514724731 0
0.31869304180145264 0.71741384267807007 0
0.3979378342628479 0.71960592269897461 0
0.47696813941001892 0.72106921672821045 0
0.55976766347885132 0.72140032052993774 0
0.66368520259857178 0.71618133783340454 0
0.74278545379638672 0.72004568576812744 0
0.77433258295059204 0.73931574821472168 0.00016141404921654612
0.0015627692919224501 0.79588305950164795 0.0013095930917188525
0.017895253375172615 0.79820740222930908 0
0.046461440622806549 0.79993867874145508 0
0.090738780796527863 0.80307447910308838 0
0.15448977053165436 0.80558222532272339 0
0.23092792928218842 0.8071976900100708 0
0.30774158239364624 0.81039226055145264 0
0.38726237416267395 0.81230306625366211 2.4698294510017149e-05
0.47065436840057373 0.81281894445419312 0.00018235748575534672
0.56213283538818359 0.81082189083099365 7.6443539001047611e-06
0.66316545009613037 0.8065759539604187 0
0.73882251977920532 0.81141573190689087 0
0.7755359411239624 0.82918834686279297 0.0021279428619891405
0.0024161543697118759 0.88129067420959473 0.0055398079566657543
0.022950535640120506 0.88298702239990234 0.00065207388252019882
0.057797733694314957 0.88455832004547119 3.7922578485449776e-05
0.10813595354557037 0.88656938076019287 2.2753547455067746e-05
0.17499186098575592 0.88806664943695068 0.00016180300735868514
0.25220358371734619 0.88998997211456299 0.00047782450565136969
0.3319697380065918 0.89084619283676147 0.0016081117792055011
0.41394868493080139 0.89293396472930908 0.0037751439958810806
0.50237798690795898 0.89233189821243286 0.0053251679055392742
0.60076725482940674 0.88874363899230957 0.0041753132827579975
0.70236045122146606 0.88443291187286377 0.0012154672294855118
0.7755427360534668 0.89032655954360962 0.0018422594293951988
0.81316268444061279 0.90823078155517578 0.01064593717455864
0 0 0
0 0 0
0.00015851188800297678 0 0
0.0043599149212241173 0 0.00019104901002719998
0.019553001970052719 0 0.0018014047527685761
0.053845185786485672 0 0.0057014315389096737
0.10560563206672668 0 0.0088214054703712463
0.1938808262348175 0 0.0142872529104352
0.31237313151359558 0 0.016312588006258011
0.43797272443771362 0 0.015710912644863129
0.57622343301773071 0.00043912400724366307 0.012612990103662014
0.70692455768585205 7.915122841950506e-05 0.0096672056242823601
0.7895965576171875 0 0.018092764541506767
0.00093491497682407498 0 0.00019532746227923781
0.010093494318425655 0.0013518688501790166 0.0023530398029834032
0.035999089479446411 0.0021681392099708319 0.0069434521719813347
0.076932646334171295 0.0020993701182305813 0.013259663246572018
0.12932726740837097 0.0011664745397865772 0.018709294497966766
0.20235744118690491 0.00058924354379996657 0.023521019145846367
0.29526734352111816 0.00041454538586549461 0.022624431177973747
0.40637099742889404 0.0022824157495051622 0.0239881481975317
0.52422541379928589 0.0029901990201324224 0.022950354963541031
0.63169676065444946 0.00086231605382636189 0.019949700683355331
0.7475777268409729 1.8101112800650299e-05 0.016845867037773132
0.84691983461380005 0 0.013386251404881477
0.89380687475204468 6.2037448515184224e-05 0.019399022683501244
0.020266767591238022 0.02032572403550148 0.01165460329502821
0.058220598846673965 0.027858061715960503 0.01777852326631546
0.10977640748023987 0.031470265239477158 0.020580217242240906
0.17569515109062195 0.02881520614027977 0.024629496037960052
0.25125715136528015 0.026515796780586243 0.02678394690155983
0.33344629406929016 0.023802977055311203 0.023629955947399139
0.42460709810256958 0.023862980306148529 0.019775331020355225
0.52013564109802246 0.028732044622302055 0.021439915522933006
0.61241871118545532 0.027903374284505844 0.023336956277489662
0.69710260629653931 0.020570432767271996 0.021902091801166534
0.79238629341125488 0.01548481360077858 0.017106194049119949
0.87001723051071167 0.013539467938244343 0.012605390511453152
0.91197073459625244 0.018300494179129601 0.015970446169376373
0.028821967542171478 0.081893742084503174 0.019251191988587379
0.083325177431106567 0.087517425417900085 0.020339891314506531
0.1473027765750885 0.090774461627006531 0.016064722090959549
0.21974195539951324 0.089329920709133148 0.017523955553770065
0.2949623167514801 0.088697426021099091 0.01694069616496563
0.37159597873687744 0.088672265410423279 0.01288286130875349
0.45067098736763 0.08957749605178833 0.011028903536498547
0.53560549020767212 0.089608587324619293 0.014521624892950058
0.61811548471450806 0.085602030158042908 0.019748657941818237
0.69863724708557129 0.077979147434234619 0.020590359345078468
0.78630393743515015 0.072672568261623383 0.01615612581372261
0.85999703407287598 0.074215009808540344 0.01130021084100008
0.90825098752975464 0.083867557346820831 0.013658651150763035
0.01840820349752903 0.16133864223957062 0.017061719670891762
0.07844524085521698 0.16389249265193939 0.015618029050529003
0.14866921305656433 0.16634261608123779 0.011716521345078945
0.2223745584487915 0.1666448563337326 0.011999811045825481
0.29537573456764221 0.16785764694213867 0.011276558972895145
0.36867627501487732 0.16907942295074463 0.0091871824115514755
0.44427528977394104 0.16947880387306213 0.0092025604099035263
0.52324926853179932 0.16840162873268127 0.012417961843311787
0.60458797216415405 0.16480429470539093 0.017472719773650169
0.68961197137832642 0.15905407071113586 0.018457809463143349
0.77780097723007202 0.15585716068744659 0.014592892490327358
0.85150504112243652 0.15973381698131561 0.0097269099205732346
0.90099036693572998 0.17180532217025757 0.010941553860902786
0.011514057405292988 0.24138350784778595 0.016996510326862335
0.067470520734786987 0.2441963404417038 0.013853349722921848
0.13806506991386414 0.24601747095584869 0.011930936947464943
0.21322914958000183 0.24786382913589478 0.012323267757892609
0.28856918215751648 0.24974559247493744 0.012904477305710316
0.36314612627029419 0.2509511411190033 0.012028174474835396
0.43748635053634644 0.25231623649597168 0.012016027234494686
0.51266252994537354 0.25299844145774841 0.014568822458386421
0.59226155281066895 0.25196325778961182 0.016812851652503014
0.68066197633743286 0.2485797256231308 0.016417095437645912
0.77345734834671021 0.24554742872714996 0.011926120147109032
0.84833085536956787 0.25026193261146545 0.0078791454434394836
0.89440804719924927 0.26409479975700378 0.010009421966969967
0.0075290906243026257 0.32220539450645447 0.015941515564918518
0.057193215936422348 0.32494962215423584 0.011546999216079712
0.12642940878868103 0.32778486609458923 0.0096494937315583229
0.20453609526157379 0.3302493691444397 0.010048391297459602
0.28426125645637512 0.33190619945526123 0.011656518094241619
0.36112955212593079 0.33390268683433533 0.012905510142445564
0.43358728289604187 0.33655282855033875 0.014808699488639832
0.5053633451461792 0.33950674533843994 0.015796869993209839
0.58216077089309692 0.3411622941493988 0.015784081071615219
0.67183452844619751 0.33908864855766296 0.013543835841119289
0.77202898263931274 0.33417853713035583 0.0084941787645220757
0.84998637437820435 0.33754688501358032 0.0073977303691208363
0.89019787311553955 0.35282880067825317 0.012489019893109798
0.0041380040347576141 0.40664812922477722 0.012433145195245743
0.046039998531341553 0.40960431098937988 0.0067812902852892876
0.11303350329399109 0.4134003221988678 0.0039858650416135788
0.19393327832221985 0.41569957137107849 0.0029439588543027639
0.27793416380882263 0.41701832413673401 0.003997129388153553
0.35534536838531494 0.41952618956565857 0.0078589646145701408
0.42662692070007324 0.42366203665733337 0.011833669617772102
0.49703541398048401 0.42811182141304016 0.013877809047698975
0.57245916128158569 0.43107894062995911 0.013063797727227211
0.66259175539016724 0.42936432361602783 0.0094257276505231857
0.76808226108551025 0.42308259010314941 0.0054622725583612919
0.84863853454589844 0.42529478669166565 0.0058080037124454975
0.88350522518157959 0.44227337837219238 0.012114311568439007
0.0021502177696675062 0.49897634983062744 0.0080750109627842903
0.034540019929409027 0.50248348712921143 0.0022078270558267832
0.094520390033721924 0.50641655921936035 0.0003537047014106065
0.17203071713447571 0.50869721174240112 3.8176891393959522e-05
0.25610470771789551 0.50971847772598267 7.4319279519841075e-05
0.33339613676071167 0.51270681619644165 0.0014480591053143144
0.40470576286315918 0.51764953136444092 0.0050883572548627853
0.47731855511665344 0.52206051349639893 0.00746129360049963
0.55577749013900757 0.52421259880065918 0.0066444547846913338
0.64787214994430542 0.52200126647949219 0.0035786498337984085
0.75537925958633423 0.51577579975128174 0.0015554390847682953
0.83364778757095337 0.51886814832687378 0.0020663691684603691
0.86228013038635254 0.53757619857788086 0.0070982389152050018
0.0013629988534376025 0.60013312101364136 0.0043577454052865505
0.025367841124534607 0.60342204570770264 0.00018187878595199436
0.071884304285049438 0.6066625714302063 0
0.13700313866138458 0.60921245813369751 0
0.21405677497386932 0.6112062931060791 0
0.29090583324432373 0.61473977565765381 0
0.36324280500411987 0.61997503042221069 0.00021924785687588155
0.43791851401329041 0.62366276979446411 0.00080430274829268456
0.5176202654838562 0.62509548664093018 0.00055528531083837152
0.60841864347457886 0.62328267097473145 5.1835002523148432e-05
0.71345430612564087 0.61812108755111694 0
0.79046881198883057 0.6219450831413269 2.0734001736855134e-05
0.81983089447021484 0.64048129320144653 0.0013285318855196238
0.00042580996523611248 0.70198458433151245 0.0018760979874059558
0.01506779994815588 0.70438635349273682 0
0.050870545208454132 0.70603686571121216 0
0.10496079921722412 0.70943701267242432 0
0.17524290084838867 0.71286344528198242 0
0.25089055299758911 0.71675056219100952 0
0.32380574941635132 0.72222232818603516 0
0.39774510264396667 0.72606605291366577 0
0.47634994983673096 0.727428138256073 0
0.56465053558349609 0.72644704580307007 0
0.66575866937637329 0.722423255443573 0
0.74348181486129761 0.72622412443161011 0
0.77826708555221558 0.74316990375518799 7.4094881711062044e-05
1.9746669295273023e-06 0.79338103532791138 0.0010394676355645061
0.0080183437094092369 0.79526835680007935 0
0.041772909462451935 0.79741036891937256 0
0.094939738512039185 0.8008764386177063 0
0.16520997881889343 0.80403447151184082 0
0.24314029514789581 0.80770915746688843 0
0.31763970851898193 0.81263953447341919 0
0.39153173565864563 0.81680232286453247 8.2277784940743004e-07
0.46998339891433716 0.81874597072601318 3.9957085391506553e-05
0.5588676929473877 0.81805837154388428 0.0001249126362381503
0.66076302528381348 0.81340217590332031 0
0.74030792713165283 0.81648272275924683 0
0.77668803930282593 0.83359289169311523 0.0021870632190257311
3.7339155824156478e-05 0.87693816423416138 0.0047109564766287804
0.011485843919217587 0.87798184156417847 4.2784446122823283e-05
0.051244728267192841 0.88006234169006348 0
0.11020706593990326 0.88284444808959961 0
0.18502523005008698 0.88523876667022705 0
0.26771420240402222 0.88706666231155396 0
0.34615752100944519 0.89079922437667847 0.00088272092398256063
0.42218309640884399 0.89478558301925659 0.0040172203443944454
0.50417107343673706 0.89645922183990479 0.0076865251176059246
0.59804552793502808 0.89474785327911377 0.0080175511538982391
0.70173317193984985 0.88989055156707764 0.0033918344415724277
0.78251558542251587 0.8927345871925354 0.0028008255176246166
0.81733489036560059 0.91089558601379395 0.013604870997369289
0 0 0
0 0 0
0.00037913603591732681 0 0
0.0063613890670239925 0 0.00071231619222089648
0.033427353948354721 0 0.0063315597362816334
0.066009402275085449 0 0.013519945554435253
0.12302872538566589 0 0.02230345830321312
0.21460513770580292 0 0.033576950430870056
0.33469760417938232 0 0.043820444494485855
0.45355990529060364 0 0.047313105314970016
0.6013224720954895 0.0010464687366038561 0.043637759983539581
0.73954719305038452 0.00091539270943030715 0.042169533669948578
0.80567938089370728 0 0.05268261581659317
0.001176677062176168 0.00017163145821541548 0.0027641295455396175
0.011596874333918095 0.001562963705509901 0.0063367206603288651
0.040795017033815384 0.0027072234079241753 0.015851518139243126
0.085858181118965149 0.0017925786087289453 0.029377253726124763
0.14724205434322357 0.001011582906357944 0.041535980999469757
0.22696609795093536 0.00081185734597966075 0.052706893533468246
0.31216678023338318 0.00099045992828905582 0.055697333067655563
0.42032521963119507 0.0033804501872509718 0.059245403856039047
0.53750407695770264 0.0039501562714576721 0.062614992260932922
0.63768380880355835 0.0012856427347287536 0.058890145272016525
0.7580568790435791 0.00012308756413403898 0.052507825195789337
0.85934102535247803 0 0.050038311630487442
0.89395862817764282 0 0.058293227106332779
0.023669134825468063 0.022945433855056763 0.034281354397535324
0.061029352247714996 0.029474101960659027 0.041259046643972397
0.1164623349905014 0.032011143863201141 0.051767401397228241
0.1841389536857605 0.030325496569275856 0.058828584849834442
0.26266446709632874 0.027963945642113686 0.063650913536548615
0.34780782461166382 0.024925395846366882 0.064915135502815247
0.43266561627388 0.02649402990937233 0.063087224960327148
0.52187550067901611 0.032339014112949371 0.063066057860851288
0.60998368263244629 0.032927166670560837 0.064169026911258698
0.69496405124664307 0.025323202833533287 0.060839079320430756
0.7930833101272583 0.019225774332880974 0.054707396775484085
0.86973422765731812 0.017831046134233475 0.052377872169017792
0.90463733673095703 0.019164679571986198 0.058026690036058426
0.033956758677959442 0.083976387977600098 0.054109402000904083
0.087497532367706299 0.088744968175888062 0.05754515528678894
0.15270236134529114 0.091740630567073822 0.059352993965148926
0.22403587400913239 0.091856114566326141 0.058485653251409531
0.30131477117538452 0.090475954115390778 0.05748279020190239
0.38065299391746521 0.089902915060520172 0.055859822779893875
0.45792025327682495 0.090374931693077087 0.053833469748497009
0.53460896015167236 0.093585684895515442 0.055051662027835846
0.61136847734451294 0.092465206980705261 0.058031808584928513
0.69446158409118652 0.084664016962051392 0.057402621954679489
0.78790277242660522 0.078452184796333313 0.053344696760177612
0.86185050010681152 0.080584101378917694 0.051681175827980042
0.90384411811828613 0.087029218673706055 0.056174185127019882
0.024134887382388115 0.16252659261226654 0.053360208868980408
0.083651900291442871 0.16551142930984497 0.053784552961587906
0.15298852324485779 0.1675875335931778 0.052022326737642288
0.22536735236644745 0.16868327558040619 0.050832066684961319
0.29934123158454895 0.16875945031642914 0.050432182848453522
0.37410560250282288 0.16920499503612518 0.048559211194515228
0.44834968447685242 0.17057210206985474 0.047560539096593857
0.52332079410552979 0.17183417081832886 0.049066491425037384
0.60285335779190063 0.16965365409851074 0.052007593214511871
0.69211447238922119 0.16375212371349335 0.052253976464271545
0.78565782308578491 0.15999922156333923 0.049859348684549332
0.85905015468597412 0.16382652521133423 0.048566751182079315
0.90239018201828003 0.1737654060125351 0.052818119525909424
0.01493340265005827 0.2437809556722641 0.04991169273853302
0.072153039276599884 0.2464371919631958 0.047619644552469254
0.14193297922611237 0.24874049425125122 0.045521337538957596
0.21619704365730286 0.24991557002067566 0.045658860355615616
0.29104518890380859 0.25042346119880676 0.047035966068506241
0.36578837037086487 0.25177896022796631 0.046691954135894775
0.43922728300094604 0.25411275029182434 0.04618733748793602
0.51350241899490356 0.25583568215370178 0.047026149928569794
0.59450298547744751 0.25513160228729248 0.048782065510749817
0.68808764219284058 0.25111746788024902 0.047268617898225784
0.7860339879989624 0.24735487997531891 0.044277653098106384
0.85978460311889648 0.25157254934310913 0.044170364737510681
0.89829546213150024 0.26476830244064331 0.050382036715745926
0.0094947069883346558 0.32569688558578491 0.045080702751874924
0.060910213738679886 0.32869699597358704 0.040607765316963196
0.12963336706161499 0.33142921328544617 0.037929892539978027
0.20698590576648712 0.33304938673973083 0.037853583693504333
0.28613370656967163 0.33407744765281677 0.039802536368370056
0.36238792538642883 0.3356127142906189 0.042470190674066544
0.43492540717124939 0.33887875080108643 0.044336713850498199
0.50631546974182129 0.34256547689437866 0.045499525964260101
0.58423590660095215 0.34448897838592529 0.04514668881893158
0.6772230863571167 0.34190467000007629 0.041810669004917145
0.78292191028594971 0.33563715219497681 0.037111889570951462
