assets/lut/alexjordan contrasty afternoon.cube
# Created by: G'MIC (https://gmic.eu)
TITLE "contrasty_afternoon"
# LUT size
LUT_3D_SIZE 13
# Data domain
DOMAIN_MIN 0.0 0.0 0.0
DOMAIN_MAX 1.0 1.0 1.0
# LUT data points
0 0 0
0 0 0
0.0014358221087604761 0.00088466570014134049 0
0.055612124502658844 0.0040903878398239613 0
0.14817337691783905 0.0013488769764080644 0
0.23739844560623169 1.1668485967675224e-05 0
0.32343670725822449 0 0
0.40890848636627197 0 0
0.49409151077270508 0 0
0.57727891206741333 0 0
0.65678828954696655 4.6673944780195598e-06 0
0.73304802179336548 0.00033838607487268746 0
0.80746555328369141 0.00096906773978844285 0
0 0 0
0 0 2.3531445549451746e-05
0.0049058650620281696 0 0.001099949236959219
0.068327732384204865 0 0.0025424433406442404
0.16352839767932892 0 0.00013469620898831636
0.25248491764068604 0 0
0.33743351697921753 0 0
0.42233607172966003 0 0
0.5075000524520874 0.00090252747759222984 0
0.59098750352859497 0.006760705728083849 0
0.67061978578567505 0.013979115523397923 0
0.7464020848274231 0.019699171185493469 0
0.82015937566757202 0.02562917023897171 0
7.5845156970899552e-05 0.011118451133370399 0
0 0.012619213201105595 0.00027479283744469285
0.010450969450175762 0.012382088229060173 0.0013422648189589381
0.081376843154430389 0.012255425564944744 0.0015691420994699001
0.17671643197536469 0.01539312582463026 6.1035157159494702e-06
0.26540127396583557 0.017966281622648239 0
0.35041719675064087 0.014039657078683376 0
0.43584835529327393 0.015333437360823154 0.00033338958746753633
0.52156060934066772 0.028463535010814667 0.0018273746827617288
0.60536527633666992 0.041409272700548172 0.0027175154536962509
0.6852574348449707 0.052596837282180786 0.00036028694012202322
0.76087963581085205 0.063092157244682312 0
0.83398991823196411 0.072819732129573822 0
5.561978105106391e-05 0.093813695013523102 0
0.00012757544755004346 0.093470059335231781 0
0.016827736049890518 0.092128440737724304 0
0.090758442878723145 0.094160951673984528 0
0.18623711168766022 0.09635867178440094 0
0.27658432722091675 0.093083232641220093 0
0.36357113718986511 0.087754540145397186 0
0.45020818710327148 0.089487411081790924 8.7648280896246433e-05
0.53643614053726196 0.098985947668552399 0.0028553232550621033
0.6207088828086853 0.10763512551784515 0.0057937172241508961
0.70079463720321655 0.11758118867874146 0.00081241084262728691
0.77621614933013916 0.12865641713142395 0
0.84834599494934082 0.13970465958118439 0
0.00023900948872324079 0.19300562143325806 0.0002910539333242923
0.0065162959508597851 0.19199591875076294 2.0105699150008149e-05
0.037909965962171555 0.19071996212005615 0
0.10824552178382874 0.19101127982139587 0
0.19880114495754242 0.19026410579681396 0
0.28958967328071594 0.18691322207450867 0
0.37795892357826233 0.18446874618530273 0
0.46526876091957092 0.18747739493846893 3.7518668250413612e-05
0.55154949426651001 0.19319647550582886 0.0019371630623936653
0.63596600294113159 0.19822168350219727 0.0024284361861646175
0.71652013063430786 0.20527571439743042 7.180606644396903e-06
0.7910991907119751 0.21388466656208038 0
0.86234587430953979 0.2236093133687973 6.7677217884920537e-05
0.0024062511511147022 0.28436112403869629 0.0045272829011082649
0.020923061296343803 0.28432029485702515 0.0012589548714458942
0.061949726194143295 0.28327557444572449 7.7371034421958029e-05
0.13023389875888824 0.28233605623245239 0
0.2160123884677887 0.28116288781166077 0
0.30520784854888916 0.27976509928703308 0
0.39326339960098267 0.28072288632392883 3.7877700378885493e-05
0.48020684719085693 0.28507921099662781 0.0014525020960718393
0.56616944074630737 0.29039576649665833 0.0071301627904176712
0.65012228488922119 0.29487663507461548 0.006048793438822031
0.7303842306137085 0.30001115798950195 0.00069394579622894526
0.80456852912902832 0.30748814344406128 0.00039313820889219642
0.87577354907989502 0.31609609723091125 0.001581977354362607
0.0058368309400975704 0.37245208024978638 0.011241628788411617
0.034160256385803223 0.37252926826477051 0.0048288982361555099
0.081700436770915985 0.37214827537536621 0.0011872384930029511
0.15067188441753387 0.37111565470695496 2.423454679956194e-05
0.23386864364147186 0.36998927593231201 0
0.321135014295578 0.37056213617324829 0
0.40822339057922363 0.37338107824325562 0.00083627138519659638
0.49472972750663757 0.37813803553581238 0.0050448998808860779
0.58041906356811523 0.3834235668182373 0.011755640618503094
0.6640547513961792 0.38804030418395996 0.011914092116057873
0.74391824007034302 0.39325723052024841 0.0066404007375240326
0.81854712963104248 0.40047475695610046 0.0049439822323620319
0.89014679193496704 0.40864557027816772 0.0072875679470598698
0.01018105261027813 0.46132224798202515 0.019239313900470734
0.045842863619327545 0.46139088273048401 0.0098437443375587463
0.098099850118160248 0.46110114455223083 0.0037338256370276213
0.16740994155406952 0.46066957712173462 0.00085633218986913562
0.24877308309078217 0.46045771241188049 9.7117706900462508e-05
0.33489817380905151 0.46189418435096741 0.00027842802228406072
0.42174729704856873 0.46532163023948669 0.0023192910011857748
0.50846999883651733 0.46966552734375 0.0072461743839085102
0.5943753719329834 0.47412678599357605 0.013326472602784634
0.67806434631347656 0.47855094075202942 0.015851113945245743
0.7583346962928772 0.48359909653663635 0.014268119819462299
0.83368092775344849 0.49072074890136719 0.013960385695099831
0.90604656934738159 0.49930599331855774 0.016642358154058456
0.016795722767710686 0.55128675699234009 0.028015285730361938
0.057824093848466873 0.55142676830291748 0.016373144462704659
0.11292251944541931 0.55157381296157837 0.0081154471263289452
0.18213890492916107 0.5518643856048584 0.0032880895305424929
0.26195600628852844 0.55259913206100464 0.0015675263712182641
0.34717315435409546 0.55465948581695557 0.0016341863665729761
0.43412181735038757 0.55775517225265503 0.0037056568544358015
0.52144002914428711 0.56126350164413452 0.0082040373235940933
0.60772019624710083 0.56480956077575684 0.014050368219614029
0.6918671727180481 0.56853687763214111 0.018304472789168358
0.77264666557312012 0.57315200567245483 0.020586125552654266
0.84909874200820923 0.58009296655654907 0.023039141669869423
0.92231041193008423 0.58900314569473267 0.027604136615991592
0.027024617418646812 0.64341330528259277 0.037798833101987839
0.072154641151428223 0.64330965280532837 0.02480723150074482
0.12918783724308014 0.64373779296875 0.014547220431268215
0.19817683100700378 0.64456045627593994 0.0079738693311810493
0.27642044425010681 0.64588487148284912 0.0046700718812644482
0.36027750372886658 0.64825928211212158 0.0038786495570093393
0.44684576988220215 0.65101379156112671 0.0054217320866882801
0.53417563438415527 0.65360820293426514 0.009698142297565937
0.62075746059417725 0.65646278858184814 0.015672661364078522
0.70521658658981323 0.65958523750305176 0.021845918148756027
0.78653305768966675 0.66394191980361938 0.02691243402659893
0.86379879713058472 0.67085897922515869 0.032659865915775299
0.93794596195220947 0.68007999658584595 0.039596334099769592
0.04106488823890686 0.73689228296279907 0.048625346273183823
0.089146211743354797 0.73688727617263794 0.035495862364768982
0.14762738347053528 0.73700368404388428 0.023421013727784157
0.21620745956897736 0.73770695924758911 0.014909332618117332
0.29303103685379028 0.74007445573806763 0.0098029496148228645
0.37558078765869141 0.74203181266784668 0.0075770211406052113
0.46110028028488159 0.74477320909500122 0.0085360659286379814
0.54788470268249512 0.74678927659988403 0.012956476770341396
0.63411766290664673 0.74915921688079834 0.019780835136771202
0.71844768524169922 0.75224411487579346 0.027640772983431816
0.79997718334197998 0.75684279203414917 0.03564930334687233
0.87813299894332886 0.7635490894317627 0.043557558208703995
0.95349377393722534 0.77241748571395874 0.051651149988174438
0.057976067066192627 0.82962340116500854 0.060636229813098907
0.10883218795061111 0.82959556579589844 0.047664850950241089
0.16838334500789642 0.83035784959793091 0.035619564354419708
0.23674347996711731 0.83250808715820312 0.025380946695804596
0.31231576204299927 0.83369380235671997 0.018701260909438133
0.39322304725646973 0.83628231287002563 0.015411167405545712
0.47759601473808289 0.83813530206680298 0.015875199809670448
0.56327337026596069 0.84062117338180542 0.0204035434871912
0.64875507354736328 0.84252339601516724 0.027892332524061203
0.73258000612258911 0.84608626365661621 0.036909334361553192
0.81387495994567871 0.85096734762191772 0.04632607102394104
0.89270526170730591 0.85768848657608032 0.05519988015294075
0.96885615587234497 0.86624842882156372 0.064048647880554199
0.077713161706924438 0.92610293626785278 0.073927871882915497
0.13031502068042755 0.92610293626785278 0.061469133943319321
0.19098053872585297 0.92610293626785278 0.050043247640132904
0.25905013084411621 0.92620635032653809 0.0401027612388134
0.33375033736228943 0.92859923839569092 0.032731134444475174
0.41331309080123901 0.93010491132736206 0.028819110244512558
0.49625924229621887 0.93261587619781494 0.029034020379185677
0.58036792278289795 0.93422776460647583 0.033323206007480621
0.66471219062805176 0.9373970627784729 0.040623534470796585
0.74789780378341675 0.94080114364624023 0.049461424350738525
0.82918083667755127 0.9459758996963501 0.058665405958890915
0.90835750102996826 0.95275157690048218 0.067792259156703949
0.98184734582901001 0.96117502450942993 0.076958931982517242
0 0 0.00063320982735604048
0 0 2.1392224880401045e-06
0.0018703684909269214 0.00070399866672232747 0
0.055820822715759277 0.0043579847551882267 0.00055953382980078459
0.1488649994134903 0.0035077412612736225 0.0019981383811682463
0.23971658945083618 0.0014109143521636724 0.00034719728864729404
0.32572895288467407 0.00034947114181704819 0
0.41123536229133606 0 0.0004669937479775399
0.49673241376876831 0.00011349846317898482 0.0014263078337535262
0.58040916919708252 0.0010837779846042395 0.00084011600119993091
0.6594383716583252 0.00033946317853406072 0.00052032468374818563
0.73400634527206421 0 0.00076847447780892253
0.80717486143112183 0 0.001339646871201694
0 0 0.0004798440495505929
0 0 0.00070232315920293331
0.0056350408121943474 0 0.00017936556832864881
0.069225654006004333 0 0.0028016483411192894
0.16493064165115356 0 0.0063827214762568474
0.2549012303352356 0 0.0030318615026772022
0.33969157934188843 0 0.0022256588563323021
0.42474466562271118 0.00019974053429905325 0.0061720306985080242
0.51010787487030029 0.0041764653287827969 0.010035600513219833
0.5934099555015564 0.011912073008716106 0.0099025201052427292
0.67231893539428711 0.013421541079878807 0.0076572643592953682
0.74703347682952881 0.011363803409039974 0.0063752718269824982
0.81948727369308472 0.011602588929235935 0.0064915674738585949
0 0.012773925438523293 0.003163760295137763
0 0.015445050783455372 0.0028452256228774786
0.011808492243289948 0.013962090946733952 0.0025057774037122726
0.083760969340801239 0.011731555685400963 0.0059069613926112652
0.17887534201145172 0.016962761059403419 0.0072579625993967056
0.26786622405052185 0.019711349159479141 0.006170220673084259
0.35257735848426819 0.01718413457274437 0.009268532507121563
0.43799114227294922 0.021047793328762054 0.017313385382294655
0.52369880676269531 0.035273533314466476 0.023502245545387268
0.60717999935150146 0.046287715435028076 0.025603111833333969
0.68652868270874023 0.050958640873432159 0.020899290218949318
0.76130521297454834 0.052431818097829819 0.01628061942756176
0.83368027210235596 0.055946186184883118 0.016568845137953758
0 0.097166411578655243 0.0042634103447198868
0 0.098765566945075989 0.0051132501102983952
0.01289068441838026 0.096747756004333496 0.0043885475024580956
0.09107525646686554 0.093728005886077881 0.0043466007336974144
0.18975250422954559 0.097255364060401917 0.0037613962776958942
0.27888035774230957 0.097974874079227448 0.0040759816765785217
0.36539241671562195 0.093196332454681396 0.0083737988024950027
0.45209956169128418 0.097008362412452698 0.015349937602877617
0.53812718391418457 0.10652495920658112 0.024750130251049995
0.62197822332382202 0.11264798045158386 0.02980569563806057
0.70188611745834351 0.11679799854755402 0.023718411102890968
0.77636837959289551 0.12013367563486099 0.020220916718244553
0.84778529405593872 0.12563635408878326 0.024606412276625633
0 0.19623500108718872 0.017906233668327332
0.0025603948161005974 0.19608019292354584 0.015391435474157333
0.0312320776283741 0.19455321133136749 0.012633574195206165
0.10632410645484924 0.19325980544090271 0.0095676947385072708
0.20100738108158112 0.19352060556411743 0.0074201696552336216
0.29178348183631897 0.19266714155673981 0.0077022477053105831
0.37971663475036621 0.19132149219512939 0.011313180439174175
0.4667586088180542 0.19603398442268372 0.015823140740394592
0.55270123481750488 0.20033729076385498 0.026171889156103134
0.63681292533874512 0.20170390605926514 0.029696894809603691
0.71759384870529175 0.20494003593921661 0.019368354231119156
0.79129183292388916 0.20856449007987976 0.021033149212598801
0.861217200756073 0.21443568170070648 0.031767543405294418
0.00021876914252061397 0.28533798456192017 0.040306661278009415
0.01307233888655901 0.28559139370918274 0.032142039388418198
0.053652312606573105 0.28584867715835571 0.025220863521099091
0.12561658024787903 0.28618103265762329 0.019136721268296242
0.21531526744365692 0.28561639785766602 0.015751872211694717
0.30605402588844299 0.28462499380111694 0.017203357070684433
0.39431235194206238 0.28575548529624939 0.02401803620159626
0.48120063543319702 0.29052960872650146 0.032893460243940353
0.56679844856262207 0.29480600357055664 0.042800650000572205
0.65074056386947632 0.29700633883476257 0.042814336717128754
0.73124825954437256 0.29985722899436951 0.032022185623645782
0.80436164140701294 0.3050408661365509 0.033326871693134308
0.87406939268112183 0.31163144111633301 0.044702060520648956
0.0010178210213780403 0.37235000729560852 0.057836763560771942
0.022634813562035561 0.37263137102127075 0.047308947890996933
0.070486672222614288 0.37387523055076599 0.037715926766395569
0.14247064292430878 0.37400996685028076 0.028834624215960503
0.22996912896633148 0.37343257665634155 0.023750605061650276
0.31970211863517761 0.37411826848983765 0.027372727170586586
0.40790882706642151 0.37692397832870483 0.037913978099822998
0.4949403703212738 0.38154727220535278 0.049882657825946808
0.58099281787872314 0.38595506548881531 0.059015162289142609
0.6649550199508667 0.38938546180725098 0.060174472630023956
0.74439907073974609 0.39343535900115967 0.05498778447508812
0.81817567348480225 0.39964181184768677 0.055029116570949554
0.88823586702346802 0.40697115659713745 0.062614351511001587
0.0021563810296356678 0.46115657687187195 0.072415612637996674
0.030598016455769539 0.46148189902305603 0.061008978635072708
0.083207011222839355 0.46217760443687439 0.049796730279922485
0.15570120513439178 0.46268573403358459 0.039975527673959732
0.2414594292640686 0.46294096112251282 0.034536488354206085
0.33082771301269531 0.46463599801063538 0.03771069273352623
0.419730544090271 0.46798783540725708 0.047713052481412888
0.50791209936141968 0.47211381793022156 0.059392891824245453
0.59467136859893799 0.4762442409992218 0.068536810576915741
0.67860788106918335 0.48006147146224976 0.072412483394145966
0.75871407985687256 0.4846569299697876 0.072491034865379333
0.83287912607192993 0.49118432402610779 0.074426598846912384
0.90412789583206177 0.49853000044822693 0.080286972224712372
0.0049914941191673279 0.55158549547195435 0.085879340767860413
0.040545742958784103 0.55213665962219238 0.073691301047801971
0.096183151006698608 0.55301010608673096 0.062268275767564774
0.16834048926830292 0.55362421274185181 0.052333608269691467
0.25217542052268982 0.55476391315460205 0.046801786869764328
0.34103831648826599 0.55685371160507202 0.047776900231838226
0.43071621656417847 0.55994045734405518 0.055008023977279663
0.51973289251327515 0.56335079669952393 0.065016336739063263
0.60708189010620117 0.56674981117248535 0.074334435164928436
0.69162267446517944 0.57035535573959351 0.080803275108337402
0.77206212282180786 0.57486814260482788 0.084956780076026917
0.84752041101455688 0.58136039972305298 0.089608319103717804
0.91969549655914307 0.58919066190719604 0.096165597438812256
0.011957146227359772 0.64344364404678345 0.098816141486167908
0.054389189928770065 0.64390307664871216 0.086338534951210022
0.11199050396680832 0.64481920003890991 0.074808992445468903
0.18379311263561249 0.64594608545303345 0.064898334443569183
0.26561352610588074 0.64774644374847412 0.058631222695112228
0.35298383235931396 0.64984381198883057 0.057251665741205215
0.44243139028549194 0.65266162157058716 0.061589483171701431
0.53167665004730225 0.6553223729133606 0.070255830883979797
0.6194157600402832 0.65811276435852051 0.079905219376087189
0.70426487922668457 0.66134375333786011 0.088447436690330505
0.78505134582519531 0.6658174991607666 0.095520392060279846
0.86149823665618896 0.67224383354187012 0.10264298319816589
0.9348759651184082 0.68041199445724487 0.11038438230752945
0.025080932304263115 0.73688727617263794 0.11184961348772049
0.072201929986476898 0.73694103956222534 0.099546842277050018
0.13150942325592041 0.73749303817749023 0.087955847382545471
0.20255886018276215 0.73907971382141113 0.078089728951454163
0.28241175413131714 0.74095052480697632 0.070983842015266418
0.36794006824493408 0.74331116676330566 0.068000257015228271
0.45614179968833923 0.74559938907623291 0.070398174226284027
0.54484522342681885 0.74793171882629395 0.077866435050964355
0.63219040632247925 0.75028491020202637 0.087585702538490295
0.71689295768737793 0.75337904691696167 0.097144119441509247
0.79795378446578979 0.75802499055862427 0.10632047802209854
0.8753201961517334 0.7643887996673584 0.1150721088051796
0.95006090402603149 0.77251815795898438 0.12391804903745651
0.042898949235677719 0.82959556579589844 0.12535607814788818
0.093177869915962219 0.82989144325256348 0.11328635364770889
0.15365715324878693 0.83113425970077515 0.10213970392942429
0.22377249598503113 0.83300089836120605 0.092564120888710022
0.30193659663200378 0.83423572778701782 0.085469715297222137
0.38556432723999023 0.83677548170089722 0.081934988498687744
0.47215989232063293 0.83864676952362061 0.08341139554977417
0.55974882841110229 0.8408740758895874 0.08959323912858963
0.64632183313369751 0.84312319755554199 0.098566882312297821
0.73067522048950195 0.84634566307067871 0.10846723616123199
0.81198841333389282 0.85108029842376709 0.11818114668130875
0.89008253812789917 0.85752284526824951 0.12763291597366333
0.96589845418930054 0.86548566818237305 0.1372428685426712
0.063309706747531891 0.92610293626785278 0.14004859328269958
0.11601094156503677 0.92610293626785278 0.12839861214160919
0.17734652757644653 0.92610293626785278 0.11776056885719299
0.24702779948711395 0.92626237869262695 0.10877211391925812
0.32380467653274536 0.92849552631378174 0.10220764577388763
0.40556409955024719 0.93013060092926025 0.099044948816299438
0.49037566781044006 0.93225944042205811 0.099966548383235931
0.57633769512176514 0.93421512842178345 0.1048249751329422
0.66192257404327393 0.93699753284454346 0.11252351850271225
0.74576795101165771 0.94014811515808105 0.12168341130018234
0.82708483934402466 0.94491815567016602 0.13127243518829346
0.90591686964035034 0.95164132118225098 0.14112630486488342
0.97970771789550781 0.95995312929153442 0.15050055086612701
0 0 0.037893034517765045
0 0 0.029900405555963516
0.0015372481429949403 3.1115963793126866e-05 0.02377026155591011
0.055541303008794785 0.0023698695003986359 0.030710991472005844
0.15088054537773132 0.0028198841027915478 0.038834694772958755
0.24220442771911621 0.0014692568220198154 0.033450841903686523
0.32785847783088684 0.00088174856500700116 0.029190167784690857
0.41305956244468689 5.4677326261298731e-05 0.038050513714551926
0.49824833869934082 0.0026147281751036644 0.044187027961015701
0.58165496587753296 0.0036318162456154823 0.041431337594985962
0.66002219915390015 0.00035059312358498573 0.040773205459117889
0.73464274406433105 0 0.045328341424465179
0.80754637718200684 0 0.052428629249334335
0.00019077974138781428 0 0.039999540895223618
0 0 0.039113797247409821
0.0052511626854538918 0 0.033291522413492203
0.068607553839683533 0 0.040230635553598404
0.16570180654525757 0 0.049059055745601654
0.25667920708656311 0 0.046885665506124496
0.34185564517974854 2.2708667529514059e-05 0.045119594782590866
0.42684763669967651 0.0025745017919689417 0.05312906950712204
0.51175874471664429 0.011401965282857418 0.060174547135829926
0.59465748071670532 0.016145579516887665 0.061493579298257828
0.67319661378860474 0.011762028560042381 0.061350610107183456
0.74760454893112183 0.0037997975014150143 0.065213240683078766
0.81987768411636353 0.0014241836033761501 0.071311399340629578
0.00043037266004830599 0.013648523017764091 0.054206173866987228
0.00014235552225727588 0.013964799232780933 0.054911147803068161
0.011725272051990032 0.014406660571694374 0.050248149782419205
0.083111494779586792 0.010870840400457382 0.053443476557731628
0.17986483871936798 0.013831254094839096 0.057082455605268478
0.2693360447883606 0.016159117221832275 0.059526465833187103
0.35469913482666016 0.018750928342342377 0.062757261097431183
0.44015848636627197 0.030737917870283127 0.067492477595806122
0.52529716491699219 0.044195078313350677 0.07288583368062973
0.60810697078704834 0.051108609884977341 0.076369583606719971
0.68688440322875977 0.049067165702581406 0.07764783501625061
0.76137948036193848 0.041014891117811203 0.081342242658138275
0.83365315198898315 0.036958403885364532 0.088396228849887848
0.00010696111712604761 0.096491582691669464 0.064764149487018585
1.1862960491271224e-05 0.099051788449287415 0.064993806183338165
0.012825116515159607 0.095600023865699768 0.06247851625084877
0.091346621513366699 0.090547136962413788 0.061206307262182236
0.19142036139965057 0.093053095042705536 0.060330230742692947
0.28155049681663513 0.094413295388221741 0.062002070248126984
0.36778548359870911 0.094056315720081329 0.067271560430526733
0.4538886547088623 0.10211093723773956 0.072211667895317078
0.53886443376541138 0.11173282563686371 0.07906775176525116
0.62178486585617065 0.115723617374897 0.084493748843669891
0.70145392417907715 0.11439166963100433 0.085121810436248779
0.77602225542068481 0.11108919233083725 0.088658638298511505
0.84766846895217896 0.11131231486797333 0.097623847424983978
0 0.1940457820892334 0.0852188840508461
0.0011614481918513775 0.19448937475681305 0.080058544874191284
0.028085716068744659 0.19369798898696899 0.077055908739566803
0.10667961090803146 0.19295099377632141 0.075366273522377014
0.20368832349777222 0.19318662583827972 0.073130525648593903
0.29451614618301392 0.19243881106376648 0.072695203125476837
0.38158431649208069 0.19068305194377899 0.077274441719055176
0.46763378381729126 0.19599361717700958 0.081427708268165588
0.55261397361755371 0.2009611576795578 0.089220590889453888
0.63560181856155396 0.20174071192741394 0.094810143113136292
0.71596789360046387 0.2011130154132843 0.091353021562099457
0.79043161869049072 0.20111523568630219 0.094463557004928589
0.86113941669464111 0.20402830839157104 0.1056673526763916
0 0.28165283799171448 0.10518094152212143
0.007892189547419548 0.2815820574760437 0.097300782799720764
0.047703538089990616 0.28439274430274963 0.092514082789421082
0.1222175732254982 0.2869228720664978 0.089522883296012878
0.21470674872398376 0.28742209076881409 0.087606929242610931
0.30648967623710632 0.28585624694824219 0.089933581650257111
0.39475968480110168 0.28530654311180115 0.09713388979434967
0.48124942183494568 0.28949099779129028 0.10267869383096695
0.56636744737625122 0.29364499449729919 0.10926222056150436
0.64991921186447144 0.29470467567443848 0.1125308945775032
0.73040866851806641 0.29589754343032837 0.10720617324113846
0.80456197261810303 0.29886141419410706 0.10878798365592957
0.87447637319564819 0.30359610915184021 0.11901362985372543
0 0.36946409940719604 0.12255392968654633
0.012809439562261105 0.36984428763389587 0.11378256231546402
