assets/lut/berat cineblue.cube
# Created by: G'MIC (https://gmic.eu)
TITLE "cineblue"
# LUT size
LUT_3D_SIZE 7
# Data domain
DOMAIN_MIN 0.0 0.0 0.0
DOMAIN_MAX 1.0 1.0 1.0
# LUT data points
0.014325520023703575 0.05208321288228035 0.055883236229419708
0.074921533465385437 0.059730678796768188 0.050492648035287857
0.16610166430473328 0.071102261543273926 0.044671300798654556
0.27747958898544312 0.075893938541412354 0.037587422877550125
0.39811408519744873 0.078325025737285614 0.030338123440742493
0.52178817987442017 0.089860297739505768 0.03034769743680954
0.65395492315292358 0.11211463809013367 0.033440385013818741
0.008257218636572361 0.093405254185199738 0.061987005174160004
0.076421104371547699 0.09357045590877533 0.049188248813152313
0.18548843264579773 0.095923222601413727 0.041353575885295868
0.31162229180335999 0.10303510725498199 0.033358719199895859
0.45011284947395325 0.11086350679397583 0.021563615649938583
0.58604103326797485 0.13089434802532196 0.020393341779708862
0.72468739748001099 0.16276519000530243 0.022292971611022949
2.8004365958622657e-05 0.14200678467750549 0.055865418165922165
0.04775753989815712 0.14868322014808655 0.037328127771615982
0.19074688851833344 0.13875369727611542 0.018520250916481018
0.35642939805984497 0.12805096805095673 0.012506731785833836
0.49911701679229736 0.1446814090013504 0.011107605881989002
0.63805466890335083 0.17926976084709167 0.015526790171861649
0.78056645393371582 0.22253844141960144 0.016223205253481865
0 0.19059999287128448 0.035951994359493256
0.0050254371017217636 0.20162306725978851 0.026990508660674095
0.14231711626052856 0.22031475603580475 0.0062108659185469151
0.37160268425941467 0.1944291740655899 0.0006881863228045404
0.54362338781356812 0.18554610013961792 0.0072628543712198734
0.67583709955215454 0.22700758278369904 0.019054757431149483
0.81525325775146484 0.28010931611061096 0.019759727641940117
0 0.24421167373657227 0.0073827258311212063
0 0.25562658905982971 0.0068923649378120899
0.10000292956829071 0.29454478621482849 0.0019926782697439194
0.33819112181663513 0.32667335867881775 0.011663414537906647
0.56637197732925415 0.28287041187286377 0.013597301207482815
0.71584302186965942 0.27197983860969543 0.0129128098487854
0.83905881643295288 0.32378855347633362 0.021601403132081032
0 0.32001614570617676 0.0020836624316871166
0.00012027515913359821 0.33007428050041199 0.0045455032959580421
0.081567071378231049 0.36822575330734253 0.007483792956918478
0.30527999997138977 0.43083927035331726 0.022462043911218643
0.54868030548095703 0.4414842426776886 0.037258703261613846
0.72387045621871948 0.38172686100006104 0.024004828184843063
0.84807658195495605 0.37946227192878723 0.020042134448885918
0.013871660456061363 0.41787922382354736 0.033168941736221313
0.011992211453616619 0.42427235841751099 0.03145892545580864
0.062730200588703156 0.44856610894203186 0.028268447145819664
0.26963099837303162 0.50946921110153198 0.026758380234241486
0.52682805061340332 0.56914699077606201 0.042404547333717346
0.69582301378250122 0.57337778806686401 0.058395251631736755
0.83195549249649048 0.51770609617233276 0.041907038539648056
0.0023864447139203548 0.054064717143774033 0.094879209995269775
0.045850161463022232 0.065557383000850677 0.091662958264350891
0.13859745860099792 0.077703289687633514 0.085301972925662994
0.25793272256851196 0.084995582699775696 0.075065866112709045
0.37735059857368469 0.090938538312911987 0.066183499991893768
0.50984758138656616 0.10436747223138809 0.061358477920293808
0.6640506386756897 0.12673960626125336 0.056056991219520569
0.0034018573351204395 0.088774904608726501 0.10455072671175003
0.050107289105653763 0.10083521157503128 0.10223408043384552
0.1584407240152359 0.11266548186540604 0.095880724489688873
0.29025211930274963 0.12331779301166534 0.084912799298763275
0.43916875123977661 0.12844353914260864 0.063034713268280029
0.58598721027374268 0.14718286693096161 0.052325259894132614
0.74324893951416016 0.17766937613487244 0.044698573648929596
0 0.14285755157470703 0.11073502153158188
0.027467511594295502 0.15723329782485962 0.10180194675922394
0.15527811646461487 0.16387726366519928 0.081002853810787201
0.33210340142250061 0.16097649931907654 0.067436277866363525
0.4889238178730011 0.17257097363471985 0.053325966000556946
0.64330929517745972 0.2023760974407196 0.043394051492214203
0.80321967601776123 0.24458369612693787 0.033485770225524902
0 0.20973241329193115 0.1034141406416893
0.0013661104021593928 0.222831130027771 0.092586740851402283
0.10952077805995941 0.24136865139007568 0.060344308614730835
0.35126420855522156 0.22031548619270325 0.025177257135510445
0.54170042276382446 0.20439019799232483 0.02522766962647438
0.68160241842269897 0.24521233141422272 0.029204694554209709
0.82673949003219604 0.3043370246887207 0.02898273803293705
0 0.26634213328361511 0.060456681996583939
0 0.27517890930175781 0.063913367688655853
0.079632975161075592 0.30534261465072632 0.041618827730417252
0.32133018970489502 0.34087032079696655 0.027049914002418518
0.56358927488327026 0.29570090770721436 0.021741859614849091
0.71729439496994019 0.27823197841644287 0.015203348360955715
0.83977913856506348 0.33025351166725159 0.023567125201225281
0.00015460743452422321 0.33606883883476257 0.034885019063949585
1.9148284991388209e-05 0.34356909990310669 0.04334137961268425
0.069143883883953094 0.36915075778961182 0.029140681028366089
0.30004271864891052 0.42977091670036316 0.022211456671357155
0.54691219329833984 0.44711560010910034 0.038690395653247833
0.722248375415802 0.3853568434715271 0.02770518884062767
0.8454660177230835 0.38172143697738647 0.020559767261147499
0.013602118007838726 0.42246752977371216 0.042142890393733978
0.012734656222164631 0.4294508695602417 0.047482047230005264
0.062728509306907654 0.44831034541130066 0.033797722309827805
0.26463791728019714 0.51094549894332886 0.020384903997182846
0.52585279941558838 0.57080173492431641 0.040240641683340073
0.69633388519287109 0.57500946521759033 0.058632928878068924
0.83000320196151733 0.51901370286941528 0.041190773248672485
0 0.062654115259647369 0.13960230350494385
0.014721709303557873 0.075577452778816223 0.13911475241184235
0.091417767107486725 0.087030895054340363 0.13074958324432373
0.21992050111293793 0.093884475529193878 0.11714334040880203
0.33337649703025818 0.10674656927585602 0.11275994032621384
0.47027760744094849 0.12242870032787323 0.10829214751720428
0.64788681268692017 0.14492033421993256 0.097883276641368866
2.5850184101727791e-05 0.087907396256923676 0.15264172852039337
0.016381969675421715 0.10533919930458069 0.16189426183700562
0.097694188356399536 0.12226563692092896 0.16051106154918671
0.24143341183662415 0.13843271136283875 0.1480737179517746
0.38781586289405823 0.15519687533378601 0.13631673157215118
0.54904341697692871 0.17375905811786652 0.11956924945116043
0.73345375061035156 0.19944719970226288 0.10180263221263885
0 0.1354784369468689 0.17039886116981506
0.0066062775440514088 0.15351791679859161 0.18298201262950897
0.092867352068424225 0.1739271879196167 0.18178005516529083
0.26998218894004822 0.19330048561096191 0.16815036535263062
0.44704696536064148 0.21472926437854767 0.15373525023460388
0.61917990446090698 0.243304044008255 0.12875223159790039
0.80888742208480835 0.27918875217437744 0.10437115281820297
0 0.22614651918411255 0.20224028825759888
0.00047855751472525299 0.23898448050022125 0.2050415426492691
0.06974155455827713 0.2606884241104126 0.18337994813919067
0.28242054581642151 0.26347199082374573 0.13164491951465607
0.50688636302947998 0.26287895441055298 0.12018546462059021
0.66413587331771851 0.30301955342292786 0.11006452143192291
0.82658374309539795 0.36756837368011475 0.0999770388007164
0.00042230941471643746 0.32809484004974365 0.21266829967498779
0.0011107202153652906 0.34043604135513306 0.22554168105125427
0.044573452323675156 0.35606670379638672 0.19059069454669952
0.23208519816398621 0.37200081348419189 0.11522203683853149
0.52282047271728516 0.3480224609375 0.071769118309020996
0.69528818130493164 0.33935648202896118 0.064882256090641022
0.82755416631698608 0.39871856570243835 0.062651358544826508
0.010400764644145966 0.41493386030197144 0.20205630362033844
0.0070816040970385075 0.42334383726119995 0.2157023698091507
0.031926486641168594 0.4179350733757019 0.17488686740398407
0.19401270151138306 0.44732078909873962 0.10290785878896713
0.48630467057228088 0.48131731152534485 0.071098804473876953
0.70215064287185669 0.43758061528205872 0.055635295808315277
0.83608710765838623 0.42794463038444519 0.048598930239677429
0.017543762922286987 0.47871440649032593 0.16508966684341431
0.014421440660953522 0.48514962196350098 0.17479938268661499
0.0323525071144104 0.4832761287689209 0.15649925172328949
0.17858444154262543 0.52869850397109985 0.092047117650508881
0.4758296012878418 0.57764726877212524 0.062866941094398499
0.677287757396698 0.59860694408416748 0.071427181363105774
0.82047766447067261 0.54263776540756226 0.061801236122846603
0 0.085382334887981415 0.19744963943958282
4.6673943870700896e-05 0.09584459662437439 0.19717076420783997
0.033089477568864822 0.10502395778894424 0.18901661038398743
0.13985855877399445 0.11131963133811951 0.17130304872989655
0.28830322623252869 0.11777978390455246 0.15255284309387207
0.42154568433761597 0.13502278923988342 0.15421067178249359
0.59093445539474487 0.16051241755485535 0.15335799753665924
0 0.10956401377916336 0.21724905073642731
4.3981213821098208e-05 0.12110754102468491 0.22728778421878815
0.031244255602359772 0.13493058085441589 0.22665490210056305
0.15687356889247894 0.15165197849273682 0.20702111721038818
0.32524222135543823 0.17257654666900635 0.19273270666599274
0.49223434925079346 0.19706054031848907 0.19186984002590179
0.68062001466751099 0.22977285087108612 0.18890050053596497
3.5005457903025672e-05 0.13268658518791199 0.22681200504302979
0 0.15176787972450256 0.25251081585884094
0.03838285431265831 0.17320485413074493 0.26542988419532776
0.16738744080066681 0.20648467540740967 0.26027452945709229
0.37064084410667419 0.24463541805744171 0.24613271653652191
0.56410539150238037 0.28402730822563171 0.24639523029327393
0.76575535535812378 0.32782703638076782 0.24284325540065765
0 0.18775302171707153 0.24731545150279999
0 0.21130803227424622 0.277353435754776
0.0338161401450634 0.23833119869232178 0.29839393496513367
0.1573842316865921 0.2768937349319458 0.29841357469558716
0.41412928700447083 0.32173469662666321 0.28243356943130493
0.62189847230911255 0.3686327338218689 0.28058788180351257
0.80610960721969604 0.42928767204284668 0.28622746467590332
0.0022311341017484665 0.3094007670879364 0.31472927331924438
0.0069656819105148315 0.32427087426185608 0.33475407958030701
0.033749256283044815 0.36097249388694763 0.35515958070755005
0.11615633219480515 0.39731130003929138 0.3293355405330658
0.41970676183700562 0.41006788611412048 0.24316912889480591
0.64312350749969482 0.42284289002418518 0.24421082437038422
0.79596728086471558 0.48639646172523499 0.24894264340400696
0.025170300155878067 0.46646592020988464 0.41174659132957458
0.032590065151453018 0.48048293590545654 0.43109413981437683
0.045440405607223511 0.49417629837989807 0.42898193001747131
0.10745469480752945 0.5030447244644165 0.35630905628204346
0.35512250661849976 0.51351666450500488 0.22787654399871826
0.64327162504196167 0.51439374685287476 0.17841900885105133
0.8014456033706665 0.52588701248168945 0.18618500232696533
0.047862406820058823 0.59370774030685425 0.4660455584526062
0.047138769179582596 0.59605729579925537 0.47179573774337769
0.048615548759698868 0.58873504400253296 0.45224353671073914
0.10269714146852493 0.57529163360595703 0.34772491455078125
0.32101774215698242 0.59468936920166016 0.22857937216758728
0.60325658321380615 0.63722014427185059 0.17641465365886688
0.7907109260559082 0.62982177734375 0.1556098461151123
0.0011241239262744784 0.11691996455192566 0.26468631625175476
0 0.12351575493812561 0.2633172869682312
0.014318638481199741 0.1281244158744812 0.25481456518173218
0.062801986932754517 0.13607384264469147 0.24241989850997925
0.1886870265007019 0.14129987359046936 0.21833069622516632
0.36003398895263672 0.15021872520446777 0.1968517005443573
0.5514950156211853 0.17611676454544067 0.19021701812744141
0.0054397433996200562 0.14080147445201874 0.28917193412780762
0.00025109684793278575 0.15080130100250244 0.2990318238735199
0.009968985803425312 0.15941065549850464 0.29860526323318481
0.068376563489437103 0.17295278608798981 0.28602367639541626
0.21889273822307587 0.19060444831848145 0.26120445132255554
0.42744475603103638 0.21423053741455078 0.2441670149564743
0.63555794954299927 0.25357151031494141 0.24857322871685028
0.0063677318394184113 0.15999467670917511 0.30345091223716736
0.0044821496121585369 0.17722965776920319 0.32718315720558167
0.015956085175275803 0.19458426535129547 0.34532058238983154
0.079403862357139587 0.22003704309463501 0.34668877720832825
0.2587524950504303 0.25824347138404846 0.32526507973670959
0.50651299953460693 0.30607515573501587 0.31428200006484985
0.72146618366241455 0.36115658283233643 0.33354431390762329
0.0021782070398330688 0.18966299295425415 0.3144543468952179
0.0075582917779684067 0.20375566184520721 0.33772116899490356
0.027715360745787621 0.23292109370231628 0.3741919994354248
0.077836804091930389 0.27290907502174377 0.40830519795417786
0.27933895587921143 0.33387553691864014 0.40212976932525635
0.5547027587890625 0.40865340828895569 0.39626428484916687
0.75918340682983398 0.47109609842300415 0.42382526397705078
0.0027116811834275723 0.25014474987983704 0.34698739647865295
0.011433126404881477 0.25903797149658203 0.36124885082244873
0.041564866900444031 0.2959916889667511 0.39817586541175842
0.06193765252828598 0.35467529296875 0.45826485753059387
0.24876199662685394 0.42133417725563049 0.45988810062408447
0.55638223886489868 0.49054893851280212 0.44225510954856873
0.75164228677749634 0.5433199405670166 0.4541301429271698
0.025529300794005394 0.38973346352577209 0.45100858807563782
0.032682590186595917 0.39762085676193237 0.46486875414848328
0.052495799958705902 0.43008142709732056 0.4937693178653717
0.071704015135765076 0.4838433563709259 0.52822196483612061
0.21945156157016754 0.5386003851890564 0.49963057041168213
0.54329502582550049 0.57154977321624756 0.41569453477859497
0.7565644383430481 0.59730350971221924 0.42361247539520264
0.062822066247463226 0.58390116691589355 0.60922783613204956
0.062173686921596527 0.58151382207870483 0.60981321334838867
0.067830897867679596 0.5892147421836853 0.61014360189437866
0.093106120824813843 0.62184113264083862 0.60907202959060669
0.21055777370929718 0.64386522769927979 0.53374850749969482
0.50599211454391479 0.66603833436965942 0.42176854610443115
0.75424814224243164 0.67872118949890137 0.37205937504768372
0.0057410593144595623 0.15179914236068726 0.34070467948913574
0.0016893872525542974 0.15646624565124512 0.33877462148666382
0.0062228781171143055 0.15701085329055786 0.32883599400520325
0.031593367457389832 0.15932768583297729 0.31206557154655457
0.10565737634897232 0.16751286387443542 0.29293018579483032
0.27564412355422974 0.17472162842750549 0.25682026147842407
0.50741231441497803 0.19632841646671295 0.22670227289199829
0.014036844484508038 0.17846955358982086 0.37188154458999634
0.0094586694613099098 0.18815983831882477 0.38140109181404114
0.0095324944704771042 0.19333522021770477 0.38128271698951721
0.034014038741588593 0.20051209628582001 0.36911013722419739
0.12421084940433502 0.21665495634078979 0.34878432750701904
0.3346686065196991 0.23760548233985901 0.31078025698661804
0.59348249435424805 0.27267560362815857 0.28789061307907104
0.017471194267272949 0.20248129963874817 0.39757594466209412
0.018728382885456085 0.21978119015693665 0.42041125893592834
0.020011976361274719 0.23555096983909607 0.43852433562278748
0.043223049491643906 0.25142103433609009 0.44221785664558411
0.15443670749664307 0.28079894185066223 0.42524969577789307
0.41027325391769409 0.32846668362617493 0.38862150907516479
0.68608266115188599 0.38108155131340027 0.37717357277870178
0.015280360355973244 0.22756730020046234 0.41475522518157959
0.025383623316884041 0.24508917331695557 0.43963968753814697
0.040216587483882904 0.27352288365364075 0.47372761368751526
0.06110706552863121 0.300851970911026 0.50267857313156128
0.17386806011199951 0.34208670258522034 0.50071191787719727
0.44953423738479614 0.41946700215339661 0.47353804111480713
0.71856510639190674 0.48308289051055908 0.47112572193145752
0.012618734501302242 0.26389646530151367 0.43232610821723938
0.024600833654403687 0.2725713849067688 0.44647172093391418
0.047355428338050842 0.30072322487831116 0.47726261615753174
0.065151184797286987 0.3431323766708374 0.53113692998886108
0.16504257917404175 0.39718377590179443 0.55741071701049805
0.44874712824821472 0.4931856095790863 0.5449334979057312
0.71373134851455688 0.56718248128890991 0.54636079072952271
0.026311986148357391 0.34024474024772644 0.47852006554603577
0.031692877411842346 0.34156745672225952 0.4827081561088562
0.049607325345277786 0.3640209436416626 0.50292432308197021
0.075472541153430939 0.41681501269340515 0.5586475133895874
0.14694945514202118 0.48557749390602112 0.60956490039825439
0.4191170334815979 0.57084685564041138 0.59584248065948486
0.7103080153465271 0.63863927125930786 0.58574098348617554
0.057332132011651993 0.4927116334438324 0.59754961729049683
0.055705711245536804 0.4876217246055603 0.59220141172409058
0.060305066406726837 0.49315303564071655 0.59407836198806763
0.089033477008342743 0.53934711217880249 0.6294524073600769
0.14326539635658264 0.60358190536499023 0.66667085886001587
0.37267309427261353 0.66856545209884644 0.63299643993377686
0.71480739116668701 0.71102970838546753 0.56510978937149048
0.003771419171243906 0.18870086967945099 0.42527309060096741
0.00020306157239247113 0.19215686619281769 0.42469590902328491
1.7233456674148329e-05 0.19203706085681915 0.41501045227050781
0.012554333545267582 0.18835431337356567 0.3951059877872467
0.059916432946920395 0.19663068652153015 0.37737953662872314
0.17268779873847961 0.21703600883483887 0.36006984114646912
0.4389406144618988 0.23605979979038239 0.30204427242279053
0.015355592593550682 0.21922090649604797 0.46412166953086853
0.011591683141887188 0.22882863879203796 0.47471043467521667
0.0076378467492759228 0.23252889513969421 0.47531378269195557
0.020150039345026016 0.23434089124202728 0.46259760856628418
0.072053290903568268 0.24715578556060791 0.44814512133598328
0.22026954591274261 0.27578872442245483 0.42384344339370728
0.52716410160064697 0.30797079205513 0.3611445426940918
0.023337464779615402 0.24828921258449554 0.50011348724365234
0.025923306122422218 0.26587638258934021 0.52450370788574219
0.025305729359388351 0.28060266375541687 0.54269605875015259
0.033313959836959839 0.29151588678359985 0.54694443941116333
0.095587022602558136 0.3122456967830658 0.53939783573150635
0.2818138599395752 0.36194413900375366 0.51813775300979614
0.63170039653778076 0.41360816359519958 0.45357125997543335
0.026322832331061363 0.27604997158050537 0.52599990367889404
0.036991927772760391 0.29713398218154907 0.55614238977432251
0.04737873375415802 0.32344871759414673 0.58960497379302979
0.062660112977027893 0.34765690565109253 0.61415284872055054
0.12017883360385895 0.37495666742324829 0.61894756555557251
0.31737065315246582 0.44026488065719604 0.6017494797706604
0.66738259792327881 0.50931942462921143 0.55470240116119385
0.026445815339684486 0.30608373880386353 0.54155886173248291
0.036368921399116516 0.31966310739517212 0.5616912841796875
0.053474515676498413 0.35124367475509644 0.59871697425842285
0.084502801299095154 0.38967403769493103 0.6426316499710083
0.13796301186084747 0.42575287818908691 0.66709375381469727
0.32863032817840576 0.49414822459220886 0.65417301654815674
0.65889257192611694 0.57960164546966553 0.62003839015960693
0.034316956996917725 0.35346853733062744 0.56217920780181885
0.038163203746080399 0.35668304562568665 0.56884497404098511
0.052736096084117889 0.38031631708145142 0.59519124031066895
0.086438164114952087 0.4240836501121521 0.641593337059021
0.14074420928955078 0.47323992848396301 0.68399274349212646
0.33380496501922607 0.54669654369354248 0.68932390213012695
0.65591895580291748 0.64374691247940063 0.67407369613647461
0.054112810641527176 0.44690138101577759 0.62185376882553101
0.051672738045454025 0.44306913018226624 0.61977320909500122
0.057157926261425018 0.45183762907981873 0.62676674127578735
0.08382861316204071 0.49337553977966309 0.66634875535964966
0.12628327310085297 0.54440855979919434 0.70650702714920044
0.30105680227279663 0.62038379907608032 0.72574645280838013
0.65399551391601562 0.72182703018188477 0.70611977577209473
