assets/lut/berat film yellow.cube
TITLE "film yellow"
LUT_3D_SIZE 6
DOMAIN_MIN 0.0 0.0 0.0
DOMAIN_MAX 1.0 1.0 1.0
0.000000 0.000000 0.000000
0.030295 0.000000 0.000000
0.150206 0.000000 0.000000
0.418299 0.000000 0.000000
0.683049 0.000000 0.000000
0.815915 0.000000 0.000000
0.000000 0.054035 0.000000
0.036404 0.055943 0.000000
0.166093 0.049613 0.000000
0.447446 0.008963 0.000000
0.720016 0.000000 0.000000
0.872709 0.008746 0.000000
0.000000 0.190858 0.000000
0.018489 0.215659 0.000000
0.205509 0.236926 0.000000
0.538184 0.237969 0.000000
0.825470 0.262499 0.000000
0.000000 0.223312 0.000000
0.000000 0.493328 0.000000
0.008116 0.557267 0.000000
0.231843 0.597303 0.000000
0.579249 0.607067 0.000000
0.850699 0.635976 0.000000
0.000000 0.541379 0.000000
0.000000 0.836405 0.000000
0.098570 0.895776 0.014218
0.331999 0.921029 0.036691
0.659425 0.905140 0.019689
0.888623 0.901234 0.014726
0.000000 0.874858 0.000000
0.100450 1.000000 0.105180
0.214722 1.000000 0.127330
0.425783 1.000000 0.112367
0.723573 1.000000 0.066381
0.919765 1.000000 0.042622
0.000000 0.000000 0.000000
0.068919 0.000000 0.047474
0.248785 0.000000 0.025779
0.540273 0.000000 0.000000
0.750850 0.000000 0.000000
0.000000 0.000000 0.046489
0.054670 0.000000 0.048618
0.077243 0.058043 0.055045
0.275011 0.037808 0.034722
0.579472 0.004797 0.002442
0.802880 0.006507 0.003749
0.000000 0.070755 0.051923
0.061718 0.075132 0.055902
0.066333 0.237295 0.043160
0.313598 0.255225 0.055784
0.657450 0.261958 0.057143
0.901348 0.299272 0.089044
0.000000 0.240170 0.003022
0.037083 0.278784 0.031455
0.077618 0.596485 0.044139
0.361192 0.622387 0.064568
0.702262 0.633568 0.070394
0.922172 0.671268 0.102896
0.000000 0.583792 0.002328
0.053647 0.644974 0.040553
0.171056 0.927738 0.135218
0.450265 0.930042 0.137108
0.759311 0.909196 0.115984
0.935879 0.911257 0.117908
0.024155 0.913276 0.101227
0.163664 0.962261 0.150096
0.266285 1.000000 0.227707
0.524425 1.000000 0.195487
0.804488 1.000000 0.151682
0.954716 1.000000 0.139337
0.000000 0.000000 0.060050
0.059797 0.000000 0.062235
0.120736 0.000000 0.195053
0.371681 0.000000 0.157500
0.647071 0.000000 0.113311
0.797702 0.000000 0.106224
0.004602 0.000000 0.195861
0.099458 0.000000 0.199729
0.138704 0.051562 0.218366
0.410756 0.018235 0.189628
0.700423 0.004608 0.169789
0.836202 0.020006 0.198022
0.008514 0.068536 0.216286
0.115944 0.072712 0.224680
0.159834 0.260769 0.248023
0.480199 0.271084 0.258033
0.797173 0.288117 0.274767
0.938554 0.333500 0.317671
0.000869 0.263675 0.199949
0.124670 0.309345 0.244744
0.177682 0.625946 0.272186
0.509552 0.639507 0.285616
0.814794 0.655964 0.302107
0.939728 0.693280 0.337471
0.002461 0.621887 0.218168
0.144739 0.677645 0.274221
0.275389 0.941058 0.368902
0.589735 0.921371 0.354192
0.849239 0.903226 0.341143
0.934117 0.911236 0.352544
0.087208 0.944235 0.349481
0.252385 0.974950 0.385450
0.351104 1.000000 0.450792
0.643326 1.000000 0.409447
0.874103 1.000000 0.380592
0.940465 0.958730 0.376061
0.005204 0.000000 0.234900
0.104182 0.000000 0.238674
0.269420 0.000000 0.485490
0.558823 0.000000 0.439071
0.748571 0.000000 0.423042
0.000000 0.000000 0.505154
0.048270 0.000000 0.512920
0.227385 0.000000 0.495901
0.339927 0.013118 0.519223
0.645947 0.001922 0.498463
0.844591 0.013658 0.525249
0.000000 0.051866 0.532057
0.073522 0.059325 0.545101
0.301707 0.043717 0.534986
0.414821 0.272758 0.596039
0.748924 0.285365 0.608826
0.954348 0.330770 0.654282
0.000000 0.252331 0.523611
0.085491 0.303265 0.574461
0.365505 0.329083 0.600133
0.441710 0.641474 0.624982
0.766988 0.651473 0.635020
0.951875 0.687224 0.670813
0.000000 0.612800 0.546242
0.101962 0.672893 0.606925
0.394930 0.695845 0.630514
0.505567 0.919378 0.689969
0.791320 0.892784 0.668012
0.936261 0.893927 0.673746
0.052783 0.931223 0.674762
0.195492 0.966122 0.714700
0.468567 0.951246 0.704845
0.556825 1.000000 0.741032
0.817408 1.000000 0.702961
0.943900 0.997139 0.699178
0.000000 0.000000 0.553055
0.056234 0.000000 0.560167
0.254007 0.000000 0.538416
0.338960 0.000000 0.738201
0.617029 0.000000 0.692943
0.770747 0.000000 0.686852
0.000000 0.000000 0.780077
0.067119 0.000000 0.781617
0.296724 0.000000 0.747750
0.386934 0.007715 0.775413
0.689378 0.003604 0.760861
0.875267 0.022452 0.797335
0.000000 0.042552 0.796126
0.089929 0.052273 0.807237
0.352571 0.035444 0.791643
0.480937 0.284833 0.857110
0.800893 0.300165 0.868096
0.987522 0.352189 0.915612
0.000000 0.265840 0.793103
0.125329 0.320485 0.843246
0.432471 0.340943 0.859091
0.508302 0.653206 0.870718
0.813524 0.663608 0.876642
0.974738 0.698069 0.906640
0.000327 0.634044 0.809174
0.146724 0.691707 0.862965
0.460204 0.706483 0.873901
0.557437 0.912651 0.904926
0.820100 0.887007 0.879396
0.946253 0.889602 0.882102
0.078199 0.943110 0.915977
0.229379 0.968283 0.941650
0.517601 0.943141 0.916986
0.600192 1.000000 0.931936
0.838785 0.994918 0.894565
0.951190 0.990109 0.890442
0.000000 0.000000 0.804306
0.065130 0.000000 0.805973
0.292854 0.000000 0.771676
0.430884 0.000000 0.841306
0.679740 0.000000 0.805258
0.191462 0.000000 0.879059
0.001252 0.000000 0.904023
0.116951 0.000000 0.896550
0.388907 0.000000 0.850996
0.498403 0.009119 0.889637
0.774443 0.013781 0.893602
0.219575 0.038476 0.913048
0.009220 0.048519 0.919024
0.157956 0.057400 0.927136
0.465986 0.040183 0.909087
0.611188 0.307587 0.983322
0.889925 0.333911 0.999529
0.241270 0.280509 0.914264
0.026861 0.303342 0.936694
0.224766 0.352784 0.979803
0.562521 0.363436 0.984097
0.686285 0.672876 0.987825
0.913869 0.692355 0.999158
0.000000 0.621379 0.902196
0.065638 0.685235 0.960666
0.298306 0.723196 0.993342
0.637016 0.722505 0.987488
0.706163 0.901421 0.991235
0.892604 0.889062 0.977956
0.024325 0.934968 0.998203
0.148897 0.969969 1.000000
0.362073 0.967303 1.000000
0.667445 0.928524 0.999206
0.733883 1.000000 1.000000
0.900548 0.990490 0.984228
0.000000 0.000000 0.000000
0.000000 0.000000 0.000000
0.000000 0.000000 0.000000
0.000000 0.000000 0.000000
