assets/lut/berat orangebmp4k.cube
TITLE "orange bmp4k"
LUT_3D_SIZE 16
DOMAIN_MIN 0.0 0.0 0.0
DOMAIN_MAX 1.0 1.0 1.0
0.005371 0.009079 0.009018
0.029164 0.008969 0.009158
0.055246 0.008661 0.008959
0.082603 0.008414 0.008728
0.112025 0.008480 0.008620
0.145647 0.009038 0.008474
0.196269 0.012241 0.007687
0.271078 0.023195 0.007213
0.360181 0.043702 0.007313
0.449893 0.065346 0.007598
0.526573 0.082358 0.008270
0.591194 0.095115 0.009088
0.643824 0.103688 0.009924
0.689846 0.110189 0.010902
0.732419 0.115269 0.011832
0.771832 0.119493 0.012802
0.005954 0.032419 0.008843
0.029712 0.032283 0.008993
0.054919 0.032003 0.008900
0.082296 0.031692 0.008633
0.111588 0.031685 0.008502
0.145253 0.032230 0.008346
0.195586 0.035341 0.007546
0.269555 0.045926 0.007096
0.358207 0.066227 0.007197
0.448199 0.088011 0.007483
0.525508 0.105217 0.008150
0.590524 0.118112 0.008966
0.643581 0.126785 0.009811
0.689763 0.133372 0.010789
0.732441 0.138516 0.011719
0.772029 0.142730 0.012705
0.006926 0.057188 0.009756
0.030570 0.056841 0.009720
0.054649 0.056340 0.009488
0.082238 0.055792 0.008935
0.111585 0.055591 0.008545
0.145095 0.055911 0.008245
0.195663 0.059039 0.007395
0.270477 0.069914 0.006919
0.358854 0.090234 0.007036
0.449193 0.112245 0.007329
0.526788 0.129714 0.008002
0.592018 0.142803 0.008838
0.644875 0.151613 0.009673
0.691159 0.158414 0.010680
0.733985 0.163729 0.011598
0.773291 0.168102 0.012592
0.008963 0.085902 0.013870
0.032568 0.085539 0.013790
0.055976 0.085075 0.013582
0.083092 0.084173 0.012388
0.112516 0.083316 0.010703
0.144965 0.082980 0.009841
0.193208 0.084367 0.008055
0.268142 0.093664 0.006837
0.358635 0.114132 0.006841
0.450723 0.136685 0.007116
0.529502 0.154647 0.007794
0.594768 0.167854 0.008635
0.647658 0.176839 0.009492
0.694211 0.183872 0.010514
0.737138 0.189496 0.011408
0.776022 0.193933 0.012451
0.011394 0.116035 0.018882
0.035003 0.115755 0.018876
0.057880 0.115453 0.018820
0.083679 0.114458 0.017677
0.112870 0.113229 0.015194
0.145814 0.112299 0.012503
0.189759 0.112784 0.010178
0.258934 0.118711 0.007415
0.349179 0.136674 0.006959
0.444284 0.159453 0.007126
0.527354 0.178428 0.007680
0.595780 0.192474 0.008481
0.649831 0.201823 0.009304
0.697130 0.209072 0.010303
0.740639 0.214929 0.011196
0.779090 0.219254 0.012242
0.014247 0.147870 0.024994
0.037863 0.147887 0.025206
0.060144 0.147891 0.025427
0.084350 0.147194 0.024710
0.111865 0.145936 0.022772
0.145586 0.144233 0.018153
0.189220 0.144554 0.013881
0.252721 0.147950 0.008651
0.339057 0.161624 0.007278
0.434597 0.182534 0.007215
0.519397 0.201551 0.007726
0.591995 0.216798 0.008460
0.648298 0.226777 0.009193
0.697075 0.234380 0.010134
0.741283 0.240370 0.010965
0.778703 0.244460 0.011927
0.017598 0.183687 0.034039
0.041252 0.184341 0.034724
0.062905 0.185011 0.035465
0.085789 0.185204 0.035588
0.111003 0.184139 0.034158
0.142831 0.181715 0.030199
0.187343 0.180511 0.022093
0.251159 0.183837 0.012788
0.331141 0.193150 0.008385
0.424926 0.209837 0.007349
0.511293 0.226524 0.007395
0.586493 0.241679 0.007984
0.645869 0.252451 0.008619
0.696368 0.260380 0.009385
0.742652 0.267011 0.010184
0.780899 0.271200 0.011201
0.020825 0.226607 0.048468
0.044497 0.228995 0.050593
0.065619 0.231344 0.052710
0.087843 0.233386 0.054522
0.111904 0.233565 0.054173
0.141849 0.232091 0.052141
0.180772 0.228167 0.044112
0.247199 0.230488 0.030807
0.334447 0.239281 0.011369
0.424057 0.250115 0.007717
0.508470 0.260812 0.007080
0.584100 0.271324 0.007474
0.644473 0.280084 0.008085
0.696339 0.287950 0.008807
0.744166 0.294751 0.009618
0.784754 0.299403 0.010615
0.025197 0.283047 0.074048
0.048642 0.288088 0.078217
0.069036 0.292128 0.081625
0.090798 0.295710 0.084659
0.114758 0.297114 0.085600
0.143675 0.296223 0.084417
0.178950 0.292031 0.078899
0.230896 0.288747 0.066666
0.331352 0.297931 0.039562
0.438005 0.311683 0.008473
0.521200 0.317594 0.006150
0.594132 0.320492 0.006306
0.652212 0.319642 0.007027
0.701553 0.320910 0.007979
0.749442 0.325953 0.008799
0.791160 0.330629 0.009681
0.034190 0.357319 0.113685
0.058124 0.363741 0.118959
0.078680 0.369021 0.123369
0.100975 0.373660 0.127330
0.124807 0.375730 0.129127
0.151448 0.374855 0.128317
0.185397 0.370988 0.124743
0.226096 0.366829 0.116296
0.300384 0.365910 0.099487
0.440685 0.384303 0.047370
0.546120 0.396127 0.003798
0.617905 0.395642 0.003497
0.674841 0.389687 0.004758
0.722034 0.380604 0.005796
0.764336 0.372889 0.007173
0.803873 0.371729 0.008153
0.053010 0.435228 0.156598
0.077660 0.441589 0.161948
0.098238 0.446688 0.166298
0.120524 0.451568 0.170560
0.143751 0.454238 0.172945
0.167844 0.454454 0.173261
0.195940 0.451906 0.171216
0.233696 0.449047 0.167307
0.288664 0.447525 0.154433
0.393687 0.447975 0.134086
0.559050 0.475374 0.043615
0.646195 0.483154 0.000985
0.703789 0.477906 0.000604
0.752687 0.468334 0.002541
0.793856 0.454805 0.003870
0.828804 0.441601 0.005453
0.075631 0.513642 0.200459
0.098974 0.520112 0.205950
0.118642 0.525055 0.210234
0.140039 0.529739 0.214378
0.163169 0.532447 0.216817
0.187180 0.532938 0.217298
0.211902 0.531987 0.216725
0.245853 0.531035 0.215591
0.292487 0.532220 0.210698
0.373513 0.531392 0.188944
0.501290 0.530270 0.165253
0.654887 0.558256 0.057435
0.728314 0.562883 0.004500
0.778947 0.555649 0.000138
0.824985 0.547499 0.001095
0.863977 0.537846 0.002331
0.092378 0.588174 0.241886
0.113246 0.593481 0.246573
0.131035 0.597650 0.250344
0.151000 0.601613 0.254013
0.174813 0.603955 0.255950
0.202737 0.604124 0.255557
0.227961 0.603505 0.255025
0.256998 0.603572 0.255161
0.299316 0.607091 0.255304
0.370260 0.610722 0.241338
0.472575 0.608949 0.218657
0.598200 0.604278 0.185516
0.732514 0.628394 0.074994
0.800091 0.632688 0.013556
0.846051 0.624811 0.000192
0.890568 0.619153 0.000974
0.096635 0.657312 0.280219
0.114626 0.662348 0.284884
0.130677 0.666420 0.288723
0.149269 0.670352 0.292448
0.174352 0.672640 0.294174
0.208476 0.672221 0.292558
0.239144 0.671525 0.291170
0.268587 0.671058 0.290337
0.306526 0.673659 0.291490
0.367444 0.679622 0.285554
0.459694 0.680851 0.258543
0.564816 0.674317 0.246539
0.680078 0.668081 0.201302
0.805790 0.694967 0.097555
0.867521 0.695944 0.023930
0.908710 0.686650 0.000049
0.093879 0.724807 0.318001
0.110947 0.729105 0.321985
0.126459 0.732496 0.325148
0.144999 0.735820 0.328305
0.170832 0.737727 0.329678
0.206569 0.737587 0.328241
0.243391 0.736667 0.325944
0.278490 0.735482 0.323680
0.314200 0.735394 0.322525
0.363816 0.740051 0.320348
0.449378 0.744299 0.300596
0.546310 0.744026 0.278314
0.650412 0.736908 0.272374
0.763517 0.734540 0.216221
0.880901 0.757948 0.111858
0.930845 0.752719 0.028539
0.096162 0.787243 0.350484
0.111897 0.790575 0.353609
0.126149 0.793042 0.356005
0.143584 0.795669 0.358618
0.169675 0.797432 0.359898
0.205707 0.798154 0.359370
0.244343 0.798076 0.357869
0.283942 0.797052 0.355334
0.322319 0.796262 0.353013
0.363886 0.798308 0.351399
0.437578 0.804730 0.340643
0.534471 0.809103 0.314121
0.625601 0.808902 0.305769
0.727345 0.801510 0.299489
0.839757 0.801817 0.237582
0.949752 0.824521 0.149203
0.005078 0.009349 0.032657
0.028680 0.009256 0.033088
0.054814 0.008991 0.033016
0.082187 0.008784 0.032877
0.111611 0.008848 0.032765
0.145296 0.009401 0.032572
0.195745 0.012594 0.031774
0.270422 0.023496 0.031299
0.359067 0.043860 0.031405
0.448726 0.065518 0.031686
0.525815 0.082685 0.032344
0.590537 0.095471 0.033153
0.643400 0.104117 0.033982
0.689447 0.110672 0.034941
0.732099 0.115801 0.035928
0.771593 0.120054 0.036867
0.005339 0.032844 0.032336
0.029023 0.032717 0.032652
0.054579 0.032403 0.032615
0.081934 0.032076 0.032439
0.111295 0.032097 0.032377
0.144976 0.032643 0.032285
0.195005 0.035710 0.031510
0.268691 0.046195 0.031081
0.356963 0.066359 0.031207
0.447227 0.088232 0.031500
0.524771 0.105569 0.032166
0.589968 0.118529 0.032990
0.643184 0.127270 0.033821
0.689449 0.133888 0.034800
0.732265 0.139079 0.035777
0.771819 0.143360 0.036749
0.006143 0.057538 0.033158
0.029772 0.057310 0.033321
0.054040 0.056730 0.033110
0.081782 0.056062 0.032542
0.111264 0.055848 0.032225
0.144880 0.056212 0.032027
0.195138 0.059325 0.031245
0.269646 0.070083 0.030819
0.357893 0.090408 0.030960
0.448364 0.112423 0.031282
0.526333 0.130027 0.031968
0.591612 0.143163 0.032810
0.644629 0.152013 0.033654
0.691014 0.158848 0.034651
0.733902 0.164254 0.035623
0.773217 0.168651 0.036613
0.008078 0.086270 0.037279
0.031671 0.085935 0.037310
0.055268 0.085493 0.037177
0.082446 0.084490 0.036003
0.112096 0.083542 0.034298
0.144663 0.083234 0.033530
0.192780 0.084643 0.031800
0.267739 0.093916 0.030654
0.357903 0.114288 0.030694
0.450268 0.136912 0.030991
0.529207 0.154928 0.031692
0.594650 0.168162 0.032557
0.647633 0.177209 0.033416
0.694259 0.184250 0.034435
0.737287 0.189902 0.035329
0.776167 0.194324 0.036461
0.010418 0.116370 0.042262
0.034055 0.116113 0.042339
0.057159 0.115868 0.042384
0.082951 0.114867 0.041320
0.112353 0.113567 0.038858
0.145467 0.112620 0.036173
0.189579 0.113102 0.033859
0.258778 0.119090 0.031152
0.348831 0.136988 0.030741
0.443857 0.159722 0.030943
0.527016 0.178705 0.031524
0.595757 0.192841 0.032353
0.649798 0.202207 0.033172
0.697256 0.209464 0.034200
0.740704 0.215329 0.035077
0.779154 0.219632 0.036201
0.013230 0.148235 0.048407
0.036876 0.148263 0.048663
0.059430 0.148352 0.049005
0.083711 0.147738 0.048417
0.111251 0.146507 0.046580
0.145148 0.144763 0.041965
0.189292 0.145105 0.037585
0.253162 0.148624 0.032335
0.339781 0.162357 0.030995
0.435063 0.183112 0.030964
0.519696 0.202048 0.031500
0.592193 0.217256 0.032263
0.648481 0.227231 0.033001
0.697287 0.234816 0.033957
0.741589 0.240861 0.034779
0.778718 0.244850 0.035787
0.016540 0.184192 0.057545
0.040147 0.184915 0.058337
0.062211 0.185662 0.059173
0.085256 0.185956 0.059407
0.110534 0.185070 0.058158
0.142565 0.182764 0.054333
0.187433 0.181577 0.046184
0.251950 0.185005 0.036632
0.332535 0.194320 0.032023
0.425967 0.210746 0.031023
0.512262 0.227288 0.031081
0.587167 0.242322 0.031703
0.646353 0.253011 0.032355
0.696827 0.260945 0.033139
0.743050 0.267531 0.033974
0.781217 0.271687 0.034982
0.019783 0.227653 0.072454
0.043517 0.230174 0.074709
0.064918 0.232629 0.076932
0.087361 0.234689 0.078767
0.111532 0.235049 0.078589
0.141669 0.233708 0.076728
0.180745 0.229764 0.068717
0.247805 0.232135 0.055246
0.336281 0.241176 0.035039
0.426250 0.252041 0.031306
0.510012 0.262187 0.030725
0.585140 0.272215 0.031146
0.645214 0.280770 0.031788
0.696959 0.288563 0.032539
0.744812 0.295368 0.033356
0.784919 0.299886 0.034356
0.024136 0.284923 0.098673
0.047679 0.289893 0.102816
0.068349 0.294065 0.106336
0.090388 0.297737 0.109483
0.114617 0.299432 0.110674
0.143722 0.298610 0.109622
0.179174 0.294569 0.104229
0.231120 0.291062 0.091868
0.332612 0.300435 0.064992
0.440511 0.314342 0.032085
0.523591 0.320090 0.029672
0.596270 0.322761 0.029886
0.653711 0.321415 0.030655
0.702908 0.322237 0.031611
0.750435 0.326847 0.032490
0.791487 0.331274 0.033363
0.033406 0.359509 0.138551
0.057555 0.366164 0.144038
0.078407 0.371351 0.148385
0.101060 0.375990 0.152420
0.125038 0.378087 0.154258
0.151784 0.377451 0.153699
0.185749 0.373616 0.150176
0.226601 0.369698 0.141959
0.300845 0.368437 0.124905
0.443367 0.387344 0.071810
0.549086 0.399394 0.027165
0.620320 0.398492 0.026952
0.676959 0.392556 0.028282
0.723891 0.383016 0.029358
0.765955 0.374796 0.030747
0.804785 0.373247 0.031758
0.052652 0.437436 0.181542
0.077452 0.443909 0.186988
0.098279 0.449146 0.191471
0.120685 0.453903 0.195643
0.144057 0.456728 0.198183
0.168259 0.456970 0.198555
0.196711 0.454699 0.196755
0.234447 0.451839 0.192847
0.289967 0.450656 0.180178
0.396245 0.451053 0.159365
0.560660 0.478002 0.069872
0.648895 0.486381 0.024852
0.705804 0.480855 0.024162
0.754761 0.471343 0.026040
0.795932 0.457888 0.027376
0.830346 0.444627 0.028999
0.074975 0.515970 0.225487
0.098635 0.522345 0.230947
0.118516 0.527399 0.235334
0.140113 0.532024 0.239454
0.163425 0.534706 0.241857
0.187670 0.535477 0.242604
0.212463 0.534574 0.242077
0.246730 0.533977 0.241260
0.293585 0.535236 0.236374
0.375670 0.534434 0.214274
0.502898 0.532907 0.191393
0.656840 0.560797 0.082454
0.730339 0.565654 0.028304
0.780744 0.558374 0.023673
0.826910 0.550298 0.024680
0.865757 0.541177 0.025882
0.091329 0.590152 0.266677
0.112455 0.595550 0.271463
0.130436 0.599658 0.275233
0.150659 0.603663 0.278930
0.174820 0.606075 0.280896
0.202849 0.606241 0.280502
0.228309 0.605700 0.280062
0.257581 0.605811 0.280235
0.300296 0.609560 0.280505
0.372332 0.613264 0.266096
0.474484 0.611418 0.243547
0.599280 0.606194 0.211201
0.733289 0.630119 0.101093
0.802111 0.635171 0.038201
0.847748 0.627019 0.023619
0.891892 0.621406 0.024538
0.095139 0.659201 0.305067
0.113342 0.664488 0.309921
0.129646 0.668524 0.313727
0.148402 0.672389 0.317421
0.174185 0.674634 0.319067
0.208550 0.674350 0.317576
0.239378 0.673604 0.316121
0.269127 0.673174 0.315354
0.307444 0.675902 0.316522
0.369114 0.681846 0.310270
0.462105 0.683042 0.283100
0.566476 0.676506 0.271608
0.681631 0.670335 0.226539
0.807067 0.696782 0.123398
0.869288 0.697911 0.048656
0.910125 0.688618 0.023316
0.092457 0.726560 0.342667
0.109883 0.730860 0.346673
0.125523 0.734302 0.349890
0.144480 0.737666 0.353074
0.171011 0.739535 0.354362
0.206535 0.739584 0.353133
0.243708 0.738682 0.350854
0.278993 0.737479 0.348587
0.314952 0.737523 0.347486
0.364859 0.742248 0.345265
0.451127 0.746426 0.325036
0.548299 0.746266 0.303233
0.651659 0.739192 0.297670
0.764977 0.736767 0.241748
0.882290 0.759877 0.137593
0.932447 0.754664 0.053809
0.094902 0.788892 0.375046
0.110524 0.792016 0.378078
0.125003 0.794524 0.380512
0.142710 0.797131 0.383109
0.169474 0.798827 0.384241
0.205643 0.799654 0.383849
0.244643 0.799508 0.382323
0.284129 0.798664 0.379871
0.322911 0.797822 0.377554
0.364509 0.799891 0.375864
0.439687 0.806560 0.364877
0.536063 0.811054 0.338529
0.627267 0.811048 0.330536
0.728330 0.803796 0.324845
0.841564 0.803962 0.262521
0.951425 0.826811 0.175564
0.005298 0.011154 0.058008
0.028843 0.011018 0.058423
0.054584 0.010410 0.058086
0.081733 0.009925 0.057870
0.110955 0.009793 0.057544
0.144537 0.010144 0.057000
0.195036 0.012936 0.055704
0.270127 0.023762 0.055017
0.358634 0.044155 0.054720
0.448241 0.065856 0.054789
0.525303 0.083032 0.055278
0.590037 0.095849 0.055915
0.643005 0.104572 0.056546
0.689117 0.111187 0.057296
0.731831 0.116330 0.057986
0.771387 0.120573 0.058677
0.005259 0.034272 0.057239
0.028932 0.034250 0.057677
0.054271 0.033691 0.057422
0.081537 0.033071 0.057040
0.110817 0.032890 0.056745
0.144466 0.033304 0.056392
0.194516 0.036123 0.055346
0.268345 0.046512 0.054675
0.356649 0.066737 0.054494
0.446682 0.088570 0.054592
0.524331 0.105968 0.055113
0.589534 0.118939 0.055763
0.642885 0.127780 0.056404
0.689219 0.134390 0.057170
0.732124 0.139605 0.057868
0.771673 0.143918 0.058564
0.005695 0.058170 0.057280
0.029287 0.057993 0.057481
0.053583 0.057389 0.057214
0.081425 0.056533 0.056475
0.110986 0.056282 0.056102
0.144592 0.056635 0.055758
0.194921 0.059642 0.054841
0.269358 0.070373 0.054311
0.357772 0.090754 0.054249
0.448067 0.112783 0.054384
0.526119 0.130405 0.054932
0.591403 0.143553 0.055596
0.644465 0.152476 0.056251
0.690923 0.159318 0.057045
0.733871 0.164752 0.057721
0.773212 0.169162 0.058465
0.007397 0.086575 0.061115
0.030982 0.086344 0.061212
0.054725 0.085961 0.061126
0.081924 0.084858 0.059889
0.111763 0.083860 0.058109
0.144437 0.083543 0.057197
0.192626 0.084954 0.055258
0.267639 0.094275 0.054032
0.357980 0.114669 0.053966
0.450448 0.137320 0.054139
0.529245 0.155302 0.054682
0.594683 0.168542 0.055376
0.647648 0.177602 0.056051
0.694346 0.184662 0.056874
0.737453 0.190356 0.057528
0.776271 0.194791 0.058331
0.009584 0.116636 0.066095
0.033197 0.116470 0.066211
0.056528 0.116290 0.066329
0.082289 0.115352 0.065351
0.111825 0.113973 0.062790
0.145214 0.112940 0.059932
0.189578 0.113473 0.057386
0.259142 0.119578 0.054576
0.349235 0.137514 0.054058
0.444173 0.160223 0.054138
0.527215 0.179157 0.054584
0.595881 0.193273 0.055244
0.649984 0.202614 0.055877
0.697368 0.209874 0.056686
0.740832 0.215751 0.057339
0.779041 0.219985 0.058128
0.012276 0.148599 0.072383
0.035917 0.148722 0.072702
0.058765 0.148831 0.073033
0.083092 0.148332 0.072539
0.110642 0.147113 0.070710
0.144809 0.145300 0.065954
0.189568 0.145681 0.061271
0.254001 0.149362 0.055821
0.341026 0.163320 0.054397
0.435902 0.183847 0.054239
0.520287 0.202639 0.054629
0.592635 0.217779 0.055223
0.648782 0.227702 0.055765
0.697580 0.235304 0.056501
0.741870 0.241331 0.057080
0.778814 0.245254 0.057814
0.015489 0.184790 0.081852
0.039149 0.185518 0.082621
0.061499 0.186459 0.083569
0.084712 0.186848 0.083856
0.109945 0.186227 0.082751
0.142246 0.183937 0.078875
0.187586 0.182623 0.070418
0.253061 0.186229 0.060449
0.334470 0.195725 0.055513
0.427474 0.211882 0.054377
0.513433 0.228121 0.054274
0.587998 0.242992 0.054734
0.646968 0.253616 0.055202
0.697366 0.261495 0.055785
0.743475 0.268062 0.056403
0.781463 0.272146 0.057148
0.018719 0.228773 0.097352
0.042513 0.231431 0.099688
0.064207 0.234042 0.102009
0.086853 0.236153 0.103835
0.111075 0.236819 0.103837
0.141383 0.235445 0.101923
0.180639 0.231508 0.093845
0.248315 0.233767 0.079919
0.338396 0.243177 0.058652
0.428571 0.253987 0.054760
0.511962 0.263785 0.054043
0.586498 0.273348 0.054311
0.645964 0.281452 0.054766
0.697660 0.289210 0.055307
0.745429 0.295964 0.055910
0.784949 0.300294 0.056645
0.022995 0.286874 0.124393
0.046642 0.291991 0.128612
0.067617 0.296142 0.132091
0.090044 0.300140 0.135473
0.114448 0.301940 0.136710
0.143682 0.301303 0.135731
0.179218 0.297157 0.130181
0.231096 0.293528 0.117689
0.334067 0.302948 0.090516
0.443226 0.317044 0.055676
0.526284 0.322709 0.053076
0.598240 0.324876 0.053139
0.655329 0.323253 0.053728
0.704241 0.323571 0.054495
0.751583 0.327906 0.055156
0.791873 0.332030 0.055779
0.032607 0.362134 0.165030
0.056976 0.368677 0.170397
0.078290 0.373967 0.174815
0.101171 0.378495 0.178732
0.125286 0.380741 0.180624
0.151887 0.380252 0.180106
0.186050 0.376574 0.176669
0.226944 0.372637 0.168362
0.301367 0.371216 0.150985
0.445730 0.390468 0.096818
0.551920 0.402455 0.050751
0.622948 0.401641 0.050316
0.678971 0.395251 0.051508
0.725731 0.385341 0.052365
0.767523 0.376563 0.053563
0.805572 0.374624 0.054351
0.052217 0.439988 0.208173
0.077090 0.446489 0.213620
0.098281 0.451694 0.218086
0.120903 0.456654 0.222372
0.144396 0.459393 0.224789
0.168815 0.459813 0.225254
0.197294 0.457668 0.223465
0.235064 0.454943 0.219551
0.291123 0.453718 0.206639
0.397665 0.454006 0.185612
0.562741 0.480868 0.096453
0.651422 0.489565 0.048719
0.707864 0.483781 0.047655
0.756750 0.474291 0.049232
0.797971 0.460907 0.050348
0.832087 0.448082 0.051702
0.074397 0.518372 0.252281
0.098313 0.524992 0.257888
0.118345 0.529883 0.262146
0.140111 0.534476 0.266198
0.163733 0.537224 0.268577
0.188123 0.538120 0.269368
0.213097 0.537359 0.268876
0.247419 0.536848 0.268021
0.294581 0.538323 0.263099
0.377455 0.537758 0.240626
0.504189 0.535636 0.218101
0.658726 0.563371 0.108283
0.732206 0.568430 0.052700
0.782444 0.560990 0.047221
0.828848 0.553048 0.047992
0.867315 0.544094 0.048923
0.090275 0.592299 0.293561
0.111641 0.597776 0.298396
0.129836 0.601957 0.302183
0.150155 0.605986 0.305857
0.174806 0.608256 0.307626
0.202986 0.608507 0.307236
0.228693 0.608040 0.306733
0.258115 0.608195 0.306861
0.301334 0.612165 0.307024
0.373951 0.615835 0.292134
0.476314 0.613994 0.269598
0.599813 0.607965 0.237816
0.734349 0.632018 0.127390
0.803959 0.637592 0.062939
0.849294 0.629133 0.047175
0.893321 0.623736 0.047872
0.093371 0.661510 0.332358
0.112024 0.666761 0.337172
0.128427 0.670763 0.340903
0.147319 0.674816 0.344717
0.173949 0.676881 0.346105
0.208383 0.676656 0.344594
0.239589 0.675898 0.343033
0.269591 0.675506 0.342196
0.308295 0.678288 0.343165
0.370315 0.684339 0.336795
0.463664 0.685337 0.309336
0.567883 0.678990 0.297617
0.682916 0.672449 0.252603
0.807918 0.698477 0.150195
0.871208 0.700053 0.074366
0.911433 0.690519 0.046930
0.090848 0.728611 0.369955
0.108648 0.732966 0.373982
0.124655 0.736403 0.377197
0.143856 0.739682 0.380206
0.171303 0.741558 0.381363
0.206555 0.741736 0.380270
0.243964 0.740881 0.377948
0.279420 0.739751 0.375627
0.315716 0.739857 0.374447
0.365711 0.744535 0.372041
0.452530 0.748774 0.351320
0.549575 0.748602 0.329583
0.652862 0.741650 0.324057
0.766200 0.739236 0.268155
0.883167 0.761793 0.164727
0.934307 0.756949 0.080283
0.093186 0.790523 0.402230
0.108954 0.793692 0.405221
0.123550 0.796238 0.407690
0.141601 0.798815 0.410214
0.169007 0.800412 0.411150
0.205368 0.801325 0.410787
0.244630 0.801172 0.409175
0.284295 0.800331 0.406693
0.323279 0.799469 0.404238
0.364954 0.801609 0.402370
0.440803 0.808410 0.391243
0.537597 0.813120 0.364785
0.628360 0.813309 0.356755
0.729396 0.806040 0.351667
0.842678 0.806086 0.289515
0.953045 0.828952 0.202517
0.005786 0.013983 0.084324
0.029319 0.013889 0.084782
0.054801 0.013296 0.084550
0.081885 0.012524 0.084329
0.110039 0.012340 0.084650
0.142680 0.012405 0.084065
0.193285 0.013687 0.082164
0.268794 0.023239 0.080072
0.357268 0.043954 0.078999
0.447334 0.065984 0.078424
0.524632 0.083334 0.078580
0.589513 0.096301 0.078975
0.642587 0.105094 0.079465
0.688727 0.111744 0.080094
0.731481 0.116987 0.080642
0.771087 0.121263 0.081199
0.005635 0.037120 0.083633
0.029235 0.037104 0.084060
0.054317 0.036651 0.083961
0.081537 0.035789 0.083646
0.109874 0.035468 0.083818
0.142803 0.035562 0.083320
0.192918 0.036901 0.081485
0.267214 0.046234 0.079472
0.355341 0.066679 0.078646
0.445858 0.088799 0.078195
0.523844 0.106362 0.078381
0.589138 0.119465 0.078818
0.642544 0.128329 0.079326
0.688876 0.135060 0.079966
0.731826 0.140313 0.080527
0.771468 0.144665 0.081093
0.005910 0.060707 0.083569
0.029491 0.060631 0.083852
0.053831 0.060333 0.083917
0.081394 0.059329 0.083384
0.110104 0.058827 0.083276
0.142961 0.058805 0.082650
0.193440 0.060354 0.080898
0.268353 0.070104 0.078996
0.356818 0.090747 0.078288
0.447553 0.113026 0.077952
0.525852 0.130795 0.078232
0.591218 0.144018 0.078689
0.644322 0.152982 0.079186
0.690785 0.159859 0.079854
0.733801 0.165345 0.080393
0.773157 0.169748 0.080998
0.007462 0.088117 0.086944
0.031017 0.087870 0.086987
0.054877 0.087624 0.087035
0.081548 0.086534 0.086169
0.111000 0.085272 0.084785
0.143337 0.084678 0.083627
0.191462 0.085474 0.081187
0.266735 0.094106 0.078763
0.357470 0.114741 0.077861
0.450176 0.137592 0.077660
0.529318 0.155710 0.077997
0.594762 0.168985 0.078524
0.647726 0.178073 0.079042
0.694413 0.185137 0.079709
0.737652 0.190903 0.080221
0.776347 0.195312 0.080885
0.009329 0.117453 0.091470
0.032908 0.117301 0.091542
0.056422 0.117216 0.091664
0.081944 0.116501 0.091007
0.111170 0.114928 0.088720
0.144414 0.113544 0.085792
0.188968 0.113704 0.082933
0.258787 0.119585 0.079502
0.349128 0.137674 0.078082
0.444147 0.160525 0.077703
0.527185 0.179526 0.077944
0.595909 0.193707 0.078434
0.650078 0.203065 0.078899
0.697493 0.210349 0.079574
0.740935 0.216217 0.080101
0.778931 0.220388 0.080755
0.011533 0.149258 0.097347
0.035183 0.149407 0.097690
0.058343 0.149705 0.098172
0.082947 0.149487 0.097964
0.110221 0.148254 0.096189
0.144127 0.146201 0.091468
0.189281 0.146117 0.086331
0.254318 0.149589 0.080699
0.341606 0.163663 0.078752
0.436489 0.184224 0.078096
0.520781 0.203052 0.078210
0.592954 0.218171 0.078580
0.648979 0.228100 0.078936
0.697796 0.235743 0.079498
0.742094 0.241800 0.079916
0.778880 0.245711 0.080486
0.014264 0.185434 0.106232
0.037992 0.186292 0.107174
0.060765 0.187499 0.108451
0.084338 0.188212 0.109118
0.109822 0.188016 0.108341
0.141540 0.185662 0.104478
0.187421 0.183931 0.095536
0.253851 0.187273 0.085031
0.335686 0.196637 0.079726
0.428669 0.212729 0.078308
0.514198 0.228658 0.077971
0.588595 0.243411 0.078209
0.647338 0.254015 0.078473
0.697761 0.261936 0.078874
0.743835 0.268521 0.079318
0.781486 0.272505 0.079908
0.017382 0.229944 0.122213
0.041145 0.232817 0.124708
0.063407 0.235576 0.127217
0.086360 0.238126 0.129406
0.110847 0.239133 0.129750
