assets/lut/berat orangebmp4k.cube
TITLE "orange bmp4k"
LUT_3D_SIZE 6
DOMAIN_MIN 0.0 0.0 0.0
DOMAIN_MAX 1.0 1.0 1.0
0.005371 0.009079 0.009018
0.082603 0.008414 0.008728
0.196269 0.012241 0.007687
0.449893 0.065346 0.007598
0.643824 0.103688 0.009924
0.771832 0.119493 0.012802
0.008963 0.085902 0.013870
0.083092 0.084173 0.012388
0.193208 0.084367 0.008055
0.450723 0.136685 0.007116
0.647658 0.176839 0.009492
0.776022 0.193933 0.012451
0.017598 0.183687 0.034039
0.085789 0.185204 0.035588
0.187343 0.180511 0.022093
0.424926 0.209837 0.007349
0.645869 0.252451 0.008619
0.780899 0.271200 0.011201
0.034190 0.357319 0.113685
0.100975 0.373660 0.127330
0.185397 0.370988 0.124743
0.440685 0.384303 0.047370
0.674841 0.389687 0.004758
0.803873 0.371729 0.008153
0.092378 0.588174 0.241886
0.151000 0.601613 0.254013
0.227961 0.603505 0.255025
0.370260 0.610722 0.241338
0.732514 0.628394 0.074994
0.890568 0.619153 0.000974
0.096162 0.787243 0.350484
0.143584 0.795669 0.358618
0.244343 0.798076 0.357869
0.363886 0.798308 0.351399
0.625601 0.808902 0.305769
0.949752 0.824521 0.149203
0.005786 0.013983 0.084324
0.081885 0.012524 0.084329
0.193285 0.013687 0.082164
0.447334 0.065984 0.078424
0.642587 0.105094 0.079465
0.771087 0.121263 0.081199
0.007462 0.088117 0.086944
0.081548 0.086534 0.086169
0.191462 0.085474 0.081187
0.450176 0.137592 0.077660
0.647726 0.178073 0.079042
0.776347 0.195312 0.080885
0.014264 0.185434 0.106232
0.084338 0.188212 0.109118
0.187421 0.183931 0.095536
0.428669 0.212729 0.078308
0.647338 0.254015 0.078473
0.781486 0.272505 0.079908
0.031426 0.364586 0.191260
0.101013 0.381308 0.205226
0.186150 0.379610 0.203152
0.447102 0.393344 0.122468
0.680726 0.397760 0.074837
0.806268 0.376045 0.077279
0.088731 0.594537 0.320517
0.149419 0.608295 0.332761
0.228934 0.610365 0.333328
0.375162 0.618617 0.318424
0.735055 0.633913 0.154041
0.894567 0.625908 0.071270
0.091038 0.792178 0.429877
0.139940 0.800436 0.437680
0.244376 0.802916 0.436383
0.365361 0.803227 0.428887
0.629102 0.815515 0.383046
0.953140 0.831135 0.231965
0.007751 0.034592 0.183503
0.083536 0.031834 0.181206
0.177724 0.027988 0.180655
0.440697 0.050205 0.155883
0.640923 0.104691 0.156558
0.770240 0.122818 0.154183
0.007796 0.107092 0.184637
0.082256 0.105691 0.184212
0.178171 0.099229 0.179796
0.446449 0.122374 0.155406
0.648070 0.177116 0.156778
0.776131 0.195821 0.156840
0.012477 0.193001 0.192107
0.084627 0.198842 0.198876
0.187525 0.198450 0.198271
0.435326 0.209690 0.167792
0.649524 0.252773 0.157117
0.782423 0.272177 0.155471
0.012336 0.383677 0.286189
0.077053 0.405163 0.306922
0.164475 0.413707 0.310323
0.461613 0.408124 0.208064
0.688962 0.402057 0.149793
0.807942 0.376999 0.151328
0.029113 0.611823 0.416298
0.081334 0.624691 0.433952
0.158225 0.639637 0.442286
0.370875 0.630776 0.405896
0.745058 0.644245 0.232903
0.896309 0.627805 0.141784
0.031204 0.792125 0.519677
0.085921 0.800837 0.532246
0.152236 0.817401 0.542268
0.362169 0.821652 0.523369
0.628838 0.829558 0.465995
0.956412 0.843219 0.327916
0.041207 0.102872 0.345778
0.115010 0.101902 0.346379
0.192931 0.095204 0.340431
0.367720 0.109054 0.364207
0.661863 0.064110 0.298902
0.777803 0.109363 0.237973
0.040849 0.173607 0.347599
0.115099 0.173479 0.348484
0.192999 0.165304 0.340037
0.375415 0.183036 0.368857
0.670114 0.141701 0.319812
0.794693 0.169153 0.249932
0.039255 0.260400 0.365749
0.117598 0.272657 0.381587
0.205911 0.274463 0.384445
0.394886 0.276303 0.391322
0.678109 0.224298 0.336627
0.810594 0.238582 0.269950
0.008532 0.415305 0.422623
0.078527 0.441513 0.451759
0.163862 0.463324 0.473390
0.452797 0.463768 0.461685
0.690756 0.426510 0.391797
0.821307 0.381035 0.324851
0.006551 0.624682 0.527319
0.074324 0.639957 0.544199
0.143439 0.657589 0.561963
0.373016 0.693621 0.581868
0.742567 0.673868 0.443531
0.926530 0.650709 0.315680
0.019635 0.809665 0.633713
0.080836 0.820360 0.646168
0.147218 0.836268 0.661427
0.338750 0.879609 0.685997
0.627011 0.867690 0.602511
0.958469 0.871097 0.505382
0.087929 0.173464 0.502666
0.165026 0.172819 0.503793
0.251480 0.170424 0.502511
0.379495 0.178336 0.528983
0.564575 0.188845 0.539841
0.076664 0.184421 0.502187
0.088308 0.244126 0.506167
0.165707 0.244030 0.507154
0.254193 0.242396 0.505896
0.388651 0.252908 0.535804
0.573469 0.267391 0.551180
0.078166 0.257751 0.509597
0.094832 0.344372 0.543200
0.176253 0.358099 0.560530
0.271720 0.363707 0.566250
0.426130 0.366020 0.581424
0.587872 0.354956 0.570202
0.084372 0.363506 0.552679
0.082576 0.507156 0.635596
0.157703 0.529638 0.659103
0.255572 0.543746 0.675212
0.494939 0.554169 0.675936
0.665778 0.529656 0.655254
0.062653 0.532020 0.645493
0.013292 0.667665 0.690566
0.085460 0.684395 0.709845
0.176022 0.709883 0.736892
0.495732 0.728873 0.742092
0.737350 0.716956 0.717091
0.000322 0.685718 0.689589
0.025306 0.823109 0.737789
0.091884 0.834168 0.751084
0.165043 0.864350 0.780177
0.518506 0.908368 0.819842
0.724349 0.924184 0.820019
0.087749 0.182959 0.524801
0.121340 0.229831 0.638956
0.202957 0.228751 0.639695
0.341222 0.263497 0.680034
0.449548 0.250500 0.685580
0.553549 0.233280 0.664802
0.110231 0.241032 0.638804
0.121605 0.299751 0.643763
0.203802 0.299507 0.644602
0.347004 0.334808 0.684551
0.458631 0.324062 0.693446
0.564399 0.310300 0.674841
0.111547 0.314443 0.648734
0.129623 0.418842 0.704268
0.214038 0.432265 0.720953
0.339677 0.443125 0.728435
0.488788 0.439691 0.735123
0.589331 0.407161 0.704164
0.118727 0.438316 0.714126
0.122284 0.566402 0.783856
0.203054 0.585201 0.803683
0.335571 0.600575 0.820873
0.537315 0.617783 0.833364
0.678339 0.605389 0.829136
0.106549 0.589559 0.793843
0.082866 0.718855 0.850245
0.162828 0.732140 0.865107
0.309175 0.751883 0.886686
0.529966 0.783471 0.924148
0.729642 0.784496 0.922113
0.064134 0.738204 0.855552
0.034302 0.857343 0.892195
0.117000 0.869209 0.906984
0.275669 0.891210 0.928336
0.597768 0.942906 0.973094
0.788977 0.970010 0.996796
0.000000 0.000000 0.000000
