assets/lut/berat filmlook.cube
TITLE "filmlook"
LUT_3D_SIZE 16
DOMAIN_MIN 0.0 0.0 0.0
DOMAIN_MAX 1.0 1.0 1.0
0.006332 0.010712 0.010636
0.022955 0.010640 0.010528
0.045597 0.010398 0.009699
0.073927 0.011157 0.008991
0.117036 0.014231 0.007705
0.195473 0.027034 0.006429
0.296114 0.053696 0.005884
0.394524 0.081482 0.005600
0.473613 0.102495 0.005718
0.535754 0.117581 0.005942
0.583342 0.127794 0.006093
0.622399 0.135442 0.006336
0.656748 0.141301 0.006488
0.688011 0.146252 0.006516
0.716003 0.150273 0.006687
0.740108 0.152819 0.006806
0.006602 0.027848 0.011763
0.022572 0.027687 0.011618
0.044223 0.026901 0.010353
0.072702 0.027286 0.009276
0.115083 0.030036 0.007891
0.192590 0.042160 0.006488
0.292285 0.068285 0.005909
0.391844 0.096393 0.005618
0.472315 0.117879 0.005709
0.535389 0.133269 0.005944
0.583562 0.143677 0.006096
0.623038 0.151461 0.006338
0.657716 0.157420 0.006490
0.689125 0.162441 0.006542
0.717106 0.166457 0.006704
0.739922 0.168582 0.006794
0.008781 0.055198 0.021283
0.024581 0.055218 0.021289
0.044102 0.053894 0.019336
0.072157 0.052281 0.014710
0.107676 0.053132 0.012253
0.174106 0.059024 0.007940
0.270730 0.080043 0.006612
0.373292 0.107953 0.006112
0.459429 0.130804 0.006029
0.528558 0.147986 0.006186
0.579671 0.159236 0.006302
0.620466 0.167365 0.006485
0.656006 0.173651 0.006643
0.687812 0.178832 0.006666
0.715967 0.183055 0.006767
0.738651 0.185389 0.006842
0.011121 0.087141 0.033970
0.026954 0.087366 0.034146
0.044310 0.086177 0.032663
0.069366 0.083391 0.027573
0.106334 0.082542 0.019739
0.163359 0.085735 0.012189
0.249204 0.098273 0.008097
0.350723 0.121525 0.006935
0.439879 0.143786 0.006604
0.515240 0.162475 0.006613
0.572210 0.175513 0.006618
0.615687 0.184285 0.006525
0.653711 0.191401 0.006582
0.687795 0.197279 0.006465
0.717201 0.201902 0.006488
0.739843 0.204306 0.006476
0.012862 0.125657 0.051515
0.028697 0.126496 0.052163
0.045075 0.125970 0.051337
0.066585 0.122825 0.047028
0.099811 0.118571 0.037815
0.159723 0.120999 0.024720
0.240561 0.129570 0.011503
0.336848 0.146407 0.008239
0.427773 0.164290 0.006927
0.506637 0.181140 0.006558
0.567441 0.194421 0.006475
0.613344 0.203807 0.006308
0.653087 0.211215 0.006309
0.688980 0.217615 0.006261
0.719903 0.222622 0.006389
0.743099 0.225091 0.006363
0.014740 0.177447 0.080145
0.030645 0.179676 0.081934
0.046620 0.180720 0.082599
0.066040 0.178372 0.079317
0.094726 0.174525 0.073729
0.139996 0.170504 0.060314
0.237329 0.180715 0.032354
0.341438 0.195490 0.010082
0.429648 0.206788 0.007424
0.506932 0.215829 0.006640
0.568505 0.222619 0.006465
0.614145 0.227952 0.006368
0.654630 0.234297 0.006332
0.691922 0.240559 0.006210
0.724740 0.246064 0.006214
0.750073 0.249352 0.006099
0.019106 0.250199 0.125399
0.035637 0.254907 0.129138
0.052009 0.257789 0.131351
0.070882 0.256139 0.129184
0.098005 0.252728 0.125256
0.132079 0.247453 0.115719
0.204177 0.246005 0.095514
0.344912 0.266583 0.041044
0.451410 0.280050 0.006480
0.526718 0.283893 0.005337
0.586987 0.283512 0.005132
0.631477 0.279720 0.005178
0.669505 0.277555 0.005258
0.704380 0.277841 0.005372
0.737000 0.280504 0.005360
0.764146 0.284062 0.005169
0.035369 0.333430 0.179524
0.052957 0.338463 0.183593
0.070034 0.341506 0.186025
0.087791 0.340953 0.185190
0.108797 0.338375 0.182459
0.140254 0.333852 0.177114
0.188335 0.330496 0.162382
0.294714 0.333062 0.136760
0.461757 0.360912 0.049122
0.556940 0.371725 0.003448
0.617007 0.370300 0.001823
0.662846 0.365818 0.002316
0.701156 0.360146 0.002823
0.734133 0.354095 0.003016
0.763838 0.348069 0.003196
0.789725 0.346415 0.003311
0.064249 0.416549 0.234344
0.081801 0.420711 0.237685
0.098950 0.422992 0.239475
0.118154 0.422528 0.238681
0.140777 0.421292 0.235751
0.176549 0.418313 0.228297
0.232493 0.416626 0.216784
0.319228 0.420682 0.176664
0.441973 0.423666 0.144088
0.588465 0.450996 0.048378
0.565372 0.456511 0.048360
0.656706 0.448928 0.045953
0.686059 0.446046 0.046693
0.302793 0.450110 0.182053
0.157758 0.455049 0.239114
0.175717 0.456894 0.240920
0.171468 0.495452 0.284815
0.211268 0.497270 0.281688
0.280802 0.498829 0.262644
0.387013 0.495464 0.237868
0.527491 0.500732 0.184325
0.657570 0.529645 0.067194
0.713033 0.530983 0.019714
0.774917 0.526654 0.005071
0.816008 0.525759 0.000684
0.654314 0.524308 0.077477
0.111905 0.524680 0.293651
0.100193 0.527927 0.307978
0.118871 0.529302 0.308725
0.140535 0.528635 0.307209
0.160501 0.527645 0.305644
0.183581 0.527094 0.304420
0.244786 0.565571 0.322764
0.324469 0.568624 0.300517
0.429477 0.565017 0.275377
0.546075 0.556014 0.246285
0.672594 0.573514 0.150053
0.765479 0.598129 0.057944
0.800004 0.593449 0.016838
0.841343 0.587699 0.000213
0.743635 0.586442 0.058269
0.084141 0.589816 0.348332
0.099250 0.592879 0.351059
0.121589 0.593331 0.350594
0.151682 0.591776 0.347220
0.176083 0.590359 0.344664
0.199746 0.589031 0.342522
0.238290 0.592848 0.342301
0.265895 0.626363 0.359312
0.349503 0.629390 0.335343
0.449037 0.626215 0.307354
0.551542 0.615285 0.295869
0.657348 0.612200 0.236222
0.765351 0.638425 0.144500
0.835698 0.654295 0.073791
0.862299 0.644641 0.023738
0.754380 0.640605 0.064822
0.076096 0.650183 0.387924
0.092039 0.652409 0.389846
0.116995 0.652337 0.388722
0.151451 0.650680 0.384911
0.182775 0.648669 0.380968
0.210649 0.646239 0.377074
0.244538 0.647185 0.375482
0.267002 0.675682 0.389478
0.344025 0.679920 0.371908
0.438866 0.680051 0.338709
0.534356 0.674110 0.328996
0.630385 0.664661 0.310609
0.727101 0.666816 0.247007
0.822512 0.688897 0.162779
0.882951 0.697705 0.092265
0.770154 0.692400 0.099889
0.073458 0.703869 0.420954
0.089729 0.705276 0.422121
0.118165 0.705017 0.420599
0.151451 0.704376 0.418041
0.185914 0.702440 0.413939
0.218833 0.699239 0.408679
0.252155 0.697136 0.404562
0.271818 0.723327 0.417455
0.336017 0.728243 0.406383
0.431119 0.730505 0.373578
0.518243 0.728292 0.355709
0.606684 0.721253 0.351779
0.694844 0.712793 0.325168
0.782015 0.716300 0.264257
0.873136 0.738399 0.190442
0.783603 0.744910 0.180002
0.063202 0.749304 0.447471
0.081380 0.749351 0.447273
0.114137 0.748632 0.444990
0.149904 0.748243 0.442672
0.185917 0.746848 0.439080
0.222614 0.744175 0.433910
0.257710 0.741741 0.429088
0.276211 0.760653 0.436329
0.328417 0.765987 0.429842
0.421131 0.772075 0.404334
0.507148 0.774396 0.380780
0.587502 0.772694 0.375158
0.669704 0.765806 0.372421
0.748237 0.758741 0.343547
0.838192 0.766985 0.282279
0.774365 0.782716 0.262937
0.058889 0.772164 0.453934
0.078678 0.772130 0.453542
0.113722 0.771905 0.451467
0.150145 0.771741 0.449312
0.186288 0.771109 0.446413
0.223394 0.769889 0.442522
0.259736 0.769014 0.438947
0.276829 0.778195 0.437781
0.327162 0.784904 0.433218
0.417091 0.793593 0.412092
0.502727 0.799454 0.389346
0.579427 0.801727 0.384173
0.657750 0.799039 0.385768
0.732964 0.792809 0.373715
0.817340 0.791593 0.323559
0.752018 0.677468 0.232089
0.015617 0.011513 0.018952
0.035111 0.010986 0.018189
0.060620 0.010992 0.017219
0.094539 0.012442 0.016147
0.157543 0.019694 0.014519
0.251204 0.041090 0.013514
0.354025 0.070161 0.013047
0.398443 0.082509 0.021966
0.476418 0.103169 0.021841
0.537868 0.118046 0.021909
0.584904 0.128116 0.021970
0.623723 0.135696 0.022182
0.658005 0.141525 0.022336
0.689151 0.146452 0.022366
0.717010 0.150421 0.022530
0.620560 0.131410 0.023801
0.016224 0.020748 0.029388
0.034869 0.020051 0.028594
0.059980 0.019518 0.027450
0.093667 0.020655 0.026239
0.157377 0.027128 0.024118
0.249768 0.047800 0.022928
0.352650 0.076938 0.022143
0.396311 0.097631 0.021844
0.475440 0.118664 0.021815
0.537716 0.133796 0.021941
0.585336 0.144047 0.022025
0.624583 0.151761 0.022237
0.659147 0.157683 0.022376
0.690427 0.162668 0.022456
0.718270 0.166593 0.022661
0.620757 0.147894 0.024465
0.016763 0.040141 0.032135
0.033730 0.039595 0.031521
0.059643 0.038120 0.028814
0.091664 0.038576 0.027070
0.150507 0.043391 0.024078
0.241916 0.061966 0.022455
0.346933 0.091196 0.021841
0.378266 0.109343 0.022036
0.463125 0.131782 0.021941
0.531272 0.148656 0.022081
0.581559 0.159665 0.022180
0.622117 0.167721 0.022373
0.657508 0.173945 0.022529
0.689132 0.179075 0.022568
0.717027 0.183200 0.022693
0.619955 0.166898 0.026380
0.019046 0.069904 0.043317
0.035266 0.069622 0.042979
0.058086 0.067375 0.039193
0.090333 0.065757 0.033095
0.137468 0.067528 0.028308
0.217638 0.077896 0.023923
0.320607 0.102717 0.022658
0.356092 0.122903 0.022818
0.444082 0.144895 0.022494
0.518563 0.163331 0.022488
0.574451 0.176046 0.022481
0.617573 0.184719 0.022397
0.655446 0.191777 0.022456
0.689309 0.197565 0.022378
0.718378 0.201996 0.022513
0.621269 0.188411 0.028779
0.021135 0.104558 0.057778
0.037152 0.104640 0.057784
0.056327 0.102432 0.054709
0.086212 0.098618 0.047150
0.134486 0.099268 0.037083
0.205602 0.104949 0.026928
0.301134 0.122004 0.023895
0.342358 0.147806 0.024081
0.432330 0.165414 0.022760
0.510422 0.182069 0.022405
0.569967 0.195027 0.022320
0.615491 0.204295 0.022179
0.655064 0.211584 0.022215
0.690632 0.217816 0.022272
0.721175 0.222594 0.022504
0.624149 0.213154 0.032604
0.022624 0.149366 0.080316
0.038499 0.150299 0.081013
0.055825 0.148978 0.078868
0.082128 0.145325 0.073689
0.122369 0.141489 0.061800
0.201146 0.147439 0.042889
0.297187 0.159921 0.026056
0.346638 0.196837 0.025771
0.434264 0.207858 0.023193
0.510919 0.216706 0.022441
0.571129 0.223095 0.022287
0.616277 0.228306 0.022245
0.656587 0.234598 0.022241
0.693518 0.240770 0.022184
0.725947 0.246071 0.022280
0.629907 0.243626 0.038384
0.024493 0.211445 0.117010
0.040726 0.214538 0.119519
0.058047 0.214398 0.118819
0.082055 0.211449 0.115068
0.114201 0.206648 0.107047
0.175411 0.204529 0.089139
0.298362 0.220741 0.047927
0.350717 0.268534 0.055307
0.455921 0.281273 0.022165
0.530602 0.284834 0.021102
0.589651 0.283857 0.020912
0.633674 0.279971 0.021001
0.671442 0.277758 0.021090
0.706027 0.278006 0.021280
0.738368 0.280596 0.021300
0.643480 0.286051 0.046458
0.034880 0.293946 0.170271
0.051552 0.298022 0.173574
0.068453 0.298788 0.173922
0.089483 0.296356 0.171144
0.120284 0.291896 0.166148
0.160658 0.286914 0.153463
0.257791 0.289386 0.128852
0.299217 0.334463 0.152524
0.466993 0.362564 0.063233
0.560639 0.372755 0.019202
0.619794 0.371090 0.017589
0.665201 0.366326 0.018133
0.703116 0.360472 0.018633
0.735773 0.354076 0.018817
0.765141 0.347858 0.019073
0.668209 0.350809 0.053801
0.056068 0.376436 0.224280
0.073226 0.380561 0.227657
0.090336 0.381731 0.228454
0.108449 0.380306 0.226825
0.131839 0.377253 0.223673
0.166152 0.372985 0.216880
0.229005 0.370625 0.196856
0.267381 0.416092 0.219652
0.404823 0.418939 0.189740
0.569813 0.451394 0.076002
0.648288 0.460193 0.020501
0.693518 0.455659 0.015922
0.734763 0.452118 0.015922
0.770373 0.448513 0.016030
0.802148 0.445009 0.016363
0.702801 0.442993 0.060350
0.076740 0.456383 0.276907
0.093489 0.460076 0.279988
0.110981 0.461278 0.280754
0.129233 0.460376 0.279529
0.148014 0.458799 0.277794
0.178705 0.456926 0.274983
0.227232 0.457407 0.264988
0.264000 0.499854 0.286034
0.366251 0.497850 0.256486
0.506342 0.497871 0.218549
0.649224 0.525347 0.099490
0.718154 0.535010 0.034840
0.755913 0.529580 0.017454
0.793072 0.527018 0.015803
0.828330 0.525146 0.015804
0.729514 0.523832 0.067132
0.086705 0.526633 0.322779
0.102626 0.529855 0.325556
0.121676 0.530626 0.325722
0.145001 0.529369 0.323422
0.164254 0.528311 0.321919
0.189159 0.527629 0.320681
0.232397 0.531682 0.318150
0.265187 0.568257 0.335990
0.355428 0.569249 0.305666
0.466265 0.562951 0.287696
0.586154 0.557558 0.239198
0.708054 0.583317 0.129951
0.780756 0.599139 0.059133
0.809793 0.591525 0.023791
0.844438 0.587518 0.015946
0.743401 0.586656 0.074320
0.082905 0.591022 0.365308
0.097958 0.594010 0.367983
0.120434 0.594512 0.367563
0.151150 0.592808 0.363991
0.175907 0.591364 0.361364
0.199882 0.589952 0.359113
0.238403 0.593560 0.358724
0.265509 0.626849 0.375724
0.349278 0.629844 0.351708
0.448879 0.626760 0.323494
0.551530 0.615667 0.311902
0.657376 0.612557 0.252523
0.765410 0.638546 0.160496
0.835711 0.654258 0.089489
0.862274 0.644465 0.039337
0.753309 0.640820 0.081101
0.071888 0.651706 0.405502
0.086094 0.654162 0.407855
0.112266 0.654013 0.406505
0.149156 0.651918 0.402073
0.181407 0.649717 0.397890
0.210118 0.647078 0.393696
0.244415 0.647673 0.391767
0.267021 0.676069 0.405709
0.343296 0.680185 0.388328
0.438357 0.680311 0.354787
0.533833 0.674350 0.344901
0.630000 0.664757 0.326479
0.726866 0.666854 0.262981
0.822129 0.688680 0.178749
0.882571 0.697423 0.107970
0.766905 0.692537 0.116132
0.059385 0.706310 0.440800
0.076358 0.707483 0.441686
0.108644 0.707214 0.439463
0.144086 0.706650 0.436689
0.181288 0.704333 0.432038
0.216943 0.700380 0.425804
0.251528 0.697744 0.420982
0.271526 0.723773 0.433876
0.334744 0.728295 0.422770
0.430139 0.730603 0.389912
0.517359 0.728378 0.371620
0.605994 0.721170 0.367396
0.694268 0.712701 0.340914
0.781548 0.716141 0.280015
0.872484 0.737855 0.205891
0.778808 0.744563 0.196239
0.041873 0.750423 0.468704
0.059247 0.750433 0.468645
0.090499 0.752294 0.467673
0.127271 0.753628 0.466095
0.171316 0.751660 0.461110
0.216890 0.747078 0.453347
0.256081 0.743160 0.446552
0.275204 0.762032 0.453801
0.326504 0.766203 0.446571
0.419570 0.772119 0.420969
0.506058 0.774378 0.396762
0.586585 0.772418 0.390764
0.668934 0.765489 0.387838
0.747512 0.758495 0.359184
0.837512 0.766545 0.297821
0.768157 0.782071 0.279793
0.027619 0.771862 0.477564
0.045649 0.772801 0.477719
0.076981 0.777170 0.477929
0.115802 0.779797 0.476642
0.164177 0.778229 0.471490
0.214625 0.774210 0.463768
0.256970 0.771399 0.457505
0.275556 0.779792 0.455564
0.324970 0.785122 0.450055
0.415129 0.793646 0.428934
0.501437 0.799473 0.405451
0.578349 0.801493 0.399866
0.656914 0.798700 0.401167
0.732117 0.792423 0.389342
0.816411 0.791305 0.339592
0.751719 0.677914 0.248580
0.017386 0.016479 0.040242
0.036043 0.015523 0.039287
0.059745 0.014776 0.038909
0.091825 0.015467 0.037967
0.156006 0.019705 0.035644
0.250265 0.039053 0.032806
0.352983 0.069125 0.031421
0.396277 0.080022 0.041855
0.475647 0.101889 0.041207
0.538648 0.117467 0.040493
0.586379 0.127934 0.040034
0.625356 0.135623 0.039790
0.659463 0.141444 0.039660
0.690419 0.146338 0.039613
0.718056 0.150225 0.039819
0.621606 0.132339 0.042120
0.018554 0.027325 0.052467
0.036784 0.026596 0.051705
0.060285 0.025206 0.051159
0.089720 0.025837 0.051661
0.154527 0.027546 0.048997
0.249131 0.042383 0.043703
0.350704 0.073520 0.042048
0.394566 0.095210 0.041795
0.474938 0.117464 0.041368
0.538693 0.133246 0.040620
0.587020 0.143897 0.040254
0.626413 0.151699 0.040067
0.660823 0.157595 0.039964
0.691867 0.162531 0.039964
0.719406 0.166365 0.040200
0.621841 0.148607 0.042897
0.019031 0.045722 0.054797
0.036005 0.045512 0.054618
0.060121 0.043408 0.052876
0.088755 0.042971 0.052203
0.148350 0.044157 0.049066
0.241566 0.057551 0.043976
0.345830 0.088053 0.041904
0.378406 0.107677 0.041696
0.463597 0.130749 0.040700
0.532180 0.147973 0.040173
0.582804 0.159212 0.039953
0.623491 0.167414 0.039896
0.658776 0.173608 0.039926
0.690307 0.178726 0.039991
0.718073 0.182789 0.040231
0.620971 0.166810 0.044512
0.020869 0.071765 0.063944
0.037120 0.071599 0.063679
0.059066 0.069858 0.061422
0.089560 0.067107 0.056677
0.137421 0.067383 0.051730
0.218423 0.075923 0.046163
0.321411 0.100943 0.042776
0.357437 0.121376 0.042114
0.445685 0.143947 0.040693
0.519900 0.162578 0.040154
0.575544 0.175359 0.039977
0.618653 0.184113 0.039837
0.656451 0.191196 0.039910
0.690229 0.196900 0.039923
0.719266 0.201378 0.040152
0.622146 0.188176 0.047031
0.022970 0.106409 0.078790
0.038985 0.106628 0.078824
0.058753 0.105266 0.076600
0.085812 0.101291 0.070040
0.134635 0.099391 0.058589
0.206631 0.103440 0.048160
0.302612 0.120183 0.043691
0.344390 0.146228 0.043087
0.434185 0.164128 0.040883
0.511781 0.180924 0.040076
0.570999 0.193852 0.039803
0.616656 0.203191 0.039528
0.656256 0.210638 0.039498
0.691621 0.216812 0.039542
0.721840 0.221524 0.039896
0.624648 0.212946 0.050998
0.024116 0.153268 0.102778
0.040062 0.154515 0.103721
0.058428 0.153703 0.101856
0.081869 0.150064 0.096282
0.122952 0.145034 0.083920
0.203891 0.148262 0.062550
0.300025 0.159021 0.045551
0.349727 0.196191 0.044513
0.436199 0.206486 0.041101
0.512496 0.215626 0.039724
0.572334 0.222131 0.039407
0.617564 0.227449 0.039355
0.657706 0.233699 0.039292
0.694051 0.239747 0.039310
0.725936 0.244972 0.039605
0.629661 0.243626 0.056808
0.025399 0.217096 0.139581
0.041317 0.220705 0.142604
0.058825 0.220888 0.142063
0.080909 0.218089 0.137976
0.113828 0.212240 0.129689
0.178500 0.208693 0.109442
0.303638 0.222306 0.065306
0.356236 0.270685 0.071242
0.458524 0.281214 0.039647
0.532472 0.284294 0.038148
0.590981 0.283352 0.037640
0.634834 0.279547 0.037773
0.672643 0.277259 0.037857
0.706578 0.277132 0.038221
0.738147 0.279218 0.038440
0.642388 0.285838 0.064742
0.032835 0.300266 0.192773
0.048804 0.305060 0.196864
0.066276 0.306192 0.197420
0.087881 0.304243 0.194650
0.117740 0.298737 0.188590
0.162260 0.292219 0.174770
0.262238 0.293676 0.147680
0.303162 0.338145 0.170790
0.470439 0.364070 0.079212
0.562738 0.373042 0.035414
0.621206 0.371178 0.033736
0.666235 0.366449 0.034321
0.704169 0.360540 0.034945
0.736540 0.353508 0.035261
0.765093 0.346385 0.035785
0.666754 0.350606 0.071713
0.050926 0.382910 0.246871
0.066536 0.387840 0.251234
0.084400 0.389349 0.252225
0.105681 0.387849 0.250057
0.129970 0.383880 0.245643
0.166991 0.377655 0.237281
0.230996 0.374802 0.216304
0.269082 0.419531 0.238253
0.409322 0.421925 0.206126
0.573219 0.453087 0.090578
0.649621 0.460560 0.035985
0.693939 0.455769 0.031744
0.734902 0.451963 0.031751
0.770315 0.447679 0.031880
0.801440 0.442888 0.032338
0.699762 0.442109 0.077784
0.066367 0.463077 0.300094
0.080748 0.467671 0.304300
0.098761 0.469248 0.305365
0.121796 0.467997 0.303281
0.144817 0.465358 0.300017
0.177906 0.460909 0.294582
0.227843 0.460449 0.283901
0.264005 0.502263 0.304586
0.368734 0.500443 0.274293
0.510550 0.500697 0.235002
0.651844 0.526719 0.114614
0.718546 0.535140 0.050860
0.755756 0.529292 0.033251
0.792914 0.526349 0.031599
0.827887 0.523608 0.031597
0.724803 0.523484 0.084722
0.068623 0.534023 0.347395
0.079980 0.538208 0.351606
0.098588 0.539657 0.352471
0.128405 0.538048 0.349286
0.154994 0.535709 0.345808
0.186597 0.532040 0.340771
0.232250 0.533749 0.336371
0.264343 0.569894 0.354131
0.356361 0.571250 0.323456
0.469699 0.565707 0.305549
0.590400 0.560365 0.255842
0.709902 0.584552 0.145622
0.780307 0.598701 0.074861
0.809477 0.590787 0.039213
0.844415 0.586490 0.031750
0.737011 0.586929 0.092224
0.051888 0.598673 0.392208
0.062710 0.602057 0.395962
0.083368 0.604379 0.397042
0.121406 0.603700 0.393366
0.157705 0.600705 0.388107
0.193028 0.595846 0.381296
0.237632 0.595627 0.377110
0.264344 0.628428 0.394060
0.348590 0.631428 0.369792
0.450212 0.628982 0.340983
0.554277 0.618362 0.329482
0.660321 0.614846 0.269089
0.766527 0.639328 0.176245
0.834896 0.653419 0.104562
0.862150 0.643556 0.053683
0.745674 0.640252 0.098803
0.026200 0.655821 0.433426
0.038524 0.657762 0.435934
0.060603 0.662004 0.437537
0.100808 0.664712 0.435541
0.146692 0.662275 0.429419
0.194310 0.655615 0.419625
0.242329 0.651144 0.411785
0.266745 0.678977 0.425522
0.340824 0.681971 0.407530
0.438099 0.682224 0.372544
0.534468 0.676457 0.362148
0.631216 0.666620 0.343554
0.728163 0.668312 0.279633
0.822932 0.689279 0.194771
0.882519 0.696704 0.121292
0.759871 0.691064 0.131164
0.012548 0.704585 0.468070
0.028695 0.705494 0.469346
0.049863 0.711071 0.471286
0.080249 0.718418 0.472824
0.127767 0.719907 0.468509
0.188873 0.712436 0.456525
0.244230 0.704454 0.444524
0.268734 0.729385 0.456581
0.329454 0.730931 0.443823
0.427750 0.733191 0.410038
0.516862 0.730914 0.389550
0.606330 0.723456 0.384689
0.695719 0.714805 0.358210
0.783572 0.718019 0.296610
0.873468 0.738647 0.221866
0.775147 0.743482 0.211918
0.009774 0.744322 0.494252
0.025374 0.744792 0.494593
0.042733 0.751270 0.496936
0.066276 0.759989 0.499815
0.109496 0.766465 0.498810
0.180288 0.761296 0.487269
0.244149 0.752446 0.473402
0.270780 0.769980 0.479203
0.321516 0.769699 0.468572
0.414042 0.774943 0.442814
0.504542 0.777039 0.415365
0.586237 0.774655 0.408213
0.669946 0.767625 0.405001
0.749613 0.760627 0.376081
0.838970 0.768478 0.315216
0.766630 0.782324 0.298088
0.008887 0.765583 0.501983
0.024721 0.767145 0.502688
0.041884 0.773823 0.505117
0.063233 0.782201 0.507923
0.101752 0.790966 0.508724
0.172846 0.789676 0.499713
0.243935 0.781899 0.486008
0.271082 0.787983 0.481318
0.320325 0.788936 0.472361
0.408562 0.796572 0.451302
0.499424 0.802245 0.424545
0.577670 0.803693 0.417500
0.657538 0.800708 0.418129
0.734014 0.794460 0.406366
0.817833 0.793445 0.357367
0.752827 0.680669 0.267768
0.019584 0.024040 0.064959
0.038220 0.022861 0.063611
0.061665 0.020843 0.062347
0.088378 0.021184 0.063803
0.153264 0.021354 0.061595
0.251245 0.031094 0.053577
0.351569 0.062333 0.050219
0.395456 0.071345 0.059290
0.475031 0.097345 0.060192
0.538464 0.115241 0.061029
0.586436 0.126649 0.061197
0.625502 0.134666 0.060970
0.659460 0.140605 0.060431
0.690380 0.145505 0.060119
0.717790 0.149385 0.060282
0.621290 0.133284 0.064310
0.020092 0.036621 0.081589
0.038098 0.035638 0.080326
0.062282 0.032757 0.077583
0.087487 0.032673 0.079388
0.150007 0.031617 0.077948
0.251090 0.034255 0.067351
0.351293 0.063020 0.059617
0.394056 0.086714 0.059230
0.474628 0.112970 0.060186
0.538723 0.131045 0.061158
0.587181 0.142588 0.061442
0.626550 0.150704 0.061365
0.660741 0.156732 0.060983
0.691698 0.161673 0.060834
0.718928 0.165486 0.061082
0.621250 0.149519 0.065369
0.020447 0.055108 0.083463
0.037369 0.054795 0.083280
0.061682 0.051457 0.079804
0.087097 0.050173 0.080054
0.144554 0.048628 0.077990
0.244304 0.050327 0.067778
0.346995 0.078046 0.059941
0.379174 0.100870 0.061409
0.463478 0.127414 0.061758
0.532482 0.146319 0.061489
0.583306 0.158128 0.060908
0.624029 0.166518 0.060455
0.659156 0.172796 0.060033
0.690681 0.177956 0.059731
0.718239 0.182005 0.059910
0.620919 0.167514 0.065616
0.021964 0.079652 0.090895
0.038278 0.079571 0.090918
0.060495 0.077586 0.088763
0.089364 0.074393 0.085549
0.135821 0.072374 0.081178
0.221839 0.073099 0.072337
0.324193 0.094549 0.064594
0.361199 0.118422 0.065776
0.448697 0.142195 0.063280
0.522109 0.161500 0.061024
0.577252 0.174450 0.059561
0.620364 0.183418 0.058935
0.657927 0.190539 0.058791
0.691494 0.196252 0.058777
0.720366 0.200779 0.059136
0.622951 0.188265 0.066895
0.024333 0.109709 0.101941
0.040414 0.110029 0.102267
0.060634 0.109156 0.101273
0.087900 0.106931 0.098254
0.136426 0.102304 0.088405
0.210000 0.103433 0.077521
0.306966 0.118109 0.069822
0.348681 0.143636 0.068192
0.437755 0.161774 0.064046
0.514429 0.179238 0.061195
0.572866 0.192476 0.059498
0.618564 0.202045 0.058640
0.658257 0.209805 0.058367
0.693491 0.215997 0.058330
0.723487 0.220695 0.058744
0.625677 0.212970 0.070878
0.024341 0.157116 0.126843
0.040154 0.158750 0.128230
0.058626 0.159379 0.128269
0.083882 0.158111 0.125131
0.124386 0.152077 0.113439
0.208060 0.150236 0.088907
0.305382 0.157728 0.071289
0.355943 0.194959 0.068272
0.440624 0.203849 0.063309
0.515514 0.213155 0.060398
0.574361 0.220221 0.058987
0.619541 0.225987 0.058279
0.659595 0.232430 0.058005
0.695773 0.238684 0.057980
0.727129 0.243941 0.058391
0.629397 0.244430 0.077706
0.019772 0.227457 0.170135
0.035308 0.231144 0.173339
0.052401 0.232327 0.173760
0.075735 0.231089 0.170321
0.111861 0.223713 0.159564
0.183481 0.216877 0.135870
0.312370 0.224983 0.086752
0.366357 0.274167 0.089681
0.464256 0.280518 0.060069
0.536224 0.282231 0.057699
0.593864 0.281763 0.056337
0.637289 0.278718 0.055975
0.675052 0.276646 0.055883
0.708692 0.276530 0.056313
0.739693 0.278399 0.056623
0.640502 0.286918 0.085463
0.018895 0.311893 0.225144
0.033843 0.316819 0.229622
0.051282 0.318699 0.230699
0.074509 0.318682 0.228447
0.109799 0.313676 0.220080
0.165139 0.303117 0.202742
0.271268 0.302515 0.170432
0.312256 0.346801 0.192916
0.478835 0.367725 0.096037
0.567610 0.373083 0.052728
0.624993 0.370658 0.050764
0.669041 0.366224 0.051300
0.706645 0.360637 0.051925
