assets/lut/berat monochrome.cube
# Created by: G'MIC (https://gmic.eu)
TITLE "monochrome"
# LUT size
LUT_3D_SIZE 13
# Data domain
DOMAIN_MIN 0.0 0.0 0.0
DOMAIN_MAX 1.0 1.0 1.0
# LUT data points
0.01607380248606205 0.01607380248606205 0.01607380248606205
0.024762876331806183 0.024762876331806183 0.024762876331806183
0.033306434750556946 0.033306434750556946 0.033306434750556946
0.041379053145647049 0.041379053145647049 0.041379053145647049
0.04909762367606163 0.04909762367606163 0.04909762367606163
0.060574565082788467 0.060574565082788467 0.060574565082788467
0.074141092598438263 0.074141092598438263 0.074141092598438263
0.087342865765094757 0.087342865765094757 0.087342865765094757
0.10293317586183548 0.10293317586183548 0.10293317586183548
0.12195818871259689 0.12195818871259689 0.12195818871259689
0.14468912780284882 0.14468912780284882 0.14468912780284882
0.1693110316991806 0.1693110316991806 0.1693110316991806
0.19391751289367676 0.19391751289367676 0.19391751289367676
0.043180428445339203 0.043180428445339203 0.043180428445339203
0.055323448032140732 0.055323448032140732 0.055323448032140732
0.066699698567390442 0.066699698567390442 0.066699698567390442
0.077993221580982208 0.077993221580982208 0.077993221580982208
0.091420479118824005 0.091420479118824005 0.091420479118824005
0.10988069325685501 0.10988069325685501 0.10988069325685501
0.13311308622360229 0.13311308622360229 0.13311308622360229
0.15506842732429504 0.15506842732429504 0.15506842732429504
0.17820481956005096 0.17820481956005096 0.17820481956005096
0.20405580103397369 0.20405580103397369 0.20405580103397369
0.23029279708862305 0.23029279708862305 0.23029279708862305
0.25745519995689392 0.25745519995689392 0.25745519995689392
0.28397923707962036 0.28397923707962036 0.28397923707962036
0.082456625998020172 0.082456625998020172 0.082456625998020172
0.10065925121307373 0.10065925121307373 0.10065925121307373
0.11839092522859573 0.11839092522859573 0.11839092522859573
0.13650751113891602 0.13650751113891602 0.13650751113891602
0.15884411334991455 0.15884411334991455 0.15884411334991455
0.18525978922843933 0.18525978922843933 0.18525978922843933
0.21401059627532959 0.21401059627532959 0.21401059627532959
0.24165698885917664 0.24165698885917664 0.24165698885917664
0.268747478723526 0.268747478723526 0.268747478723526
0.29653599858283997 0.29653599858283997 0.29653599858283997
0.32339915633201599 0.32339915633201599 0.32339915633201599
0.35092666745185852 0.35092666745185852 0.35092666745185852
0.37794232368469238 0.37794232368469238 0.37794232368469238
0.14504852890968323 0.14504852890968323 0.14504852890968323
0.16957062482833862 0.16957062482833862 0.16957062482833862
0.19336687028408051 0.19336687028408051 0.19336687028408051
0.21823506057262421 0.21823506057262421 0.21823506057262421
0.24650196731090546 0.24650196731090546 0.24650196731090546
0.27655836939811707 0.27655836939811707 0.27655836939811707
0.30668172240257263 0.30668172240257263 0.30668172240257263
0.3352542519569397 0.3352542519569397 0.3352542519569397
0.36309424042701721 0.36309424042701721 0.36309424042701721
0.39061400294303894 0.39061400294303894 0.39061400294303894
0.41747424006462097 0.41747424006462097 0.41747424006462097
0.44493898749351501 0.44493898749351501 0.44493898749351501
0.47204357385635376 0.47204357385635376 0.47204357385635376
0.23038782179355621 0.23038782179355621 0.23038782179355621
0.25711932778358459 0.25711932778358459 0.25711932778358459
0.28327637910842896 0.28327637910842896 0.28327637910842896
0.31082895398139954 0.31082895398139954 0.31082895398139954
0.34087777137756348 0.34087777137756348 0.34087777137756348
0.37126925587654114 0.37126925587654114 0.37126925587654114
0.400655597448349 0.400655597448349 0.400655597448349
0.42886200547218323 0.42886200547218323 0.42886200547218323
0.45603632926940918 0.45603632926940918 0.45603632926940918
0.48287248611450195 0.48287248611450195 0.48287248611450195
0.50936269760131836 0.50936269760131836 0.50936269760131836
0.53586232662200928 0.53586232662200928 0.53586232662200928
0.56119513511657715 0.56119513511657715 0.56119513511657715
0.32141965627670288 0.32141965627670288 0.32141965627670288
0.34940379858016968 0.34940379858016968 0.34940379858016968
0.37706109881401062 0.37706109881401062 0.37706109881401062
0.40569034218788147 0.40569034218788147 0.40569034218788147
0.43535885214805603 0.43535885214805603 0.43535885214805603
0.46501177549362183 0.46501177549362183 0.46501177549362183
0.49316909909248352 0.49316909909248352 0.49316909909248352
0.51971322298049927 0.51971322298049927 0.51971322298049927
0.54516100883483887 0.54516100883483887 0.54516100883483887
0.57007765769958496 0.57007765769958496 0.57007765769958496
0.59468621015548706 0.59468621015548706 0.59468621015548706
0.61908358335494995 0.61908358335494995 0.61908358335494995
0.64097541570663452 0.64097541570663452 0.64097541570663452
0.41286149621009827 0.41286149621009827 0.41286149621009827
0.44100409746170044 0.44100409746170044 0.44100409746170044
0.46907767653465271 0.46907767653465271 0.46907767653465271
0.49726054072380066 0.49726054072380066 0.49726054072380066
0.52562105655670166 0.52562105655670166 0.52562105655670166
0.55392706394195557 0.55392706394195557 0.55392706394195557
0.58050662279129028 0.58050662279129028 0.58050662279129028
0.60442298650741577 0.60442298650741577 0.60442298650741577
0.62667173147201538 0.62667173147201538 0.62667173147201538
0.64843213558197021 0.64843213558197021 0.64843213558197021
0.66976773738861084 0.66976773738861084 0.66976773738861084
0.69076073169708252 0.69076073169708252 0.69076073169708252
0.70954781770706177 0.70954781770706177 0.70954781770706177
0.50390851497650146 0.50390851497650146 0.50390851497650146
0.53030455112457275 0.53030455112457275 0.53030455112457275
0.55653500556945801 0.55653500556945801 0.55653500556945801
0.58252739906311035 0.58252739906311035 0.58252739906311035
0.60830891132354736 0.60830891132354736 0.60830891132354736
0.63390588760375977 0.63390588760375977 0.63390588760375977
0.6576685905456543 0.6576685905456543 0.6576685905456543
0.67831087112426758 0.67831087112426758 0.67831087112426758
0.69695687294006348 0.69695687294006348 0.69695687294006348
0.71508610248565674 0.71508610248565674 0.71508610248565674
0.73225849866867065 0.73225849866867065 0.73225849866867065
0.74951004981994629 0.74951004981994629 0.74951004981994629
0.76467800140380859 0.76467800140380859 0.76467800140380859
0.59077048301696777 0.59077048301696777 0.59077048301696777
0.61413681507110596 0.61413681507110596 0.61413681507110596
0.63663357496261597 0.63663357496261597 0.63663357496261597
0.6586688756942749 0.6586688756942749 0.6586688756942749
0.68076419830322266 0.68076419830322266 0.68076419830322266
0.7021746039390564 0.7021746039390564 0.7021746039390564
0.72191512584686279 0.72191512584686279 0.72191512584686279
0.73880511522293091 0.73880511522293091 0.73880511522293091
0.75429290533065796 0.75429290533065796 0.75429290533065796
0.76882898807525635 0.76882898807525635 0.76882898807525635
0.78287798166275024 0.78287798166275024 0.78287798166275024
0.79645544290542603 0.79645544290542603 0.79645544290542603
0.80897432565689087 0.80897432565689087 0.80897432565689087
0.66957944631576538 0.66957944631576538 0.66957944631576538
0.68909227848052979 0.68909227848052979 0.68909227848052979
0.70675200223922729 0.70675200223922729 0.70675200223922729
0.72437912225723267 0.72437912225723267 0.72437912225723267
0.74214965105056763 0.74214965105056763 0.74214965105056763
0.75915384292602539 0.75915384292602539 0.75915384292602539
0.77435630559921265 0.77435630559921265 0.77435630559921265
0.7881045937538147 0.7881045937538147 0.7881045937538147
0.80051809549331665 0.80051809549331665 0.80051809549331665
0.81240189075469971 0.81240189075469971 0.81240189075469971
0.82389849424362183 0.82389849424362183 0.82389849424362183
0.8350406289100647 0.8350406289100647 0.8350406289100647
0.84570032358169556 0.84570032358169556 0.84570032358169556
0.73623323440551758 0.73623323440551758 0.73623323440551758
0.75168061256408691 0.75168061256408691 0.75168061256408691
0.76518887281417847 0.76518887281417847 0.76518887281417847
0.77863943576812744 0.77863943576812744 0.77863943576812744
0.79238402843475342 0.79238402843475342 0.79238402843475342
0.80555874109268188 0.80555874109268188 0.80555874109268188
0.81753480434417725 0.81753480434417725 0.81753480434417725
0.82833659648895264 0.82833659648895264 0.82833659648895264
0.83836203813552856 0.83836203813552856 0.83836203813552856
0.84826678037643433 0.84826678037643433 0.84826678037643433
0.8579598069190979 0.8579598069190979 0.8579598069190979
0.86782842874526978 0.86782842874526978 0.86782842874526978
0.87747889757156372 0.87747889757156372 0.87747889757156372
0.78795993328094482 0.78795993328094482 0.78795993328094482
0.80144989490509033 0.80144989490509033 0.80144989490509033
0.81215733289718628 0.81215733289718628 0.81215733289718628
0.82241857051849365 0.82241857051849365 0.82241857051849365
0.83320450782775879 0.83320450782775879 0.83320450782775879
0.8438759446144104 0.8438759446144104 0.8438759446144104
0.8535042405128479 0.8535042405128479 0.8535042405128479
0.86217820644378662 0.86217820644378662 0.86217820644378662
0.87054556608200073 0.87054556608200073 0.87054556608200073
0.87899297475814819 0.87899297475814819 0.87899297475814819
0.88794463872909546 0.88794463872909546 0.88794463872909546
0.89706528186798096 0.89706528186798096 0.89706528186798096
0.90616542100906372 0.90616542100906372 0.90616542100906372
0.82937324047088623 0.82937324047088623 0.82937324047088623
0.84158360958099365 0.84158360958099365 0.84158360958099365
0.85082125663757324 0.85082125663757324 0.85082125663757324
0.85918730497360229 0.85918730497360229 0.85918730497360229
0.86801785230636597 0.86801785230636597 0.86801785230636597
0.87694001197814941 0.87694001197814941 0.87694001197814941
0.8851851224899292 0.8851851224899292 0.8851851224899292
0.89241445064544678 0.89241445064544678 0.89241445064544678
0.89956760406494141 0.89956760406494141 0.89956760406494141
0.90734022855758667 0.90734022855758667 0.90734022855758667
0.91595447063446045 0.91595447063446045 0.91595447063446045
0.92466884851455688 0.92466884851455688 0.92466884851455688
0.93333494663238525 0.93333494663238525 0.93333494663238525
0.018452977761626244 0.018452977761626244 0.018452977761626244
0.027128435671329498 0.027128435671329498 0.027128435671329498
0.03505745530128479 0.03505745530128479 0.03505745530128479
0.043646480888128281 0.043646480888128281 0.043646480888128281
0.053322721272706985 0.053322721272706985 0.053322721272706985
0.06458340585231781 0.06458340585231781 0.06458340585231781
0.077550776302814484 0.077550776302814484 0.077550776302814484
0.092605859041213989 0.092605859041213989 0.092605859041213989
0.11027173697948456 0.11027173697948456 0.11027173697948456
0.13081127405166626 0.13081127405166626 0.13081127405166626
0.15411299467086792 0.15411299467086792 0.15411299467086792
0.17902922630310059 0.17902922630310059 0.17902922630310059
0.20465573668479919 0.20465573668479919 0.20465573668479919
0.046728335320949554 0.046728335320949554 0.046728335320949554
0.05794849619269371 0.05794849619269371 0.05794849619269371
0.069623790681362152 0.069623790681362152 0.069623790681362152
0.083291925489902496 0.083291925489902496 0.083291925489902496
0.09915701299905777 0.09915701299905777 0.09915701299905777
0.11720047146081924 0.11720047146081924 0.11720047146081924
0.13918334245681763 0.13918334245681763 0.13918334245681763
0.16334308683872223 0.16334308683872223 0.16334308683872223
0.1884530782699585 0.1884530782699585 0.1884530782699585
0.21453239023685455 0.21453239023685455 0.21453239023685455
0.24085824191570282 0.24085824191570282 0.24085824191570282
0.26788383722305298 0.26788383722305298 0.26788383722305298
0.29504942893981934 0.29504942893981934 0.29504942893981934
0.088837474584579468 0.088837474584579468 0.088837474584579468
0.10579748451709747 0.10579748451709747 0.10579748451709747
0.12396542727947235 0.12396542727947235 0.12396542727947235
0.14482961595058441 0.14482961595058441 0.14482961595058441
0.1690116822719574 0.1690116822719574 0.1690116822719574
0.19497132301330566 0.19497132301330566 0.19497132301330566
0.22281299531459808 0.22281299531459808 0.22281299531459808
0.25113588571548462 0.25113588571548462 0.25113588571548462
0.27908486127853394 0.27908486127853394 0.27908486127853394
0.3070836067199707 0.3070836067199707 0.3070836067199707
0.33382311463356018 0.33382311463356018 0.33382311463356018
0.36117810010910034 0.36117810010910034 0.36117810010910034
0.38866397738456726 0.38866397738456726 0.38866397738456726
0.15488156676292419 0.15488156676292419 0.15488156676292419
0.17798171937465668 0.17798171937465668 0.17798171937465668
0.20195522904396057 0.20195522904396057 0.20195522904396057
0.22816337645053864 0.22816337645053864 0.22816337645053864
0.25781601667404175 0.25781601667404175 0.25781601667404175
0.28741905093193054 0.28741905093193054 0.28741905093193054
0.31645616888999939 0.31645616888999939 0.31645616888999939
0.34498614072799683 0.34498614072799683 0.34498614072799683
0.37323412299156189 0.37323412299156189 0.37323412299156189
0.40092688798904419 0.40092688798904419 0.40092688798904419
0.42767009139060974 0.42767009139060974 0.42767009139060974
0.45476031303405762 0.45476031303405762 0.45476031303405762
0.48202598094940186 0.48202598094940186 0.48202598094940186
0.2404484897851944 0.2404484897851944 0.2404484897851944
0.26721495389938354 0.26721495389938354 0.26721495389938354
0.29382911324501038 0.29382911324501038 0.29382911324501038
0.32213482260704041 0.32213482260704041 0.32213482260704041
0.35226923227310181 0.35226923227310181 0.35226923227310181
0.38223621249198914 0.38223621249198914 0.38223621249198914
0.41054254770278931 0.41054254770278931 0.41054254770278931
0.43812459707260132 0.43812459707260132 0.43812459707260132
0.46593034267425537 0.46593034267425537 0.46593034267425537
0.49294906854629517 0.49294906854629517 0.49294906854629517
0.51926827430725098 0.51926827430725098 0.51926827430725098
0.54545491933822632 0.54545491933822632 0.54545491933822632
0.57073110342025757 0.57073110342025757 0.57073110342025757
0.33158940076828003 0.33158940076828003 0.33158940076828003
0.36030051112174988 0.36030051112174988 0.36030051112174988
0.38848385214805603 0.38848385214805603 0.38848385214805603
0.41719618439674377 0.41719618439674377 0.41719618439674377
0.4465147852897644 0.4465147852897644 0.4465147852897644
0.47543621063232422 0.47543621063232422 0.47543621063232422
0.50276851654052734 0.50276851654052734 0.50276851654052734
0.5287935733795166 0.5287935733795166 0.5287935733795166
0.55454450845718384 0.55454450845718384 0.55454450845718384
0.5796581506729126 0.5796581506729126 0.5796581506729126
0.60430657863616943 0.60430657863616943 0.60430657863616943
0.62841808795928955 0.62841808795928955 0.62841808795928955
0.65027809143066406 0.65027809143066406 0.65027809143066406
0.42283111810684204 0.42283111810684204 0.42283111810684204
0.45198056101799011 0.45198056101799011 0.45198056101799011
0.48052752017974854 0.48052752017974854 0.48052752017974854
0.50854986906051636 0.50854986906051636 0.50854986906051636
0.5365983247756958 0.5365983247756958 0.5365983247756958
0.5636405348777771 0.5636405348777771 0.5636405348777771
0.58923208713531494 0.58923208713531494 0.58923208713531494
0.61284428834915161 0.61284428834915161 0.61284428834915161
0.63536041975021362 0.63536041975021362 0.63536041975021362
0.6572532057762146 0.6572532057762146 0.6572532057762146
0.67859351634979248 0.67859351634979248 0.67859351634979248
0.69934380054473877 0.69934380054473877 0.69934380054473877
0.71778905391693115 0.71778905391693115 0.71778905391693115
0.51393711566925049 0.51393711566925049 0.51393711566925049
0.54107379913330078 0.54107379913330078 0.54107379913330078
0.56743311882019043 0.56743311882019043 0.56743311882019043
0.59307730197906494 0.59307730197906494 0.59307730197906494
0.61849486827850342 0.61849486827850342 0.61849486827850342
0.64291656017303467 0.64291656017303467 0.64291656017303467
0.66558951139450073 0.66558951139450073 0.66558951139450073
0.68601185083389282 0.68601185083389282 0.68601185083389282
0.70490109920501709 0.70490109920501709 0.70490109920501709
0.72285234928131104 0.72285234928131104 0.72285234928131104
0.74042147397994995 0.74042147397994995 0.74042147397994995
0.75729364156723022 0.75729364156723022 0.75729364156723022
0.77261108160018921 0.77261108160018921 0.77261108160018921
0.60062927007675171 0.60062927007675171 0.60062927007675171
0.62423181533813477 0.62423181533813477 0.62423181533813477
0.64685940742492676 0.64685940742492676 0.64685940742492676
0.66855871677398682 0.66855871677398682 0.66855871677398682
0.69009017944335938 0.69009017944335938 0.69009017944335938
0.71063518524169922 0.71063518524169922 0.71063518524169922
0.72948682308197021 0.72948682308197021 0.72948682308197021
0.7465241551399231 0.7465241551399231 0.7465241551399231
0.76167887449264526 0.76167887449264526 0.76167887449264526
0.77619343996047974 0.77619343996047974 0.77619343996047974
0.79005199670791626 0.79005199670791626 0.79005199670791626
0.80351537466049194 0.80351537466049194 0.80351537466049194
0.81620556116104126 0.81620556116104126 0.81620556116104126
0.67815494537353516 0.67815494537353516 0.67815494537353516
0.69799244403839111 0.69799244403839111 0.69799244403839111
0.71583551168441772 0.71583551168441772 0.71583551168441772
0.73307913541793823 0.73307913541793823 0.73307913541793823
0.75014829635620117 0.75014829635620117 0.75014829635620117
0.76661765575408936 0.76661765575408936 0.76661765575408936
0.78175324201583862 0.78175324201583862 0.78175324201583862
0.79514288902282715 0.79514288902282715 0.79514288902282715
0.80730974674224854 0.80730974674224854 0.80730974674224854
0.81894689798355103 0.81894689798355103 0.81894689798355103
0.83012247085571289 0.83012247085571289 0.83012247085571289
0.84112739562988281 0.84112739562988281 0.84112739562988281
0.85226678848266602 0.85226678848266602 0.85226678848266602
0.74294143915176392 0.74294143915176392 0.74294143915176392
0.75895833969116211 0.75895833969116211 0.75895833969116211
0.77247321605682373 0.77247321605682373 0.77247321605682373
0.78588414192199707 0.78588414192199707 0.78588414192199707
0.79906773567199707 0.79906773567199707 0.79906773567199707
0.81205296516418457 0.81205296516418457 0.81205296516418457
0.82390046119689941 0.82390046119689941 0.82390046119689941
0.83444678783416748 0.83444678783416748 0.83444678783416748
0.84431254863739014 0.84431254863739014 0.84431254863739014
0.85393768548965454 0.85393768548965454 0.85393768548965454
0.86379414796829224 0.86379414796829224 0.86379414796829224
0.87364351749420166 0.87364351749420166 0.87364351749420166
0.88370460271835327 0.88370460271835327 0.88370460271835327
0.79448705911636353 0.79448705911636353 0.79448705911636353
0.80770581960678101 0.80770581960678101 0.80770581960678101
0.81815743446350098 0.81815743446350098 0.81815743446350098
0.82807320356369019 0.82807320356369019 0.82807320356369019
0.83854043483734131 0.83854043483734131 0.83854043483734131
0.84919649362564087 0.84919649362564087 0.84919649362564087
0.85872501134872437 0.85872501134872437 0.85872501134872437
0.86736935377120972 0.86736935377120972 0.86736935377120972
0.87536859512329102 0.87536859512329102 0.87536859512329102
0.88383394479751587 0.88383394479751587 0.88383394479751587
0.89306497573852539 0.89306497573852539 0.89306497573852539
0.90247958898544312 0.90247958898544312 0.90247958898544312
0.91207104921340942 0.91207104921340942 0.91207104921340942
0.83566188812255859 0.83566188812255859 0.83566188812255859
0.84697121381759644 0.84697121381759644 0.84697121381759644
0.85546362400054932 0.85546362400054932 0.85546362400054932
0.86318957805633545 0.86318957805633545 0.86318957805633545
0.87195909023284912 0.87195909023284912 0.87195909023284912
0.88120543956756592 0.88120543956756592 0.88120543956756592
0.88949096202850342 0.88949096202850342 0.88949096202850342
0.89668041467666626 0.89668041467666626 0.89668041467666626
0.90341770648956299 0.90341770648956299 0.90341770648956299
0.91125637292861938 0.91125637292861938 0.91125637292861938
0.92030352354049683 0.92030352354049683 0.92030352354049683
0.92971229553222656 0.92971229553222656 0.92971229553222656
0.93911588191986084 0.93911588191986084 0.93911588191986084
0.02250346727669239 0.02250346727669239 0.02250346727669239
0.030490485951304436 0.030490485951304436 0.030490485951304436
0.038194306194782257 0.038194306194782257 0.038194306194782257
0.047303218394517899 0.047303218394517899 0.047303218394517899
0.058450587093830109 0.058450587093830109 0.058450587093830109
0.070720389485359192 0.070720389485359192 0.070720389485359192
0.083199717104434967 0.083199717104434967 0.083199717104434967
0.098958037793636322 0.098958037793636322 0.098958037793636322
0.11766768991947174 0.11766768991947174 0.11766768991947174
0.13976755738258362 0.13976755738258362 0.13976755738258362
0.16376152634620667 0.16376152634620667 0.16376152634620667
0.18962568044662476 0.18962568044662476 0.18962568044662476
0.21606042981147766 0.21606042981147766 0.21606042981147766
0.051268931478261948 0.051268931478261948 0.051268931478261948
0.062710747122764587 0.062710747122764587 0.062710747122764587
0.07490171492099762 0.07490171492099762 0.07490171492099762
0.089979462325572968 0.089979462325572968 0.089979462325572968
0.10715776681900024 0.10715776681900024 0.10715776681900024
0.12508608400821686 0.12508608400821686 0.12508608400821686
0.14678336679935455 0.14678336679935455 0.14678336679935455
0.17241294682025909 0.17241294682025909 0.17241294682025909
0.19790932536125183 0.19790932536125183 0.19790932536125183
0.22434663772583008 0.22434663772583008 0.22434663772583008
0.25148028135299683 0.25148028135299683 0.25148028135299683
0.27922573685646057 0.27922573685646057 0.27922573685646057
0.30667018890380859 0.30667018890380859 0.30667018890380859
0.09532928466796875 0.09532928466796875 0.09532928466796875
0.11296544969081879 0.11296544969081879 0.11296544969081879
0.13209372758865356 0.13209372758865356 0.13209372758865356
0.15449880063533783 0.15449880063533783 0.15449880063533783
0.17894226312637329 0.17894226312637329 0.17894226312637329
0.20474344491958618 0.20474344491958618 0.20474344491958618
0.23345716297626495 0.23345716297626495 0.23345716297626495
0.26223111152648926 0.26223111152648926 0.26223111152648926
0.28952109813690186 0.28952109813690186 0.28952109813690186
0.31713336706161499 0.31713336706161499 0.31713336706161499
0.34476017951965332 0.34476017951965332 0.34476017951965332
0.37273955345153809 0.37273955345153809 0.37273955345153809
0.40026918053627014 0.40026918053627014 0.40026918053627014
0.16460065543651581 0.16460065543651581 0.16460065543651581
0.18825054168701172 0.18825054168701172 0.18825054168701172
0.21277996897697449 0.21277996897697449 0.21277996897697449
0.23970171809196472 0.23970171809196472 0.23970171809196472
0.26847073435783386 0.26847073435783386 0.26847073435783386
0.29784348607063293 0.29784348607063293 0.29784348607063293
0.32737359404563904 0.32737359404563904 0.32737359404563904
0.35601574182510376 0.35601574182510376 0.35601574182510376
0.38394197821617126 0.38394197821617126 0.38394197821617126
0.41159337759017944 0.41159337759017944 0.41159337759017944
0.43877547979354858 0.43877547979354858 0.43877547979354858
0.46630102396011353 0.46630102396011353 0.46630102396011353
0.49283105134963989 0.49283105134963989 0.49283105134963989
0.25246539711952209 0.25246539711952209 0.25246539711952209
0.27928975224494934 0.27928975224494934 0.27928975224494934
0.30593633651733398 0.30593633651733398 0.30593633651733398
0.33415922522544861 0.33415922522544861 0.33415922522544861
0.3636048436164856 0.3636048436164856 0.3636048436164856
0.39285355806350708 0.39285355806350708 0.39285355806350708
0.42089888453483582 0.42089888453483582 0.42089888453483582
