assets/lut/berat cineblue.cube
# Created by: G'MIC (https://gmic.eu)
TITLE "cineblue"
# LUT size
LUT_3D_SIZE 13
# Data domain
DOMAIN_MIN 0.0 0.0 0.0
DOMAIN_MAX 1.0 1.0 1.0
# LUT data points
0.014325520023703575 0.05208321288228035 0.055883236229419708
0.04058423638343811 0.055745530873537064 0.053280998021364212
0.074921533465385437 0.059730678796768188 0.050492648035287857
0.11716239899396896 0.065077930688858032 0.047240477055311203
0.16610166430473328 0.071102261543273926 0.044671300798654556
0.22008928656578064 0.074967958033084869 0.041716091334819794
0.27747958898544312 0.075893938541412354 0.037587422877550125
0.33723363280296326 0.076401218771934509 0.033417839556932449
0.39811408519744873 0.078325025737285614 0.030338123440742493
0.45949819684028625 0.08262016624212265 0.029435325413942337
0.52178817987442017 0.089860297739505768 0.03034769743680954
0.58611267805099487 0.099809922277927399 0.032089173793792725
0.65395492315292358 0.11211463809013367 0.033440385013818741
0.012773416936397552 0.070873022079467773 0.059510547667741776
0.040165726095438004 0.073930777609348297 0.056221488863229752
0.077260397374629974 0.075049333274364471 0.051682833582162857
0.12344281375408173 0.078049004077911377 0.047768086194992065
0.17560620605945587 0.083060033619403839 0.045520812273025513
0.23230260610580444 0.087744094431400299 0.042311139404773712
0.29404214024543762 0.089916616678237915 0.037098333239555359
0.35869720578193665 0.091314204037189484 0.031396694481372833
0.42430868744850159 0.094129674136638641 0.026865491643548012
0.48932152986526489 0.10006938129663467 0.025060182437300682
0.55411624908447266 0.10946404188871384 0.025631459429860115
0.62033551931381226 0.12164109200239182 0.027151323854923248
0.68937921524047852 0.13615718483924866 0.02820129320025444
0.008257218636572361 0.093405254185199738 0.061987005174160004
0.036082819104194641 0.094442583620548248 0.056603420525789261
0.076421104371547699 0.09357045590877533 0.049188248813152313
0.12853077054023743 0.092875339090824127 0.043557349592447281
0.18548843264579773 0.095923222601413727 0.041353575885295868
0.24566492438316345 0.10036293417215347 0.03907463327050209
0.31162229180335999 0.10303510725498199 0.033358719199895859
0.38054588437080383 0.10612263530492783 0.026391332969069481
0.45011284947395325 0.11086350679397583 0.021563615649938583
0.51867377758026123 0.11899442225694656 0.019787358120083809
0.58604103326797485 0.13089434802532196 0.020393341779708862
0.65436702966690063 0.14584489166736603 0.021435532718896866
0.72468739748001099 0.16276519000530243 0.022292971611022949
0.0025030248798429966 0.11756623536348343 0.061167549341917038
0.025710431858897209 0.11920903623104095 0.053954150527715683
0.067051202058792114 0.119188092648983 0.043397717177867889
0.12583257257938385 0.11607926338911057 0.034743722528219223
0.194371297955513 0.11225798726081848 0.031183011829853058
0.26318144798278809 0.11233659833669662 0.029026120901107788
0.33349445462226868 0.11494969576597214 0.024378608912229538
0.40342432260513306 0.12039999663829803 0.018863469362258911
0.47427764534950256 0.12826754152774811 0.015885086730122566
0.54480910301208496 0.13937960565090179 0.015631657093763351
0.61441028118133545 0.15446871519088745 0.01645934209227562
0.68431985378265381 0.17253576219081879 0.01737162284553051
0.75571691989898682 0.19204503297805786 0.017675392329692841
2.8004365958622657e-05 0.14200678467750549 0.055865418165922165
0.010091564618051052 0.14559851586818695 0.048552598804235458
0.04775753989815712 0.14868322014808655 0.037328127771615982
0.10937265306711197 0.14752198755741119 0.025673974305391312
0.19074688851833344 0.13875369727611542 0.018520250916481018
0.27692976593971252 0.12942212820053101 0.015046093612909317
0.35642939805984497 0.12805096805095673 0.012506731785833836
0.42893856763839722 0.13396337628364563 0.01054718904197216
0.49911701679229736 0.1446814090013504 0.011107605881989002
0.56841832399368286 0.16010782122612 0.013731114566326141
0.63805466890335083 0.17926976084709167 0.015526790171861649
0.70890426635742188 0.20045223832130432 0.016322191804647446
0.78056645393371582 0.22253844141960144 0.016223205253481865
0 0.16637124121189117 0.047351717948913574
0.00068407243816182017 0.17089121043682098 0.041802097111940384
0.022954618558287621 0.17725424468517303 0.032121248543262482
0.081357665359973907 0.18368670344352722 0.019491517916321754
0.16951383650302887 0.17910853028297424 0.0094319209456443787
0.27375814318656921 0.16232454776763916 0.0050422367639839649
0.37103533744812012 0.15101855993270874 0.0034418890718370676
0.45321163535118103 0.15106953680515289 0.0040884427726268768
0.52356541156768799 0.16190938651561737 0.00840021762996912
0.58967405557632446 0.18118318915367126 0.014254596084356308
0.65787637233734131 0.20381684601306915 0.017170296981930733
0.72867518663406372 0.2278614342212677 0.017261894419789314
0.79983466863632202 0.25265234708786011 0.017207246273756027
0 0.19059999287128448 0.035951994359493256
0 0.19438228011131287 0.032969560474157333
0.0050254371017217636 0.20162306725978851 0.026990508660674095
0.053999673575162888 0.21380101144313812 0.01651216484606266
0.14231711626052856 0.22031475603580475 0.0062108659185469151
0.25562706589698792 0.21176518499851227 0.002042044885456562
0.37160268425941467 0.1944291740655899 0.0006881863228045404
0.46843412518501282 0.18201801180839539 0.0012628892436623573
0.54362338781356812 0.18554610013961792 0.0072628543712198734
0.60827076435089111 0.20437188446521759 0.015742357820272446
0.67583709955215454 0.22700758278369904 0.019054757431149483
0.74586695432662964 0.25218939781188965 0.019472489133477211
0.81525325775146484 0.28010931611061096 0.019759727641940117
0 0.21570619940757751 0.021700421348214149
0 0.2186567485332489 0.020589776337146759
0.00048708447138778865 0.22632651031017303 0.017954567447304726
0.035257242619991302 0.24149702489376068 0.011250125244259834
0.11798858642578125 0.2587619423866272 0.0045350766740739346
0.23055984079837799 0.26919123530387878 0.0027952904347330332
0.35799649357795715 0.26067617535591125 0.0043424717150628567
0.47122761607170105 0.23525260388851166 0.0045216130092740059
0.55830603837966919 0.2224755734205246 0.0073724333196878433
0.62891823053359985 0.22988265752792358 0.013898602686822414
0.69633245468139648 0.24703742563724518 0.017108572646975517
0.76308399438858032 0.27239528298377991 0.019134536385536194
0.82845175266265869 0.30391198396682739 0.021964682266116142
0 0.24421167373657227 0.0073827258311212063
0 0.24702024459838867 0.0073344213888049126
0 0.25562658905982971 0.0068923649378120899
0.025763284415006638 0.2718559205532074 0.0041469498537480831
0.10000292956829071 0.29454478621482849 0.0019926782697439194
0.20651489496231079 0.31671380996704102 0.0046157236211001873
0.33819112181663513 0.32667335867881775 0.011663414537906647
0.46447587013244629 0.31060874462127686 0.015172681771218777
0.56637197732925415 0.28287041187286377 0.013597301207482815
0.64725422859191895 0.26805546879768372 0.012067383155226707
0.71584302186965942 0.27197983860969543 0.0129128098487854
0.77859747409820557 0.29252398014068604 0.016455316916108131
0.83905881643295288 0.32378855347633362 0.021601403132081032
0 0.27801436185836792 0.0004279791028238833
0 0.28151389956474304 0.00086240581003949046
0 0.28979706764221191 0.0012894724495708942
0.022307302802801132 0.30592980980873108 0.0010666791349649429
0.089985355734825134 0.33051854372024536 0.0026524562854319811
0.19290447235107422 0.35989028215408325 0.0083760730922222137
0.32230034470558167 0.38469788432121277 0.019034875556826591
0.45215770602226257 0.38839003443717957 0.027754943817853928
0.5630868673324585 0.36141315102577209 0.025417208671569824
0.65355068445205688 0.32818681001663208 0.01799379289150238
0.72635334730148315 0.31351134181022644 0.013904436491429806
0.78831791877746582 0.32087412476539612 0.015192054212093353
0.84572708606719971 0.34527662396430969 0.019858909770846367
0 0.32001614570617676 0.0020836624316871166
0 0.32252871990203857 0.0030770096927881241
0.00012027515913359821 0.33007428050041199 0.0045455032959580421
0.021137567237019539 0.34452545642852783 0.0056462306529283524
0.081567071378231049 0.36822575330734253 0.007483792956918478
0.17942725121974945 0.39959841966629028 0.012960411608219147
0.30527999997138977 0.43083927035331726 0.022462043911218643
0.43503925204277039 0.44922628998756409 0.032797090709209442
0.54868030548095703 0.4414842426776886 0.037258703261613846
0.64405298233032227 0.41364303231239319 0.033642876893281937
0.72387045621871948 0.38172686100006104 0.024004828184843063
0.79076588153839111 0.36841890215873718 0.018113095313310623
0.84807658195495605 0.37946227192878723 0.020042134448885918
0.0012960097519680858 0.36705052852630615 0.014885128475725651
0.00053114048205316067 0.36951392889022827 0.015552700497210026
0.0021300672087818384 0.37543383240699768 0.016356494277715683
0.020721361041069031 0.38704389333724976 0.016011497005820274
0.070557132363319397 0.4071134626865387 0.016565479338169098
0.16054177284240723 0.43654108047485352 0.018995128571987152
0.28578627109527588 0.47041371464729309 0.024168755859136581
0.41894051432609558 0.49894416332244873 0.032784659415483475
0.53525316715240479 0.51270574331283569 0.04329497367143631
0.63021314144134521 0.50615662336349487 0.049261819571256638
0.71183347702026367 0.47559276223182678 0.041602414101362228
0.78335034847259521 0.44596406817436218 0.031009959056973457
0.84548109769821167 0.43551355600357056 0.026558790355920792
0.013871660456061363 0.41787922382354736 0.033168941736221313
0.011285535059869289 0.41986283659934998 0.031753167510032654
0.011992211453616619 0.42427235841751099 0.03145892545580864
0.024346863850951195 0.43271857500076294 0.029575437307357788
0.062730200588703156 0.44856610894203186 0.028268447145819664
0.14393489062786102 0.4746701717376709 0.027543386444449425
0.26963099837303162 0.50946921110153198 0.026758380234241486
0.40766653418540955 0.54259413480758667 0.030717812478542328
0.52682805061340332 0.56914699077606201 0.042404547333717346
0.61906516551971436 0.58238881826400757 0.056225422769784927
0.69582301378250122 0.57337778806686401 0.058395251631736755
0.76538568735122681 0.54747802019119263 0.050817001610994339
0.83195549249649048 0.51770609617233276 0.041907038539648056
0.0076848496682941914 0.053110819309949875 0.075329393148422241
0.030046215280890465 0.057510778307914734 0.073056206107139587
0.061423942446708679 0.06278306245803833 0.070675000548362732
0.10306523740291595 0.068659931421279907 0.067840039730072021
0.15360000729560852 0.074674732983112335 0.064590200781822205
0.20957179367542267 0.078896328806877136 0.060416396707296371
0.26874485611915588 0.080869726836681366 0.055533599108457565
0.32904237508773804 0.081968419253826141 0.050362080335617065
0.39069530367851257 0.083998598158359528 0.046305008232593536
0.45352447032928467 0.088505417108535767 0.044039379805326462
0.51865488290786743 0.096047453582286835 0.043461833149194717
0.58763819932937622 0.10620789229869843 0.043421518057584763
0.66040098667144775 0.11871155351400375 0.043140113353729248
0.0076762926764786243 0.071062825620174408 0.080103136599063873
0.030727731063961983 0.074724502861499786 0.077953964471817017
0.06425902247428894 0.078655317425727844 0.074409827589988708
0.10938376933336258 0.083215929567813873 0.071185529232025146
0.16335602104663849 0.089234322309494019 0.068110674619674683
0.22224137187004089 0.094281263649463654 0.064197748899459839
0.2853151261806488 0.097000479698181152 0.057523224502801895
0.351774662733078 0.098418280482292175 0.049663498997688293
0.41986554861068726 0.10045662522315979 0.043058298528194427
0.48708233237266541 0.10604424774646759 0.039474006742238998
0.55428814888000488 0.11557367444038391 0.03836822509765625
0.62434810400009155 0.12798705697059631 0.038037814199924469
0.69770902395248413 0.14265626668930054 0.037716075778007507
0.0055464054457843304 0.092665761709213257 0.084333665668964386
0.028451463207602501 0.095669165253639221 0.080604031682014465
0.064776703715324402 0.098009906709194183 0.07477772980928421
0.11588499695062637 0.10028021037578583 0.069857746362686157
0.17480859160423279 0.10483847558498383 0.066953115165233612
0.23602291941642761 0.11025293171405792 0.063553094863891602
0.30260190367698669 0.11352313309907913 0.056184582412242889
0.37358325719833374 0.11598726361989975 0.046270109713077545
0.44725507497787476 0.11891425400972366 0.03773009404540062
0.51923877000808716 0.12573972344398499 0.033601019531488419
0.58904993534088135 0.13772106170654297 0.03227253258228302
0.66089546680450439 0.15265931189060211 0.031421750783920288
0.73492330312728882 0.16947995126247406 0.030683195218443871
0.0014887491706758738 0.1175999790430069 0.085368074476718903
0.020000861957669258 0.12102450430393219 0.080125667154788971
0.057230498641729355 0.12329888343811035 0.071371756494045258
0.11453462392091751 0.12343189120292664 0.063265614211559296
0.18409758806228638 0.12362056225538254 0.058070208877325058
0.25293028354644775 0.12566302716732025 0.054451946169137955
0.32283192873001099 0.12897174060344696 0.048102524131536484
0.39438644051551819 0.13414540886878967 0.038712475448846817
0.47036516666412354 0.13933651149272919 0.032015707343816757
0.54563283920288086 0.1484609991312027 0.029004594311118126
0.61844265460968018 0.16281923651695251 0.027569504454731941
0.69224601984024048 0.18013375997543335 0.026010265573859215
0.76742845773696899 0.19975540041923523 0.024828309193253517
0 0.14387145638465881 0.082190088927745819
0.0064716264605522156 0.14886412024497986 0.076392121613025665
0.038466762751340866 0.15352511405944824 0.065812267363071442
0.095330044627189636 0.15540634095668793 0.053870048373937607
0.17607700824737549 0.15109911561012268 0.043809060007333755
0.26544347405433655 0.14436085522174835 0.037556786090135574
0.34689211845397949 0.14289268851280212 0.032652851194143295
0.42095217108726501 0.14829720556735992 0.027305183932185173
0.49514207243919373 0.15682438015937805 0.025304980576038361
0.5689011812210083 0.17025679349899292 0.025486545637249947
0.64233863353729248 0.18872334063053131 0.02469196729362011
0.71699005365371704 0.20970930159091949 0.022836348041892052
0.7921937108039856 0.23196026682853699 0.021634943783283234
0 0.17125682532787323 0.075462073087692261
0.00018475102842785418 0.17669850587844849 0.070206828415393829
0.015567135997116566 0.18418797850608826 0.059982404112815857
0.067891217768192291 0.19071252644062042 0.04591573029756546
0.15414825081825256 0.18814437091350555 0.031847335398197174
0.26284793019294739 0.17447008192539215 0.021559277549386024
0.36544403433799744 0.16279512643814087 0.015920676290988922
0.44981059432029724 0.16161137819290161 0.01508783083409071
0.52251648902893066 0.17127172648906708 0.018115025013685226
0.59108322858810425 0.18978606164455414 0.022233806550502777
0.6617438793182373 0.21271704137325287 0.023370958864688873
0.73524719476699829 0.23730599880218506 0.021729053929448128
0.80916392803192139 0.26292437314987183 0.021095156669616699
0 0.19802281260490417 0.063640087842941284
0 0.20284341275691986 0.06002521887421608
0.0026665930636227131 0.21087202429771423 0.052046474069356918
0.043733827769756317 0.22203746438026428 0.039300687611103058
0.12798464298248291 0.22819606959819794 0.025257214903831482
0.24380141496658325 0.22051431238651276 0.013812046498060226
0.36615514755249023 0.20240595936775208 0.0069439606741070747
0.46688005328178406 0.18810431659221649 0.0065101771615445614
0.54448288679122925 0.19040057063102722 0.01197687815874815
0.61117303371429443 0.20912553369998932 0.019325660541653633
0.67937630414962769 0.23281951248645782 0.021529000252485275
0.75070184469223022 0.25924193859100342 0.020958470180630684
0.82171142101287842 0.28812220692634583 0.021992074325680733
0 0.22363270819187164 0.045295670628547668
0 0.2271079421043396 0.043979045003652573
5.7444853155175224e-05 0.23477235436439514 0.039424672722816467
0.027671394869685173 0.24844774603843689 0.029877142980694771
0.10628560185432434 0.26494839787483215 0.019534856081008911
0.22108091413974762 0.27376192808151245 0.012232626788318157
0.3535008430480957 0.26400893926620483 0.0086204977706074715
0.47090989351272583 0.23817546665668488 0.00694249477237463
0.5605776309967041 0.22435443103313446 0.0097284801304340363
0.63210523128509521 0.23144689202308655 0.015033228322863579
0.69923317432403564 0.24906030297279358 0.017625875771045685
0.76607638597488403 0.27511134743690491 0.019145606085658073
0.83193731307983398 0.30677995085716248 0.022993080317974091
0 0.25019156932830811 0.024764940142631531
0 0.25329124927520752 0.025497257709503174
0 0.26006576418876648 0.024195099249482155
0.020225854590535164 0.274046391248703 0.018520025536417961
0.092773362994194031 0.2972293496131897 0.012983314692974091
0.20383661985397339 0.32170134782791138 0.012194270268082619
0.33989837765693665 0.33278670907020569 0.016355596482753754
0.46754753589630127 0.31530800461769104 0.01800873689353466
0.56920385360717773 0.28539475798606873 0.015473354607820511
0.64965879917144775 0.26786136627197266 0.012586137279868126
0.71782124042510986 0.27063661813735962 0.01270452793687582
0.78016412258148193 0.29151931405067444 0.016031362116336823
0.84007781744003296 0.32307913899421692 0.021868223324418068
0 0.28258666396141052 0.010595733299851418
0 0.285074383020401 0.012790351174771786
0 0.29146590828895569 0.013733942061662674
0.018405180424451828 0.30477145314216614 0.01132526807487011
0.085291661322116852 0.3299197256565094 0.0090017430484294891
0.19217398762702942 0.36180862784385681 0.011621572077274323
0.32639527320861816 0.38812652230262756 0.020054925233125687
0.45704090595245361 0.39078396558761597 0.027905916795134544
0.56543374061584473 0.36340764164924622 0.026545625180006027
0.65437024831771851 0.32852676510810852 0.019535498693585396
0.72734999656677246 0.31216651201248169 0.014470163732767105
0.78841316699981689 0.31973975896835327 0.015153548680245876
0.84427893161773682 0.3461935818195343 0.021118327975273132
0 0.32235142588615417 0.0089125987142324448
0 0.32465776801109314 0.010674704797565937
1.9148284991388209e-05 0.33069053292274475 0.012429061345756054
0.018756343051791191 0.34261366724967957 0.011522420682013035
0.078726015985012054 0.36578929424285889 0.0097149563953280449
0.180035799741745 0.39777669310569763 0.01140295248478651
0.31098178029060364 0.4305051863193512 0.019139427691698074
0.44065561890602112 0.45073181390762329 0.030747028067708015
0.55063605308532715 0.44488415122032166 0.038153376430273056
0.64462637901306152 0.41383787989616394 0.035036887973546982
0.7239689826965332 0.38241297006607056 0.026251070201396942
0.78939121961593628 0.36958399415016174 0.020050767809152603
0.84657973051071167 0.38085278868675232 0.021474441513419151
0.0028603647369891405 0.36786726117134094 0.016669150441884995
0.0013590195449069142 0.37039807438850403 0.018719885498285294
0.0026979334652423859 0.37553101778030396 0.02039082907140255
0.02017415314912796 0.38534694910049438 0.018283424898982048
0.070601291954517365 0.40443119406700134 0.014862554147839546
0.16324353218078613 0.43424424529075623 0.013747016899287701
0.29083791375160217 0.47004172205924988 0.018274059519171715
0.42316558957099915 0.50042033195495605 0.029584847390651703
0.53718560934066772 0.51484674215316772 0.043475355952978134
0.63163489103317261 0.50471466779708862 0.050065569579601288
0.71230554580688477 0.47666019201278687 0.043642140924930573
0.78259372711181641 0.44830501079559326 0.032686047255992889
0.8445742130279541 0.43629145622253418 0.02645244263112545
0.014639058150351048 0.41675031185150146 0.031844537705183029
0.013680103234946728 0.41979438066482544 0.033588722348213196
0.014244423247873783 0.42418405413627625 0.034437831491231918
0.025602392852306366 0.43084782361984253 0.02979615144431591
0.066041953861713409 0.4466451108455658 0.024321192875504494
0.14968353509902954 0.4736289381980896 0.020096154883503914
0.27322837710380554 0.50991708040237427 0.020156575366854668
0.40872794389724731 0.54426294565200806 0.027777727693319321
0.52759170532226562 0.56994044780731201 0.042436052113771439
0.62109649181365967 0.58047789335250854 0.056334134191274643
0.69677698612213135 0.57432049512863159 0.059015683829784393
0.7652595043182373 0.55078268051147461 0.051632795482873917
0.83175361156463623 0.51990640163421631 0.04121856763958931
0.0023864447139203548 0.054064717143774033 0.094879209995269775
0.018663309514522552 0.059428989887237549 0.093433424830436707
0.045850161463022232 0.065557383000850677 0.091662958264350891
0.086074143648147583 0.071906909346580505 0.088951453566551208
0.13859745860099792 0.077703289687633514 0.085301972925662994
0.19771647453308105 0.081960700452327728 0.080440416932106018
0.25793272256851196 0.084995582699775696 0.075065866112709045
0.31744062900543213 0.087580375373363495 0.070210762321949005
0.37735059857368469 0.090938538312911987 0.066183499991893768
0.44075226783752441 0.096255071461200714 0.063231311738491058
0.50984758138656616 0.10436747223138809 0.061358477920293808
0.58510071039199829 0.11427075415849686 0.058471500873565674
0.6640506386756897 0.12673960626125336 0.056056991219520569
0.0033530888613313437 0.069776274263858795 0.099811360239982605
0.020378008484840393 0.075534939765930176 0.099641717970371246
0.048598270863294601 0.081494666635990143 0.098346039652824402
0.091316059231758118 0.087885916233062744 0.095961101353168488
0.14741285145282745 0.094144754111766815 0.092478163540363312
0.20991045236587524 0.099535174667835236 0.087671451270580292
0.27433872222900391 0.10325070470571518 0.081053636968135834
0.34060072898864746 0.10559524595737457 0.072990685701370239
0.40873590111732483 0.10841408371925354 0.065341413021087646
0.47685849666595459 0.11458455771207809 0.060623064637184143
0.5478748083114624 0.12433869391679764 0.057358566671609879
0.62369155883789062 0.13621312379837036 0.054325584322214127
0.70327651500701904 0.15054868161678314 0.051539313048124313
0.0034018573351204395 0.088774904608726501 0.10455072671175003
0.01993693970143795 0.094985142350196838 0.10440422594547272
0.050107289105653763 0.10083521157503128 0.10223408043384552
0.097424782812595367 0.1067817360162735 0.099165640771389008
0.1584407240152359 0.11266548186540604 0.095880724489688873
0.2230902761220932 0.11873647570610046 0.092059344053268433
0.29025211930274963 0.12331779301166534 0.084912799298763275
0.36245051026344299 0.12611134350299835 0.07403092086315155
0.43916875123977661 0.12844353914260864 0.063034713268280029
0.51300257444381714 0.13521213829517365 0.056258827447891235
0.58598721027374268 0.14718286693096161 0.052325259894132614
0.6627882719039917 0.16135500371456146 0.048149228096008301
0.74324893951416016 0.17766937613487244 0.044698573648929596
0.0010978997452184558 0.11299004405736923 0.1083926185965538
0.014151060953736305 0.11973652243614197 0.10727428644895554
0.043635781854391098 0.12601003050804138 0.10311439633369446
0.095186449587345123 0.13144572079181671 0.097443565726280212
0.16530661284923553 0.13544158637523651 0.092117711901664734
0.23702120780944824 0.13909851014614105 0.088715299963951111
0.30778378248214722 0.14374414086341858 0.082720831036567688
0.3832266628742218 0.14796672761440277 0.071090966463088989
0.46291846036911011 0.1521928608417511 0.060408230870962143
0.54096633195877075 0.16046643257141113 0.053258530795574188
0.61780226230621338 0.17419396340847015 0.047817904502153397
0.69737732410430908 0.19073599576950073 0.042277436703443527
0.77809101343154907 0.2091619074344635 0.037960216403007507
0 0.14285755157470703 0.11073502153158188
0.003785361535847187 0.14986477792263031 0.10840762406587601
0.027467511594295502 0.15723329782485962 0.10180194675922394
0.076166726648807526 0.16336745023727417 0.09202016144990921
0.15527811646461487 0.16387726366519928 0.081002853810787201
0.24882744252681732 0.16003970801830292 0.072767965495586395
0.33210340142250061 0.16097649931907654 0.067436277866363525
