assets/lut/berat cinebm4k.cube
# Created by: G'MIC (https://gmic.eu)
TITLE "cinebm4k"
# LUT size
LUT_3D_SIZE 13
# Data domain
DOMAIN_MIN 0.0 0.0 0.0
DOMAIN_MAX 1.0 1.0 1.0
# LUT data points
0.035754036158323288 0.034768257290124893 0.035098657011985779
0.043689325451850891 0.03577055037021637 0.035184614360332489
0.05353878065943718 0.036244500428438187 0.033809136599302292
0.06453559547662735 0.035776656121015549 0.030968863517045975
0.097708262503147125 0.035492483526468277 0.024649705737829208
0.16816236078739166 0.038076572120189667 0.017255835235118866
0.27062469720840454 0.042777281254529953 0.0098261814564466476
0.38162034749984741 0.053355198353528976 0.0025186575949192047
0.51329487562179565 0.092571213841438293 0
0.65569537878036499 0.15621943771839142 0
0.82208865880966187 0.26313307881355286 0
0.88961499929428101 0.30977824330329895 0
0.88978731632232666 0.30980393290519714 0
0.038435064256191254 0.040855064988136292 0.035873055458068848
0.043519549071788788 0.040022935718297958 0.035939820110797882
0.053180169314146042 0.040392424911260605 0.033910203725099564
0.06595669686794281 0.04043184220790863 0.031154198572039604
0.097787000238895416 0.040608856827020645 0.025893956422805786
0.16549508273601532 0.041932541877031326 0.018691059201955795
0.26690810918807983 0.04498494416475296 0.010084055364131927
0.37815934419631958 0.054077088832855225 0.0026497335638850927
0.50568771362304688 0.088514424860477448 0
0.64839231967926025 0.15353448688983917 0
0.81258285045623779 0.25586020946502686 0
0.88710606098175049 0.30953148007392883 0
0.8882516622543335 0.30980393290519714 0
0.042063724249601364 0.047854732722043991 0.036087561398744583
0.043388023972511292 0.045029103755950928 0.035324275493621826
0.050995547324419022 0.044566795229911804 0.035049855709075928
0.065009653568267822 0.045723933726549149 0.032323382794857025
0.097074694931507111 0.047197021543979645 0.028459241613745689
0.16016623377799988 0.048960518091917038 0.021063994616270065
0.26068755984306335 0.04847901314496994 0.011169104836881161
0.36972144246101379 0.052990064024925232 0.0023539375979453325
0.4978107213973999 0.086107559502124786 0
0.63938051462173462 0.14601552486419678 0
0.81107014417648315 0.25386980175971985 0
0.88767993450164795 0.3094106912612915 0
0.88649231195449829 0.30980393290519714 0
0.046253010630607605 0.057143639773130417 0.036654453724622726
0.045906651765108109 0.054788071662187576 0.03670278936624527
0.050376638770103455 0.053995244204998016 0.036566313356161118
0.061515644192695618 0.054867882281541824 0.035487230867147446
0.091043494641780853 0.057065524160861969 0.031674973666667938
0.15049591660499573 0.05765228345990181 0.024249821901321411
0.2507081925868988 0.058487266302108765 0.013667147606611252
0.36341887712478638 0.061553072184324265 0.0030878852121531963
0.48994565010070801 0.08815436065196991 0
0.63876509666442871 0.15374009311199188 0
0.81292563676834106 0.25849047303199768 0
0.8897203803062439 0.31186994910240173 0
0.88870346546173096 0.3119455873966217 0
0.058342441916465759 0.081923119723796844 0.043372239917516708
0.059056945145130157 0.081947863101959229 0.043416820466518402
0.061443869024515152 0.082040898501873016 0.043441232293844223
0.06944497674703598 0.081455200910568237 0.042196791619062424
0.090992778539657593 0.08052477240562439 0.039413526654243469
0.14401388168334961 0.079019404947757721 0.030859179794788361
0.23714436590671539 0.079252280294895172 0.01813303679227829
0.35603728890419006 0.083498157560825348 0.0058208242990076542
0.48442208766937256 0.10938531905412674 0.00033180386526510119
0.62921679019927979 0.16599677503108978 0
0.80482012033462524 0.26501238346099854 0
0.88832420110702515 0.32106244564056396 0
0.88830006122589111 0.3222385048866272 0
0.085117131471633911 0.13163873553276062 0.056369736790657043
0.089140050113201141 0.13650915026664734 0.057645250111818314
0.089230477809906006 0.13856200873851776 0.056929361075162888
0.09503299742937088 0.13888420164585114 0.05669129267334938
0.11098641902208328 0.13785287737846375 0.055059276521205902
0.15752461552619934 0.13574822247028351 0.048957075923681259
0.24522252380847931 0.13343435525894165 0.035072356462478638
0.35901123285293579 0.14196620881557465 0.022382175549864769
0.47674566507339478 0.15820038318634033 0.009328281506896019
0.60758882761001587 0.19585117697715759 0.0018506518099457026
0.7661479115486145 0.26856043934822083 0
0.88000780344009399 0.33672454953193665 0
0.88294678926467896 0.34081646800041199 0
0.14606106281280518 0.22657476365566254 0.086107634007930756
0.15203529596328735 0.23437374830245972 0.088614024221897125
0.15315419435501099 0.23633067309856415 0.088717095553874969
0.15875379741191864 0.23907269537448883 0.089604713022708893
0.17049810290336609 0.23802013695240021 0.087025664746761322
0.20136968791484833 0.23091696202754974 0.080228365957736969
0.26991364359855652 0.22580838203430176 0.068819575011730194
0.3693816065788269 0.23227782547473907 0.055706456303596497
0.47539415955543518 0.24419653415679932 0.038244735449552536
0.58678293228149414 0.25862625241279602 0.013406775891780853
0.7218669056892395 0.3014492392539978 0.00066486431751400232
0.86288750171661377 0.36646422743797302 0
0.8856041431427002 0.37919154763221741 0
0.23298704624176025 0.34085357189178467 0.13595828413963318
0.23867034912109375 0.34792599081993103 0.13881078362464905
0.24350936710834503 0.35169684886932373 0.1409207284450531
0.2500913143157959 0.35663852095603943 0.14312228560447693
0.25789991021156311 0.3559914231300354 0.1416974663734436
0.27944031357765198 0.3471924364566803 0.13672322034835815
0.31467053294181824 0.34238353371620178 0.12454132735729218
0.38550344109535217 0.34235337376594543 0.10953608155250549
0.47501078248023987 0.34513449668884277 0.084437258541584015
0.57473057508468628 0.35086214542388916 0.043158959597349167
0.68584668636322021 0.36876925826072693 0.008154790848493576
0.83269631862640381 0.41360759735107422 0.00067609897814691067
0.88690471649169922 0.43520084023475647 0
0.33595502376556396 0.45500865578651428 0.20702041685581207
0.34158283472061157 0.46077746152877808 0.21030409634113312
0.34523826837539673 0.46348929405212402 0.21190148591995239
0.35250464081764221 0.46799752116203308 0.21568112075328827
0.35874572396278381 0.4688057005405426 0.21577420830726624
0.36554720997810364 0.4625391960144043 0.20867589116096497
0.38766711950302124 0.45686072111129761 0.19820235669612885
0.43244731426239014 0.45071369409561157 0.18366900086402893
0.49841165542602539 0.44722887873649597 0.15901385247707367
0.58031380176544189 0.44807249307632446 0.1214965358376503
0.67406326532363892 0.45483213663101196 0.061245787888765335
0.79883164167404175 0.47822687029838562 0.014508445747196674
0.8921579122543335 0.50317603349685669 0.0011028514709323645
0.44004514813423157 0.56646323204040527 0.28265795111656189
0.45159026980400085 0.57610464096069336 0.2926672101020813
0.45622935891151428 0.58065336942672729 0.2949974536895752
0.46320515871047974 0.58581763505935669 0.2991790771484375
0.46770656108856201 0.58529949188232422 0.29886606335639954
0.46717628836631775 0.57975685596466064 0.29186192154884338
0.47805240750312805 0.57192212343215942 0.28184196352958679
0.49975883960723877 0.56116849184036255 0.26719251275062561
0.54577255249023438 0.55330157279968262 0.24791325628757477
0.60622906684875488 0.54908668994903564 0.22171925008296967
0.68360441923141479 0.55113750696182251 0.17953476309776306
0.78206640481948853 0.55976313352584839 0.095873244106769562
0.89240211248397827 0.57726281881332397 0.01781565323472023
0.5722583532333374 0.69867753982543945 0.38862964510917664
0.58267694711685181 0.70815229415893555 0.39748838543891907
0.59262567758560181 0.71736979484558105 0.40601453185081482
0.60488331317901611 0.7286180853843689 0.4159284234046936
0.60623687505722046 0.72677159309387207 0.41400995850563049
0.59847640991210938 0.71568834781646729 0.40177673101425171
0.59539473056793213 0.70313966274261475 0.38906335830688477
0.59854865074157715 0.68547224998474121 0.3707679808139801
0.61892366409301758 0.66982322931289673 0.35180491209030151
0.65739065408706665 0.65831214189529419 0.32794332504272461
0.71451812982559204 0.65400791168212891 0.29979398846626282
0.79257941246032715 0.65736478567123413 0.24896341562271118
0.88829648494720459 0.66384655237197876 0.12657883763313293
0.73636353015899658 0.85903310775756836 0.52503788471221924
0.73891836404800415 0.86157971620559692 0.5274355411529541
0.74619585275650024 0.86839908361434937 0.53361654281616211
0.74838709831237793 0.87046927213668823 0.53550112247467041
0.74808692932128906 0.86826193332672119 0.5335310697555542
0.74570614099502563 0.86337321996688843 0.52885836362838745
0.74256449937820435 0.85484892129898071 0.52075064182281494
0.72724628448486328 0.82707297801971436 0.49524223804473877
0.72802579402923584 0.80324763059616089 0.47034212946891785
0.74085718393325806 0.78322643041610718 0.44556823372840881
0.77357637882232666 0.77341771125793457 0.42354801297187805
0.829689621925354 0.76950913667678833 0.39079609513282776
0.90945380926132202 0.76834088563919067 0.32444894313812256
0.78711771965026855 0.90875202417373657 0.5678260326385498
0.78692167997360229 0.90852063894271851 0.56776940822601318
0.78771704435348511 0.90928566455841064 0.56819784641265869
0.7877357006072998 0.9092833399772644 0.56828188896179199
0.78780883550643921 0.90829801559448242 0.56741517782211304
0.78880554437637329 0.90715110301971436 0.566428542137146
0.79058045148849487 0.90494287014007568 0.56431329250335693
0.79598909616470337 0.90371096134185791 0.56293994188308716
0.80402743816375732 0.89507842063903809 0.5530351996421814
0.81697803735733032 0.88766980171203613 0.54307597875595093
0.84163260459899902 0.88736307621002197 0.53691726922988892
0.87825691699981689 0.88235485553741455 0.52024489641189575
0.93705528974533081 0.8791508674621582 0.48735260963439941
0.035646297037601471 0.035795833915472031 0.043391000479459763
0.041358407586812973 0.037522800266742706 0.043714992702007294
0.05078602209687233 0.038462873548269272 0.042302180081605911
0.063627429306507111 0.036052614450454712 0.036804918199777603
0.093207955360412598 0.035328343510627747 0.029097702354192734
0.16114650666713715 0.038435377180576324 0.020246813073754311
0.26257523894309998 0.043915137648582458 0.011449268087744713
0.37858429551124573 0.059156589210033417 0.0047990237362682819
0.50564289093017578 0.088647566735744476 0.0011048560263589025
0.65005457401275635 0.15361371636390686 0
0.81865954399108887 0.26056259870529175 0
0.88887834548950195 0.30975258350372314 0
0.88750553131103516 0.30980393290519714 0
0.037960156798362732 0.040093723684549332 0.040876112878322601
0.042582046240568161 0.040529124438762665 0.041792221367359161
0.05148710310459137 0.040314827114343643 0.040367081761360168
0.065475597977638245 0.039240337908267975 0.034946531057357788
0.094614081084728241 0.037668071687221527 0.027509920299053192
0.16147652268409729 0.03948478028178215 0.019751964136958122
0.26208192110061646 0.045643225312232971 0.012218998745083809
0.37643864750862122 0.058419231325387955 0.0052430992946028709
0.50187724828720093 0.086309351027011871 0.00048769783461466432
0.64349377155303955 0.14890004694461823 0
0.81145155429840088 0.254863440990448 0
0.88621795177459717 0.30930605530738831 0
0.88627451658248901 0.30980393290519714 0
0.040576186031103134 0.047387409955263138 0.040206894278526306
0.04305826872587204 0.045505762100219727 0.040548946708440781
0.05015912652015686 0.044515453279018402 0.039586909115314484
0.066816575825214386 0.045284375548362732 0.035103444010019302
0.094473943114280701 0.045537311583757401 0.029387978836894035
0.15659342706203461 0.045823745429515839 0.021766632795333862
0.25629127025604248 0.047077223658561707 0.012386322021484375
0.36855041980743408 0.054977912455797195 0.0038447810802608728
0.49681931734085083 0.085749715566635132 0
0.64075952768325806 0.14760050177574158 0
0.8137086033821106 0.25659412145614624 0
0.88722467422485352 0.30966407060623169 0
0.88681608438491821 0.30980393290519714 0
0.044645018875598907 0.057910066097974777 0.039266534149646759
0.045625321567058563 0.055840957909822464 0.039805080741643906
0.051268812268972397 0.055737737566232681 0.040817230939865112
0.064270451664924622 0.05674884095788002 0.037497382611036301
0.089198589324951172 0.057530123740434647 0.032450269907712936
0.15084753930568695 0.057888898998498917 0.02454853430390358
0.24751321971416473 0.057965792715549469 0.013924049213528633
0.36352917551994324 0.063316524028778076 0.0039389068260788918
0.49158781766891479 0.090292960405349731 0
0.63952946662902832 0.15361103415489197 0
0.81448960304260254 0.25978022813796997 0
0.88892668485641479 0.31115835905075073 0
0.88779133558273315 0.31115195155143738 0
0.057593014091253281 0.082324326038360596 0.043994992971420288
0.059292960911989212 0.083757452666759491 0.045383632183074951
0.062512703239917755 0.084275998175144196 0.046847924590110779
0.071506783366203308 0.084557250142097473 0.043793682008981705
0.090260207653045654 0.081304050981998444 0.039184555411338806
0.14572837948799133 0.079519070684909821 0.030908577144145966
0.23738162219524384 0.079638764262199402 0.01836395263671875
0.35766834020614624 0.087033197283744812 0.0077190473675727844
0.48685592412948608 0.11256197839975357 0.00075786816887557507
0.63219302892684937 0.16865023970603943 0
0.80904453992843628 0.26877453923225403 0
0.88723117113113403 0.32029598951339722 0
0.88686186075210571 0.32190674543380737 0
0.085664577782154083 0.13330695033073425 0.056699506938457489
0.090887211263179779 0.13964910805225372 0.060031816363334656
0.09250824898481369 0.14163421094417572 0.06054217740893364
0.097353138029575348 0.14238528907299042 0.058827254921197891
0.11143200099468231 0.1395205557346344 0.055364001542329788
0.15790151059627533 0.13717947900295258 0.049247816205024719
0.24112085998058319 0.13559243083000183 0.036721233278512955
0.35544934868812561 0.14343714714050293 0.022946510463953018
0.47683888673782349 0.15971329808235168 0.0092355022206902504
0.60970216989517212 0.19866175949573517 0.0021103504113852978
0.77237212657928467 0.27286699414253235 1.1518889550643507e-05
0.88272607326507568 0.33775568008422852 0
0.88496887683868408 0.34117648005485535 0
0.14534251391887665 0.22505711019039154 0.087267495691776276
0.14716196060180664 0.22867569327354431 0.087710872292518616
0.14967672526836395 0.22900378704071045 0.089933253824710846
0.1544935554265976 0.23309358954429626 0.089900612831115723
0.16706427931785583 0.23605638742446899 0.088453717529773712
0.20138499140739441 0.23203304409980774 0.082705147564411163
0.26943317055702209 0.22826856374740601 0.069946557283401489
0.36975964903831482 0.23394891619682312 0.055666275322437286
0.47584345936775208 0.24512206017971039 0.038692459464073181
0.58646440505981445 0.25965186953544617 0.012606048956513405
0.72663307189941406 0.30420467257499695 0.001282860292121768
0.86895221471786499 0.36890795826911926 0
0.88701915740966797 0.38087087869644165 0
0.23220045864582062 0.33727800846099854 0.13820679485797882
0.23526023328304291 0.34071823954582214 0.1399126797914505
0.2420133501291275 0.34516200423240662 0.14462323486804962
0.24996088445186615 0.35078880190849304 0.14774833619594574
0.26061317324638367 0.35413715243339539 0.14721272885799408
0.27846625447273254 0.34709736704826355 0.14012736082077026
0.31690645217895508 0.3454652726650238 0.12814493477344513
0.38891860842704773 0.34465616941452026 0.11100942641496658
0.47747617959976196 0.34621700644493103 0.087103314697742462
0.57613527774810791 0.35253840684890747 0.048746880143880844
0.68933475017547607 0.37118139863014221 0.0098477080464363098
0.8382720947265625 0.41640499234199524 0.00054532219655811787
0.89391434192657471 0.43790343403816223 0
0.33296701312065125 0.45266592502593994 0.20372609794139862
0.33813148736953735 0.45623481273651123 0.20836763083934784
0.34422510862350464 0.46000611782073975 0.21423234045505524
0.35561171174049377 0.46852809190750122 0.22197985649108887
0.36289492249488831 0.47102361917495728 0.22060517966747284
0.3663056492805481 0.46457496285438538 0.21021886169910431
0.38965561985969543 0.45891886949539185 0.20069628953933716
0.43756642937660217 0.45310220122337341 0.18533699214458466
0.49979540705680847 0.44870814681053162 0.16045248508453369
0.58146393299102783 0.44920229911804199 0.1219400018453598
0.67694580554962158 0.45589989423751831 0.064630143344402313
0.80210679769515991 0.47910633683204651 0.016101403161883354
0.89432734251022339 0.50427013635635376 0.001754267024807632
0.44042778015136719 0.56694406270980835 0.28288859128952026
0.45023953914642334 0.57490772008895874 0.29211097955703735
0.45794770121574402 0.58176195621490479 0.29831743240356445
0.46567443013191223 0.58844363689422607 0.30382001399993896
0.4711640477180481 0.58888065814971924 0.30250990390777588
0.47457516193389893 0.5830872654914856 0.2951653003692627
0.48122677206993103 0.57384634017944336 0.28338766098022461
0.50219553709030151 0.56331843137741089 0.26855689287185669
0.54554754495620728 0.55540436506271362 0.25035390257835388
0.6103331446647644 0.55170524120330811 0.22089588642120361
0.68587851524353027 0.55239641666412354 0.18069896101951599
0.78311753273010254 0.56031161546707153 0.094687320291996002
0.89075464010238647 0.57801598310470581 0.015312733128666878
0.57414984703063965 0.7014281153678894 0.39094167947769165
0.58742737770080566 0.71283537149429321 0.40270403027534485
0.59900486469268799 0.72368860244750977 0.4123237133026123
0.60734975337982178 0.73229622840881348 0.41840827465057373
0.60784804821014404 0.72839760780334473 0.41426786780357361
0.60409736633300781 0.71767932176589966 0.40404766798019409
0.60456788539886475 0.70714938640594482 0.39321091771125793
0.60536354780197144 0.68990695476531982 0.37551277875900269
0.62505662441253662 0.67336380481719971 0.3543713390827179
0.6590193510055542 0.65915781259536743 0.32813981175422668
0.71965509653091431 0.65587002038955688 0.29723212122917175
0.79328775405883789 0.65684348344802856 0.24781288206577301
0.88864690065383911 0.66303902864456177 0.12397025525569916
0.73627114295959473 0.85927164554595947 0.52540409564971924
0.73581242561340332 0.85859674215316772 0.52491331100463867
0.74540549516677856 0.8676987886428833 0.53321617841720581
0.755237877368927 0.87702637910842896 0.54137921333312988
0.74969345331192017 0.86880290508270264 0.53449684381484985
0.7407764196395874 0.85706335306167603 0.52347362041473389
0.73508214950561523 0.84531062841415405 0.51281082630157471
0.7270471453666687 0.82578873634338379 0.49464312195777893
0.73019379377365112 0.80478644371032715 0.4718782901763916
0.73882031440734863 0.78188002109527588 0.44508647918701172
0.76915425062179565 0.76850873231887817 0.4198068380355835
0.82767319679260254 0.76552164554595947 0.38736638426780701
0.90881633758544922 0.76561886072158813 0.32372221350669861
0.7867627739906311 0.90835940837860107 0.56772065162658691
0.78371918201446533 0.90529268980026245 0.56468582153320312
0.78474020957946777 0.90637457370758057 0.56626778841018677
0.78690183162689209 0.90839391946792603 0.56786119937896729
0.78711092472076416 0.90622669458389282 0.56575602293014526
0.78500723838806152 0.90225386619567871 0.56244492530822754
0.78631722927093506 0.89954292774200439 0.55949634313583374
0.79302096366882324 0.89941143989562988 0.55920207500457764
0.80256295204162598 0.89465439319610596 0.55309128761291504
0.81670045852661133 0.89029669761657715 0.54628455638885498
0.83862847089767456 0.883963942527771 0.53365492820739746
0.87843859195709229 0.88005524873733521 0.51681554317474365
0.93602460622787476 0.87705951929092407 0.48650619387626648
0.034896057099103928 0.038938753306865692 0.054881196469068527
0.037582308053970337 0.039251469075679779 0.054899178445339203
0.046569451689720154 0.039215687662363052 0.051496647298336029
0.061802312731742859 0.038277029991149902 0.046361256390810013
0.090219847857952118 0.037609100341796875 0.038045741617679596
0.15785615146160126 0.039259906858205795 0.026098692789673805
0.25691792368888855 0.043500699102878571 0.011150434613227844
0.37298294901847839 0.057922903448343277 0.0046563991345465183
0.5023995041847229 0.0886116623878479 0.00096821505576372147
0.64790314435958862 0.1551784873008728 0
0.81604278087615967 0.25836503505706787 0
0.88835108280181885 0.3094896674156189 0
0.88656502962112427 0.30956456065177917 0
0.036256019026041031 0.039428994059562683 0.049294058233499527
0.039624679833650589 0.04047311469912529 0.052286542952060699
0.04690219834446907 0.039416443556547165 0.049120586365461349
0.061647392809391022 0.038689766079187393 0.042825557291507721
0.089211873710155487 0.037481974810361862 0.034315731376409531
0.15503442287445068 0.039336588233709335 0.024729873985052109
0.25663009285926819 0.047376953065395355 0.015340064652264118
0.37328681349754333 0.059772118926048279 0.007839621976017952
0.49720433354377747 0.083523347973823547 0.0010223089484497905
0.6397089958190918 0.14681306481361389 0
0.80881309509277344 0.25361913442611694 0
0.88491237163543701 0.30669721961021423 0
0.88596010208129883 0.30865404009819031 0
0.038835294544696808 0.045600578188896179 0.046271860599517822
0.041590206325054169 0.046202700585126877 0.048540018498897552
0.046660732477903366 0.044896010309457779 0.048047337681055069
0.063001193106174469 0.044439937919378281 0.042590048164129257
0.088373817503452301 0.042507559061050415 0.034390170127153397
0.14896729588508606 0.042590584605932236 0.025394799187779427
0.25321060419082642 0.049555730074644089 0.016100475564599037
0.36960878968238831 0.059578496962785721 0.0072860568761825562
0.49437698721885681 0.084405027329921722 0.00063887948635965586
0.64183729887008667 0.15120576322078705 0
0.81233870983123779 0.25586625933647156 0
0.88622641563415527 0.30876755714416504 0
0.88573378324508667 0.30764478445053101 0
0.043035738170146942 0.057951491326093674 0.046728756278753281
0.045682884752750397 0.058467447757720947 0.047884173691272736
0.051110781729221344 0.058732755482196808 0.050023231655359268
0.06255418062210083 0.058015156537294388 0.046180620789527893
0.086044013500213623 0.056968942284584045 0.039994783699512482
0.14608289301395416 0.0550105981528759 0.02874571830034256
0.24361222982406616 0.056223161518573761 0.015201867558062077
0.36321929097175598 0.063336074352264404 0.0048178727738559246
0.49247053265571594 0.09213072806596756 2.8483073037932627e-05
0.64265275001525879 0.15852755308151245 0
0.815479576587677 0.26157155632972717 0
0.88900160789489746 0.31120380759239197 0
0.88876760005950928 0.31151095032691956 0
0.057497031986713409 0.083781912922859192 0.050006356090307236
0.059472568333148956 0.085123606026172638 0.051602471619844437
0.062347635626792908 0.085067927837371826 0.054150868207216263
0.070857688784599304 0.084797665476799011 0.05099240317940712
0.091767556965351105 0.083803750574588776 0.045531686395406723
0.14626516401767731 0.080598108470439911 0.034830562770366669
0.23812757432460785 0.078380286693572998 0.019396433606743813
0.35926216840744019 0.087186299264431 0.0084907682612538338
0.4880557656288147 0.1132822260260582 0.0011560627026483417
0.63326525688171387 0.16878864169120789 0
0.80906611680984497 0.26898527145385742 0
0.88812518119812012 0.3204328715801239 0
0.8891294002532959 0.32186651229858398 0
0.085545919835567474 0.13486306369304657 0.060401078313589096
0.090464651584625244 0.13952438533306122 0.063505582511425018
0.09386385977268219 0.14259548485279083 0.066077366471290588
0.099058173596858978 0.14317578077316284 0.063848160207271576
0.11314947158098221 0.14065925776958466 0.058185022324323654
0.15956822037696838 0.13809710741043091 0.05116107314825058
0.24972102046012878 0.13640400767326355 0.03669675812125206
0.36295312643051147 0.14519207179546356 0.023124096915125847
0.47866478562355042 0.16160508990287781 0.010330020450055599
0.61279189586639404 0.20128817856311798 0.0032249151263386011
0.775623619556427 0.27721920609474182 1.5707577404100448e-05
0.88330429792404175 0.33823603391647339 0
