assets/lut/berat brownbm.cube
# Created by: G'MIC (https://gmic.eu)
TITLE "brownbm"
# LUT size
LUT_3D_SIZE 5
# Data domain
DOMAIN_MIN 0.0 0.0 0.0
DOMAIN_MAX 1.0 1.0 1.0
# LUT data points
0.030204145237803459 0.030447043478488922 0.030859135091304779
0.084682077169418335 0.036786891520023346 0.027579573914408684
0.24336226284503937 0.033938031643629074 0.00014127843314781785
0.45273134112358093 0.054608020931482315 0
0.81281238794326782 0.25394222140312195 0.0056868009269237518
0.066384516656398773 0.09773273766040802 0.046662125736474991
0.11738801747560501 0.097952716052532196 0.045523729175329208
0.26425781846046448 0.10169193148612976 0.015472771599888802
0.46343994140625 0.12273399531841278 0
0.81392651796340942 0.28366845846176147 0.0030184728093445301
0.1858355849981308 0.28298518061637878 0.10364891588687897
0.22315920889377594 0.27934080362319946 0.099093958735466003
0.33752334117889404 0.28387731313705444 0.082051880657672882
0.50995314121246338 0.29754757881164551 0.023920530453324318
0.82003247737884521 0.37943193316459656 0.00071623560506850481
0.36626362800598145 0.49169221520423889 0.21890923380851746
0.38539829850196838 0.49486839771270752 0.22168797254562378
0.44898048043251038 0.49897032976150513 0.21910378336906433
0.57702326774597168 0.50828051567077637 0.19231148064136505
0.84213864803314209 0.53554195165634155 0.0065503586083650589
0.70946341753005981 0.83274251222610474 0.50177681446075439
0.71677929162979126 0.83961957693099976 0.50926303863525391
0.73859095573425293 0.84252876043319702 0.51037734746932983
0.77354246377944946 0.83747333288192749 0.49472850561141968
0.9295310378074646 0.84414196014404297 0.45345309376716614
0.033682249486446381 0.049117997288703918 0.092202141880989075
0.0889931321144104 0.054496720433235168 0.089757226407527924
0.25043240189552307 0.056910809129476547 0.064676351845264435
0.46678096055984497 0.082021139562129974 0.015765858814120293
0.81450885534286499 0.26385071873664856 0.0048992978408932686
0.063454799354076385 0.11149034649133682 0.10728894174098969
0.12142878770828247 0.11507077515125275 0.1066032275557518
0.27334320545196533 0.1223546639084816 0.085255973041057587
0.48292630910873413 0.14859193563461304 0.026174178346991539
0.81908112764358521 0.29602715373039246 0.0071578831411898136
0.18068346381187439 0.28722658753395081 0.15444786846637726
0.22653709352016449 0.29315528273582458 0.15545345842838287
0.34072333574295044 0.29700800776481628 0.14268013834953308
0.51245450973510742 0.30772167444229126 0.091881543397903442
0.82119524478912354 0.38065215945243835 0
0.37416091561317444 0.50248497724533081 0.25894823670387268
0.3902374804019928 0.5022282600402832 0.25873523950576782
0.45294782519340515 0.50258994102478027 0.25318524241447449
0.56702613830566406 0.50370985269546509 0.22778788208961487
0.84661507606506348 0.54100638628005981 0.024332862347364426
0.71514052152633667 0.83699715137481689 0.50819277763366699
0.726188063621521 0.84444183111190796 0.52180761098861694
0.73368299007415771 0.84071511030197144 0.51420706510543823
0.76571667194366455 0.839599609375 0.50317859649658203
0.93178147077560425 0.84664911031723022 0.46288630366325378
0.030157754197716713 0.097785905003547668 0.26094862818717957
0.090307720005512238 0.10372411459684372 0.26307213306427002
0.25411257147789001 0.11677843332290649 0.25656312704086304
0.48020106554031372 0.14522534608840942 0.2311759889125824
0.81776100397109985 0.29106912016868591 0.048636730760335922
0.062827140092849731 0.15518063306808472 0.26881504058837891
0.12008653581142426 0.1633603572845459 0.27586957812309265
0.27908509969711304 0.17605282366275787 0.2702716588973999
0.49440839886665344 0.20213513076305389 0.24726177752017975
0.82159215211868286 0.32039675116539001 0.054459977895021439
0.17944705486297607 0.31011947989463806 0.29495596885681152
0.22228614985942841 0.32007250189781189 0.30157804489135742
0.34405398368835449 0.32571357488632202 0.2962372899055481
0.51995956897735596 0.33534133434295654 0.26925677061080933
0.82866615056991577 0.40450417995452881 0.084338918328285217
0.36883807182312012 0.50731223821640015 0.35290402173995972
0.3861536979675293 0.51146024465560913 0.35463008284568787
0.4539681077003479 0.51489412784576416 0.34964433312416077
0.57014709711074829 0.51396763324737549 0.32647553086280823
0.84809201955795288 0.55268555879592896 0.20555628836154938
0.71097123622894287 0.83726006746292114 0.54289430379867554
0.709064781665802 0.83468937873840332 0.5395655632019043
0.7227928638458252 0.83152705430984497 0.53612273931503296
0.77382862567901611 0.83904200792312622 0.53735411167144775
0.9377133846282959 0.85340219736099243 0.50073635578155518
0.01462840661406517 0.22665441036224365 0.46220517158508301
0.082937099039554596 0.23972651362419128 0.47316712141036987
0.26175498962402344 0.25053182244300842 0.47096320986747742
0.48484352231025696 0.26527091860771179 0.46442738175392151
0.82489806413650513 0.36285704374313354 0.41024407744407654
0.052147779613733292 0.26354712247848511 0.4671815037727356
0.11822803318500519 0.26737210154533386 0.4731597900390625
0.28274643421173096 0.28265827894210815 0.47441908717155457
0.49619510769844055 0.29914242029190063 0.46614757180213928
0.83229506015777588 0.38704994320869446 0.41510429978370667
0.18039749562740326 0.36848285794258118 0.48162320256233215
0.22279822826385498 0.37663495540618896 0.48560404777526855
0.34380924701690674 0.38416826725006104 0.48496589064598083
0.52076989412307739 0.38499000668525696 0.46657025814056396
0.84002935886383057 0.44728380441665649 0.41926053166389465
0.37432092428207397 0.53111499547958374 0.50246500968933105
0.38866674900054932 0.53662639856338501 0.506256103515625
0.45265963673591614 0.53971809148788452 0.5051160454750061
0.57571953535079956 0.54754084348678589 0.50201106071472168
0.85537099838256836 0.56974935531616211 0.44139155745506287
0.70652979612350464 0.83624476194381714 0.60883456468582153
0.71366649866104126 0.83938926458358765 0.60769033432006836
0.73256278038024902 0.84716343879699707 0.6144336462020874
0.76635712385177612 0.84341937303543091 0.60996401309967041
0.93324083089828491 0.85714983940124512 0.59545010328292847
0.00029208612977527082 0.50847822427749634 0.76243293285369873
0.044477023184299469 0.51991003751754761 0.7723696231842041
0.25433000922203064 0.53621196746826172 0.78807604312896729
0.4874025285243988 0.54029309749603271 0.78743273019790649
0.83320111036300659 0.57884109020233154 0.78075844049453735
0.016354264691472054 0.52244037389755249 0.767078697681427
0.085154980421066284 0.52980107069015503 0.77599704265594482
0.27066946029663086 0.54400187730789185 0.78835266828536987
0.49330201745033264 0.55455297231674194 0.78925168514251709
0.83608496189117432 0.58181458711624146 0.7732359766960144
0.14646854996681213 0.57906836271286011 0.7907063364982605
0.1999916136264801 0.57256001234054565 0.78608834743499756
0.33205470442771912 0.57820051908493042 0.78992992639541626
0.51942545175552368 0.5828055739402771 0.78607320785522461
0.8355063796043396 0.60849744081497192 0.7749398946762085
0.37100371718406677 0.65943938493728638 0.79993444681167603
0.38566222786903381 0.65551507472991943 0.79828000068664551
0.4467805027961731 0.65346747636795044 0.79267698526382446
0.57568895816802979 0.65411001443862915 0.78991782665252686
0.86364901065826416 0.67856574058532715 0.78347897529602051
0.70954537391662598 0.8745998740196228 0.82485145330429077
0.7166939377784729 0.88119548559188843 0.82948142290115356
0.73200070858001709 0.87834340333938599 0.82907605171203613
0.77739930152893066 0.88313955068588257 0.82639747858047485
0.9285094141960144 0.88129645586013794 0.81556767225265503
