assets/lut/berat sevsuz.cube
# Created by: G'MIC (https://gmic.eu)
TITLE "sevsuz"
# LUT size
LUT_3D_SIZE 5
# Data domain
DOMAIN_MIN 0.0 0.0 0.0
DOMAIN_MAX 1.0 1.0 1.0
# LUT data points
0.013360700570046902 0.012634336948394775 0.012694250792264938
0.12228012084960938 0.014510629698634148 0.012224249541759491
0.33103659749031067 0.010655377060174942 0.012401655316352844
0.59654504060745239 0.0084536829963326454 0.019768418744206429
0.85597950220108032 0.011344805359840393 0.017329316586256027
0.011714082211256027 0.13493327796459198 0.011138841509819031
0.11917568743228912 0.13436327874660492 0.010616661980748177
0.3312414288520813 0.13753598928451538 0.01195995882153511
0.60867065191268921 0.13642990589141846 0.018116865307092667
0.87355911731719971 0.13869105279445648 0.015186669304966927
0.015337341465055943 0.35396546125411987 0.0096823303028941154
0.13770595192909241 0.36504408717155457 0.0066899317316710949
0.34956198930740356 0.37144500017166138 0.01115118246525526
0.62999415397644043 0.37333709001541138 0.011484198272228241
0.88166028261184692 0.39071124792098999 0.011587300337851048
0.009046248160302639 0.62828439474105835 0.005550638772547245
0.13978739082813263 0.647297203540802 0.0044991136528551579
0.35319298505783081 0.65867096185684204 0.015193340368568897
0.64194458723068237 0.65603196620941162 0.016662223264575005
0.89985227584838867 0.67008459568023682 0.0094025703147053719
0.012175196781754494 0.91177076101303101 0.01437702588737011
0.16268241405487061 0.92489504814147949 0.014904187060892582
0.3785911500453949 0.92860156297683716 0.022128744050860405
0.65110909938812256 0.920032799243927 0.020480915904045105
0.91769987344741821 0.91731423139572144 0.016152177006006241
0.012460730969905853 0.013048374094069004 0.16152860224246979
0.11740829050540924 0.013827095739543438 0.1576654314994812
0.34392732381820679 0.011866101995110512 0.12077616900205612
0.62010926008224487 0.011533176526427269 0.10635413229465485
0.86601793766021729 0.011942800134420395 0.11590694636106491
0.014453453943133354 0.14405155181884766 0.15401379764080048
0.11006041616201401 0.14183194935321808 0.15856640040874481
0.34552463889122009 0.13205514848232269 0.12781667709350586
0.62744605541229248 0.12717369198799133 0.10942542552947998
0.88308703899383545 0.13993117213249207 0.10730224102735519
0.010834847576916218 0.35672789812088013 0.15622578561306
0.11741400510072708 0.37418457865715027 0.15571491420269012
0.34720835089683533 0.37452864646911621 0.15767499804496765
0.63715565204620361 0.38124024868011475 0.12025128304958344
0.89420944452285767 0.39547327160835266 0.10436944663524628
0.0044301049783825874 0.64099204540252686 0.14216531813144684
0.11616275459527969 0.66161030530929565 0.15424399077892303
0.34931227564811707 0.66557556390762329 0.1680663675069809
0.65311741828918457 0.66146749258041382 0.16862894594669342
0.91283619403839111 0.67579704523086548 0.14287762343883514
0.0030391619075089693 0.92173463106155396 0.17933604121208191
0.14936068654060364 0.93502569198608398 0.19120506942272186
0.37320405244827271 0.93546468019485474 0.19235512614250183
0.66174167394638062 0.92171049118041992 0.181012824177742
0.92992663383483887 0.92055141925811768 0.17311082780361176
0.0076055489480495453 0.033998571336269379 0.40066584944725037
0.089557528495788574 0.023481810465455055 0.40959092974662781
0.33347383141517639 0.0094631118699908257 0.37508261203765869
0.62837022542953491 0.010746076703071594 0.32946237921714783
0.87881088256835938 0.010597527958452702 0.26447376608848572
0.012210337445139885 0.18464040756225586 0.37646272778511047
0.10369756072759628 0.17743726074695587 0.40703710913658142
0.33206483721733093 0.12747380137443542 0.39153480529785156
0.63956838846206665 0.12695614993572235 0.33573323488235474
0.90435856580734253 0.13718609511852264 0.29718083143234253
0.023187374696135521 0.36188352108001709 0.34777632355690002
0.13410228490829468 0.37803271412849426 0.37021350860595703
0.32778200507164001 0.38410887122154236 0.39998149871826172
0.65072369575500488 0.38157889246940613 0.35165056586265564
0.92041587829589844 0.39460352063179016 0.32814487814903259
0.056771237403154373 0.62504315376281738 0.41369974613189697
0.16832911968231201 0.65122473239898682 0.42869192361831665
0.34556415677070618 0.67118948698043823 0.40490871667861938
0.65394216775894165 0.66479647159576416 0.39762941002845764
0.91409718990325928 0.679329514503479 0.3693712055683136
0.051318809390068054 0.90824311971664429 0.44702517986297607
0.19870230555534363 0.92444819211959839 0.46810397505760193
0.38133373856544495 0.93772751092910767 0.44040849804878235
0.66538435220718384 0.92324966192245483 0.41375535726547241
0.92755770683288574 0.92137724161148071 0.4026583731174469
0.008596726693212986 0.0685591921210289 0.66859537363052368
0.079653613269329071 0.049825526773929596 0.6736990213394165
0.27013003826141357 0.01189555786550045 0.65616095066070557
0.61113244295120239 0.0072265625931322575 0.64573138952255249
0.86765193939208984 0.0090065896511077881 0.62931442260742188
0.01722647063434124 0.22245770692825317 0.66475999355316162
0.089146003127098083 0.20867954194545746 0.68991696834564209
0.25411981344223022 0.14210538566112518 0.66574913263320923
0.63780111074447632 0.11904193460941315 0.66338056325912476
0.90771633386611938 0.12097211182117462 0.65746510028839111
0.01043116208165884 0.42732825875282288 0.55444538593292236
0.11014076322317123 0.44371390342712402 0.59609133005142212
0.22908656299114227 0.42447373270988464 0.67739754915237427
0.66041183471679688 0.37034261226654053 0.67899364233016968
0.92696690559387207 0.38393852114677429 0.66382420063018799
0.073319002985954285 0.64683061838150024 0.58699005842208862
0.18690329790115356 0.67019516229629517 0.60936695337295532
0.36705878376960754 0.67883980274200439 0.65106737613677979
0.64241379499435425 0.67048811912536621 0.67554664611816406
0.91315221786499023 0.67988163232803345 0.6523667573928833
0.14525343477725983 0.89069479703903198 0.70740127563476562
0.26269903779029846 0.91258865594863892 0.72421753406524658
0.43601283431053162 0.92621409893035889 0.73088926076889038
0.65489846467971802 0.92301398515701294 0.69277322292327881
0.90842831134796143 0.91828489303588867 0.67894399166107178
0.01569652184844017 0.098340220749378204 0.89957976341247559
0.10366684943437576 0.078416489064693451 0.90019708871841431
0.21236751973628998 0.019082328304648399 0.88703137636184692
0.59165257215499878 0.012424723245203495 0.86959826946258545
0.85362648963928223 0.0097985360771417618 0.86772239208221436
0.015893135219812393 0.23654700815677643 0.89665162563323975
0.097627885639667511 0.2327846884727478 0.91056519746780396
0.21877814829349518 0.15954352915287018 0.90057182312011719
0.6146237850189209 0.12764188647270203 0.89574658870697021
0.89043104648590088 0.1281534880399704 0.90097469091415405
0.012935773469507694 0.47233307361602783 0.80808085203170776
0.10705624520778656 0.48715940117835999 0.83841276168823242
0.19699488580226898 0.45490577816963196 0.91097253561019897
0.64217656850814819 0.37581080198287964 0.91464680433273315
0.93039923906326294 0.37842947244644165 0.91963744163513184
0.029527612030506134 0.70404517650604248 0.71141046285629272
0.12331937998533249 0.72475904226303101 0.74232906103134155
0.24601185321807861 0.73676484823226929 0.81789952516555786
0.55567485094070435 0.70121920108795166 0.90790390968322754
0.92295747995376587 0.67319405078887939 0.91722649335861206
0.12182763963937759 0.92242133617401123 0.81387269496917725
0.23821200430393219 0.93639320135116577 0.8365635871887207
0.42457824945449829 0.93951177597045898 0.87386071681976318
0.68094521760940552 0.92411726713180542 0.8941110372543335
0.90466463565826416 0.9136350154876709 0.90964806079864502
