assets/lut/berat goldenface.cube
TITLE "goldenface"
LUT_3D_SIZE 16
DOMAIN_MIN 0.0 0.0 0.0
DOMAIN_MAX 1.0 1.0 1.0
0.000000 0.000000 0.000000
0.005004 0.000000 0.000000
0.078463 0.000000 0.000000
0.146655 0.000000 0.000000
0.182818 0.000000 0.000000
0.214568 0.000000 0.000000
0.245315 0.000000 0.000000
0.288730 0.000000 0.000000
0.348218 0.000000 0.000000
0.423037 0.000000 0.000000
0.513151 0.000000 0.000000
0.618860 0.000000 0.000000
0.746013 0.000000 0.000000
0.886571 0.000000 0.000000
0.985621 0.000000 0.000000
1.000000 0.000000 0.000000
0.000000 0.006737 0.000000
0.001903 0.001284 0.000000
0.047763 0.000398 0.000000
0.101385 0.000000 0.000000
0.146520 0.000000 0.000000
0.185495 0.000000 0.000000
0.229068 0.000000 0.000000
0.282818 0.000000 0.000000
0.348167 0.000000 0.000000
0.426000 0.000000 0.000000
0.517239 0.000000 0.000000
0.624587 0.000000 0.000000
0.753613 0.000000 0.000000
0.892789 0.000000 0.000000
0.986827 0.000000 0.000000
1.000000 0.000000 0.000000
0.000000 0.031006 0.000000
0.000038 0.023890 0.000000
0.020470 0.017540 0.000000
0.068859 0.011247 0.000000
0.119418 0.006066 0.000000
0.168531 0.002927 0.000000
0.221081 0.002282 0.000000
0.280748 0.001917 0.000000
0.349520 0.001515 0.000000
0.429266 0.000919 0.000000
0.521567 0.000182 0.000000
0.631042 0.000000 0.000000
0.761329 0.000000 0.000000
0.898812 0.000000 0.000000
0.987941 0.000000 0.000000
1.000000 0.000000 0.000000
0.000000 0.056236 0.000000
0.000000 0.051654 0.000000
0.008174 0.046805 0.000000
0.048988 0.041852 0.000000
0.104136 0.037400 0.000000
0.160366 0.034075 0.000000
0.218577 0.031563 0.000000
0.282309 0.029415 0.000000
0.353381 0.026896 0.000000
0.434947 0.023276 0.000000
0.529195 0.018309 0.000000
0.641338 0.013564 0.000000
0.772881 0.007054 0.000000
0.907693 0.001157 0.000000
0.989580 0.000297 0.000000
1.000000 0.000000 0.000000
0.000000 0.098418 0.000000
0.000000 0.096650 0.000000
0.005638 0.094461 0.000000
0.043707 0.092169 0.000000
0.100321 0.090138 0.000000
0.159832 0.088514 0.000000
0.220964 0.087236 0.000000
0.286755 0.085916 0.000000
0.359842 0.084268 0.000000
0.443722 0.081638 0.000000
0.540910 0.077725 0.000000
0.655301 0.071115 0.000000
0.788412 0.060358 0.000000
0.918799 0.043902 0.000000
0.991591 0.021433 0.000000
1.000000 0.005306 0.000000
0.000000 0.155597 0.000000
0.000000 0.154814 0.000000
0.007086 0.153729 0.000000
0.045379 0.152675 0.000000
0.102634 0.151635 0.000000
0.163236 0.150932 0.000000
0.225811 0.150365 0.000000
0.293461 0.150049 0.000000
0.369424 0.149716 0.000000
0.455720 0.148842 0.000000
0.555683 0.146726 0.000000
0.671348 0.142692 0.000000
0.805443 0.134982 0.000000
0.929734 0.122232 0.000000
0.993798 0.100635 0.000000
1.000000 0.066168 0.000000
0.000000 0.219843 0.000000
0.000000 0.219346 0.000000
0.009683 0.218639 0.000000
0.049396 0.217956 0.000000
0.107484 0.217636 0.000000
0.168905 0.217525 0.000000
0.233177 0.217799 0.000000
0.302654 0.218179 0.000000
0.380843 0.218451 0.000000
0.469150 0.218310 0.000000
0.571106 0.217085 0.000000
0.687905 0.214385 0.000000
0.821642 0.208939 0.000000
0.938475 0.200042 0.000000
0.995928 0.185498 0.000000
1.000000 0.162064 0.000000
0.000000 0.293445 0.000000
0.000189 0.293145 0.000000
0.012886 0.292672 0.000000
0.054786 0.292351 0.000000
0.114201 0.292232 0.000000
0.176290 0.292389 0.000000
0.241551 0.292661 0.000000
0.312888 0.293150 0.000000
0.392270 0.293391 0.000000
0.482250 0.293173 0.000000
0.584758 0.292113 0.000000
0.702445 0.289857 0.000000
0.835597 0.285808 0.000000
0.945971 0.278721 0.000000
0.997555 0.268111 0.000000
1.000000 0.251207 0.000000
0.000000 0.378549 0.000000
0.000504 0.378098 0.000000
0.014447 0.377643 0.000000
0.060354 0.377114 0.000000
0.120434 0.376938 0.000000
0.183288 0.376788 0.000000
0.249130 0.376891 0.000000
0.321406 0.376811 0.000000
0.401596 0.376618 0.000000
0.492674 0.376106 0.000000
0.595626 0.374953 0.000000
0.714391 0.372757 0.000000
0.847099 0.369026 0.000000
0.951915 0.363228 0.000000
0.998562 0.354536 0.000000
1.000000 0.341212 0.000000
0.000000 0.473542 0.000000
0.004037 0.472808 0.000000
0.036005 0.471970 0.000000
0.090937 0.471431 0.000000
0.153379 0.470850 0.000000
0.217703 0.470432 0.000000
0.286752 0.469886 0.000000
0.363250 0.469241 0.000000
0.448552 0.468460 0.000000
0.545576 0.467238 0.000000
0.655560 0.465477 0.000000
0.781614 0.462676 0.000000
0.906194 0.458447 0.000000
0.984117 0.452077 0.000000
0.999894 0.443285 0.000000
0.041270 0.518661 0.000000
0.000000 0.579960 0.000000
0.002536 0.579033 0.000000
0.037860 0.578087 0.000000
0.094213 0.577251 0.000000
0.157446 0.576229 0.000000
0.222227 0.575392 0.000000
0.292049 0.574324 0.000000
0.369179 0.573183 0.000000
0.455015 0.571859 0.000000
0.552875 0.570007 0.000000
0.663066 0.567707 0.000000
0.789476 0.564647 0.000000
0.912376 0.560463 0.000000
0.986404 0.554526 0.000000
1.000000 0.546268 0.000000
0.000000 0.634348 0.000000
0.000000 0.698490 0.000000
0.005883 0.697402 0.000000
0.037055 0.696303 0.000000
0.093962 0.695017 0.000000
0.157860 0.693557 0.000000
0.223458 0.692213 0.000000
0.293931 0.690644 0.000000
0.371504 0.688910 0.000000
0.457688 0.686961 0.000000
0.555680 0.684447 0.000000
0.665901 0.681685 0.000000
0.791995 0.678058 0.000000
0.913576 0.673490 0.000000
0.986528 0.667414 0.000000
1.000000 0.659794 0.000000
0.000000 0.759109 0.000000
0.000000 0.828934 0.000000
0.003627 0.827698 0.000000
0.032660 0.826434 0.000000
0.090389 0.824880 0.000000
0.155483 0.823340 0.000000
0.222383 0.821538 0.000000
0.293544 0.819492 0.000000
0.371410 0.817354 0.000000
0.458209 0.814784 0.000000
0.555741 0.811940 0.000000
0.665947 0.808438 0.000000
0.791488 0.804256 0.000000
0.912697 0.799300 0.000000
0.985912 0.793238 0.000000
1.000000 0.785977 0.000000
0.000000 0.886217 0.000000
0.000000 0.938154 0.000000
0.000987 0.937354 0.000000
0.025933 0.936479 0.000000
0.081885 0.935526 0.000000
0.150058 0.934387 0.000000
0.218335 0.933259 0.000000
0.290663 0.931787 0.000000
0.369201 0.929893 0.000000
0.456230 0.927867 0.000000
0.553944 0.925574 0.000000
0.663813 0.922883 0.000000
0.788498 0.920054 0.000000
0.910422 0.916640 0.000000
0.984897 0.912717 0.000000
1.000000 0.907940 0.000000
0.000000 0.974418 0.000000
0.000000 0.994046 0.000000
0.000907 0.993801 0.000000
0.012075 0.993546 0.000000
0.067415 0.993268 0.000000
0.139484 0.992933 0.000000
0.210994 0.992559 0.000000
0.284726 0.992134 0.000000
0.364385 0.991623 0.000000
0.452041 0.991063 0.000000
0.550177 0.990435 0.000000
0.660327 0.989679 0.000000
0.785354 0.988799 0.000000
0.907983 0.987695 0.000000
0.983850 0.986370 0.000000
1.000000 0.984650 0.000000
0.000000 0.999443 0.000000
0.000000 1.000000 0.000000
0.000000 1.000000 0.000000
0.006863 1.000000 0.000000
0.046320 1.000000 0.000000
0.122510 1.000000 0.000000
0.199379 1.000000 0.000000
0.276255 1.000000 0.000000
0.357529 1.000000 0.000000
0.446983 1.000000 0.000000
0.545466 1.000000 0.000000
0.656326 1.000000 0.000000
0.781792 1.000000 0.000000
0.905473 1.000000 0.000000
0.982677 1.000000 0.000000
1.000000 1.000000 0.000000
0.000000 0.000000 0.000000
0.003344 0.000000 0.002789
0.077840 0.000000 0.004963
0.140989 0.000000 0.001548
0.177735 0.000000 0.000184
0.210164 0.000000 0.000000
0.241493 0.000000 0.000000
0.285554 0.000000 0.000000
0.345037 0.000000 0.000000
0.419622 0.000000 0.000000
0.509031 0.000000 0.000000
0.613953 0.000000 0.000000
0.740195 0.000000 0.000000
0.880757 0.000000 0.000000
0.981107 0.000000 0.000000
0.999897 0.000000 0.000000
0.000000 0.000000 0.010115
0.000000 0.001218 0.001669
0.046910 0.000198 0.000532
0.098766 0.000000 0.000000
0.143272 0.000000 0.000000
0.182321 0.000000 0.000000
0.226311 0.000000 0.000000
0.280110 0.000000 0.000000
0.345260 0.000000 0.000000
0.422924 0.000000 0.000000
0.513431 0.000000 0.000000
0.620137 0.000000 0.000000
0.747836 0.000000 0.000000
0.887288 0.000000 0.000000
0.982762 0.000000 0.000000
0.999986 0.000000 0.000000
0.000000 0.013445 0.000579
0.000000 0.022983 0.000000
0.018244 0.016498 0.000000
0.066850 0.010148 0.000000
0.117208 0.005269 0.000000
0.166346 0.002630 0.000000
0.218926 0.002168 0.000000
0.278440 0.001815 0.000000
0.346840 0.001448 0.000000
0.426320 0.000889 0.000000
0.517773 0.000176 0.000000
0.626487 0.000000 0.000000
0.755779 0.000000 0.000000
0.893658 0.000000 0.000000
0.984357 0.000000 0.000000
1.000000 0.000000 0.000000
0.000000 0.038003 0.000000
0.000000 0.051140 0.000000
0.005260 0.046746 0.000000
0.045434 0.041421 0.000000
0.101402 0.036748 0.000000
0.158219 0.033443 0.000000
0.216516 0.030997 0.000000
0.279969 0.028881 0.000000
0.350813 0.026411 0.000000
0.431843 0.022984 0.000000
0.525372 0.017954 0.000000
0.636850 0.013400 0.000000
0.767432 0.006994 0.000000
0.903086 0.001081 0.000000
0.986553 0.000280 0.000000
1.000000 0.000000 0.000000
0.000000 0.071254 0.000000
0.000000 0.096840 0.000000
0.002875 0.094981 0.000000
0.039468 0.092520 0.000000
0.096549 0.090149 0.000000
0.156998 0.088403 0.000000
0.218501 0.086868 0.000000
0.284127 0.085401 0.000000
0.356998 0.083837 0.000000
0.440466 0.081249 0.000000
0.537090 0.077310 0.000000
0.650586 0.070927 0.000000
0.782875 0.060332 0.000000
0.914613 0.044225 0.000000
0.989286 0.022002 0.000000
1.000000 0.005346 0.000000
0.000000 0.123809 0.000000
0.000000 0.155314 0.000000
0.004750 0.154445 0.000000
0.040821 0.153288 0.000000
0.098062 0.152132 0.000000
0.159525 0.151020 0.000000
0.222625 0.150190 0.000000
0.290314 0.149876 0.000000
0.366092 0.149473 0.000000
0.452058 0.148465 0.000000
0.551544 0.146419 0.000000
0.666303 0.142506 0.000000
0.799828 0.134991 0.000000
0.925225 0.122451 0.000000
0.992240 0.101253 0.000000
1.000000 0.067184 0.000000
0.000000 0.184838 0.000000
0.000000 0.219849 0.000000
0.007540 0.219257 0.000000
0.044756 0.218777 0.000000
0.102599 0.218253 0.000000
0.164686 0.217971 0.000000
0.229210 0.217931 0.000000
0.298999 0.218112 0.000000
0.376961 0.218314 0.000000
0.465102 0.218076 0.000000
0.566410 0.216926 0.000000
0.682443 0.214057 0.000000
0.815628 0.208835 0.000000
0.934045 0.200036 0.000000
0.995145 0.185812 0.000000
1.000000 0.162733 0.000000
0.000000 0.253218 0.000000
0.000000 0.293742 0.000000
0.010511 0.293461 0.000000
0.050144 0.293075 0.000000
0.109090 0.292900 0.000000
0.171630 0.292893 0.000000
0.237056 0.293028 0.000000
0.308415 0.293309 0.000000
0.387677 0.293389 0.000000
0.477544 0.293081 0.000000
0.579523 0.291967 0.000000
0.696826 0.289645 0.000000
0.829343 0.285616 0.000000
0.941605 0.278724 0.000000
0.996806 0.268243 0.000000
1.000000 0.251738 0.000000
0.000000 0.332439 0.000000
0.000000 0.378783 0.000000
0.011545 0.378353 0.000000
0.055532 0.377968 0.000000
0.115331 0.377636 0.000000
0.178268 0.377456 0.000000
0.244177 0.377319 0.000000
0.316399 0.377094 0.000000
0.396450 0.376782 0.000000
0.487340 0.376124 0.000000
0.589811 0.374821 0.000000
0.708000 0.372590 0.000000
0.840244 0.369000 0.000000
0.947666 0.363179 0.000000
0.997729 0.354562 0.000000
1.000000 0.341442 0.000000
0.000000 0.422133 0.000000
0.000069 0.473510 0.000000
0.013074 0.473014 0.000000
0.059680 0.472357 0.000000
0.119865 0.471841 0.000000
0.183201 0.471184 0.000000
0.249747 0.470620 0.000000
0.322402 0.469970 0.000000
0.403103 0.469157 0.000000
0.494467 0.467934 0.000000
0.597647 0.466377 0.000000
0.716011 0.463951 0.000000
0.848010 0.460375 0.000000
0.951972 0.455106 0.000000
0.998042 0.447672 0.000000
1.000000 0.436803 0.000000
0.000000 0.522167 0.000000
0.000091 0.580000 0.000000
0.015934 0.579237 0.000000
0.061569 0.578292 0.000000
0.122508 0.577350 0.000000
0.185988 0.576503 0.000000
0.253144 0.575459 0.000000
0.326186 0.574284 0.000000
0.407510 0.572950 0.000000
0.499105 0.571177 0.000000
0.602749 0.569133 0.000000
0.721082 0.566337 0.000000
0.852170 0.562552 0.000000
0.954381 0.557310 0.000000
0.998121 0.550431 0.000000
1.000000 0.540643 0.000000
0.000000 0.634487 0.000000
0.000000 0.698478 0.000000
0.016319 0.697404 0.000000
0.060592 0.696299 0.000000
0.122549 0.694964 0.000000
0.186997 0.693659 0.000000
0.254589 0.692040 0.000000
0.327992 0.690290 0.000000
0.409785 0.688249 0.000000
0.501261 0.686089 0.000000
0.605242 0.683295 0.000000
0.723046 0.680080 0.000000
0.853572 0.675871 0.000000
0.954786 0.670563 0.000000
0.998098 0.663640 0.000000
1.000000 0.654676 0.000000
0.000000 0.758886 0.000000
0.000128 0.828775 0.000000
0.009526 0.827528 0.000000
0.056158 0.826360 0.000000
0.119554 0.824852 0.000000
0.185145 0.823054 0.000000
0.253663 0.821148 0.000000
0.327641 0.819043 0.000000
0.409809 0.816407 0.000000
0.501441 0.813604 0.000000
0.605276 0.810362 0.000000
0.722619 0.806595 0.000000
0.852566 0.802032 0.000000
0.953657 0.796401 0.000000
0.997954 0.789633 0.000000
1.000000 0.781080 0.000000
0.000000 0.885926 0.000000
0.000000 0.938005 0.000000
0.008522 0.937151 0.000000
0.047745 0.936287 0.000000
0.112281 0.935314 0.000000
0.180477 0.934166 0.000000
0.250428 0.932817 0.000000
0.325171 0.931283 0.000000
0.407665 0.929248 0.000000
0.499187 0.926965 0.000000
0.602739 0.924519 0.000000
0.719798 0.921621 0.000000
0.849698 0.918358 0.000000
0.951547 0.914704 0.000000
0.997749 0.910354 0.000000
1.000000 0.904908 0.000000
0.000000 0.974110 0.000000
0.000000 0.993980 0.000000
0.003462 0.993741 0.000000
0.034431 0.993480 0.000000
0.099673 0.993202 0.000000
0.171433 0.992862 0.000000
0.243548 0.992443 0.000000
0.319950 0.991985 0.000000
0.403170 0.991440 0.000000
0.495217 0.990836 0.000000
0.599114 0.990114 0.000000
0.715929 0.989304 0.000000
0.846381 0.988309 0.000000
0.949555 0.987081 0.000000
0.997516 0.985572 0.000000
1.000000 0.983579 0.000000
0.000000 0.999432 0.000000
0.000000 1.000000 0.000000
0.000542 1.000000 0.000000
0.018199 1.000000 0.000000
0.079479 1.000000 0.000000
0.157698 1.000000 0.000000
0.233780 1.000000 0.000000
0.312204 1.000000 0.000000
0.397313 1.000000 0.000000
0.490164 1.000000 0.000000
0.594622 1.000000 0.000000
0.711962 1.000000 0.000000
0.842979 1.000000 0.000000
0.947416 1.000000 0.000000
0.997209 1.000000 0.000000
1.000000 1.000000 0.000000
0.000000 0.000000 0.023440
0.011623 0.000000 0.066282
0.082561 0.000000 0.065526
0.138564 0.000000 0.042774
0.177051 0.000000 0.021722
0.210288 0.000000 0.010338
0.244919 0.000000 0.003756
0.292572 0.000000 0.001745
0.355011 0.000000 0.001179
0.432025 0.000000 0.000556
0.523734 0.000000 0.000053
0.631604 0.000000 0.000000
0.760834 0.000000 0.000000
0.896245 0.000000 0.000000
0.984506 0.000000 0.000000
0.742161 0.000000 0.025811
0.001339 0.000000 0.072998
0.003136 0.000599 0.047837
0.050666 0.000014 0.032491
0.103101 0.000000 0.017904
0.147545 0.000000 0.008985
0.188328 0.000000 0.003295
0.235046 0.000000 0.001717
0.291518 0.000000 0.001250
0.359164 0.000000 0.000835
0.439192 0.000000 0.000325
0.532653 0.000000 0.000023
0.643123 0.000000 0.000000
0.773332 0.000000 0.000000
0.904947 0.000000 0.000000
0.986004 0.000000 0.000000
0.740952 0.003205 0.014056
0.000000 0.009390 0.033332
0.005242 0.018303 0.014942
0.032554 0.012631 0.008678
0.083842 0.007163 0.003923
0.133926 0.003606 0.001631
0.184742 0.002119 0.001203
0.240093 0.001758 0.000921
0.302782 0.001374 0.000664
0.374953 0.000845 0.000326
0.468371 0.000372 0.000034
0.572990 0.000058 0.000000
0.688917 0.000000 0.000000
0.809502 0.000000 0.000000
0.919665 0.000000 0.000000
0.734518 0.009908 0.004936
0.733333 0.009199 0.004251
0.002877 0.033151 0.006956
0.019856 0.046810 0.000579
0.038827 0.042964 0.000622
0.084550 0.038081 0.000582
0.143367 0.033700 0.000522
0.203619 0.030618 0.000431
0.267033 0.028012 0.000283
0.337290 0.025318 0.000082
0.425229 0.021741 0.000000
0.518979 0.016792 0.000000
0.623563 0.011008 0.000000
0.726471 0.008262 0.000000
0.826045 0.004201 0.000000
0.660197 0.020946 0.001917
0.722595 0.020117 0.001337
0.736441 0.019368 0.000535
0.014857 0.068074 0.000078
0.022199 0.095109 0.000000
0.041105 0.093181 0.000001
0.083645 0.090921 0.000018
0.143966 0.088356 0.000026
0.208746 0.086248 0.000062
0.276300 0.084439 0.000042
0.361790 0.081857 0.000000
0.447190 0.078683 0.000000
0.544586 0.073447 0.000000
0.645129 0.065347 0.000000
0.739292 0.053981 0.000000
0.658874 0.065586 0.000732
0.668691 0.064519 0.000789
0.725092 0.048609 0.000312
0.740604 0.037714 0.000018
0.021109 0.122612 0.000000
0.030319 0.154357 0.000000
0.050833 0.153615 0.000000
0.093778 0.152558 0.000000
0.155047 0.151369 0.000000
0.222523 0.150296 0.000000
0.293817 0.148973 0.000000
0.371746 0.147921 0.000000
0.459930 0.146323 0.000000
0.558960 0.143142 0.000000
0.659283 0.137636 0.000000
0.751281 0.127872 0.000000
0.648856 0.139500 0.000533
0.676237 0.137810 0.000389
0.728274 0.121793 0.000014
0.742126 0.096271 0.000000
0.022901 0.184350 0.000000
0.031505 0.219698 0.000000
0.054257 0.219251 0.000000
0.098435 0.218760 0.000000
0.160290 0.218373 0.000000
0.228650 0.217958 0.000000
0.301333 0.217606 0.000000
0.381463 0.217176 0.000000
0.471563 0.216073 0.000000
0.571778 0.214200 0.000000
0.671763 0.210486 0.000000
0.763317 0.203815 0.000000
0.660401 0.214140 0.000284
0.682808 0.213764 0.000108
0.731339 0.203031 0.000000
0.743396 0.185540 0.000000
0.024460 0.253113 0.000000
0.033241 0.293988 0.000000
0.058109 0.293603 0.000000
0.104300 0.293440 0.000000
0.167331 0.293343 0.000000
0.236130 0.293081 0.000000
0.309756 0.292870 0.000000
0.391218 0.292299 0.000000
0.482536 0.291641 0.000000
0.583562 0.289850 0.000000
0.681960 0.286908 0.000000
0.773545 0.281848 0.000000
0.670373 0.292507 0.000058
0.688538 0.292914 0.000000
0.732831 0.285029 0.000000
0.744773 0.272482 0.000000
0.026209 0.332500 0.000000
0.034960 0.378910 0.000000
0.060447 0.378558 0.000000
0.109897 0.378217 0.000000
0.173970 0.377834 0.000000
0.242979 0.377600 0.000000
0.317190 0.376870 0.000000
0.399347 0.376175 0.000000
0.491332 0.375220 0.000000
0.592755 0.373207 0.000000
0.690060 0.370435 0.000000
0.781621 0.366004 0.000000
0.678338 0.377717 0.000000
0.693024 0.378956 0.000000
0.733346 0.372429 0.000000
0.746127 0.362540 0.000000
0.027683 0.422101 0.000000
0.036162 0.473380 0.000000
0.062436 0.472876 0.000000
0.114640 0.472315 0.000000
0.178930 0.471727 0.000000
0.248178 0.470976 0.000000
0.322867 0.470026 0.000000
0.405194 0.468721 0.000000
0.497795 0.467312 0.000000
0.599103 0.465235 0.000000
0.696016 0.462119 0.000000
0.787207 0.458012 0.000000
0.683714 0.471421 0.000000
0.696116 0.473129 0.000000
0.736429 0.467489 0.000000
0.750259 0.459125 0.000000
0.032394 0.521851 0.000000
0.045002 0.579401 0.000000
0.086809 0.578598 0.000000
0.146043 0.577246 0.000000
0.213935 0.576379 0.000000
0.285733 0.575050 0.000000
0.363978 0.573777 0.000000
0.451257 0.571864 0.000000
0.548674 0.569711 0.000000
0.648805 0.566940 0.000000
0.742516 0.563460 0.000000
0.835133 0.558189 0.000000
0.661943 0.580546 0.000000
0.720554 0.575917 0.000000
0.740644 0.569703 0.000000
0.145207 0.622645 0.000000
0.036902 0.633572 0.000000
0.047762 0.697253 0.000000
0.086667 0.696198 0.000000
0.146433 0.694867 0.000000
0.214850 0.693387 0.000000
0.286991 0.691660 0.000000
0.365694 0.689793 0.000000
0.453099 0.687372 0.000000
0.550534 0.684581 0.000000
0.650449 0.681042 0.000000
0.744267 0.677163 0.000000
0.836333 0.671999 0.000000
0.662465 0.696863 0.000000
0.721025 0.692002 0.000000
0.740094 0.686010 0.000000
0.144732 0.745756 0.000000
0.036587 0.757703 0.000000
0.046511 0.827388 0.000000
0.083606 0.826017 0.000000
0.143776 0.824383 0.000000
0.213066 0.822698 0.000000
0.286005 0.820545 0.000000
0.365243 0.818131 0.000000
0.452408 0.815395 0.000000
0.550070 0.812035 0.000000
0.649821 0.808332 0.000000
0.743682 0.803926 0.000000
0.835533 0.798525 0.000000
0.661483 0.822091 0.000000
0.719419 0.817339 0.000000
0.738722 0.811566 0.000000
0.143041 0.872146 0.000000
0.035426 0.884778 0.000000
0.042878 0.937055 0.000000
0.078382 0.936108 0.000000
0.136883 0.935039 0.000000
0.208171 0.933722 0.000000
0.282389 0.932341 0.000000
0.362120 0.930602 0.000000
0.449802 0.928496 0.000000
0.547483 0.925993 0.000000
0.647341 0.923198 0.000000
0.741532 0.920125 0.000000
0.832875 0.916450 0.000000
0.659332 0.931640 0.000000
0.718277 0.928331 0.000000
0.736335 0.924559 0.000000
0.139995 0.964547 0.000000
0.033114 0.973234 0.000000
0.040645 0.993729 0.000000
0.066514 0.993460 0.000000
0.124471 0.993158 0.000000
0.198986 0.992785 0.000000
0.275683 0.992371 0.000000
0.356813 0.991885 0.000000
0.445266 0.991328 0.000000
0.543450 0.990644 0.000000
0.643835 0.989849 0.000000
0.738583 0.988884 0.000000
0.830149 0.987685 0.000000
0.657093 0.990372 0.000000
0.717131 0.989337 0.000000
0.734147 0.988019 0.000000
0.135114 0.996571 0.000000
0.029211 0.999422 0.000000
0.036605 1.000000 0.000000
0.061557 1.000000 0.000000
0.106914 1.000000 0.000000
0.184194 1.000000 0.000000
0.265228 1.000000 0.000000
0.348991 1.000000 0.000000
0.438911 1.000000 0.000000
0.538203 1.000000 0.000000
0.639574 1.000000 0.000000
0.735160 1.000000 0.000000
0.826942 1.000000 0.000000
0.654822 0.733333 0.025893
0.723249 0.733333 0.036548
0.757919 0.733333 0.032562
0.161628 0.124444 0.042056
0.051088 0.000000 0.086745
0.516146 0.000000 0.031449
0.135246 0.000000 0.088894
0.164403 0.000000 0.076393
0.218250 0.000000 0.063649
0.282349 0.000000 0.050541
0.350788 0.000000 0.037505
0.426767 0.000000 0.026656
0.516749 0.000000 0.020864
0.623866 0.000000 0.017074
0.720006 0.000000 0.014877
0.778305 0.000000 0.013139
0.215863 0.000000 0.092545
0.266531 0.000000 0.083234
0.349783 0.000000 0.065374
0.435403 0.000000 0.045810
0.494346 0.000000 0.031147
0.500865 0.000000 0.021328
0.126734 0.003565 0.061010
0.158022 0.001831 0.053786
0.207360 0.000696 0.046758
0.272932 0.000229 0.037129
0.344204 0.000000 0.026934
0.424995 0.000000 0.020567
0.519103 0.000000 0.017632
0.628674 0.000000 0.015250
0.723533 0.000000 0.013586
0.780131 0.000000 0.011871
0.218072 0.005100 0.063088
0.264050 0.002274 0.055446
0.336908 0.000265 0.044524
0.421542 0.000093 0.030158
0.480812 0.000000 0.020846
0.304177 0.008640 0.025796
0.125022 0.013700 0.038183
0.160736 0.011537 0.034354
0.212382 0.009014 0.030943
0.280446 0.007023 0.024874
0.359659 0.005811 0.018715
0.445838 0.005111 0.015449
0.545271 0.004536 0.014225
0.677911 0.003781 0.012864
0.759130 0.002774 0.011363
0.666613 0.006696 0.015133
0.264335 0.018460 0.033749
0.319406 0.014412 0.027556
0.393384 0.010241 0.021757
0.456569 0.007790 0.015198
0.492287 0.006330 0.011377
0.124043 0.044448 0.026816
0.159906 0.042702 0.024742
0.205859 0.040558 0.021930
0.272107 0.037190 0.017374
0.359072 0.032220 0.014177
0.473803 0.028620 0.012701
0.579528 0.025358 0.012170
0.683267 0.023208 0.011324
0.754749 0.022115 0.010110
0.647468 0.032231 0.011710
0.237973 0.056321 0.021229
0.287754 0.051324 0.016680
0.355976 0.044286 0.010746
0.438474 0.035403 0.008262
0.487443 0.029920 0.008053
0.124173 0.068643 0.024598
0.156938 0.099019 0.021729
0.197610 0.097915 0.019526
0.250783 0.096547 0.016189
0.324628 0.093966 0.011691
0.414138 0.089670 0.009962
0.514496 0.083417 0.010046
0.624975 0.074596 0.009893
0.716070 0.062654 0.009270
0.767948 0.051810 0.008074
0.247470 0.113106 0.016927
0.250250 0.115721 0.015160
0.303203 0.112219 0.011177
0.377923 0.106458 0.007234
0.452316 0.096715 0.005936
0.500069 0.083518 0.005793
0.139498 0.128714 0.021107
0.159588 0.162757 0.019048
0.202112 0.162410 0.016928
0.258013 0.161817 0.013833
0.333695 0.160662 0.010457
0.423476 0.158298 0.008738
0.525017 0.154194 0.008099
0.634719 0.147208 0.007754
0.724011 0.136078 0.007184
0.772631 0.118300 0.005994
0.252924 0.176668 0.013873
0.256662 0.181160 0.012245
0.311003 0.178850 0.008822
0.384462 0.175105 0.006222
0.455822 0.169177 0.005013
0.500755 0.159457 0.004377
0.141654 0.194298 0.018602
0.175960 0.231670 0.016438
0.222204 0.231679 0.014163
0.299506 0.231320 0.011447
0.394159 0.230273 0.009411
0.492033 0.227948 0.007864
0.596817 0.223764 0.006669
0.688037 0.217132 0.005816
0.742192 0.206545 0.004868
0.438984 0.226868 0.008326
0.218175 0.252027 0.010791
0.267257 0.251226 0.008654
0.336310 0.249581 0.005921
0.419076 0.246869 0.004445
0.488671 0.242535 0.003543
0.533813 0.235868 0.002857
0.177909 0.266911 0.015720
0.212719 0.309031 0.012581
0.285447 0.308647 0.010443
0.361724 0.308008 0.008920
0.454370 0.306638 0.007304
0.557473 0.304190 0.005716
