assets/lut/berat goldentime.cube
# Created by: G'MIC (https://gmic.eu)
TITLE "goldentime"
# LUT size
LUT_3D_SIZE 13
# Data domain
DOMAIN_MIN 0.0 0.0 0.0
DOMAIN_MAX 1.0 1.0 1.0
# LUT data points
0.011116296984255314 0.011648365296423435 0.011566505767405033
0.034599334001541138 0.012346334755420685 0.012722239829599857
0.06276441365480423 0.011395786888897419 0.012292659841477871
0.097930043935775757 0.011787040159106255 0.013795171864330769
0.13581416010856628 0.0091747362166643143 0.013659623451530933
0.17748008668422699 0.0059517356567084789 0.012384257279336452
0.22177866101264954 0.005280722863972187 0.012390869669616222
0.26758816838264465 0.0031155603937804699 0.011373108252882957
0.31332719326019287 0.0040643578395247459 0.0091555425897240639
0.35881933569908142 0.0093386778607964516 0.010283570736646652
0.40270674228668213 0.012169034220278263 0.0097499024122953415
0.44562089443206787 0.012832940556108952 0.0078421495854854584
0.48580819368362427 0.011681037023663521 0.0046704611741006374
0.011698165908455849 0.03628133237361908 0.012024105526506901
0.034319426864385605 0.036301363259553909 0.013149365782737732
0.06263008713722229 0.035597316920757294 0.012402673251926899
0.09878230094909668 0.035171449184417725 0.014391626231372356
0.13721726834774017 0.03373304009437561 0.014794188551604748
0.17809244990348816 0.031224269419908524 0.013840096071362495
0.22353105247020721 0.028387002646923065 0.014802162535488605
0.27089521288871765 0.02430490218102932 0.013227574527263641
0.31956702470779419 0.024839857593178749 0.012091497890651226
0.36655166745185852 0.030504489317536354 0.012912645936012268
0.41259437799453735 0.035226050764322281 0.013175799511373043
0.45851001143455505 0.037015054374933243 0.012092889286577702
0.50074273347854614 0.036524426192045212 0.0082662692293524742
0.01095974538475275 0.062846161425113678 0.011184168979525566
0.034370213747024536 0.063087612390518188 0.012342849746346474
0.063097968697547913 0.064008884131908417 0.011783495545387268
0.099877454340457916 0.064593866467475891 0.013286037370562553
0.13875924050807953 0.063056543469429016 0.013467287644743919
0.1813150942325592 0.062153611332178116 0.013705713674426079
0.22923898696899414 0.061589468270540237 0.015545056201517582
0.27985882759094238 0.061779860407114029 0.015658823773264885
0.3284306526184082 0.061296172440052032 0.015211068093776703
0.37524023652076721 0.063604451715946198 0.013470234349370003
0.42446056008338928 0.066061563789844513 0.014779319055378437
0.47501450777053833 0.06470043957233429 0.014547938480973244
0.51959419250488281 0.063354864716529846 0.010090412572026253
0.016227871179580688 0.096120409667491913 0.010796834714710712
0.032964281737804413 0.097700290381908417 0.011186636984348297
0.064300864934921265 0.099866949021816254 0.012434013187885284
0.099903121590614319 0.099877454340457916 0.012601097114384174
0.13986283540725708 0.099153034389019012 0.013171685859560966
0.18499167263507843 0.099419884383678436 0.013811701908707619
0.23570525646209717 0.1011793240904808 0.015582394786179066
0.28841093182563782 0.10317867249250412 0.015666408464312553
0.33778107166290283 0.099803060293197632 0.01523253507912159
0.38480189442634583 0.098795391619205475 0.012787343934178352
0.4417758584022522 0.099478118121623993 0.013815846294164658
0.50125581026077271 0.098531819880008698 0.01412537507712841
0.55642449855804443 0.097769871354103088 0.011213145218789577
0.021038400009274483 0.13459472358226776 0.010937514714896679
0.032325729727745056 0.13770143687725067 0.011667887680232525
0.064296096563339233 0.14122413098812103 0.015509631484746933
0.099897287786006927 0.14328746497631073 0.015674769878387451
0.13978932797908783 0.14126843214035034 0.014218932949006557
0.18506811559200287 0.1411692202091217 0.013270478695631027
0.24083375930786133 0.14375762641429901 0.014042932540178299
0.29877907037734985 0.14449143409729004 0.013375690206885338
0.36065071821212769 0.14462025463581085 0.013669930398464203
0.42643916606903076 0.14637747406959534 0.012773207388818264
0.50568169355392456 0.15025153756141663 0.012834122404456139
0.58397823572158813 0.15415525436401367 0.013513123616576195
0.65413016080856323 0.15693239867687225 0.011553864926099777
0.015665061771869659 0.17624408006668091 0.012619107961654663
0.034321833401918411 0.18377004563808441 0.018656007945537567
0.062865912914276123 0.18915446102619171 0.025870095938444138
0.10155715793371201 0.1928396075963974 0.022536603733897209
0.14465177059173584 0.19306929409503937 0.015583277679979801
0.19289723038673401 0.19422376155853271 0.01367606408894062
0.25528815388679504 0.19919469952583313 0.01300964318215847
0.33463022112846375 0.20520667731761932 0.013015522621572018
0.42277640104293823 0.20967105031013489 0.013252393342554569
0.50844389200210571 0.21514497697353363 0.012992574833333492
0.58918672800064087 0.21995101869106293 0.013610959984362125
0.66730505228042603 0.22543498873710632 0.016446759924292564
0.73754793405532837 0.23177175223827362 0.012033933773636818
0.012679380364716053 0.22958412766456604 0.012760566547513008
0.037844400852918625 0.24189837276935577 0.022105632349848747
0.066816560924053192 0.25401750206947327 0.032209929078817368
0.1081739217042923 0.26114225387573242 0.026503544300794601
0.155716672539711 0.26670172810554504 0.017473513260483742
0.21579621732234955 0.27422258257865906 0.017639430239796638
0.28981003165245056 0.28358203172683716 0.018143851310014725
0.38748928904533386 0.29035457968711853 0.014781727455556393
0.4800267219543457 0.29479789733886719 0.015122447162866592
0.56925421953201294 0.30265364050865173 0.014358744956552982
0.64544987678527832 0.31171527504920959 0.015592881478369236
0.71593385934829712 0.32079192996025085 0.01677703857421875
0.78347140550613403 0.32908853888511658 0.015566627494990826
0.014351250603795052 0.32589024305343628 0.012941427528858185
0.046269852668046951 0.34045809507369995 0.021197585389018059
0.082188218832015991 0.35381537675857544 0.03023160994052887
0.12448590993881226 0.3633979856967926 0.028162203729152679
0.17592823505401611 0.37224355340003967 0.024985309690237045
0.24682252109050751 0.38087373971939087 0.027486180886626244
0.3313957154750824 0.38798138499259949 0.026899524033069611
0.42465391755104065 0.39526033401489258 0.02584494836628437
0.51557868719100952 0.40252840518951416 0.024369766935706139
0.60506176948547363 0.41325587034225464 0.021221624687314034
0.68068182468414307 0.42518162727355957 0.021164059638977051
0.74782407283782959 0.43367421627044678 0.023564701899886131
0.80770063400268555 0.43807670474052429 0.026118259876966476
0.022298026829957962 0.43555009365081787 0.013668958097696304
0.05977223813533783 0.4486827552318573 0.021843060851097107
0.098260007798671722 0.46069496870040894 0.029326226562261581
0.14252722263336182 0.4713534414768219 0.031333159655332565
0.20041872560977936 0.48235169053077698 0.033362444490194321
0.27487152814865112 0.49077847599983215 0.037557236850261688
0.36227986216545105 0.49892202019691467 0.039553370326757431
0.45519384741783142 0.50787460803985596 0.04362175241112709
0.54499512910842896 0.51848846673965454 0.037125159054994583
0.63370263576507568 0.52885574102401733 0.026629997417330742
0.71046864986419678 0.53729903697967529 0.025398658588528633
0.77434277534484863 0.54312038421630859 0.031801037490367889
0.8341367244720459 0.54846286773681641 0.0349898561835289
0.035153228789567947 0.5412975549697876 0.017320265993475914
0.072231099009513855 0.55473697185516357 0.024372834712266922
0.11250408738851547 0.56654900312423706 0.030660921707749367
0.16016767919063568 0.5782318115234375 0.034569669514894485
0.22591578960418701 0.58893555402755737 0.039872605353593826
0.30115744471549988 0.59590321779251099 0.044961217790842056
0.38703468441963196 0.60442209243774414 0.049486614763736725
0.48219910264015198 0.61712253093719482 0.058026902377605438
0.56946742534637451 0.62424427270889282 0.048682358115911484
0.65361905097961426 0.6246679425239563 0.036945119500160217
0.72707182168960571 0.62441056966781616 0.036547642201185226
0.7923882007598877 0.63129931688308716 0.041914965957403183
0.85430830717086792 0.64004242420196533 0.043678928166627884
0.044202018529176712 0.6417725682258606 0.018100274726748466
0.082220099866390228 0.65523314476013184 0.026659887284040451
0.1255161464214325 0.6697733998298645 0.0324845090508461
0.17920811474323273 0.681083083152771 0.038026262074708939
0.251678466796875 0.6882978081703186 0.045508965849876404
0.32723709940910339 0.69491273164749146 0.050381574779748917
0.40927717089653015 0.7028040885925293 0.053319219499826431
0.49782651662826538 0.7088358998298645 0.056588087230920792
0.58368462324142456 0.70530861616134644 0.05359179899096489
0.66581958532333374 0.69916993379592896 0.049612920731306076
0.73620182275772095 0.69770979881286621 0.050340734422206879
0.80120927095413208 0.70247256755828857 0.052595533430576324
0.85804557800292969 0.70807218551635742 0.05263151228427887
0.054132051765918732 0.73481661081314087 0.020838478580117226
0.091572359204292297 0.74351638555526733 0.029819399118423462
0.13842296600341797 0.75586962699890137 0.037471950054168701
0.19925819337368011 0.76374047994613647 0.04460456594824791
0.27255505323410034 0.76809263229370117 0.051498785614967346
0.34811645746231079 0.77490264177322388 0.055665738880634308
0.42862913012504578 0.78293269872665405 0.056930139660835266
0.51465272903442383 0.78264468908309937 0.059831537306308746
0.60117965936660767 0.77627599239349365 0.060467138886451721
0.68096596002578735 0.76992952823638916 0.057444881647825241
0.74800682067871094 0.76898485422134399 0.058600809425115585
0.80986487865447998 0.77099573612213135 0.058763258159160614
0.86517709493637085 0.77522420883178711 0.058309130370616913
0.065367154777050018 0.79345035552978516 0.030270416289567947
0.1032063364982605 0.79666131734848022 0.038226902484893799
0.1500764936208725 0.80728650093078613 0.046290349215269089
0.21085402369499207 0.81379622220993042 0.052873648703098297
0.28238481283187866 0.81681537628173828 0.057440005242824554
0.35492783784866333 0.82355666160583496 0.05952313169836998
0.4365449845790863 0.83127343654632568 0.06056811660528183
0.52722674608230591 0.83406352996826172 0.063777610659599304
0.61722898483276367 0.83660244941711426 0.062921576201915741
0.69661986827850342 0.83607560396194458 0.060994599014520645
0.75931465625762939 0.83177030086517334 0.063228175044059753
0.82009690999984741 0.83373051881790161 0.063447095453739166
0.87783908843994141 0.84080362319946289 0.061574134975671768
0.011642157100141048 0.013915357179939747 0.036560192704200745
0.033599343150854111 0.01294809952378273 0.03653533011674881
0.062715210020542145 0.012312870472669601 0.037350073456764221
0.096308700740337372 0.012438141740858555 0.038413133472204208
0.13457593321800232 0.011673587374389172 0.038861788809299469
0.17670994997024536 0.00962066650390625 0.039189670234918594
0.22139692306518555 0.007479439489543438 0.036014899611473083
0.26763057708740234 0.0052771475166082382 0.032212290912866592
0.31357038021087646 0.0051275514997541904 0.028554834425449371
0.3577972948551178 0.0090294629335403442 0.026517396792769432
0.40070649981498718 0.011436058208346367 0.022424062713980675
0.44399186968803406 0.012375700287520885 0.01665864884853363
0.48557230830192566 0.01153832208365202 0.010766766034066677
0.011731091886758804 0.036335200071334839 0.035632159560918808
0.032834671437740326 0.036127053201198578 0.036101203411817551
0.062222544103860855 0.035529505461454391 0.037012122571468353
0.098047234117984772 0.035562925040721893 0.038150995969772339
0.13541948795318604 0.034240182489156723 0.039242956787347794
0.17703238129615784 0.032465435564517975 0.039650186896324158
0.22199878096580505 0.029704777523875237 0.037861797958612442
0.26969003677368164 0.026865161955356598 0.034149244427680969
0.31870272755622864 0.026297250762581825 0.031775545328855515
0.3658907413482666 0.029529601335525513 0.030683346092700958
0.41206362843513489 0.033317267894744873 0.028879502788186073
0.45755225419998169 0.036128278821706772 0.024990754202008247
0.5012173056602478 0.0373343825340271 0.020615596324205399
0.0096318861469626427 0.063037246465682983 0.032936140894889832
0.032632835209369659 0.062696211040019989 0.034888893365859985
0.06294231116771698 0.063683152198791504 0.036393377929925919
0.099874489009380341 0.064248479902744293 0.037832148373126984
0.13846160471439362 0.063212119042873383 0.039993766695261002
0.17990250885486603 0.063070796430110931 0.040391974151134491
0.22695749998092651 0.063955985009670258 0.038704816251993179
0.27681556344032288 0.063256897032260895 0.037636775523424149
0.32644587755203247 0.061697568744421005 0.03622397780418396
0.37484702467918396 0.063862502574920654 0.034903388470411301
0.42533150315284729 0.063716992735862732 0.034374088048934937
0.47451668977737427 0.064521908760070801 0.032717373222112656
0.5228884220123291 0.064742445945739746 0.029061082750558853
0.013746224343776703 0.096153363585472107 0.03090972825884819
0.032355528324842453 0.096963740885257721 0.03274250403046608
0.063356883823871613 0.099850796163082123 0.036140937358140945
0.099877454340457916 0.099877454340457916 0.039042439311742783
0.14049986004829407 0.099877454340457916 0.041609656065702438
0.18635590374469757 0.10064191371202469 0.040621351450681686
0.23642660677433014 0.10351326316595078 0.038806557655334473
0.28763055801391602 0.10330158472061157 0.038930300623178482
0.3380773663520813 0.10051589459180832 0.038222264498472214
0.39097285270690918 0.10034345835447311 0.037519298493862152
0.44800001382827759 0.10099648684263229 0.036570858210325241
0.50425213575363159 0.10053206980228424 0.035112239420413971
0.56339168548583984 0.10008769482374191 0.032801326364278793
0.017110278829932213 0.13509413599967957 0.031775113195180893
0.032272562384605408 0.13830392062664032 0.032549913972616196
0.063044451177120209 0.14159771800041199 0.036438647657632828
0.099877454340457916 0.14214687049388885 0.039775114506483078
0.14232321083545685 0.14190283417701721 0.04171956330537796
0.19021794199943542 0.14311906695365906 0.040526639670133591
0.2447693794965744 0.14509068429470062 0.037938494235277176
0.30565342307090759 0.14680992066860199 0.038126986473798752
0.37165111303329468 0.14831309020519257 0.038984499871730804
0.44205325841903687 0.15117613971233368 0.039389397948980331
0.52108728885650635 0.15537919104099274 0.037168197333812714
0.59451901912689209 0.15868279337882996 0.033860735595226288
0.66283106803894043 0.1592223048210144 0.033039648085832596
0.016248306259512901 0.17826974391937256 0.035070650279521942
0.034325871616601944 0.18266035616397858 0.035253934562206268
0.061772994697093964 0.18669663369655609 0.036917921155691147
0.10108153522014618 0.19005618989467621 0.039977233856916428
0.14675146341323853 0.19412612915039062 0.042210895568132401
0.19723984599113464 0.1975167840719223 0.042769204825162888
0.26071164011955261 0.2023574560880661 0.040046423673629761
0.34639552235603333 0.20906664431095123 0.039313714951276779
0.43231883645057678 0.21352992951869965 0.040300510823726654
0.51522010564804077 0.21876315772533417 0.040130883455276489
0.59955298900604248 0.22441786527633667 0.037309490144252777
0.6828075647354126 0.23083575069904327 0.033880390226840973
0.74755489826202393 0.23691695928573608 0.034229367971420288
0.01552530936896801 0.23279273509979248 0.036255661398172379
0.036214940249919891 0.24190287292003632 0.036427218466997147
0.065422922372817993 0.25191232562065125 0.039244946092367172
0.10964617133140564 0.26266810297966003 0.041121974587440491
0.15831781923770905 0.27259340882301331 0.043457463383674622
0.21675312519073486 0.28050190210342407 0.04645417258143425
0.29390203952789307 0.28906458616256714 0.047105379402637482
0.39157518744468689 0.29501253366470337 0.044294245541095734
0.48635554313659668 0.30063512921333313 0.043130494654178619
0.57355237007141113 0.30936890840530396 0.043762821704149246
0.65200340747833252 0.3215755820274353 0.043347273021936417
0.72225934267044067 0.33252891898155212 0.042804732918739319
0.78656971454620361 0.3370724618434906 0.043042965233325958
0.015997674316167831 0.33001405000686646 0.035220514982938766
0.04278787225484848 0.34285199642181396 0.037336491048336029
0.080271780490875244 0.35461544990539551 0.043045658618211746
0.12668900191783905 0.36724242568016052 0.046274550259113312
0.17771226167678833 0.37991160154342651 0.048475511372089386
0.24571923911571503 0.38893365859985352 0.052018739283084869
0.33177298307418823 0.3952273428440094 0.053342647850513458
0.42741677165031433 0.40162846446037292 0.052197251468896866
0.52053725719451904 0.41024041175842285 0.051528900861740112
0.6091620922088623 0.4229278564453125 0.051690809428691864
0.68709427118301392 0.43518880009651184 0.051748432219028473
0.75256121158599854 0.44306731224060059 0.053445614874362946
0.81010222434997559 0.44659692049026489 0.055921666324138641
0.018947377800941467 0.4412587583065033 0.03243815153837204
0.054874107241630554 0.45196890830993652 0.03941822424530983
0.096722818911075592 0.46202579140663147 0.047612015157938004
0.14480255544185638 0.47613543272018433 0.052030332386493683
0.20115073025226593 0.49064266681671143 0.056163128465414047
0.27681902050971985 0.50037145614624023 0.059709437191486359
0.36900597810745239 0.50742846727371216 0.059935431927442551
0.46258872747421265 0.51409602165222168 0.059373307973146439
0.55195015668869019 0.52449911832809448 0.05878886952996254
0.63764387369155884 0.53574866056442261 0.058937430381774902
0.71527987718582153 0.54358923435211182 0.059370212256908417
0.77852725982666016 0.54975968599319458 0.063503503799438477
0.83645600080490112 0.55566006898880005 0.067443296313285828
0.028433108702301979 0.5472983717918396 0.033751379698514938
0.068574093282222748 0.55832964181900024 0.044323477894067764
0.11244694143533707 0.56847065687179565 0.053496073931455612
0.16318774223327637 0.58149415254592896 0.057635616511106491
0.22690942883491516 0.59421265125274658 0.064123786985874176
0.30629792809486389 0.60319584608078003 0.068407930433750153
0.4000612199306488 0.61317652463912964 0.06758301705121994
0.49258255958557129 0.62205332517623901 0.067769236862659454
0.57825630903244019 0.62700760364532471 0.066948957741260529
0.65891939401626587 0.62999528646469116 0.068423733115196228
0.73410159349441528 0.63288253545761108 0.069603011012077332
0.79712706804275513 0.63699042797088623 0.073145024478435516
0.85246431827545166 0.64169394969940186 0.076460100710391998
0.04508189857006073 0.64729076623916626 0.041268054395914078
0.083567149937152863 0.660716712474823 0.053578216582536697
0.12861557304859161 0.67203313112258911 0.060255732387304306
0.18552060425281525 0.68155211210250854 0.066482514142990112
0.25445908308029175 0.69128859043121338 0.074513725936412811
0.33029425144195557 0.69889163970947266 0.078715935349464417
0.41887727379798889 0.70693743228912354 0.077289983630180359
0.5120888352394104 0.71075284481048584 0.076743617653846741
0.59690588712692261 0.70901530981063843 0.078631952404975891
0.67429220676422119 0.70814448595046997 0.079887419939041138
0.74564605951309204 0.7075774073600769 0.080685682594776154
0.80645400285720825 0.70838087797164917 0.081773288547992706
0.85573571920394897 0.708942711353302 0.08475620299577713
0.072957374155521393 0.73855292797088623 0.056403007358312607
0.096906311810016632 0.7476155161857605 0.061105541884899139
0.14563064277172089 0.75651663541793823 0.068827487528324127
0.2070285826921463 0.76215046644210815 0.076794631779193878
0.27563780546188354 0.76843678951263428 0.082904711365699768
0.34975507855415344 0.77520644664764404 0.086529046297073364
0.4353066086769104 0.78204548358917236 0.087280958890914917
0.52974772453308105 0.78586483001708984 0.087354250252246857
0.61535561084747314 0.78329765796661377 0.088520064949989319
0.68827992677688599 0.77704101800918579 0.087820850312709808
0.75571829080581665 0.7741742730140686 0.088139824569225311
0.81485199928283691 0.77482491731643677 0.088999621570110321
0.86376059055328369 0.77647596597671509 0.092366807162761688
0.08585725724697113 0.79483556747436523 0.067201264202594757
0.10843857377767563 0.79989343881607056 0.070991575717926025
0.15703906118869781 0.80636870861053467 0.0780678391456604
0.21799100935459137 0.81092172861099243 0.084706492722034454
0.28512281179428101 0.81626194715499878 0.08978995680809021
0.35814735293388367 0.82219803333282471 0.092374853789806366
0.44746330380439758 0.82999497652053833 0.091617107391357422
0.5414314866065979 0.83828514814376831 0.091255307197570801
0.62481784820556641 0.83782434463500977 0.092979475855827332
0.69940793514251709 0.83631199598312378 0.093698374927043915
0.76505511999130249 0.83468747138977051 0.094130858778953552
0.82433277368545532 0.83566188812255859 0.094865478575229645
0.87375593185424805 0.83733749389648438 0.097771815955638885
0.011404508724808693 0.012142764404416084 0.064827971160411835
0.034168288111686707 0.011409340426325798 0.065101981163024902
0.06291671097278595 0.011597039178013802 0.064786382019519806
0.09609348326921463 0.01137981005012989 0.064408950507640839
0.13473929464817047 0.012127176858484745 0.06634782999753952
0.17701791226863861 0.010709350928664207 0.067743442952632904
0.22146701812744141 0.0090180337429046631 0.062079351395368576
0.26753991842269897 0.0052948147058486938 0.053630664944648743
0.31301701068878174 0.0033333722967654467 0.047372825443744659
0.35602542757987976 0.0073952767997980118 0.046538185328245163
0.39809975028038025 0.010789429768919945 0.043998014181852341
0.44132474064826965 0.012903564609587193 0.040544889867305756
0.48243740200996399 0.014072657562792301 0.037618119269609451
0.0084978137165307999 0.035964097827672958 0.064908303320407867
0.032168563455343246 0.034152999520301819 0.069196306169033051
0.062406547367572784 0.03401985764503479 0.066433928906917572
0.096747182309627533 0.034574531018733978 0.065201640129089355
0.13503669202327728 0.033700503408908844 0.067831642925739288
0.17725086212158203 0.032082829624414444 0.068313449621200562
0.22186936438083649 0.029432648792862892 0.062981113791465759
0.26930949091911316 0.025956172496080399 0.055989868938922882
0.31793561577796936 0.024065997451543808 0.051787432283163071
0.36521220207214355 0.028172660619020462 0.05203184112906456
0.4101317822933197 0.032276347279548645 0.051346961408853531
0.45543092489242554 0.035787306725978851 0.049144834280014038
0.49761360883712769 0.037505190819501877 0.047386586666107178
0.0036386975552886724 0.064819902181625366 0.062030449509620667
0.021291829645633698 0.065070025622844696 0.066350065171718597
0.060768350958824158 0.063534334301948547 0.066705994307994843
0.099831044673919678 0.063210837543010712 0.066288277506828308
0.13846603035926819 0.063065230846405029 0.068928554654121399
0.18023683130741119 0.063467301428318024 0.069417394697666168
0.22680267691612244 0.064620912075042725 0.066136285662651062
0.27478513121604919 0.061823692172765732 0.061857394874095917
0.32455042004585266 0.061355680227279663 0.058516841381788254
0.37473031878471375 0.063375450670719147 0.059155706316232681
0.42556080222129822 0.063237316906452179 0.059126954525709152
0.47311455011367798 0.063990861177444458 0.056742455810308456
0.52098411321640015 0.064462535083293915 0.055654890835285187
0.0069718305021524429 0.098119400441646576 0.056061912328004837
0.021959567442536354 0.10260640829801559 0.057167187333106995
0.060649588704109192 0.10019805282354355 0.063311316072940826
0.099889568984508514 0.099877454340457916 0.06794198602437973
0.14155039191246033 0.10001423954963684 0.070396721363067627
0.18788491189479828 0.10190212726593018 0.069874584674835205
0.2367481142282486 0.10385780781507492 0.067205764353275299
0.28511914610862732 0.10203377157449722 0.06482282280921936
0.33545428514480591 0.10048026591539383 0.063116230070590973
0.39500492811203003 0.10153624415397644 0.064667887985706329
0.45368278026580811 0.10241363942623138 0.065546669065952301
