assets/lut/berat monochrome.cube
# Created by: G'MIC (https://gmic.eu)
TITLE "monochrome"
# LUT size
LUT_3D_SIZE 7
# Data domain
DOMAIN_MIN 0.0 0.0 0.0
DOMAIN_MAX 1.0 1.0 1.0
# LUT data points
0.01607380248606205 0.01607380248606205 0.01607380248606205
0.033306434750556946 0.033306434750556946 0.033306434750556946
0.04909762367606163 0.04909762367606163 0.04909762367606163
0.074141092598438263 0.074141092598438263 0.074141092598438263
0.10293317586183548 0.10293317586183548 0.10293317586183548
0.14468912780284882 0.14468912780284882 0.14468912780284882
0.19391751289367676 0.19391751289367676 0.19391751289367676
0.082456625998020172 0.082456625998020172 0.082456625998020172
0.11839092522859573 0.11839092522859573 0.11839092522859573
0.15884411334991455 0.15884411334991455 0.15884411334991455
0.21401059627532959 0.21401059627532959 0.21401059627532959
0.268747478723526 0.268747478723526 0.268747478723526
0.32339915633201599 0.32339915633201599 0.32339915633201599
0.37794232368469238 0.37794232368469238 0.37794232368469238
0.23038782179355621 0.23038782179355621 0.23038782179355621
0.28327637910842896 0.28327637910842896 0.28327637910842896
0.34087777137756348 0.34087777137756348 0.34087777137756348
0.400655597448349 0.400655597448349 0.400655597448349
0.45603632926940918 0.45603632926940918 0.45603632926940918
0.50936269760131836 0.50936269760131836 0.50936269760131836
0.56119513511657715 0.56119513511657715 0.56119513511657715
0.41286149621009827 0.41286149621009827 0.41286149621009827
0.46907767653465271 0.46907767653465271 0.46907767653465271
0.52562105655670166 0.52562105655670166 0.52562105655670166
0.58050662279129028 0.58050662279129028 0.58050662279129028
0.62667173147201538 0.62667173147201538 0.62667173147201538
0.66976773738861084 0.66976773738861084 0.66976773738861084
0.70954781770706177 0.70954781770706177 0.70954781770706177
0.59077048301696777 0.59077048301696777 0.59077048301696777
0.63663357496261597 0.63663357496261597 0.63663357496261597
0.68076419830322266 0.68076419830322266 0.68076419830322266
0.72191512584686279 0.72191512584686279 0.72191512584686279
0.75429290533065796 0.75429290533065796 0.75429290533065796
0.78287798166275024 0.78287798166275024 0.78287798166275024
0.80897432565689087 0.80897432565689087 0.80897432565689087
0.73623323440551758 0.73623323440551758 0.73623323440551758
0.76518887281417847 0.76518887281417847 0.76518887281417847
0.79238402843475342 0.79238402843475342 0.79238402843475342
0.81753480434417725 0.81753480434417725 0.81753480434417725
0.83836203813552856 0.83836203813552856 0.83836203813552856
0.8579598069190979 0.8579598069190979 0.8579598069190979
0.87747889757156372 0.87747889757156372 0.87747889757156372
0.82937324047088623 0.82937324047088623 0.82937324047088623
0.85082125663757324 0.85082125663757324 0.85082125663757324
0.86801785230636597 0.86801785230636597 0.86801785230636597
0.8851851224899292 0.8851851224899292 0.8851851224899292
0.89956760406494141 0.89956760406494141 0.89956760406494141
0.91595447063446045 0.91595447063446045 0.91595447063446045
0.93333494663238525 0.93333494663238525 0.93333494663238525
0.02250346727669239 0.02250346727669239 0.02250346727669239
0.038194306194782257 0.038194306194782257 0.038194306194782257
0.058450587093830109 0.058450587093830109 0.058450587093830109
0.083199717104434967 0.083199717104434967 0.083199717104434967
0.11766768991947174 0.11766768991947174 0.11766768991947174
0.16376152634620667 0.16376152634620667 0.16376152634620667
0.21606042981147766 0.21606042981147766 0.21606042981147766
0.09532928466796875 0.09532928466796875 0.09532928466796875
0.13209372758865356 0.13209372758865356 0.13209372758865356
0.17894226312637329 0.17894226312637329 0.17894226312637329
0.23345716297626495 0.23345716297626495 0.23345716297626495
0.28952109813690186 0.28952109813690186 0.28952109813690186
0.34476017951965332 0.34476017951965332 0.34476017951965332
0.40026918053627014 0.40026918053627014 0.40026918053627014
0.25246539711952209 0.25246539711952209 0.25246539711952209
0.30593633651733398 0.30593633651733398 0.30593633651733398
0.3636048436164856 0.3636048436164856 0.3636048436164856
0.42089888453483582 0.42089888453483582 0.42089888453483582
0.47610151767730713 0.47610151767730713 0.47610151767730713
0.52976119518280029 0.52976119518280029 0.52976119518280029
0.5803837776184082 0.5803837776184082 0.5803837776184082
0.43546360731124878 0.43546360731124878 0.43546360731124878
0.49216973781585693 0.49216973781585693 0.49216973781585693
0.5464363694190979 0.5464363694190979 0.5464363694190979
0.59720253944396973 0.59720253944396973 0.59720253944396973
0.64317291975021362 0.64317291975021362 0.64317291975021362
0.68626415729522705 0.68626415729522705 0.68626415729522705
0.724598228931427 0.724598228931427 0.724598228931427
0.61072492599487305 0.61072492599487305 0.61072492599487305
0.65620821714401245 0.65620821714401245 0.65620821714401245
0.69811147451400757 0.69811147451400757 0.69811147451400757
0.73605191707611084 0.73605191707611084 0.73605191707611084
0.76797515153884888 0.76797515153884888 0.76797515153884888
0.79597699642181396 0.79597699642181396 0.79597699642181396
0.82191628217697144 0.82191628217697144 0.82191628217697144
0.7488519549369812 0.7488519549369812 0.7488519549369812
0.77881884574890137 0.77881884574890137 0.77881884574890137
0.80508995056152344 0.80508995056152344 0.80508995056152344
0.82959449291229248 0.82959449291229248 0.82959449291229248
0.84993720054626465 0.84993720054626465 0.84993720054626465
0.86892610788345337 0.86892610788345337 0.86892610788345337
0.88888990879058838 0.88888990879058838 0.88888990879058838
0.83990049362182617 0.83990049362182617 0.83990049362182617
0.85950690507888794 0.85950690507888794 0.85950690507888794
0.87662410736083984 0.87662410736083984 0.87662410736083984
0.89414364099502563 0.89414364099502563 0.89414364099502563
0.9084509015083313 0.9084509015083313 0.9084509015083313
0.92530155181884766 0.92530155181884766 0.92530155181884766
0.94441211223602295 0.94441211223602295 0.94441211223602295
0.032087497413158417 0.032087497413158417 0.032087497413158417
0.049465611577033997 0.049465611577033997 0.049465611577033997
0.068850532174110413 0.068850532174110413 0.068850532174110413
0.097630292177200317 0.097630292177200317 0.097630292177200317
0.13644032180309296 0.13644032180309296 0.13644032180309296
0.1835060715675354 0.1835060715675354 0.1835060715675354
0.23920741677284241 0.23920741677284241 0.23920741677284241
0.11255283653736115 0.11255283653736115 0.11255283653736115
0.15148386359214783 0.15148386359214783 0.15148386359214783
0.20028327405452728 0.20028327405452728 0.20028327405452728
0.25601640343666077 0.25601640343666077 0.25601640343666077
0.31337654590606689 0.31337654590606689 0.31337654590606689
0.36937868595123291 0.36937868595123291 0.36937868595123291
0.42553412914276123 0.42553412914276123 0.42553412914276123
0.27400243282318115 0.27400243282318115 0.27400243282318115
0.32997962832450867 0.32997962832450867 0.32997962832450867
0.38713821768760681 0.38713821768760681 0.38713821768760681
0.44453230500221252 0.44453230500221252 0.44453230500221252
0.49989071488380432 0.49989071488380432 0.49989071488380432
0.55319344997406006 0.55319344997406006 0.55319344997406006
0.60216838121414185 0.60216838121414185 0.60216838121414185
0.4623560905456543 0.4623560905456543 0.4623560905456543
0.51514637470245361 0.51514637470245361 0.51514637470245361
0.56648045778274536 0.56648045778274536 0.56648045778274536
0.61633175611495972 0.61633175611495972 0.61633175611495972
0.66174691915512085 0.66174691915512085 0.66174691915512085
0.7030215859413147 0.7030215859413147 0.7030215859413147
0.73908376693725586 0.73908376693725586 0.73908376693725586
0.63394033908843994 0.63394033908843994 0.63394033908843994
0.67633622884750366 0.67633622884750366 0.67633622884750366
0.71534782648086548 0.71534782648086548 0.71534782648086548
0.75094372034072876 0.75094372034072876 0.75094372034072876
0.78190988302230835 0.78190988302230835 0.78190988302230835
0.80888807773590088 0.80888807773590088 0.80888807773590088
0.83312749862670898 0.83312749862670898 0.83312749862670898
0.76340818405151367 0.76340818405151367 0.76340818405151367
0.79251265525817871 0.79251265525817871 0.79251265525817871
0.81866872310638428 0.81866872310638428 0.81866872310638428
0.84232282638549805 0.84232282638549805 0.84232282638549805
0.86248087882995605 0.86248087882995605 0.86248087882995605
0.88054203987121582 0.88054203987121582 0.88054203987121582
0.89871138334274292 0.89871138334274292 0.89871138334274292
0.84725660085678101 0.84725660085678101 0.84725660085678101
0.86823540925979614 0.86823540925979614 0.86823540925979614
0.88817471265792847 0.88817471265792847 0.88817471265792847
0.90587878227233887 0.90587878227233887 0.90587878227233887
0.92120516300201416 0.92120516300201416 0.92120516300201416
0.93661195039749146 0.93661195039749146 0.93661195039749146
0.95398825407028198 0.95398825407028198 0.95398825407028198
0.039774443954229355 0.039774443954229355 0.039774443954229355
0.05923360213637352 0.05923360213637352 0.05923360213637352
0.083448000252246857 0.083448000252246857 0.083448000252246857
0.11549869924783707 0.11549869924783707 0.11549869924783707
0.15830701589584351 0.15830701589584351 0.15830701589584351
0.2075423002243042 0.2075423002243042 0.2075423002243042
0.26380059123039246 0.26380059123039246 0.26380059123039246
0.1284325122833252 0.1284325122833252 0.1284325122833252
0.17282140254974365 0.17282140254974365 0.17282140254974365
0.22235128283500671 0.22235128283500671 0.22235128283500671
0.27886685729026794 0.27886685729026794 0.27886685729026794
0.33904686570167542 0.33904686570167542 0.33904686570167542
0.39559188485145569 0.39559188485145569 0.39559188485145569
0.45136362314224243 0.45136362314224243 0.45136362314224243
0.29699578881263733 0.29699578881263733 0.29699578881263733
0.35413199663162231 0.35413199663162231 0.35413199663162231
0.40950560569763184 0.40950560569763184 0.40950560569763184
0.4675847589969635 0.4675847589969635 0.4675847589969635
0.52374529838562012 0.52374529838562012 0.52374529838562012
0.57653295993804932 0.57653295993804932 0.57653295993804932
0.62462025880813599 0.62462025880813599 0.62462025880813599
0.48710831999778748 0.48710831999778748 0.48710831999778748
0.53855443000793457 0.53855443000793457 0.53855443000793457
0.58841592073440552 0.58841592073440552 0.58841592073440552
0.63767987489700317 0.63767987489700317 0.63767987489700317
0.6822127103805542 0.6822127103805542 0.6822127103805542
0.72111022472381592 0.72111022472381592 0.72111022472381592
0.75447869300842285 0.75447869300842285 0.75447869300842285
0.65636807680130005 0.65636807680130005 0.65636807680130005
0.69697099924087524 0.69697099924087524 0.69697099924087524
0.73484909534454346 0.73484909534454346 0.73484909534454346
0.76847869157791138 0.76847869157791138 0.76847869157791138
0.7979620099067688 0.7979620099067688 0.7979620099067688
0.82266032695770264 0.82266032695770264 0.82266032695770264
0.84426915645599365 0.84426915645599365 0.84426915645599365
0.77720874547958374 0.77720874547958374 0.77720874547958374
0.80733305215835571 0.80733305215835571 0.80733305215835571
0.83316940069198608 0.83316940069198608 0.83316940069198608
0.85619598627090454 0.85619598627090454 0.85619598627090454
0.8757205605506897 0.8757205605506897 0.8757205605506897
0.89214539527893066 0.89214539527893066 0.89214539527893066
0.90734767913818359 0.90734767913818359 0.90734767913818359
0.85842537879943848 0.85842537879943848 0.85842537879943848
0.88022518157958984 0.88022518157958984 0.88022518157958984
0.89995473623275757 0.89995473623275757 0.89995473623275757
0.91780382394790649 0.91780382394790649 0.91780382394790649
0.93332439661026001 0.93332439661026001 0.93332439661026001
0.94763118028640747 0.94763118028640747 0.94763118028640747
0.96272009611129761 0.96272009611129761 0.96272009611129761
0.052100177854299545 0.052100177854299545 0.052100177854299545
0.07205817848443985 0.07205817848443985 0.07205817848443985
0.098451755940914154 0.098451755940914154 0.098451755940914154
0.13076594471931458 0.13076594471931458 0.13076594471931458
0.17795509099960327 0.17795509099960327 0.17795509099960327
0.23069356381893158 0.23069356381893158 0.23069356381893158
0.28707563877105713 0.28707563877105713 0.28707563877105713
0.14634811878204346 0.14634811878204346 0.14634811878204346
0.19562233984470367 0.19562233984470367 0.19562233984470367
0.24497668445110321 0.24497668445110321 0.24497668445110321
0.30057677626609802 0.30057677626609802 0.30057677626609802
0.36001166701316833 0.36001166701316833 0.36001166701316833
0.4184509813785553 0.4184509813785553 0.4184509813785553
0.47359764575958252 0.47359764575958252 0.47359764575958252
0.32046377658843994 0.32046377658843994 0.32046377658843994
0.37892448902130127 0.37892448902130127 0.37892448902130127
0.43385320901870728 0.43385320901870728 0.43385320901870728
0.48941913247108459 0.48941913247108459 0.48941913247108459
0.54442638158798218 0.54442638158798218 0.54442638158798218
0.59651064872741699 0.59651064872741699 0.59651064872741699
0.6422731876373291 0.6422731876373291 0.6422731876373291
0.50730234384536743 0.50730234384536743 0.50730234384536743
0.56079345941543579 0.56079345941543579 0.56079345941543579
0.60980576276779175 0.60980576276779175 0.60980576276779175
0.65644341707229614 0.65644341707229614 0.65644341707229614
0.69930309057235718 0.69930309057235718 0.69930309057235718
0.73711651563644409 0.73711651563644409 0.73711651563644409
0.76874333620071411 0.76874333620071411 0.76874333620071411
0.67118984460830688 0.67118984460830688 0.67118984460830688
0.71323490142822266 0.71323490142822266 0.71323490142822266
0.74957984685897827 0.74957984685897827 0.74957984685897827
0.78250044584274292 0.78250044584274292 0.78250044584274292
0.8112369179725647 0.8112369179725647 0.8112369179725647
0.83501887321472168 0.83501887321472168 0.83501887321472168
0.8550294041633606 0.8550294041633606 0.8550294041633606
0.78953438997268677 0.78953438997268677 0.78953438997268677
0.81956011056900024 0.81956011056900024 0.81956011056900024
0.8443530797958374 0.8443530797958374 0.8443530797958374
0.86694425344467163 0.86694425344467163 0.86694425344467163
0.88657838106155396 0.88657838106155396 0.88657838106155396
0.9028506875038147 0.9028506875038147 0.9028506875038147
0.91743773221969604 0.91743773221969604 0.91743773221969604
0.86999529600143433 0.86999529600143433 0.86999529600143433
0.89062976837158203 0.89062976837158203 0.89062976837158203
0.90862715244293213 0.90862715244293213 0.90862715244293213
0.92671996355056763 0.92671996355056763 0.92671996355056763
0.94301879405975342 0.94301879405975342 0.94301879405975342
0.95733165740966797 0.95733165740966797 0.95733165740966797
0.97199511528015137 0.97199511528015137 0.97199511528015137
0.059800181537866592 0.059800181537866592 0.059800181537866592
0.080457799136638641 0.080457799136638641 0.080457799136638641
0.10817486792802811 0.10817486792802811 0.10817486792802811
0.14720426499843597 0.14720426499843597 0.14720426499843597
0.19579431414604187 0.19579431414604187 0.19579431414604187
0.24960188567638397 0.24960188567638397 0.24960188567638397
0.30760890245437622 0.30760890245437622 0.30760890245437622
0.16194228827953339 0.16194228827953339 0.16194228827953339
0.21344710886478424 0.21344710886478424 0.21344710886478424
0.26771199703216553 0.26771199703216553 0.26771199703216553
0.32294920086860657 0.32294920086860657 0.32294920086860657
0.38013598322868347 0.38013598322868347 0.38013598322868347
0.4397273063659668 0.4397273063659668 0.4397273063659668
0.49585336446762085 0.49585336446762085 0.49585336446762085
0.33910387754440308 0.33910387754440308 0.33910387754440308
0.39908146858215332 0.39908146858215332 0.39908146858215332
0.45536187291145325 0.45536187291145325 0.45536187291145325
0.51045018434524536 0.51045018434524536 0.51045018434524536
0.56356966495513916 0.56356966495513916 0.56356966495513916
0.61591571569442749 0.61591571569442749 0.61591571569442749
0.66171562671661377 0.66171562671661377 0.66171562671661377
0.52551138401031494 0.52551138401031494 0.52551138401031494
0.57954472303390503 0.57954472303390503 0.57954472303390503
0.62759280204772949 0.62759280204772949 0.62759280204772949
0.67325007915496826 0.67325007915496826 0.67325007915496826
0.71434193849563599 0.71434193849563599 0.71434193849563599
0.75217652320861816 0.75217652320861816 0.75217652320861816
0.78350913524627686 0.78350913524627686 0.78350913524627686
0.68797814846038818 0.68797814846038818 0.68797814846038818
0.72861307859420776 0.72861307859420776 0.72861307859420776
0.7622184157371521 0.7622184157371521 0.7622184157371521
0.79382109642028809 0.79382109642028809 0.79382109642028809
0.82194370031356812 0.82194370031356812 0.82194370031356812
0.84573078155517578 0.84573078155517578 0.84573078155517578
0.86472421884536743 0.86472421884536743 0.86472421884536743
0.80311518907546997 0.80311518907546997 0.80311518907546997
0.83046817779541016 0.83046817779541016 0.83046817779541016
0.85267645120620728 0.85267645120620728 0.85267645120620728
0.87483543157577515 0.87483543157577515 0.87483543157577515
0.89497280120849609 0.89497280120849609 0.89497280120849609
0.91159498691558838 0.91159498691558838 0.91159498691558838
0.92611026763916016 0.92611026763916016 0.92611026763916016
0.87916284799575806 0.87916284799575806 0.87916284799575806
0.89694130420684814 0.89694130420684814 0.89694130420684814
0.9137529730796814 0.9137529730796814 0.9137529730796814
0.93254297971725464 0.93254297971725464 0.93254297971725464
0.95023876428604126 0.95023876428604126 0.95023876428604126
0.96541142463684082 0.96541142463684082 0.96541142463684082
0.97980105876922607 0.97980105876922607 0.97980105876922607
0.069847226142883301 0.069847226142883301 0.069847226142883301
0.091093353927135468 0.091093353927135468 0.091093353927135468
0.1218680739402771 0.1218680739402771 0.1218680739402771
0.165927454829216 0.165927454829216 0.165927454829216
0.21371503174304962 0.21371503174304962 0.21371503174304962
0.26996859908103943 0.26996859908103943 0.26996859908103943
0.32657817006111145 0.32657817006111145 0.32657817006111145
0.17817007005214691 0.17817007005214691 0.17817007005214691
0.23007270693778992 0.23007270693778992 0.23007270693778992
0.28799468278884888 0.28799468278884888 0.28799468278884888
0.34257179498672485 0.34257179498672485 0.34257179498672485
0.39864784479141235 0.39864784479141235 0.39864784479141235
0.45878273248672485 0.45878273248672485 0.45878273248672485
0.5160554051399231 0.5160554051399231 0.5160554051399231
0.36101624369621277 0.36101624369621277 0.36101624369621277
0.41790729761123657 0.41790729761123657 0.41790729761123657
0.47369924187660217 0.47369924187660217 0.47369924187660217
0.52780359983444214 0.52780359983444214 0.52780359983444214
0.57862716913223267 0.57862716913223267 0.57862716913223267
0.63127154111862183 0.63127154111862183 0.63127154111862183
0.67874538898468018 0.67874538898468018 0.67874538898468018
0.54550272226333618 0.54550272226333618 0.54550272226333618
0.59655988216400146 0.59655988216400146 0.59655988216400146
0.64241719245910645 0.64241719245910645 0.64241719245910645
0.68705600500106812 0.68705600500106812 0.68705600500106812
0.72511249780654907 0.72511249780654907 0.72511249780654907
0.76291865110397339 0.76291865110397339 0.76291865110397339
0.7957303524017334 0.7957303524017334 0.7957303524017334
0.70522004365921021 0.70522004365921021 0.70522004365921021
0.74200683832168579 0.74200683832168579 0.74200683832168579
0.77199810743331909 0.77199810743331909 0.77199810743331909
0.80197393894195557 0.80197393894195557 0.80197393894195557
0.82922345399856567 0.82922345399856567 0.82922345399856567
0.85391265153884888 0.85391265153884888 0.85391265153884888
0.87401628494262695 0.87401628494262695 0.87401628494262695
0.81568104028701782 0.81568104028701782 0.81568104028701782
0.83945661783218384 0.83945661783218384 0.83945661783218384
0.85910600423812866 0.85910600423812866 0.85910600423812866
0.88012522459030151 0.88012522459030151 0.88012522459030151
0.90076929330825806 0.90076929330825806 0.90076929330825806
0.91864407062530518 0.91864407062530518 0.91864407062530518
0.93370771408081055 0.93370771408081055 0.93370771408081055
0.88550835847854614 0.88550835847854614 0.88550835847854614
0.90188568830490112 0.90188568830490112 0.90188568830490112
0.91935151815414429 0.91935151815414429 0.91935151815414429
0.93724662065505981 0.93724662065505981 0.93724662065505981
0.95593297481536865 0.95593297481536865 0.95593297481536865
0.97204267978668213 0.97204267978668213 0.97204267978668213
0.9857943058013916 0.9857943058013916 0.9857943058013916
