assets/lut/berat western.cube
# Created by: G'MIC (https://gmic.eu)
TITLE "western"
# LUT size
LUT_3D_SIZE 5
# Data domain
DOMAIN_MIN 0.0 0.0 0.0
DOMAIN_MAX 1.0 1.0 1.0
# LUT data points
0.0077205882407724857 0.008461926132440567 0.0077205882407724857
0.065526939928531647 0.0057746889069676399 0.0042020310647785664
0.14394178986549377 0.0030637255404144526 0.0030851177871227264
0.2245112806558609 0.0010419808095321059 0.00063475064234808087
0.28827661275863647 0.0011829750146716833 0.004171453882008791
0.0044634053483605385 0.061703432351350784 0.0047081890515983105
0.063007578253746033 0.061494130641222 0.0056986040435731411
0.18637222051620483 0.074766896665096283 0.006074314471334219
0.37204363942146301 0.087234079837799072 0.0074994256719946861
0.57820212841033936 0.11048974096775055 0.0106977429240942
0.0031264361459761858 0.23800496757030487 0.00025796328554861248
0.11897400766611099 0.28403815627098083 0.0079741533845663071
0.35114151239395142 0.31368893384933472 0.012627111747860909
0.59379523992538452 0.33870378136634827 0.014597425237298012
0.76242649555206299 0.37228113412857056 0.025701845064759254
0.026882829144597054 0.54084903001785278 0.007329349871724844
0.20721748471260071 0.58905547857284546 0.036667603999376297
0.45353510975837708 0.6124495267868042 0.047334946691989899
0.67027032375335693 0.62056750059127808 0.044023580849170685
0.81550496816635132 0.63848876953125 0.055664017796516418
0.11761882901191711 0.76587098836898804 0.072789058089256287
0.28931951522827148 0.79245573282241821 0.090453669428825378
0.51413559913635254 0.79735434055328369 0.089854836463928223
0.71647685766220093 0.80457156896591187 0.080830954015254974
0.86037027835845947 0.81013625860214233 0.090346768498420715
0.0075523825362324715 0.0056109409779310226 0.070041850209236145
0.064880311489105225 0.0048218374140560627 0.065134294331073761
0.14672951400279999 0.0033029592595994473 0.054408758878707886
0.21392486989498138 0.0015318627702072263 0.046677339822053909
0.29703572392463684 0.0021594327408820391 0.054531127214431763
0.0043089026585221291 0.05965220183134079 0.06080232560634613
0.07270348072052002 0.069972842931747437 0.07126859575510025
0.2033206969499588 0.079219862818717957 0.073910608887672424
0.40346363186836243 0.096859917044639587 0.083948977291584015
0.61719179153442383 0.12238271534442902 0.10231316089630127
0.0056166853755712509 0.25556677579879761 0.072393633425235748
0.12933838367462158 0.30008783936500549 0.09439251571893692
0.36703634262084961 0.32774293422698975 0.10997377336025238
0.60598278045654297 0.35304170846939087 0.12540066242218018
0.76820886135101318 0.38761815428733826 0.14774203300476074
0.04520932212471962 0.56870466470718384 0.12571340799331665
0.20933333039283752 0.59760993719100952 0.152923583984375
0.45300614833831787 0.61343932151794434 0.16425490379333496
0.67643719911575317 0.62542885541915894 0.17073462903499603
0.82777696847915649 0.64684706926345825 0.19129595160484314
0.12986110150814056 0.77894359827041626 0.21096058189868927
0.28998473286628723 0.79250180721282959 0.22346404194831848
0.51178163290023804 0.79268211126327515 0.21854051947593689
0.72917091846466064 0.80346882343292236 0.21425987780094147
0.87815123796463013 0.82108670473098755 0.23660431802272797
0.0081579620018601418 0.0028033237904310226 0.15519203245639801
0.065167553722858429 0.0030637255404144526 0.15516266226768494
0.14358809590339661 0.0027628282550722361 0.14471939206123352
0.23018589615821838 0.0022502525243908167 0.14287598431110382
0.31438925862312317 0.00088767259148880839 0.15277391672134399
0.0066124261356890202 0.059148017317056656 0.15514905750751495
0.077869251370429993 0.079505592584609985 0.18047246336936951
0.23512102663516998 0.091727718710899353 0.20661178231239319
0.44860446453094482 0.10269313305616379 0.23909449577331543
0.67261546850204468 0.12785781919956207 0.28680717945098877
0.016130844131112099 0.27135941386222839 0.24930974841117859
0.14687101542949677 0.31373295187950134 0.28533855080604553
0.37813743948936462 0.33911707997322083 0.3056388795375824
0.62815111875534058 0.36172178387641907 0.33148103952407837
0.78497886657714844 0.39436444640159607 0.36125904321670532
0.063022613525390625 0.58243381977081299 0.34662801027297974
0.2260282039642334 0.61160701513290405 0.36814570426940918
0.45417451858520508 0.6155199408531189 0.36931633949279785
0.67979723215103149 0.62587398290634155 0.37840566039085388
0.83287495374679565 0.64447349309921265 0.39842310547828674
0.13448633253574371 0.78286635875701904 0.4208882749080658
0.29784175753593445 0.79932582378387451 0.43283906579017639
0.50856274366378784 0.79549449682235718 0.42028582096099854
0.72246330976486206 0.80607718229293823 0.41840377449989319
0.88146352767944336 0.82324707508087158 0.43530544638633728
0.0067490073852241039 0.0048295562155544758 0.23632340133190155
0.059527993202209473 0.0015318627702072263 0.22837582230567932
0.14048029482364655 0.0019190619932487607 0.22667109966278076
0.22873303294181824 0.00073529413202777505 0.22461363673210144
0.35379889607429504 0.0027284659445285797 0.26818230748176575
0.0027095421683043242 0.059344571083784103 0.24483881890773773
0.079121336340904236 0.082336947321891785 0.29614761471748352
0.25105980038642883 0.096366807818412781 0.35251548886299133
0.47849449515342712 0.1074044331908226 0.41397783160209656
0.68646717071533203 0.13515070080757141 0.48048809170722961
0.009661954827606678 0.28661838173866272 0.42990955710411072
0.14957170188426971 0.32866725325584412 0.48193210363388062
0.39201557636260986 0.35213640332221985 0.51998007297515869
0.63155657052993774 0.37279543280601501 0.53966403007507324
0.77906996011734009 0.40331819653511047 0.56335347890853882
0.047948289662599564 0.58059543371200562 0.53924870491027832
0.22669653594493866 0.61773896217346191 0.57245844602584839
0.4597163200378418 0.6225898265838623 0.57983493804931641
0.68712908029556274 0.63183760643005371 0.59057438373565674
0.83562391996383667 0.64700120687484741 0.60373121500015259
0.13082048296928406 0.78700333833694458 0.61724239587783813
0.30065590143203735 0.80253762006759644 0.64031976461410522
0.5106806755065918 0.80243712663650513 0.62691974639892578
0.72347009181976318 0.81196945905685425 0.62528485059738159
0.88250917196273804 0.82426267862319946 0.63836783170700073
0.0069145052693784237 0.0050745946355164051 0.29037696123123169
0.058417554944753647 0.0019412321271374822 0.28310194611549377
0.13078443706035614 0.00054734171135351062 0.27204018831253052
0.24084599316120148 0.00014774098235648125 0.29631510376930237
0.38609257340431213 0.0053832260891795158 0.35940977931022644
0.0047505847178399563 0.072761833667755127 0.33123475313186646
0.086350686848163605 0.087688431143760681 0.38188159465789795
0.27062162756919861 0.10507120192050934 0.46978622674942017
0.51815378665924072 0.11800824105739594 0.55784285068511963
0.70875507593154907 0.14540046453475952 0.61062252521514893
0.013196384534239769 0.30056977272033691 0.55947065353393555
0.15685741603374481 0.34377694129943848 0.63004082441329956
0.40658509731292725 0.36608442664146423 0.66004043817520142
0.64690136909484863 0.3823392391204834 0.68839699029922485
0.7928612232208252 0.41111704707145691 0.7050933837890625
0.067928776144981384 0.59191226959228516 0.68299311399459839
0.238263800740242 0.62541508674621582 0.70833897590637207
0.46950078010559082 0.63140547275543213 0.71835982799530029
0.69268679618835449 0.63727957010269165 0.73471087217330933
0.84480512142181396 0.65790438652038574 0.7469635009765625
0.14350622892379761 0.79278135299682617 0.74770617485046387
0.30783656239509583 0.81596386432647705 0.76893973350524902
0.51827764511108398 0.81613701581954956 0.7711174488067627
0.7277640700340271 0.81994599103927612 0.77484774589538574
0.88686954975128174 0.8314058780670166 0.78870153427124023
