assets/lut/berat neatural.cube
TITLE "neatural"
LUT_3D_SIZE 16
DOMAIN_MIN 0.0 0.0 0.0
DOMAIN_MAX 1.0 1.0 1.0
0.000000 0.001129 0.017060
0.023054 0.000061 0.011312
0.065492 0.000898 0.003735
0.094487 0.001511 0.001511
0.124444 0.001352 0.001352
0.157697 0.000234 0.000234
0.197555 0.000000 0.000000
0.244629 0.000000 0.000000
0.294728 0.000000 0.000000
0.347234 0.000000 0.000000
0.402304 0.000000 0.000000
0.459789 0.000000 0.000000
0.519273 0.000000 0.000000
0.580965 0.000000 0.000000
0.645727 0.000000 0.000000
0.000000 0.014923 0.013245
0.006725 0.028713 0.006547
0.039245 0.025472 0.001477
0.068311 0.022282 0.000509
0.096998 0.018243 0.000852
0.129291 0.012319 0.000810
0.163861 0.004687 0.000137
0.204786 0.000000 0.000000
0.252409 0.000000 0.000000
0.302985 0.000000 0.000000
0.356339 0.000000 0.000000
0.412259 0.000000 0.000000
0.471369 0.000000 0.000000
0.534372 0.000000 0.000000
0.600148 0.000000 0.000000
0.572882 0.007065 0.000260
0.003504 0.042656 0.005302
0.038094 0.053829 0.000285
0.066368 0.050978 0.000259
0.094087 0.047407 0.000203
0.123339 0.042767 0.000000
0.156134 0.036049 0.000000
0.195689 0.026394 0.000000
0.243286 0.013218 0.000000
0.294887 0.001788 0.000000
0.350409 0.000000 0.000000
0.409131 0.000000 0.000000
0.472358 0.000000 0.000000
0.539995 0.000000 0.000000
0.611307 0.000000 0.000000
0.685543 0.000000 0.000000
0.097877 0.061125 0.000892
0.025231 0.067605 0.000439
0.045487 0.080250 0.000238
0.073767 0.078080 0.000174
0.102330 0.074658 0.000134
0.139693 0.069056 0.000000
0.176003 0.062310 0.000000
0.221655 0.052091 0.000000
0.274462 0.039010 0.000000
0.331234 0.022868 0.000000
0.392532 0.004701 0.000000
0.458839 0.000000 0.000000
0.529436 0.000000 0.000000
0.602634 0.000000 0.000000
0.678224 0.000000 0.000000
0.755085 0.000000 0.000000
0.017220 0.095098 0.000347
0.046461 0.092876 0.000101
0.088753 0.105254 0.000000
0.125224 0.102501 0.000000
0.160028 0.098330 0.000000
0.204368 0.091338 0.000000
0.257853 0.080948 0.000000
0.315824 0.067871 0.000000
0.377869 0.051276 0.000000
0.443840 0.030030 0.000000
0.513408 0.005459 0.000000
0.586626 0.000000 0.000000
0.663276 0.000000 0.000000
0.739693 0.000000 0.000000
0.316995 0.075680 0.000000
0.025908 0.122413 0.000000
0.054423 0.121330 0.000000
0.082737 0.120647 0.000000
0.098619 0.139834 0.000000
0.132041 0.139117 0.000000
0.170873 0.136091 0.000000
0.219903 0.129586 0.000000
0.277404 0.120051 0.000000
0.339274 0.107967 0.000000
0.404716 0.092507 0.000000
0.473584 0.072706 0.000000
0.544414 0.047155 0.000000
0.616175 0.013508 0.000000
0.688345 0.000000 0.000000
0.763457 0.000000 0.000000
0.326037 0.096190 0.000000
0.026218 0.157196 0.000000
0.055670 0.158021 0.000000
0.085237 0.158846 0.000000
0.099997 0.184376 0.000000
0.136179 0.185184 0.000000
0.181233 0.184140 0.000000
0.236130 0.178784 0.000000
0.297707 0.170929 0.000000
0.363695 0.160754 0.000000
0.433248 0.147296 0.000000
0.505345 0.129514 0.000000
0.578453 0.106305 0.000000
0.650521 0.075822 0.000000
0.719794 0.035562 0.000000
0.785445 0.001535 0.000000
0.332600 0.123390 0.000000
0.021050 0.203274 0.000000
0.051693 0.206026 0.000000
0.083173 0.208937 0.000000
0.098381 0.243538 0.000000
0.138666 0.246777 0.000000
0.188721 0.247696 0.000000
0.250709 0.245656 0.000000
0.315462 0.240032 0.000000
0.384123 0.231705 0.000000
0.456630 0.220384 0.000000
0.531989 0.205136 0.000000
0.608766 0.185118 0.000000
0.685163 0.158801 0.000000
0.758387 0.124370 0.000000
0.825127 0.078050 0.000000
0.344893 0.168758 0.000000
0.015446 0.262915 0.000000
0.047897 0.268403 0.000000
0.082234 0.273981 0.000000
0.102828 0.316449 0.000000
0.146032 0.321092 0.000000
0.199486 0.322391 0.000000
0.263125 0.321124 0.000000
0.331635 0.318333 0.000000
0.400720 0.311672 0.000000
0.472993 0.302175 0.000000
0.548170 0.289823 0.000000
0.625436 0.273779 0.000000
0.703854 0.252561 0.000000
0.782022 0.224383 0.000000
0.858595 0.186519 0.000000
0.362839 0.257040 0.000000
0.018610 0.336101 0.000000
0.051925 0.343365 0.000000
0.087921 0.350173 0.000000
0.110372 0.395196 0.000000
0.155387 0.399531 0.000000
0.211541 0.401197 0.000000
0.275405 0.400525 0.000000
0.343546 0.398544 0.000000
0.415583 0.395205 0.000000
0.487720 0.387847 0.000000
0.562443 0.377675 0.000000
0.639741 0.364754 0.000000
0.718091 0.347854 0.000000
0.796808 0.325827 0.000000
0.875064 0.296642 0.000000
0.372164 0.351928 0.000000
0.026423 0.415935 0.000000
0.059229 0.423272 0.000000
0.095610 0.430042 0.000000
0.120068 0.476372 0.000000
0.167152 0.480934 0.000000
0.225016 0.482639 0.000000
0.288603 0.482649 0.000000
0.356083 0.481740 0.000000
0.427375 0.479601 0.000000
0.502135 0.475875 0.000000
0.576566 0.467972 0.000000
0.653112 0.457423 0.000000
0.731084 0.443959 0.000000
0.809893 0.426815 0.000000
0.888356 0.404197 0.000000
0.384279 0.447190 0.000000
0.036905 0.498509 0.000000
0.069821 0.505839 0.000000
0.106620 0.512713 0.000000
0.133099 0.560272 0.000000
0.182062 0.564515 0.000000
0.239974 0.566370 0.000000
0.302818 0.567285 0.000000
0.369655 0.567237 0.000000
0.440054 0.566052 0.000000
0.513700 0.563592 0.000000
0.590375 0.559644 0.000000
0.666184 0.551410 0.000000
0.743503 0.540602 0.000000
0.821841 0.527042 0.000000
0.899870 0.509547 0.000000
0.397854 0.542573 0.000000
0.051647 0.583695 0.000000
0.084052 0.591007 0.000000
0.120814 0.597718 0.000000
0.149856 0.646222 0.000000
0.200015 0.649844 0.000000
0.257306 0.652130 0.000000
0.318990 0.653708 0.000000
0.384431 0.654338 0.000000
0.453611 0.653836 0.000000
0.526427 0.652447 0.000000
0.602148 0.649986 0.000000
0.679612 0.645771 0.000000
0.756076 0.637377 0.000000
0.833244 0.626528 0.000000
0.910670 0.612920 0.000000
0.414338 0.638724 0.000000
0.070494 0.671372 0.000000
0.102075 0.678252 0.000000
0.139019 0.684361 0.000000
0.171706 0.733057 0.000000
0.222125 0.736464 0.000000
0.277856 0.739136 0.000000
0.337749 0.741191 0.000000
0.401608 0.742269 0.000000
0.469434 0.742422 0.000000
0.540791 0.741817 0.000000
0.614956 0.740227 0.000000
0.691401 0.737571 0.000000
0.769228 0.733406 0.000000
0.845203 0.725043 0.000000
0.921569 0.714544 0.000000
0.431890 0.734806 0.000000
0.093874 0.760719 0.000000
0.125317 0.766948 0.000000
0.163349 0.772152 0.000000
0.199895 0.820466 0.000000
0.248682 0.823829 0.000000
0.302175 0.826687 0.000000
0.359941 0.828884 0.000000
0.421911 0.830358 0.000000
0.487975 0.831109 0.000000
0.557658 0.831158 0.000000
0.630118 0.830222 0.000000
0.705010 0.828646 0.000000
0.781735 0.826294 0.000000
0.858934 0.822373 0.000000
0.933622 0.814188 0.000000
0.449855 0.830128 0.000000
0.123975 0.850608 0.000000
0.155652 0.855785 0.000000
0.194312 0.859880 0.000000
0.233906 0.907698 0.000000
0.280066 0.910911 0.000000
0.331025 0.913668 0.000000
0.386490 0.915837 0.000000
0.446098 0.917530 0.000000
0.509875 0.918659 0.000000
0.577366 0.919005 0.000000
0.647807 0.918680 0.000000
0.720744 0.917483 0.000000
0.795460 0.915772 0.000000
0.871392 0.913298 0.000000
0.946713 0.909180 0.000000
0.388958 0.362246 0.020737
0.011796 0.000000 0.030519
0.057391 0.000715 0.023293
0.086824 0.001373 0.017075
0.225276 0.000000 0.000000
0.275339 0.000000 0.000000
0.327804 0.000000 0.000000
0.382438 0.000000 0.000000
0.439482 0.000000 0.000000
0.498842 0.000000 0.000000
0.560314 0.000000 0.000000
0.603974 0.000458 0.001824
0.509665 0.003575 0.013417
0.006756 0.013177 0.046472
0.036614 0.010002 0.042133
0.067365 0.006662 0.037278
0.097176 0.002998 0.030803
0.130140 0.001097 0.021004
0.165461 0.000103 0.008535
0.206994 0.000000 0.000000
0.229850 0.000041 0.000000
0.280450 0.000000 0.000000
0.333413 0.000000 0.000000
0.388725 0.000000 0.000000
0.447178 0.000000 0.000000
0.509621 0.000000 0.000000
0.575078 0.000000 0.000000
0.545027 0.006173 0.007425
0.525483 0.010822 0.011497
0.009729 0.041079 0.039468
0.040470 0.038231 0.032390
0.069885 0.034631 0.027886
0.099173 0.030393 0.020732
0.130333 0.024774 0.011289
0.165586 0.016929 0.000659
0.207570 0.007046 0.000000
0.230482 0.016700 0.000000
0.282468 0.003600 0.000000
0.338208 0.000000 0.000000
0.397364 0.000000 0.000000
0.460672 0.000000 0.000000
0.528217 0.000000 0.000000
0.599621 0.000000 0.000000
0.569431 0.009824 0.006429
0.549672 0.017793 0.009389
0.012339 0.068297 0.030640
0.042664 0.065682 0.023621
0.072097 0.063048 0.015465
0.100590 0.059375 0.009329
0.131350 0.054533 0.001224
0.166387 0.047530 0.000000
0.208911 0.037433 0.000000
0.236601 0.048449 0.000000
0.291937 0.034074 0.000000
0.351238 0.017522 0.000000
0.415147 0.001875 0.000000
0.483755 0.000000 0.000000
0.555936 0.000000 0.000000
0.630437 0.000000 0.000000
0.598064 0.013392 0.005068
0.575659 0.024548 0.006523
0.014936 0.094891 0.019310
0.045004 0.092696 0.011775
0.074222 0.090628 0.003823
0.107801 0.087599 0.000181
0.139611 0.083348 0.000000
0.178121 0.077162 0.000000
0.225691 0.067860 0.000000
0.275128 0.077526 0.000000
0.335441 0.063011 0.000000
0.399817 0.044593 0.000000
0.467764 0.021440 0.000000
0.539125 0.000828 0.000000
0.614123 0.000000 0.000000
0.691178 0.000000 0.000000
0.655382 0.017148 0.003045
0.079571 0.112672 0.006508
0.029379 0.122415 0.003228
0.059201 0.121630 0.000165
0.089057 0.120960 0.000000
0.121316 0.119803 0.000000
0.157390 0.116499 0.000000
0.202227 0.110272 0.000000
0.257081 0.100503 0.000000
0.296171 0.116981 0.000000
0.360275 0.103571 0.000000
0.427777 0.086491 0.000000
0.497959 0.064605 0.000000
0.569608 0.036211 0.000000
0.641602 0.003849 0.000000
0.714937 0.000000 0.000000
0.675398 0.021891 0.000067
0.081636 0.144086 0.000000
0.029870 0.158113 0.000000
0.060685 0.159020 0.000000
0.092047 0.159823 0.000000
0.126799 0.159987 0.000000
0.168032 0.158254 0.000000
0.217924 0.152730 0.000000
0.277188 0.144086 0.000000
0.317941 0.168703 0.000000
0.386206 0.157240 0.000000
0.457283 0.142275 0.000000
0.530566 0.122642 0.000000
0.603778 0.096983 0.000000
0.675111 0.063162 0.000000
0.743131 0.022279 0.000000
0.691918 0.028429 0.000000
0.081658 0.185086 0.000000
0.024776 0.204840 0.000000
0.056934 0.207768 0.000000
0.090532 0.210625 0.000000
0.128428 0.212652 0.000000
0.174810 0.213048 0.000000
0.232701 0.209999 0.000000
0.295838 0.203287 0.000000
0.336628 0.238619 0.000000
0.407508 0.229237 0.000000
0.481551 0.216674 0.000000
0.557953 0.199756 0.000000
0.635048 0.177608 0.000000
0.710928 0.148631 0.000000
0.782332 0.110256 0.000000
0.725310 0.092889 0.000000
0.083467 0.238789 0.000000
0.019728 0.265235 0.000000
0.054032 0.270933 0.000000
0.090695 0.276412 0.000000
0.132707 0.281063 0.000000
0.183267 0.283028 0.000000
0.245354 0.281941 0.000000
0.312928 0.278318 0.000000
0.353020 0.317602 0.000000
0.423683 0.309778 0.000000
0.497612 0.299393 0.000000
0.573953 0.285827 0.000000
0.652058 0.268025 0.000000
0.730676 0.244544 0.000000
0.808687 0.213164 0.000000
0.756774 0.198401 0.000000
0.088845 0.314179 0.000000
0.023533 0.338872 0.000000
0.058734 0.346092 0.000000
0.097261 0.352754 0.000000
0.141075 0.357687 0.000000
0.194392 0.360083 0.000000
0.257595 0.359405 0.000000
0.325795 0.356908 0.000000
0.365566 0.398477 0.000000
0.438249 0.393780 0.000000
0.511757 0.385466 0.000000
0.587964 0.374511 0.000000
0.666018 0.360350 0.000000
0.744903 0.341819 0.000000
0.823819 0.317429 0.000000
0.771701 0.306228 0.000000
0.093346 0.397587 0.000000
0.031304 0.418577 0.000000
0.066574 0.426080 0.000000
0.105529 0.432677 0.000000
0.151133 0.437680 0.000000
0.206600 0.439977 0.000000
0.270359 0.439868 0.000000
0.338097 0.438520 0.000000
0.377736 0.482083 0.000000
0.450623 0.479111 0.000000
0.525963 0.474079 0.000000
0.601414 0.465252 0.000000
0.679017 0.453858 0.000000
0.757713 0.439280 0.000000
0.836793 0.420442 0.000000
0.783815 0.411752 0.000000
0.099864 0.483101 0.000000
0.042350 0.501169 0.000000
0.077292 0.508480 0.000000
0.116742 0.515100 0.000000
0.163688 0.520126 0.000000
0.220407 0.522470 0.000000
0.283789 0.523175 0.000000
0.351060 0.522724 0.000000
0.390973 0.567873 0.000000
0.463060 0.566064 0.000000
0.537930 0.562712 0.000000
0.614871 0.557521 0.000000
0.691521 0.548354 0.000000
0.769642 0.536808 0.000000
0.848277 0.522053 0.000000
0.795702 0.515459 0.000000
0.114613 0.570519 0.000000
0.056993 0.586185 0.000000
0.091311 0.593561 0.000000
0.131212 0.600076 0.000000
0.179177 0.604713 0.000000
0.236482 0.607180 0.000000
0.298880 0.608638 0.000000
0.365025 0.608908 0.000000
0.405455 0.655243 0.000000
0.476355 0.654157 0.000000
0.550326 0.652023 0.000000
0.627031 0.648941 0.000000
0.704708 0.643476 0.000000
0.781480 0.634104 0.000000
0.859105 0.622447 0.000000
0.807557 0.617469 0.000000
0.133980 0.660327 0.000000
0.075775 0.673933 0.000000
0.109505 0.680888 0.000000
0.149755 0.686667 0.000000
0.198919 0.690816 0.000000
0.255441 0.693620 0.000000
0.316380 0.695436 0.000000
0.381206 0.696232 0.000000
0.422226 0.743403 0.000000
0.491681 0.742941 0.000000
0.564296 0.741726 0.000000
0.639533 0.739649 0.000000
0.716891 0.736529 0.000000
0.794414 0.730995 0.000000
0.870654 0.721875 0.000000
0.819696 0.718032 0.000000
0.157097 0.751689 0.000000
0.099294 0.763095 0.000000
0.133021 0.769262 0.000000
0.174127 0.774292 0.000000
0.223410 0.777975 0.000000
0.278161 0.780810 0.000000
0.337170 0.783000 0.000000
0.400151 0.784253 0.000000
0.441920 0.831515 0.000000
0.509716 0.831849 0.000000
0.580679 0.831350 0.000000
0.654296 0.829967 0.000000
0.730067 0.828123 0.000000
0.807200 0.825193 0.000000
0.883646 0.819904 0.000000
0.833350 0.817070 0.000000
0.185001 0.843665 0.000000
0.129619 0.853050 0.000000
0.163684 0.858093 0.000000
0.205330 0.861998 0.000000
0.253020 0.865418 0.000000
0.305270 0.868343 0.000000
0.361732 0.870589 0.000000
0.422687 0.872347 0.000000
0.465393 0.918715 0.000000
0.530928 0.919410 0.000000
0.599846 0.919369 0.000000
0.671420 0.918489 0.000000
0.745108 0.917035 0.000000
0.820497 0.915043 0.000000
0.896202 0.912107 0.000000
0.830927 0.787191 0.010652
0.094189 0.087396 0.060210
0.015553 0.000279 0.062833
0.047467 0.000641 0.058989
0.078193 0.001288 0.054424
0.108508 0.001430 0.048120
0.140956 0.000826 0.039320
0.195358 0.000000 0.020182
0.243345 0.000000 0.001453
0.285555 0.000000 0.006197
0.339167 0.000000 0.000000
0.395247 0.000000 0.000000
0.453275 0.000000 0.000000
0.513678 0.000000 0.000000
0.576837 0.000000 0.000000
0.642720 0.000000 0.000000
0.110448 0.013251 0.069249
0.006307 0.012886 0.078827
0.038320 0.009593 0.075330
0.069838 0.006029 0.071420
0.100383 0.002172 0.066336
0.132139 0.001143 0.059074
0.168117 0.000053 0.048697
0.211728 0.000000 0.033645
0.261972 0.000000 0.013360
0.287261 0.000000 0.004063
0.341294 0.000000 0.000000
0.397804 0.000000 0.000000
0.458237 0.000000 0.000000
0.521859 0.000000 0.000000
0.589693 0.000000 0.000000
0.660969 0.000000 0.000000
0.113737 0.036645 0.065024
0.008077 0.040779 0.073560
0.039469 0.037492 0.069336
0.070093 0.034008 0.064860
0.100223 0.029649 0.059237
0.131923 0.023734 0.051584
0.168073 0.015524 0.041026
0.212648 0.003802 0.025633
0.263536 0.000233 0.005865
0.293893 0.001191 0.000911
0.351657 0.000000 0.000000
0.413230 0.000000 0.000000
0.478753 0.000000 0.000000
0.548495 0.000000 0.000000
0.621836 0.000000 0.000000
0.684009 0.001370 0.001389
0.119200 0.059203 0.059589
0.012651 0.067785 0.066917
0.044232 0.065147 0.060713
0.074129 0.062345 0.055054
0.103481 0.058497 0.049901
0.135084 0.053270 0.041626
0.171904 0.045805 0.029579
0.217876 0.034731 0.012297
0.271083 0.020150 0.001423
0.308758 0.029646 0.000000
0.370588 0.010513 0.000000
0.437104 0.000340 0.000000
0.508518 0.000000 0.000000
0.582177 0.000000 0.000000
0.658228 0.000000 0.000000
0.716112 0.002466 0.001767
0.124354 0.081410 0.052370
0.016687 0.094197 0.058202
0.048189 0.092005 0.051894
0.078687 0.090274 0.041612
0.108489 0.087288 0.035958
0.141486 0.083151 0.028628
0.181636 0.076738 0.015717
0.232404 0.066630 0.001443
0.289510 0.053362 0.000000
0.329462 0.064962 0.000000
0.394428 0.046619 0.000000
0.463097 0.023067 0.000000
0.534983 0.001559 0.000000
0.610598 0.000000 0.000000
0.687847 0.000000 0.000000
0.744635 0.003143 0.001502
0.128762 0.105148 0.042535
0.018757 0.122819 0.046365
0.050633 0.122064 0.040310
0.081766 0.121600 0.031505
0.114736 0.120891 0.016944
0.150624 0.117910 0.010030
0.195078 0.111941 0.001764
0.250189 0.102345 0.000005
0.310788 0.089892 0.000000
0.354049 0.105627 0.000000
0.422333 0.088636 0.000000
0.493187 0.066853 0.000000
0.565396 0.038741 0.000000
0.637727 0.005002 0.000000
0.710978 0.000000 0.000000
0.766222 0.003990 0.001114
0.132351 0.135066 0.027475
0.019300 0.158846 0.027960
0.052051 0.159687 0.021636
0.084497 0.160694 0.012701
0.119520 0.161079 0.002824
0.160738 0.159797 0.000000
0.210491 0.154522 0.000000
0.270138 0.145968 0.000000
0.334627 0.134826 0.000000
0.379750 0.159452 0.000000
0.451440 0.144611 0.000000
0.525355 0.125146 0.000000
0.599127 0.099822 0.000000
0.671069 0.066521 0.000000
0.739340 0.022650 0.000000
0.783609 0.005601 0.000305
0.134784 0.173283 0.004075
0.014573 0.205544 0.002541
0.048145 0.208336 0.000116
0.082682 0.211325 0.000000
0.120931 0.213634 0.000000
0.167273 0.214500 0.000000
0.225604 0.211934 0.000000
0.289382 0.205292 0.000000
0.357851 0.196335 0.000000
0.410045 0.229956 0.000000
0.484845 0.217020 0.000000
0.561760 0.199632 0.000000
0.639193 0.176951 0.000000
0.715083 0.147273 0.000000
0.786404 0.107994 0.000000
0.609105 0.122429 0.000000
0.139600 0.224354 0.000000
0.014010 0.265837 0.000000
0.049270 0.271679 0.000000
0.087507 0.277276 0.000000
0.130802 0.282022 0.000000
0.182712 0.284177 0.000000
0.245688 0.283288 0.000000
0.314358 0.279311 0.000000
0.383979 0.271730 0.000000
0.426184 0.310747 0.000000
0.500722 0.300064 0.000000
0.577712 0.286090 0.000000
0.656168 0.267836 0.000000
0.735076 0.243763 0.000000
0.813282 0.211746 0.000000
0.635087 0.221961 0.000000
0.148246 0.302423 0.000000
0.017785 0.339167 0.000000
0.053927 0.346601 0.000000
0.093860 0.353482 0.000000
0.139086 0.358604 0.000000
0.193595 0.361112 0.000000
0.257876 0.360539 0.000000
0.327320 0.358192 0.000000
0.399582 0.353552 0.000000
0.441103 0.394953 0.000000
0.515048 0.386331 0.000000
0.591650 0.375117 0.000000
0.670225 0.360626 0.000000
0.749522 0.341565 0.000000
0.828572 0.316730 0.000000
0.647378 0.324629 0.000000
0.154565 0.388298 0.000000
0.025266 0.418655 0.000000
0.061996 0.426412 0.000000
0.102350 0.433311 0.000000
0.149161 0.438499 0.000000
0.205341 0.441036 0.000000
0.270182 0.441066 0.000000
0.339376 0.439710 0.000000
0.412029 0.436913 0.000000
0.453259 0.480433 0.000000
0.529217 0.475127 0.000000
0.605286 0.466131 0.000000
0.683281 0.454491 0.000000
0.762352 0.439556 0.000000
0.841559 0.420356 0.000000
0.657409 0.426138 0.000000
0.160797 0.475832 0.000000
0.036513 0.501114 0.000000
0.072951 0.508896 0.000000
0.113498 0.515727 0.000000
0.161568 0.520956 0.000000
0.219030 0.523609 0.000000
0.283614 0.524412 0.000000
0.352032 0.523964 0.000000
0.423908 0.522125 0.000000
0.465491 0.567332 0.000000
0.541311 0.563912 0.000000
0.618641 0.558217 0.000000
0.695873 0.549088 0.000000
0.774322 0.537357 0.000000
0.853070 0.522326 0.000000
0.668080 0.526606 0.000000
0.172839 0.565109 0.000000
0.051560 0.586285 0.000000
0.087036 0.593950 0.000000
0.127987 0.600754 0.000000
0.176937 0.605593 0.000000
0.235035 0.608369 0.000000
0.298729 0.609853 0.000000
0.366085 0.610143 0.000000
0.437085 0.609312 0.000000
0.478748 0.655464 0.000000
0.553782 0.653331 0.000000
0.630760 0.649808 0.000000
0.708541 0.643809 0.000000
0.785994 0.634667 0.000000
0.863974 0.622974 0.000000
0.681728 0.626358 0.000000
0.191942 0.656369 0.000000
0.070613 0.674118 0.000000
0.105351 0.681410 0.000000
0.146487 0.687448 0.000000
0.196495 0.691922 0.000000
0.254188 0.694833 0.000000
0.316202 0.696651 0.000000
0.382134 0.697599 0.000000
0.451842 0.697600 0.000000
0.493976 0.744356 0.000000
0.567586 0.743088 0.000000
0.643507 0.740699 0.000000
0.720642 0.736860 0.000000
0.798314 0.731065 0.000000
0.875166 0.722183 0.000000
0.696268 0.725049 0.000000
0.214322 0.748844 0.000000
0.094498 0.763432 0.000000
0.128981 0.769899 0.000000
0.170869 0.775222 0.000000
0.221061 0.779139 0.000000
0.276921 0.782051 0.000000
0.337020 0.784277 0.000000
0.401166 0.785568 0.000000
0.469072 0.786160 0.000000
0.512008 0.833217 0.000000
0.583874 0.832676 0.000000
0.658003 0.831070 0.000000
0.733999 0.828754 0.000000
0.810929 0.825212 0.000000
0.887826 0.819843 0.000000
0.712710 0.822335 0.000000
0.240203 0.841660 0.000000
0.124930 0.853619 0.000000
0.159875 0.858943 0.000000
0.202230 0.863205 0.000000
0.250911 0.866630 0.000000
0.304206 0.869553 0.000000
0.361968 0.871879 0.000000
0.423973 0.873695 0.000000
0.489657 0.874741 0.000000
0.533231 0.920818 0.000000
0.602967 0.920687 0.000000
0.675160 0.919611 0.000000
0.749161 0.917827 0.000000
0.824292 0.915256 0.000000
0.900307 0.911936 0.000000
0.698848 0.667178 0.029588
0.158416 0.147832 0.083209
0.009912 0.000522 0.095725
0.041535 0.000834 0.092506
0.073845 0.001411 0.088800
0.105137 0.001534 0.083749
0.138249 0.001001 0.076760
0.176111 0.000093 0.066639
0.221179 0.000000 0.052384
0.272013 0.000000 0.033621
0.341997 0.000000 0.027906
0.398757 0.000000 0.002361
0.458045 0.000000 0.000000
0.519449 0.000000 0.000000
0.583983 0.000000 0.000000
0.650368 0.000000 0.000000
0.164375 0.011876 0.088517
0.004091 0.012966 0.112195
0.033121 0.009528 0.108972
0.066476 0.005864 0.105543
0.098178 0.002378 0.101195
0.130986 0.001251 0.095031
0.167859 0.000144 0.086123
0.212376 0.000000 0.073341
0.263305 0.000000 0.056672
0.316957 0.000000 0.036173
0.344099 0.000000 0.021264
0.402268 0.000000 0.000000
0.464252 0.000000 0.000000
0.529617 0.000000 0.000000
0.599085 0.000000 0.000000
0.671672 0.000000 0.000000
0.169600 0.033095 0.084900
0.004866 0.040824 0.107434
0.034319 0.037425 0.103705
0.066719 0.033797 0.099738
0.097959 0.029321 0.095016
0.130691 0.023332 0.088701
0.167837 0.014854 0.079859
0.213412 0.004051 0.067409
0.265189 0.000090 0.050718
0.319681 0.000000 0.029389
0.352015 0.000000 0.010966
0.415007 0.000000 0.000000
0.482183 0.000000 0.000000
0.553093 0.000000 0.000000
0.627531 0.000000 0.000000
0.704013 0.000000 0.000000
0.177346 0.053802 0.080797
0.006125 0.067979 0.102020
0.036445 0.065026 0.098095
0.068206 0.061971 0.093861
0.099021 0.058298 0.088788
0.131474 0.053159 0.082001
0.168976 0.045656 0.072518
0.215679 0.034419 0.058779
0.270098 0.019527 0.040522
0.329083 0.003171 0.017130
0.368356 0.010714 0.000621
0.436118 0.000265 0.000000
0.508524 0.000000 0.000000
0.583055 0.000000 0.000000
0.659704 0.000000 0.000000
0.737524 0.000000 0.000000
0.185319 0.074021 0.075022
0.012498 0.094316 0.094552
0.043045 0.091979 0.090572
0.075627 0.090181 0.083552
0.107173 0.087491 0.078132
0.141727 0.083180 0.072577
0.183978 0.076292 0.062264
0.235935 0.065801 0.046523
0.294505 0.051772 0.024561
0.357159 0.034091 0.001425
0.405837 0.042800 0.000000
0.476043 0.018273 0.000000
0.549300 0.001561 0.000000
0.625930 0.000000 0.000000
0.703444 0.000000 0.000000
0.444598 0.051813 0.039280
0.191950 0.096175 0.067778
0.016265 0.123541 0.085640
0.047770 0.122639 0.082152
0.081744 0.122464 0.074654
0.116651 0.121720 0.064764
0.154905 0.118274 0.058319
0.201747 0.111588 0.048017
0.258269 0.101437 0.029926
0.320462 0.087972 0.005012
0.386646 0.071129 0.000000
0.434104 0.085498 0.000000
0.505933 0.062218 0.000000
0.578597 0.031964 0.000000
0.651396 0.004759 0.000000
0.725674 0.000000 0.000000
0.458183 0.066676 0.034131
0.197158 0.124487 0.057430
0.016628 0.160257 0.072645
0.049981 0.161067 0.068856
0.085217 0.162267 0.062191
0.122578 0.162746 0.050139
0.166101 0.160840 0.034311
0.218137 0.154927 0.021912
0.286850 0.144240 0.004919
0.353172 0.131767 0.000000
0.423139 0.116261 0.000000
0.484286 0.137346 0.000000
0.558888 0.115196 0.000000
0.632614 0.086238 0.000000
0.703263 0.048067 0.000000
0.769949 0.007101 0.000000
0.488664 0.085326 0.023803
0.000281 0.206337 0.048910
0.019833 0.208375 0.045485
0.056728 0.211673 0.040925
0.093925 0.214554 0.033374
0.135544 0.216502 0.020201
0.187044 0.215773 0.002824
0.249444 0.211069 0.000000
0.316316 0.203108 0.000000
0.387546 0.192737 0.000000
0.461749 0.179113 0.000000
0.508625 0.213384 0.000000
0.586630 0.194472 0.000000
0.664524 0.169685 0.000000
0.740034 0.137141 0.000000
0.809587 0.093838 0.000000
0.509972 0.135862 0.009583
