assets/lut/berat film yellow.cube
TITLE "film yellow"
LUT_3D_SIZE 16
DOMAIN_MIN 0.0 0.0 0.0
DOMAIN_MAX 1.0 1.0 1.0
0.000000 0.000000 0.000000
0.000000 0.000000 0.000000
0.002913 0.000000 0.000000
0.030295 0.000000 0.000000
0.060758 0.000000 0.000000
0.097953 0.000000 0.000000
0.150206 0.000000 0.000000
0.225865 0.000000 0.000000
0.321357 0.000000 0.000000
0.418299 0.000000 0.000000
0.516431 0.000000 0.000000
0.608505 0.000000 0.000000
0.683049 0.000000 0.000000
0.739068 0.000000 0.000000
0.781457 0.000000 0.000000
0.815915 0.000000 0.000000
0.000000 0.000433 0.000000
0.000000 0.000542 0.000000
0.003551 0.000630 0.000000
0.032495 0.000789 0.000000
0.063319 0.000838 0.000000
0.101555 0.000559 0.000000
0.155297 0.000000 0.000000
0.232626 0.000000 0.000000
0.328293 0.000000 0.000000
0.424953 0.000000 0.000000
0.523231 0.000000 0.000000
0.614836 0.000000 0.000000
0.688726 0.000000 0.000000
0.744726 0.000000 0.000000
0.787860 0.000000 0.000000
0.823763 0.000000 0.000000
0.000000 0.022209 0.000000
0.000000 0.023069 0.000000
0.004958 0.023930 0.000000
0.034763 0.024585 0.000000
0.065672 0.024799 0.000000
0.104352 0.022916 0.000000
0.159567 0.016694 0.000000
0.239022 0.004576 0.000000
0.335901 0.000000 0.000000
0.433498 0.000000 0.000000
0.533052 0.000000 0.000000
0.625280 0.000000 0.000000
0.699717 0.000000 0.000000
0.756977 0.000000 0.000000
0.802243 0.000000 0.000000
0.841153 0.000000 0.000000
0.000000 0.054035 0.000000
0.000000 0.054599 0.000000
0.006722 0.055168 0.000000
0.036404 0.055943 0.000000
0.068007 0.056498 0.000000
0.108274 0.055144 0.000000
0.166093 0.049613 0.000000
0.248709 0.038075 0.000000
0.347754 0.022933 0.000000
0.447446 0.008963 0.000000
0.549374 0.002675 0.000000
0.643510 0.000044 0.000000
0.720016 0.000000 0.000000
0.780179 0.000454 0.000000
0.829247 0.003909 0.000000
0.872709 0.008746 0.000000
0.000000 0.087597 0.000000
0.000000 0.088785 0.000000
0.004490 0.090305 0.000000
0.034795 0.092418 0.000000
0.068142 0.094539 0.000000
0.111030 0.094941 0.000000
0.172540 0.091374 0.000000
0.259427 0.082213 0.000000
0.361871 0.070357 0.000000
0.465166 0.059957 0.000000
0.570972 0.050715 0.000000
0.668473 0.045706 0.000000
0.748462 0.047562 0.000000
0.812866 0.055902 0.000000
0.866893 0.069326 0.000000
0.915680 0.086298 0.000000
0.000000 0.129783 0.000000
0.000000 0.132850 0.000000
0.000395 0.136583 0.000000
0.025410 0.141374 0.000000
0.061699 0.146536 0.000000
0.108659 0.150373 0.000000
0.175356 0.150519 0.000000
0.267950 0.145570 0.000000
0.375102 0.138746 0.000000
0.483351 0.133861 0.000000
0.594181 0.130663 0.000000
0.695962 0.132170 0.000000
0.779873 0.140464 0.000000
0.847981 0.154591 0.000000
0.905233 0.172779 0.000000
0.956451 0.193311 0.000000
0.000000 0.190858 0.000000
0.000000 0.197791 0.000000
0.000000 0.206025 0.000000
0.018489 0.215659 0.000000
0.062987 0.225371 0.000000
0.122503 0.233206 0.000000
0.205509 0.236926 0.000000
0.310994 0.236813 0.000000
0.423424 0.236850 0.000000
0.538184 0.237969 0.000000
0.650050 0.241138 0.000000
0.747057 0.249134 0.000000
0.825470 0.262499 0.000000
0.888994 0.279810 0.000000
0.942810 0.299308 0.002962
0.000000 0.223312 0.000000
0.000000 0.273114 0.000000
0.000000 0.285290 0.000000
0.000000 0.299206 0.000000
0.005991 0.314819 0.000000
0.054590 0.330370 0.000000
0.122688 0.343394 0.000000
0.215320 0.351252 0.000000
0.328466 0.354593 0.000000
0.443967 0.357888 0.000000
0.560895 0.360947 0.000000
0.671888 0.365347 0.000000
0.764930 0.374069 0.000000
0.839047 0.387576 0.000000
0.899605 0.405167 0.000000
0.952185 0.425318 0.005894
0.000000 0.311612 0.000000
0.000000 0.374043 0.000000
0.000000 0.392227 0.000000
0.000000 0.411685 0.000000
0.006121 0.431960 0.000000
0.056741 0.450957 0.000000
0.128815 0.466104 0.000000
0.224656 0.474793 0.000000
0.338776 0.478187 0.000000
0.453575 0.480891 0.000000
0.569680 0.483137 0.000000
0.679475 0.487573 0.000000
0.771534 0.497222 0.000000
0.845357 0.512006 0.000000
0.905681 0.530404 0.000000
0.957804 0.550697 0.011183
0.000000 0.419332 0.000000
0.000000 0.493328 0.000000
0.000000 0.514688 0.000000
0.000000 0.536217 0.000000
0.008116 0.557267 0.000000
0.061923 0.575902 0.000000
0.134753 0.589807 0.000000
0.231843 0.597303 0.000000
0.346690 0.600555 0.000000
0.462231 0.603957 0.000000
0.579249 0.607067 0.000000
0.688499 0.612126 0.000000
0.778900 0.621876 0.000000
0.850699 0.635976 0.000000
0.908707 0.652863 0.000000
0.958187 0.670874 0.011613
0.000000 0.541379 0.000000
0.000000 0.615661 0.000000
0.000000 0.636356 0.000000
0.000000 0.656892 0.000000
0.016824 0.677261 0.000000
0.075424 0.695797 0.000000
0.151069 0.710017 0.000000
0.251127 0.717657 0.000000
0.366997 0.720771 0.000000
0.482379 0.723486 0.000000
0.598427 0.725221 0.000000
0.705007 0.728445 0.000000
0.791714 0.735805 0.000000
0.859456 0.746735 0.000000
0.913207 0.759716 0.001148
0.958254 0.773195 0.011744
0.000000 0.659902 0.000000
0.000000 0.728456 0.000000
0.000000 0.749534 0.000000
0.006889 0.770863 0.000000
0.050511 0.791535 0.000000
0.110397 0.809552 0.000000
0.187301 0.822353 0.002349
0.288080 0.827843 0.003776
0.402566 0.828456 0.003190
0.515491 0.828084 0.002098
0.628192 0.826088 0.000319
0.729912 0.825267 0.000000
0.810951 0.828245 0.000129
0.873248 0.834573 0.002266
0.922059 0.842889 0.008098
0.962716 0.851859 0.016306
0.000000 0.769856 0.000000
0.000000 0.836405 0.000000
0.007000 0.856971 0.000000
0.048278 0.877110 0.003221
0.098570 0.895776 0.014218
0.157296 0.910923 0.027371
0.233019 0.919982 0.036031
0.331999 0.921029 0.036691
0.442725 0.917089 0.032371
0.551364 0.911896 0.026808
0.659425 0.905140 0.019689
0.755683 0.899947 0.014139
0.831233 0.898842 0.012689
0.888623 0.901234 0.014726
0.933225 0.905764 0.018926
0.970236 0.911114 0.023939
0.000000 0.874858 0.000000
0.011358 0.935627 0.014625
0.055328 0.953359 0.030260
0.100518 0.970012 0.046769
0.147376 0.984395 0.061018
0.202798 0.991301 0.071147
0.275672 0.993036 0.074812
0.371793 0.992552 0.070535
0.478384 0.985741 0.061854
0.583069 0.976204 0.052206
0.687005 0.965478 0.041366
0.778447 0.956819 0.032596
0.849236 0.952541 0.028214
0.902481 0.951916 0.027479
0.943680 0.953624 0.029099
0.977943 0.956415 0.031787
0.014603 0.969604 0.030982
0.061030 0.998452 0.065613
0.103574 1.000000 0.078630
0.144097 1.000000 0.090469
0.186913 1.000000 0.100067
0.239086 1.000000 0.105592
0.309641 1.000000 0.104724
0.403501 1.000000 0.096203
0.506589 1.000000 0.083937
0.608113 1.000000 0.070917
0.708605 0.999495 0.057143
0.796021 0.998079 0.046023
0.863041 0.994515 0.039662
0.913213 0.992028 0.037172
0.952017 0.992031 0.037186
0.984423 0.993259 0.038245
0.061997 1.000000 0.080298
0.100450 1.000000 0.105180
0.138691 1.000000 0.113903
0.175197 1.000000 0.121682
0.214722 1.000000 0.127330
0.264468 1.000000 0.128992
0.333486 1.000000 0.124326
0.425783 1.000000 0.112367
0.526139 1.000000 0.097427
0.625559 1.000000 0.082035
0.723573 1.000000 0.066381
0.807869 1.000000 0.053864
0.871959 1.000000 0.046150
0.919765 1.000000 0.042622
0.956822 1.000000 0.041701
0.987971 1.000000 0.042116
0.000000 0.000000 0.000000
0.000000 0.000000 0.000000
0.003150 0.000000 0.000000
0.030631 0.000000 0.000059
0.061267 0.000000 0.000032
0.098836 0.000000 0.000000
0.151370 0.000000 0.000000
0.227292 0.000000 0.000000
0.322363 0.000000 0.000000
0.419352 0.000000 0.000000
0.517168 0.000000 0.000000
0.608875 0.000000 0.000000
0.683254 0.000000 0.000000
0.739248 0.000000 0.000000
0.781764 0.000000 0.000000
0.708183 0.000000 0.000000
0.000000 0.000000 0.000000
0.000000 0.000614 0.000270
0.005517 0.000741 0.000395
0.034852 0.000846 0.000480
0.066553 0.000777 0.000270
0.106256 0.000382 0.000000
0.161822 0.000000 0.000000
0.240007 0.000000 0.000000
0.335193 0.000000 0.000000
0.432193 0.000000 0.000000
0.529572 0.000000 0.000000
0.619682 0.000000 0.000000
0.692557 0.000000 0.000000
0.748002 0.000000 0.000000
0.791046 0.000000 0.000000
0.712675 0.001323 0.000272
0.000000 0.006004 0.000363
0.001347 0.023560 0.000657
0.010834 0.024329 0.000749
0.041090 0.024811 0.000720
0.073975 0.024527 0.000330
0.118489 0.021401 0.000000
0.179232 0.014297 0.000000
0.281042 0.002968 0.000000
0.389399 0.000000 0.000000
0.487740 0.000000 0.000000
0.584285 0.000000 0.000000
0.667805 0.000000 0.000000
0.732964 0.000000 0.000000
0.783794 0.000000 0.000000
0.717900 0.005268 0.000593
0.109456 0.033145 0.000711
0.000390 0.038248 0.000782
0.002345 0.055179 0.000883
0.023036 0.055852 0.001046
0.053469 0.056710 0.001062
0.089646 0.056433 0.000684
0.139080 0.053124 0.000018
0.209833 0.044730 0.000000
0.302523 0.031217 0.000000
0.402980 0.016743 0.000000
0.503934 0.005716 0.000000
0.602782 0.001670 0.000000
0.688399 0.000337 0.000000
0.756253 0.001390 0.000000
0.810634 0.004617 0.000000
0.744233 0.015337 0.000514
0.113437 0.061521 0.000640
0.000350 0.070305 0.000757
0.001991 0.090228 0.000565
0.021304 0.092187 0.000939
0.053218 0.094626 0.001179
0.091734 0.096155 0.001055
0.144549 0.094880 0.000281
0.219540 0.088842 0.000000
0.316280 0.078338 0.000000
0.420139 0.067589 0.000000
0.525207 0.058317 0.000000
0.627830 0.051713 0.000000
0.716929 0.050900 0.000000
0.788802 0.056980 0.000000
0.847844 0.068771 0.000467
0.780472 0.083763 0.000102
0.118984 0.103806 0.000025
0.000000 0.108794 0.000051
0.000464 0.136282 0.000000
0.011653 0.140855 0.000014
0.046237 0.146337 0.000494
0.088451 0.151288 0.000828
0.146126 0.153798 0.000542
0.226875 0.151942 0.000000
0.329014 0.146214 0.000000
0.437588 0.140956 0.000000
0.547936 0.137543 0.000000
0.655199 0.137223 0.000000
0.748177 0.142785 0.000715
0.823614 0.154715 0.002825
0.885754 0.171411 0.007551
0.815882 0.182866 0.013477
0.124556 0.161389 0.002799
0.000000 0.161469 0.000000
0.000000 0.201912 0.000000
0.003164 0.210901 0.000000
0.029015 0.221164 0.000000
0.076461 0.231198 0.000000
0.140387 0.239006 0.000025
0.228098 0.242705 0.000000
0.336686 0.242897 0.000001
0.450825 0.243573 0.000021
0.565517 0.245418 0.000198
0.675301 0.249615 0.001200
0.769089 0.258716 0.002884
0.844425 0.272946 0.007045
0.905744 0.290690 0.021435
0.832693 0.296456 0.030077
0.127502 0.238852 0.005778
0.000000 0.236218 0.000000
0.000000 0.292383 0.000000
0.005084 0.307048 0.000000
0.018099 0.323006 0.000000
0.072475 0.338360 0.000020
0.144835 0.350884 0.000064
0.244561 0.358969 0.000196
0.357543 0.362540 0.000294
0.472604 0.365935 0.000544
0.586290 0.369685 0.001372
0.693105 0.375077 0.002924
0.783163 0.384557 0.005074
0.855592 0.398732 0.011190
0.797878 0.400089 0.018203
0.827182 0.417262 0.032779
0.128056 0.336648 0.006362
0.000000 0.334684 0.000000
0.000073 0.402907 0.000000
0.008380 0.422552 0.000000
0.022233 0.442366 0.000000
0.080888 0.460216 0.000336
0.157324 0.474111 0.000458
0.253801 0.482456 0.000522
0.367557 0.485848 0.000571
0.481777 0.488687 0.000905
0.594817 0.492006 0.001915
0.700701 0.497658 0.003607
0.789910 0.508112 0.006073
0.861881 0.523294 0.016093
0.803311 0.523962 0.023169
0.832005 0.541512 0.037627
0.128776 0.449838 0.007109
0.000000 0.450201 0.000000
0.000695 0.526218 0.000000
0.009048 0.547300 0.000000
0.024629 0.567457 0.000099
0.086244 0.584796 0.000646
0.163382 0.597589 0.000847
0.261192 0.605118 0.001062
0.375860 0.608512 0.001191
0.490670 0.612108 0.001550
0.604177 0.616005 0.002508
0.709194 0.621898 0.004040
0.796441 0.632017 0.007414
0.866086 0.646115 0.018982
0.805534 0.646191 0.024941
0.831839 0.661809 0.037483
0.128593 0.572368 0.006950
0.000000 0.574268 0.000000
0.002729 0.647523 0.000000
0.011394 0.667763 0.000631
0.037261 0.687483 0.002102
0.100661 0.704799 0.002934
0.180345 0.717855 0.004127
0.280565 0.725235 0.005510
0.395932 0.728132 0.005667
0.510008 0.730710 0.006171
0.622052 0.732897 0.006931
0.724107 0.736570 0.009206
0.807345 0.743880 0.015131
0.872740 0.754508 0.024379
0.808479 0.753511 0.027468
0.830931 0.765386 0.036606
0.128051 0.688140 0.006433
0.001539 0.691507 0.000000
0.007568 0.760906 0.002515
0.021765 0.781725 0.005064
0.071270 0.801340 0.010125
0.135630 0.817728 0.019139
0.215996 0.829040 0.029600
0.316372 0.833941 0.033660
0.430019 0.833976 0.032865
0.541143 0.833188 0.031261
0.649487 0.831438 0.028695
0.746589 0.830918 0.027387
0.824282 0.833835 0.029515
0.884343 0.839876 0.034776
0.815303 0.839023 0.033897
0.833945 0.847649 0.039654
0.129609 0.794153 0.008433
0.007339 0.802320 0.004271
0.020427 0.867554 0.017412
0.065349 0.886753 0.033185
0.118339 0.903941 0.049967
0.181241 0.917085 0.062706
0.259880 0.924396 0.069624
0.358081 0.924691 0.069526
0.467905 0.920075 0.064525
0.574558 0.914537 0.058606
0.678246 0.908128 0.051830
0.770080 0.903348 0.046684
0.842521 0.902322 0.045302
0.897892 0.904555 0.047180
0.824409 0.905812 0.046401
0.842090 0.911942 0.051944
0.136794 0.892094 0.023696
0.022169 0.904886 0.031319
0.069547 0.961977 0.068197
0.115649 0.976120 0.083416
0.165157 0.988078 0.095963
0.224728 0.992508 0.104024
0.300342 0.993747 0.106055
0.395664 0.992048 0.101157
0.501492 0.986463 0.091906
0.604119 0.976820 0.082079
0.703720 0.966585 0.071732
0.790937 0.958461 0.063477
0.858881 0.954399 0.059305
0.910359 0.953782 0.058569
0.836321 0.957971 0.061067
0.854969 0.962001 0.065118
0.157834 0.975958 0.070473
0.071503 0.989991 0.084445
0.115423 1.000000 0.114117
0.157068 1.000000 0.124717
0.202787 1.000000 0.132686
0.259278 1.000000 0.136267
0.332436 1.000000 0.133963
0.425534 1.000000 0.124979
0.528015 0.999994 0.112273
0.627426 0.999960 0.099295
0.723692 0.999456 0.086194
0.807137 0.997697 0.075745
0.871558 0.995348 0.069717
0.920155 0.992988 0.067346
0.848404 0.993255 0.072870
0.865659 0.994258 0.075883
0.198221 0.998746 0.111208
0.113538 1.000000 0.126686
0.148491 1.000000 0.147217
0.186389 1.000000 0.153873
0.229084 1.000000 0.157987
0.283293 1.000000 0.157850
0.354798 1.000000 0.151984
0.446458 1.000000 0.139764
0.546398 1.000000 0.124557
0.643627 1.000000 0.109400
0.737498 1.000000 0.094554
0.817998 1.000000 0.082799
0.879678 1.000000 0.075681
0.926078 1.000000 0.072317
0.844257 0.883810 0.063037
0.854472 0.866667 0.062087
0.130159 0.130159 0.010930
0.003381 0.000000 0.001892
0.042853 0.000000 0.018281
0.075602 0.000000 0.018194
0.118559 0.000000 0.015349
0.180391 0.000000 0.007474
0.265870 0.000000 0.000071
0.362934 0.000000 0.000000
0.460004 0.000000 0.000000
0.556590 0.000000 0.000000
0.641938 0.000000 0.000000
0.708302 0.000000 0.000000
0.758181 0.000000 0.000000
0.796946 0.000000 0.000000
0.292580 0.000000 0.012266
0.000000 0.000000 0.017632
0.003273 0.000000 0.018317
0.030062 0.000000 0.019012
0.045236 0.000920 0.020756
0.078697 0.000784 0.020745
0.122737 0.000247 0.017582
0.186086 0.000000 0.009036
0.272542 0.000000 0.000088
0.369616 0.000000 0.000000
0.466952 0.000000 0.000000
0.563663 0.000000 0.000000
0.648613 0.000000 0.000000
0.714819 0.000000 0.000000
0.765253 0.000000 0.000000
0.805341 0.000000 0.000000
0.295645 0.004420 0.013750
0.000000 0.006578 0.019909
0.004102 0.007460 0.020732
0.032464 0.008368 0.021578
0.047293 0.025287 0.022886
0.080949 0.024780 0.022380
0.126148 0.021312 0.018898
0.191577 0.012644 0.010214
0.280105 0.001374 0.000152
0.383898 0.000000 0.000000
0.482880 0.000000 0.000000
0.580295 0.000000 0.000000
0.664933 0.000000 0.000000
0.731347 0.000000 0.000000
0.783122 0.000000 0.000000
0.825827 0.000000 0.000000
0.280542 0.026639 0.016060
0.000000 0.038445 0.022624
0.007846 0.038972 0.023143
0.036087 0.039575 0.023732
0.060245 0.057384 0.025269
0.098160 0.056925 0.024707
0.151565 0.052912 0.020594
0.228851 0.043205 0.010779
0.326466 0.028889 0.001421
0.426756 0.014938 0.000000
0.529295 0.005591 0.000000
0.627168 0.002217 0.000000
0.708875 0.001374 0.000000
0.773357 0.003116 0.000000
0.825546 0.007003 0.000000
0.871125 0.012369 0.000087
0.000000 0.069984 0.022245
0.000000 0.070867 0.022933
0.015667 0.071962 0.023832
0.045773 0.073629 0.025299
0.060859 0.096282 0.025697
0.101408 0.097803 0.026780
0.158597 0.096014 0.024560
0.240527 0.088907 0.017001
0.342168 0.078064 0.005890
0.446168 0.068292 0.001859
0.552989 0.059614 0.000146
0.654608 0.054407 0.000000
0.739954 0.055839 0.000234
0.808743 0.064086 0.002518
0.865816 0.077727 0.008722
0.916483 0.095059 0.019524
0.000000 0.107868 0.015177
0.000000 0.110279 0.016959
0.011125 0.113252 0.019287
0.042955 0.117127 0.022511
0.055409 0.149837 0.020011
0.100093 0.155066 0.024172
0.162598 0.157299 0.025315
0.250622 0.154603 0.021516
0.357536 0.148932 0.014728
0.466611 0.144972 0.009638
0.578771 0.142369 0.007009
0.684809 0.143563 0.008034
0.773785 0.151205 0.013209
0.845786 0.164841 0.024821
0.905453 0.182743 0.041508
0.957894 0.203081 0.060609
0.000000 0.159341 0.000578
0.000000 0.164686 0.002628
0.001020 0.171102 0.005456
0.031378 0.178939 0.010943
0.040613 0.227531 0.005510
0.090906 0.238058 0.013581
0.160118 0.245797 0.019437
0.255346 0.248803 0.020542
0.368039 0.249094 0.018919
0.481872 0.250704 0.018614
0.597880 0.252888 0.018871
0.705712 0.258041 0.022089
0.794913 0.268557 0.030653
0.866267 0.283786 0.043921
0.924609 0.302040 0.060208
0.975322 0.321889 0.078076
0.000000 0.232045 0.000000
0.000000 0.242035 0.000000
0.000000 0.253549 0.000000
0.011563 0.266856 0.000078
0.026646 0.331730 0.000416
0.083463 0.347846 0.005142
0.159213 0.360300 0.014960
0.260141 0.366969 0.019520
0.376004 0.370180 0.020630
0.491526 0.373614 0.021958
0.607883 0.376556 0.022805
0.714091 0.381724 0.025880
0.800878 0.391834 0.033906
0.870576 0.406967 0.046951
0.928397 0.425695 0.063605
0.979545 0.446538 0.082389
0.000000 0.325758 0.000000
0.000000 0.341583 0.000000
0.000000 0.359094 0.000000
0.002327 0.378115 0.000000
0.028229 0.452540 0.001206
0.088544 0.470888 0.008052
0.167271 0.484214 0.019265
0.270119 0.490651 0.023599
0.385578 0.493172 0.024013
0.500388 0.495775 0.024504
0.616262 0.498600 0.025214
0.721739 0.504607 0.029108
0.807962 0.516021 0.038421
0.877100 0.532011 0.052300
0.934209 0.550930 0.069105
0.984287 0.571191 0.087255
0.000000 0.438831 0.000000
0.000000 0.459385 0.000000
0.000000 0.480551 0.000000
0.005750 0.502020 0.000000
0.032818 0.577727 0.002339
0.093395 0.594930 0.011154
0.173215 0.607074 0.021290
0.277801 0.613086 0.025296
0.394171 0.616262 0.026485
0.510122 0.619672 0.027921
0.626121 0.622915 0.029189
0.730158 0.628974 0.033286
0.814111 0.639762 0.042135
0.880606 0.654314 0.054747
0.934826 0.670968 0.069485
0.981654 0.688204 0.084798
0.000000 0.562565 0.000000
0.000000 0.583844 0.000000
0.000000 0.604818 0.000000
0.011726 0.625251 0.001277
0.045621 0.697744 0.008410
0.108572 0.715404 0.024452
0.191306 0.727721 0.035306
0.298000 0.733311 0.039448
0.414266 0.735803 0.040507
0.529582 0.737794 0.041079
0.643650 0.739072 0.040953
0.744133 0.742691 0.043197
0.823768 0.750356 0.049508
0.885680 0.761052 0.058867
0.935239 0.773229 0.069722
0.977503 0.785690 0.080873
0.000000 0.680055 0.000000
0.000000 0.700716 0.000000
0.000024 0.721863 0.003260
0.033833 0.742998 0.012987
0.079995 0.811739 0.042109
0.143721 0.828089 0.057619
0.227170 0.838240 0.066938
0.333566 0.841049 0.068929
0.447370 0.840462 0.067539
0.559705 0.838633 0.064918
0.669562 0.835700 0.061210
0.764536 0.834941 0.059689
0.838505 0.838089 0.062090
0.895189 0.844236 0.067516
0.940164 0.851983 0.074540
0.978352 0.860136 0.081996
0.000000 0.790721 0.006061
0.000000 0.811780 0.016550
0.026363 0.832662 0.035155
0.075598 0.852733 0.054586
0.132320 0.914820 0.089202
0.196439 0.926773 0.100789
0.280796 0.931542 0.105191
0.385359 0.929082 0.102380
0.494541 0.923592 0.096540
0.602487 0.916747 0.089369
0.705994 0.909511 0.081804
0.793268 0.905133 0.077112
0.860299 0.904792 0.076473
0.911244 0.907462 0.078853
0.951692 0.911729 0.082848
0.792625 0.912904 0.080682
0.005724 0.896379 0.051512
0.036392 0.915794 0.070659
0.082561 0.933924 0.088540
0.130478 0.950200 0.104571
0.177855 0.992337 0.133102
0.239135 0.994709 0.139673
0.321323 0.995333 0.138970
0.422866 0.993948 0.131500
0.527938 0.987427 0.121621
0.632130 0.976497 0.110628
0.731097 0.965706 0.099772
0.813249 0.958255 0.092269
0.875637 0.955065 0.089029
0.922753 0.955087 0.089008
0.960195 0.956915 0.090807
0.796068 0.964961 0.095772
0.042430 0.985770 0.106809
0.086536 0.992342 0.121558
0.128852 0.996704 0.135032
0.172607 1.000000 0.146370
0.213011 1.000000 0.167409
0.271665 1.000000 0.169597
0.351884 1.000000 0.164642
0.450837 1.000000 0.153386
0.552574 1.000000 0.140250
0.653797 0.999994 0.126243
0.749277 0.999417 0.112932
0.827648 0.997889 0.103497
0.886771 0.994843 0.098603
0.931270 0.993241 0.097076
0.966714 0.993582 0.097498
0.808186 0.995264 0.108734
0.086479 1.000000 0.151115
0.126036 1.000000 0.161335
0.164062 1.000000 0.170461
0.204210 1.000000 0.177615
0.237293 1.000000 0.190781
0.294106 1.000000 0.189319
0.373150 1.000000 0.180896
0.470301 1.000000 0.166800
0.569674 1.000000 0.151401
0.668952 1.000000 0.135412
0.761801 1.000000 0.120597
0.837175 1.000000 0.110027
0.893736 1.000000 0.104151
0.936277 1.000000 0.101732
0.970344 1.000000 0.101373
0.794830 0.799365 0.086959
0.000000 0.000000 0.029703
0.000000 0.000000 0.030391
0.013814 0.000000 0.031016
0.043021 0.000000 0.031780
0.068919 0.000000 0.047474
0.109001 0.000000 0.045409
0.166670 0.000000 0.038831
0.248785 0.000000 0.025779
0.345905 0.000000 0.008594
0.442502 0.000000 0.000000
0.540273 0.000000 0.000000
0.628863 0.000000 0.000000
0.698525 0.000000 0.000000
0.750850 0.000000 0.000000
0.791117 0.000000 0.000000
0.436145 0.000000 0.022831
0.000000 0.000000 0.046489
0.000000 0.000000 0.047218
0.024887 0.000000 0.047879
0.054670 0.000000 0.048618
0.071875 0.000940 0.050208
0.112879 0.000500 0.047856
0.171869 0.000000 0.040504
0.255271 0.000000 0.026554
0.352566 0.000000 0.009101
0.449488 0.000000 0.000000
0.547616 0.000000 0.000000
0.635937 0.000000 0.000000
0.705429 0.000000 0.000000
0.758287 0.000000 0.000000
0.799862 0.000000 0.000000
0.441255 0.003561 0.023989
0.000000 0.006718 0.048786
0.000635 0.007737 0.049782
0.027285 0.008544 0.050578
0.057150 0.009164 0.051188
0.073889 0.025383 0.051965
0.115958 0.022773 0.049404
0.177039 0.015316 0.042008
0.262834 0.003112 0.028353
0.361371 0.000029 0.011817
0.459862 0.000000 0.001365
0.559445 0.000000 0.000000
0.648650 0.000000 0.000000
0.719268 0.000000 0.000000
0.774097 0.000000 0.000000
0.818610 0.000000 0.000000
0.451876 0.018916 0.025391
0.000000 0.038577 0.051649
0.002315 0.039116 0.052223
0.029169 0.039655 0.052800
0.059334 0.040257 0.053441
0.077243 0.058043 0.055045
0.121514 0.056361 0.053340
0.185795 0.050017 0.046964
0.275011 0.037808 0.034722
0.375808 0.023510 0.020395
0.477130 0.010576 0.007764
0.579472 0.004797 0.002442
0.671040 0.002768 0.001053
0.744452 0.003442 0.001567
0.802880 0.006507 0.003749
0.851848 0.011471 0.008733
0.470632 0.038739 0.029156
0.000000 0.070755 0.051923
0.002632 0.071840 0.052880
0.030233 0.073334 0.054240
0.061718 0.075132 0.055902
0.079592 0.098593 0.057096
0.127194 0.099154 0.057311
0.195913 0.095349 0.053155
0.289853 0.086280 0.043729
0.394392 0.076065 0.033142
0.500100 0.067368 0.024076
0.606610 0.060437 0.016768
0.701875 0.058743 0.014767
0.779352 0.064200 0.019761
0.842409 0.075795 0.030959
0.896356 0.091896 0.046661
0.495836 0.103815 0.049563
0.000000 0.109865 0.045925
0.000290 0.112743 0.048245
0.026933 0.116437 0.051364
0.060830 0.120744 0.055082
0.077043 0.155218 0.054222
0.129511 0.159804 0.057834
0.204192 0.160342 0.057380
0.304159 0.156148 0.052191
0.413694 0.151628 0.046653
0.524994 0.148980 0.042980
0.636414 0.148298 0.041261
0.735492 0.152877 0.044797
0.816144 0.163914 0.054778
0.881767 0.180037 0.069829
0.937545 0.199395 0.088097
0.519073 0.186303 0.063335
0.000000 0.163713 0.028282
0.000000 0.169935 0.033190
0.014703 0.177534 0.039472
0.052423 0.186126 0.046737
0.066333 0.237295 0.043160
0.125090 0.247419 0.051529
0.206971 0.253635 0.055971
0.313598 0.255225 0.055784
0.427985 0.256421 0.055190
0.543499 0.258575 0.055556
0.657450 0.261958 0.057143
0.757026 0.269613 0.062998
0.837077 0.282520 0.074096
0.901348 0.299272 0.089044
0.955305 0.318250 0.106208
0.529430 0.284684 0.062098
0.000000 0.240170 0.003022
0.000000 0.251393 0.008667
0.000577 0.264442 0.019066
0.037083 0.278784 0.031455
0.057289 0.346193 0.033751
0.122417 0.361296 0.046879
0.210266 0.371339 0.054957
0.321117 0.375817 0.057479
0.437259 0.379086 0.058790
