assets/lut/berat western.cube
# Created by: G'MIC (https://gmic.eu)
TITLE "western"
# LUT size
LUT_3D_SIZE 13
# Data domain
DOMAIN_MIN 0.0 0.0 0.0
DOMAIN_MAX 1.0 1.0 1.0
# LUT data points
0.0077205882407724857 0.008461926132440567 0.0077205882407724857
0.026919016614556313 0.010110294446349144 0.0076968921348452568
0.045253738760948181 0.0085757384076714516 0.0061704446561634541
0.065526939928531647 0.0057746889069676399 0.0042020310647785664
0.090101875364780426 0.0039686765521764755 0.0026109882164746523
0.11738181114196777 0.0032902886159718037 0.0024466570466756821
0.14394178986549377 0.0030637255404144526 0.0030851177871227264
0.17129135131835938 0.0028569239657372236 0.0039030786138027906
0.19949017465114594 0.0022154415491968393 0.0032332476694136858
0.2245112806558609 0.0010419808095321059 0.00063475064234808087
0.24445034563541412 0.00037859746953472495 0.00027788948500528932
0.26365476846694946 0.00015617819735780358 0.0014015795895829797
0.28827661275863647 0.0011829750146716833 0.004171453882008791
0.0075337276794016361 0.025972897186875343 0.0060708886012434959
0.024688556790351868 0.026608634740114212 0.0066002192907035351
0.042669948190450668 0.023570206016302109 0.0053941016085445881
0.063845902681350708 0.019559837877750397 0.0038268894422799349
0.089631050825119019 0.017299098894000053 0.0022757137194275856
0.1169123500585556 0.01649850606918335 0.0022671569604426622
0.14202678203582764 0.015267884358763695 0.0027086145710200071
0.17082297801971436 0.013348703272640705 0.0036967408377677202
0.20007650554180145 0.012326064519584179 0.0038097905926406384
0.23193053901195526 0.01154194213449955 0.002530071884393692
0.26931646466255188 0.011660078540444374 0.0018356024520471692
0.3044276237487793 0.012428523041307926 0.0026238234713673592
0.33673682808876038 0.01569022424519062 0.0050436430610716343
0.0051932092756032944 0.042607713490724564 0.0046805734746158123
0.021867414936423302 0.042015630751848221 0.0055916877463459969
0.039929840713739395 0.038622237741947174 0.0054573058150708675
0.062095880508422852 0.035000581294298172 0.0044439728371798992
0.089677505195140839 0.03529604896903038 0.0031576119363307953
0.119035504758358 0.035968136042356491 0.0029431062284857035
0.1506696343421936 0.036306194961071014 0.0038962271064519882
0.19279937446117401 0.036097582429647446 0.0048423469997942448
0.2346193790435791 0.03682568296790123 0.0055969087406992912
0.28048956394195557 0.038365442305803299 0.0054362728260457516
0.33811900019645691 0.042154140770435333 0.0046585681848227978
0.39663666486740112 0.046538796275854111 0.0049038156867027283
0.44821399450302124 0.053075063973665237 0.0071445242501795292
0.0044634053483605385 0.061703432351350784 0.0047081890515983105
0.019110346212983131 0.059669524431228638 0.0054057701490819454
0.037597358226776123 0.059250939637422562 0.005817667581140995
0.063007578253746033 0.061494130641222 0.0056986040435731411
0.09672420471906662 0.066049106419086456 0.0054875840432941914
0.13661591708660126 0.070718221366405487 0.0057415682822465897
0.18637222051620483 0.074766896665096283 0.006074314471334219
0.24815328419208527 0.078540101647377014 0.0065525281243026257
0.31015998125076294 0.082393363118171692 0.0071338131092488766
0.37204363942146301 0.087234079837799072 0.0074994256719946861
0.44089782238006592 0.093981526792049408 0.0073313992470502853
0.51415395736694336 0.10120858252048492 0.0077005275525152683
0.57820212841033936 0.11048974096775055 0.0106977429240942
0.0044900034554302692 0.089358039200305939 0.0050262301228940487
0.019131738692522049 0.093454159796237946 0.005392665509134531
0.04059455543756485 0.099901236593723297 0.0061935875564813614
0.073513224720954895 0.11002297699451447 0.0075073991902172565
0.1188829317688942 0.11993883550167084 0.0077205882407724857
0.17591020464897156 0.12917566299438477 0.0077205882407724857
0.24432489275932312 0.13636744022369385 0.0077205882407724857
0.32244038581848145 0.14233997464179993 0.0077205882407724857
0.4006074070930481 0.14873038232326508 0.0077205882407724857
0.47016248106956482 0.15643210709095001 0.0077879065647721291
0.54061752557754517 0.16544707119464874 0.0082971313968300819
0.61427468061447144 0.17453195154666901 0.010593503713607788
0.67964041233062744 0.18475741147994995 0.014647689647972584
0.0032813427969813347 0.15050527453422546 0.002235352760180831
0.022151108831167221 0.15941043198108673 0.0036975785624235868
0.051066722720861435 0.17297115921974182 0.0056237163953483105
0.093910545110702515 0.1873801201581955 0.0076968921348452568
0.15163324773311615 0.19965539872646332 0.0077205882407724857
0.22205275297164917 0.2098432332277298 0.007985701784491539
0.30276292562484741 0.21807807683944702 0.0088465074077248573
0.38978952169418335 0.22517259418964386 0.0091284960508346558
0.47362989187240601 0.23291176557540894 0.0094639649614691734
0.54560750722885132 0.24227315187454224 0.010108498856425285
0.61292088031768799 0.25277423858642578 0.01160278357565403
0.67829030752182007 0.26352587342262268 0.014136116020381451
0.73489886522293091 0.27453982830047607 0.019226478412747383
0.0031264361459761858 0.23800496757030487 0.00025796328554861248
0.028321763500571251 0.25117990374565125 0.0018428877228870988
0.066413357853889465 0.26841840147972107 0.0052320291288197041
0.11897400766611099 0.28403815627098083 0.0079741533845663071
0.18657118082046509 0.29595455527305603 0.0098499823361635208
0.26521670818328857 0.30559247732162476 0.011554853059351444
0.35114151239395142 0.31368893384933472 0.012627111747860909
0.43915945291519165 0.32098335027694702 0.013398637995123863
0.52169787883758545 0.32916378974914551 0.013995480723679066
0.59379523992538452 0.33870378136634827 0.014597425237298012
0.65730971097946167 0.34962403774261475 0.016371559351682663
0.71417617797851562 0.36121639609336853 0.0198237095028162
0.76242649555206299 0.37228113412857056 0.025701845064759254
0.0052427551709115505 0.33802291750907898 1.077091019396903e-05
0.038759928196668625 0.35358035564422607 0.0015624251682311296
0.086008079349994659 0.37158837914466858 0.0064500994049012661
0.14690062403678894 0.38734182715415955 0.011772784404456615
0.22030764818191528 0.39916419982910156 0.015299778431653976
0.3031400740146637 0.40833458304405212 0.017851676791906357
0.39027926325798035 0.41571250557899475 0.019693771377205849
0.47631022334098816 0.42250597476959229 0.020791925489902496
0.55584442615509033 0.42962604761123657 0.021220441907644272
0.62547808885574341 0.43822619318962097 0.021981483325362206
0.68543714284896851 0.44841614365577698 0.02401459589600563
0.73697996139526367 0.45983749628067017 0.027974940836429596
0.78144997358322144 0.47041898965835571 0.034457698464393616
0.011642725206911564 0.44067737460136414 0.00070138071896508336
0.054657265543937683 0.45780140161514282 0.0047161774709820747
0.10973493009805679 0.47528541088104248 0.01311988104134798
0.17635665833950043 0.49042963981628418 0.021017322316765785
0.25354236364364624 0.50219345092773438 0.026362085714936256
0.33756732940673828 0.51074284315109253 0.029774893075227737
0.42373692989349365 0.51740550994873047 0.031577166169881821
0.50693649053573608 0.52267283201217651 0.032142892479896545
0.58301174640655518 0.5276760458946228 0.031860038638114929
0.64949387311935425 0.53395158052444458 0.032137371599674225
0.70691448450088501 0.54212850332260132 0.034005723893642426
0.75576114654541016 0.55178594589233398 0.038148604333400726
0.79821503162384033 0.56110453605651855 0.045027114450931549
0.026882829144597054 0.54084903001785278 0.007329349871724844
0.077267318964004517 0.55917149782180786 0.016321772709488869
0.13751873373985291 0.57559144496917725 0.027380101382732391
0.20721748471260071 0.58905547857284546 0.036667603999376297
0.28552573919296265 0.59926557540893555 0.042677473276853561
0.36913248896598816 0.60700327157974243 0.045962434262037277
0.45353510975837708 0.6124495267868042 0.047334946691989899
0.53394919633865356 0.61558681726455688 0.046443670988082886
0.60660666227340698 0.61752623319625854 0.04489096999168396
0.67027032375335693 0.62056750059127808 0.044023580849170685
0.72569060325622559 0.62565213441848755 0.045326009392738342
0.7733992338180542 0.63232433795928955 0.049210626631975174
0.81550496816635132 0.63848876953125 0.055664017796516418
0.055679142475128174 0.63698846101760864 0.027278061956167221
0.10778609663248062 0.65280300378799438 0.036935396492481232
0.16857077181339264 0.66654390096664429 0.04764016717672348
0.23798099160194397 0.67705869674682617 0.056444086134433746
0.31516695022583008 0.68402743339538574 0.061505202203989029
0.3976169228553772 0.69029277563095093 0.063827484846115112
0.48049777746200562 0.69544672966003418 0.063980922102928162
0.55786985158920288 0.69635248184204102 0.061952896416187286
0.62764114141464233 0.69524872303009033 0.058791276067495346
0.68888455629348755 0.69513106346130371 0.056661270558834076
0.74293828010559082 0.69696325063705444 0.05719032883644104
0.79004085063934326 0.70059704780578613 0.060475487262010574
0.83244431018829346 0.70410090684890747 0.066779524087905884
0.091344945132732391 0.7179253101348877 0.052467826753854752
0.14082804322242737 0.72897350788116455 0.059964124113321304
0.19908216595649719 0.73945963382720947 0.069085843861103058
0.26588889956474304 0.7467377781867981 0.075908660888671875
0.34003940224647522 0.74896985292434692 0.078855238854885101
0.42043218016624451 0.7531207799911499 0.079730108380317688
0.50212091207504272 0.75975418090820312 0.079731948673725128
0.5771985650062561 0.7604670524597168 0.076306484639644623
0.64447176456451416 0.75732648372650146 0.071841955184936523
0.70474481582641602 0.75604140758514404 0.068986751139163971
0.75778526067733765 0.75640380382537842 0.069056540727615356
0.80484616756439209 0.75837522745132446 0.072129331529140472
0.84743332862854004 0.76041102409362793 0.078201711177825928
0.11761882901191711 0.76587098836898804 0.072789058089256287
0.16809861361980438 0.77892714738845825 0.079196557402610779
0.22500258684158325 0.7883918285369873 0.086036562919616699
0.28931951522827148 0.79245573282241821 0.090453669428825378
0.3595367968082428 0.79129642248153687 0.091443397104740143
0.43538752198219299 0.79094791412353516 0.090524502098560333
0.51413559913635254 0.79735434055328369 0.089854836463928223
0.58891534805297852 0.80267035961151123 0.087013393640518188
0.65604096651077271 0.80400639772415161 0.083066560328006744
0.71647685766220093 0.80457156896591187 0.080830954015254974
0.76966607570648193 0.80602091550827026 0.081049181520938873
0.81711548566818237 0.80806297063827515 0.084333635866641998
0.86037027835845947 0.81013625860214233 0.090346768498420715
0.0077205882407724857 0.0083672171458601952 0.026536291465163231
0.025547387078404427 0.0095566241070628166 0.025899939239025116
0.042780410498380661 0.0081406990066170692 0.023419039323925972
0.063299812376499176 0.005664152093231678 0.020616330206394196
0.089092165231704712 0.0045280605554580688 0.018809180706739426
0.11849325150251389 0.004466082900762558 0.017259096726775169
0.14646780490875244 0.0037974787410348654 0.016666337847709656
0.17304125428199768 0.0030189214739948511 0.015498561784625053
0.19965723156929016 0.0019575681071728468 0.012311045080423355
0.22563476860523224 0.001263293088413775 0.0082831587642431259
0.24626071751117706 0.00086756685050204396 0.0085020028054714203
0.26696142554283142 0.0007609348394908011 0.012050703167915344
0.29400250315666199 0.0016923043876886368 0.017029227688908577
0.0063065923750400543 0.024157086387276649 0.023128673434257507
0.022727591916918755 0.024219632148742676 0.023092068731784821
0.040534868836402893 0.021591486409306526 0.022197797894477844
0.062120728194713593 0.018512485548853874 0.019430825486779213
0.088579528033733368 0.017099687829613686 0.018047811463475227
0.11761519312858582 0.016821917146444321 0.016027098521590233
0.14505919814109802 0.015886867418885231 0.016636582091450691
0.17334368824958801 0.013798747211694717 0.016500405967235565
0.20326991379261017 0.012790126726031303 0.015182914212346077
0.23578302562236786 0.01283086184412241 0.013686550781130791
0.27201938629150391 0.013563672080636024 0.013830791227519512
0.31047579646110535 0.014798332937061787 0.016046935692429543
0.3522096574306488 0.01837475411593914 0.020100148394703865
0.0043838950805366039 0.040397986769676208 0.02022857591509819
0.019669236615300179 0.039448533207178116 0.020914370194077492
0.038101736456155777 0.036359481513500214 0.020954102277755737
0.061137691140174866 0.034868158400058746 0.020234694704413414
0.089980244636535645 0.035726137459278107 0.019796229898929596
0.12057177722454071 0.036252368241548538 0.019587557762861252
0.15485641360282898 0.036517184227705002 0.019348293542861938
0.19624374806880951 0.036797333508729935 0.019625285640358925
0.24013787508010864 0.038520198315382004 0.02026418037712574
0.28752943873405457 0.041010268032550812 0.021026715636253357
0.34548071026802063 0.044742569327354431 0.021416040137410164
0.41098922491073608 0.049249313771724701 0.022181147709488869
0.47178709506988525 0.056510478258132935 0.025899460539221764
0.0031700583640486002 0.059358753263950348 0.018965402618050575
0.017268581315875053 0.059282772243022919 0.019923580810427666
0.036396488547325134 0.060182534158229828 0.021571589633822441
0.064573086798191071 0.063728019595146179 0.023139804601669312
0.10048573464155197 0.068921349942684174 0.024305202066898346
0.14151670038700104 0.072844982147216797 0.024732701480388641
0.19101312756538391 0.075824186205863953 0.024414211511611938
0.25128695368766785 0.079452976584434509 0.024472882971167564
0.31450375914573669 0.084170833230018616 0.025115279480814934
0.37926599383354187 0.090083688497543335 0.026342982426285744
0.45244905352592468 0.096999362111091614 0.0272813830524683
0.53337067365646362 0.10527893900871277 0.028859755024313927
0.60401111841201782 0.11551044136285782 0.032902870327234268
0.0024431564379483461 0.092792704701423645 0.017680583521723747
0.01775544136762619 0.09705805778503418 0.019784262403845787
0.040566656738519669 0.10503683984279633 0.022503392770886421
0.076065942645072937 0.11556211113929749 0.025258323177695274
0.12459227442741394 0.12540546059608459 0.027812628075480461
0.18249309062957764 0.1332971602678299 0.029084194451570511
0.24951499700546265 0.13899897038936615 0.029020572081208229
0.32511070370674133 0.14468510448932648 0.029102055355906487
0.40224605798721313 0.15157590806484222 0.02962004765868187
0.47590234875679016 0.15991672873497009 0.030780911445617676
0.55116921663284302 0.16950985789299011 0.032320223748683929
0.62806558609008789 0.18005259335041046 0.03494713082909584
0.69258111715316772 0.19143542647361755 0.040145304054021835
0.0022317625116556883 0.15490037202835083 0.01522363442927599
0.020050393417477608 0.16531760990619659 0.018629441037774086
0.049716349691152573 0.18061527609825134 0.023268172517418861
0.094906613230705261 0.19511465728282928 0.026856066659092903
0.1554005891084671 0.20634683966636658 0.02853291854262352
0.2275841236114502 0.21513473987579346 0.030862681567668915
0.30770823359489441 0.22213388979434967 0.032299458980560303
0.39261695742607117 0.22896474599838257 0.033306553959846497
0.47491839528083801 0.23699714243412018 0.034361716359853745
0.54971981048583984 0.24674364924430847 0.035640358924865723
0.61932742595672607 0.2578890323638916 0.037652436643838882
0.68409693241119385 0.26948758959770203 0.041194602847099304
0.73757284879684448 0.2814687192440033 0.047098167240619659
0.0019193462794646621 0.24356202781200409 0.011725780554115772
0.024932442232966423 0.25840884447097778 0.01736978255212307
0.063090167939662933 0.27757164835929871 0.024519871920347214
0.11762454360723495 0.29314032196998596 0.028406614437699318
0.18733394145965576 0.30315539240837097 0.030409479513764381
0.26820343732833862 0.3112814724445343 0.032963726669549942
0.35499849915504456 0.31841328740119934 0.036016099154949188
0.44249358773231506 0.32551917433738708 0.038723785430192947
0.52438366413116455 0.33373844623565674 0.040538981556892395
0.59660947322845459 0.34370332956314087 0.042042393237352371
0.66026490926742554 0.35521689057350159 0.044598434120416641
0.71575433015823364 0.36735028028488159 0.049029674381017685
0.7612680196762085 0.37894225120544434 0.055858403444290161
0.0035601896233856678 0.34523573517799377 0.010965160094201565
0.034844342619180679 0.36131167411804199 0.018436238169670105
0.081924110651016235 0.37961134314537048 0.027313232421875
0.14385885000228882 0.3949379026889801 0.033787492662668228
0.21956363320350647 0.40557089447975159 0.037517130374908447
0.30428364872932434 0.41369006037712097 0.041081745177507401
0.39277982711791992 0.42047691345214844 0.04494871199131012
0.4793516993522644 0.42693230509757996 0.047918520867824554
0.55857813358306885 0.43422368168830872 0.049686610698699951
0.62760382890701294 0.4432031512260437 0.051481448113918304
0.68732959032058716 0.453997403383255 0.054336205124855042
0.73797953128814697 0.46545499563217163 0.059432521462440491
0.7820020318031311 0.47566783428192139 0.067237123847007751
0.009423648938536644 0.44862920045852661 0.017347970977425575
0.050727635622024536 0.46469703316688538 0.026079364120960236
0.10547826439142227 0.48121529817581177 0.036743387579917908
0.17293925583362579 0.49594631791114807 0.045510042458772659
0.25151452422142029 0.50714647769927979 0.051653139293193817
0.33735394477844238 0.51523053646087646 0.056010033935308456
0.42503601312637329 0.52137762308120728 0.059180751442909241
0.5091322660446167 0.5263703465461731 0.061322964727878571
0.5855175256729126 0.53171283006668091 0.06234658882021904
0.65200650691986084 0.53853374719619751 0.063726849853992462
0.70902281999588013 0.54724806547164917 0.066598765552043915
0.75800949335098267 0.55692183971405029 0.07199464738368988
0.80145007371902466 0.56534135341644287 0.079908736050128937
0.025135444477200508 0.54831176996231079 0.033128250390291214
0.074312500655651093 0.56470835208892822 0.042896240949630737
0.13379064202308655 0.57984030246734619 0.054540328681468964
0.20383976399898529 0.59285187721252441 0.064438089728355408
0.28313645720481873 0.6027640700340271 0.071175336837768555
0.3678835928440094 0.60982984304428101 0.075365893542766571
0.45389273762702942 0.61472904682159424 0.076985783874988556
0.53536731004714966 0.61771911382675171 0.077546663582324982
0.60922890901565552 0.6206967830657959 0.077321730554103851
0.6741262674331665 0.6243891716003418 0.077554903924465179
0.72951209545135498 0.63017731904983521 0.08001786470413208
0.77743053436279297 0.6371467113494873 0.085147127509117126
0.82010537385940552 0.64311623573303223 0.092971563339233398
0.054295424371957779 0.64179962873458862 0.05784626305103302
0.10560100525617599 0.65707123279571533 0.067428797483444214
0.16583530604839325 0.66950356960296631 0.078328102827072144
0.23525732755661011 0.67915457487106323 0.087322026491165161
0.3130422830581665 0.68598610162734985 0.092914775013923645
0.39596685767173767 0.69094324111938477 0.095362268388271332
0.47968623042106628 0.69502460956573486 0.095713883638381958
0.55914205312728882 0.69597828388214111 0.094500705599784851
0.63029664754867554 0.69671863317489624 0.092573530972003937
0.69357562065124512 0.69777542352676392 0.091829590499401093
0.74793159961700439 0.7008703351020813 0.093610562384128571
0.79551780223846436 0.705177903175354 0.098416693508625031
0.83814769983291626 0.70919406414031982 0.10611355304718018
0.089729413390159607 0.71987318992614746 0.086215704679489136
0.13967795670032501 0.73214972019195557 0.093936160206794739
0.19767434895038605 0.74119871854782104 0.10255987197160721
0.26397082209587097 0.74718886613845825 0.10919585824012756
0.33879464864730835 0.74962490797042847 0.1129695400595665
0.41872206330299377 0.75257962942123413 0.11360169947147369
0.50047856569290161 0.75651019811630249 0.11273133754730225
0.57804673910140991 0.75796401500701904 0.11008086800575256
0.64795339107513428 0.75719958543777466 0.10677856951951981
0.71002197265625 0.75731199979782104 0.10534409433603287
0.76400995254516602 0.75976347923278809 0.10686472058296204
0.81137704849243164 0.76268666982650757 0.11163168400526047
0.85418432950973511 0.76570063829421997 0.11918479949235916
0.11825083941221237 0.77198725938796997 0.11047427356243134
0.16808289289474487 0.78303974866867065 0.11627792567014694
0.22432971000671387 0.79039376974105835 0.1225908026099205
0.28791928291320801 0.79287111759185791 0.12654227018356323
0.35893493890762329 0.79237836599349976 0.12731944024562836
0.43516424298286438 0.79331290721893311 0.12695401906967163
0.51434743404388428 0.79719275236129761 0.12537069618701935
0.59080970287322998 0.80141198635101318 0.12277272343635559
0.66071194410324097 0.8038141131401062 0.11952833086252213
0.72273820638656616 0.80580693483352661 0.11859454214572906
0.77693229913711548 0.80861514806747437 0.12008022516965866
0.82452666759490967 0.8119775652885437 0.12518058717250824
0.86786955595016479 0.81543135643005371 0.1327909380197525
0.0075870291329920292 0.0069201751612126827 0.04691334068775177
0.02462494745850563 0.0079952310770750046 0.045945633202791214
0.042638443410396576 0.0068360720761120319 0.043885502964258194
0.063585884869098663 0.0051598194986581802 0.040970493108034134
0.089656338095664978 0.0046568629331886768 0.038411788642406464
0.11934280395507812 0.0046568629331886768 0.035661913454532623
0.14784462749958038 0.0043252832256257534 0.0339202880859375
0.17277984321117401 0.0031031291000545025 0.030485713854432106
0.19594784080982208 0.0019923790823668242 0.027043720707297325
0.21938581764698029 0.0015318627702072263 0.024426912888884544
0.24330127239227295 0.001585537800565362 0.024965159595012665
0.26772469282150269 0.0015843709697946906 0.028003154322504997
0.29629582166671753 0.0022327497135847807 0.033099528402090073
0.0052703856490552425 0.021765869110822678 0.042935449630022049
0.02145843580365181 0.02152576856315136 0.042519543319940567
0.038964845240116119 0.01954936608672142 0.04138101264834404
0.061677999794483185 0.017698952928185463 0.039111882448196411
0.087572924792766571 0.016913320869207382 0.03786550834774971
0.11767300218343735 0.016804609447717667 0.035078100860118866
0.14679211378097534 0.015998555347323418 0.034257072955369949
0.17463240027427673 0.014488160610198975 0.032121110707521439
0.20360666513442993 0.014877244830131531 0.03107268363237381
0.2340848296880722 0.015312269330024719 0.031329810619354248
0.26962363719940186 0.015816841274499893 0.032506473362445831
0.30872344970703125 0.016264986246824265 0.034344378858804703
0.35492515563964844 0.020005917176604271 0.039181128144264221
0.0040474086999893188 0.038197953253984451 0.03901367262005806
0.018919162452220917 0.03677985817193985 0.039051130414009094
0.03804817795753479 0.034712787717580795 0.039455369114875793
0.062134716659784317 0.035409905016422272 0.040355127304792404
0.091226525604724884 0.036860700696706772 0.040208809077739716
0.12178207188844681 0.036741938441991806 0.039184585213661194
0.15738664567470551 0.036464706063270569 0.037390194833278656
0.20018593966960907 0.037764620035886765 0.037405110895633698
0.24541199207305908 0.04041125625371933 0.038921535015106201
0.29272770881652832 0.044220466166734695 0.041582968086004257
0.34968388080596924 0.047822345048189163 0.0434836745262146
0.4170592725276947 0.052276164293289185 0.04518374428153038
0.4815826416015625 0.059953637421131134 0.050018176436424255
0.0032566443551331758 0.057822640985250473 0.036949876695871353
0.017781291157007217 0.058602862060070038 0.03848489373922348
0.038314893841743469 0.060358744114637375 0.040374621748924255
0.068502329289913177 0.066673621535301208 0.044167641550302505
0.10643961280584335 0.072873793542385101 0.047047033905982971
0.14787527918815613 0.075858563184738159 0.047590307891368866
0.19705334305763245 0.077321611344814301 0.046114347875118256
0.25826942920684814 0.081595323979854584 0.046554431319236755
0.32295790314674377 0.087363407015800476 0.048487987369298935
