assets/lut/berat cineblue.cube
# Created by: G'MIC (https://gmic.eu)
TITLE "cineblue"
# LUT size
LUT_3D_SIZE 5
# Data domain
DOMAIN_MIN 0.0 0.0 0.0
DOMAIN_MAX 1.0 1.0 1.0
# LUT data points
0.014325520023703575 0.05208321288228035 0.055883236229419708
0.11716239899396896 0.065077930688858032 0.047240477055311203
0.27747958898544312 0.075893938541412354 0.037587422877550125
0.45949819684028625 0.08262016624212265 0.029435325413942337
0.65395492315292358 0.11211463809013367 0.033440385013818741
0.0025030248798429966 0.11756623536348343 0.061167549341917038
0.12583257257938385 0.11607926338911057 0.034743722528219223
0.33349445462226868 0.11494969576597214 0.024378608912229538
0.54480910301208496 0.13937960565090179 0.015631657093763351
0.75571691989898682 0.19204503297805786 0.017675392329692841
0 0.19059999287128448 0.035951994359493256
0.053999673575162888 0.21380101144313812 0.01651216484606266
0.37160268425941467 0.1944291740655899 0.0006881863228045404
0.60827076435089111 0.20437188446521759 0.015742357820272446
0.81525325775146484 0.28010931611061096 0.019759727641940117
0 0.27801436185836792 0.0004279791028238833
0.022307302802801132 0.30592980980873108 0.0010666791349649429
0.32230034470558167 0.38469788432121277 0.019034875556826591
0.65355068445205688 0.32818681001663208 0.01799379289150238
0.84572708606719971 0.34527662396430969 0.019858909770846367
0.013871660456061363 0.41787922382354736 0.033168941736221313
0.024346863850951195 0.43271857500076294 0.029575437307357788
0.26963099837303162 0.50946921110153198 0.026758380234241486
0.61906516551971436 0.58238881826400757 0.056225422769784927
0.83195549249649048 0.51770609617233276 0.041907038539648056
9.2809343186672777e-05 0.056610330939292908 0.11555030941963196
0.066777966916561127 0.075999483466148376 0.11138199269771576
0.24284598231315613 0.088990427553653717 0.095669537782669067
0.41882809996604919 0.10582572966814041 0.087347202003002167
0.66168618202209473 0.13577090203762054 0.074280202388763428
0.00062339630676433444 0.107718825340271 0.13195954263210297
0.069499298930168152 0.13506820797920227 0.13625216484069824
0.28589034080505371 0.15600457787513733 0.12328390777111053
0.52506780624389648 0.17713151872158051 0.091089434921741486
0.78389239311218262 0.2200625091791153 0.061860837042331696
0 0.2226233184337616 0.15413482487201691
0.026093112304806709 0.24470016360282898 0.13554437458515167
0.324200838804245 0.24222384393215179 0.065300315618515015
0.60360991954803467 0.24535062909126282 0.057557784020900726
0.82834386825561523 0.33291745185852051 0.05011475458741188
0.00095291138859465718 0.32953572273254395 0.10693345963954926
0.010550510138273239 0.34259733557701111 0.11185320466756821
0.26906991004943848 0.39896705746650696 0.052786000072956085
0.64259332418441772 0.3561769425868988 0.034499626606702805
0.84136414527893066 0.36769628524780273 0.025463448837399483
0.012922563590109348 0.4403870701789856 0.079654544591903687
0.0182062778621912 0.45062476396560669 0.086879551410675049
0.23217864334583282 0.51797908544540405 0.039490614086389542
0.61555379629135132 0.58671325445175171 0.05318787693977356
0.8277856707572937 0.52003413438796997 0.04391816258430481
0 0.085382334887981415 0.19744963943958282
0.0075259339064359665 0.10069478303194046 0.19435444474220276
0.13985855877399445 0.11131963133811951 0.17130304872989655
0.35244521498680115 0.1256147176027298 0.15253430604934692
0.59093445539474487 0.16051241755485535 0.15335799753665924
2.5670668037491851e-05 0.12185236811637878 0.22441935539245605
0.0077478145249187946 0.14290735125541687 0.24618725478649139
0.16715076565742493 0.17829564213752747 0.23189294338226318
0.44023966789245605 0.22177854180335999 0.21593473851680756
0.72758322954177856 0.27516186237335205 0.21318057179450989
0 0.18775302171707153 0.24731545150279999
0.0092215146869421005 0.22533918917179108 0.29089727997779846
0.1573842316865921 0.2768937349319458 0.29841357469558716
0.52546769380569458 0.34346380829811096 0.28168639540672302
0.80610960721969604 0.42928767204284668 0.28622746467590332
0.012166251428425312 0.38767430186271667 0.36328878998756409
0.028396725654602051 0.41672417521476746 0.3950590193271637
0.11310939490795135 0.45770964026451111 0.35083907842636108
0.54358899593353271 0.46105167269706726 0.20134694874286652
0.79748249053955078 0.50409281253814697 0.21653497219085693
0.047862406820058823 0.59370774030685425 0.4660455584526062
0.046019535511732101 0.59302467107772827 0.46859440207481384
0.10269714146852493 0.57529163360595703 0.34772491455078125
0.47072747349739075 0.61841744184494019 0.19941689074039459
0.7907109260559082 0.62982177734375 0.1556098461151123
0.0041038361378014088 0.13397182524204254 0.30163687467575073
0.0028602899983525276 0.14067317545413971 0.29598435759544373
0.04461853951215744 0.14736391603946686 0.27671796083450317
0.22312670946121216 0.15754745900630951 0.24028958380222321
0.53266704082489014 0.18491984903812408 0.2061903327703476
0.011693378910422325 0.1698148101568222 0.34019556641578674
0.0074786916375160217 0.18938674032688141 0.36252543330192566
0.050176717340946198 0.20967388153076172 0.35932773351669312
0.29875260591506958 0.2484738826751709 0.31844961643218994
0.66113704442977905 0.31495827436447144 0.31074979901313782
0.008383776992559433 0.20635955035686493 0.3621324896812439
0.025208117440342903 0.23423705995082855 0.4011739194393158
0.06556391716003418 0.28338608145713806 0.45322307944297791
0.35868394374847412 0.37379610538482666 0.43658819794654846
0.73973304033279419 0.47824051976203918 0.45060545206069946
0.012102463282644749 0.29047349095344543 0.40803700685501099
0.034303419291973114 0.30903679132461548 0.43144220113754272
0.060312338173389435 0.38342148065567017 0.51187479496002197
0.32493686676025391 0.49411046504974365 0.52948874235153198
0.73056071996688843 0.59094369411468506 0.52156394720077515
0.060547322034835815 0.53578084707260132 0.60399001836776733
0.058852221816778183 0.53001827001571655 0.59711575508117676
0.091280467808246613 0.58572500944137573 0.63163608312606812
0.28383225202560425 0.65676015615463257 0.59043455123901367
0.73482179641723633 0.69514840841293335 0.47632905840873718
0.003771419171243906 0.18870086967945099 0.42527309060096741
0 0.19215686619281769 0.42123371362686157
0.012554333545267582 0.18835431337356567 0.3951059877872467
0.10017255693674088 0.20670406520366669 0.372793048620224
0.4389406144618988 0.23605979979038239 0.30204427242279053
0.019746638834476471 0.23390227556228638 0.48296180367469788
0.016635850071907043 0.25262594223022461 0.50679540634155273
0.024093464016914368 0.26238039135932922 0.50521153211593628
0.14131924510002136 0.29701176285743713 0.48868551850318909
0.58831721544265747 0.35981088876724243 0.40216508507728577
0.026322832331061363 0.27604997158050537 0.52599990367889404
0.042974315583705902 0.31038770079612732 0.57346409559249878
0.062660112977027893 0.34765690565109253 0.61415284872055054
0.19245238602161407 0.40083187818527222 0.61300879716873169
0.66738259792327881 0.50931942462921143 0.55470240116119385
0.028870690613985062 0.32525449991226196 0.54846435785293579
0.042928103357553482 0.34600260853767395 0.57585591077804565
0.085922062397003174 0.40480449795722961 0.64277142286300659
0.21046367287635803 0.47618180513381958 0.67927736043930054
0.65487205982208252 0.61088156700134277 0.6484912633895874
0.054112810641527176 0.44690138101577759 0.62185376882553101
0.052177924662828445 0.44413477182388306 0.62020444869995117
0.08382861316204071 0.49337553977966309 0.66634875535964966
0.18366555869579315 0.57479828596115112 0.71660679578781128
0.65399551391601562 0.72182703018188477 0.70611977577209473
