assets/lut/berat goldentime.cube
# Created by: G'MIC (https://gmic.eu)
TITLE "goldentime"
# LUT size
LUT_3D_SIZE 7
# Data domain
DOMAIN_MIN 0.0 0.0 0.0
DOMAIN_MAX 1.0 1.0 1.0
# LUT data points
0.011116296984255314 0.011648365296423435 0.011566505767405033
0.06276441365480423 0.011395786888897419 0.012292659841477871
0.13581416010856628 0.0091747362166643143 0.013659623451530933
0.22177866101264954 0.005280722863972187 0.012390869669616222
0.31332719326019287 0.0040643578395247459 0.0091555425897240639
0.40270674228668213 0.012169034220278263 0.0097499024122953415
0.48580819368362427 0.011681037023663521 0.0046704611741006374
0.01095974538475275 0.062846161425113678 0.011184168979525566
0.063097968697547913 0.064008884131908417 0.011783495545387268
0.13875924050807953 0.063056543469429016 0.013467287644743919
0.22923898696899414 0.061589468270540237 0.015545056201517582
0.3284306526184082 0.061296172440052032 0.015211068093776703
0.42446056008338928 0.066061563789844513 0.014779319055378437
0.51959419250488281 0.063354864716529846 0.010090412572026253
0.021038400009274483 0.13459472358226776 0.010937514714896679
0.064296096563339233 0.14122413098812103 0.015509631484746933
0.13978932797908783 0.14126843214035034 0.014218932949006557
0.24083375930786133 0.14375762641429901 0.014042932540178299
0.36065071821212769 0.14462025463581085 0.013669930398464203
0.50568169355392456 0.15025153756141663 0.012834122404456139
0.65413016080856323 0.15693239867687225 0.011553864926099777
0.012679380364716053 0.22958412766456604 0.012760566547513008
0.066816560924053192 0.25401750206947327 0.032209929078817368
0.155716672539711 0.26670172810554504 0.017473513260483742
0.28981003165245056 0.28358203172683716 0.018143851310014725
0.4800267219543457 0.29479789733886719 0.015122447162866592
0.64544987678527832 0.31171527504920959 0.015592881478369236
0.78347140550613403 0.32908853888511658 0.015566627494990826
0.022298026829957962 0.43555009365081787 0.013668958097696304
0.098260007798671722 0.46069496870040894 0.029326226562261581
0.20041872560977936 0.48235169053077698 0.033362444490194321
0.36227986216545105 0.49892202019691467 0.039553370326757431
0.54499512910842896 0.51848846673965454 0.037125159054994583
0.71046864986419678 0.53729903697967529 0.025398658588528633
0.8341367244720459 0.54846286773681641 0.0349898561835289
0.044202018529176712 0.6417725682258606 0.018100274726748466
0.1255161464214325 0.6697733998298645 0.0324845090508461
0.251678466796875 0.6882978081703186 0.045508965849876404
0.40927717089653015 0.7028040885925293 0.053319219499826431
0.58368462324142456 0.70530861616134644 0.05359179899096489
0.73620182275772095 0.69770979881286621 0.050340734422206879
0.85804557800292969 0.70807218551635742 0.05263151228427887
0.065367154777050018 0.79345035552978516 0.030270416289567947
0.1500764936208725 0.80728650093078613 0.046290349215269089
0.28238481283187866 0.81681537628173828 0.057440005242824554
0.4365449845790863 0.83127343654632568 0.06056811660528183
0.61722898483276367 0.83660244941711426 0.062921576201915741
0.75931465625762939 0.83177030086517334 0.063228175044059753
0.87783908843994141 0.84080362319946289 0.061574134975671768
0.011404508724808693 0.012142764404416084 0.064827971160411835
0.06291671097278595 0.011597039178013802 0.064786382019519806
0.13473929464817047 0.012127176858484745 0.06634782999753952
0.22146701812744141 0.0090180337429046631 0.062079351395368576
0.31301701068878174 0.0033333722967654467 0.047372825443744659
0.39809975028038025 0.010789429768919945 0.043998014181852341
0.48243740200996399 0.014072657562792301 0.037618119269609451
0.0036386975552886724 0.064819902181625366 0.062030449509620667
0.060768350958824158 0.063534334301948547 0.066705994307994843
0.13846603035926819 0.063065230846405029 0.068928554654121399
0.22680267691612244 0.064620912075042725 0.066136285662651062
0.32455042004585266 0.061355680227279663 0.058516841381788254
0.42556080222129822 0.063237316906452179 0.059126954525709152
0.52098411321640015 0.064462535083293915 0.055654890835285187
0.014010605402290821 0.13577499985694885 0.05831247940659523
0.062306497246026993 0.14202812314033508 0.064014807343482971
0.14535146951675415 0.14449942111968994 0.071379385888576508
0.24656353890895844 0.14679925143718719 0.065843977034091949
0.37993213534355164 0.15136794745922089 0.065277472138404846
0.53050673007965088 0.15814658999443054 0.06853746622800827
0.67341083288192749 0.16258086264133453 0.06350688636302948
0.014211079105734825 0.23485982418060303 0.06102607399225235
0.066595099866390228 0.25437837839126587 0.067594014108181
0.16202065348625183 0.27948644757270813 0.073906406760215759
0.30266320705413818 0.29543238878250122 0.077138520777225494
0.49674639105796814 0.30806201696395874 0.071184001863002777
0.66167145967483521 0.32880204916000366 0.073939122259616852
0.79055893421173096 0.34851738810539246 0.081220798194408417
0.017323842272162437 0.44209983944892883 0.05651092529296875
0.095494411885738373 0.46628782153129578 0.077161319553852081
0.20182040333747864 0.49976268410682678 0.080700740218162537
0.36940416693687439 0.51501071453094482 0.087189964950084686
0.55745172500610352 0.52989274263381958 0.092096768319606781
0.72225403785705566 0.54872965812683105 0.0947708860039711
0.84428292512893677 0.56454122066497803 0.10565710812807083
0.050939463078975677 0.65372675657272339 0.073540523648262024
0.13114593923091888 0.67515462636947632 0.092705070972442627
0.25778850913047791 0.69615298509597778 0.10854891687631607
0.42543628811836243 0.71112239360809326 0.11233782023191452
0.60605204105377197 0.71290868520736694 0.11467723548412323
0.75426226854324341 0.71617281436920166 0.11610016226768494
0.85895347595214844 0.71500539779663086 0.1262330561876297
0.10574014484882355 0.79892891645431519 0.10672406852245331
0.1631268709897995 0.80888146162033081 0.11429204046726227
0.28698217868804932 0.81759172677993774 0.12627887725830078
0.45087012648582458 0.83080661296844482 0.12975803017616272
0.62961739301681519 0.83756983280181885 0.1309809684753418
0.77242004871368408 0.84398645162582397 0.12865109741687775
0.87427198886871338 0.83836525678634644 0.13853473961353302
0.013297840021550655 0.012771202251315117 0.13908357918262482
0.060983095318078995 0.010832962580025196 0.13898789882659912
0.13459616899490356 0.0061264787800610065 0.13481457531452179
0.22056478261947632 0.011359524913132191 0.12743766605854034
0.3087887167930603 0.009566587395966053 0.11883993446826935
0.39547598361968994 0.014011113904416561 0.11621524393558502
0.48113706707954407 0.020412744954228401 0.11599140614271164
0.014239936135709286 0.060457579791545868 0.14074911177158356
0.056973535567522049 0.056332994252443314 0.19986908137798309
0.14054980874061584 0.061514865607023239 0.14381691813468933
0.2298450767993927 0.064470551908016205 0.13772247731685638
0.3255801796913147 0.064964845776557922 0.13035023212432861
0.4246273934841156 0.068335153162479401 0.12897941470146179
0.51679044961929321 0.064085744321346283 0.13323625922203064
0.020936569198966026 0.13753071427345276 0.13621820509433746
0.030319498851895332 0.15011323988437653 0.15154597163200378
0.14087150990962982 0.14356845617294312 0.14903752505779266
0.24848708510398865 0.14920607209205627 0.14595845341682434
0.38327863812446594 0.15276636183261871 0.14523781836032867
0.53677493333816528 0.16114120185375214 0.15016882121562958
0.69386142492294312 0.16889761388301849 0.1531548947095871
0.014699090272188187 0.24020601809024811 0.13754719495773315
0.065287798643112183 0.26233160495758057 0.14687906205654144
0.16222982108592987 0.28647598624229431 0.15637630224227905
0.31259554624557495 0.30257523059844971 0.16134266555309296
0.51471948623657227 0.32387325167655945 0.16104871034622192
0.66634923219680786 0.33554992079734802 0.17692863941192627
0.80375939607620239 0.3658631443977356 0.1871170699596405
0.030659081414341927 0.44622120261192322 0.1540534496307373
0.078560099005699158 0.48518276214599609 0.16034090518951416
0.19784989953041077 0.50764739513397217 0.17731940746307373
0.36433279514312744 0.51562017202377319 0.19055670499801636
0.56590133905410767 0.53248172998428345 0.19427490234375
0.72217923402786255 0.55375039577484131 0.22232034802436829
0.83942979574203491 0.56294852495193481 0.22545534372329712
0.051950987428426743 0.66045528650283813 0.17969547212123871
0.13175544142723083 0.68596732616424561 0.20245875418186188
0.25804486870765686 0.70093840360641479 0.21904560923576355
0.41981455683708191 0.70944416522979736 0.22981822490692139
0.61133408546447754 0.71724027395248413 0.2244035005569458
0.74959105253219604 0.71641427278518677 0.24216984212398529
0.87437474727630615 0.72978460788726807 0.2382819801568985
0.080535039305686951 0.80316495895385742 0.20727816224098206
0.16184021532535553 0.81204450130462646 0.22748607397079468
0.28718334436416626 0.81959134340286255 0.24281324446201324
0.44607967138290405 0.82918870449066162 0.24857795238494873
0.63140773773193359 0.84213864803314209 0.24000830948352814
0.77405291795730591 0.84678679704666138 0.24292066693305969
0.88888728618621826 0.85295873880386353 0.24246659874916077
0.017784912139177322 0.015656100586056709 0.22842957079410553
0.063705325126647949 0.013086625374853611 0.22475585341453552
0.13311876356601715 0.010184449143707752 0.22405627369880676
0.21667049825191498 0.012761793099343777 0.21651658415794373
0.3079356849193573 0.01166381873190403 0.20631209015846252
0.40031149983406067 0.0054056355729699135 0.20421908795833588
0.48835122585296631 0.011034034192562103 0.20078399777412415
0.020054565742611885 0.065386734902858734 0.22445882856845856
0.065517902374267578 0.064814969897270203 0.22731442749500275
0.14064626395702362 0.064016319811344147 0.22931328415870667
0.22771002352237701 0.070294536650180817 0.22257934510707855
0.32810023427009583 0.067377828061580658 0.22312389314174652
0.42835524678230286 0.06147930771112442 0.22017315030097961
0.53019422292709351 0.060153782367706299 0.229026198387146
0.0118611054494977 0.13675461709499359 0.22706037759780884
0.063542157411575317 0.14205344021320343 0.23060199618339539
0.13765250146389008 0.13790461421012878 0.29444164037704468
0.24504607915878296 0.14734683930873871 0.24685807526111603
0.393332839012146 0.15713222324848175 0.25364822149276733
0.55214005708694458 0.16580381989479065 0.26665261387825012
0.71336042881011963 0.17099675536155701 0.29139986634254456
0.011645118705928326 0.25089368224143982 0.24236726760864258
0.069587171077728271 0.27245625853538513 0.26076033711433411
0.10789241641759872 0.31547653675079346 0.30143415927886963
0.32105183601379395 0.31710940599441528 0.30705410242080688
0.52087599039077759 0.33248984813690186 0.31115591526031494
0.67773020267486572 0.3431321382522583 0.32037514448165894
0.80675733089447021 0.37112796306610107 0.35285541415214539
0.036922980099916458 0.45772567391395569 0.28838500380516052
0.094763137400150299 0.48885098099708557 0.30525705218315125
0.20907744765281677 0.51739436388015747 0.32850828766822815
0.3742842972278595 0.53732430934906006 0.35071349143981934
0.57039773464202881 0.54380065202713013 0.36110356450080872
0.72813171148300171 0.5577094554901123 0.37338483333587646
0.85285103321075439 0.57591235637664795 0.388843834400177
0.065206177532672882 0.66399174928665161 0.33026450872421265
0.14079123735427856 0.6911308765411377 0.35493451356887817
0.26702898740768433 0.70516622066497803 0.37943786382675171
0.42367410659790039 0.71824389696121216 0.39492279291152954
0.6076812744140625 0.72101777791976929 0.39358815550804138
0.76077675819396973 0.72346574068069458 0.39735528826713562
0.87526339292526245 0.72739487886428833 0.40650364756584167
0.089254014194011688 0.80640709400177002 0.36051681637763977
0.16614022850990295 0.81837403774261475 0.38415959477424622
0.28976911306381226 0.82673561573028564 0.4048464298248291
0.44937270879745483 0.8374626636505127 0.41311240196228027
0.62915635108947754 0.84595948457717896 0.40876352787017822
0.77801716327667236 0.85359472036361694 0.40664446353912354
0.8945731520652771 0.858223557472229 0.41373014450073242
0.013416334986686707 0.011911624111235142 0.32194846868515015
0.072006046772003174 0.016360294073820114 0.31410068273544312
0.13560943305492401 0.011873327195644379 0.3139040470123291
0.2173980325460434 0.0092565501108765602 0.31193548440933228
0.30939123034477234 0.013611932285130024 0.30689296126365662
0.40749618411064148 0.016816321760416031 0.31030315160751343
0.49353042244911194 0.012062028050422668 0.30420240759849548
0.015554001554846764 0.061344821006059647 0.31949156522750854
0.071794264018535614 0.067256465554237366 0.31498101353645325
0.14207753539085388 0.069764725863933563 0.32114282250404358
0.22955228388309479 0.069282248616218567 0.32723066210746765
0.33214369416236877 0.070599347352981567 0.3292299211025238
0.44008004665374756 0.06432139128446579 0.33277049660682678
0.55119514465332031 0.059317734092473984 0.34785085916519165
0.013774827122688293 0.13742952048778534 0.33020341396331787
0.068404808640480042 0.14448413252830505 0.33172327280044556
0.14887043833732605 0.14916737377643585 0.34505823254585266
0.2558746337890625 0.15435066819190979 0.36352935433387756
0.41378125548362732 0.16098175942897797 0.39363306760787964
0.57529711723327637 0.1698460727930069 0.41985851526260376
0.72963881492614746 0.17491716146469116 0.44733664393424988
0.00943730678409338 0.26685121655464172 0.37603715062141418
0.074903972446918488 0.28134363889694214 0.40065529942512512
0.17442105710506439 0.30192291736602783 0.43727457523345947
0.32734823226928711 0.31201496720314026 0.5533784031867981
0.53550225496292114 0.33822721242904663 0.48347240686416626
0.68153035640716553 0.36124968528747559 0.49572551250457764
0.81552404165267944 0.37818485498428345 0.51994282007217407
0.032456774264574051 0.46699440479278564 0.4480898380279541
0.10616634786128998 0.49213472008705139 0.46831074357032776
0.22213810682296753 0.51885569095611572 0.49552348256111145
0.34883129596710205 0.55645084381103516 0.53230106830596924
0.58710396289825439 0.55480432510375977 0.53112083673477173
0.73923778533935547 0.56500387191772461 0.53978818655014038
0.85885131359100342 0.57972431182861328 0.55168217420578003
0.064863942563533783 0.6709209680557251 0.50383210182189941
0.14399315416812897 0.69414383172988892 0.52862966060638428
0.27007380127906799 0.70928066968917847 0.54278147220611572
0.43239960074424744 0.71900445222854614 0.55243086814880371
0.61679702997207642 0.72364938259124756 0.55438286066055298
0.76285737752914429 0.72493541240692139 0.55712777376174927
0.88654232025146484 0.73348754644393921 0.56906640529632568
0.093507997691631317 0.81217342615127563 0.53723853826522827
0.16803692281246185 0.82770806550979614 0.56291240453720093
0.2894565761089325 0.83060383796691895 0.5668189525604248
0.46224689483642578 0.84474742412567139 0.57114529609680176
0.63129907846450806 0.85022085905075073 0.5710831880569458
0.78096514940261841 0.86106085777282715 0.57796394824981689
0.90071976184844971 0.86449337005615234 0.58253097534179688
0.014367511495947838 0.012686681002378464 0.40980428457260132
0.06347394734621048 0.016203412786126137 0.40626552700996399
0.13423395156860352 0.014538364484906197 0.40476971864700317
0.21760036051273346 0.0054653543047606945 0.40464779734611511
0.31276580691337585 0.015657985582947731 0.40917864441871643
0.413155198097229 0.022951463237404823 0.41594994068145752
0.50316917896270752 0.014029903337359428 0.41197875142097473
0.014939072541892529 0.059952050447463989 0.41085535287857056
0.068533830344676971 0.065883174538612366 0.41096064448356628
0.14036190509796143 0.069741159677505493 0.41620558500289917
0.23301948606967926 0.066115193068981171 0.42320701479911804
0.33796590566635132 0.070212572813034058 0.43221941590309143
0.4490225613117218 0.068741679191589355 0.44284537434577942
0.56180614233016968 0.059610418975353241 0.45621499419212341
0.013772059231996536 0.13581342995166779 0.42515215277671814
0.069232389330863953 0.14936387538909912 0.43525400757789612
0.15229316055774689 0.15381231904029846 0.44916072487831116
0.27231475710868835 0.15845322608947754 0.47764661908149719
0.43133759498596191 0.16585057973861694 0.51986807584762573
0.59574991464614868 0.17454724013805389 0.55772596597671509
0.74934893846511841 0.17639483511447906 0.5957837700843811
0.013618035241961479 0.26908174157142639 0.49822220206260681
0.07576916366815567 0.28994894027709961 0.52720934152603149
0.19484980404376984 0.31284284591674805 0.56609928607940674
0.34891495108604431 0.33121255040168762 0.60455203056335449
0.54657793045043945 0.34939116239547729 0.62696069478988647
0.68504238128662109 0.36528122425079346 0.64085239171981812
0.81431537866592407 0.37388500571250916 0.65589636564254761
0.026303818449378014 0.47380483150482178 0.58953678607940674
0.097543902695178986 0.50064665079116821 0.61308187246322632
0.23191744089126587 0.51724863052368164 0.6310194730758667
0.40998977422714233 0.54822015762329102 0.65879136323928833
0.59269917011260986 0.55696666240692139 0.67537468671798706
0.73164618015289307 0.56315100193023682 0.67550736665725708
0.86196982860565186 0.58068364858627319 0.69038981199264526
0.057981960475444794 0.67672920227050781 0.64787459373474121
0.14912958443164825 0.69316858053207397 0.6607048511505127
0.2708316445350647 0.71776747703552246 0.68782222270965576
0.44893282651901245 0.71659845113754272 0.6904793381690979
0.62066465616226196 0.72270733118057251 0.69621533155441284
0.76358646154403687 0.72895234823226929 0.6992563009262085
0.88523125648498535 0.73584967851638794 0.70718288421630859
0.087079249322414398 0.81410914659500122 0.67894381284713745
0.17304505407810211 0.8205077052116394 0.68293637037277222
0.28844466805458069 0.83795994520187378 0.7095147967338562
0.46981367468833923 0.8508458137512207 0.71345061063766479
0.63706248998641968 0.85549962520599365 0.71387839317321777
0.78176623582839966 0.86068367958068848 0.71623837947845459
0.90481787919998169 0.86913824081420898 0.72271329164505005
0.011558922007679939 0.01130357664078474 0.49942430853843689
0.056235011667013168 0.011907809413969517 0.49659568071365356
0.12348740547895432 0.012342655099928379 0.49436572194099426
0.20922476053237915 0.012484127655625343 0.49147111177444458
0.30625268816947937 0.014170314185321331 0.48983854055404663
0.41097992658615112 0.014319281093776226 0.4985555112361908
0.50883138179779053 0.012288575991988182 0.50544095039367676
0.012350807897746563 0.05946655198931694 0.49997910857200623
0.06334388256072998 0.060445882380008698 0.50471645593643188
0.1408107727766037 0.065734118223190308 0.51111775636672974
0.23820215463638306 0.07250252366065979 0.51620525121688843
0.34116414189338684 0.071347303688526154 0.51878052949905396
0.44941490888595581 0.063459716737270355 0.52645576000213623
0.57979685068130493 0.059227302670478821 0.56685960292816162
0.013891571201384068 0.13827431201934814 0.51986461877822876
0.066142246127128601 0.14420989155769348 0.52151507139205933
0.15370887517929077 0.15345567464828491 0.54837620258331299
0.28909260034561157 0.1639159619808197 0.59322088956832886
0.4508323073387146 0.16980497539043427 0.62984186410903931
0.61751258373260498 0.17316882312297821 0.67156684398651123
0.75840038061141968 0.18243688344955444 0.7021481990814209
0.01110890693962574 0.27258867025375366 0.60898661613464355
0.068228535354137421 0.29916352033615112 0.6561882495880127
0.18641643226146698 0.31788593530654907 0.69435155391693115
0.36269024014472961 0.34095937013626099 0.71736949682235718
0.54845857620239258 0.35791519284248352 0.7379072904586792
0.69421374797821045 0.363616943359375 0.7438507080078125
0.82721328735351562 0.39430737495422363 0.76537632942199707
0.018047332763671875 0.48792174458503723 0.71128809452056885
0.097594499588012695 0.51893633604049683 0.74452662467956543
0.23476694524288177 0.53502029180526733 0.75264108180999756
0.40768679976463318 0.55406713485717773 0.77307701110839844
0.59658133983612061 0.56004977226257324 0.78290551900863647
0.74383598566055298 0.57352590560913086 0.79382288455963135
0.86729484796524048 0.58548992872238159 0.80357265472412109
0.06491522490978241 0.68796366453170776 0.76942712068557739
0.14829446375370026 0.70389819145202637 0.77812272310256958
0.27323749661445618 0.72264784574508667 0.79504388570785522
0.45461928844451904 0.72383493185043335 0.80386590957641602
0.62718933820724487 0.72828418016433716 0.81620174646377563
0.76847684383392334 0.73065251111984253 0.81668651103973389
0.88769865036010742 0.73951691389083862 0.82411414384841919
0.087692186236381531 0.82143425941467285 0.79094338417053223
0.17239141464233398 0.8271186351776123 0.79453688859939575
0.29220086336135864 0.83933138847351074 0.80673617124557495
0.47187098860740662 0.84801250696182251 0.81910246610641479
0.64267098903656006 0.85874646902084351 0.82943731546401978
0.78692454099655151 0.86652344465255737 0.83837872743606567
0.90817314386367798 0.87332147359848022 0.84276884794235229
