assets/lut/berat sevsuz.cube
# Created by: G'MIC (https://gmic.eu)
TITLE "sevsuz"
# LUT size
LUT_3D_SIZE 7
# Data domain
DOMAIN_MIN 0.0 0.0 0.0
DOMAIN_MAX 1.0 1.0 1.0
# LUT data points
0.013360700570046902 0.012634336948394775 0.012694250792264938
0.079459428787231445 0.014681573025882244 0.012448973022401333
0.18017943203449249 0.012622159905731678 0.010864437557756901
0.33103659749031067 0.010655377060174942 0.012401655316352844
0.50659680366516113 0.0098504461348056793 0.018192276358604431
0.68553262948989868 0.0077553843148052692 0.020404158160090446
0.85597950220108032 0.011344805359840393 0.017329316586256027
0.012311898171901703 0.082770660519599915 0.012712142430245876
0.074919171631336212 0.08449237048625946 0.011173263192176819
0.17306055128574371 0.081582076847553253 0.013609238900244236
0.32888033986091614 0.084180481731891632 0.014533189125359058
0.51084864139556885 0.084655091166496277 0.019504023715853691
0.69475531578063965 0.081816338002681732 0.022077612578868866
0.86767256259918213 0.0863775834441185 0.017970738932490349
0.012847092933952808 0.19993922114372253 0.0088837863877415657
0.082174576818943024 0.20009693503379822 0.0080648530274629593
0.18387050926685333 0.20247256755828857 0.0095252841711044312
0.33690974116325378 0.204610675573349 0.010169773362576962
0.52073270082473755 0.20478940010070801 0.011991179548203945
0.70572596788406372 0.2037804126739502 0.01487579382956028
0.87771111726760864 0.20848727226257324 0.012187119573354721
0.015337341465055943 0.35396546125411987 0.0096823303028941154
0.090286150574684143 0.36109942197799683 0.0063183354213833809
0.19646793603897095 0.3680250346660614 0.0078861908987164497
0.34956198930740356 0.37144500017166138 0.01115118246525526
0.53555977344512939 0.37201964855194092 0.011692600324749947
0.71894735097885132 0.37689164280891418 0.011278280057013035
0.88166028261184692 0.39071124792098999 0.011587300337851048
0.01232039462774992 0.5326228141784668 0.0081119909882545471
0.090197831392288208 0.54532110691070557 0.0041593811474740505
0.19842110574245453 0.55647522211074829 0.0066584120504558086
0.35311806201934814 0.56147867441177368 0.01401017140597105
0.54442757368087769 0.56020063161849976 0.016556743532419205
0.73146849870681763 0.56592923402786255 0.014340643770992756
0.89288145303726196 0.5808408260345459 0.010709441266953945
0.0075029558502137661 0.72423166036605835 0.0052126715891063213
0.091412998735904694 0.73632586002349854 0.0042875250801444054
0.20452971756458282 0.74715697765350342 0.0083902990445494652
0.35661649703979492 0.75224500894546509 0.016257297247648239
0.54529398679733276 0.74883896112442017 0.018885653465986252
0.73489731550216675 0.74824440479278564 0.014936708845198154
0.90606433153152466 0.75514072179794312 0.0097345691174268723
0.012175196781754494 0.91177076101303101 0.01437702588737011
0.1063878983259201 0.9209514856338501 0.013347087427973747
0.22649805247783661 0.92775118350982666 0.01737009733915329
0.3785911500453949 0.92860156297683716 0.022128744050860405
0.55791294574737549 0.92323786020278931 0.022313496097922325
0.7430119514465332 0.91760241985321045 0.018419543281197548
0.91769987344741821 0.91731423139572144 0.016152177006006241
0.01322612352669239 0.012069971300661564 0.097011834383010864
0.080326288938522339 0.014386555179953575 0.099236369132995605
0.18236200511455536 0.015309142880141735 0.085105329751968384
0.33944898843765259 0.013389198109507561 0.077306456863880157
0.51993262767791748 0.013697470538318157 0.0802115797996521
0.69863235950469971 0.0089138699695467949 0.08070036768913269
0.86216968297958374 0.010610423050820827 0.08638802170753479
0.013916314579546452 0.08749079704284668 0.095051907002925873
0.079120412468910217 0.084156379103660583 0.099220991134643555
0.17984242737293243 0.081951916217803955 0.086466275155544281
0.34018552303314209 0.081431113183498383 0.078805707395076752
0.52442890405654907 0.078283034265041351 0.080350719392299652
0.70733129978179932 0.074747733771800995 0.08221784234046936
0.8732793927192688 0.083084896206855774 0.082149460911750793
0.01389764528721571 0.20069247484207153 0.098614543676376343
0.07937324047088623 0.2034447193145752 0.10009834170341492
0.18264393508434296 0.20367757976055145 0.098140925168991089
0.33809307217597961 0.20268315076828003 0.080385871231555939
0.52756249904632568 0.19922712445259094 0.072267822921276093
0.71511530876159668 0.19931407272815704 0.07250087708234787
0.88380855321884155 0.20951561629772186 0.070757649838924408
0.011358612217009068 0.3576313853263855 0.095229804515838623
0.080355502665042877 0.3673558235168457 0.09377770870923996
0.18549077212810516 0.37331017851829529 0.098117008805274963
0.34681740403175354 0.37275660037994385 0.098503127694129944
0.5385252833366394 0.37486162781715393 0.085748322308063507
0.7248656153678894 0.38025447726249695 0.073072858154773712
0.89041119813919067 0.39206182956695557 0.06810498982667923
0.0060723396018147469 0.54208081960678101 0.087079517543315887
0.074215911328792572 0.55525273084640503 0.086513638496398926
0.17877484858036041 0.56601577997207642 0.094894751906394958
0.34728100895881653 0.56694233417510986 0.10781232267618179
0.54841095209121704 0.56456983089447021 0.10877266526222229
0.73705589771270752 0.57122409343719482 0.095787689089775085
0.90238791704177856 0.58463895320892334 0.082143746316432953
0.0017034044722095132 0.73373281955718994 0.089763030409812927
0.075558818876743317 0.74697232246398926 0.091892674565315247
0.18882746994495392 0.75662684440612793 0.10305283218622208
0.35318446159362793 0.7573431134223938 0.11316137760877609
0.55111598968505859 0.75185060501098633 0.11618158966302872
0.74409812688827515 0.75203067064285278 0.10847410559654236
0.91544479131698608 0.76042568683624268 0.097387902438640594
0.0036008947063237429 0.9195370078086853 0.11574672907590866
0.091819092631340027 0.92958354949951172 0.11855673789978027
0.21448522806167603 0.93518310785293579 0.12592169642448425
0.37316960096359253 0.93382734060287476 0.12853068113327026
0.56086838245391846 0.92579150199890137 0.12540780007839203
0.75170809030532837 0.91941267251968384 0.1178194060921669
0.92617267370223999 0.92029047012329102 0.11460074782371521
0.011928992345929146 0.01764424704015255 0.2332407534122467
0.068019986152648926 0.017189789563417435 0.23791779577732086
0.16722284257411957 0.011232279241085052 0.22386433184146881
0.34452375769615173 0.0094716837629675865 0.18497553467750549
0.53667408227920532 0.01170165091753006 0.15535551309585571
0.71517908573150635 0.010784314014017582 0.13991671800613403
0.87107992172241211 0.012578149326145649 0.14072754979133606
0.013537717051804066 0.099830061197280884 0.21991714835166931
0.074471913278102875 0.10153627395629883 0.22696442902088165
0.17228077352046967 0.082031115889549255 0.22753454744815826
0.35297119617462158 0.075179815292358398 0.19399036467075348
0.54078227281570435 0.077579692006111145 0.15778172016143799
0.72076618671417236 0.078234806656837463 0.14199618995189667
0.88135021924972534 0.085250765085220337 0.14140264689922333
0.013833079487085342 0.20706386864185333 0.21143268048763275
0.077676288783550262 0.21137222647666931 0.21927317976951599
0.15599352121353149 0.21361322700977325 0.22996333241462708
0.34751766920089722 0.20143824815750122 0.20091849565505981
0.53921270370483398 0.20082797110080719 0.16754573583602905
0.72630620002746582 0.20452491939067841 0.15226909518241882
0.89424687623977661 0.21528057754039764 0.14732235670089722
0.01285820733755827 0.35277530550956726 0.22880709171295166
0.080131039023399353 0.36232677102088928 0.23254188895225525
0.16887526214122772 0.37800544500350952 0.23112104833126068
0.35009938478469849 0.37459641695022583 0.22698929905891418
0.54466366767883301 0.3804619312286377 0.19515998661518097
0.73216021060943604 0.3875727653503418 0.16779273748397827
0.89919054508209229 0.39827322959899902 0.15535594522953033
0.015279224142432213 0.54283928871154785 0.21764726936817169
0.07948429137468338 0.55498355627059937 0.22993095219135284
0.16142655909061432 0.57377719879150391 0.22796767950057983
0.34903588891029358 0.57146990299224854 0.23392115533351898
0.55810117721557617 0.56779724359512329 0.23125588893890381
0.74341970682144165 0.57509100437164307 0.2135227769613266
0.90876418352127075 0.58702927827835083 0.19053404033184052
0.0071777193807065487 0.735401451587677 0.22415883839130402
0.084970496594905853 0.74862378835678101 0.23613682389259338
0.18805357813835144 0.76086270809173584 0.24341964721679688
0.35373154282569885 0.7612682580947876 0.24051934480667114
0.55757665634155273 0.75392830371856689 0.24136510491371155
0.75179576873779297 0.75289475917816162 0.23440387845039368
0.92062461376190186 0.76063817739486694 0.21995477378368378
0.0057408949360251427 0.92152577638626099 0.25483524799346924
0.10069888085126877 0.93042010068893433 0.26769134402275085
0.21976745128631592 0.93722128868103027 0.27330449223518372
0.37397938966751099 0.93677842617034912 0.26518747210502625
0.56491374969482422 0.92702996730804443 0.25464800000190735
0.76070678234100342 0.91836297512054443 0.24268831312656403
0.93190771341323853 0.92016017436981201 0.24023619294166565
0.0076055489480495453 0.033998571336269379 0.40066584944725037
0.05479075014591217 0.029832113534212112 0.41035613417625427
0.14577110111713409 0.016040816903114319 0.40227016806602478
0.33347383141517639 0.0094631118699908257 0.37508261203765869
0.53668570518493652 0.010596002452075481 0.35041323304176331
0.71707844734191895 0.010364742018282413 0.30106246471405029
0.87881088256835938 0.010597527958452702 0.26447376608848572
0.01163590420037508 0.1236773356795311 0.3936769962310791
0.065938510000705719 0.12493537366390228 0.40788733959197998
0.14435720443725586 0.10124356299638748 0.41310101747512817
0.33187606930732727 0.076420381665229797 0.38470354676246643
0.5411761999130249 0.074044845998287201 0.34873297810554504
0.72469472885131836 0.077768199145793915 0.30687865614891052
0.89388364553451538 0.081387057900428772 0.27939626574516296
0.012883070856332779 0.24422398209571838 0.35006430745124817
0.080966711044311523 0.24472741782665253 0.35910022258758545
0.14302687346935272 0.23597018420696259 0.40673387050628662
0.33392158150672913 0.19614966213703156 0.39402949810028076
0.5563352108001709 0.19060562551021576 0.36136546730995178
0.74074774980545044 0.20074951648712158 0.32775625586509705
0.91503912210464478 0.2099924236536026 0.31186351180076599
0.023187374696135521 0.36188352108001709 0.34777632355690002
0.09556281566619873 0.37212210893630981 0.35759922862052917
0.17399071156978607 0.3840700089931488 0.38139134645462036
0.32778200507164001 0.38410887122154236 0.39998149871826172
0.55345410108566284 0.37724554538726807 0.36718323826789856
0.74517494440078735 0.38563364744186401 0.34164312481880188
0.92041587829589844 0.39460352063179016 0.32814487814903259
0.050831049680709839 0.53098917007446289 0.4011329710483551
0.12366856634616852 0.54640930891036987 0.41583317518234253
0.20152011513710022 0.56636565923690796 0.41486248373985291
0.33994597196578979 0.57539856433868408 0.40442162752151489
0.55554795265197754 0.56853431463241577 0.39568671584129333
0.74287807941436768 0.57880699634552002 0.37360286712646484
0.91336119174957275 0.58930712938308716 0.3539586067199707
0.05482076108455658 0.7210572361946106 0.4225291907787323
0.13656562566757202 0.73602896928787231 0.43752801418304443
0.22367450594902039 0.75420123338699341 0.43489784002304077
0.3492458164691925 0.76620852947235107 0.40863168239593506
0.5493236780166626 0.75842404365539551 0.40423864126205444
0.75125575065612793 0.75536882877349854 0.3994700014591217
0.9178503155708313 0.76358920335769653 0.38222035765647888
0.051318809390068054 0.90824311971664429 0.44702517986297607
0.14910580217838287 0.91828709840774536 0.46533513069152832
0.25066271424293518 0.93082934617996216 0.4637913703918457
0.38133373856544495 0.93772751092910767 0.44040849804878235
0.56472837924957275 0.92930734157562256 0.42115131020545959
0.76067179441452026 0.91894048452377319 0.40793502330780029
0.92755770683288574 0.92137724161148071 0.4026583731174469
0.0059122270904481411 0.056907907128334045 0.58261924982070923
0.049644395709037781 0.048841826617717743 0.59104305505752563
0.11450205743312836 0.026407578960061073 0.58432376384735107
0.29762083292007446 0.011400634422898293 0.56979221105575562
0.52303272485733032 0.0095391217619180679 0.56277894973754883
0.70748811960220337 0.008286808617413044 0.53603726625442505
0.87184435129165649 0.0096764061599969864 0.51383572816848755
0.013074284419417381 0.15317443013191223 0.58597028255462646
0.061808522790670395 0.14737991988658905 0.60057950019836426
0.11560052633285522 0.11816029250621796 0.59751784801483154
0.28706303238868713 0.082909964025020599 0.57352989912033081
0.5342637300491333 0.073212593793869019 0.56368017196655273
0.72024565935134888 0.071515597403049469 0.54725843667984009
0.89552932977676392 0.073705576360225677 0.53025704622268677
0.01480210293084383 0.27677264809608459 0.54902434349060059
0.075455233454704285 0.2768518328666687 0.56654739379882812
0.12218376249074936 0.25870513916015625 0.5974658727645874
0.28729182481765747 0.20996986329555511 0.58610916137695312
0.55578219890594482 0.18482325971126556 0.57511073350906372
0.74749135971069336 0.19032357633113861 0.56359010934829712
0.92676776647567749 0.19630402326583862 0.55298268795013428
0.014616214670240879 0.40620726346969604 0.47319269180297852
0.079454801976680756 0.41716936230659485 0.47898286581039429
0.13826493918895721 0.42883294820785522 0.52832561731338501
0.25149053335189819 0.41152584552764893 0.57703554630279541
0.56055855751037598 0.37043792009353638 0.58185958862304688
0.75711733102798462 0.37807875871658325 0.56735152006149292
0.93317717313766479 0.38637071847915649 0.55432039499282837
0.054217468947172165 0.5509028434753418 0.50792825222015381
0.12744845449924469 0.56677716970443726 0.51716464757919312
0.21160721778869629 0.57860475778579712 0.54296040534973145
0.34730559587478638 0.5821150541305542 0.56817841529846191
0.537852942943573 0.57690900564193726 0.58473855257034302
0.74795722961425781 0.5775148868560791 0.56499648094177246
0.91393470764160156 0.59019070863723755 0.55124199390411377
0.10401392728090286 0.71608012914657593 0.5858038067817688
0.18396806716918945 0.7324712872505188 0.59886634349822998
0.27034559845924377 0.74872064590454102 0.60938417911529541
0.3886888325214386 0.76106768846511841 0.61174666881561279
0.53881567716598511 0.76530987024307251 0.59616196155548096
0.74679833650588989 0.7581903338432312 0.58418214321136475
0.90998458862304688 0.76676678657531738 0.56591349840164185
0.12714493274688721 0.8908696174621582 0.64131098985671997
0.20856019854545593 0.90507912635803223 0.65297406911849976
0.29700389504432678 0.92047524452209473 0.65749281644821167
0.41536274552345276 0.93048936128616333 0.64337754249572754
0.56873464584350586 0.9285430908203125 0.6137738823890686
0.75232166051864624 0.91939389705657959 0.59282916784286499
0.91451853513717651 0.92067158222198486 0.58680403232574463
0.012837832793593407 0.079287886619567871 0.74994635581970215
0.067771062254905701 0.07207779586315155 0.75536960363388062
0.12212509661912918 0.046283334493637085 0.74765163660049438
0.25206586718559265 0.014358759857714176 0.73680657148361206
0.48989468812942505 0.0071269762702286243 0.73028057813644409
0.70129972696304321 0.0061363968998193741 0.72587394714355469
0.86406487226486206 0.0072771855629980564 0.7219092845916748
0.018939582630991936 0.1698589026927948 0.75556379556655884
0.074897617101669312 0.16715414822101593 0.7683340311050415
0.11902341991662979 0.13740314543247223 0.76091384887695312
0.2517399787902832 0.091239422559738159 0.74187934398651123
0.51378720998764038 0.073514543473720551 0.73842376470565796
0.72629642486572266 0.068594977259635925 0.74224066734313965
0.88946336507797241 0.069199718534946442 0.74058318138122559
0.017195533961057663 0.29630619287490845 0.72594600915908813
0.077744878828525543 0.29787111282348633 0.75066614151000977
0.11870619654655457 0.27790433168411255 0.76989626884460449
0.23843368887901306 0.22924451529979706 0.76320016384124756
0.52089333534240723 0.19142015278339386 0.75706642866134644
0.75204837322235107 0.18483492732048035 0.76068413257598877
0.91599088907241821 0.19130334258079529 0.7584153413772583
0.0094182631000876427 0.44458553194999695 0.63682574033737183
0.080215558409690857 0.45636269450187683 0.66085135936737061
0.14448824524879456 0.46320199966430664 0.72039759159088135
0.2140137255191803 0.43576624989509583 0.76656490564346313
0.50957679748535156 0.38019812107086182 0.7696768045425415
0.76362115144729614 0.3686160147190094 0.76894658803939819
0.92384594678878784 0.38123077154159546 0.76205539703369141
0.028189999982714653 0.59307873249053955 0.59555494785308838
0.10035852342844009 0.60922259092330933 0.61152940988540649
0.16080179810523987 0.622963547706604 0.64650183916091919
0.24826683104038239 0.62494444847106934 0.70387578010559082
0.46423014998435974 0.60099929571151733 0.76238024234771729
0.76313954591751099 0.56703096628189087 0.76119303703308105
0.92443406581878662 0.58188581466674805 0.75184780359268188
0.089871786534786224 0.74142223596572876 0.66375517845153809
0.16368934512138367 0.75595271587371826 0.67648530006408691
0.24698707461357117 0.76927822828292847 0.69665122032165527
0.38598200678825378 0.77321290969848633 0.73043334484100342
0.55811131000518799 0.77096778154373169 0.75196141004562378
0.7405884861946106 0.7596316933631897 0.76131725311279297
0.91424834728240967 0.76057088375091553 0.74937587976455688
0.14478421211242676 0.89792263507843018 0.74956762790679932
0.22049668431282043 0.91058522462844849 0.76174867153167725
0.31165415048599243 0.92226201295852661 0.78039354085922241
0.44635611772537231 0.92596912384033203 0.79346036911010742
0.59243035316467285 0.92179173231124878 0.78694719076156616
0.74129337072372437 0.91672426462173462 0.76981514692306519
0.90590304136276245 0.91556525230407715 0.76436758041381836
0.01569652184844017 0.098340220749378204 0.89957976341247559
0.076410867273807526 0.088555671274662018 0.9028136134147644
0.12645907700061798 0.060731265693902969 0.89620059728622437
0.21236751973628998 0.019082328304648399 0.88703137636184692
0.45892998576164246 0.010598800145089626 0.87364381551742554
0.69453716278076172 0.011139051057398319 0.86907726526260376
0.85362648963928223 0.0097985360771417618 0.86772239208221436
0.016257192939519882 0.1761060506105423 0.90128570795059204
0.079207383096218109 0.179792121052742 0.91069126129150391
0.12379489839076996 0.15150743722915649 0.90575212240219116
0.21403959393501282 0.094169288873672485 0.892386794090271
0.47061359882354736 0.077073909342288971 0.88482534885406494
0.71677619218826294 0.076808199286460876 0.88779312372207642
0.87797123193740845 0.07691587507724762 0.89038097858428955
0.01560706365853548 0.30974540114402771 0.88312065601348877
0.075141400098800659 0.31441378593444824 0.89466887712478638
0.11888168752193451 0.29446971416473389 0.90819883346557617
0.22052077949047089 0.24509041011333466 0.90890324115753174
0.48864111304283142 0.20403002202510834 0.90402722358703613
0.74259066581726074 0.19246435165405273 0.9080231785774231
0.906177818775177 0.19847127795219421 0.91023778915405273
0.012935773469507694 0.47233307361602783 0.80808085203170776
0.078881479799747467 0.48541355133056641 0.81623959541320801
0.13282842934131622 0.48461610078811646 0.86735415458679199
0.19699488580226898 0.45490577816963196 0.91097253561019897
0.47472068667411804 0.3959038257598877 0.91547089815139771
0.76603537797927856 0.36875423789024353 0.91658240556716919
0.93039923906326294 0.37842947244644165 0.91963744163513184
0.013908521272242069 0.63085228204727173 0.71526145935058594
0.080577418208122253 0.64676249027252197 0.73093956708908081
0.14188578724861145 0.65852564573287964 0.78519773483276367
0.21211805939674377 0.6576123833656311 0.85768413543701172
0.40661171078681946 0.62017875909805298 0.90827697515487671
0.74506539106369019 0.57317882776260376 0.91503477096557617
0.93229371309280396 0.57730937004089355 0.91878259181976318
0.0571468286216259 0.77566230297088623 0.73640894889831543
0.12160933017730713 0.78846079111099243 0.74718046188354492
0.19579578936100006 0.80130505561828613 0.77426093816757202
0.30671808123588562 0.80677402019500732 0.81349045038223267
0.47903347015380859 0.79940378665924072 0.86256146430969238
0.68903243541717529 0.77755224704742432 0.90814220905303955
0.91647696495056152 0.75820332765579224 0.91195505857467651
0.12182763963937759 0.92242133617401123 0.81387269496917725
0.1963060200214386 0.93192332983016968 0.82685774564743042
0.2885269820690155 0.93982481956481934 0.84805947542190552
0.42457824945449829 0.93951177597045898 0.87386071681976318
0.59661298990249634 0.92971205711364746 0.89128845930099487
0.75548321008682251 0.9198262095451355 0.90475058555603027
0.90466463565826416 0.9136350154876709 0.90964806079864502
