assets/lut/berat goldentime.cube
# Created by: G'MIC (https://gmic.eu)
TITLE "goldentime"
# LUT size
LUT_3D_SIZE 5
# Data domain
DOMAIN_MIN 0.0 0.0 0.0
DOMAIN_MAX 1.0 1.0 1.0
# LUT data points
0.011116296984255314 0.011648365296423435 0.011566505767405033
0.097930043935775757 0.011787040159106255 0.013795171864330769
0.22177866101264954 0.005280722863972187 0.012390869669616222
0.35881933569908142 0.0093386778607964516 0.010283570736646652
0.48580819368362427 0.011681037023663521 0.0046704611741006374
0.016227871179580688 0.096120409667491913 0.010796834714710712
0.099903121590614319 0.099877454340457916 0.012601097114384174
0.23570525646209717 0.1011793240904808 0.015582394786179066
0.38480189442634583 0.098795391619205475 0.012787343934178352
0.55642449855804443 0.097769871354103088 0.011213145218789577
0.012679380364716053 0.22958412766456604 0.012760566547513008
0.1081739217042923 0.26114225387573242 0.026503544300794601
0.28981003165245056 0.28358203172683716 0.018143851310014725
0.56925421953201294 0.30265364050865173 0.014358744956552982
0.78347140550613403 0.32908853888511658 0.015566627494990826
0.035153228789567947 0.5412975549697876 0.017320265993475914
0.16016767919063568 0.5782318115234375 0.034569669514894485
0.38703468441963196 0.60442209243774414 0.049486614763736725
0.65361905097961426 0.6246679425239563 0.036945119500160217
0.85430830717086792 0.64004242420196533 0.043678928166627884
0.065367154777050018 0.79345035552978516 0.030270416289567947
0.21085402369499207 0.81379622220993042 0.052873648703098297
0.4365449845790863 0.83127343654632568 0.06056811660528183
0.69661986827850342 0.83607560396194458 0.060994599014520645
0.87783908843994141 0.84080362319946289 0.061574134975671768
0.011276349425315857 0.01190236397087574 0.10000643134117126
0.095966964960098267 0.0098083196207880974 0.096925564110279083
0.22155234217643738 0.0090427026152610779 0.091646410524845123
0.35350924730300903 0.0086574330925941467 0.076911076903343201
0.48035961389541626 0.019188091158866882 0.076178640127182007
0.01309814490377903 0.096336185932159424 0.095999732613563538
0.098450258374214172 0.10061047226190567 0.1061747670173645
0.2359376847743988 0.10239972919225693 0.10191036760807037
0.39387959241867065 0.10106216371059418 0.097518891096115112
0.57776093482971191 0.10306014865636826 0.098946802318096161
0.012792729772627354 0.23549903929233551 0.093278713524341583
0.1119452565908432 0.27193671464920044 0.10790780931711197
0.30799961090087891 0.29879510402679443 0.11403840035200119
0.5922817587852478 0.32124742865562439 0.10998333245515823
0.79703772068023682 0.35970196127891541 0.12798686325550079
0.028356125578284264 0.55355441570281982 0.10575069487094879
0.1636606901884079 0.58999323844909668 0.13029611110687256
0.39637836813926697 0.6172059178352356 0.14377528429031372
0.66895884275436401 0.63715773820877075 0.15682391822338104
0.85746657848358154 0.64982825517654419 0.16930077970027924
0.096560202538967133 0.79975616931915283 0.15438520908355713
0.22475519776344299 0.81131845712661743 0.17021043598651886
0.44728368520736694 0.83002525568008423 0.1781461089849472
0.70526880025863647 0.84241104125976562 0.17806136608123779
0.88301420211791992 0.84696334600448608 0.18220981955528259
0.017784912139177322 0.015656100586056709 0.22842957079410553
0.096042633056640625 0.01222044974565506 0.22392915189266205
0.21667049825191498 0.012761793099343777 0.21651658415794373
0.35409942269325256 0.0060049020685255527 0.20517338812351227
0.48835122585296631 0.011034034192562103 0.20078399777412415
0.014204825274646282 0.097462132573127747 0.22373047471046448
0.099757596850395203 0.099471345543861389 0.24115660786628723
0.23208244144916534 0.10363105684518814 0.23238891363143921
0.40142527222633362 0.10229425132274628 0.2331250011920929
0.61464822292327881 0.10591351240873337 0.25345706939697266
0.011645118705928326 0.25089368224143982 0.24236726760864258
0.10654931515455246 0.28467211127281189 0.2735234797000885
0.32105183601379395 0.31710940599441528 0.30705410242080688
0.60371875762939453 0.33344092965126038 0.31093433499336243
0.80675733089447021 0.37112796306610107 0.35285541415214539
0.050265967845916748 0.56046408414840698 0.3079831600189209
0.17431104183197021 0.60255295038223267 0.34120947122573853
0.39865037798881531 0.62980455160140991 0.37567803263664246
0.67210042476654053 0.64448267221450806 0.38322612643241882
0.86945134401321411 0.65830737352371216 0.39957073330879211
0.089254014194011688 0.80640709400177002 0.36051681637763977
0.22624772787094116 0.82163983583450317 0.39479923248291016
0.44937270879745483 0.8374626636505127 0.41311240196228027
0.70598107576370239 0.85100865364074707 0.40676397085189819
0.8945731520652771 0.858223557472229 0.41373014450073242
0.013267756439745426 0.012278866954147816 0.36584296822547913
0.10018496215343475 0.016328789293766022 0.35869494080543518
0.21911263465881348 0.0054240059107542038 0.35848116874694824
0.36187231540679932 0.020616075024008751 0.3635660707950592
0.49900627136230469 0.012208512052893639 0.35686227679252625
0.012657688930630684 0.092812001705169678 0.37083697319030762
0.10730676352977753 0.1073722243309021 0.37399536371231079
0.23806919157505035 0.10503436625003815 0.3866676390171051
0.42742219567298889 0.11080769449472427 0.41686418652534485
0.65442407131195068 0.10732033103704453 0.46350774168968201
0.0090739531442523003 0.26787945628166199 0.43676292896270752
0.12744332849979401 0.29804190993309021 0.48233252763748169
0.34351155161857605 0.32642373442649841 0.54896903038024902
0.6165311336517334 0.35827904939651489 0.56988275051116943
0.81752210855484009 0.37192133069038391 0.59544491767883301
0.043501775711774826 0.5721510648727417 0.55343258380889893
0.1820189505815506 0.60500913858413696 0.58108228445053101
0.42110446095466614 0.63723886013031006 0.6110878586769104
0.68327641487121582 0.64772135019302368 0.62117236852645874
0.8751528263092041 0.66101729869842529 0.63437116146087646
0.085076652467250824 0.81419402360916138 0.61651623249053955
0.22353313863277435 0.83102619647979736 0.63858824968338013
0.46706095337867737 0.84994113445281982 0.64815175533294678
0.70975577831268311 0.85505223274230957 0.64601701498031616
0.90346693992614746 0.86701583862304688 0.65581494569778442
0.011558922007679939 0.01130357664078474 0.49942430853843689
0.085083648562431335 0.011290935799479485 0.49800485372543335
0.20922476053237915 0.012484127655625343 0.49147111177444458
0.35580876469612122 0.013676736503839493 0.49184995889663696
0.50883138179779053 0.012288575991988182 0.50544095039367676
0.011928079649806023 0.092842534184455872 0.50755071640014648
0.099737755954265594 0.10234370827674866 0.51569837331771851
0.25127536058425903 0.10811997950077057 0.53537511825561523
0.44310852885246277 0.11038454622030258 0.56439268589019775
0.67630279064178467 0.1104983314871788 0.63770931959152222
0.01110890693962574 0.27258867025375366 0.60898661613464355
0.12123357504606247 0.31245079636573792 0.67947137355804443
0.36269024014472961 0.34095937013626099 0.71736949682235718
0.62519508600234985 0.35664612054824829 0.73940587043762207
0.82721328735351562 0.39430737495422363 0.76537632942199707
0.033594079315662384 0.58860605955123901 0.74071943759918213
0.18091629445552826 0.62282800674438477 0.76863336563110352
0.43258786201477051 0.64357477426528931 0.79075556993484497
0.69102895259857178 0.65073877573013306 0.8039393424987793
0.87948310375213623 0.66716748476028442 0.81467205286026001
0.087692186236381531 0.82143425941467285 0.79094338417053223
0.22550475597381592 0.83314305543899536 0.79958999156951904
0.47187098860740662 0.84801250696182251 0.81910246610641479
0.71956473588943481 0.86391544342041016 0.83518671989440918
0.90817314386367798 0.87332147359848022 0.84276884794235229
