assets/lut/berat westernlut2.cube
# Created by: G'MIC (https://gmic.eu)
TITLE "westernlut2"
# LUT size
LUT_3D_SIZE 13
# Data domain
DOMAIN_MIN 0.0 0.0 0.0
DOMAIN_MAX 1.0 1.0 1.0
# LUT data points
0.0059965844266116619 0.008406306616961956 0.0078116022050380707
0.024497207254171371 0.0095432056114077568 0.0077205882407724857
0.049692489206790924 0.007235418539494276 0.0077205882407724857
0.081771388649940491 0.0040450901724398136 0.0062245535664260387
0.11652317643165588 0.0017927131848409772 0.0035843942314386368
0.14938971400260925 0.00089612475130707026 0.00089201086666435003
0.17942076921463013 0.00077963434159755707 0
0.21045586466789246 0.0012755449861288071 0
0.24120892584323883 0.0020073535852134228 0.00014397116319742054
0.26535448431968689 0.0016362956957891583 0.00020608340855687857
0.28506726026535034 0.00093307497445493937 0
0.3091309666633606 0.00080588844139128923 0
0.34480732679367065 0.0021493202075362206 8.6346793978009373e-05
0.0029711704701185226 0.022779816761612892 0.0048847873695194721
0.019959168508648872 0.022892806679010391 0.0057321134954690933
0.045030377805233002 0.020290389657020569 0.0073389690369367599
0.077095776796340942 0.016869803890585899 0.0071129142306745052
0.11294980347156525 0.014164733700454235 0.0055715823546051979
0.1463102400302887 0.012109958566725254 0.0030660291668027639
0.17569929361343384 0.011609619483351707 0.0009678560309112072
0.2094046026468277 0.012338466010987759 0.00071812048554420471
0.24330078065395355 0.012827780097723007 0.0019197352230548859
0.27510133385658264 0.013316195458173752 0.0023051092866808176
0.30973312258720398 0.016088956966996193 0.002146163722500205
0.35030606389045715 0.018122907727956772 0.0025967916008085012
0.39722481369972229 0.021348407492041588 0.0034683677367866039
0.0021942737512290478 0.041314218193292618 0.0026232700329273939
0.017623467370867729 0.040775224566459656 0.0037416943814605474
0.041384484618902206 0.038517042994499207 0.0056194979697465897
0.073040574789047241 0.036859087646007538 0.0069420309737324715
0.11065252125263214 0.036835808306932449 0.0061134635470807552
0.14678442478179932 0.03818390890955925 0.004841105081140995
0.18471743166446686 0.038764640688896179 0.003757476806640625
0.23333321511745453 0.041575144976377487 0.0038754332344979048
0.28267022967338562 0.043275915086269379 0.0044483407400548458
0.33209419250488281 0.046549465507268906 0.0048835752531886101
0.39085179567337036 0.053289644420146942 0.0053191990591585636
0.45850279927253723 0.060700032860040665 0.0064382217824459076
0.52318626642227173 0.06870906800031662 0.0088708763942122459
0.0022657506633549929 0.068698495626449585 0.0013033997965976596
0.016366083174943924 0.069269455969333649 0.0024113974068313837
0.040717944502830505 0.06992340087890625 0.0045615253038704395
0.074437037110328674 0.072719588875770569 0.0058231130242347717
0.11855868250131607 0.078412242233753204 0.0050591262988746166
0.16811078786849976 0.084220781922340393 0.0038120343815535307
0.22401426732540131 0.089016631245613098 0.0045297658070921898
0.29219084978103638 0.094254299998283386 0.0055824578739702702
0.36169356107711792 0.099709950387477875 0.0064578186720609665
0.42789876461029053 0.10633347183465958 0.0060887206345796585
0.49995309114456177 0.11541939526796341 0.0059156082570552826
0.57859605550765991 0.12583485245704651 0.0078767212107777596
0.64509838819503784 0.13699644804000854 0.011889289133250713
0.0039184419438242912 0.11132698506116867 0.002846631919965148
0.019228167831897736 0.11877932399511337 0.002999219810590148
0.045347057282924652 0.12679894268512726 0.0043501313775777817
0.087087847292423248 0.13634191453456879 0.004636039026081562
0.14421930909156799 0.14668174088001251 0.0031649121083319187
0.21115954220294952 0.15587221086025238 0.0023169424384832382
0.28539153933525085 0.16292719542980194 0.0035111072938889265
0.36830335855484009 0.16950049996376038 0.0057417028583586216
0.45099073648452759 0.17688561975955963 0.0077205882407724857
0.52213150262832642 0.18562936782836914 0.007045326754450798
0.59181642532348633 0.19629578292369843 0.0052288281731307507
0.66205763816833496 0.20798362791538239 0.0078738490119576454
0.71897155046463013 0.21962401270866394 0.013363647274672985
0.0029847687110304832 0.18486703932285309 0.0027630676049739122
0.021400196477770805 0.19733668863773346 0.0038288042414933443
0.053985938429832458 0.21206825971603394 0.004825337789952755
0.10606878250837326 0.22541868686676025 0.0047566881403326988
0.17622904479503632 0.2367406040430069 0.0030746760312467813
0.25636231899261475 0.2458832710981369 0.0022671569604426622
0.34111663699150085 0.25269100069999695 0.0030898747500032187
0.43024757504463196 0.25908780097961426 0.0051993126980960369
0.51607263088226318 0.26692697405815125 0.0073621710762381554
0.58758455514907837 0.27661037445068359 0.0068888496607542038
0.65160804986953735 0.28813716769218445 0.0063813901506364346
0.71041154861450195 0.30067995190620422 0.0087687326595187187
0.75764334201812744 0.31286504864692688 0.014902630820870399
0.0023360906634479761 0.282184898853302 0.0016018586466088891
0.025844544172286987 0.2966705858707428 0.0037902533076703548
0.065860956907272339 0.31348440051078796 0.0070014656521379948
0.12674875557422638 0.32718601822853088 0.0076621710322797298
0.20562209188938141 0.33666178584098816 0.0058228438720107079
0.29225954413414001 0.34387937188148499 0.0045327129773795605
0.38051286339759827 0.3495541512966156 0.0051176482811570168
0.46867150068283081 0.35526913404464722 0.0061009423807263374
0.55201321840286255 0.36251530051231384 0.0074972263537347317
0.62427830696105957 0.37217235565185547 0.0083423387259244919
0.68616509437561035 0.38408774137496948 0.0094426767900586128
0.73861253261566162 0.39698678255081177 0.013316195458173752
0.78136509656906128 0.40912190079689026 0.020430052652955055
0.0041513629257678986 0.38834443688392639 0.0020356122404336929
0.036086678504943848 0.40256586670875549 0.0050858738832175732
0.085540443658828735 0.41748467087745667 0.0095457788556814194
0.15250808000564575 0.42944982647895813 0.01220417395234108
0.23433846235275269 0.43752866983413696 0.012035340070724487
0.32235610485076904 0.44316312670707703 0.011282677762210369
0.41010445356369019 0.44726282358169556 0.010478808544576168
0.49476701021194458 0.45166945457458496 0.0107014374807477
0.57546168565750122 0.45793527364730835 0.011655231937766075
0.64723503589630127 0.46681350469589233 0.01337833795696497
0.70778441429138184 0.4778296947479248 0.016349043697118759
0.75828808546066284 0.49014708399772644 0.021971428766846657
0.80013352632522583 0.50149011611938477 0.030079007148742676
0.011476180516183376 0.49416923522949219 0.0068627600558102131
0.054809540510177612 0.50676721334457397 0.010719913057982922
0.11197684705257416 0.51835250854492188 0.016100237146019936
0.18356980383396149 0.52797585725784302 0.020353175699710846
0.2656920850276947 0.53461164236068726 0.021924097090959549
0.35257363319396973 0.53885996341705322 0.02231280691921711
0.4384540319442749 0.54173898696899414 0.021554550155997276
0.52029514312744141 0.54462236166000366 0.020607847720384598
0.59727096557617188 0.54889923334121704 0.020949255675077438
0.66631245613098145 0.55570739507675171 0.022672316059470177
0.72568267583847046 0.56454944610595703 0.026173895224928856
0.77515238523483276 0.57492637634277344 0.032445255666971207
0.81692773103713989 0.58415108919143677 0.041212119162082672
0.032007597386837006 0.59516745805740356 0.018926613032817841
0.081999070942401886 0.60498350858688354 0.022377612069249153
0.14388100802898407 0.61288726329803467 0.027286769822239876
0.21744278073310852 0.61936545372009277 0.032229106873273849
0.29936102032661438 0.62405484914779663 0.0352642722427845
0.38460180163383484 0.62711560726165771 0.036761775612831116
0.46837872266769409 0.62896072864532471 0.036248359829187393
0.54755240678787231 0.63033634424209595 0.03469683974981308
0.6204037070274353 0.63242596387863159 0.033881783485412598
0.68565112352371216 0.63602346181869507 0.034501604735851288
0.7424195408821106 0.64172744750976562 0.037513956427574158
0.79117333889007568 0.64862239360809326 0.043399348855018616
0.83324605226516724 0.65453958511352539 0.052084334194660187
0.060881670564413071 0.68497025966644287 0.035112209618091583
0.11396738886833191 0.69080322980880737 0.037605870515108109
0.17769618332386017 0.69453096389770508 0.041969388723373413
0.25147849321365356 0.69808292388916016 0.046594314277172089
0.33204787969589233 0.70100259780883789 0.050420153886079788
0.4157346785068512 0.70359694957733154 0.052113521844148636
0.4979061484336853 0.7056545615196228 0.052078515291213989
0.57407742738723755 0.70593065023422241 0.050471331924200058
0.64309227466583252 0.70567137002944946 0.0479697585105896
0.70444357395172119 0.7065964937210083 0.047202959656715393
0.75883162021636963 0.7091972827911377 0.049331139773130417
0.80622929334640503 0.7128942608833313 0.054488014429807663
0.84807860851287842 0.71606326103210449 0.062366515398025513
0.088862232863903046 0.75293952226638794 0.051553912460803986
0.14308720827102661 0.75520896911621094 0.053811017423868179
0.20743636786937714 0.75647127628326416 0.057305771857500076
0.28021726012229919 0.75811231136322021 0.061466589570045471
0.35894078016281128 0.75993674993515015 0.065446488559246063
0.44202348589897156 0.76440489292144775 0.068464986979961395
0.523845374584198 0.76915544271469116 0.068992406129837036
0.59744536876678467 0.76977050304412842 0.065949186682701111
0.66300612688064575 0.76843452453613281 0.062270145863294601
0.72170078754425049 0.76735961437225342 0.060481246560811996
0.77366495132446289 0.76776701211929321 0.061355665326118469
0.81983840465545654 0.76931238174438477 0.065667696297168732
0.86144399642944336 0.77090245485305786 0.072889648377895355
0.10938595235347748 0.78967171907424927 0.067158639430999756
0.16608574986457825 0.79533630609512329 0.068938247859477997
0.22999347746372223 0.79808992147445679 0.072046123445034027
0.30073657631874084 0.79907941818237305 0.075671300292015076
0.37696316838264465 0.80063003301620483 0.079086050391197205
0.45957154035568237 0.80897778272628784 0.082290276885032654
0.54111433029174805 0.81789571046829224 0.083309710025787354
0.6137050986289978 0.82111042737960815 0.080142036080360413
0.67778533697128296 0.82039022445678711 0.076015889644622803
0.73503905534744263 0.81972032785415649 0.073287099599838257
0.78604191541671753 0.81959563493728638 0.073877520859241486
0.83154058456420898 0.82004976272583008 0.077732428908348083
0.87284129858016968 0.82105123996734619 0.084202349185943604
0.0062822676263749599 0.01114253606647253 0.029772097244858742
0.02571125328540802 0.01267032977193594 0.028839066624641418
0.051044732332229614 0.010777940973639488 0.027286933735013008
0.082173757255077362 0.0074121961370110512 0.023843234404921532
0.11641558259725571 0.0039995829574763775 0.018993407487869263
0.14927734434604645 0.0020463981200009584 0.012126698158681393
0.18024727702140808 0.0015231113648042083 0.0047281603328883648
0.21221373975276947 0.0021212708670645952 0.0023520824033766985
0.24337044358253479 0.0026951809413731098 0.0049781352281570435
0.26969227194786072 0.0024718339554965496 0.0053674434311687946
0.29171699285507202 0.0016893872525542974 0.0037164874374866486
0.31506910920143127 0.0015336429933086038 0.0043769539333879948
0.35053005814552307 0.0028439541347324848 0.0046312669292092323
0.003376066917553544 0.026111721992492676 0.025026807561516762
0.021316932514309883 0.026749793440103531 0.02544085867702961
0.04693959653377533 0.02470163069665432 0.026104392483830452
0.07882034033536911 0.021268792450428009 0.023632228374481201
0.11387287080287933 0.017716007307171822 0.02128397673368454
0.1463201493024826 0.014875569380819798 0.016055267304182053
0.17833881080150604 0.013163412921130657 0.010968780145049095
0.21433031558990479 0.014425060711801052 0.0095193153247237206
0.25068187713623047 0.015218144282698631 0.012022160924971104
0.2845974862575531 0.015760235488414764 0.013528577052056789
0.31879696249961853 0.016683660447597504 0.014675918035209179
0.36027756333351135 0.0185686144977808 0.016391005367040634
0.41051235795021057 0.023440012708306313 0.01844990998506546
0.0021323410328477621 0.044921007007360458 0.020240394398570061
0.018470225855708122 0.044997930526733398 0.021594852209091187
0.044022727757692337 0.043897081166505814 0.023387789726257324
0.07641291618347168 0.042274117469787598 0.023275427520275116
0.11215469986200333 0.04053102433681488 0.022105513140559196
0.14889264106750488 0.039164748042821884 0.018762117251753807
0.19182242453098297 0.040416087955236435 0.017373029142618179
0.24247221648693085 0.043270844966173172 0.017859514802694321
0.29412344098091125 0.04636695608496666 0.01954365149140358
0.34608837962150574 0.049924138933420181 0.021031083539128304
0.40477558970451355 0.055157095193862915 0.022687949240207672
0.47255903482437134 0.061966855078935623 0.025294419378042221
0.53378063440322876 0.070422589778900146 0.029297847300767899
0.001935233362019062 0.071725763380527496 0.015910444781184196
0.016722271218895912 0.072450153529644012 0.018446065485477448
0.043084807693958282 0.073786884546279907 0.021884618327021599
0.079363740980625153 0.077907264232635498 0.023100489750504494
0.12312187999486923 0.082428663969039917 0.022487340494990349
0.1735844761133194 0.086588539183139801 0.020298482850193977
0.23353548347949982 0.091442421078681946 0.021955542266368866
0.30212664604187012 0.096981257200241089 0.02413838729262352
0.37158343195915222 0.10281159728765488 0.025469401851296425
0.44002321362495422 0.10968130081892014 0.02570190466940403
0.51464813947677612 0.11865526437759399 0.026413308456540108
0.59527122974395752 0.12935619056224823 0.029287645593285561
0.6564444899559021 0.14070484042167664 0.035229358822107315
0.0028142144437879324 0.11486659198999405 0.016007561236619949
0.019104871898889542 0.12096927314996719 0.01886596716940403
0.047299493104219437 0.12919366359710693 0.022003278136253357
0.092668540775775909 0.14046628773212433 0.023857042193412781
0.15269741415977478 0.15165835618972778 0.022705286741256714
0.22156898677349091 0.16071787476539612 0.021877797320485115
0.29554501175880432 0.16712702810764313 0.024575760588049889
0.37566551566123962 0.17336216568946838 0.027907218784093857
0.4554826021194458 0.18061815202236176 0.029335351660847664
0.52930915355682373 0.18957290053367615 0.028809729963541031
0.60263288021087646 0.20056027173995972 0.028439361602067947
0.67430710792541504 0.2130696177482605 0.031156262382864952
0.72728532552719116 0.2255416214466095 0.038215413689613342
0.0024254592135548592 0.18878237903118134 0.017224449664354324
0.021312683820724487 0.20092025399208069 0.020885586738586426
0.056167855858802795 0.21528349816799164 0.025193322449922562
0.11193365603685379 0.2296920120716095 0.026944015175104141
0.18622906506061554 0.242539182305336 0.024991098791360855
0.26906239986419678 0.25245487689971924 0.023590357974171638
0.35184302926063538 0.25843441486358643 0.026848677545785904
0.43672430515289307 0.26426941156387329 0.030565135180950165
0.51906841993331909 0.27180227637290955 0.032023128122091293
0.59141099452972412 0.28151500225067139 0.031343407928943634
0.65728211402893066 0.29332035779953003 0.031253214925527573
0.71558457612991333 0.30670931935310364 0.03465607762336731
0.75923252105712891 0.3196043074131012 0.042169712483882904
0.0024761124514043331 0.2879183292388916 0.016550969332456589
0.026381878182291985 0.30200794339179993 0.02292906865477562
0.068572431802749634 0.31779661774635315 0.029693707823753357
0.13245308399200439 0.33173283934593201 0.03298187255859375
0.2140890508890152 0.34282910823822021 0.032424073666334152
0.3025985062122345 0.35080441832542419 0.031739372760057449
0.39042156934738159 0.35610705614089966 0.033088773488998413
0.47625762224197388 0.36135634779930115 0.035304680466651917
0.55709058046340942 0.36842897534370422 0.03682168573141098
0.62835979461669922 0.37784847617149353 0.037388775497674942
0.68942475318908691 0.38967183232307434 0.038647282868623734
0.74094593524932861 0.40268057584762573 0.043222300708293915
0.78146845102310181 0.41471517086029053 0.051599793136119843
0.0053356694988906384 0.39596584439277649 0.01951516792178154
0.036982964724302292 0.40894836187362671 0.02720368281006813
0.086516708135604858 0.42278289794921875 0.035823509097099304
0.15613876283168793 0.43497109413146973 0.041450232267379761
0.24026410281658173 0.44407543540000916 0.043360497802495956
0.33008405566215515 0.4501955509185791 0.043584905564785004
0.41865819692611694 0.45426660776138306 0.043641213327646255
0.50302940607070923 0.45846831798553467 0.044229380786418915
0.58186870813369751 0.46432963013648987 0.045357692986726761
0.65191042423248291 0.47256076335906982 0.046899832785129547
0.71161246299743652 0.48312836885452271 0.050169117748737335
0.76102006435394287 0.49502891302108765 0.056167155504226685
0.80188083648681641 0.5053105354309082 0.065696179866790771
0.014385297894477844 0.50197434425354004 0.031000293791294098
0.055121790617704391 0.51303458213806152 0.037732802331447601
0.1116023063659668 0.52399063110351562 0.04632091149687767
0.18508258461952209 0.53437769412994385 0.053170911967754364
0.26975134015083313 0.54169732332229614 0.056986358016729355
0.35831108689308167 0.54607629776000977 0.058081980794668198
0.44524109363555908 0.54866486787796021 0.057972103357315063
0.52754318714141846 0.5510980486869812 0.057630397379398346
0.6035536527633667 0.55493736267089844 0.057887237519025803
0.67139744758605957 0.56113302707672119 0.059649821370840073
0.72961282730102539 0.56947141885757446 0.06354956328868866
0.77838963270187378 0.57880645990371704 0.070475004613399506
0.82034999132156372 0.58700764179229736 0.080404631793498993
0.034508123993873596 0.60127902030944824 0.050229988992214203
0.082074753940105438 0.61047577857971191 0.055083885788917542
0.14362898468971252 0.61904597282409668 0.062071811407804489
0.21889692544937134 0.62710535526275635 0.068907134234905243
0.30261942744255066 0.63229972124099731 0.073445037007331848
0.38899224996566772 0.63462048768997192 0.075338132679462433
0.47351112961769104 0.63528525829315186 0.075096353888511658
0.5530131459236145 0.63565778732299805 0.073608756065368652
0.62594109773635864 0.63726824522018433 0.072748444974422455
0.69052928686141968 0.64064770936965942 0.073811009526252747
0.74695688486099243 0.64600074291229248 0.077611617743968964
0.79531621932983398 0.65239489078521729 0.084376692771911621
0.83678305149078369 0.65791261196136475 0.094013825058937073
0.061277143657207489 0.68768197298049927 0.072463765740394592
0.11399392783641815 0.6954120397567749 0.076018206775188446
0.17872415482997894 0.70194083452224731 0.081519871950149536
0.25459367036819458 0.70823520421981812 0.08737538754940033
0.3360077440738678 0.7108147144317627 0.091479957103729248
0.41940867900848389 0.71097844839096069 0.09353097528219223
0.50138980150222778 0.71072161197662354 0.092594817280769348
0.57813656330108643 0.7097475528717041 0.090673603117465973
0.64784079790115356 0.70919853448867798 0.088395841419696808
0.70961576700210571 0.71007698774337769 0.088174231350421906
0.7639385461807251 0.7125093936920166 0.09116140753030777
0.81116503477096558 0.71621698141098022 0.097517333924770355
0.85277563333511353 0.7196994423866272 0.10667995363473892
0.087546221911907196 0.75281637907028198 0.094407714903354645
0.14320136606693268 0.75884473323822021 0.096612520515918732
0.20940864086151123 0.76480579376220703 0.10097645968198776
0.28483805060386658 0.77053999900817871 0.10601186007261276
0.36373794078826904 0.77124291658401489 0.10933548957109451
0.44484815001487732 0.77104401588439941 0.11094478517770767
0.52576339244842529 0.77253580093383789 0.11033528298139572
0.60038220882415771 0.77168172597885132 0.10699295252561569
0.66729462146759033 0.76981043815612793 0.10348387807607651
0.72699642181396484 0.76913976669311523 0.1021103635430336
0.77930271625518799 0.77014762163162231 0.10437997430562973
0.82544541358947754 0.77235567569732666 0.11012643575668335
0.86688482761383057 0.77464413642883301 0.11880325525999069
0.10829941928386688 0.79338908195495605 0.11420111358165741
0.16531835496425629 0.79981166124343872 0.11533668637275696
0.23171080648899078 0.80526065826416016 0.11863977462053299
0.30459696054458618 0.80924934148788452 0.12235596776008606
0.38113105297088623 0.81011325120925903 0.12510523200035095
0.46184664964675903 0.81408286094665527 0.12668286263942719
0.54248672723770142 0.81925851106643677 0.12584741413593292
0.61612409353256226 0.82159429788589478 0.12219376116991043
0.68205481767654419 0.82069802284240723 0.11804252862930298
0.74062621593475342 0.82060807943344116 0.11602979153394699
0.79218250513076782 0.82080376148223877 0.11784747242927551
0.83778148889541626 0.82275879383087158 0.12321191281080246
0.8792039155960083 0.82473468780517578 0.13132280111312866
0.0061685000546276569 0.011589842848479748 0.055470738559961319
0.025878427550196648 0.013211957179009914 0.053702604025602341
0.05048757791519165 0.01165562029927969 0.050768099725246429
0.080233134329319 0.0082258936017751694 0.046384803950786591
0.11399314552545547 0.0046153049916028976 0.041652724146842957
0.14772668480873108 0.0021530899684876204 0.034991156309843063
0.17966349422931671 0.0012759339297190309 0.027111532166600227
0.21245196461677551 0.001788030844181776 0.023347308859229088
0.24442769587039948 0.0029427921399474144 0.025574881583452225
0.27076032757759094 0.0030626484658569098 0.026958242058753967
0.29227471351623535 0.002379443496465683 0.027550715953111649
0.31912598013877869 0.0016341265290975571 0.030236681923270226
0.35404598712921143 0.0020735049620270729 0.032523870468139648
0.003353118896484375 0.026686022058129311 0.049917962402105331
0.021608583629131317 0.027531208470463753 0.049484372138977051
0.047084406018257141 0.026682954281568527 0.04840252548456192
0.078303299844264984 0.023236891254782677 0.04651782289147377
0.11373881995677948 0.019443152472376823 0.04329083114862442
0.14671483635902405 0.015687605366110802 0.038397904485464096
0.18008673191070557 0.014008436352014542 0.03347429633140564
0.21840143203735352 0.01516615878790617 0.031867187470197678
0.25663098692893982 0.016114253550767899 0.034413326531648636
0.29051682353019714 0.016943030059337616 0.037501361221075058
0.3232492208480835 0.017525795847177505 0.041492387652397156
0.36508104205131531 0.018818963319063187 0.046317186206579208
0.4171215295791626 0.023019693791866302 0.050358746200799942
0.0022671569604426622 0.045822560787200928 0.04510122537612915
0.019307723268866539 0.046730879694223404 0.045912366360425949
0.045539047569036484 0.047153983265161514 0.047043535858392715
0.077857598662376404 0.04575430229306221 0.046591650694608688
0.11369724571704865 0.043488893657922745 0.04472910612821579
0.15048103034496307 0.040866538882255554 0.04192822054028511
0.19750586152076721 0.042210359126329422 0.04131665825843811
0.25135582685470581 0.045912258327007294 0.042720675468444824
0.30544131994247437 0.049698982387781143 0.045429933816194534
0.35778447985649109 0.053417399525642395 0.048488542437553406
0.41580092906951904 0.058065645396709442 0.05233122780919075
0.4844287633895874 0.064261220395565033 0.057390041649341583
0.54416036605834961 0.072656191885471344 0.063535399734973907
0.0025322260335087776 0.070672549307346344 0.041255336254835129
0.01915130577981472 0.074196383357048035 0.043035529553890228
0.04548155888915062 0.077387824654579163 0.045530043542385101
0.082586251199245453 0.082176938652992249 0.047892790287733078
0.12687994539737701 0.086392469704151154 0.049303825944662094
0.17858010530471802 0.089999854564666748 0.050049874931573868
0.24282349646091461 0.095262520015239716 0.051535185426473618
0.31369280815124512 0.10108131170272827 0.053683679550886154
0.38409516215324402 0.10731968283653259 0.056069947779178619
0.45274439454078674 0.11423646658658981 0.057292085140943527
0.52748477458953857 0.12283875793218613 0.059338528662919998
