assets/lut/berat filmlook.cube
TITLE "filmlook"
LUT_3D_SIZE 6
DOMAIN_MIN 0.0 0.0 0.0
DOMAIN_MAX 1.0 1.0 1.0
0.006332 0.010712 0.010636
0.073927 0.011157 0.008991
0.296114 0.053696 0.005884
0.535754 0.117581 0.005942
0.656748 0.141301 0.006488
0.740108 0.152819 0.006806
0.011121 0.087141 0.033970
0.069366 0.083391 0.027573
0.249204 0.098273 0.008097
0.515240 0.162475 0.006613
0.653711 0.191401 0.006582
0.739843 0.204306 0.006476
0.019106 0.250199 0.125399
0.070882 0.256139 0.129184
0.204177 0.246005 0.095514
0.526718 0.283893 0.005337
0.669505 0.277555 0.005258
0.764146 0.284062 0.005169
0.171468 0.495452 0.284815
0.387013 0.495464 0.237868
0.713033 0.530983 0.019714
0.654314 0.524308 0.077477
0.118871 0.529302 0.308725
0.183581 0.527094 0.304420
0.267002 0.675682 0.389478
0.534356 0.674110 0.328996
0.822512 0.688897 0.162779
0.073458 0.703869 0.420954
0.151451 0.704376 0.418041
0.252155 0.697136 0.404562
0.276829 0.778195 0.437781
0.502727 0.799454 0.389346
0.732964 0.792809 0.373715
0.015617 0.011513 0.018952
0.094539 0.012442 0.016147
0.354025 0.070161 0.013047
0.395456 0.071345 0.059290
0.586436 0.126649 0.061197
0.690380 0.145505 0.060119
0.020092 0.036621 0.081589
0.087487 0.032673 0.079388
0.351293 0.063020 0.059617
0.361199 0.118422 0.065776
0.577252 0.174450 0.059561
0.691494 0.196252 0.058777
0.024333 0.109709 0.101941
0.087900 0.106931 0.098254
0.306966 0.118109 0.069822
0.366357 0.274167 0.089681
0.593864 0.281763 0.056337
0.708692 0.276530 0.056313
0.018895 0.311893 0.225144
0.074509 0.318682 0.228447
0.271268 0.302515 0.170432
0.263741 0.507523 0.327207
0.659669 0.530454 0.127476
0.793027 0.525535 0.047402
0.018418 0.543581 0.381831
0.077032 0.552820 0.386726
0.230969 0.538407 0.358542
0.278038 0.684645 0.446836
0.555612 0.679522 0.380079
0.838093 0.693141 0.196583
0.011848 0.705326 0.496647
0.059917 0.715317 0.500014
0.245050 0.714821 0.472175
0.273918 0.800485 0.511870
0.511813 0.807633 0.444728
0.754158 0.799377 0.418391
0.024372 0.035688 0.100157
0.095353 0.029952 0.095261
0.370962 0.055259 0.069331
0.549951 0.073902 0.205317
0.680806 0.100811 0.137799
0.722129 0.131932 0.127209
0.085366 0.103513 0.226778
0.185025 0.109794 0.241562
0.507436 0.088160 0.221645
0.544778 0.126217 0.210349
0.687907 0.151273 0.149979
0.732240 0.177371 0.144002
0.088143 0.180665 0.261046
0.180854 0.172730 0.252122
0.499036 0.143594 0.225610
0.538109 0.297444 0.258803
0.681985 0.277281 0.207157
0.740240 0.282303 0.194441
0.047452 0.353241 0.348905
0.161005 0.372058 0.361017
0.515021 0.343730 0.273212
0.519895 0.550168 0.383287
0.782208 0.544980 0.193259
0.849913 0.531642 0.166829
0.038513 0.563385 0.480238
0.086231 0.585695 0.498294
0.426057 0.583114 0.428104
0.430927 0.719816 0.519932
0.739171 0.703312 0.411857
0.897313 0.709966 0.206740
0.038513 0.727970 0.591889
0.085908 0.743423 0.602206
0.393229 0.749804 0.563060
0.433165 0.843203 0.612591
0.644565 0.842146 0.527627
0.871278 0.810313 0.435248
0.093464 0.109773 0.251850
0.186025 0.115926 0.267014
0.480238 0.110964 0.269541
0.516556 0.211258 0.430656
0.658543 0.197529 0.420744
0.112870 0.185423 0.379007
0.174281 0.182736 0.376090
0.304736 0.202435 0.412505
0.491252 0.219821 0.432154
0.517383 0.268431 0.441890
0.659414 0.258241 0.434514
0.123063 0.273629 0.428120
0.188437 0.272570 0.425350
0.322481 0.278207 0.442119
0.496165 0.279901 0.446246
0.580400 0.396123 0.508028
0.716968 0.350498 0.467050
0.100866 0.443519 0.548619
0.169814 0.455159 0.561058
0.380437 0.462325 0.561294
0.577397 0.438864 0.534116
0.667023 0.602300 0.592055
0.804169 0.596336 0.564305
0.022163 0.599342 0.613857
0.086108 0.615632 0.628300
0.357831 0.643146 0.639279
0.634287 0.631782 0.608574
0.701533 0.752483 0.635681
0.731836 0.743103 0.581419
0.036418 0.738146 0.672321
0.099283 0.766243 0.696059
0.449123 0.806518 0.727577
0.655719 0.779090 0.663671
0.661611 0.894609 0.741711
0.731919 0.761013 0.645366
0.137003 0.185783 0.396113
0.217330 0.190802 0.405881
0.373081 0.212630 0.438441
0.536291 0.222314 0.452621
0.581714 0.261827 0.545528
0.137244 0.236511 0.490667
0.214403 0.247506 0.501582
0.327821 0.255458 0.529167
0.450755 0.261419 0.530983
0.568038 0.269541 0.545122
0.591843 0.323346 0.561166
0.148837 0.336090 0.553375
0.214616 0.338395 0.554341
0.365923 0.355992 0.580900
0.467418 0.334205 0.560119
0.581372 0.334869 0.563958
0.657655 0.452211 0.633868
0.136257 0.499514 0.672250
0.198997 0.509730 0.683516
0.399440 0.524783 0.691712
0.555831 0.519415 0.686675
0.666417 0.496645 0.662736
0.766384 0.654559 0.742924
0.070694 0.650594 0.754122
0.137251 0.660423 0.765389
0.379551 0.677750 0.775974
0.609103 0.682198 0.768965
0.751184 0.675148 0.751730
0.803917 0.778561 0.776770
0.018702 0.768237 0.794978
0.074479 0.782724 0.809096
0.394486 0.813595 0.827234
0.626033 0.818897 0.819384
0.774991 0.805427 0.793435
0.787881 0.942458 0.869295
0.143701 0.235634 0.506202
0.230366 0.252224 0.523228
0.340039 0.255319 0.546952
0.455786 0.258191 0.544075
0.569335 0.266145 0.556527
0.566979 0.288106 0.620615
0.156091 0.266987 0.576080
0.266540 0.302539 0.612821
0.382499 0.310664 0.642792
0.451682 0.284584 0.614237
0.554192 0.294957 0.620050
0.581268 0.348602 0.634809
0.168718 0.384553 0.660016
0.246275 0.388457 0.661198
0.403897 0.403598 0.680723
0.480741 0.371373 0.657868
0.572189 0.361114 0.640366
0.661368 0.510024 0.745991
0.158012 0.535843 0.766054
0.238811 0.547548 0.778904
0.432219 0.567250 0.792924
0.574455 0.566198 0.797117
0.671953 0.553449 0.780737
0.756865 0.699944 0.877403
0.115648 0.674009 0.841672
0.195825 0.687056 0.856199
0.418518 0.714332 0.884132
0.592263 0.730556 0.907680
0.744595 0.721308 0.888159
0.787982 0.828013 0.936587
0.068293 0.790643 0.892260
0.149020 0.803533 0.905181
0.435584 0.849609 0.949965
0.619590 0.867102 0.966310
0.764599 0.855546 0.956793
0.836866 0.975494 0.995911
0.000000 0.000000 0.000000
0.000000 0.000000 0.000000
0.000000 0.000000 0.000000
0.000000 0.000000 0.000000
0.000000 0.000000 0.000000
