assets/lut/berat peaky blinders.cube
TITLE "peaky blinders"
LUT_3D_SIZE 6
DOMAIN_MIN 0.0 0.0 0.0
DOMAIN_MAX 1.0 1.0 1.0
0.000000 0.000000 0.000000
0.085399 0.000000 0.000000
0.231731 0.000000 0.000000
0.453746 0.000000 0.000000
0.688051 0.000000 0.000000
0.886442 0.000000 0.000000
0.005335 0.091963 0.000000
0.125273 0.089151 0.000000
0.303261 0.086191 0.000000
0.537517 0.086065 0.000000
0.765761 0.086104 0.000000
0.016010 0.114705 0.000000
0.459625 0.258046 0.000000
0.701891 0.264297 0.000000
0.243980 0.276407 0.000000
0.074325 0.283426 0.000000
0.260435 0.286716 0.000024
0.508144 0.292379 0.000000
0.671199 0.506836 0.000000
0.064048 0.509306 0.000000
0.181749 0.523284 0.000000
0.461222 0.526121 0.000098
0.737464 0.532870 0.000000
0.703951 0.547879 0.000000
0.275196 0.773428 0.000000
0.544265 0.772496 0.000084
0.832476 0.774993 0.000109
0.032020 0.787640 0.000000
0.131197 0.804338 0.000000
0.329436 0.811151 0.000000
0.667369 0.000000 0.013336
0.869193 0.000000 0.013336
0.064046 0.013336 0.013336
0.185333 0.013336 0.013336
0.395886 0.013336 0.013336
0.631785 0.013336 0.013336
0.667536 0.013336 0.085399
0.869585 0.013336 0.085399
0.064046 0.026688 0.109378
0.189917 0.026688 0.091266
0.398457 0.026688 0.085399
0.632086 0.026688 0.085399
0.675094 0.103212 0.085399
0.886429 0.106823 0.085399
0.064046 0.140004 0.111613
0.184078 0.133866 0.096672
0.396114 0.129963 0.085399
0.639142 0.126355 0.085399
0.683296 0.302846 0.085399
0.903228 0.317783 0.085399
0.064046 0.318640 0.096324
0.185204 0.324984 0.104215
0.406572 0.327584 0.096792
0.646630 0.337490 0.085399
0.700874 0.535855 0.095226
0.910989 0.554195 0.086728
0.064046 0.553930 0.089806
0.184352 0.568219 0.101608
0.412782 0.570454 0.104168
0.666559 0.572236 0.101615
0.714605 0.776470 0.110035
0.927813 0.783169 0.112219
0.064046 0.800277 0.100507
0.196560 0.814839 0.113723
0.426189 0.815554 0.114961
0.679184 0.811634 0.112071
0.668708 0.000000 0.098741
0.869974 0.000000 0.098741
0.064046 0.013336 0.135024
0.190891 0.013336 0.120715
0.401072 0.013336 0.098741
0.633460 0.013336 0.098741
0.711819 0.013336 0.176943
0.527224 0.023827 0.220856
0.074725 0.032299 0.287609
0.199341 0.026688 0.285088
0.439818 0.026688 0.243011
0.677530 0.026688 0.181337
0.723950 0.100287 0.183995
0.539930 0.129128 0.209749
0.074725 0.163645 0.272904
0.187757 0.136190 0.286365
0.444099 0.122942 0.242672
0.689952 0.121219 0.192052
0.732338 0.303901 0.209813
0.550751 0.314353 0.229090
0.078593 0.319968 0.288262
0.188516 0.340193 0.289071
0.440726 0.334089 0.262269
0.693258 0.340519 0.219113
0.757369 0.545850 0.262429
0.223158 0.550269 0.271636
0.084896 0.563649 0.291846
0.234145 0.576085 0.286281
0.478809 0.575165 0.287651
0.726305 0.580493 0.276540
0.773291 0.779896 0.291920
0.227064 0.790555 0.291285
0.085831 0.809108 0.299186
0.249032 0.821104 0.297748
0.490245 0.818122 0.296241
0.739193 0.813834 0.293010
0.749237 0.000000 0.206032
0.224472 0.022480 0.291587
0.088615 0.018922 0.320654
0.232265 0.013336 0.316409
0.478296 0.013336 0.274962
0.715915 0.013336 0.212412
0.818667 0.013336 0.443658
0.032023 0.066764 0.513152
0.117422 0.049439 0.512949
0.281097 0.026688 0.504665
0.542530 0.026688 0.486817
0.786300 0.026688 0.449636
0.840168 0.099290 0.461229
0.032023 0.195484 0.504167
0.117422 0.182404 0.513808
0.275939 0.129754 0.509072
0.556876 0.118251 0.497511
0.811863 0.116589 0.468416
0.873043 0.298789 0.472720
0.032023 0.362204 0.416242
0.117422 0.376030 0.451089
0.227024 0.360777 0.518206
0.582520 0.328675 0.509797
0.837036 0.334920 0.473447
0.848764 0.551618 0.471870
0.086599 0.545432 0.485879
0.190880 0.565296 0.508561
0.329336 0.581963 0.531460
0.576067 0.576645 0.516046
0.811359 0.588364 0.480322
0.851711 0.780439 0.519006
0.099385 0.777926 0.561265
0.191383 0.804697 0.571876
0.328883 0.825301 0.543869
0.584954 0.814848 0.523454
0.821135 0.812170 0.521067
0.813632 0.000000 0.489639
0.032023 0.058109 0.549259
0.117422 0.041057 0.549109
0.268441 0.013336 0.540785
0.539227 0.013336 0.524483
0.780671 0.013336 0.494645
0.791830 0.013336 0.703624
0.032023 0.095766 0.739477
0.117422 0.079961 0.739359
0.207956 0.031091 0.730905
0.530529 0.026688 0.715624
0.760735 0.026688 0.705476
0.817212 0.099578 0.724247
0.032023 0.220888 0.735023
0.117422 0.208442 0.741105
0.206431 0.153122 0.737264
0.547505 0.116921 0.729663
0.790278 0.117961 0.729469
0.857225 0.298975 0.754524
0.032023 0.411546 0.664984
0.117422 0.419904 0.705408
0.202824 0.391487 0.749926
0.565338 0.330104 0.750578
0.823120 0.334467 0.754165
0.863107 0.543111 0.749557
0.032024 0.596278 0.593139
0.118725 0.615781 0.618562
0.237955 0.627374 0.670531
0.497099 0.601126 0.750170
0.827018 0.580212 0.748423
0.846628 0.779557 0.739062
0.134973 0.792999 0.689484
0.244297 0.812662 0.714626
0.403126 0.819568 0.744092
0.591695 0.816607 0.763352
0.816664 0.809808 0.748226
0.789193 0.000000 0.736083
0.032023 0.086293 0.771664
0.117422 0.070698 0.771456
0.205489 0.021003 0.763183
0.527416 0.013336 0.747710
0.757986 0.013336 0.737307
0.787961 0.013336 0.891524
0.032023 0.116420 0.925375
0.117422 0.101194 0.925359
0.202824 0.051006 0.916845
0.508699 0.026688 0.901897
0.758251 0.026688 0.893080
0.817450 0.100059 0.915673
0.032023 0.240731 0.922566
0.117422 0.229036 0.928343
0.202824 0.174474 0.925514
0.529010 0.119006 0.919100
0.792008 0.119521 0.920800
0.857663 0.302949 0.947902
0.032023 0.441051 0.869046
0.117422 0.447782 0.906200
0.202824 0.416191 0.941408
0.526698 0.342137 0.941990
0.824715 0.337997 0.946926
0.859822 0.547421 0.948530
0.032023 0.644718 0.743542
0.117422 0.664321 0.780289
0.202827 0.669544 0.872377
0.429807 0.626016 0.941629
0.823632 0.583647 0.945874
0.840265 0.779398 0.939464
0.076161 0.830923 0.786476
0.186238 0.850119 0.812171
0.345033 0.855706 0.842974
0.539287 0.847536 0.879033
0.774820 0.822443 0.938384
0.000000 0.000000 0.000000
0.000000 0.000000 0.000000
0.000000 0.000000 0.000000
0.000000 0.000000 0.000000
0.000000 0.000000 0.000000
0.000000 0.000000 0.000000
