assets/lut/berat cinebm4k.cube
# Created by: G'MIC (https://gmic.eu)
TITLE "cinebm4k"
# LUT size
LUT_3D_SIZE 7
# Data domain
DOMAIN_MIN 0.0 0.0 0.0
DOMAIN_MAX 1.0 1.0 1.0
# LUT data points
0.035754036158323288 0.034768257290124893 0.035098657011985779
0.05353878065943718 0.036244500428438187 0.033809136599302292
0.097708262503147125 0.035492483526468277 0.024649705737829208
0.27062469720840454 0.042777281254529953 0.0098261814564466476
0.51329487562179565 0.092571213841438293 0
0.82208865880966187 0.26313307881355286 0
0.88978731632232666 0.30980393290519714 0
0.042063724249601364 0.047854732722043991 0.036087561398744583
0.050995547324419022 0.044566795229911804 0.035049855709075928
0.097074694931507111 0.047197021543979645 0.028459241613745689
0.26068755984306335 0.04847901314496994 0.011169104836881161
0.4978107213973999 0.086107559502124786 0
0.81107014417648315 0.25386980175971985 0
0.88649231195449829 0.30980393290519714 0
0.058342441916465759 0.081923119723796844 0.043372239917516708
0.061443869024515152 0.082040898501873016 0.043441232293844223
0.090992778539657593 0.08052477240562439 0.039413526654243469
0.23714436590671539 0.079252280294895172 0.01813303679227829
0.48442208766937256 0.10938531905412674 0.00033180386526510119
0.80482012033462524 0.26501238346099854 0
0.88830006122589111 0.3222385048866272 0
0.14606106281280518 0.22657476365566254 0.086107634007930756
0.15315419435501099 0.23633067309856415 0.088717095553874969
0.17049810290336609 0.23802013695240021 0.087025664746761322
0.26991364359855652 0.22580838203430176 0.068819575011730194
0.47539415955543518 0.24419653415679932 0.038244735449552536
0.7218669056892395 0.3014492392539978 0.00066486431751400232
0.8856041431427002 0.37919154763221741 0
0.33595502376556396 0.45500865578651428 0.20702041685581207
0.34523826837539673 0.46348929405212402 0.21190148591995239
0.35874572396278381 0.4688057005405426 0.21577420830726624
0.38766711950302124 0.45686072111129761 0.19820235669612885
0.49841165542602539 0.44722887873649597 0.15901385247707367
0.67406326532363892 0.45483213663101196 0.061245787888765335
0.8921579122543335 0.50317603349685669 0.0011028514709323645
0.5722583532333374 0.69867753982543945 0.38862964510917664
0.59262567758560181 0.71736979484558105 0.40601453185081482
0.60623687505722046 0.72677159309387207 0.41400995850563049
0.59539473056793213 0.70313966274261475 0.38906335830688477
0.61892366409301758 0.66982322931289673 0.35180491209030151
0.71451812982559204 0.65400791168212891 0.29979398846626282
0.88829648494720459 0.66384655237197876 0.12657883763313293
0.78711771965026855 0.90875202417373657 0.5678260326385498
0.78771704435348511 0.90928566455841064 0.56819784641265869
0.78780883550643921 0.90829801559448242 0.56741517782211304
0.79058045148849487 0.90494287014007568 0.56431329250335693
0.80402743816375732 0.89507842063903809 0.5530351996421814
0.84163260459899902 0.88736307621002197 0.53691726922988892
0.93705528974533081 0.8791508674621582 0.48735260963439941
0.034896057099103928 0.038938753306865692 0.054881196469068527
0.046569451689720154 0.039215687662363052 0.051496647298336029
0.090219847857952118 0.037609100341796875 0.038045741617679596
0.25691792368888855 0.043500699102878571 0.011150434613227844
0.5023995041847229 0.0886116623878479 0.00096821505576372147
0.81604278087615967 0.25836503505706787 0
0.88656502962112427 0.30956456065177917 0
0.038835294544696808 0.045600578188896179 0.046271860599517822
0.046660732477903366 0.044896010309457779 0.048047337681055069
0.088373817503452301 0.042507559061050415 0.034390170127153397
0.25321060419082642 0.049555730074644089 0.016100475564599037
0.49437698721885681 0.084405027329921722 0.00063887948635965586
0.81233870983123779 0.25586625933647156 0
0.88573378324508667 0.30764478445053101 0
0.057497031986713409 0.083781912922859192 0.050006356090307236
0.062347635626792908 0.085067927837371826 0.054150868207216263
0.091767556965351105 0.083803750574588776 0.045531686395406723
0.23812757432460785 0.078380286693572998 0.019396433606743813
0.4880557656288147 0.1132822260260582 0.0011560627026483417
0.80906611680984497 0.26898527145385742 0
0.8891294002532959 0.32186651229858398 0
0.13894906640052795 0.22047118842601776 0.085698135197162628
0.14981634914875031 0.22961333394050598 0.092027045786380768
0.17115645110607147 0.23923449218273163 0.09162159264087677
0.27420938014984131 0.23258022964000702 0.072446815669536591
0.47694882750511169 0.24927258491516113 0.041313454508781433
0.72777962684631348 0.30810186266899109 0.0012708925642073154
0.88961374759674072 0.3801690936088562 0
0.32863417267799377 0.44783657789230347 0.20051749050617218
0.34357455372810364 0.45852306485176086 0.21508195996284485
0.36186257004737854 0.47048380970954895 0.21987888216972351
0.38920745253562927 0.45991608500480652 0.19918480515480042
0.50024271011352539 0.45092454552650452 0.16291850805282593
0.68009394407272339 0.4600713849067688 0.070008762180805206
0.89611011743545532 0.50466454029083252 0.0025245368015021086
0.57825100421905518 0.70537710189819336 0.39471882581710815
0.60188943147659302 0.72635102272033691 0.41566509008407593
0.60924214124679565 0.73086750507354736 0.41576084494590759
0.60473299026489258 0.70936870574951172 0.39595523476600647
0.62230443954467773 0.67195868492126465 0.35290318727493286
0.71690517663955688 0.65511316061019897 0.29711717367172241
0.89047348499298096 0.66284418106079102 0.12974004447460175
0.7849724292755127 0.90654104948043823 0.56599682569503784
0.78404486179351807 0.90569204092025757 0.56546473503112793
0.78540194034576416 0.90565943717956543 0.5651976466178894
0.78819578886032104 0.90170598030090332 0.56170225143432617
0.80432379245758057 0.89829015731811523 0.55650866031646729
0.8382190465927124 0.88319045305252075 0.53328007459640503
0.93341213464736938 0.87561160326004028 0.48753613233566284
0.031372550874948502 0.05845661461353302 0.1322513073682785
0.039654571563005447 0.057984191924333572 0.12664802372455597
0.092973552644252777 0.057781804352998734 0.1129615306854248
0.25376215577125549 0.055442869663238525 0.070594608783721924
0.50119704008102417 0.098167940974235535 0.01892516203224659
0.80530416965484619 0.25588697195053101 0.00094369624275714159
0.88430345058441162 0.30990606546401978 0
0.035083338618278503 0.062432907521724701 0.11918152123689651
0.040013659745454788 0.060064040124416351 0.11420057713985443
0.082661949098110199 0.057648200541734695 0.10389440506696701
0.24268035590648651 0.059368565678596497 0.071090340614318848
0.49450239539146423 0.097951523959636688 0.022205816581845284
0.80417650938034058 0.25406733155250549 0.00039014630601741374
0.88605070114135742 0.31277376413345337 0.00049568625399842858
0.056723844259977341 0.091390587389469147 0.10161448270082474
0.058270353823900223 0.092523448169231415 0.10264004021883011
0.090245231986045837 0.09306073933839798 0.098096750676631927
0.24014747142791748 0.088890448212623596 0.07136988639831543
0.49156913161277771 0.12521705031394958 0.033002443611621857
0.8075675368309021 0.27054917812347412 0.00039776074117980897
0.88693678379058838 0.32590895891189575 0.0019973753951489925
0.14024417102336884 0.22846788167953491 0.1111791580915451
0.15650250017642975 0.24889475107192993 0.12232254445552826
0.17197899520397186 0.24990586936473846 0.12192388623952866
0.27014124393463135 0.24089698493480682 0.10302919894456863
0.47904321551322937 0.25455102324485779 0.052759073674678802
0.72970223426818848 0.31022751331329346 0.003547474043443799
0.88542461395263672 0.38656949996948242 6.4176674641203135e-05
0.33381646871566772 0.4536648690700531 0.21472355723381042
0.3459109365940094 0.46542438864707947 0.22768662869930267
0.35767033696174622 0.47386398911476135 0.23362624645233154
0.38822236657142639 0.4622250497341156 0.21223554015159607
0.50135225057601929 0.45121946930885315 0.17306029796600342
0.67618978023529053 0.45708486437797546 0.073669031262397766
0.89139902591705322 0.50400435924530029 0.0040440279990434647
0.58209621906280518 0.70720911026000977 0.4033665657043457
0.59825927019119263 0.72407090663909912 0.4178277850151062
0.60333335399627686 0.72799879312515259 0.42340204119682312
0.59678709506988525 0.7037278413772583 0.39854589104652405
0.61831939220428467 0.66732442378997803 0.35273221135139465
0.71037322282791138 0.65044873952865601 0.29758995771408081
0.88347381353378296 0.6555902361869812 0.13056235015392303
0.7819867730140686 0.90384364128112793 0.56889736652374268
0.78273576498031616 0.90449386835098267 0.56944823265075684
0.78119832277297974 0.9024585485458374 0.56807923316955566
0.78428596258163452 0.89907568693161011 0.56287002563476562
0.79846835136413574 0.89372771978378296 0.55273783206939697
0.8240172266960144 0.86570167541503906 0.51737737655639648
0.91918265819549561 0.8616597056388855 0.47440561652183533
0.02024008147418499 0.144486203789711 0.34619748592376709
0.025472693145275116 0.14331461489200592 0.34046640992164612
0.08322162926197052 0.14042536914348602 0.32746216654777527
0.26687720417976379 0.14687129855155945 0.30585092306137085
0.50052928924560547 0.16652192175388336 0.24468493461608887
0.77878004312515259 0.26872393488883972 0.073601275682449341
0.8904920220375061 0.33961117267608643 0.0097292885184288025
0.022338492795825005 0.14026431739330292 0.33143219351768494
0.025978343561291695 0.13725367188453674 0.327638179063797
0.073996134102344513 0.1325882226228714 0.31257244944572449
0.24268677830696106 0.13706722855567932 0.29397624731063843
0.49485152959823608 0.1633337140083313 0.23595711588859558
0.7880135178565979 0.27587845921516418 0.074993401765823364
0.89068585634231567 0.34453600645065308 0.02011546678841114
0.044734325259923935 0.14806574583053589 0.29787918925285339
0.0465102419257164 0.15178224444389343 0.29908847808837891
0.080239333212375641 0.15654750168323517 0.30180773138999939
0.23882055282592773 0.1586032509803772 0.28765216469764709
0.49083361029624939 0.18443299829959869 0.24525091052055359
0.80075359344482422 0.29797479510307312 0.090699933469295502
0.89339107275009155 0.35643982887268066 0.043507862836122513
0.13980017602443695 0.26638326048851013 0.27937501668930054
0.14548188447952271 0.27345249056816101 0.29230758547782898
0.1767602264881134 0.28603708744049072 0.2971971333026886
0.26544991135597229 0.27376934885978699 0.27495911717414856
0.46842929720878601 0.27154833078384399 0.23270806670188904
0.72004830837249756 0.32726788520812988 0.13096235692501068
0.89320158958435059 0.40167608857154846 0.016088763251900673
0.32612541317939758 0.45848679542541504 0.31174197793006897
0.33920753002166748 0.4736081063747406 0.31868678331375122
0.34906807541847229 0.47866040468215942 0.32550844550132751
0.38961717486381531 0.46822503209114075 0.31371158361434937
0.49011728167533875 0.45409226417541504 0.27771168947219849
0.67232871055603027 0.46566331386566162 0.21914289891719818
0.89304172992706299 0.5042954683303833 0.024544211104512215
0.56847155094146729 0.6988523006439209 0.43705007433891296
0.58686190843582153 0.71770691871643066 0.45843148231506348
0.59514135122299194 0.72401458024978638 0.46081742644309998
0.57997769117355347 0.69228744506835938 0.43321332335472107
0.59980803728103638 0.65604609251022339 0.39365857839584351
0.6947324275970459 0.64012026786804199 0.35256710648536682
0.86503487825393677 0.64531487226486206 0.21240562200546265
0.78089994192123413 0.90303295850753784 0.58717995882034302
0.78422081470489502 0.90593641996383667 0.59329366683959961
0.78409469127655029 0.90580302476882935 0.59056955575942993
0.78509020805358887 0.90141189098358154 0.58217465877532959
0.7902570366859436 0.88703745603561401 0.56581300497055054
0.80932307243347168 0.85507535934448242 0.52904772758483887
0.88814592361450195 0.83475929498672485 0.47782036662101746
0.0019011105177924037 0.39982840418815613 0.65225708484649658
0.0035865635145455599 0.3917497992515564 0.64323747158050537
0.052146956324577332 0.38003849983215332 0.62962144613265991
0.24313803017139435 0.35533463954925537 0.59347045421600342
0.49227389693260193 0.33657735586166382 0.54415285587310791
0.76590746641159058 0.37204894423484802 0.48686006665229797
0.90353703498840332 0.42515337467193604 0.43856337666511536
0.0023485668934881687 0.37353843450546265 0.62178301811218262
0.0046769087202847004 0.36659497022628784 0.61521762609481812
0.046126436442136765 0.36117804050445557 0.607879638671875
0.22669510543346405 0.34443467855453491 0.58329135179519653
0.48803028464317322 0.33613830804824829 0.54630458354949951
0.78042435646057129 0.38375052809715271 0.49682137370109558
0.90441608428955078 0.43686240911483765 0.4760403037071228
0.02428252249956131 0.33908647298812866 0.5741608738899231
0.025610171258449554 0.34452548623085022 0.57874715328216553
0.061805110424757004 0.3538108766078949 0.58683651685714722
0.22928805649280548 0.34902596473693848 0.57505583763122559
0.49061465263366699 0.35071542859077454 0.55086147785186768
0.79706627130508423 0.40339666604995728 0.50862789154052734
0.90588009357452393 0.45015382766723633 0.49845072627067566
0.11989524960517883 0.36140528321266174 0.52390807867050171
0.13508181273937225 0.37759813666343689 0.53618395328521729
0.15505808591842651 0.38624778389930725 0.54345005750656128
0.25260823965072632 0.37522667646408081 0.53133970499038696
0.46225160360336304 0.37192025780677795 0.50928401947021484
0.71675372123718262 0.40412765741348267 0.47775548696517944
0.90709662437438965 0.46685582399368286 0.43785974383354187
0.31775525212287903 0.49226841330528259 0.4992554783821106
0.33099061250686646 0.50589317083358765 0.51237779855728149
0.3384062647819519 0.51008009910583496 0.51759243011474609
0.37299913167953491 0.5002092719078064 0.50689208507537842
0.48253461718559265 0.48712486028671265 0.48228824138641357
0.66125357151031494 0.49251380562782288 0.45783036947250366
0.89435935020446777 0.53263640403747559 0.38451269268989563
0.55861091613769531 0.70524543523788452 0.55407810211181641
0.57591414451599121 0.71971017122268677 0.56418102979660034
0.57991868257522583 0.72401458024978638 0.57103335857391357
0.56535381078720093 0.69553536176681519 0.5523369312286377
0.58722144365310669 0.65717208385467529 0.51484817266464233
0.68069553375244141 0.64057821035385132 0.4834476113319397
0.84159278869628906 0.64296972751617432 0.42792999744415283
0.77803242206573486 0.90594923496246338 0.65850323438644409
0.77657473087310791 0.90375077724456787 0.65648269653320312
0.78317201137542725 0.9104771614074707 0.65608698129653931
0.78506290912628174 0.90569645166397095 0.64467447996139526
0.77684241533279419 0.87557196617126465 0.61532920598983765
0.78212320804595947 0.82756239175796509 0.57098042964935303
0.85623610019683838 0.80638939142227173 0.52973431348800659
0.00019603056716732681 0.57389533519744873 0.82864540815353394
0.0082642203196883202 0.57307809591293335 0.82787895202636719
0.036014378070831299 0.57863163948059082 0.8327750563621521
0.21129760146141052 0.59725284576416016 0.84949111938476562
0.48046839237213135 0.58859342336654663 0.83550703525543213
0.7592654824256897 0.58894222974777222 0.80613130331039429
0.90720182657241821 0.60685247182846069 0.79220908880233765
0 0.57635313272476196 0.82971906661987305
0.0023436453193426132 0.57288885116577148 0.82698971033096313
0.012369552627205849 0.5761641263961792 0.83049577474594116
0.2006809413433075 0.59549319744110107 0.84819215536117554
0.48371312022209167 0.59250164031982422 0.83746916055679321
0.78154176473617554 0.60614913702011108 0.82430768013000488
0.9094422459602356 0.62904858589172363 0.82477575540542603
0.0002915924706030637 0.57881158590316772 0.82862478494644165
0.0023994296789169312 0.58023703098297119 0.8296349048614502
0.022051537409424782 0.58481287956237793 0.83366531133651733
0.2036823183298111 0.60044842958450317 0.84856688976287842
0.48726245760917664 0.59940075874328613 0.8416600227355957
0.80333983898162842 0.61676120758056641 0.83043605089187622
0.90672272443771362 0.63488984107971191 0.8328748345375061
0.088968925178050995 0.57045912742614746 0.79789775609970093
0.094714194536209106 0.58832734823226929 0.81722748279571533
0.11161278933286667 0.59877961874008179 0.82547289133071899
0.23269617557525635 0.59012162685394287 0.81597238779067993
0.45611003041267395 0.57719975709915161 0.79822206497192383
0.72085952758789062 0.58880507946014404 0.78826737403869629
0.91193240880966187 0.62344163656234741 0.78861945867538452
0.30664077401161194 0.59017598628997803 0.731589674949646
0.31971931457519531 0.61153912544250488 0.7547881007194519
0.32876887917518616 0.62063729763031006 0.7648317813873291
0.36119627952575684 0.6019899845123291 0.74462485313415527
0.47643673419952393 0.57996803522109985 0.71211177110671997
0.65707087516784668 0.57753896713256836 0.69442486763000488
0.89409202337265015 0.60909032821655273 0.68047016859054565
0.55090653896331787 0.74084740877151489 0.742534339427948
0.57025647163391113 0.76298195123672485 0.76286530494689941
0.56874567270278931 0.75903189182281494 0.75983947515487671
0.55104571580886841 0.72466826438903809 0.72696459293365479
0.58112025260925293 0.6900450587272644 0.68596982955932617
0.66804587841033936 0.66752415895462036 0.65344059467315674
0.82910585403442383 0.6660001277923584 0.62602841854095459
0.78411388397216797 0.92949265241622925 0.80137479305267334
0.78171074390411377 0.92748308181762695 0.80198746919631958
0.785594642162323 0.93017172813415527 0.79621893167495728
0.78026288747787476 0.91514110565185547 0.76152414083480835
0.75940626859664917 0.87324661016464233 0.71518385410308838
0.76930123567581177 0.82447695732116699 0.67313897609710693
0.84111028909683228 0.80371665954589844 0.64399063587188721
0.0019159504445269704 0.57482731342315674 0.82910436391830444
0.025077968835830688 0.57254904508590698 0.82745099067687988
0.082780428230762482 0.58113008737564087 0.83546066284179688
0.20280294120311737 0.59767156839370728 0.85187143087387085
0.47406989336013794 0.60615658760070801 0.85486459732055664
0.76949179172515869 0.62564480304718018 0.85006129741668701
0.90612930059432983 0.64286887645721436 0.84376269578933716
0.00071375229163095355 0.57743501663208008 0.83043187856674194
0.0049823238514363766 0.57319504022598267 0.82541602849960327
0.035724356770515442 0.57833468914031982 0.83175492286682129
0.21023721992969513 0.59897643327713013 0.85048669576644897
0.49315795302391052 0.60779112577438354 0.85109782218933105
0.78997308015823364 0.62792140245437622 0.84844279289245605
0.90629440546035767 0.64298558235168457 0.84313726425170898
0.0055584479123353958 0.58110600709915161 0.83041399717330933
0.011138033121824265 0.58454090356826782 0.83165723085403442
0.038754481822252274 0.59059399366378784 0.83785337209701538
0.22190918028354645 0.60463452339172363 0.85061275959014893
0.50020450353622437 0.61178958415985107 0.85103952884674072
0.80965828895568848 0.63397812843322754 0.84915274381637573
0.90431392192840576 0.64433532953262329 0.84705883264541626
0.10517136752605438 0.61295211315155029 0.84221339225769043
0.10816113650798798 0.61786377429962158 0.84766536951065063
0.12893994152545929 0.62127286195755005 0.84789246320724487
0.25032392144203186 0.62351542711257935 0.85098040103912354
0.4716084897518158 0.62842082977294922 0.85420876741409302
0.73296242952346802 0.63895106315612793 0.85287117958068848
0.90979331731796265 0.65961593389511108 0.84705883264541626
0.30357074737548828 0.67342257499694824 0.85614824295043945
0.31501835584640503 0.68219196796417236 0.85652762651443481
0.32569071650505066 0.68254059553146362 0.85761004686355591
0.35888954997062683 0.67374765872955322 0.85284733772277832
0.47906073927879333 0.6700279712677002 0.85331082344055176
0.66147810220718384 0.67451024055480957 0.85390466451644897
0.89689940214157104 0.69318580627441406 0.8481716513633728
0.55108767747879028 0.7871406078338623 0.86790305376052856
0.56733548641204834 0.79817092418670654 0.86903762817382812
0.56813907623291016 0.79936671257019043 0.87007135152816772
0.55186623334884644 0.77821308374404907 0.86615538597106934
0.57455092668533325 0.75361770391464233 0.85859590768814087
0.66556882858276367 0.74190229177474976 0.85348570346832275
0.82307696342468262 0.74086779356002808 0.84506499767303467
0.78721708059310913 0.94827961921691895 0.88235294818878174
0.77960604429244995 0.94213390350341797 0.88235294818878174
0.78712630271911621 0.94825619459152222 0.88232260942459106
0.77623361349105835 0.93687570095062256 0.88151901960372925
0.75049585103988647 0.89904510974884033 0.87129634618759155
0.75221151113510132 0.85517895221710205 0.85097414255142212
0.83152168989181519 0.83491003513336182 0.82757532596588135
