assets/lut/berat monochrome.cube
# Created by: G'MIC (https://gmic.eu)
TITLE "monochrome"
# LUT size
LUT_3D_SIZE 5
# Data domain
DOMAIN_MIN 0.0 0.0 0.0
DOMAIN_MAX 1.0 1.0 1.0
# LUT data points
0.01607380248606205 0.01607380248606205 0.01607380248606205
0.041379053145647049 0.041379053145647049 0.041379053145647049
0.074141092598438263 0.074141092598438263 0.074141092598438263
0.12195818871259689 0.12195818871259689 0.12195818871259689
0.19391751289367676 0.19391751289367676 0.19391751289367676
0.14504852890968323 0.14504852890968323 0.14504852890968323
0.21823506057262421 0.21823506057262421 0.21823506057262421
0.30668172240257263 0.30668172240257263 0.30668172240257263
0.39061400294303894 0.39061400294303894 0.39061400294303894
0.47204357385635376 0.47204357385635376 0.47204357385635376
0.41286149621009827 0.41286149621009827 0.41286149621009827
0.49726054072380066 0.49726054072380066 0.49726054072380066
0.58050662279129028 0.58050662279129028 0.58050662279129028
0.64843213558197021 0.64843213558197021 0.64843213558197021
0.70954781770706177 0.70954781770706177 0.70954781770706177
0.66957944631576538 0.66957944631576538 0.66957944631576538
0.72437912225723267 0.72437912225723267 0.72437912225723267
0.77435630559921265 0.77435630559921265 0.77435630559921265
0.81240189075469971 0.81240189075469971 0.81240189075469971
0.84570032358169556 0.84570032358169556 0.84570032358169556
0.82937324047088623 0.82937324047088623 0.82937324047088623
0.85918730497360229 0.85918730497360229 0.85918730497360229
0.8851851224899292 0.8851851224899292 0.8851851224899292
0.90734022855758667 0.90734022855758667 0.90734022855758667
0.93333494663238525 0.93333494663238525 0.93333494663238525
0.028057966381311417 0.028057966381311417 0.028057966381311417
0.052197340875864029 0.052197340875864029 0.052197340875864029
0.090627975761890411 0.090627975761890411 0.090627975761890411
0.14888979494571686 0.14888979494571686 0.14888979494571686
0.22750109434127808 0.22750109434127808 0.22750109434127808
0.17401891946792603 0.17401891946792603 0.17401891946792603
0.25225082039833069 0.25225082039833069 0.25225082039833069
0.33897572755813599 0.33897572755813599 0.33897572755813599
0.4232642650604248 0.4232642650604248 0.4232642650604248
0.50479894876480103 0.50479894876480103 0.50479894876480103
0.44916814565658569 0.44916814565658569 0.44916814565658569
0.53022152185440063 0.53022152185440063 0.53022152185440063
0.60627323389053345 0.60627323389053345 0.60627323389053345
0.67342829704284668 0.67342829704284668 0.67342829704284668
0.73170983791351318 0.73170983791351318 0.73170983791351318
0.69510746002197266 0.69510746002197266 0.69510746002197266
0.74839925765991211 0.74839925765991211 0.74839925765991211
0.79406195878982544 0.79406195878982544 0.79406195878982544
0.83065569400787354 0.83065569400787354 0.83065569400787354
0.86311030387878418 0.86311030387878418 0.86311030387878418
0.84345442056655884 0.84345442056655884 0.84345442056655884
0.87287300825119019 0.87287300825119019 0.87287300825119019
0.8997158408164978 0.8997158408164978 0.8997158408164978
0.92240810394287109 0.92240810394287109 0.92240810394287109
0.94927787780761719 0.94927787780761719 0.94927787780761719
0.039774443954229355 0.039774443954229355 0.039774443954229355
0.069891475141048431 0.069891475141048431 0.069891475141048431
0.11549869924783707 0.11549869924783707 0.11549869924783707
0.1821635514497757 0.1821635514497757 0.1821635514497757
0.26380059123039246 0.26380059123039246 0.26380059123039246
0.20567218959331512 0.20567218959331512 0.20567218959331512
0.28686779737472534 0.28686779737472534 0.28686779737472534
0.37395665049552917 0.37395665049552917 0.37395665049552917
0.46129059791564941 0.46129059791564941 0.46129059791564941
0.5422978401184082 0.5422978401184082 0.5422978401184082
0.48710831999778748 0.48710831999778748 0.48710831999778748
0.56338334083557129 0.56338334083557129 0.56338334083557129
0.63767987489700317 0.63767987489700317 0.63767987489700317
0.70207124948501587 0.70207124948501587 0.70207124948501587
0.75447869300842285 0.75447869300842285 0.75447869300842285
0.72312021255493164 0.72312021255493164 0.72312021255493164
0.77393096685409546 0.77393096685409546 0.77393096685409546
0.8169524073600769 0.8169524073600769 0.8169524073600769
0.85080105066299438 0.85080105066299438 0.85080105066299438
0.87800389528274536 0.87800389528274536 0.87800389528274536
0.85842537879943848 0.85842537879943848 0.85842537879943848
0.89027678966522217 0.89027678966522217 0.89027678966522217
0.91780382394790649 0.91780382394790649 0.91780382394790649
0.94050860404968262 0.94050860404968262 0.94050860404968262
0.96272009611129761 0.96272009611129761 0.96272009611129761
0.055309176445007324 0.055309176445007324 0.055309176445007324
0.089533649384975433 0.089533649384975433 0.089533649384975433
0.13877071440219879 0.13877071440219879 0.13877071440219879
0.21300114691257477 0.21300114691257477 0.21300114691257477
0.29753687977790833 0.29753687977790833 0.29753687977790833
0.23684974014759064 0.23684974014759064 0.23684974014759064
0.32476681470870972 0.32476681470870972 0.32476681470870972
0.4073239266872406 0.4073239266872406 0.4073239266872406
0.49313604831695557 0.49313604831695557 0.49313604831695557
0.57243818044662476 0.57243818044662476 0.57243818044662476
0.51645040512084961 0.51645040512084961 0.51645040512084961
0.59496992826461792 0.59496992826461792 0.59496992826461792
0.66490906476974487 0.66490906476974487 0.66490906476974487
0.72641313076019287 0.72641313076019287 0.72641313076019287
0.77582573890686035 0.77582573890686035 0.77582573890686035
0.74329173564910889 0.74329173564910889 0.74329173564910889
0.79336196184158325 0.79336196184158325 0.79336196184158325
0.83399385213851929 0.83399385213851929 0.83399385213851929
0.86746871471405029 0.86746871471405029 0.86746871471405029
0.89267086982727051 0.89267086982727051 0.89267086982727051
0.87487167119979858 0.87487167119979858 0.87487167119979858
0.90249800682067871 0.90249800682067871 0.90249800682067871
0.92992871999740601 0.92992871999740601 0.92992871999740601
0.95446968078613281 0.95446968078613281 0.95446968078613281
0.97611516714096069 0.97611516714096069 0.97611516714096069
0.069847226142883301 0.069847226142883301 0.069847226142883301
0.10439758002758026 0.10439758002758026 0.10439758002758026
0.165927454829216 0.165927454829216 0.165927454829216
0.24095471203327179 0.24095471203327179 0.24095471203327179
0.32657817006111145 0.32657817006111145 0.32657817006111145
0.26766946911811829 0.26766946911811829 0.26766946911811829
0.35240334272384644 0.35240334272384644 0.35240334272384644
0.43674322962760925 0.43674322962760925 0.43674322962760925
0.51987707614898682 0.51987707614898682 0.51987707614898682
0.60259675979614258 0.60259675979614258 0.60259675979614258
0.54550272226333618 0.54550272226333618 0.54550272226333618
0.61942166090011597 0.61942166090011597 0.61942166090011597
0.68705600500106812 0.68705600500106812 0.68705600500106812
0.74402010440826416 0.74402010440826416 0.74402010440826416
0.7957303524017334 0.7957303524017334 0.7957303524017334
0.76664549112319946 0.76664549112319946 0.76664549112319946
0.80827301740646362 0.80827301740646362 0.80827301740646362
0.84479600191116333 0.84479600191116333 0.84479600191116333
0.8786812424659729 0.8786812424659729 0.8786812424659729
0.90526652336120605 0.90526652336120605 0.90526652336120605
0.88550835847854614 0.88550835847854614 0.88550835847854614
0.9105713963508606 0.9105713963508606 0.9105713963508606
0.93724662065505981 0.93724662065505981 0.93724662065505981
0.96442246437072754 0.96442246437072754 0.96442246437072754
0.9857943058013916 0.9857943058013916 0.9857943058013916
