assets/lut/berat cinebm4k.cube
# Created by: G'MIC (https://gmic.eu)
TITLE "cinebm4k"
# LUT size
LUT_3D_SIZE 5
# Data domain
DOMAIN_MIN 0.0 0.0 0.0
DOMAIN_MAX 1.0 1.0 1.0
# LUT data points
0.035754036158323288 0.034768257290124893 0.035098657011985779
0.06453559547662735 0.035776656121015549 0.030968863517045975
0.27062469720840454 0.042777281254529953 0.0098261814564466476
0.65569537878036499 0.15621943771839142 0
0.88978731632232666 0.30980393290519714 0
0.046253010630607605 0.057143639773130417 0.036654453724622726
0.061515644192695618 0.054867882281541824 0.035487230867147446
0.2507081925868988 0.058487266302108765 0.013667147606611252
0.63876509666442871 0.15374009311199188 0
0.88870346546173096 0.3119455873966217 0
0.14606106281280518 0.22657476365566254 0.086107634007930756
0.15875379741191864 0.23907269537448883 0.089604713022708893
0.26991364359855652 0.22580838203430176 0.068819575011730194
0.58678293228149414 0.25862625241279602 0.013406775891780853
0.8856041431427002 0.37919154763221741 0
0.44004514813423157 0.56646323204040527 0.28265795111656189
0.46320515871047974 0.58581763505935669 0.2991790771484375
0.47805240750312805 0.57192212343215942 0.28184196352958679
0.60622906684875488 0.54908668994903564 0.22171925008296967
0.89240211248397827 0.57726281881332397 0.01781565323472023
0.78711771965026855 0.90875202417373657 0.5678260326385498
0.7877357006072998 0.9092833399772644 0.56828188896179199
0.79058045148849487 0.90494287014007568 0.56431329250335693
0.81697803735733032 0.88766980171203613 0.54307597875595093
0.93705528974533081 0.8791508674621582 0.48735260963439941
0.031776517629623413 0.042478270828723907 0.074826225638389587
0.058622829616069794 0.042591258883476257 0.068602725863456726
0.2547818124294281 0.04484761506319046 0.021472392603754997
0.64661121368408203 0.15696163475513458 0.0002333248412469402
0.8851933479309082 0.30756261944770813 0
0.042958818376064301 0.060682632029056549 0.064976200461387634
0.060590513050556183 0.060080539435148239 0.062338706105947495
0.24361777305603027 0.057531155645847321 0.028276331722736359
0.64144241809844971 0.1600547730922699 0.0004923652159050107
0.88715016841888428 0.31232151389122009 0
0.13838636875152588 0.22310096025466919 0.092377021908760071
0.16530929505825043 0.24784111976623535 0.10040419548749924
0.27325516939163208 0.23969902098178864 0.080045543611049652
0.59072285890579224 0.26573479175567627 0.012576728127896786
0.88620734214782715 0.38336211442947388 0
0.44579777121543884 0.5709984302520752 0.28796446323394775
0.46642270684242249 0.59076452255249023 0.30444997549057007
0.48170572519302368 0.57677853107452393 0.28963950276374817
0.60688948631286621 0.55219405889511108 0.22359590232372284
0.88992518186569214 0.57766443490982056 0.019942160695791245
0.78409838676452637 0.90569990873336792 0.56504726409912109
0.78386974334716797 0.90551692247390747 0.56843662261962891
0.78920888900756836 0.90426206588745117 0.56438803672790527
0.81169760227203369 0.88328349590301514 0.53830361366271973
0.92828184366226196 0.86988896131515503 0.48147296905517578
0.02024008147418499 0.144486203789711 0.34619748592376709
0.044977582991123199 0.14062099158763885 0.33296364545822144
0.26687720417976379 0.14687129855155945 0.30585092306137085
0.62907129526138306 0.20253333449363708 0.18655790388584137
0.8904920220375061 0.33961117267608643 0.0097292885184288025
0.029646944254636765 0.13661375641822815 0.31589645147323608
0.043325342237949371 0.13892988860607147 0.31509378552436829
0.24039866030216217 0.14338125288486481 0.29423892498016357
0.63309782743453979 0.20675109326839447 0.18824267387390137
0.89344173669815063 0.34955275058746338 0.042757641524076462
0.13980017602443695 0.26638326048851013 0.27937501668930054
0.16212762892246246 0.28512224555015564 0.29615575075149536
0.26544991135597229 0.27376934885978699 0.27495911717414856
0.58361363410949707 0.28969183564186096 0.19804421067237854
0.89320158958435059 0.40167608857154846 0.016088763251900673
0.43743574619293213 0.56979262828826904 0.36263701319694519
0.45650121569633484 0.59023916721343994 0.37536793947219849
0.47265404462814331 0.57308948040008545 0.36028590798377991
0.59615910053253174 0.54943537712097168 0.31093809008598328
0.87800139188766479 0.56968945264816284 0.087794087827205658
0.78089994192123413 0.90303295850753784 0.58717995882034302
0.78430318832397461 0.90589636564254761 0.59409666061401367
0.78509020805358887 0.90141189098358154 0.58217465877532959
0.79047495126724243 0.86700457334518433 0.54494845867156982
0.88814592361450195 0.83475929498672485 0.47782036662101746
0 0.55412971973419189 0.80901062488555908
0.0034242069814354181 0.54096037149429321 0.79565078020095825
0.22538472712039948 0.50630342960357666 0.75622892379760742
0.6141732931137085 0.45257571339607239 0.67134004831314087
0.90545225143432617 0.5062553882598877 0.62862807512283325
0.00037470797542482615 0.51425141096115112 0.766326904296875
0.0023226868361234665 0.51283502578735352 0.76456689834594727
0.21581809222698212 0.4970371425151825 0.74704253673553467
0.63294923305511475 0.47887387871742249 0.69737237691879272
0.90647357702255249 0.54701507091522217 0.69805854558944702
0.10954879969358444 0.45082399249076843 0.65485239028930664
0.12286946922540665 0.47825890779495239 0.68237340450286865
0.24559301137924194 0.46799567341804504 0.66822594404220581
0.57998138666152954 0.45992037653923035 0.63713115453720093
0.90890228748321533 0.52898633480072021 0.6199224591255188
0.42510554194450378 0.60793220996856689 0.61077463626861572
0.4451751708984375 0.6294437050819397 0.63161790370941162
0.45431318879127502 0.61157876253128052 0.61589556932449341
0.58038002252578735 0.57917928695678711 0.5700109601020813
0.86175596714019775 0.59760504961013794 0.52205079793930054
0.78289794921875 0.91681647300720215 0.71787750720977783
0.77558839321136475 0.90999770164489746 0.71519339084625244
0.78227972984313965 0.90721791982650757 0.69502133131027222
0.76214909553527832 0.84436774253845215 0.63356989622116089
0.84789007902145386 0.80326128005981445 0.58033061027526855
0.0019159504445269704 0.57482731342315674 0.82910436391830444
0.044341560453176498 0.57470858097076416 0.82919573783874512
0.20280294120311737 0.59767156839370728 0.85187143087387085
0.6187431812286377 0.61375719308853149 0.85292786359786987
0.90612930059432983 0.64286887645721436 0.84376269578933716
0.00046343335998244584 0.58023226261138916 0.83132410049438477
0.0047314963303506374 0.5763126015663147 0.82736080884933472
0.2180166095495224 0.60109883546829224 0.85061275959014893
0.64445978403091431 0.61669981479644775 0.85098040103912354
0.90405941009521484 0.64286637306213379 0.84607845544815063
0.10517136752605438 0.61295211315155029 0.84221339225769043
0.11529478430747986 0.62090069055557251 0.84785473346710205
0.25032392144203186 0.62351542711257935 0.85098040103912354
0.59648174047470093 0.63212704658508301 0.85490196943283081
0.90979331731796265 0.65961593389511108 0.84705883264541626
0.42031681537628174 0.72035700082778931 0.86118322610855103
0.44036298990249634 0.73020833730697632 0.86220026016235352
0.4479621946811676 0.71928548812866211 0.85820114612579346
0.57358640432357788 0.70261627435684204 0.85347634553909302
0.85719835758209229 0.71499526500701904 0.85138189792633057
0.78721708059310913 0.94827961921691895 0.88235294818878174
0.78321915864944458 0.94499331712722778 0.88235294818878174
0.77623361349105835 0.93687570095062256 0.88151901960372925
0.7420843243598938 0.87407004833221436 0.86249518394470215
0.83152168989181519 0.83491003513336182 0.82757532596588135
