assets/lut/berat sunlightlove.cube
# Created by: G'MIC (https://gmic.eu)
TITLE "sunlightlove"
# LUT size
LUT_3D_SIZE 5
# Data domain
DOMAIN_MIN 0.0 0.0 0.0
DOMAIN_MAX 1.0 1.0 1.0
# LUT data points
0.042252186685800552 0.038983453065156937 0.038193512707948685
0.10317997634410858 0.041203383356332779 0.030189065262675285
0.33693370223045349 0.050175536423921585 0.0023306603543460369
0.61014318466186523 0.12923049926757812 0
0.88402187824249268 0.30592027306556702 0
0.073381669819355011 0.1063578724861145 0.052268564701080322
0.14363904297351837 0.1186821460723877 0.048817098140716553
0.4021030068397522 0.14415879547595978 0.016404379159212112
0.71477842330932617 0.25339636206626892 4.6045639464864507e-05
0.88902801275253296 0.35177934169769287 0
0.29279693961143494 0.40342250466346741 0.17435915768146515
0.33361342549324036 0.41252067685127258 0.17462240159511566
0.49734634160995483 0.42053210735321045 0.14072327315807343
0.74132370948791504 0.46765777468681335 0.036835119128227234
0.90593010187149048 0.53057771921157837 4.2096307879546657e-05
0.68011927604675293 0.8031160831451416 0.48026052117347717
0.70198994874954224 0.81337058544158936 0.4896966814994812
0.71780890226364136 0.76761621236801147 0.43820875883102417
0.83542340993881226 0.75254315137863159 0.37139946222305298
0.95505422353744507 0.76781833171844482 0.28291085362434387
0.78454959392547607 0.90538161993026733 0.56981825828552246
0.78767651319503784 0.89965587854385376 0.56288522481918335
0.82685834169387817 0.89808356761932373 0.55410540103912354
0.92021489143371582 0.90793526172637939 0.53935915231704712
0.99769163131713867 0.91318762302398682 0.51344215869903564
0.038219287991523743 0.058714788407087326 0.12085824459791183
0.099930226802825928 0.059487629681825638 0.10545181483030319
0.34806954860687256 0.068519219756126404 0.053802758455276489
0.61719685792922974 0.14746019244194031 0.0089533934369683266
0.88504630327224731 0.3159300684928894 0
0.073774613440036774 0.12404716014862061 0.12213143706321716
0.15167240798473358 0.14183439314365387 0.13041932880878448
0.41391530632972717 0.16590346395969391 0.094171158969402313
0.7285035252571106 0.27701207995414734 0.015217441134154797
0.89049941301345825 0.37196674942970276 0.0048343283124268055
0.28787434101104736 0.40451571345329285 0.2193048894405365
0.35222733020782471 0.43382084369659424 0.24277178943157196
0.49387171864509583 0.43436470627784729 0.21923500299453735
0.7514646053314209 0.48269867897033691 0.11286058276891708
0.90589278936386108 0.53635203838348389 0.0093635711818933487
0.68918490409851074 0.81200128793716431 0.50642663240432739
0.69995623826980591 0.81134128570556641 0.51012665033340454
0.70696103572845459 0.76166200637817383 0.45355618000030518
0.83004850149154663 0.74726510047912598 0.39339572191238403
0.9546317458152771 0.76029092073440552 0.31341052055358887
0.78156501054763794 0.9030449390411377 0.58466631174087524
0.7876167893409729 0.89816832542419434 0.57690024375915527
0.81797635555267334 0.89070934057235718 0.56348222494125366
0.91066843271255493 0.90674448013305664 0.55239617824554443
0.99647611379623413 0.91422939300537109 0.53039157390594482
0.024463159963488579 0.15850730240345001 0.36247572302818298
0.10319094359874725 0.16677781939506531 0.36385253071784973
0.36206528544425964 0.1770680695772171 0.3387489914894104
0.62301093339920044 0.23417428135871887 0.31230887770652771
0.89586633443832397 0.37116745114326477 0.19796136021614075
0.069602996110916138 0.21967415511608124 0.37709268927574158
0.15098808705806732 0.25024983286857605 0.40838408470153809
0.42449238896369934 0.26930975914001465 0.3930569589138031
0.74109846353530884 0.34966298937797546 0.37390214204788208
0.90536457300186157 0.43645775318145752 0.35406744480133057
0.30166640877723694 0.4559192955493927 0.43073856830596924
0.34805992245674133 0.4713272750377655 0.45122581720352173
0.50310081243515015 0.47500470280647278 0.43691042065620422
0.75293588638305664 0.51446521282196045 0.4149811863899231
0.91867643594741821 0.56399679183959961 0.36997193098068237
0.6760137677192688 0.80907279253005981 0.59425610303878784
0.67574006319046021 0.79977846145629883 0.58832228183746338
0.68506038188934326 0.74900084733963013 0.54008650779724121
0.81167548894882202 0.73796379566192627 0.51738244295120239
0.95009630918502808 0.74866235256195068 0.46486476063728333
0.77643918991088867 0.90504348278045654 0.65903562307357788
0.78573954105377197 0.90534734725952148 0.64665615558624268
0.82156860828399658 0.90913170576095581 0.63777881860733032
0.90006321668624878 0.9057077169418335 0.61593306064605713
0.9972909688949585 0.92072570323944092 0.59731274843215942
0.010450535453855991 0.35841089487075806 0.59865409135818481
0.09593498706817627 0.36435374617576599 0.60704737901687622
0.37008419632911682 0.35697561502456665 0.58873414993286133
0.63933110237121582 0.39893382787704468 0.60046595335006714
0.90401101112365723 0.49907961487770081 0.62728035449981689
0.05615030974149704 0.40486198663711548 0.63293933868408203
0.15839236974716187 0.44293901324272156 0.66903966665267944
0.4418792724609375 0.46004998683929443 0.6752203106880188
0.76789909601211548 0.53114074468612671 0.70964425802230835
0.91175627708435059 0.61856687068939209 0.78703075647354126
0.29579636454582214 0.5404045581817627 0.65873116254806519
0.3516213595867157 0.57087814807891846 0.69271600246429443
0.50770765542984009 0.5701364278793335 0.6838986873626709
0.764396071434021 0.60251283645629883 0.69427704811096191
0.92053413391113281 0.6499515175819397 0.7227979302406311
0.67501336336135864 0.84328550100326538 0.79215216636657715
0.68028002977371216 0.83676004409790039 0.78804516792297363
0.68676990270614624 0.78214967250823975 0.73529601097106934
0.80114305019378662 0.75681263208389282 0.69687485694885254
0.95140230655670166 0.76778155565261841 0.67962372303009033
0.78741294145584106 0.94171321392059326 0.85248905420303345
0.79216200113296509 0.93590176105499268 0.82407099008560181
0.82156860828399658 0.92426121234893799 0.77504211664199829
0.89431256055831909 0.92344057559967041 0.74911761283874512
0.99882560968399048 0.93112730979919434 0.73385697603225708
0 0.57265818119049072 0.8271174430847168
0.036709729582071304 0.57523888349533081 0.82814282178878784
0.36566227674484253 0.57670128345489502 0.82511991262435913
0.65809708833694458 0.60372781753540039 0.83924216032028198
0.90578365325927734 0.64112991094589233 0.84146654605865479
0.021618517115712166 0.5814744234085083 0.82516217231750488
0.1288541853427887 0.60113775730133057 0.84170866012573242
0.43024426698684692 0.61763745546340942 0.85290688276290894
0.78698170185089111 0.63975757360458374 0.84705883264541626
0.90980392694473267 0.6544719934463501 0.84298557043075562
0.29036229848861694 0.66442906856536865 0.84728538990020752
0.33693164587020874 0.66972976922988892 0.85204112529754639
0.52284890413284302 0.67941862344741821 0.85564976930618286
0.78438383340835571 0.69602113962173462 0.85133808851242065
0.91778647899627686 0.7075541615486145 0.84565967321395874
0.684215247631073 0.87331557273864746 0.87852901220321655
0.68084388971328735 0.86429321765899658 0.87572282552719116
0.68236070871353149 0.81986385583877563 0.87134641408920288
0.79609251022338867 0.80738312005996704 0.86455392837524414
0.95167237520217896 0.81723374128341675 0.85922211408615112
0.78814661502838135 0.94884222745895386 0.88226193189620972
0.79157024621963501 0.94509804248809814 0.88235294818878174
0.82195854187011719 0.94901961088180542 0.88057929277420044
0.89565306901931763 0.94840097427368164 0.87937378883361816
0.99997413158416748 0.9529411792755127 0.88235294818878174
