assets/lut/berat sevsuz.cube
# Created by: G'MIC (https://gmic.eu)
TITLE "sevsuz"
# LUT size
LUT_3D_SIZE 13
# Data domain
DOMAIN_MIN 0.0 0.0 0.0
DOMAIN_MAX 1.0 1.0 1.0
# LUT data points
0.013360700570046902 0.012634336948394775 0.012694250792264938
0.045419041067361832 0.013537866994738579 0.012087489478290081
0.079459428787231445 0.014681573025882244 0.012448973022401333
0.12228012084960938 0.014510629698634148 0.012224249541759491
0.18017943203449249 0.012622159905731678 0.010864437557756901
0.2508978545665741 0.011078164912760258 0.010895358398556709
0.33103659749031067 0.010655377060174942 0.012401655316352844
0.4172128438949585 0.01041520107537508 0.015363670885562897
0.50659680366516113 0.0098504461348056793 0.018192276358604431
0.59654504060745239 0.0084536829963326454 0.019768418744206429
0.68553262948989868 0.0077553843148052692 0.020404158160090446
0.77217453718185425 0.008492443710565567 0.019808869808912277
0.85597950220108032 0.011344805359840393 0.017329316586256027
0.013157668523490429 0.04436245933175087 0.012279435992240906
0.044424302875995636 0.045804042369127274 0.011553072370588779
0.076516531407833099 0.046969842165708542 0.011842885054647923
0.11760419607162476 0.045681778341531754 0.012426682747900486
0.17514839768409729 0.043767441064119339 0.012485160492360592
0.2474360316991806 0.043076042085886002 0.012954816222190857
0.32896992564201355 0.043198127299547195 0.014527055434882641
0.41705802083015442 0.04365844652056694 0.017292860895395279
0.50814205408096313 0.042888909578323364 0.020519556477665901
0.59975719451904297 0.041847258806228638 0.022004880011081696
0.68988668918609619 0.040726948529481888 0.022473368793725967
0.77722078561782837 0.04147006943821907 0.021852022036910057
0.86151373386383057 0.045537836849689484 0.018882391974329948
0.012311898171901703 0.082770660519599915 0.012712142430245876
0.043406706303358078 0.083399951457977295 0.011170151643455029
0.074919171631336212 0.08449237048625946 0.011173263192176819
0.1154155507683754 0.08218664675951004 0.012258178554475307
0.17306055128574371 0.081582076847553253 0.013609238900244236
0.24505016207695007 0.082157045602798462 0.013931094668805599
0.32888033986091614 0.084180481731891632 0.014533189125359058
0.41832020878791809 0.085258528590202332 0.016573693603277206
0.51084864139556885 0.084655091166496277 0.019504023715853691
0.60377299785614014 0.083043985068798065 0.021529179066419601
0.69475531578063965 0.081816338002681732 0.022077612578868866
0.78284710645675659 0.082305803894996643 0.021299280226230621
0.86767256259918213 0.0863775834441185 0.017970738932490349
0.011714082211256027 0.13493327796459198 0.011138841509819031
0.043714188039302826 0.13423500955104828 0.0098049389198422432
0.077051974833011627 0.13440693914890289 0.0097057567909359932
0.11917568743228912 0.13436327874660492 0.010616661980748177
0.1761462390422821 0.13439856469631195 0.011689444072544575
0.24813929200172424 0.13558956980705261 0.011914451606571674
0.3312414288520813 0.13753598928451538 0.01195995882153511
0.42145079374313354 0.13841903209686279 0.013415961526334286
0.51500064134597778 0.13766133785247803 0.015958838164806366
0.60867065191268921 0.13642990589141846 0.018116865307092667
0.70019757747650146 0.13521429896354675 0.019152382388710976
0.78845769166946411 0.13529758155345917 0.018299790099263191
0.87355911731719971 0.13869105279445648 0.015186669304966927
0.012847092933952808 0.19993922114372253 0.0088837863877415657
0.04595039039850235 0.19954541325569153 0.0075314091518521309
0.082174576818943024 0.20009693503379822 0.0080648530274629593
0.12665992975234985 0.2007036954164505 0.009199703112244606
0.18387050926685333 0.20247256755828857 0.0095252841711044312
0.25470173358917236 0.20323243737220764 0.0097483471035957336
0.33690974116325378 0.204610675573349 0.010169773362576962
0.42679733037948608 0.20520129799842834 0.010707885026931763
0.52073270082473755 0.20478940010070801 0.011991179548203945
0.6145479679107666 0.20410250127315521 0.013795441016554832
0.70572596788406372 0.2037804126739502 0.01487579382956028
0.7935110330581665 0.20459896326065063 0.014373719692230225
0.87771111726760864 0.20848727226257324 0.012187119573354721
0.014273953624069691 0.27243348956108093 0.0082901902496814728
0.04920564591884613 0.27495798468589783 0.0068627451546490192
0.087324224412441254 0.27663484215736389 0.0068627451546490192
0.13377971947193146 0.27886489033699036 0.0076232459396123886
0.19188004732131958 0.28096660971641541 0.0091196401044726372
0.26229649782180786 0.28228285908699036 0.0091911768540740013
0.3438991904258728 0.28342288732528687 0.0096021015197038651
0.43387198448181152 0.28399968147277832 0.010199138894677162
0.52800023555755615 0.28414127230644226 0.010784314014017582
0.62177121639251709 0.2845475971698761 0.011118810623884201
0.71181881427764893 0.2858613133430481 0.011841867119073868
0.79759663343429565 0.28921747207641602 0.012244818732142448
0.87965017557144165 0.29516798257827759 0.010940282605588436
0.015337341465055943 0.35396546125411987 0.0096823303028941154
0.051066335290670395 0.35691660642623901 0.0069034951739013195
0.090286150574684143 0.36109942197799683 0.0063183354213833809
0.13770595192909241 0.36504408717155457 0.0066899317316710949
0.19646793603897095 0.3680250346660614 0.0078861908987164497
0.26736366748809814 0.36991745233535767 0.0092372223734855652
0.34956198930740356 0.37144500017166138 0.01115118246525526
0.44062492251396179 0.37176507711410522 0.011952808126807213
0.53555977344512939 0.37201964855194092 0.011692600324749947
0.62999415397644043 0.37333709001541138 0.011484198272228241
0.71894735097885132 0.37689164280891418 0.011278280057013035
0.80211722850799561 0.38288253545761108 0.012156139127910137
0.88166028261184692 0.39071124792098999 0.011587300337851048
0.015042712911963463 0.44006198644638062 0.010440212674438953
0.051159143447875977 0.44522207975387573 0.006695436779409647
0.090895198285579681 0.45125481486320496 0.0045961416326463223
0.13874424993991852 0.45668125152587891 0.0050444509834051132
0.19784273207187653 0.46087893843650818 0.0071408739313483238
0.26953724026679993 0.46315780282020569 0.0097054727375507355
0.35259529948234558 0.46423059701919556 0.012607051059603691
0.44473439455032349 0.46505087614059448 0.014355902560055256
0.54217863082885742 0.46542716026306152 0.014576631598174572
0.6380048394203186 0.46693462133407593 0.013852362520992756
0.72636163234710693 0.47147688269615173 0.012965617701411247
0.80779498815536499 0.4787154495716095 0.012525790371000767
0.88595110177993774 0.48748546838760376 0.012092740274965763
0.01232039462774992 0.5326228141784668 0.0081119909882545471
0.048848245292901993 0.53845465183258057 0.0051872404292225838
0.090197831392288208 0.54532110691070557 0.0041593811474740505
0.13876836001873016 0.55161356925964355 0.004522241186350584
0.19842110574245453 0.55647522211074829 0.0066584120504558086
0.26970699429512024 0.55969679355621338 0.010158793069422245
0.35311806201934814 0.56147867441177368 0.01401017140597105
0.44700321555137634 0.56125032901763916 0.016230415552854538
0.54442757368087769 0.56020063161849976 0.016556743532419205
0.64214545488357544 0.56178975105285645 0.015574212186038494
0.73146849870681763 0.56592923402786255 0.014340643770992756
0.81370621919631958 0.57316523790359497 0.012217174284160137
0.89288145303726196 0.5808408260345459 0.010709441266953945
0.009046248160302639 0.62828439474105835 0.005550638772547245
0.046433527022600174 0.63424211740493774 0.003910738043487072
0.089726515114307404 0.64085787534713745 0.003070577047765255
0.13978739082813263 0.647297203540802 0.0044991136528551579
0.19979627430438995 0.65262722969055176 0.0069960351102054119
0.27081185579299927 0.65642803907394409 0.010778076015412807
0.35319298505783081 0.65867096185684204 0.015193340368568897
0.44617873430252075 0.65791994333267212 0.017818810418248177
0.54431295394897461 0.65614581108093262 0.018338641151785851
0.64194458723068237 0.65603196620941162 0.016662223264575005
0.73338377475738525 0.65883314609527588 0.01473598089069128
0.81853556632995605 0.66395682096481323 0.012196754105389118
0.89985227584838867 0.67008459568023682 0.0094025703147053719
0.0075029558502137661 0.72423166036605835 0.0052126715891063213
0.045920234173536301 0.72998994588851929 0.0042817508801817894
0.091412998735904694 0.73632586002349854 0.0042875250801444054
0.14348796010017395 0.742115318775177 0.0055163814686238766
0.20452971756458282 0.74715697765350342 0.0083902990445494652
0.27546834945678711 0.75071060657501221 0.012141014449298382
0.35661649703979492 0.75224500894546509 0.016257297247648239
0.44823533296585083 0.75131207704544067 0.018695352599024773
0.54529398679733276 0.74883896112442017 0.018885653465986252
0.64230525493621826 0.74732500314712524 0.017078310251235962
0.73489731550216675 0.74824440479278564 0.014936708845198154
0.82240617275238037 0.75105345249176025 0.01243890542536974
0.90606433153152466 0.75514072179794312 0.0097345691174268723
0.0083044013008475304 0.81906187534332275 0.0079442495480179787
0.048931404948234558 0.82441169023513794 0.0067811552435159683
0.096828028559684753 0.82978582382202148 0.0071524824015796185
0.15115258097648621 0.83474498987197876 0.0087745962664484978
0.21344557404518127 0.83884263038635254 0.01142622996121645
0.28490617871284485 0.84144097566604614 0.014939012937247753
0.36570805311203003 0.84198999404907227 0.01793123222887516
0.45521783828735352 0.84056025743484497 0.01974252425134182
0.54976952075958252 0.83763575553894043 0.019630985334515572
0.64527755975723267 0.83511662483215332 0.017804089933633804
0.73787850141525269 0.83414214849472046 0.015930594876408577
0.82663995027542114 0.83490228652954102 0.013616808690130711
0.9117124080657959 0.83672690391540527 0.012416151352226734
0.012175196781754494 0.91177076101303101 0.01437702588737011
0.05636284127831459 0.91652446985244751 0.012996254488825798
0.1063878983259201 0.9209514856338501 0.013347087427973747
0.16268241405487061 0.92489504814147949 0.014904187060892582
0.22649805247783661 0.92775118350982666 0.01737009733915329
0.29838648438453674 0.9290086030960083 0.019914574921131134
0.3785911500453949 0.92860156297683716 0.022128744050860405
0.46588489413261414 0.92655104398727417 0.022893808782100677
0.55791294574737549 0.92323786020278931 0.022313496097922325
0.65110909938812256 0.920032799243927 0.020480915904045105
0.7430119514465332 0.91760241985321045 0.018419543281197548
0.83190435171127319 0.91665112972259521 0.016904957592487335
0.91769987344741821 0.91731423139572144 0.016152177006006241
0.013588235713541508 0.012598942965269089 0.048122946172952652
0.046502012759447098 0.013846304267644882 0.049017332494258881
0.080807492136955261 0.015326256863772869 0.049536041915416718
0.12368925660848618 0.015351538546383381 0.046767067164182663
0.18144835531711578 0.014544782228767872 0.042945459485054016
0.25266054272651672 0.012819252908229828 0.041773628443479538
0.33422067761421204 0.012114506214857101 0.043670818209648132
0.42175358533859253 0.012253929860889912 0.047274794429540634
0.51199495792388916 0.011326943524181843 0.050332490354776382
0.60256743431091309 0.009329209104180336 0.051504127681255341
0.69123977422714233 0.0077273799106478691 0.052591435611248016
0.77655535936355591 0.0078434813767671585 0.053694333881139755
0.85901260375976562 0.010153258219361305 0.052912484854459763
0.014241281896829605 0.045657601207494736 0.047175075858831406
0.047358479350805283 0.047144424170255661 0.046910006552934647
0.07963918149471283 0.047118812799453735 0.047448460012674332
0.1207289919257164 0.046118374913930893 0.045602373778820038
0.17831946909427643 0.044866658747196198 0.042733598500490189
0.25073742866516113 0.043427996337413788 0.043033212423324585
0.33335894346237183 0.043616067618131638 0.044882964342832565
0.42216268181800842 0.043931908905506134 0.048761945217847824
0.51407194137573242 0.04298916831612587 0.052265569567680359
0.60607022047042847 0.040185127407312393 0.05350818857550621
0.69574141502380371 0.038692235946655273 0.054805338382720947
0.78178876638412476 0.039143238216638565 0.055206120014190674
0.86442732810974121 0.04289264976978302 0.053396787494421005
0.01358687411993742 0.084858700633049011 0.048188481479883194
0.045673251152038574 0.085254877805709839 0.046924203634262085
0.077081196010112762 0.084269896149635315 0.047500818967819214
0.11712312698364258 0.082062378525733948 0.046333715319633484
0.17466357350349426 0.080381102859973907 0.046459976583719254
0.24813701212406158 0.080099396407604218 0.04607778787612915
0.33230334520339966 0.082159928977489471 0.04514872282743454
0.42293161153793335 0.082498632371425629 0.047267928719520569
0.5164419412612915 0.081251136958599091 0.05043855682015419
0.60970503091812134 0.078762471675872803 0.05263906717300415
0.70042026042938232 0.077508933842182159 0.053998850286006927
0.78745174407958984 0.078276015818119049 0.053813081234693527
0.87054771184921265 0.083007663488388062 0.051186207681894302
0.013098159804940224 0.13622085750102997 0.048393264412879944
0.044565778225660324 0.13485011458396912 0.046937037259340286
0.076487630605697632 0.13465458154678345 0.047480206936597824
0.11743909120559692 0.13449947535991669 0.046708185225725174
0.17478899657726288 0.13365653157234192 0.046066269278526306
0.24776716530323029 0.13430681824684143 0.043983504176139832
0.33252322673797607 0.13478840887546539 0.042724594473838806
0.42434218525886536 0.1346772313117981 0.043633852154016495
0.51924413442611694 0.13292552530765533 0.04624876007437706
0.61376148462295532 0.13100001215934753 0.048487000167369843
0.70540589094161987 0.13004031777381897 0.049790401011705399
0.79297339916229248 0.13112051784992218 0.049622479826211929
0.87655371427536011 0.13626497983932495 0.046812694519758224
0.0132790207862854 0.20049844682216644 0.046638399362564087
0.046014375984668732 0.20040841400623322 0.044756557792425156
0.080469094216823578 0.20109796524047852 0.046851977705955505
0.1242130920290947 0.20199225842952728 0.047789044678211212
0.18243497610092163 0.20255184173583984 0.04719683900475502
0.25324386358261108 0.20269219577312469 0.044443555176258087
0.33635270595550537 0.20278826355934143 0.041719086468219757
0.42806738615036011 0.20272429287433624 0.04105212539434433
0.52345520257949829 0.20125371217727661 0.04158395528793335
0.61844140291213989 0.19967745244503021 0.042918559163808823
0.7101740837097168 0.19955110549926758 0.043930936604738235
0.79752439260482788 0.2017916738986969 0.043759781867265701
0.88085806369781494 0.20691707730293274 0.041672125458717346
0.013828995637595654 0.27499490976333618 0.045805599540472031
0.047713801264762878 0.27629458904266357 0.043535403907299042
0.084794811904430389 0.2787424623966217 0.044963523745536804
0.13048301637172699 0.28087767958641052 0.047233119606971741
0.18942758440971375 0.28174072504043579 0.048524759709835052
0.26052331924438477 0.28210783004760742 0.04738413542509079
0.34268906712532043 0.28212922811508179 0.045320741832256317
0.43395349383354187 0.28223657608032227 0.042909465730190277
0.52964252233505249 0.28220450878143311 0.041021101176738739
0.62461477518081665 0.28271099925041199 0.039893671870231628
0.71554720401763916 0.28430697321891785 0.039978612214326859
0.8014291524887085 0.28784275054931641 0.039809957146644592
0.88334494829177856 0.2941250205039978 0.03858330100774765
0.013532631099224091 0.35554108023643494 0.047658659517765045
0.047740891575813293 0.35947489738464355 0.043825935572385788
0.085352711379528046 0.36422473192214966 0.043375469744205475
0.1319764256477356 0.36807519197463989 0.044720921665430069
0.19119083881378174 0.37021932005882263 0.047539446502923965
0.26372069120407104 0.37108123302459717 0.049678385257720947
0.34756350517272949 0.37160214781761169 0.050264589488506317
0.44037345051765442 0.37185919284820557 0.049044307321310043
0.53684705495834351 0.37235614657402039 0.046342857182025909
0.63197702169418335 0.37403437495231628 0.043503973633050919
0.72191578149795532 0.37726819515228271 0.041347891092300415
0.80603545904159546 0.38286653161048889 0.040085408836603165
0.88632833957672119 0.39023652672767639 0.038937423378229141
0.011914661154150963 0.44326063990592957 0.047801777720451355
0.045746762305498123 0.44894295930862427 0.043007839471101761
0.083603471517562866 0.4553588330745697 0.040819700807332993
0.13016071915626526 0.46086826920509338 0.042202189564704895
0.18974624574184418 0.4644336998462677 0.046021286398172379
0.26338273286819458 0.46635881066322327 0.050783582031726837
0.34926709532737732 0.46708586812019348 0.054651837795972824
0.44401755928993225 0.46709558367729187 0.05580596998333931
0.54266399145126343 0.46710020303726196 0.053758196532726288
0.63891905546188354 0.46873742341995239 0.050143580883741379
0.7287713885307312 0.47320261597633362 0.046559009701013565
0.81189489364624023 0.48008239269256592 0.043603934347629547
0.89101719856262207 0.4878813624382019 0.041557520627975464
0.0085274195298552513 0.53660315275192261 0.044447522610425949
0.042317260056734085 0.54310822486877441 0.040084194391965866
0.081330224871635437 0.55027574300765991 0.038996107876300812
0.12876981496810913 0.55652892589569092 0.040732439607381821
0.18880076706409454 0.56121611595153809 0.045670632272958755
0.26267310976982117 0.56345164775848389 0.051843352615833282
0.34948587417602539 0.56371390819549561 0.057390715926885605
0.44565513730049133 0.56360292434692383 0.060325458645820618
0.54581087827682495 0.56358438730239868 0.059775467962026596
0.64357244968414307 0.56426000595092773 0.056508712470531464
0.734000563621521 0.56862711906433105 0.052044738084077835
0.81792891025543213 0.57542306184768677 0.047391913831233978
0.89779108762741089 0.58298450708389282 0.043881434947252274
0.0051976521499454975 0.63265091180801392 0.041209787130355835
0.038879796862602234 0.63925522565841675 0.038215592503547668
0.080341994762420654 0.64663213491439819 0.038391336798667908
0.12955217063426971 0.65284335613250732 0.041434448212385178
0.19017127156257629 0.65767896175384521 0.046774126589298248
0.26395922899246216 0.66034513711929321 0.053468037396669388
0.35021230578422546 0.66047853231430054 0.059308025985956192
0.44620391726493835 0.66001027822494507 0.062842994928359985
0.54636609554290771 0.65857589244842529 0.063046924769878387
0.64458310604095459 0.65845203399658203 0.060484644025564194
0.73709022998809814 0.66140925884246826 0.056049961596727371
0.82309657335281372 0.66704314947128296 0.050709683448076248
0.90482282638549805 0.67345112562179565 0.046288974583148956
0.0037039513699710369 0.72895890474319458 0.042533215135335922
0.037341233342885971 0.73535972833633423 0.040322981774806976
0.081864558160305023 0.74186891317367554 0.041472956538200378
0.13367184996604919 0.7477073073387146 0.045254185795783997
0.19559758901596069 0.75218290090560913 0.05072326585650444
0.26908540725708008 0.75469434261322021 0.056697443127632141
0.3540593683719635 0.75509822368621826 0.061857022345066071
0.44852808117866516 0.75338947772979736 0.064747035503387451
0.54753172397613525 0.75080525875091553 0.064918726682662964
0.6456533670425415 0.74946790933609009 0.06258469820022583
0.73923283815383911 0.75059968233108521 0.058546926826238632
0.82730191946029663 0.75394934415817261 0.053795460611581802
0.91079199314117432 0.75842803716659546 0.050055917352437973
0.003856404684484005 0.8235437273979187 0.04942736029624939
0.039856914430856705 0.82943809032440186 0.047561958432197571
0.087394878268241882 0.83536076545715332 0.049334313720464706
0.14181961119174957 0.84011828899383545 0.053011007606983185
0.205301433801651 0.84363263845443726 0.057620014995336533
0.27873498201370239 0.84540921449661255 0.062208991497755051
0.36230361461639404 0.8450888991355896 0.065763123333454132
0.45456597208976746 0.84270769357681274 0.067407779395580292
0.55137580633163452 0.8394850492477417 0.06691373884677887
0.64834195375442505 0.83692312240600586 0.064671941101551056
0.74222695827484131 0.83575969934463501 0.06126842275261879
0.83132266998291016 0.83694028854370117 0.057664759457111359
0.91622269153594971 0.83964306116104126 0.055625975131988525
0.0065333796665072441 0.91581326723098755 0.061535436660051346
0.047158379107713699 0.92103511095046997 0.060339938849210739
0.097387857735157013 0.92563861608505249 0.061630308628082275
0.15401007235050201 0.92945677042007446 0.064468413591384888
0.21887937188148499 0.93191289901733398 0.067851275205612183
0.29258069396018982 0.93264812231063843 0.07066471129655838
0.37489518523216248 0.93160653114318848 0.072379454970359802
0.46456852555274963 0.92875856161117554 0.072586983442306519
0.55866783857345581 0.9248957633972168 0.07144540548324585
0.65364909172058105 0.9211888313293457 0.068794667720794678
0.74685639142990112 0.91897833347320557 0.065811812877655029
0.8361859917640686 0.91800910234451294 0.063584603369235992
0.92173308134078979 0.91843342781066895 0.062767773866653442
0.01322612352669239 0.012069971300661564 0.097011834383010864
0.045676391571760178 0.013429155573248863 0.099248491227626801
0.080326288938522339 0.014386555179953575 0.099236369132995605
0.12353252619504929 0.015051852911710739 0.093668200075626373
0.18236200511455536 0.015309142880141735 0.085105329751968384
0.25618785619735718 0.014122936874628067 0.079578012228012085
0.33944898843765259 0.013389198109507561 0.077306456863880157
0.4286760687828064 0.014655707404017448 0.078661933541297913
0.51993262767791748 0.013697470538318157 0.0802115797996521
0.61078107357025146 0.01073137205094099 0.079327479004859924
0.69863235950469971 0.0089138699695467949 0.08070036768913269
0.78219258785247803 0.0088966069743037224 0.08446858823299408
0.86216968297958374 0.010610423050820827 0.08638802170753479
0.014214444905519485 0.04621538519859314 0.09603157639503479
0.047815628349781036 0.046679012477397919 0.096926763653755188
0.081260740756988525 0.046155381947755814 0.099025294184684753
0.12376408278942108 0.046085506677627563 0.09197109192609787
0.18333309888839722 0.047166593372821808 0.081228189170360565
0.2572953999042511 0.044521450996398926 0.078306205570697784
0.340789794921875 0.043918564915657043 0.077701076865196228
0.43038797378540039 0.044437140226364136 0.079950131475925446
0.52258187532424927 0.043223947286605835 0.081745564937591553
0.61446064710617065 0.040188435465097427 0.08067794144153595
0.70300251245498657 0.038167484104633331 0.081855744123458862
0.78699761629104614 0.039115548133850098 0.084715045988559723
0.86719369888305664 0.042889166623353958 0.085385054349899292
0.013916314579546452 0.08749079704284668 0.095051907002925873
0.047287032008171082 0.086636863648891449 0.09560820460319519
0.079120412468910217 0.084156379103660583 0.099220991134643555
0.11920230090618134 0.082487903535366058 0.093839876353740692
0.17984242737293243 0.081951916217803955 0.086466275155544281
0.25537648797035217 0.081344574689865112 0.082039594650268555
0.34018552303314209 0.081431113183498383 0.078805707395076752
0.43097105622291565 0.081160508096218109 0.078843042254447937
0.52442890405654907 0.078283034265041351 0.080350719392299652
0.61764419078826904 0.075984105467796326 0.080982133746147156
0.70733129978179932 0.074747733771800995 0.08221784234046936
0.79239851236343384 0.077336914837360382 0.083639524877071381
0.8732793927192688 0.083084896206855774 0.082149460911750793
0.013752955943346024 0.13876572251319885 0.097575351595878601
0.046244200319051743 0.13793395459651947 0.097180448472499847
0.076625943183898926 0.13692687451839447 0.0989103764295578
0.11506062000989914 0.13653413951396942 0.095741584897041321
0.17539237439632416 0.13548332452774048 0.090748943388462067
0.25132417678833008 0.13485290110111237 0.083156153559684753
0.337493896484375 0.13456322252750397 0.078012041747570038
0.4301818311214447 0.13235865533351898 0.076551012694835663
0.52566325664520264 0.12925666570663452 0.077301472425460815
0.62035822868347168 0.12725129723548889 0.078169248998165131
0.71142816543579102 0.12747734785079956 0.079304821789264679
