assets/lut/berat western.cube
# Created by: G'MIC (https://gmic.eu)
TITLE "western"
# LUT size
LUT_3D_SIZE 7
# Data domain
DOMAIN_MIN 0.0 0.0 0.0
DOMAIN_MAX 1.0 1.0 1.0
# LUT data points
0.0077205882407724857 0.008461926132440567 0.0077205882407724857
0.045253738760948181 0.0085757384076714516 0.0061704446561634541
0.090101875364780426 0.0039686765521764755 0.0026109882164746523
0.14394178986549377 0.0030637255404144526 0.0030851177871227264
0.19949017465114594 0.0022154415491968393 0.0032332476694136858
0.24445034563541412 0.00037859746953472495 0.00027788948500528932
0.28827661275863647 0.0011829750146716833 0.004171453882008791
0.0051932092756032944 0.042607713490724564 0.0046805734746158123
0.039929840713739395 0.038622237741947174 0.0054573058150708675
0.089677505195140839 0.03529604896903038 0.0031576119363307953
0.1506696343421936 0.036306194961071014 0.0038962271064519882
0.2346193790435791 0.03682568296790123 0.0055969087406992912
0.33811900019645691 0.042154140770435333 0.0046585681848227978
0.44821399450302124 0.053075063973665237 0.0071445242501795292
0.0044900034554302692 0.089358039200305939 0.0050262301228940487
0.04059455543756485 0.099901236593723297 0.0061935875564813614
0.1188829317688942 0.11993883550167084 0.0077205882407724857
0.24432489275932312 0.13636744022369385 0.0077205882407724857
0.4006074070930481 0.14873038232326508 0.0077205882407724857
0.54061752557754517 0.16544707119464874 0.0082971313968300819
0.67964041233062744 0.18475741147994995 0.014647689647972584
0.0031264361459761858 0.23800496757030487 0.00025796328554861248
0.066413357853889465 0.26841840147972107 0.0052320291288197041
0.18657118082046509 0.29595455527305603 0.0098499823361635208
0.35114151239395142 0.31368893384933472 0.012627111747860909
0.52169787883758545 0.32916378974914551 0.013995480723679066
0.65730971097946167 0.34962403774261475 0.016371559351682663
0.76242649555206299 0.37228113412857056 0.025701845064759254
0.011642725206911564 0.44067737460136414 0.00070138071896508336
0.10973493009805679 0.47528541088104248 0.01311988104134798
0.25354236364364624 0.50219345092773438 0.026362085714936256
0.42373692989349365 0.51740550994873047 0.031577166169881821
0.58301174640655518 0.5276760458946228 0.031860038638114929
0.70691448450088501 0.54212850332260132 0.034005723893642426
0.79821503162384033 0.56110453605651855 0.045027114450931549
0.055679142475128174 0.63698846101760864 0.027278061956167221
0.16857077181339264 0.66654390096664429 0.04764016717672348
0.31516695022583008 0.68402743339538574 0.061505202203989029
0.48049777746200562 0.69544672966003418 0.063980922102928162
0.62764114141464233 0.69524872303009033 0.058791276067495346
0.74293828010559082 0.69696325063705444 0.05719032883644104
0.83244431018829346 0.70410090684890747 0.066779524087905884
0.11761882901191711 0.76587098836898804 0.072789058089256287
0.22500258684158325 0.7883918285369873 0.086036562919616699
0.3595367968082428 0.79129642248153687 0.091443397104740143
0.51413559913635254 0.79735434055328369 0.089854836463928223
0.65604096651077271 0.80400639772415161 0.083066560328006744
0.76966607570648193 0.80602091550827026 0.081049181520938873
0.86037027835845947 0.81013625860214233 0.090346768498420715
0.0075870291329920292 0.0069201751612126827 0.04691334068775177
0.042638443410396576 0.0068360720761120319 0.043885502964258194
0.089656338095664978 0.0046568629331886768 0.038411788642406464
0.14784462749958038 0.0043252832256257534 0.0339202880859375
0.19594784080982208 0.0019923790823668242 0.027043720707297325
0.24330127239227295 0.001585537800565362 0.024965159595012665
0.29629582166671753 0.0022327497135847807 0.033099528402090073
0.0040474086999893188 0.038197953253984451 0.03901367262005806
0.03804817795753479 0.034712787717580795 0.039455369114875793
0.091226525604724884 0.036860700696706772 0.040208809077739716
0.15738664567470551 0.036464706063270569 0.037390194833278656
0.24541199207305908 0.04041125625371933 0.038921535015106201
0.34968388080596924 0.047822345048189163 0.0434836745262146
0.4815826416015625 0.059953637421131134 0.050018176436424255
0.0030423032585531473 0.093217708170413971 0.035116996616125107
0.043637804687023163 0.10839091241359711 0.042859591543674469
0.13408654928207397 0.13180811703205109 0.053657710552215576
0.25853928923606873 0.14322812855243683 0.055987488478422165
0.41027736663818359 0.15598559379577637 0.058115474879741669
0.56092417240142822 0.17473194003105164 0.063419029116630554
0.69871783256530762 0.19787077605724335 0.074077397584915161
0.0026126937009394169 0.25009310245513916 0.035385910421609879
0.066444098949432373 0.28215214610099792 0.05000966414809227
0.19276231527328491 0.30843368172645569 0.056670784950256348
0.36053711175918579 0.32343164086341858 0.06711268424987793
0.5278322696685791 0.33854570984840393 0.075315169990062714
0.66158902645111084 0.36050337553024292 0.081555716693401337
0.75929892063140869 0.38453742861747742 0.095224685966968536
0.01346110925078392 0.45911169052124023 0.049568146467208862
0.10706201940774918 0.48502704501152039 0.069854736328125
0.25252494215965271 0.50951802730560303 0.085344560444355011
0.42571023106575012 0.52309596538543701 0.095051243901252747
0.58645868301391602 0.53404802083969116 0.10117834061384201
0.71021360158920288 0.55020350217819214 0.10758749395608902
0.80340117216110229 0.56775009632110596 0.12293892353773117
0.063602715730667114 0.65023493766784668 0.10138591378927231
0.16848942637443542 0.67182856798171997 0.11953239887952805
0.31269219517707825 0.68555384874343872 0.13296030461788177
0.47779950499534607 0.69143593311309814 0.1350243091583252
0.63134068250656128 0.69468039274215698 0.13356252014636993
0.75095981359481812 0.70189225673675537 0.13737376034259796
0.84276276826858521 0.71189254522323608 0.15233759582042694
0.12342340499162674 0.77655184268951416 0.15616199374198914
0.22613072395324707 0.79061806201934814 0.16669127345085144
0.35808470845222473 0.79203987121582031 0.1704556792974472
0.51319414377212524 0.79502904415130615 0.16751553118228912
0.66325026750564575 0.80117273330688477 0.16201679408550262
0.7823752760887146 0.80922204256057739 0.16552452743053436
0.87401425838470459 0.81905603408813477 0.18130920827388763
0.0075999540276825428 0.0045838002115488052 0.096472859382629395
0.044106725603342056 0.0049889059737324715 0.095014877617359161
0.090226143598556519 0.0035174351651221514 0.089290723204612732
0.14441917836666107 0.0024792391341179609 0.080492936074733734
0.18957386910915375 0.0015318627702072263 0.074199855327606201
0.23886528611183167 0.0015085258055478334 0.074658848345279694
0.30012345314025879 0.0015487821074202657 0.081794068217277527
0.0045697381719946861 0.038764700293540955 0.08936590701341629
0.039643380790948868 0.03715088963508606 0.092513062059879303
0.095411323010921478 0.040333166718482971 0.094628579914569855
0.16519388556480408 0.038245946168899536 0.092199720442295074
0.2568075954914093 0.042100165039300919 0.095633968710899353
0.3723505437374115 0.047895796597003937 0.1076756939291954
0.49628159403800964 0.059905588626861572 0.12477626651525497
0.0073358574882149696 0.10020161420106888 0.097658313810825348
0.053724490106105804 0.11920177936553955 0.11192049831151962
0.1461280882358551 0.1421588659286499 0.12836666405200958
0.27899888157844543 0.15212790668010712 0.13393606245517731
0.44624537229537964 0.16410776972770691 0.14395903050899506
0.59260362386703491 0.18090696632862091 0.15834365785121918
0.72123640775680542 0.20315486192703247 0.17828540503978729
0.010118342004716396 0.26126503944396973 0.12426195293664932
0.081809878349304199 0.28904011845588684 0.14225129783153534
0.20520815253257751 0.31649577617645264 0.15549753606319427
0.37278023362159729 0.33174911141395569 0.16667565703392029
0.5448157787322998 0.34636661410331726 0.17977963387966156
0.68073111772537231 0.36685419082641602 0.19295309484004974
0.78097563982009888 0.38959220051765442 0.21212767064571381
0.032128695398569107 0.47453081607818604 0.1634935587644577
0.12374395877122879 0.49580502510070801 0.18228115141391754
0.2614019513130188 0.5155293345451355 0.19510939717292786
0.42893660068511963 0.52578121423721313 0.20301833748817444
0.59023219347000122 0.53598809242248535 0.21193166077136993
0.71770656108856201 0.55217909812927246 0.22275163233280182
0.81319344043731689 0.56988292932510376 0.2397424578666687
0.084872104227542877 0.66442310810089111 0.22552722692489624
0.18473437428474426 0.6845434308052063 0.242842897772789
0.31869184970855713 0.6907879114151001 0.2495155930519104
0.47550022602081299 0.687461256980896 0.24620099365711212
0.62928026914596558 0.69084048271179199 0.24572743475437164
0.75434857606887817 0.70127123594284058 0.25301077961921692
0.84920912981033325 0.71330058574676514 0.26923254132270813
0.13250340521335602 0.77616590261459351 0.27362239360809326
0.23382602632045746 0.79333102703094482 0.28638139367103577
0.35875314474105835 0.79190480709075928 0.28472340106964111
0.51020699739456177 0.79245102405548096 0.27907797694206238
0.66117680072784424 0.79862356185913086 0.27514052391052246
0.78479909896850586 0.80977356433868408 0.28138512372970581
0.88052064180374146 0.82239747047424316 0.29831835627555847
0.0081579620018601418 0.0028033237904310226 0.15519203245639801
0.044148150831460953 0.0030637255404144526 0.15582135319709778
0.088831834495067596 0.0030637255404144526 0.15233469009399414
0.14358809590339661 0.0027628282550722361 0.14471939206123352
0.20087289810180664 0.0022648980375379324 0.14186473190784454
0.25732433795928955 0.001544892555102706 0.14371006190776825
0.31438925862312317 0.00088767259148880839 0.15277391672134399
0.0054106321185827255 0.031712476164102554 0.14929980039596558
0.039763133972883224 0.036528509110212326 0.15546202659606934
0.094846554100513458 0.041007246822118759 0.15923584997653961
0.18320976197719574 0.043424762785434723 0.17131026089191437
0.28871545195579529 0.046172421425580978 0.18622471392154694
0.40933960676193237 0.049406763166189194 0.20683251321315765
0.54628950357437134 0.062577255070209503 0.2382688969373703
0.0080532599240541458 0.10514064133167267 0.1755172461271286
0.060079492628574371 0.12825065851211548 0.20220053195953369
0.15266542136669159 0.1495356410741806 0.22885294258594513
0.29387080669403076 0.16014869511127472 0.24729864299297333
0.45783901214599609 0.1705983430147171 0.26774907112121582
0.61426138877868652 0.18615488708019257 0.29251581430435181
0.74198108911514282 0.20919318497180939 0.32130599021911621
0.016130844131112099 0.27135941386222839 0.24930974841117859
0.092412449419498444 0.29929026961326599 0.27277809381484985
0.21392492949962616 0.32500579953193665 0.29451149702072144
0.37813743948936462 0.33911707997322083 0.3056388795375824
0.55279803276062012 0.35281604528427124 0.32293850183486938
0.69221478700637817 0.37187650799751282 0.34108442068099976
0.78497886657714844 0.39436444640159607 0.36125904321670532
0.040400724858045578 0.48143923282623291 0.31478053331375122
0.13551279902458191 0.50654149055480957 0.33306306600570679
0.26830515265464783 0.52273321151733398 0.34307831525802612
0.43051436543464661 0.53026783466339111 0.34739476442337036
0.59414553642272949 0.53947323560714722 0.35739573836326599
0.72329854965209961 0.55363404750823975 0.37054497003555298
0.81582581996917725 0.56874483823776245 0.38613951206207275
0.089944727718830109 0.67074477672576904 0.37841519713401794
0.1921587735414505 0.69018137454986572 0.39330163598060608
0.32295987010002136 0.69315898418426514 0.39492064714431763
0.47523972392082214 0.6888241171836853 0.38903319835662842
0.62805235385894775 0.69122838973999023 0.38951119780540466
0.75471442937850952 0.70072609186172485 0.39753720164299011
0.8509669303894043 0.7114185094833374 0.41089171171188354
0.13448633253574371 0.78286635875701904 0.4208882749080658
0.23719713091850281 0.79665642976760864 0.43182572722434998
0.36312270164489746 0.79762697219848633 0.42965731024742126
0.50856274366378784 0.79549449682235718 0.42028582096099854
0.65611559152603149 0.80118817090988159 0.41678446531295776
0.78189241886138916 0.81168919801712036 0.4224604070186615
0.88146352767944336 0.82324707508087158 0.43530544638633728
0.0075696161948144436 0.004151033703237772 0.21267427504062653
0.041597973555326462 0.0029624190647155046 0.21052716672420502
0.086352162063121796 0.0025175805203616619 0.20737595856189728
0.14285318553447723 0.0025566101539880037 0.20354317128658295
0.20069505274295807 0.0012115627760067582 0.19848908483982086
0.26331532001495361 0.00073529413202777505 0.20802153646945953
0.34715056419372559 0.0025376861449331045 0.23621676862239838
0.0054435129277408123 0.031958397477865219 0.21066948771476746
0.037997346371412277 0.034176770597696304 0.2140003889799118
0.093303382396697998 0.040402237325906754 0.2230374664068222
0.19017983973026276 0.044845923781394958 0.24811112880706787
0.30631744861602783 0.046534668654203415 0.27553695440292358
0.43707627058029175 0.052218150347471237 0.31246936321258545
0.577048659324646 0.066612184047698975 0.36071646213531494
0.005949072539806366 0.10960081219673157 0.25604823231697083
0.060618173331022263 0.13228122889995575 0.29471275210380554
0.15926258265972137 0.15581583976745605 0.34064912796020508
0.30723828077316284 0.16591055691242218 0.3720240592956543
0.47644150257110596 0.1754227876663208 0.40670713782310486
0.62297147512435913 0.1920720636844635 0.43122875690460205
0.74215841293334961 0.21583651006221771 0.46384358406066895
0.013292963616549969 0.28186461329460144 0.378426194190979
0.09256407618522644 0.30898305773735046 0.40355750918388367
0.22012612223625183 0.3340359628200531 0.43564942479133606
0.3868841826915741 0.34731027483940125 0.45422795414924622
0.55803006887435913 0.36046099662780762 0.47135087847709656
0.69001638889312744 0.37877759337425232 0.48539978265762329
0.77696412801742554 0.40056613087654114 0.503792405128479
0.031279828399419785 0.48397481441497803 0.45197650790214539
0.13303770124912262 0.51277804374694824 0.47397145628929138
0.27034288644790649 0.52879738807678223 0.4872530996799469
0.43450084328651428 0.53652471303939819 0.49559280276298523
0.59692060947418213 0.54576367139816284 0.50564020872116089
0.72468394041061401 0.55774772167205811 0.51654642820358276
0.81336092948913574 0.57131689786911011 0.52855068445205688
0.08068644255399704 0.66804236173629761 0.51393997669219971
0.19121649861335754 0.69106107950210571 0.53458625078201294
0.32439902424812317 0.6935921311378479 0.5377117395401001
0.47725513577461243 0.69120413064956665 0.53374665975570679
0.63104677200317383 0.69462490081787109 0.53585970401763916
0.75767046213150024 0.70223581790924072 0.5437244176864624
0.85158681869506836 0.71106487512588501 0.55327850580215454
0.13212695717811584 0.78839272260665894 0.55865353345870972
0.23937036097049713 0.80058896541595459 0.57500189542770386
0.36424905061721802 0.79961293935775757 0.57331490516662598
0.50902831554412842 0.79953473806381226 0.56313693523406982
0.65582484006881714 0.80553346872329712 0.55930715799331665
0.78170597553253174 0.81428736448287964 0.56463652849197388
0.88150322437286377 0.82366621494293213 0.57431930303573608
0.0063555850647389889 0.0046568629331886768 0.2560141384601593
0.038313772529363632 0.0023638557177037001 0.25151631236076355
0.080973304808139801 0.0015318627702072263 0.24340422451496124
0.13645140826702118 0.0013323316816240549 0.24249961972236633
0.1965678483247757 0.00073529413202777505 0.24198365211486816
0.26170417666435242 0.00073062675073742867 0.25617918372154236
0.35140281915664673 0.0013998143840581179 0.29207402467727661
0.002969210734590888 0.032535165548324585 0.25221338868141174
0.035832066088914871 0.03397103026509285 0.26087111234664917
0.09539012610912323 0.040150318294763565 0.27386075258255005
0.19307014346122742 0.045014802366495132 0.31077900528907776
0.31377765536308289 0.04701295867562294 0.34859940409660339
0.45224824547767639 0.05349363386631012 0.39855623245239258
0.5954248309135437 0.068911083042621613 0.46044185757637024
0.002567545510828495 0.11715482920408249 0.32842209935188293
0.058520928025245667 0.13849151134490967 0.37895277142524719
0.1644212007522583 0.16225758194923401 0.43618237972259521
0.31709721684455872 0.17229939997196198 0.47638252377510071
0.48795643448829651 0.18179908394813538 0.51549059152603149
0.63086730241775513 0.19826443493366241 0.54086840152740479
0.74047023057937622 0.22227796912193298 0.57514768838882446
0.0071667092852294445 0.29031842947006226 0.47211158275604248
0.08770357072353363 0.31982505321502686 0.51543939113616943
0.22377385199069977 0.34410485625267029 0.55316472053527832
0.39671534299850464 0.3567785918712616 0.57571995258331299
0.56553107500076294 0.36837702989578247 0.59024649858474731
0.69096595048904419 0.38632592558860779 0.59600353240966797
0.78085172176361084 0.40659311413764954 0.61525988578796387
0.026987502351403236 0.48970091342926025 0.55767327547073364
0.13013662397861481 0.52067059278488159 0.58629477024078369
0.27350866794586182 0.53624874353408813 0.60416358709335327
0.44203627109527588 0.543670654296875 0.61549443006515503
0.60386353731155396 0.55122464895248413 0.62549883127212524
0.72953277826309204 0.56299775838851929 0.63403570652008057
0.818855881690979 0.57680755853652954 0.64403295516967773
0.080841735005378723 0.66905063390731812 0.62569189071655273
0.19631309807300568 0.69775259494781494 0.65177792310714722
0.33002421259880066 0.69853019714355469 0.65665388107299805
0.48272663354873657 0.69644761085510254 0.6530269980430603
0.63624286651611328 0.69908660650253296 0.6561272144317627
0.76255476474761963 0.70587265491485596 0.66399306058883667
0.85525572299957275 0.71462363004684448 0.67285001277923584
0.13210070133209229 0.78610044717788696 0.6689685583114624
0.24273338913917542 0.80481988191604614 0.69288212060928345
0.36812481284141541 0.80477279424667358 0.69191306829452515
0.51282298564910889 0.80656927824020386 0.68278354406356812
0.65870809555053711 0.81133252382278442 0.68000251054763794
0.78449553251266479 0.81806766986846924 0.68560957908630371
0.88356828689575195 0.82582002878189087 0.69568538665771484
0.0069145052693784237 0.0050745946355164051 0.29037696123123169
0.038689691573381424 0.002133792033419013 0.28500953316688538
0.080732189118862152 0.0024598962627351284 0.282196044921875
0.13078443706035614 0.00054734171135351062 0.27204018831253052
0.20619432628154755 0.0005509320180863142 0.28641596436500549
0.27933099865913391 0.00066746730590239167 0.30975121259689331
0.38609257340431213 0.0053832260891795158 0.35940977931022644
0.0045955884270370007 0.038422409445047379 0.29249686002731323
0.038886874914169312 0.036042261868715286 0.29752472043037415
0.10419968515634537 0.043645568192005157 0.3281497061252594
0.2045053094625473 0.048858746886253357 0.37118062376976013
0.33831027150154114 0.05225888267159462 0.42478343844413757
0.47438335418701172 0.058731589466333389 0.47362694144248962
0.61575126647949219 0.079095758497714996 0.53311562538146973
0.006066011730581522 0.1280214935541153 0.40609505772590637
0.06167888268828392 0.1488349437713623 0.45760557055473328
0.17406865954399109 0.1681445986032486 0.50790864229202271
0.33267247676849365 0.18020707368850708 0.56559973955154419
0.50716638565063477 0.19142605364322662 0.60825520753860474
0.65448039770126343 0.20523086190223694 0.63751351833343506
0.75260257720947266 0.22861009836196899 0.65812563896179199
0.013196384534239769 0.30056977272033691 0.55947065353393555
0.093766622245311737 0.33218628168106079 0.61866873502731323
0.23314818739891052 0.35281360149383545 0.63950240612030029
0.40658509731292725 0.36608442664146423 0.66004043817520142
0.5754578709602356 0.37584695219993591 0.68137681484222412
0.70611238479614258 0.39074617624282837 0.69374525547027588
0.7928612232208252 0.41111704707145691 0.7050933837890625
0.042698100209236145 0.49842515587806702 0.64733409881591797
0.14130634069442749 0.52823424339294434 0.67468804121017456
0.28314173221588135 0.54311615228652954 0.68825811147689819
0.4491182267665863 0.55067145824432373 0.6975102424621582
0.60954689979553223 0.55564504861831665 0.7132689356803894
0.73677909374237061 0.56696420907974243 0.72531145811080933
0.82809972763061523 0.58360201120376587 0.7332499623298645
0.097470223903656006 0.67855715751647949 0.71442514657974243
0.20431062579154968 0.70155423879623413 0.73112118244171143
0.33737140893936157 0.70404267311096191 0.73711127042770386
0.48805668950080872 0.70210027694702148 0.73820215463638306
0.63903695344924927 0.70288479328155518 0.74468344449996948
0.7655213475227356 0.70963960886001587 0.75305205583572388
0.86068058013916016 0.72173666954040527 0.76182186603546143
0.14350622892379761 0.79278135299682617 0.74770617485046387
0.24548500776290894 0.80994480848312378 0.76566547155380249
0.37493249773979187 0.81684988737106323 0.77091878652572632
0.51827764511108398 0.81613701581954956 0.7711174488067627
0.66188341379165649 0.81785863637924194 0.77255946397781372
0.78733396530151367 0.82288855314254761 0.77852356433868408
0.88686954975128174 0.8314058780670166 0.78870153427124023
