assets/lut/berat neatural.cube
TITLE "neatural"
LUT_3D_SIZE 6
DOMAIN_MIN 0.0 0.0 0.0
DOMAIN_MAX 1.0 1.0 1.0
0.000000 0.001129 0.017060
0.094487 0.001511 0.001511
0.197555 0.000000 0.000000
0.347234 0.000000 0.000000
0.519273 0.000000 0.000000
0.000000 0.014923 0.013245
0.045487 0.080250 0.000238
0.139693 0.069056 0.000000
0.274462 0.039010 0.000000
0.458839 0.000000 0.000000
0.678224 0.000000 0.000000
0.046461 0.092876 0.000101
0.099997 0.184376 0.000000
0.236130 0.178784 0.000000
0.433248 0.147296 0.000000
0.650521 0.075822 0.000000
0.332600 0.123390 0.000000
0.083173 0.208937 0.000000
0.110372 0.395196 0.000000
0.275405 0.400525 0.000000
0.487720 0.387847 0.000000
0.718091 0.347854 0.000000
0.372164 0.351928 0.000000
0.095610 0.430042 0.000000
0.149856 0.646222 0.000000
0.318990 0.653708 0.000000
0.526427 0.652447 0.000000
0.756076 0.637377 0.000000
0.414338 0.638724 0.000000
0.139019 0.684361 0.000000
0.233906 0.907698 0.000000
0.386490 0.915837 0.000000
0.577366 0.919005 0.000000
0.795460 0.915772 0.000000
0.388958 0.362246 0.020737
0.086824 0.001373 0.017075
0.341997 0.000000 0.027906
0.519449 0.000000 0.000000
0.164375 0.011876 0.088517
0.066476 0.005864 0.105543
0.167859 0.000144 0.086123
0.316957 0.000000 0.036173
0.368356 0.010714 0.000621
0.583055 0.000000 0.000000
0.185319 0.074021 0.075022
0.075627 0.090181 0.083552
0.183978 0.076292 0.062264
0.357159 0.034091 0.001425
0.484286 0.137346 0.000000
0.703263 0.048067 0.000000
0.000281 0.206337 0.048910
0.093925 0.214554 0.033374
0.249444 0.211069 0.000000
0.461749 0.179113 0.000000
0.538572 0.384840 0.000000
0.776044 0.335797 0.000000
0.001090 0.412226 0.000000
0.108988 0.435565 0.000000
0.287657 0.442234 0.000000
0.509589 0.430946 0.000000
0.577590 0.654261 0.000000
0.812302 0.633020 0.000000
0.038831 0.667842 0.000000
0.153672 0.689854 0.000000
0.332779 0.698352 0.000000
0.547556 0.697489 0.000000
0.625009 0.922060 0.000000
0.850218 0.916113 0.000000
0.000618 0.001371 0.132432
0.077017 0.001461 0.122620
0.184047 0.000000 0.101019
0.339736 0.000000 0.049827
0.000000 0.008942 0.245565
0.095075 0.000000 0.232694
0.226643 0.000000 0.201522
0.403656 0.000000 0.141972
0.608058 0.000000 0.046454
0.000000 0.023540 0.244648
0.000000 0.091419 0.229166
0.101008 0.084661 0.220470
0.253267 0.059656 0.191610
0.463436 0.001846 0.120018
0.699837 0.000000 0.002776
0.000000 0.105845 0.228540
0.000000 0.210956 0.207941
0.122165 0.223018 0.210062
0.324989 0.214445 0.174789
0.559332 0.165734 0.106525
0.773878 0.052082 0.000000
0.000000 0.238061 0.199082
0.000130 0.426824 0.134943
0.149392 0.453314 0.144395
0.368729 0.452962 0.083484
0.601327 0.424028 0.003412
0.844857 0.367893 0.000000
0.000000 0.459979 0.116604
0.035642 0.673418 0.004875
0.188152 0.696914 0.001243
0.402046 0.702715 0.000000
0.639957 0.699638 0.000000
0.880336 0.675245 0.000000
0.026476 0.708938 0.000000
0.000000 0.000000 0.274688
0.087748 0.000000 0.262499
0.219691 0.000000 0.233213
0.397878 0.000000 0.174322
0.597927 0.000000 0.080622
0.000000 0.009737 0.274011
0.000000 0.002589 0.422858
0.059306 0.000000 0.414064
0.206620 0.000000 0.393626
0.405422 0.000000 0.346731
0.632532 0.000000 0.269603
0.000000 0.017204 0.422033
0.000000 0.085270 0.417907
0.065716 0.078247 0.421981
0.240369 0.050895 0.411257
0.475355 0.000000 0.359936
0.727409 0.000000 0.252216
0.000000 0.100508 0.421421
0.000000 0.210265 0.438527
0.081326 0.219218 0.452316
0.314842 0.212426 0.450552
0.576559 0.160316 0.400402
0.801319 0.036635 0.255245
0.000000 0.239541 0.437088
0.000000 0.425128 0.415563
0.108208 0.453043 0.437638
0.359243 0.458243 0.430919
0.629087 0.437684 0.366077
0.886576 0.373852 0.244503
0.000000 0.461836 0.407702
0.000000 0.671339 0.329142
0.155735 0.713506 0.357054
0.409070 0.722595 0.329642
0.674853 0.719468 0.154286
0.911751 0.678424 0.023782
0.000000 0.708120 0.304588
0.000000 0.000000 0.453323
0.046179 0.000000 0.444686
0.195801 0.000000 0.426858
0.395215 0.000000 0.381511
0.616589 0.000000 0.311483
0.000000 0.003631 0.452569
0.000000 0.000000 0.610989
0.005470 0.000000 0.608077
0.180510 0.000000 0.599257
0.418167 0.000000 0.568898
0.336369 0.008448 0.565312
0.000000 0.009918 0.610269
0.000000 0.079132 0.627177
0.005202 0.069829 0.644301
0.218179 0.038115 0.650749
0.494480 0.000000 0.614467
0.383214 0.048333 0.585230
0.000000 0.095158 0.634942
0.000000 0.210369 0.685706
0.007887 0.205581 0.697313
0.300946 0.206809 0.720270
0.604005 0.140640 0.685273
0.352566 0.140029 0.635226
0.000000 0.241250 0.689215
0.000000 0.427973 0.694964
0.027929 0.438077 0.707104
0.354192 0.457416 0.730161
0.668028 0.425310 0.704703
0.368210 0.418809 0.671093
0.000000 0.464931 0.692059
0.000000 0.672579 0.661664
0.078297 0.704378 0.689204
0.401985 0.725231 0.702331
0.712088 0.716621 0.654929
0.383317 0.699378 0.626185
0.000000 0.711769 0.652916
0.000000 0.000000 0.642032
0.001095 0.000000 0.639101
0.176319 0.000000 0.630459
0.415414 0.000000 0.598019
0.258222 0.002900 0.607590
0.000000 0.000000 0.641422
0.000000 0.000000 0.806439
0.000000 0.000000 0.809247
0.064630 0.000000 0.818043
0.353930 0.000000 0.807908
0.249009 0.008890 0.796237
0.000000 0.006653 0.806332
0.000000 0.075938 0.845466
0.000000 0.065805 0.873942
0.063879 0.040951 0.900044
0.421526 0.000000 0.876635
0.282549 0.058758 0.835520
0.000000 0.092598 0.856913
0.000000 0.214938 0.929566
0.000000 0.205852 0.941387
0.087412 0.202226 0.965865
0.516030 0.149257 0.959713
0.306838 0.155157 0.905797
0.000000 0.247138 0.935014
0.000000 0.433147 0.942492
0.000000 0.429379 0.942685
0.120861 0.450420 0.976299
0.570267 0.433171 0.989976
0.349358 0.425047 0.950473
0.000000 0.469911 0.940701
0.000000 0.676841 0.932512
0.000000 0.677313 0.932503
0.173692 0.719573 0.979033
0.611808 0.718513 0.990977
0.364603 0.702170 0.946990
0.000000 0.715764 0.931337
0.000000 0.000000 0.000000
0.000000 0.000000 0.000000
0.000000 0.000000 0.000000
0.000000 0.000000 0.000000
0.000000 0.000000 0.000000
0.000000 0.000000 0.000000
