assets/lut/berat cinema warm.cube
TITLE "cinema warm"
LUT_3D_SIZE 6
DOMAIN_MIN 0.0 0.0 0.0
DOMAIN_MAX 1.0 1.0 1.0
0.005264 0.008896 0.008835
0.112788 0.011099 0.006610
0.359000 0.059866 0.004683
0.555809 0.100684 0.004997
0.685665 0.118889 0.005411
0.784070 0.126986 0.005646
0.010263 0.116063 0.035862
0.105777 0.109085 0.022454
0.310313 0.129769 0.006654
0.529684 0.170965 0.005471
0.675790 0.193675 0.005260
0.784506 0.204733 0.005307
0.018954 0.295348 0.119955
0.104019 0.281951 0.107499
0.304430 0.284778 0.061556
0.546351 0.307041 0.004310
0.688894 0.297921 0.004392
0.801199 0.298973 0.004498
0.129385 0.492814 0.220500
0.249758 0.488807 0.204821
0.526191 0.498992 0.117796
0.761431 0.512470 0.000769
0.119401 0.525809 0.231048
0.166788 0.519517 0.232635
0.357119 0.672990 0.285478
0.609914 0.659480 0.239769
0.859484 0.689856 0.041105
0.080854 0.699962 0.327605
0.193827 0.690891 0.314478
0.319036 0.695997 0.307045
0.331167 0.818189 0.362402
0.556371 0.834214 0.321267
0.797589 0.826338 0.293017
0.033871 0.008665 0.019799
0.187640 0.020368 0.016864
0.438804 0.078050 0.016129
0.529204 0.089595 0.084514
0.664807 0.114115 0.087208
0.769947 0.125295 0.087876
0.067470 0.034163 0.101487
0.270954 0.034247 0.093769
0.500258 0.094246 0.084248
0.498838 0.161555 0.088476
0.653613 0.188445 0.083719
0.771158 0.202801 0.083256
0.067091 0.140631 0.127421
0.230151 0.133610 0.101863
0.463307 0.167853 0.089273
0.515038 0.300428 0.083726
0.667009 0.296239 0.081057
0.783850 0.294696 0.081229
0.054426 0.339466 0.228861
0.194615 0.320244 0.195510
0.496175 0.336206 0.082191
0.563727 0.507108 0.173637
0.744728 0.511268 0.073226
0.509117 0.512256 0.183675
0.068649 0.544097 0.337697
0.231953 0.527773 0.308554
0.500835 0.528076 0.236174
0.482186 0.675174 0.336426
0.756408 0.677750 0.215499
0.537344 0.688023 0.216471
0.062191 0.701565 0.417626
0.226081 0.702959 0.400703
0.433572 0.701335 0.357860
0.429923 0.833289 0.428351
0.672578 0.838377 0.394371
0.540522 0.517867 0.244357
0.091506 0.027948 0.122647
0.320320 0.029761 0.109931
0.533300 0.086302 0.096901
0.625035 0.064988 0.242788
0.745277 0.084138 0.189236
0.046363 0.093351 0.258637
0.132359 0.089757 0.255468
0.337766 0.111125 0.286718
0.598555 0.077984 0.249825
0.613635 0.140083 0.219275
0.735351 0.174494 0.184231
0.047032 0.201865 0.297286
0.135365 0.191523 0.285067
0.329230 0.189218 0.283958
0.585829 0.153839 0.227261
0.600070 0.308902 0.262298
0.730337 0.292392 0.221350
0.015812 0.368571 0.359930
0.100894 0.371975 0.359449
0.358232 0.364517 0.332025
0.585022 0.343940 0.269876
0.665760 0.535531 0.265296
0.809389 0.511483 0.204842
0.009144 0.555567 0.449009
0.082349 0.559512 0.451131
0.269288 0.578627 0.451764
0.619714 0.563879 0.324613
0.566417 0.700148 0.436886
0.843379 0.704768 0.268046
0.009144 0.714516 0.528573
0.082349 0.719977 0.531414
0.202450 0.747378 0.538972
0.509271 0.727538 0.452549
0.501768 0.862996 0.537157
0.750390 0.860864 0.497071
0.052794 0.091816 0.282869
0.137093 0.088370 0.279747
0.326782 0.113645 0.315766
0.583448 0.089177 0.299145
0.539362 0.177093 0.461321
0.698920 0.162997 0.450494
0.094083 0.152283 0.407425
0.182315 0.150925 0.406755
0.335089 0.173869 0.444441
0.513771 0.187754 0.460212
0.538809 0.249904 0.458646
0.716151 0.225604 0.438067
0.102950 0.270944 0.461754
0.192062 0.262838 0.450177
0.342373 0.268434 0.466182
0.515320 0.265936 0.463150
0.589572 0.382919 0.504440
0.752951 0.324366 0.451803
0.080888 0.437659 0.549857
0.176099 0.437518 0.550337
0.395061 0.440260 0.543991
0.578002 0.419821 0.523331
0.652072 0.571568 0.563119
0.799870 0.556687 0.529661
0.023957 0.588268 0.595267
0.105411 0.596720 0.599195
0.383495 0.613177 0.602577
0.629933 0.601255 0.571783
0.641811 0.736371 0.609268
0.858958 0.727079 0.536816
0.028860 0.723081 0.626377
0.114847 0.739205 0.638936
0.367658 0.777033 0.670289
0.597496 0.763997 0.635601
0.614490 0.908151 0.713886
0.819308 0.898077 0.667257
0.108237 0.147537 0.427186
0.205681 0.150897 0.434275
0.357089 0.171456 0.467412
0.525599 0.184504 0.482744
0.640125 0.219507 0.591583
0.123256 0.197330 0.537287
0.241880 0.215648 0.560461
0.358637 0.214075 0.573901
0.492311 0.224373 0.578397
0.623163 0.229965 0.589856
0.647438 0.297822 0.595863
0.133234 0.325702 0.603391
0.239461 0.327068 0.600946
0.384286 0.331903 0.614500
0.502945 0.318420 0.600591
0.632329 0.311692 0.597907
0.689580 0.417992 0.637315
0.120871 0.485268 0.689573
0.227114 0.486525 0.691871
0.424586 0.496177 0.691257
0.565010 0.488204 0.688911
0.689029 0.457243 0.659098
0.780131 0.613085 0.721833
0.074166 0.632250 0.747560
0.191879 0.636790 0.752224
0.419438 0.647418 0.756667
0.616162 0.648752 0.746398
0.763121 0.639703 0.732967
0.822061 0.756979 0.754946
0.026975 0.753116 0.769724
0.125187 0.770378 0.786770
0.421076 0.788862 0.791999
0.629466 0.792144 0.786820
0.802144 0.780273 0.761792
0.818146 0.940533 0.835124
0.131856 0.192449 0.556848
0.262441 0.217900 0.589252
0.372015 0.210432 0.596034
0.497922 0.218182 0.597091
0.626370 0.224017 0.607062
0.630457 0.240177 0.685710
0.144207 0.227155 0.647584
0.305294 0.274919 0.702987
0.399115 0.256719 0.698777
0.492531 0.242286 0.679591
0.612924 0.250980 0.684962
0.635551 0.325282 0.698479
0.154177 0.370930 0.731842
0.278654 0.378020 0.733730
0.422385 0.380771 0.741158
0.517045 0.358748 0.728440
0.621033 0.341390 0.703645
0.688917 0.476941 0.776283
0.145093 0.516486 0.804251
0.273125 0.524748 0.813824
0.450743 0.537944 0.819571
0.582583 0.534519 0.822500
0.689602 0.517216 0.803960
0.767976 0.661581 0.882124
0.117369 0.654508 0.859299
0.256382 0.664650 0.871210
0.443892 0.682633 0.891577
0.603457 0.693629 0.905732
0.753041 0.685566 0.893169
0.807315 0.803812 0.933828
0.080199 0.779235 0.897902
0.226940 0.794052 0.913437
0.444312 0.828038 0.948806
0.609998 0.840121 0.963617
0.782101 0.829514 0.947622
0.863447 0.983673 0.999969
0.000000 0.000000 0.000000
0.000000 0.000000 0.000000
0.000000 0.000000 0.000000
0.000000 0.000000 0.000000
0.000000 0.000000 0.000000
