assets/lut/berat peaky blinders.cube
TITLE "peaky blinders"
LUT_3D_SIZE 16
DOMAIN_MIN 0.0 0.0 0.0
DOMAIN_MAX 1.0 1.0 1.0
0.000000 0.000000 0.000000
0.028466 0.000000 0.000000
0.056932 0.000000 0.000000
0.085399 0.000000 0.000000
0.120165 0.000000 0.000000
0.170814 0.000000 0.000000
0.231731 0.000000 0.000000
0.301342 0.000000 0.000000
0.376662 0.000000 0.000000
0.453746 0.000000 0.000000
0.532835 0.000000 0.000000
0.612133 0.000000 0.000000
0.688051 0.000000 0.000000
0.758726 0.000000 0.000000
0.824334 0.000000 0.000000
0.886442 0.000000 0.000000
0.000000 0.028466 0.000000
0.028466 0.028466 0.000000
0.056932 0.028466 0.000000
0.085399 0.028466 0.000000
0.120249 0.028466 0.000000
0.170974 0.028466 0.000000
0.231931 0.028466 0.000000
0.301518 0.028466 0.000000
0.376970 0.028466 0.000000
0.454117 0.028466 0.000000
0.533293 0.028466 0.000000
0.612395 0.028466 0.000000
0.688250 0.028466 0.000000
0.758949 0.028466 0.000000
0.824814 0.028466 0.000000
0.887236 0.028466 0.000000
0.000000 0.057055 0.000000
0.028466 0.057055 0.000000
0.056932 0.057024 0.000000
0.085399 0.056932 0.000000
0.120039 0.056932 0.000000
0.170877 0.056932 0.000000
0.232003 0.056932 0.000000
0.301855 0.056932 0.000000
0.377203 0.056932 0.000000
0.454327 0.056932 0.000000
0.533654 0.056932 0.000000
0.613010 0.056932 0.000000
0.689234 0.056932 0.000000
0.760493 0.056932 0.000000
0.827016 0.056932 0.000000
0.890283 0.056932 0.000000
0.005335 0.091963 0.000000
0.033802 0.091933 0.000000
0.071440 0.090603 0.000000
0.125273 0.089151 0.000000
0.172644 0.088930 0.000000
0.233735 0.087613 0.000000
0.303261 0.086191 0.000000
0.378708 0.085954 0.000000
0.457602 0.086231 0.000000
0.537517 0.086065 0.000000
0.616847 0.085919 0.000000
0.693478 0.085903 0.000000
0.765761 0.086104 0.000000
0.833827 0.086544 0.000000
0.520961 0.099498 0.000000
0.016010 0.114705 0.000000
0.074722 0.138784 0.000000
0.151328 0.137193 0.000000
0.232551 0.136551 0.000000
0.301066 0.135543 0.000000
0.376131 0.133705 0.000000
0.455621 0.131646 0.000000
0.536529 0.129918 0.000000
0.617387 0.128851 0.000000
0.695545 0.128798 0.000000
0.769329 0.130048 0.000000
0.838769 0.132561 0.000000
0.400394 0.148791 0.000000
0.277495 0.155905 0.000000
0.044475 0.164767 0.000000
0.072943 0.163559 0.000000
0.133597 0.161772 0.000000
0.269693 0.191923 0.000000
0.340389 0.192282 0.000000
0.416954 0.192008 0.000000
0.497779 0.191344 0.000000
0.579801 0.191091 0.000000
0.660344 0.191770 0.000000
0.737511 0.193618 0.000000
0.810111 0.196900 0.000000
0.726778 0.203178 0.000000
0.302864 0.211798 0.000000
0.031133 0.220086 0.000000
0.059601 0.220011 0.000000
0.089170 0.220018 0.000000
0.128379 0.219998 0.000000
0.239748 0.219854 0.000000
0.314295 0.220584 0.000000
0.459625 0.258046 0.000000
0.540594 0.259694 0.000000
0.622454 0.261543 0.000000
0.701891 0.264297 0.000000
0.777177 0.268206 0.000000
0.809282 0.272911 0.000000
0.243980 0.276407 0.000000
0.237981 0.278864 0.000000
0.045706 0.282204 0.000000
0.074325 0.283426 0.000000
0.105648 0.284951 0.000000
0.154044 0.286266 0.000004
0.260435 0.286716 0.000024
0.354443 0.287457 0.000000
0.429731 0.289694 0.000000
0.508144 0.292379 0.000000
0.634615 0.336834 0.000000
0.712806 0.341025 0.000000
0.787018 0.345997 0.000000
0.788839 0.350604 0.000000
0.409805 0.350076 0.000000
0.170361 0.349752 0.000000
0.048926 0.351414 0.000000
0.077522 0.354393 0.000000
0.108259 0.357233 0.000000
0.151985 0.360083 0.000000
0.215974 0.362088 0.000012
0.329595 0.362657 0.000043
0.433126 0.363805 0.000000
0.512383 0.366496 0.000000
0.592039 0.370208 0.000000
0.670890 0.374462 0.000000
0.760398 0.421193 0.000000
0.830352 0.427194 0.000000
0.742707 0.430395 0.000000
0.096511 0.422187 0.000000
0.036850 0.424739 0.000000
0.065316 0.429063 0.000000
0.094529 0.433431 0.000000
0.129875 0.437633 0.000000
0.183571 0.441113 0.000000
0.256532 0.443094 0.000014
0.391790 0.443658 0.000136
0.484295 0.444292 0.000011
0.566056 0.446181 0.000000
0.645650 0.449467 0.000000
0.721590 0.454014 0.000000
0.793504 0.459668 0.000000
0.671199 0.506836 0.000000
0.044719 0.499599 0.000000
0.035582 0.504033 0.000000
0.064048 0.509306 0.000000
0.093227 0.514557 0.000000
0.128892 0.519383 0.000000
0.181749 0.523284 0.000000
0.249250 0.525463 0.000000
0.344784 0.526092 0.000045
0.461222 0.526121 0.000098
0.552928 0.526637 0.000122
0.660650 0.528887 0.000000
0.737464 0.532870 0.000000
0.809483 0.538368 0.000000
0.646550 0.541047 0.000000
0.703951 0.547879 0.000000
0.048920 0.589309 0.000000
0.077389 0.594855 0.000000
0.108656 0.600080 0.000000
0.151243 0.604546 0.000000
0.212192 0.607629 0.000000
0.284316 0.608921 0.000000
0.365434 0.609100 0.000005
0.480377 0.609059 0.000127
0.578510 0.609327 0.000200
0.692638 0.611242 0.000009
0.770627 0.614949 0.000000
0.841705 0.620122 0.000000
0.587515 0.622333 0.000000
0.256979 0.623105 0.000000
0.033804 0.625199 0.000000
0.062272 0.630833 0.000000
0.119270 0.683715 0.000000
0.166960 0.687941 0.000000
0.230943 0.690718 0.000000
0.304972 0.691985 0.000000
0.385029 0.692272 0.000000
0.487701 0.692099 0.000082
0.615393 0.692108 0.000246
0.701756 0.693133 0.000203
0.810195 0.697078 0.000000
0.879353 0.701579 0.000000
0.487485 0.703577 0.000000
0.018678 0.704235 0.000000
0.047144 0.709867 0.000000
0.075610 0.715398 0.000000
0.106776 0.720882 0.000000
0.150399 0.725728 0.000000
0.275196 0.773428 0.000000
0.353506 0.773696 0.000000
0.435646 0.773392 0.000000
0.544265 0.772496 0.000084
0.660367 0.771915 0.000236
0.740799 0.772401 0.000339
0.832476 0.774993 0.000109
0.822960 0.779015 0.000000
0.384048 0.783661 0.000000
0.032020 0.787640 0.000000
0.060488 0.793440 0.000000
0.090381 0.799116 0.000000
0.131197 0.804338 0.000000
0.185521 0.808453 0.000000
0.253175 0.810705 0.000000
0.329436 0.811151 0.000000
0.460371 0.850666 0.000000
0.549547 0.848974 0.000015
0.658191 0.846891 0.000152
0.747398 0.846159 0.000300
0.821332 0.846713 0.000379
0.907003 0.849075 0.000140
0.257111 0.860564 0.000000
0.032020 0.867081 0.000000
0.060487 0.872652 0.000000
0.092317 0.878080 0.000000
0.137695 0.882986 0.000000
0.195815 0.886520 0.000000
0.264146 0.888059 0.000000
0.340488 0.887628 0.000000
0.421466 0.886184 0.000000
0.504342 0.884288 0.000000
0.671134 0.916588 0.000106
0.759776 0.914698 0.000246
0.832269 0.914260 0.000359
0.899501 0.914914 0.000425
0.467398 0.927624 0.000153
0.020459 0.942204 0.000000
0.048926 0.947372 0.000000
0.079341 0.952212 0.000000
0.124357 0.956724 0.000000
0.181062 0.960175 0.000000
0.245855 0.961573 0.000000
0.319238 0.960752 0.000000
0.398808 0.958287 0.000000
0.480331 0.955413 0.000000
0.563527 0.952161 0.000000
0.679929 0.947595 0.000093
0.667369 0.000000 0.013336
0.739436 0.000000 0.013336
0.806406 0.000000 0.013336
0.869193 0.000000 0.013336
0.007113 0.013336 0.013336
0.035579 0.013336 0.013336
0.064046 0.013336 0.013336
0.092792 0.013336 0.013336
0.131425 0.013336 0.013336
0.185333 0.013336 0.013336
0.248457 0.013336 0.013336
0.319974 0.013336 0.013336
0.395886 0.013336 0.013336
0.473559 0.013336 0.013336
0.553142 0.013336 0.013336
0.631785 0.013336 0.013336
0.667457 0.013336 0.028466
0.739526 0.013336 0.028466
0.806431 0.013336 0.028466
0.869392 0.013336 0.028466
0.007113 0.026688 0.028466
0.035579 0.026688 0.028466
0.064046 0.026688 0.028466
0.092795 0.026688 0.028466
0.131517 0.026688 0.028466
0.185401 0.026688 0.028466
0.248500 0.026688 0.028466
0.320093 0.026688 0.028466
0.396207 0.026688 0.028466
0.473788 0.026688 0.028466
0.553241 0.026688 0.028466
0.631886 0.026688 0.028466
0.667866 0.041805 0.028466
0.740170 0.041805 0.028466
0.807564 0.041805 0.028466
0.871088 0.041805 0.028466
0.007113 0.055215 0.028466
0.035579 0.055215 0.028466
0.064046 0.055184 0.028466
0.092779 0.055154 0.028466
0.131482 0.055154 0.028466
0.185494 0.055154 0.028466
0.248760 0.055154 0.028466
0.320391 0.055154 0.028466
0.396407 0.055154 0.028466
0.474021 0.055154 0.028466
0.553677 0.055154 0.028466
0.632630 0.055154 0.028466
0.669783 0.070273 0.028466
0.742917 0.070273 0.028466
0.811210 0.070273 0.028466
0.875907 0.070273 0.028466
0.007113 0.088879 0.028466
0.035579 0.088958 0.028466
0.064046 0.088163 0.028467
0.092717 0.086330 0.028471
0.129448 0.086262 0.028466
0.182313 0.086055 0.028466
0.245768 0.085410 0.028466
0.318296 0.084701 0.028466
0.395606 0.084080 0.028466
0.474602 0.084126 0.028466
0.555249 0.084116 0.028466
0.635177 0.084065 0.028466
0.673005 0.102677 0.028466
0.747696 0.102907 0.028466
0.817325 0.103968 0.028466
0.883180 0.105846 0.028466
0.007113 0.138091 0.028466
0.035579 0.138064 0.028466
0.064046 0.136799 0.028466
0.092830 0.133173 0.028474
0.131713 0.132746 0.028480
0.183295 0.133441 0.028466
0.244069 0.133580 0.028466
0.315551 0.132022 0.028466
0.393015 0.129929 0.028466
0.472772 0.128037 0.028466
0.554911 0.126318 0.028466
0.636603 0.125259 0.028466
0.674518 0.157336 0.028466
0.750525 0.158842 0.028466
0.821564 0.161802 0.028466
0.888806 0.166026 0.028466
0.007113 0.190068 0.028466
0.035579 0.190284 0.028466
0.064046 0.189951 0.028466
0.092792 0.188119 0.028466
0.131921 0.188222 0.028478
0.186624 0.188149 0.028488
0.247719 0.188620 0.028466
0.316596 0.189108 0.028466
0.392570 0.188784 0.028466
0.472247 0.188190 0.028466
0.555040 0.187592 0.028466
0.637675 0.187653 0.028466
0.676195 0.225222 0.028466
0.753287 0.228156 0.028466
0.825425 0.232476 0.028466
0.893684 0.237904 0.028466
0.007113 0.247355 0.028466
0.035579 0.248255 0.028466
0.064046 0.249307 0.028466
0.092675 0.249270 0.028466
0.129857 0.250484 0.028466
0.185785 0.251260 0.028495
0.251254 0.251023 0.028492
0.322144 0.251508 0.028466
0.396335 0.253205 0.028466
0.474216 0.255062 0.028466
0.556337 0.256551 0.028466
0.639117 0.258342 0.028466
0.677845 0.299646 0.028466
0.754819 0.303788 0.028466
0.827058 0.309040 0.028466
0.895545 0.315098 0.028466
0.007113 0.311325 0.028466
0.035579 0.313391 0.028466
0.064046 0.315750 0.028466
0.092515 0.317677 0.028466
0.127436 0.320192 0.028466
0.183023 0.322275 0.028466
0.250093 0.323036 0.028526
0.325926 0.322841 0.028499
0.403469 0.324005 0.028466
0.481022 0.326901 0.028466
0.561017 0.330294 0.028466
0.641940 0.333871 0.028466
0.681826 0.376640 0.028466
0.757060 0.381673 0.028466
0.828025 0.387415 0.028466
0.895516 0.393717 0.028466
0.007113 0.381935 0.028466
0.035579 0.385322 0.028466
0.064046 0.389111 0.028466
0.092513 0.392814 0.028466
0.126139 0.396680 0.028466
0.180944 0.400017 0.028466
0.248735 0.401788 0.028466
0.325953 0.402077 0.028554
0.407603 0.402233 0.028518
0.488512 0.403814 0.028466
0.569294 0.406628 0.028466
0.648783 0.410549 0.028466
0.689207 0.453388 0.028466
0.762957 0.458566 0.028466
0.832662 0.464752 0.028466
0.899310 0.471679 0.028466
0.007113 0.457982 0.028466
0.035579 0.462752 0.028466
0.064046 0.467737 0.028466
0.092513 0.472635 0.028466
0.126091 0.477425 0.028466
0.181082 0.481404 0.028466
0.249275 0.483619 0.028466
0.326754 0.484151 0.028478
0.409036 0.484066 0.028606
0.492696 0.484207 0.028531
0.575985 0.485209 0.028466
0.656718 0.487852 0.028466
0.696996 0.531815 0.028466
0.771559 0.536649 0.028466
0.841337 0.542792 0.028466
0.907612 0.549777 0.028466
0.007113 0.538822 0.028466
0.035579 0.544358 0.028466
0.064046 0.549982 0.028466
0.092513 0.555402 0.028466
0.126268 0.560506 0.028466
0.181438 0.564444 0.028466
0.249529 0.566528 0.028466
0.326825 0.566851 0.028466
0.409012 0.566642 0.028503
0.493190 0.566616 0.028649
0.579165 0.566707 0.028562
0.662516 0.568310 0.028466
0.702441 0.613126 0.028466
0.778387 0.616921 0.028466
0.848783 0.622222 0.028466
0.915179 0.628517 0.028466
0.007113 0.621804 0.028466
0.035579 0.627486 0.028466
0.064046 0.633105 0.028466
0.092513 0.638440 0.028466
0.126649 0.643449 0.028466
0.182089 0.647384 0.028466
0.250418 0.649551 0.028466
0.327966 0.650106 0.028466
0.410371 0.650127 0.028467
0.494715 0.650155 0.028554
0.581107 0.650043 0.028704
0.666318 0.650649 0.028609
0.706588 0.694684 0.028652
0.783551 0.697190 0.028466
0.854435 0.701273 0.028466
0.920810 0.706336 0.028466
0.007113 0.703815 0.028466
0.035579 0.709390 0.028466
0.064046 0.715079 0.028466
0.092571 0.720658 0.028466
0.128539 0.725957 0.028466
0.185896 0.730125 0.028466
0.254699 0.732392 0.028466
0.332536 0.732853 0.028466
0.414960 0.732604 0.028466
0.499151 0.732397 0.028477
0.585226 0.731905 0.028612
0.670245 0.731786 0.028758
0.711508 0.773452 0.028776
0.788593 0.774634 0.028727
0.859502 0.777183 0.028466
0.925568 0.780760 0.028466
0.007113 0.784487 0.028466
0.035579 0.790313 0.028466
0.064046 0.796193 0.028466
0.092915 0.801785 0.028466
0.134362 0.807064 0.028466
0.193601 0.811043 0.028466
0.262882 0.812955 0.028466
0.340806 0.812952 0.028466
0.423028 0.812204 0.028466
0.506779 0.811234 0.028466
0.592241 0.809957 0.028545
0.676396 0.808933 0.028679
0.717862 0.847352 0.028715
0.794024 0.847346 0.028826
0.864416 0.848514 0.028799
0.930059 0.850633 0.028489
0.007113 0.863991 0.028466
0.035579 0.869769 0.028466
0.064046 0.875318 0.028466
0.095313 0.880632 0.028466
0.143511 0.885500 0.028466
0.204067 0.888824 0.028466
0.273629 0.890031 0.028466
0.351352 0.889166 0.028466
0.433085 0.887366 0.028466
0.516075 0.885386 0.028466
0.600602 0.882977 0.028487
0.683717 0.880810 0.028627
0.724910 0.916084 0.028651
0.799938 0.915046 0.028768
0.869339 0.915154 0.028860
0.934331 0.916052 0.028835
0.007113 0.941550 0.028466
0.035579 0.946777 0.028466
0.064146 0.951607 0.028478
0.101189 0.956319 0.028860
0.154380 0.960294 0.029279
0.215393 0.962612 0.029510
0.284736 0.962725 0.029482
0.362036 0.960714 0.029227
0.443057 0.957805 0.028897
0.525260 0.954683 0.028540
0.608876 0.951120 0.028466
0.690979 0.947931 0.028564
0.667445 0.000000 0.041805
0.739526 0.000000 0.041805
0.806406 0.000000 0.041805
0.869224 0.000000 0.041805
0.007113 0.013336 0.041805
0.035579 0.013336 0.041805
0.064046 0.013336 0.041805
0.092793 0.013336 0.041805
0.131473 0.013336 0.041805
0.185341 0.013336 0.041805
0.248483 0.013336 0.041805
0.319961 0.013336 0.041805
0.395972 0.013336 0.041805
0.473645 0.013336 0.041805
0.553221 0.013336 0.041805
0.631876 0.013336 0.041805
0.667536 0.013336 0.056932
0.739552 0.013336 0.056932
0.806517 0.013336 0.056932
0.869489 0.013336 0.056932
0.007113 0.026688 0.058776
0.035579 0.026688 0.058776
0.064046 0.026688 0.058775
0.092835 0.026688 0.058446
0.131869 0.026688 0.057527
0.185739 0.026688 0.056939
0.248593 0.026688 0.056932
0.320187 0.026688 0.056932
0.396254 0.026688 0.056932
0.473808 0.026688 0.056932
0.553297 0.026688 0.056932
0.631952 0.026688 0.056932
0.667964 0.041805 0.056932
0.740361 0.041805 0.056932
0.807783 0.041805 0.056932
0.871414 0.041805 0.056932
0.007113 0.055229 0.058711
0.035579 0.055229 0.058701
0.064046 0.055206 0.058731
0.092816 0.055157 0.058399
0.131862 0.055154 0.057519
0.185793 0.055154 0.056937
0.248890 0.055154 0.056932
0.320416 0.055154 0.056932
0.396457 0.055154 0.056932
0.474099 0.055154 0.056932
0.553795 0.055154 0.056932
0.632824 0.055154 0.056932
0.670159 0.070273 0.056932
0.743410 0.070273 0.056932
0.811815 0.070273 0.056932
0.876638 0.070273 0.056932
0.007113 0.089002 0.058812
0.035579 0.089024 0.058807
0.064046 0.088424 0.058771
0.092690 0.086590 0.058482
0.129484 0.086318 0.057682
0.182537 0.086052 0.056969
0.245928 0.085436 0.056932
0.318430 0.084735 0.056932
0.395747 0.084128 0.056932
0.474843 0.084158 0.056932
0.555605 0.084139 0.056932
0.635587 0.084104 0.056932
0.673686 0.103038 0.056932
0.748481 0.103353 0.056932
0.818269 0.104524 0.056932
0.884267 0.106500 0.056932
0.007113 0.138333 0.058916
0.035579 0.138328 0.058929
0.064046 0.137193 0.058756
0.092780 0.133651 0.058655
0.131592 0.132942 0.058462
0.183479 0.133621 0.057498
0.244379 0.133803 0.056940
0.315885 0.132344 0.056932
0.393419 0.130296 0.056932
0.473309 0.128508 0.056932
0.555606 0.126877 0.056932
0.637419 0.125930 0.056932
0.675604 0.158324 0.056932
0.751723 0.159984 0.056932
0.822931 0.163082 0.056932
0.890314 0.167418 0.056932
0.007113 0.190290 0.057796
0.035579 0.190584 0.057918
0.064046 0.190334 0.058043
0.092795 0.188536 0.058185
0.132156 0.188594 0.058388
0.187049 0.188598 0.058273
0.248288 0.189156 0.057340
0.317328 0.189763 0.056937
0.393411 0.189565 0.056932
0.473202 0.189124 0.056932
0.556129 0.188667 0.056932
0.638921 0.188819 0.056932
0.677772 0.226722 0.056932
0.754952 0.229774 0.056932
0.827282 0.234148 0.056932
0.895826 0.239573 0.056932
0.007113 0.247624 0.056932
0.035579 0.248612 0.056932
0.064046 0.249777 0.056932
0.092699 0.249870 0.057115
0.130400 0.251206 0.057625
0.186546 0.252135 0.057930
0.252258 0.252006 0.057795
0.323351 0.252614 0.057169
0.397741 0.254408 0.056934
0.475727 0.256388 0.056932
0.557960 0.258046 0.056932
0.640804 0.259952 0.056932
0.679801 0.301436 0.056932
0.756870 0.305580 0.056932
0.829301 0.310813 0.056932
0.897958 0.316847 0.056932
0.007113 0.312009 0.056932
0.035579 0.314162 0.056932
0.064046 0.316681 0.056932
0.092541 0.318677 0.056932
0.127940 0.321376 0.056932
0.184166 0.323564 0.057108
0.251486 0.324483 0.057416
0.327489 0.324401 0.057305
0.405267 0.325645 0.057064
0.482958 0.328583 0.056943
0.563059 0.332034 0.056932
0.644012 0.335634 0.056932
0.683967 0.378468 0.056932
0.759175 0.383508 0.056932
0.830161 0.389215 0.056932
0.897723 0.395484 0.056932
0.007113 0.383031 0.056932
0.035579 0.386571 0.056932
0.064046 0.390474 0.056932
0.092513 0.394259 0.056932
0.126779 0.398287 0.056932
0.182369 0.401699 0.056932
0.250407 0.403521 0.057029
0.327770 0.403907 0.057217
0.409525 0.404078 0.057169
0.490593 0.405664 0.057091
0.571406 0.408461 0.056959
0.650907 0.412348 0.056933
0.691278 0.455165 0.056939
0.765055 0.460383 0.056932
0.834812 0.466642 0.056932
0.901465 0.473593 0.056932
0.007113 0.459579 0.056932
0.035579 0.464401 0.056932
0.064046 0.469483 0.056932
0.092513 0.474432 0.056932
0.126806 0.479297 0.056932
0.182622 0.483285 0.056932
0.251001 0.485510 0.057120
0.328614 0.486042 0.057230
0.410953 0.485936 0.057341
0.494646 0.486043 0.057237
0.578037 0.487036 0.057079
0.658780 0.489711 0.057032
0.699143 0.533674 0.057149
0.773733 0.538565 0.057022
0.843480 0.544710 0.056935
0.909729 0.551717 0.056932
0.007113 0.540684 0.056932
0.035579 0.546250 0.056932
0.064046 0.551882 0.056932
0.092513 0.557276 0.056932
0.126988 0.562391 0.056932
0.182955 0.566327 0.056932
0.251222 0.568379 0.057002
0.328668 0.568712 0.057077
0.410944 0.568550 0.057100
0.495205 0.568508 0.057269
0.581278 0.568650 0.057193
0.664678 0.570222 0.057197
0.704568 0.615056 0.057426
0.780495 0.618796 0.057687
0.850868 0.624088 0.057597
0.917153 0.630289 0.057211
0.007113 0.623709 0.056932
0.035579 0.629389 0.056932
0.064046 0.634970 0.056932
0.092513 0.640282 0.056932
0.127382 0.645310 0.056932
0.183628 0.649302 0.056975
0.252139 0.651516 0.057239
0.329867 0.652035 0.057361
0.412350 0.652069 0.057381
0.496733 0.652077 0.057487
0.583152 0.651981 0.057613
0.668369 0.652502 0.057602
0.708508 0.696415 0.058039
0.785415 0.698882 0.058251
0.856225 0.702878 0.058644
0.922515 0.707849 0.058737
0.007113 0.705680 0.056932
0.035579 0.711309 0.056932
0.064046 0.717026 0.056932
0.092641 0.722601 0.056932
0.129452 0.727927 0.057159
0.187472 0.732077 0.057923
0.256438 0.734335 0.058411
0.334381 0.734775 0.058485
0.416843 0.734548 0.058437
0.501058 0.734234 0.058380
0.587124 0.733658 0.058382
0.672072 0.733472 0.058473
0.713131 0.774971 0.059071
0.790112 0.776001 0.059260
0.860893 0.778461 0.059424
0.926820 0.781907 0.059761
0.007113 0.786450 0.056932
0.035579 0.792286 0.056932
0.064046 0.798126 0.056981
0.092985 0.803753 0.058024
0.135648 0.809010 0.059205
0.195162 0.812926 0.060143
0.264522 0.814793 0.060929
0.342461 0.814735 0.060835
0.424677 0.813850 0.060349
0.508422 0.812840 0.059985
0.593776 0.811407 0.059733
0.677838 0.810275 0.059581
0.719129 0.848460 0.060200
0.795128 0.848327 0.060285
0.865407 0.849441 0.060519
0.930902 0.851467 0.061129
0.007113 0.865979 0.057390
0.035579 0.871719 0.058604
0.064046 0.877205 0.059814
0.095892 0.882479 0.062426
0.144743 0.887280 0.065815
0.205408 0.890529 0.068727
0.274977 0.891610 0.069757
0.352699 0.890608 0.069059
0.434386 0.888770 0.067556
0.517307 0.886614 0.065771
0.601770 0.884069 0.063649
0.684792 0.881830 0.061970
0.725756 0.916796 0.063975
0.800642 0.915611 0.063069
0.869960 0.915687 0.063224
0.934856 0.916536 0.063957
0.007113 0.943423 0.062295
0.035579 0.948628 0.066229
0.064168 0.953351 0.070208
0.101982 0.957900 0.074231
0.155363 0.961733 0.077681
0.216392 0.963985 0.079805
0.285721 0.963948 0.079909
0.362984 0.961824 0.078244
0.443932 0.958814 0.075765
0.526117 0.955570 0.073058
0.609612 0.951878 0.069986
0.691646 0.948525 0.067220
0.667445 0.000000 0.070273
0.739526 0.000000 0.070273
0.806406 0.000000 0.070273
0.869270 0.000000 0.070273
0.007113 0.013336 0.080447
0.035579 0.013336 0.080445
0.064046 0.013336 0.080443
0.092913 0.013336 0.079041
0.133278 0.013336 0.074296
0.187245 0.013336 0.070368
0.249727 0.013336 0.070273
0.320543 0.013336 0.070273
0.396315 0.013336 0.070273
0.473718 0.013336 0.070273
0.553222 0.013336 0.070273
0.631876 0.013336 0.070273
0.667536 0.013336 0.085399
0.739604 0.013336 0.085399
0.806588 0.013336 0.085399
0.869585 0.013336 0.085399
0.007113 0.026688 0.109398
0.035579 0.026688 0.109398
0.064046 0.026688 0.109378
0.092786 0.026688 0.107916
0.134031 0.026688 0.100955
0.189917 0.026688 0.091266
0.252812 0.026688 0.087213
0.323560 0.026688 0.085460
0.398457 0.026688 0.085399
0.474933 0.026688 0.085399
0.553890 0.026688 0.085399
0.632086 0.026688 0.085399
0.668111 0.041805 0.085399
0.740560 0.041805 0.085399
0.808060 0.041805 0.085399
0.871746 0.041805 0.085399
0.007113 0.055520 0.108926
0.035579 0.055518 0.108876
0.064046 0.055472 0.109045
0.092768 0.055220 0.107793
0.134067 0.055154 0.100792
0.190025 0.055154 0.091167
0.252999 0.055154 0.087181
0.323720 0.055154 0.085456
0.398660 0.055154 0.085399
0.475286 0.055154 0.085399
0.554550 0.055154 0.085399
0.633173 0.055154 0.085399
0.670722 0.070273 0.085399
0.743926 0.070273 0.085399
0.812519 0.070273 0.085399
0.877601 0.070273 0.085399
0.007113 0.091372 0.105157
0.035579 0.091410 0.105193
0.064046 0.091327 0.106664
0.092559 0.089239 0.107375
0.129982 0.086960 0.100163
0.186185 0.085865 0.090769
0.249738 0.085280 0.087057
0.321673 0.084664 0.085452
0.398169 0.083946 0.085399
0.476318 0.084010 0.085399
0.556774 0.084069 0.085399
0.636600 0.084097 0.085399
0.675094 0.103212 0.085399
0.749935 0.103625 0.085399
0.820005 0.104828 0.085399
0.886429 0.106823 0.085399
0.007113 0.139660 0.112467
0.035579 0.139633 0.112467
0.064046 0.140004 0.111613
0.092536 0.139237 0.109137
0.127572 0.135798 0.106499
0.184078 0.133866 0.096672
0.246637 0.133494 0.087880
0.318816 0.131831 0.085527
0.396114 0.129963 0.085399
0.475526 0.128406 0.085399
0.557409 0.127070 0.085399
0.639142 0.126355 0.085399
0.677978 0.158951 0.085399
0.754371 0.160710 0.085399
0.826089 0.163807 0.085399
0.894371 0.167959 0.085399
0.007113 0.193919 0.109840
0.035579 0.194280 0.110259
0.064046 0.194604 0.109836
0.092630 0.192893 0.107752
0.130241 0.190431 0.108404
0.187230 0.189190 0.107115
0.248412 0.190106 0.095665
0.318789 0.190467 0.086676
0.395932 0.189953 0.085399
0.476093 0.189487 0.085399
0.559058 0.189170 0.085399
0.641914 0.189537 0.085399
0.681488 0.227615 0.085399
0.759138 0.230563 0.085399
0.832055 0.234830 0.085399
0.901318 0.240132 0.085399
0.007113 0.250456 0.101385
0.035579 0.251685 0.102761
0.064046 0.253051 0.104133
0.092645 0.252548 0.104130
0.129886 0.252549 0.105912
0.187223 0.253038 0.107066
0.253086 0.253077 0.105831
0.324010 0.254085 0.095524
0.399004 0.255984 0.086595
0.478015 0.257753 0.085406
0.561014 0.259249 0.085399
0.644414 0.261082 0.085399
0.683296 0.302846 0.085399
0.760897 0.306899 0.085399
0.833912 0.311955 0.085399
0.903228 0.317783 0.085399
0.007113 0.313289 0.091383
0.035579 0.315785 0.093571
0.064046 0.318640 0.096324
0.092571 0.320612 0.098696
0.128057 0.322859 0.101745
0.185204 0.324984 0.104215
0.252815 0.325981 0.105361
0.328960 0.326008 0.104281
0.406572 0.327584 0.096792
0.484341 0.330695 0.087937
0.564965 0.334113 0.085500
0.646630 0.337490 0.085399
0.686063 0.380577 0.085400
0.761714 0.385430 0.085399
0.833195 0.390966 0.085399
0.901332 0.397082 0.085399
0.007113 0.384320 0.087255
