assets/lut/berat brownbm.cube
# Created by: G'MIC (https://gmic.eu)
TITLE "brownbm"
# LUT size
LUT_3D_SIZE 7
# Data domain
DOMAIN_MIN 0.0 0.0 0.0
DOMAIN_MAX 1.0 1.0 1.0
# LUT data points
0.030204145237803459 0.030447043478488922 0.030859135091304779
0.055437710136175156 0.033398333936929703 0.029097193852066994
0.12788330018520355 0.036898519843816757 0.020008774474263191
0.24336226284503937 0.033938031643629074 0.00014127843314781785
0.37553390860557556 0.039611171931028366 0
0.54363715648651123 0.087140344083309174 0
0.81281238794326782 0.25394222140312195 0.0056868009269237518
0.045563984662294388 0.060466766357421875 0.037229828536510468
0.068436399102210999 0.063009090721607208 0.038138415664434433
0.14114813506603241 0.064575225114822388 0.029435833916068077
0.25136274099349976 0.06621493399143219 0.0053380480967462063
0.38205260038375854 0.075172483921051025 0
0.54991447925567627 0.11894302070140839 0
0.81800895929336548 0.27232924103736877 0.0070551554672420025
0.097429327666759491 0.15004406869411469 0.060552902519702911
0.11898969858884811 0.14894445240497589 0.05972658097743988
0.18428163230419159 0.14788831770420074 0.052128810435533524
0.28359022736549377 0.15216256678104401 0.030529741197824478
0.40525135397911072 0.1619972437620163 0.0038851120043545961
0.55586177110671997 0.18956105411052704 0
0.81795918941497803 0.3095550537109375 0.0030101852025836706
0.1858355849981308 0.28298518061637878 0.10364891588687897
0.20254315435886383 0.28175923228263855 0.10061939060688019
0.25308457016944885 0.27879375219345093 0.096056215465068817
0.33752334117889404 0.28387731313705444 0.082051880657672882
0.44675335288047791 0.29160198569297791 0.047539759427309036
0.58185774087905884 0.30696544051170349 0.0054783839732408524
0.82003247737884521 0.37943193316459656 0.00071623560506850481
0.29928860068321228 0.42027917504310608 0.1709006130695343
0.30757758021354675 0.41883307695388794 0.16865964233875275
0.3425411581993103 0.41996374726295471 0.17009878158569336
0.40666234493255615 0.42763489484786987 0.16711333394050598
0.49503350257873535 0.43098080158233643 0.14374122023582458
0.61276006698608398 0.43895944952964783 0.07298608124256134
0.83281141519546509 0.47721132636070251 0.00036998075665906072
0.44796925783157349 0.57537424564361572 0.28350457549095154
0.45961651206016541 0.58240765333175659 0.28988951444625854
0.47864386439323425 0.58507668972015381 0.29281455278396606
0.50956010818481445 0.5832628607749939 0.28603819012641907
0.57053184509277344 0.58744055032730103 0.28026542067527771
0.66697049140930176 0.59614896774291992 0.25836306810379028
0.85592317581176758 0.60957056283950806 0.069315783679485321
0.70946341753005981 0.83274251222610474 0.50177681446075439
0.71285754442214966 0.83678847551345825 0.50665533542633057
0.72081750631332397 0.84040540456771851 0.51087498664855957
0.73859095573425293 0.84252876043319702 0.51037734746932983
0.7496105432510376 0.8345293402671814 0.49515840411186218
0.80737167596817017 0.84157407283782959 0.49469852447509766
0.9295310378074646 0.84414196014404297 0.45345309376716614
0.031122604385018349 0.039934150874614716 0.059990931302309036
0.056976735591888428 0.04271920770406723 0.058981802314519882
0.1304316520690918 0.04576607421040535 0.051450900733470917
0.2477317750453949 0.046615242958068848 0.025659030303359032
0.38305822014808655 0.055331166833639145 0.00088088092161342502
0.54445326328277588 0.096360348165035248 0
0.8127942681312561 0.25765231251716614 0.0087490007281303406
0.044159937649965286 0.069403752684593201 0.067632131278514862
0.070923447608947754 0.071418866515159607 0.067609377205371857
0.14316883683204651 0.072816230356693268 0.060379445552825928
0.25707492232322693 0.077353067696094513 0.036742087453603745
0.39207044243812561 0.088096156716346741 0.0058695776388049126
0.55291604995727539 0.12798887491226196 0
0.81644320487976074 0.27334332466125488 0.011693811975419521
0.091747000813484192 0.15497353672981262 0.087811142206192017
0.11884263157844543 0.15620116889476776 0.087995685636997223
0.18444661796092987 0.15650889277458191 0.080062836408615112
0.28737238049507141 0.16262412071228027 0.062800943851470947
0.41335079073905945 0.17323580384254456 0.032255958765745163
0.56271088123321533 0.19887454807758331 0.0014089696342125535
0.81612187623977661 0.30855482816696167 0.00097379495855420828
0.18296310305595398 0.2850705087184906 0.12844705581665039
0.20339830219745636 0.28689160943031311 0.12806724011898041
0.25507470965385437 0.28812611103057861 0.12336846441030502
0.3386056125164032 0.2911926805973053 0.11228353530168533
0.44667118787765503 0.2969796359539032 0.083470530807971954
0.58200019598007202 0.31107345223426819 0.022865340113639832
0.82469910383224487 0.38131377100944519 0
0.30554622411727905 0.42763364315032959 0.19422072172164917
0.31285792589187622 0.42591455578804016 0.19324721395969391
0.34657353162765503 0.42659977078437805 0.19360394775867462
0.40644720196723938 0.42792686820030212 0.18737761676311493
0.49276459217071533 0.4315941333770752 0.17044275999069214
0.61328953504562378 0.44107809662818909 0.10782954096794128
0.83982545137405396 0.4798203706741333 0.0018864201847463846
0.46052342653274536 0.587566077709198 0.30357015132904053
0.46445140242576599 0.5875852108001709 0.30440863966941833
0.48009321093559265 0.58584451675415039 0.30388185381889343
0.51566869020462036 0.5880693793296814 0.30080801248550415
0.57125025987625122 0.58858859539031982 0.29077842831611633
0.663124680519104 0.59224450588226318 0.26542717218399048
0.86040657758712769 0.61262047290802002 0.087289877235889435
0.71444463729858398 0.83642888069152832 0.50386744737625122
0.72095155715942383 0.84175342321395874 0.51310056447982788
0.72624939680099487 0.84302181005477905 0.51576691865921021
0.73448914289474487 0.84106767177581787 0.51092851161956787
0.75261557102203369 0.84029680490493774 0.50214111804962158
0.80006641149520874 0.84336549043655396 0.49751007556915283
0.93415945768356323 0.84627336263656616 0.45394840836524963
0.033880271017551422 0.05960763618350029 0.13892333209514618
0.062032528221607208 0.062385033816099167 0.13795407116413116
0.13390468060970306 0.066048808395862579 0.13476358354091644
0.2526213526725769 0.07064017653465271 0.12004239112138748
0.39786091446876526 0.085034660995006561 0.093954674899578094
0.56122010946273804 0.12659582495689392 0.036891698837280273
0.81782972812652588 0.27181833982467651 0.0006606756360270083
0.047463405877351761 0.086577817797660828 0.14599007368087769
0.075198844075202942 0.090455405414104462 0.14696964621543884
0.14728391170501709 0.094310015439987183 0.1437239795923233
0.264426589012146 0.1014789491891861 0.12990126013755798
0.40678298473358154 0.11497598141431808 0.10086898505687714
0.56545019149780273 0.15503442287445068 0.035924874246120453
0.81944012641906738 0.28842359781265259 0.0032061857637017965
0.090667903423309326 0.16795703768730164 0.15942364931106567
0.12001945823431015 0.17272314429283142 0.1631467342376709
0.18726181983947754 0.17639076709747314 0.15898776054382324
0.29386076331138611 0.18268387019634247 0.14940774440765381
0.42600211501121521 0.19680851697921753 0.12542355060577393
0.57381349802017212 0.2224397212266922 0.062778934836387634
0.81746190786361694 0.32238399982452393 0.00058067170903086662
0.17893132567405701 0.29100975394248962 0.19166669249534607
0.20293815433979034 0.29702156782150269 0.19525863230228424
0.25725296139717102 0.30153384804725647 0.19306179881095886
0.3427920937538147 0.30413985252380371 0.18556167185306549
0.45296409726142883 0.31036031246185303 0.16546119749546051
0.58932620286941528 0.32356747984886169 0.1120312288403511
0.81946861743927002 0.38283202052116394 0.00082989863585680723
0.29953518509864807 0.42740830779075623 0.24474816024303436
0.31315511465072632 0.4316616952419281 0.24691987037658691
0.35053855180740356 0.43526872992515564 0.24742679297924042
0.41028299927711487 0.43570795655250549 0.24075393378734589
0.48960235714912415 0.43362888693809509 0.22349904477596283
0.60995280742645264 0.44183608889579773 0.18214479088783264
0.838936448097229 0.48337692022323608 0.011301033198833466
0.45862114429473877 0.58943283557891846 0.3366054892539978
0.46198108792304993 0.58861649036407471 0.33609187602996826
0.4759918749332428 0.58501744270324707 0.33183398842811584
0.51740121841430664 0.58999776840209961 0.33143052458763123
0.56674635410308838 0.58563488721847534 0.31685012578964233
0.6579509973526001 0.59214901924133301 0.29983282089233398
0.85888731479644775 0.6167638897895813 0.16107197105884552
0.71169763803482056 0.83518528938293457 0.51374071836471558
0.7181469202041626 0.84013074636459351 0.52159422636032104
0.71788513660430908 0.8356592059135437 0.51928496360778809
0.73290115594863892 0.83922725915908813 0.5203588604927063
0.75298064947128296 0.83961951732635498 0.51664727926254272
0.79351651668548584 0.84083354473114014 0.5110509991645813
0.93529868125915527 0.84579366445541382 0.46806022524833679
0.030157754197716713 0.097785905003547668 0.26094862818717957
0.059875696897506714 0.10068277269601822 0.26167586445808411
0.13366219401359558 0.10759419202804565 0.2629571259021759
0.25411257147789001 0.11677843332290649 0.25656312704086304
0.40082338452339172 0.13089480996131897 0.24397283792495728
0.56851744651794434 0.16992887854576111 0.20831140875816345
0.81776100397109985 0.29106912016868591 0.048636730760335922
0.044801928102970123 0.12473638355731964 0.26472741365432739
0.072770856320858002 0.12856185436248779 0.26942086219787598
0.1460874080657959 0.13400538265705109 0.27091741561889648
0.2664543092250824 0.14576771855354309 0.26512861251831055
0.41120731830596924 0.16025938093662262 0.25334089994430542
0.57406026124954224 0.19635689258575439 0.222209632396698
0.81803888082504272 0.30324393510818481 0.050095263868570328
0.09027639776468277 0.198073610663414 0.27412116527557373
0.11619348078966141 0.20487068593502045 0.28073379397392273
0.18657991290092468 0.21018002927303314 0.28189602494239807
0.2959924042224884 0.21739420294761658 0.27661648392677307
0.42920804023742676 0.22998020052909851 0.26265665888786316
0.58111536502838135 0.2542361319065094 0.23000600934028625
0.82171380519866943 0.34129521250724792 0.060355644673109055
0.17944705486297607 0.31011947989463806 0.29495596885681152
0.19904311001300812 0.31737276911735535 0.30055084824562073
0.25517255067825317 0.32225248217582703 0.30136588215827942
0.34405398368835449 0.32571357488632202 0.2962372899055481
0.45530673861503601 0.3309367299079895 0.28146356344223022
0.59498113393783569 0.34397238492965698 0.25414925813674927
0.82866615056991577 0.40450417995452881 0.084338918328285217
0.30084800720214844 0.43864685297012329 0.32980805635452271
0.31027939915657043 0.44209203124046326 0.33097818493843079
0.34660753607749939 0.44582167267799377 0.33108839392662048
0.41047915816307068 0.44824442267417908 0.32708761096000671
0.49275234341621399 0.44643345475196838 0.31360682845115662
0.61604362726211548 0.45467469096183777 0.28915360569953918
0.83942615985870361 0.49503117799758911 0.14333093166351318
0.45145425200462341 0.58910870552062988 0.38871824741363525
0.45888078212738037 0.5933765172958374 0.39317190647125244
0.47619566321372986 0.59352618455886841 0.39176842570304871
0.51273268461227417 0.59309613704681396 0.38541188836097717
0.56877893209457397 0.59070247411727905 0.37244793772697449
0.66711306571960449 0.60053074359893799 0.36076727509498596
0.86447477340698242 0.62233072519302368 0.27751776576042175
0.71097123622894287 0.83726006746292114 0.54289430379867554
0.71137815713882446 0.83755528926849365 0.54244506359100342
0.70934015512466431 0.83244436979293823 0.53723090887069702
0.7227928638458252 0.83152705430984497 0.53612273931503296
0.76096600294113159 0.84068006277084351 0.54280972480773926
0.80056101083755493 0.84194368124008179 0.53683280944824219
0.9377133846282959 0.85340219736099243 0.50073635578155518
0.020808052271604538 0.17373144626617432 0.39392867684364319
0.05386454239487648 0.1798575222492218 0.39962175488471985
0.13368768990039825 0.19185401499271393 0.40434089303016663
0.25801375508308411 0.19745561480522156 0.39863377809524536
0.40353083610534668 0.20704983174800873 0.39147076010704041
0.56867837905883789 0.23375801742076874 0.37839612364768982
0.82441657781600952 0.33589309453964233 0.29432970285415649
0.03613261878490448 0.19734348356723785 0.3974708616733551
0.067709051072597504 0.20020629465579987 0.40374001860618591
0.14630667865276337 0.20853286981582642 0.40738576650619507
0.26882666349411011 0.21953552961349487 0.40361851453781128
0.41253417730331421 0.22985613346099854 0.39415672421455383
0.57250738143920898 0.25318801403045654 0.37783533334732056
0.82653540372848511 0.34655964374542236 0.29731163382530212
0.087207764387130737 0.25216901302337646 0.4019007682800293
0.11361689865589142 0.25717377662658691 0.4087490439414978
0.18642011284828186 0.26455444097518921 0.41150957345962524
0.29726448655128479 0.27160435914993286 0.40692311525344849
0.42903396487236023 0.27911898493766785 0.39407220482826233
0.58357179164886475 0.29861676692962646 0.38046640157699585
0.82688659429550171 0.37520015239715576 0.30242177844047546
0.18178954720497131 0.34357285499572754 0.41543981432914734
0.19934664666652679 0.3507722020149231 0.42110967636108398
0.25287115573883057 0.3569733202457428 0.42294710874557495
0.34305480122566223 0.36000353097915649 0.41896995902061462
0.45507249236106873 0.3615146279335022 0.40486723184585571
0.59732943773269653 0.37224254012107849 0.38718041777610779
0.83276981115341187 0.42762544751167297 0.31965887546539307
0.30638778209686279 0.45851349830627441 0.43554136157035828
0.31260105967521667 0.46256241202354431 0.43727022409439087
0.34440469741821289 0.46402311325073242 0.43698754906654358
0.40681105852127075 0.46624743938446045 0.43497923016548157
0.49441665410995483 0.46886226534843445 0.42883545160293579
0.62105923891067505 0.47790089249610901 0.41621053218841553
0.8432997465133667 0.50831812620162964 0.34186479449272156
0.45534041523933411 0.59850305318832397 0.47055715322494507
0.45922750234603882 0.60103893280029297 0.47178032994270325
0.47509029507637024 0.60248219966888428 0.47223401069641113
0.51276284456253052 0.60388261079788208 0.46861404180526733
0.57071703672409058 0.60542798042297363 0.46352037787437439
0.66762298345565796 0.61219531297683716 0.45749694108963013
0.86521905660629272 0.62551039457321167 0.39676257967948914
0.71307855844497681 0.84094023704528809 0.58890730142593384
0.71058166027069092 0.83655136823654175 0.57886844873428345
0.70960557460784912 0.83589613437652588 0.57818448543548584
0.72302699089050293 0.8370659351348877 0.57695066928863525
0.74725228548049927 0.83573007583618164 0.57472646236419678
0.79186356067657471 0.8391563892364502 0.5814775824546814
0.93289309740066528 0.85052049160003662 0.55604535341262817
0.0084836473688483238 0.28824558854103088 0.53522181510925293
0.039682246744632721 0.29891529679298401 0.54589837789535522
0.12787756323814392 0.30857083201408386 0.55109483003616333
0.26486790180206299 0.31633615493774414 0.55105191469192505
0.41426342725753784 0.32370391488075256 0.54947829246520996
0.57289332151412964 0.33251991868019104 0.5467149019241333
0.82809054851531982 0.40516430139541626 0.51489043235778809
0.023329745978116989 0.3013617992401123 0.53719675540924072
0.057439602911472321 0.30553132295608521 0.54324454069137573
0.14426060020923615 0.3154178261756897 0.55066961050033569
0.27436909079551697 0.32387256622314453 0.55138742923736572
0.41911488771438599 0.33205384016036987 0.54767155647277832
0.57728201150894165 0.3447272777557373 0.55007803440093994
0.8360258936882019 0.41498270630836487 0.51610058546066284
0.080742329359054565 0.3378748893737793 0.54301446676254272
0.10996964573860168 0.34055432677268982 0.54728132486343384
0.18660449981689453 0.34673061966896057 0.55190294981002808
0.29993954300880432 0.35338607430458069 0.55137580633163452
0.43134695291519165 0.3590700626373291 0.54390913248062134
0.58734458684921265 0.37399840354919434 0.54689687490463257
0.84024572372436523 0.43881931900978088 0.5219917893409729
0.17635919153690338 0.40818601846694946 0.55957722663879395
0.19915999472141266 0.40917754173278809 0.55808812379837036
0.25450670719146729 0.410896897315979 0.55705171823501587
0.3439176082611084 0.41813114285469055 0.55901539325714111
0.45533663034439087 0.41842302680015564 0.55024200677871704
0.60112172365188599 0.42359653115272522 0.54677039384841919
0.84227198362350464 0.4738554060459137 0.5179821252822876
0.30636683106422424 0.49590229988098145 0.56640088558197021
0.31606590747833252 0.50248652696609497 0.57011198997497559
0.34792983531951904 0.50121116638183594 0.56881344318389893
0.40760159492492676 0.50425410270690918 0.5692896842956543
0.49552339315414429 0.50656342506408691 0.5664668083190918
0.62625777721405029 0.51381468772888184 0.564361572265625
0.85520827770233154 0.54339069128036499 0.527668297290802
0.45927378535270691 0.62137466669082642 0.58510440587997437
0.46470710635185242 0.62358278036117554 0.58669000864028931
0.4828014075756073 0.62759077548980713 0.5910717248916626
0.51883208751678467 0.62710869312286377 0.58592790365219116
0.57578033208847046 0.63165003061294556 0.58966881036758423
0.6690177321434021 0.6359284520149231 0.58332741260528564
0.86757320165634155 0.6463630199432373 0.55016559362411499
0.71212762594223022 0.84402060508728027 0.65009206533432007
0.71887814998626709 0.84401786327362061 0.64720499515533447
0.72782212495803833 0.85396212339401245 0.66224920749664307
0.74076205492019653 0.85580331087112427 0.66290241479873657
0.75943648815155029 0.85243326425552368 0.65394383668899536
0.79584121704101562 0.8547675609588623 0.65850919485092163
0.93452924489974976 0.86061543226242065 0.64005368947982788
0.00029208612977527082 0.50847822427749634 0.76243293285369873
0.017378773540258408 0.51002079248428345 0.76394683122634888
0.095466122031211853 0.53261548280715942 0.78349477052688599
0.25433000922203064 0.53621196746826172 0.78807604312896729
0.41185075044631958 0.54008877277374268 0.78802531957626343
0.5714985728263855 0.54464912414550781 0.78655260801315308
0.83320111036300659 0.57884109020233154 0.78075844049453735
0.0018298579379916191 0.51558405160903931 0.76495969295501709
0.030238432809710503 0.51757931709289551 0.76709866523742676
0.11281618475914001 0.53526383638381958 0.78355926275253296
0.25985848903656006 0.5357787013053894 0.78579765558242798
0.4140859842300415 0.547618567943573 0.78995460271835327
0.57498490810394287 0.55117917060852051 0.78997254371643066
0.82880085706710815 0.57737189531326294 0.76984083652496338
0.051325254142284393 0.5337868332862854 0.77160161733627319
0.080806717276573181 0.53732109069824219 0.77704685926437378
0.16074126958847046 0.54816782474517822 0.78692805767059326
0.28526982665061951 0.55377590656280518 0.79030054807662964
0.4261869490146637 0.55694746971130371 0.78681725263595581
0.5859222412109375 0.56639784574508667 0.78771853446960449
0.84510809183120728 0.59320724010467529 0.78426253795623779
0.14646854996681213 0.57906836271286011 0.7907063364982605
0.17339164018630981 0.57429224252700806 0.78813636302947998
0.23523011803627014 0.57374054193496704 0.78631186485290527
0.33205470442771912 0.57820051908493042 0.78992992639541626
0.45055404305458069 0.58462655544281006 0.79141533374786377
0.59846025705337524 0.58326131105422974 0.78395098447799683
0.8355063796043396 0.60849744081497192 0.7749398946762085
0.29654476046562195 0.62081450223922729 0.79042190313339233
0.30486324429512024 0.62023842334747314 0.79119700193405151
0.34010782837867737 0.62072008848190308 0.7914731502532959
0.40196868777275085 0.62377595901489258 0.79384034872055054
0.49221694469451904 0.62516641616821289 0.79408866167068481
0.62297844886779785 0.62631487846374512 0.7884451150894165
0.85029929876327515 0.65384471416473389 0.78284460306167603
0.45296919345855713 0.70269238948822021 0.80380427837371826
0.45770260691642761 0.70130151510238647 0.80430591106414795
0.47824382781982422 0.70383816957473755 0.80373060703277588
0.50751888751983643 0.69529563188552856 0.79290783405303955
0.56849151849746704 0.69847732782363892 0.79773509502410889
0.66988992691040039 0.70391875505447388 0.79315030574798584
0.8724905252456665 0.7153627872467041 0.78294312953948975
0.70954537391662598 0.8745998740196228 0.82485145330429077
0.71150034666061401 0.87620383501052856 0.82405209541320801
0.7207033634185791 0.88040083646774292 0.83291399478912354
0.73200070858001709 0.87834340333938599 0.82907605171203613
0.75744688510894775 0.88079220056533813 0.82734686136245728
0.80176520347595215 0.88187980651855469 0.82650047540664673
0.9285094141960144 0.88129645586013794 0.81556767225265503
