assets/lut/berat westernlut2.cube
# Created by: G'MIC (https://gmic.eu)
TITLE "westernlut2"
# LUT size
LUT_3D_SIZE 7
# Data domain
DOMAIN_MIN 0.0 0.0 0.0
DOMAIN_MAX 1.0 1.0 1.0
# LUT data points
0.0059965844266116619 0.008406306616961956 0.0078116022050380707
0.049692489206790924 0.007235418539494276 0.0077205882407724857
0.11652317643165588 0.0017927131848409772 0.0035843942314386368
0.17942076921463013 0.00077963434159755707 0
0.24120892584323883 0.0020073535852134228 0.00014397116319742054
0.28506726026535034 0.00093307497445493937 0
0.34480732679367065 0.0021493202075362206 8.6346793978009373e-05
0.0021942737512290478 0.041314218193292618 0.0026232700329273939
0.041384484618902206 0.038517042994499207 0.0056194979697465897
0.11065252125263214 0.036835808306932449 0.0061134635470807552
0.18471743166446686 0.038764640688896179 0.003757476806640625
0.28267022967338562 0.043275915086269379 0.0044483407400548458
0.39085179567337036 0.053289644420146942 0.0053191990591585636
0.52318626642227173 0.06870906800031662 0.0088708763942122459
0.0039184419438242912 0.11132698506116867 0.002846631919965148
0.045347057282924652 0.12679894268512726 0.0043501313775777817
0.14421930909156799 0.14668174088001251 0.0031649121083319187
0.28539153933525085 0.16292719542980194 0.0035111072938889265
0.45099073648452759 0.17688561975955963 0.0077205882407724857
0.59181642532348633 0.19629578292369843 0.0052288281731307507
0.71897155046463013 0.21962401270866394 0.013363647274672985
0.0023360906634479761 0.282184898853302 0.0016018586466088891
0.065860956907272339 0.31348440051078796 0.0070014656521379948
0.20562209188938141 0.33666178584098816 0.0058228438720107079
0.38051286339759827 0.3495541512966156 0.0051176482811570168
0.55201321840286255 0.36251530051231384 0.0074972263537347317
0.68616509437561035 0.38408774137496948 0.0094426767900586128
0.78136509656906128 0.40912190079689026 0.020430052652955055
0.011476180516183376 0.49416923522949219 0.0068627600558102131
0.11197684705257416 0.51835250854492188 0.016100237146019936
0.2656920850276947 0.53461164236068726 0.021924097090959549
0.4384540319442749 0.54173898696899414 0.021554550155997276
0.59727096557617188 0.54889923334121704 0.020949255675077438
0.72568267583847046 0.56454944610595703 0.026173895224928856
0.81692773103713989 0.58415108919143677 0.041212119162082672
0.060881670564413071 0.68497025966644287 0.035112209618091583
0.17769618332386017 0.69453096389770508 0.041969388723373413
0.33204787969589233 0.70100259780883789 0.050420153886079788
0.4979061484336853 0.7056545615196228 0.052078515291213989
0.64309227466583252 0.70567137002944946 0.0479697585105896
0.75883162021636963 0.7091972827911377 0.049331139773130417
0.84807860851287842 0.71606326103210449 0.062366515398025513
0.10938595235347748 0.78967171907424927 0.067158639430999756
0.22999347746372223 0.79808992147445679 0.072046123445034027
0.37696316838264465 0.80063003301620483 0.079086050391197205
0.54111433029174805 0.81789571046829224 0.083309710025787354
0.67778533697128296 0.82039022445678711 0.076015889644622803
0.78604191541671753 0.81959563493728638 0.073877520859241486
0.87284129858016968 0.82105123996734619 0.084202349185943604
0.0061685000546276569 0.011589842848479748 0.055470738559961319
0.05048757791519165 0.01165562029927969 0.050768099725246429
0.11399314552545547 0.0046153049916028976 0.041652724146842957
0.17966349422931671 0.0012759339297190309 0.027111532166600227
0.24442769587039948 0.0029427921399474144 0.025574881583452225
0.29227471351623535 0.002379443496465683 0.027550715953111649
0.35404598712921143 0.0020735049620270729 0.032523870468139648
0.0022671569604426622 0.045822560787200928 0.04510122537612915
0.045539047569036484 0.047153983265161514 0.047043535858392715
0.11369724571704865 0.043488893657922745 0.04472910612821579
0.19750586152076721 0.042210359126329422 0.04131665825843811
0.30544131994247437 0.049698982387781143 0.045429933816194534
0.41580092906951904 0.058065645396709442 0.05233122780919075
0.54416036605834961 0.072656191885471344 0.063535399734973907
0.0039308583363890648 0.11478742957115173 0.040494177490472794
0.049788530915975571 0.13453851640224457 0.048865105956792831
0.15949900448322296 0.15728271007537842 0.056731805205345154
0.30490705370903015 0.17225423455238342 0.060288343578577042
0.46354484558105469 0.18579186499118805 0.06394512951374054
0.61062419414520264 0.2053910493850708 0.063391938805580139
0.73401552438735962 0.23071055114269257 0.077738955616950989
0.0034088883548974991 0.29604265093803406 0.043882034718990326
0.071101963520050049 0.32546505331993103 0.0646514892578125
0.22041073441505432 0.34836199879646301 0.073381759226322174
0.39653849601745605 0.36137902736663818 0.075007162988185883
0.55950629711151123 0.37382864952087402 0.078049004077911377
0.69090372323989868 0.39403331279754639 0.080483816564083099
0.78232961893081665 0.41802674531936646 0.09665660560131073
0.018893972039222717 0.50885462760925293 0.06575775146484375
0.11273659765720367 0.52740943431854248 0.087087936699390411
0.27332642674446106 0.54595911502838135 0.10212508589029312
0.44952449202537537 0.55280596017837524 0.10401603579521179
0.60660290718078613 0.55878955125808716 0.10470539331436157
0.73153591156005859 0.57193565368652344 0.11144283413887024
0.82121652364730835 0.58765417337417603 0.12963032722473145
0.063756935298442841 0.68792712688446045 0.12018632888793945
0.17952452600002289 0.70394116640090942 0.13019375503063202
0.33757659792900085 0.71506804227828979 0.14084641635417938
0.5021483302116394 0.71227747201919556 0.14103923738002777
0.64926505088806152 0.70964974164962769 0.1369154304265976
0.76645869016647339 0.71356689929962158 0.14137069880962372
0.85564768314361572 0.72100889682769775 0.15878307819366455
0.10851859301328659 0.79404681921005249 0.16934745013713837
0.23173101246356964 0.80745804309844971 0.17243313789367676
0.38443610072135925 0.81761783361434937 0.17837294936180115
0.54137766361236572 0.81926918029785156 0.17533738911151886
0.68363106250762939 0.81878376007080078 0.16647195816040039
0.79582732915878296 0.82069665193557739 0.168503537774086
0.88368880748748779 0.82705104351043701 0.18491163849830627
0.0058651193976402283 0.0068183001130819321 0.11639950424432755
0.04695047065615654 0.0061789117753505707 0.11183838546276093
0.10880690813064575 0.00076693366281688213 0.10816039890050888
0.17271503806114197 0 0.10134981572628021
0.23792643845081329 0.00098245660774409771 0.098601996898651123
0.2985113263130188 0.0029110629111528397 0.10553044080734253
0.37119859457015991 0.0019775989931076765 0.1204029768705368
0.0024900250136852264 0.037644419819116592 0.10403917729854584
0.040490526705980301 0.042765256017446518 0.10866855084896088
0.10855685919523239 0.042122740298509598 0.10985217988491058
0.20209592580795288 0.043577335774898529 0.11707421392202377
0.3200930655002594 0.052146509289741516 0.12875977158546448
0.43899956345558167 0.06111438199877739 0.14589804410934448
0.56519967317581177 0.074986673891544342 0.16980127990245819
0.0057706194929778576 0.12421161681413651 0.11455758661031723
0.056731011718511581 0.14888277649879456 0.1353505402803421
0.16942059993743896 0.16800056397914886 0.15194734930992126
0.31952470541000366 0.1787777841091156 0.15901991724967957
0.49380698800086975 0.19353199005126953 0.1733689159154892
0.63343125581741333 0.21124650537967682 0.18430665135383606
0.74691623449325562 0.23457306623458862 0.2064998596906662
0.0054565430618822575 0.31064227223396301 0.14699900150299072
0.081695497035980225 0.3405914306640625 0.17572461068630219
0.23009543120861053 0.35675707459449768 0.19038939476013184
0.40224021673202515 0.36571449041366577 0.19077612459659576
0.56757926940917969 0.38008067011833191 0.19872672855854034
0.701774001121521 0.39916646480560303 0.21107986569404602
0.7954857349395752 0.42080160975456238 0.23270753026008606
0.025355320423841476 0.51886254549026489 0.18804933130741119
0.1246732696890831 0.53711187839508057 0.21146437525749207
0.28059613704681396 0.54954683780670166 0.22574500739574432
0.45317211747169495 0.55462944507598877 0.22777411341667175
0.60887795686721802 0.56131529808044434 0.23005466163158417
0.73382067680358887 0.57378721237182617 0.24110718071460724
0.82501667737960815 0.58760589361190796 0.26084178686141968
0.074189625680446625 0.69478726387023926 0.25306606292724609
0.18432320654392242 0.70373564958572388 0.26124879717826843
0.33635309338569641 0.70991712808609009 0.2673056423664093
0.49950125813484192 0.70884907245635986 0.26499840617179871
0.64800596237182617 0.70751118659973145 0.26255026459693909
0.76696324348449707 0.7132190465927124 0.26962548494338989
0.85802215337753296 0.72169828414916992 0.28720742464065552
0.11694929748773575 0.80084151029586792 0.3055444061756134
0.23223981261253357 0.80540692806243896 0.305367112159729
0.38038060069084167 0.81486052274703979 0.30595302581787109
0.5363926887512207 0.81636720895767212 0.2991950511932373
0.67983430624008179 0.81622052192687988 0.29095470905303955
0.79611063003540039 0.82076054811477661 0.29489201307296753
0.88748937845230103 0.82920366525650024 0.31126111745834351
0.0066187093034386635 0.0016182992840185761 0.18720664083957672
0.045748438686132431 0.0018949620425701141 0.18216995894908905
0.10331200808286667 0.00072395475581288338 0.17864501476287842
0.17193315923213959 0.00038164923898875713 0.17713329195976257
0.23704463243484497 0.00073529413202777505 0.17517948150634766
0.30586034059524536 0.0012372335186228156 0.1830146312713623
0.3821486234664917 0.00085742428200319409 0.20525757968425751
0.0041980519890785217 0.031229728832840919 0.17120526731014252
0.043327871710062027 0.040791112929582596 0.18162010610103607
0.11444942653179169 0.045102797448635101 0.19057151675224304
0.21737508475780487 0.048028908669948578 0.20892518758773804
0.34022125601768494 0.054669354110956192 0.23125824332237244
0.47320264577865601 0.062815889716148376 0.25942987203598022
0.61523294448852539 0.081743381917476654 0.30281654000282288
0.0086405733600258827 0.1304476261138916 0.21190530061721802
0.068624533712863922 0.15722952783107758 0.24312123656272888
0.17755533754825592 0.17467473447322845 0.26522204279899597
0.32967966794967651 0.1835976243019104 0.28130024671554565
0.50054287910461426 0.19694733619689941 0.30776664614677429
0.65203320980072021 0.21539711952209473 0.33486875891685486
0.7672383189201355 0.24115407466888428 0.36509120464324951
0.011399677023291588 0.31859466433525085 0.29075402021408081
0.09958358108997345 0.3448021411895752 0.31672975420951843
0.2399677038192749 0.36156988143920898 0.3329460620880127
0.40966182947158813 0.36957833170890808 0.33686965703964233
0.57592666149139404 0.38276907801628113 0.35005143284797668
0.70808935165405273 0.40314602851867676 0.3698078989982605
0.79568731784820557 0.42748361825942993 0.39386355876922607
0.031344842165708542 0.52545297145843506 0.34683516621589661
0.13910812139511108 0.54399579763412476 0.36796116828918457
0.28933972120285034 0.55233132839202881 0.37732371687889099
0.45758473873138428 0.55538618564605713 0.37738156318664551
0.61279094219207764 0.56216800212860107 0.38251909613609314
0.73539155721664429 0.57536095380783081 0.39646357297897339
0.82502681016921997 0.58991503715515137 0.41403970122337341
0.082921572029590607 0.70149940252304077 0.41322734951972961
0.19323691725730896 0.70833462476730347 0.41982179880142212
0.33865505456924438 0.70827263593673706 0.41832923889160156
0.49873879551887512 0.70667892694473267 0.41286727786064148
0.64634138345718384 0.7073555588722229 0.4133763313293457
0.7660292387008667 0.71403306722640991 0.42187511920928955
0.85795134305953979 0.7223743200302124 0.43499219417572021
0.12470047920942307 0.80410289764404297 0.4607776403427124
0.23797261714935303 0.8094482421875 0.46171090006828308
0.37868744134902954 0.81204867362976074 0.45495882630348206
0.53130888938903809 0.81440651416778564 0.44507423043251038
0.67400813102722168 0.81715112924575806 0.43921256065368652
0.79260867834091187 0.82307916879653931 0.4430382251739502
0.88700407743453979 0.8309323787689209 0.45374146103858948
0.0064644906669855118 0.00073529413202777505 0.25718286633491516
0.043768655508756638 0.0010061974171549082 0.24899034202098846
0.099752642214298248 0.0015318627702072263 0.24275808036327362
0.17229340970516205 0.001188809284940362 0.23873527348041534
0.24181504547595978 0.00084128289017826319 0.24226072430610657
0.30858412384986877 1.7951517293113284e-05 0.25418388843536377
0.4019925594329834 0.0012953814584761858 0.28733274340629578
0.0023561962880194187 0.032133229076862335 0.23537096381187439
0.043552324175834656 0.039865396916866302 0.250825434923172
0.11711849272251129 0.045990947633981705 0.26633036136627197
0.22757500410079956 0.04970112070441246 0.2930532693862915
0.36091423034667969 0.055991258472204208 0.33154159784317017
0.49460116028785706 0.063846975564956665 0.37081611156463623
0.63545572757720947 0.083881095051765442 0.42158180475234985
0.0067733614705502987 0.13980919122695923 0.30701935291290283
0.071567505598068237 0.16242748498916626 0.34870555996894836
0.18396589159965515 0.18008162081241608 0.38551780581474304
0.34376713633537292 0.18898196518421173 0.40957611799240112
0.51978617906570435 0.20242699980735779 0.44909191131591797
0.65991115570068359 0.22047939896583557 0.47515833377838135
0.77360725402832031 0.24656248092651367 0.50630736351013184
0.014150133356451988 0.32603496313095093 0.42691957950592041
0.10404641926288605 0.35136425495147705 0.45272904634475708
0.24539853632450104 0.36809784173965454 0.47361475229263306
0.41777673363685608 0.3760988712310791 0.4811643660068512
0.5802878737449646 0.38850671052932739 0.49485126137733459
0.70500177145004272 0.40846472978591919 0.511199951171875
0.7996373176574707 0.43164324760437012 0.53448641300201416
0.034568518400192261 0.53174763917922974 0.49496480822563171
0.14383319020271301 0.55117416381835938 0.51279979944229126
0.29458948969841003 0.55849814414978027 0.51901960372924805
0.46274262666702271 0.56013047695159912 0.51853412389755249
0.61678439378738403 0.56664323806762695 0.52758938074111938
0.73731547594070435 0.57961380481719971 0.54166001081466675
0.82750535011291504 0.59364420175552368 0.55551242828369141
0.084829159080982208 0.70699232816696167 0.55963981151580811
0.19836229085922241 0.71615999937057495 0.56744325160980225
0.3433072566986084 0.71431756019592285 0.56314235925674438
0.50151544809341431 0.70991283655166626 0.55627036094665527
0.64880222082138062 0.71078771352767944 0.55912357568740845
0.76827704906463623 0.71692055463790894 0.56831967830657959
0.85963934659957886 0.72425180673599243 0.57694637775421143
0.12627348303794861 0.80745470523834229 0.60175091028213501
0.24069434404373169 0.81539177894592285 0.60643494129180908
0.37933948636054993 0.81586098670959473 0.59892290830612183
0.53091025352478027 0.81739950180053711 0.58699733018875122
0.67289608716964722 0.82049369812011719 0.58207625150680542
0.79197984933853149 0.82602035999298096 0.58562779426574707
0.88738709688186646 0.83282822370529175 0.59270763397216797
0.0035123787820339203 0 0.30215376615524292
0.039752181619405746 0.00014163747255224735 0.30415603518486023
0.099410086870193481 0.0015551997348666191 0.29638022184371948
0.1725451797246933 0.0013430278049781919 0.28985130786895752
0.25155302882194519 0.0011162701994180679 0.29886230826377869
0.34199619293212891 0.0018804512219503522 0.33119645714759827
0.43572187423706055 0.0020326650701463223 0.36971387267112732
0.00079644896322861314 0.034568201750516891 0.29021438956260681
0.042622406035661697 0.040976550430059433 0.3156474232673645
0.12222212553024292 0.048868410289287567 0.34145146608352661
0.23487763106822968 0.05078309029340744 0.36608603596687317
0.37619480490684509 0.058028861880302429 0.4131319522857666
0.51957052946090698 0.069144442677497864 0.46728041768074036
0.65059614181518555 0.088064514100551605 0.52006393671035767
0.003343858988955617 0.14906290173530579 0.38862341642379761
0.069125458598136902 0.16936159133911133 0.43835955858230591
0.19040480256080627 0.18587870895862579 0.48519504070281982
0.35723042488098145 0.19489772617816925 0.52004629373550415
0.53135955333709717 0.2084125429391861 0.55909115076065063
0.67076224088668823 0.22798043489456177 0.58892405033111572
0.77220481634140015 0.25370380282402039 0.61282968521118164
0.0067025576718151569 0.33611854910850525 0.52407670021057129
0.097782984375953674 0.36129122972488403 0.55793589353561401
0.2490956038236618 0.37626829743385315 0.58867990970611572
0.4283195436000824 0.38453200459480286 0.6027754545211792
0.59076720476150513 0.39792710542678833 0.61402672529220581
0.71392977237701416 0.41721546649932861 0.62745451927185059
0.80484342575073242 0.43840914964675903 0.64352208375930786
0.026104960590600967 0.53636139631271362 0.59720385074615479
0.13938315212726593 0.55788725614547729 0.61992329359054565
0.2981773316860199 0.5658075213432312 0.6335068941116333
0.46958747506141663 0.56755298376083374 0.63548117876052856
0.62335801124572754 0.57467901706695557 0.64305037260055542
0.74425554275512695 0.58759522438049316 0.65476757287979126
0.83572065830230713 0.60089200735092163 0.6669730544090271
0.08234858512878418 0.70814275741577148 0.66421949863433838
0.20134393870830536 0.72177028656005859 0.68018138408660889
0.35011234879493713 0.72282606363296509 0.67923617362976074
0.50802469253540039 0.71579903364181519 0.67476946115493774
0.65388566255569458 0.71571946144104004 0.67555743455886841
0.773365318775177 0.72211259603500366 0.68291455507278442
0.86567765474319458 0.72990816831588745 0.69154566526412964
0.12574276328086853 0.81076908111572266 0.7031015157699585
0.24062831699848175 0.81996506452560425 0.71637433767318726
0.38435637950897217 0.82513296604156494 0.71238809823989868
0.53629469871520996 0.82445108890533447 0.70380771160125732
0.67670744657516479 0.82546281814575195 0.70017427206039429
0.79520213603973389 0.82981377840042114 0.70323163270950317
0.89047038555145264 0.83636265993118286 0.7097163200378418
0.0052062538452446461 0.0015134025597944856 0.33660382032394409
0.041600275784730911 0.00037572524161078036 0.33535575866699219
0.1028493270277977 0.0018159904284402728 0.33202940225601196
0.17393159866333008 0.0007492962758988142 0.32641679048538208
0.24965384602546692 0.00046691895113326609 0.33610013127326965
0.34559202194213867 0.00058162910863757133 0.37780019640922546
0.46194985508918762 0.00260011269710958 0.43626472353935242
0.0041173449717462063 0.03657054528594017 0.32932117581367493
0.0476352758705616 0.044084001332521439 0.35219606757164001
0.12991540133953094 0.052582625299692154 0.38692283630371094
0.25334429740905762 0.056146584451198578 0.42803069949150085
0.40019777417182922 0.064902722835540771 0.48934698104858398
0.53667664527893066 0.076116032898426056 0.54185116291046143
0.66926866769790649 0.094860285520553589 0.59872376918792725
0.0082182493060827255 0.15619012713432312 0.45870769023895264
0.075420498847961426 0.18124176561832428 0.52486801147460938
0.20264911651611328 0.19638487696647644 0.57049572467803955
0.37670624256134033 0.20513482391834259 0.611622154712677
0.55286276340484619 0.21896401047706604 0.65332943201065063
0.68343120813369751 0.23747657239437103 0.67593973875045776
0.77406501770019531 0.25975209474563599 0.69097554683685303
0.012730617076158524 0.34799861907958984 0.62318134307861328
0.10689800232648849 0.37205427885055542 0.65557652711868286
0.25997936725616455 0.38586238026618958 0.68437188863754272
0.44023799896240234 0.39434042572975159 0.69970166683197021
0.60214048624038696 0.40926638245582581 0.7034449577331543
0.72741097211837769 0.42587992548942566 0.71619701385498047
0.81414389610290527 0.44299358129501343 0.72743290662765503
0.035888191312551498 0.54048836231231689 0.68678897619247437
0.14910869300365448 0.56168186664581299 0.70276618003845215
0.30717751383781433 0.57065075635910034 0.72236019372940063
0.4777105450630188 0.57342278957366943 0.73132455348968506
0.62928909063339233 0.58270150423049927 0.73038226366043091
0.75212150812149048 0.59499233961105347 0.73926436901092529
0.84446662664413452 0.60837143659591675 0.75137937068939209
0.089480049908161163 0.71200919151306152 0.73945289850234985
0.20843540132045746 0.72250485420227051 0.75639569759368896
0.35817310214042664 0.72558498382568359 0.76082605123519897
0.51524955034255981 0.71927911043167114 0.76560980081558228
0.65852761268615723 0.71981275081634521 0.7643548846244812
0.77849322557449341 0.72632992267608643 0.76861053705215454
0.87188214063644409 0.73614633083343506 0.7778511643409729
0.13242918252944946 0.8145255446434021 0.77092951536178589
0.24385271966457367 0.82568305730819702 0.78489720821380615
0.39272996783256531 0.83370441198348999 0.78827255964279175
0.54372906684875488 0.8323436975479126 0.7910923957824707
0.68080061674118042 0.83051890134811401 0.79125809669494629
0.79873073101043701 0.83328664302825928 0.79418337345123291
0.89332228899002075 0.84063422679901123 0.80170172452926636
