assets/lut/berat sunlightlove.cube
# Created by: G'MIC (https://gmic.eu)
TITLE "sunlightlove"
# LUT size
LUT_3D_SIZE 7
# Data domain
DOMAIN_MIN 0.0 0.0 0.0
DOMAIN_MAX 1.0 1.0 1.0
# LUT data points
0.042252186685800552 0.038983453065156937 0.038193512707948685
0.065302617847919464 0.041060250252485275 0.036550633609294891
0.17097865045070648 0.042811494320631027 0.021621808409690857
0.33693370223045349 0.050175536423921585 0.0023306603543460369
0.52623558044433594 0.094079248607158661 0
0.69652336835861206 0.17685465514659882 0
0.88402187824249268 0.30592027306556702 0
0.053624171763658524 0.06683775782585144 0.042670469731092453
0.081332236528396606 0.071105718612670898 0.041993055492639542
0.18961702287197113 0.069389775395393372 0.0236078891903162
0.37588891386985779 0.081265531480312347 0.0047574508935213089
0.59110909700393677 0.1498216837644577 5.3256164392223582e-05
0.81766462326049805 0.28042382001876831 0
0.88255339860916138 0.32577431201934814 0
0.11517944186925888 0.1817343533039093 0.072160385549068451
0.14634640514850616 0.19785438477993011 0.074875839054584503
0.25097599625587463 0.20513388514518738 0.068415939807891846
0.42750492691993713 0.22521275281906128 0.03360048308968544
0.62295937538146973 0.27068984508514404 0.0083892224356532097
0.83961993455886841 0.36613649129867554 1.4361213288793806e-05
0.89407169818878174 0.39418533444404602 0
0.29279693961143494 0.40342250466346741 0.17435915768146515
0.31531336903572083 0.41179397702217102 0.17836079001426697
0.3741452693939209 0.41778677701950073 0.17653429508209229
0.49734634160995483 0.42053210735321045 0.14072327315807343
0.65230923891067505 0.44496133923530579 0.079061634838581085
0.84553897380828857 0.50389492511749268 0.011807849630713463
0.90593010187149048 0.53057771921157837 4.2096307879546657e-05
0.52813363075256348 0.65219712257385254 0.35302960872650146
0.55502098798751831 0.66975641250610352 0.37093183398246765
0.57488268613815308 0.66460227966308594 0.36103630065917969
0.62827539443969727 0.65481126308441162 0.33772051334381104
0.73461079597473145 0.65455144643783569 0.29494032263755798
0.87174874544143677 0.67244291305541992 0.19411914050579071
0.93399584293365479 0.68737363815307617 0.10183298587799072
0.77127349376678467 0.89282447099685669 0.55871152877807617
0.78478115797042847 0.90260392427444458 0.56733167171478271
0.78510701656341553 0.89174091815948486 0.55517196655273438
0.80019462108612061 0.86707776784896851 0.52621257305145264
0.84809529781341553 0.85243916511535645 0.49628296494483948
0.93883401155471802 0.85483396053314209 0.45710587501525879
0.98287993669509888 0.85993826389312744 0.43547067046165466
0.78454959392547607 0.90538161993026733 0.56981825828552246
0.78442645072937012 0.89993035793304443 0.56434071063995361
0.79648840427398682 0.90110933780670166 0.56330037117004395
0.82685834169387817 0.89808356761932373 0.55410540103912354
0.88059955835342407 0.90257042646408081 0.54665476083755493
0.96339708566665649 0.91181522607803345 0.52724635601043701
0.99769163131713867 0.91318762302398682 0.51344215869903564
0.041344765573740005 0.046976275742053986 0.071539141237735748
0.066923759877681732 0.048800181597471237 0.067482605576515198
0.1706157773733139 0.049827307462692261 0.048841964453458786
0.35242393612861633 0.062375940382480621 0.020849877968430519
0.53263098001480103 0.1038823127746582 0.0046795117668807507
0.70622962713241577 0.18770831823348999 0
0.88311922550201416 0.30959942936897278 0
0.052933219820261002 0.074317306280136108 0.073909074068069458
0.083374068140983582 0.078326433897018433 0.074901536107063293
0.19379620254039764 0.079096533358097076 0.055615786463022232
0.39365339279174805 0.096372954547405243 0.029733769595623016
0.60310202836990356 0.17154836654663086 0.015594512224197388
0.83015710115432739 0.29545646905899048 0.0025798273272812366
0.88661104440689087 0.33645284175872803 7.7789904025848955e-05
0.11797033250331879 0.18924055993556976 0.097750253975391388
0.1555413156747818 0.20939972996711731 0.10529197007417679
0.25812152028083801 0.2179180234670639 0.097598686814308167
0.4371071457862854 0.23662340641021729 0.067241504788398743
0.63000905513763428 0.2856346070766449 0.027220945805311203
0.84630399942398071 0.3779604434967041 0.0050797853618860245
0.89196395874023438 0.40261566638946533 0.0016010658582672477
0.28607046604156494 0.39844593405723572 0.19028045237064362
0.32044324278831482 0.41956466436386108 0.20265448093414307
0.38630005717277527 0.42936965823173523 0.20428623259067535
0.49268725514411926 0.42890256643295288 0.17312651872634888
0.65576678514480591 0.4523046612739563 0.099388390779495239
0.85365462303161621 0.50891256332397461 0.022867403924465179
0.90404951572418213 0.53347635269165039 0.0034158146008849144
0.53460186719894409 0.65720647573471069 0.36910894513130188
0.56732046604156494 0.67983651161193848 0.39409184455871582
0.58479422330856323 0.67478734254837036 0.38376274704933167
0.62446576356887817 0.65458399057388306 0.3496459424495697
0.72977983951568604 0.65163344144821167 0.30819416046142578
0.87147766351699829 0.67401385307312012 0.21172012388706207
0.93468135595321655 0.68653684854507446 0.13704437017440796
0.77512627840042114 0.89651238918304443 0.56802600622177124
0.78246480226516724 0.90032351016998291 0.57046449184417725
0.78458338975906372 0.88833045959472656 0.55834710597991943
0.79431551694869995 0.86440831422805786 0.53079521656036377
0.84450054168701172 0.84782391786575317 0.49685618281364441
0.93327617645263672 0.84689897298812866 0.45157289505004883
0.98022401332855225 0.85237360000610352 0.42920786142349243
0.77967476844787598 0.90097618103027344 0.57598888874053955
0.78120124340057373 0.89802753925323486 0.56894469261169434
0.79509705305099487 0.89793688058853149 0.56581902503967285
0.8221137523651123 0.89360952377319336 0.55695521831512451
0.87377357482910156 0.90000200271606445 0.55044037103652954
0.95453697443008423 0.9096534252166748 0.53430593013763428
0.996898353099823 0.91468572616577148 0.52279198169708252
0.035623032599687576 0.080530308187007904 0.19802941381931305
0.060635242611169815 0.079940661787986755 0.19133208692073822
0.16335223615169525 0.079887956380844116 0.17003664374351501
0.34787669777870178 0.088783144950866699 0.12542794644832611
0.5367768406867981 0.1334473043680191 0.077539719641208649
0.70752435922622681 0.21012197434902191 0.021598964929580688
0.88423144817352295 0.32358679175376892 0.00038362390478141606
0.04701213538646698 0.10138944536447525 0.1945764571428299
0.077124126255512238 0.10730782151222229 0.20288535952568054
0.19728904962539673 0.11307582259178162 0.19106224179267883
0.39421680569648743 0.13390716910362244 0.16312891244888306
0.60964393615722656 0.19763900339603424 0.10525485873222351
0.83010202646255493 0.31191077828407288 0.018251486122608185
0.89040762186050415 0.35755270719528198 0.0052985097281634808
0.12228384613990784 0.21602378785610199 0.20893119275569916
0.15344096720218658 0.23422396183013916 0.22521908581256866
0.26149797439575195 0.24559368193149567 0.22670407593250275
0.43689009547233582 0.26133614778518677 0.20373992621898651
0.63740581274032593 0.30649206042289734 0.15243107080459595
0.84790247678756714 0.39009764790534973 0.033811666071414948
0.89683741331100464 0.42306944727897644 0.017846396192908287
0.29707923531532288 0.41997355222702026 0.27688899636268616
0.33184278011322021 0.43934935331344604 0.29626151919364929
0.3921152651309967 0.4495881199836731 0.29468169808387756
0.49596410989761353 0.44222572445869446 0.27605417370796204
0.66858047246932983 0.47370678186416626 0.24051515758037567
0.85203045606613159 0.5203930139541626 0.1081155389547348
0.90863275527954102 0.54023557901382446 0.05495593324303627
0.53351980447769165 0.66379010677337646 0.41517755389213562
0.55835932493209839 0.6792944073677063 0.43000614643096924
0.57630652189254761 0.67083895206451416 0.42698472738265991
0.62486082315444946 0.65163272619247437 0.39434719085693359
0.72652506828308105 0.65210253000259399 0.36722901463508606
0.86488276720046997 0.66920691728591919 0.29538926482200623
0.93518757820129395 0.68192803859710693 0.24470847845077515
0.7753300666809082 0.89714574813842773 0.59022223949432373
0.78043854236602783 0.90060943365097046 0.59271872043609619
0.77596253156661987 0.88499349355697632 0.57621270418167114
0.78682607412338257 0.85858970880508423 0.54727309942245483
0.8251456618309021 0.83548080921173096 0.51655817031860352
0.92190068960189819 0.83490049839019775 0.47501462697982788
0.97552233934402466 0.84029597043991089 0.45952245593070984
0.78377759456634521 0.90583640336990356 0.59912490844726562
0.78431373834609985 0.9020344614982605 0.59598010778427124
0.79076623916625977 0.89732319116592407 0.58668988943099976
0.81683802604675293 0.89408159255981445 0.5762021541595459
0.8692631721496582 0.9022945761680603 0.57059222459793091
0.95613163709640503 0.91022098064422607 0.5526195764541626
0.99607843160629272 0.91412782669067383 0.54450327157974243
0.024463159963488579 0.15850730240345001 0.36247572302818298
0.051427189260721207 0.16202278435230255 0.36568325757980347
0.17574381828308105 0.16872492432594299 0.35665643215179443
0.36206528544425964 0.1770680695772171 0.3387489914894104
0.54388386011123657 0.21172045171260834 0.31913504004478455
0.71154165267944336 0.27215477824211121 0.30338004231452942
0.89586633443832397 0.37116745114326477 0.19796136021614075
0.040784962475299835 0.18269181251525879 0.37150275707244873
0.073446698486804962 0.20275522768497467 0.39254876971244812
0.20098888874053955 0.21017654240131378 0.38890600204467773
0.40700569748878479 0.23223698139190674 0.3853813111782074
0.61652058362960815 0.27832719683647156 0.37491756677627563
0.84392386674880981 0.37120029330253601 0.33038428425788879
0.90342837572097778 0.4113386869430542 0.33476808667182922
0.11876942962408066 0.27669543027877808 0.38670194149017334
0.15734769403934479 0.30157789587974548 0.41478872299194336
0.26040828227996826 0.30917829275131226 0.41506466269493103
0.44124895334243774 0.31919029355049133 0.4003167450428009
0.6449924111366272 0.35926061868667603 0.39571049809455872
0.86292105913162231 0.43609711527824402 0.34384393692016602
0.90821367502212524 0.46943342685699463 0.36560776829719543
0.30166640877723694 0.4559192955493927 0.43073856830596924
0.32147336006164551 0.46477076411247253 0.44738650321960449
0.38340732455253601 0.47573003172874451 0.44797515869140625
0.50310081243515015 0.47500470280647278 0.43691042065620422
0.66949981451034546 0.49575403332710266 0.42781013250350952
0.85247766971588135 0.53813028335571289 0.38209390640258789
0.91867643594741821 0.56399679183959961 0.36997193098068237
0.53073561191558838 0.67360901832580566 0.51593697071075439
0.55081546306610107 0.68759948015213013 0.53539079427719116
0.56781637668609619 0.67715215682983398 0.52061641216278076
0.61968863010406494 0.66151988506317139 0.50209969282150269
0.72000908851623535 0.65770190954208374 0.4875921905040741
0.85182696580886841 0.6711500883102417 0.44831857085227966
0.9366946816444397 0.68545401096343994 0.41274374723434448
0.76533710956573486 0.89339220523834229 0.64754074811935425
0.76985263824462891 0.89499175548553467 0.6417115330696106
0.77728921175003052 0.89106851816177368 0.63203424215316772
0.76643604040145874 0.84591400623321533 0.59649240970611572
0.80556130409240723 0.81746309995651245 0.5664907693862915
0.90194737911224365 0.82017320394515991 0.55217570066452026
0.96807241439819336 0.82079660892486572 0.52499067783355713
0.77643918991088867 0.90504348278045654 0.65903562307357788
0.78108543157577515 0.90590941905975342 0.65341836214065552
0.79375189542770386 0.90577733516693115 0.64304161071777344
0.82156860828399658 0.90913170576095581 0.63777881860733032
0.86772292852401733 0.90343207120895386 0.62075299024581909
0.94033312797546387 0.91345751285552979 0.61411410570144653
0.9972909688949585 0.92072570323944092 0.59731274843215942
0.01631641760468483 0.28920233249664307 0.51913386583328247
0.046510808169841766 0.29933923482894897 0.53165525197982788
0.17774760723114014 0.30306419730186462 0.53120130300521851
0.36465543508529663 0.30168929696083069 0.52076905965805054
0.55109208822250366 0.3253597617149353 0.51695233583450317
0.7275891900062561 0.37465256452560425 0.52646654844284058
0.89871120452880859 0.44900608062744141 0.52610319852828979
0.03534267470240593 0.31926837563514709 0.54577934741973877
0.071881748735904694 0.34052172303199768 0.56478023529052734
0.20886963605880737 0.35295307636260986 0.57763963937759399
0.41857784986495972 0.36371716856956482 0.57320320606231689
0.62839502096176147 0.4011998176574707 0.58161205053329468
0.85545957088470459 0.47572949528694153 0.60256505012512207
0.90772169828414917 0.51884925365447998 0.6459929347038269
0.11598045378923416 0.38076335191726685 0.56645691394805908
0.16174726188182831 0.40740934014320374 0.58606576919555664
0.26994961500167847 0.41378605365753174 0.59802377223968506
0.44793012738227844 0.42536213994026184 0.59739565849304199
0.65605968236923218 0.45875221490859985 0.60711938142776489
0.87341278791427612 0.52632290124893188 0.6197625994682312
0.91076493263244629 0.56401467323303223 0.65976101160049438
0.29497513175010681 0.50218600034713745 0.58643966913223267
0.32758012413978577 0.5253790020942688 0.61069649457931519
0.39030563831329346 0.53166776895523071 0.61115932464599609
0.50527089834213257 0.52895134687423706 0.60603880882263184
0.67466020584106445 0.55106061697006226 0.60937714576721191
0.855316162109375 0.5877915620803833 0.60739713907241821
0.92040395736694336 0.61419039964675903 0.62262386083602905
0.53453469276428223 0.70276141166687012 0.66111499071121216
0.55960464477539062 0.7221074104309082 0.67880827188491821
0.57047045230865479 0.70556092262268066 0.66375631093978882
0.61589270830154419 0.68409150838851929 0.63949167728424072
0.7169041633605957 0.67880970239639282 0.62269991636276245
0.84876638650894165 0.69112956523895264 0.61025971174240112
0.93868935108184814 0.70528078079223633 0.60625660419464111
0.77347159385681152 0.91417944431304932 0.7600364089012146
0.76878756284713745 0.9083106517791748 0.75736647844314575
0.77359509468078613 0.8979339599609375 0.73624014854431152
0.76942402124404907 0.85577309131622314 0.69979232549667358
0.79790025949478149 0.81873917579650879 0.66650980710983276
0.89253497123718262 0.82134765386581421 0.65182214975357056
0.96872800588607788 0.8247944712638855 0.63514715433120728
0.78354495763778687 0.92865139245986938 0.7872890830039978
0.78459048271179199 0.92577564716339111 0.77213138341903687
0.79681789875030518 0.92007327079772949 0.74456048011779785
0.82156860828399658 0.91492152214050293 0.72143614292144775
0.86751914024353027 0.91657048463821411 0.7059822678565979
0.93473577499389648 0.92134839296340942 0.6951216459274292
0.99837678670883179 0.92613273859024048 0.68541085720062256
0.005142600741237402 0.42899405956268311 0.67797297239303589
0.026448583230376244 0.43029627203941345 0.68211132287979126
0.15573690831661224 0.42618206143379211 0.67530691623687744
0.36740046739578247 0.41516533493995667 0.65639156103134155
0.56072473526000977 0.43722912669181824 0.66366028785705566
0.74234402179718018 0.48818346858024597 0.69169968366622925
0.90864413976669312 0.56205731630325317 0.73141729831695557
0.0096349380910396576 0.45454630255699158 0.70205855369567871
0.048806704580783844 0.4873596727848053 0.73366415500640869
0.19369526207447052 0.50601041316986084 0.75257915258407593
0.4209098219871521 0.51261413097381592 0.75043773651123047
0.64193379878997803 0.54946666955947876 0.77337872982025146
0.87507116794586182 0.61785095930099487 0.81491529941558838
0.91352581977844238 0.63947421312332153 0.83343923091888428
0.10096082836389542 0.49787253141403198 0.71934044361114502
0.13865774869918823 0.54032635688781738 0.76150298118591309
0.26385113596916199 0.54841440916061401 0.76998436450958252
0.45802229642868042 0.55620414018630981 0.7710309624671936
0.66963678598403931 0.5940130352973938 0.79730832576751709
0.89498162269592285 0.6500898003578186 0.82792079448699951
0.91353482007980347 0.66179496049880981 0.83641499280929565
0.29581475257873535 0.58768343925476074 0.7399362325668335
0.32799634337425232 0.6176227331161499 0.77090573310852051
0.38463646173477173 0.6204453706741333 0.77806848287582397
0.51389050483703613 0.62197667360305786 0.76965367794036865
0.67994475364685059 0.63964682817459106 0.78038614988327026
0.86971938610076904 0.67244106531143188 0.79626822471618652
0.92182821035385132 0.69613724946975708 0.81487441062927246
0.54035657644271851 0.76287388801574707 0.82463771104812622
0.55914175510406494 0.77411097288131714 0.83549290895462036
0.5712398886680603 0.76005256175994873 0.82330536842346191
0.61934685707092285 0.73464572429656982 0.79133087396621704
0.71753478050231934 0.72126680612564087 0.76494735479354858
0.85208582878112793 0.73640543222427368 0.76593458652496338
0.93823444843292236 0.74269658327102661 0.75869113206863403
0.77368968725204468 0.93633061647415161 0.87633657455444336
0.77730554342269897 0.93765401840209961 0.87488341331481934
0.76998269557952881 0.91844213008880615 0.85700458288192749
0.75903737545013428 0.8756529688835144 0.82114571332931519
0.80106699466705322 0.84407573938369751 0.7880556583404541
0.8854793906211853 0.84069573879241943 0.77654272317886353
0.96939420700073242 0.84293127059936523 0.76394909620285034
0.78823530673980713 0.94511634111404419 0.87487375736236572
0.78830528259277344 0.94812619686126709 0.87980514764785767
0.79945051670074463 0.94148361682891846 0.85374921560287476
0.82168686389923096 0.93753314018249512 0.83415186405181885
0.86510175466537476 0.9328417181968689 0.80843186378479004
0.9342992901802063 0.93416160345077515 0.79663074016571045
1 0.93877619504928589 0.79310435056686401
0 0.57265818119049072 0.8271174430847168
0.0081096421927213669 0.57212018966674805 0.82555270195007324
0.12910343706607819 0.58126789331436157 0.83370065689086914
0.36566227674484253 0.57670128345489502 0.82511991262435913
0.5684812068939209 0.59242469072341919 0.83360737562179565
0.76298260688781738 0.62060201168060303 0.84473156929016113
0.90578365325927734 0.64112991094589233 0.84146654605865479
0.0054297950118780136 0.5783160924911499 0.82835686206817627
0.034067805856466293 0.58253210783004761 0.83123195171356201
0.18214039504528046 0.60039687156677246 0.8468509316444397
0.41269105672836304 0.60990995168685913 0.85262590646743774
0.64233964681625366 0.6180914044380188 0.84818905591964722
0.88778150081634521 0.64386093616485596 0.84637695550918579
0.90877705812454224 0.64712470769882202 0.84313726425170898
0.079433366656303406 0.59981518983840942 0.8325384259223938
0.13128380477428436 0.60834020376205444 0.83846521377563477
0.25693461298942566 0.61986106634140015 0.84846419095993042
0.45479178428649902 0.62893939018249512 0.85189002752304077
0.67109960317611694 0.63840723037719727 0.8476758599281311
0.89543664455413818 0.66454601287841797 0.84704506397247314
0.90980392694473267 0.66621702909469604 0.84313726425170898
0.29036229848861694 0.66442906856536865 0.84728538990020752
0.32013040781021118 0.66752368211746216 0.84635418653488159
0.37933912873268127 0.6752280592918396 0.85503208637237549
0.52284890413284302 0.67941862344741821 0.85564976930618286
0.68946415185928345 0.68860018253326416 0.85384994745254517
0.8836289644241333 0.70394229888916016 0.85031807422637939
0.91778647899627686 0.7075541615486145 0.84565967321395874
0.55182141065597534 0.78779619932174683 0.86762535572052002
0.56048583984375 0.79344397783279419 0.86638134717941284
0.57402241230010986 0.78248381614685059 0.86826890707015991
0.62925499677658081 0.76922476291656494 0.86532390117645264
0.71810412406921387 0.76223939657211304 0.86179143190383911
0.84212601184844971 0.7688833475112915 0.85801631212234497
0.93597698211669922 0.7752450704574585 0.85225969552993774
0.77815753221511841 0.94089716672897339 0.88235294818878174
0.7780340313911438 0.93814080953598022 0.88235294818878174
0.77088445425033569 0.92640763521194458 0.88090395927429199
0.75419604778289795 0.88576143980026245 0.87718874216079712
0.79141110181808472 0.86177223920822144 0.87271851301193237
0.88255584239959717 0.86239457130432129 0.8707079291343689
0.96945726871490479 0.86812096834182739 0.86779862642288208
0.78814661502838135 0.94884222745895386 0.88226193189620972
0.78825861215591431 0.94509804248809814 0.88235294818878174
0.79744404554367065 0.94511669874191284 0.88235294818878174
0.82195854187011719 0.94901961088180542 0.88057929277420044
0.86617648601531982 0.94897061586380005 0.87903577089309692
0.93497216701507568 0.94940251111984253 0.87925904989242554
0.99997413158416748 0.9529411792755127 0.88235294818878174
