assets/lut/berat cinema warm.cube
TITLE "cinema warm"
LUT_3D_SIZE 16
DOMAIN_MIN 0.0 0.0 0.0
DOMAIN_MAX 1.0 1.0 1.0
0.005264 0.008896 0.008835
0.032711 0.008668 0.008406
0.067633 0.009008 0.007606
0.112788 0.011099 0.006610
0.184029 0.019673 0.005484
0.270644 0.038437 0.004985
0.359000 0.059866 0.004683
0.436201 0.077463 0.004694
0.500973 0.090817 0.004827
0.555809 0.100684 0.004997
0.602543 0.107850 0.005091
0.645219 0.113863 0.005322
0.685665 0.118889 0.005411
0.724099 0.123487 0.005484
0.759005 0.126781 0.005638
0.784070 0.126986 0.005646
0.005651 0.035266 0.010484
0.030891 0.034552 0.009773
0.066840 0.034214 0.008123
0.111392 0.036067 0.007012
0.180854 0.043813 0.005626
0.264634 0.061187 0.005091
0.352433 0.082378 0.004782
0.430360 0.100224 0.004749
0.496337 0.113982 0.004875
0.552351 0.124245 0.005037
0.599696 0.131581 0.005124
0.642762 0.137751 0.005344
0.683480 0.142899 0.005450
0.722130 0.147521 0.005501
0.757403 0.151027 0.005644
0.783621 0.151600 0.005680
0.008200 0.074178 0.022267
0.032841 0.073463 0.021623
0.066758 0.071001 0.016738
0.107583 0.071207 0.012880
0.164327 0.074018 0.008343
0.239738 0.083967 0.006330
0.326465 0.102195 0.005628
0.407008 0.119909 0.005365
0.477498 0.134652 0.005366
0.539750 0.146735 0.005439
0.590953 0.155302 0.005477
0.635898 0.161819 0.005487
0.678399 0.167546 0.005610
0.718525 0.172449 0.005541
0.754807 0.176372 0.005576
0.782860 0.177535 0.005578
0.010263 0.116063 0.035862
0.034749 0.115157 0.035059
0.064783 0.111502 0.030332
0.105777 0.109085 0.022454
0.162019 0.111674 0.014824
0.228895 0.117040 0.008484
0.310313 0.129769 0.006654
0.391774 0.144885 0.005895
0.464347 0.158544 0.005565
0.529684 0.170965 0.005471
0.584797 0.180573 0.005406
0.631907 0.187672 0.005245
0.675790 0.193675 0.005260
0.717701 0.199091 0.005209
0.755288 0.203271 0.005317
0.784506 0.204733 0.005307
0.011430 0.164937 0.055004
0.035837 0.163707 0.053941
0.064125 0.159669 0.049197
0.101455 0.154896 0.041696
0.155987 0.154962 0.031207
0.229916 0.161455 0.015462
0.308591 0.170362 0.008091
0.387078 0.181324 0.006602
0.459031 0.190970 0.005829
0.525151 0.200356 0.005548
0.581577 0.208516 0.005459
0.629514 0.215122 0.005299
0.674353 0.221219 0.005288
0.717459 0.226693 0.005215
0.756495 0.231169 0.005314
0.787112 0.232929 0.005280
0.012578 0.223830 0.082383
0.037076 0.222182 0.081045
0.064761 0.217035 0.075772
0.100177 0.212162 0.070145
0.143459 0.207628 0.059897
0.220361 0.212151 0.043570
0.316405 0.225205 0.011951
0.395452 0.233395 0.007106
0.465765 0.239814 0.005867
0.530360 0.244464 0.005339
0.586068 0.246896 0.005208
0.632541 0.248391 0.005221
0.676518 0.251894 0.005244
0.720002 0.256647 0.005128
0.760175 0.261207 0.005151
0.792233 0.263345 0.005086
0.018954 0.295348 0.119955
0.042992 0.293381 0.118336
0.069679 0.287489 0.112881
0.104019 0.281951 0.107499
0.141828 0.276993 0.099421
0.197722 0.273751 0.086157
0.304430 0.284778 0.061556
0.411316 0.301147 0.010491
0.482942 0.304855 0.004738
0.546351 0.307041 0.004310
0.601049 0.305933 0.004188
0.647075 0.301960 0.004235
0.688894 0.297921 0.004392
0.729184 0.295926 0.004542
0.768291 0.297136 0.004603
0.801199 0.298973 0.004498
0.032589 0.365128 0.156586
0.056464 0.363270 0.155074
0.081579 0.358217 0.150546
0.110815 0.353386 0.146043
0.147665 0.348778 0.140789
0.193081 0.346105 0.130376
0.267817 0.345048 0.114598
0.398901 0.362045 0.072791
0.505246 0.379651 0.008735
0.568060 0.380129 0.001380
0.622511 0.378667 0.001970
0.668748 0.373937 0.002403
0.710361 0.366692 0.002726
0.748027 0.357288 0.003145
0.783918 0.348850 0.003399
0.815683 0.346182 0.003542
0.049465 0.433891 0.192748
0.073344 0.431822 0.191025
0.097956 0.427266 0.186986
0.124469 0.423425 0.183451
0.159068 0.419671 0.179533
0.200428 0.417788 0.173123
0.263112 0.416218 0.156267
0.362341 0.416359 0.141328
0.500845 0.439019 0.072364
0.595535 0.455879 0.007513
0.652526 0.451582 0.000032
0.721128 0.444475 0.000386
0.761811 0.437332 0.000847
0.667615 0.436269 0.037343
0.699864 0.426598 0.037651
0.135754 0.459692 0.190726
0.129385 0.492814 0.220500
0.159025 0.490867 0.217907
0.198597 0.489443 0.213081
0.249758 0.488807 0.204821
0.320712 0.487629 0.190114
0.415720 0.490539 0.158710
0.526191 0.498992 0.117796
0.630998 0.514815 0.044847
0.702022 0.518405 0.009280
0.761431 0.512470 0.000769
0.644063 0.508181 0.061246
0.495249 0.510797 0.114182
0.119401 0.525809 0.231048
0.132159 0.523143 0.231827
0.138522 0.521465 0.234622
0.166788 0.519517 0.232635
0.224018 0.552707 0.246977
0.278953 0.555527 0.239187
0.356197 0.555568 0.217897
0.449768 0.552025 0.206015
0.558099 0.551870 0.169889
0.671433 0.574141 0.076692
0.738552 0.583357 0.020390
0.801378 0.573769 0.000536
0.846326 0.569209 0.000000
0.602398 0.573079 0.093439
0.077719 0.586852 0.270573
0.105732 0.584516 0.267996
0.136455 0.581088 0.264017
0.164190 0.578904 0.261564
0.194487 0.578112 0.260398
0.234679 0.580290 0.259749
0.326464 0.615639 0.260572
0.407323 0.614969 0.240245
0.495784 0.609991 0.229322
0.591424 0.605444 0.199269
0.696845 0.621090 0.123970
0.779183 0.637978 0.049902
0.820836 0.632735 0.010657
0.882178 0.624742 0.000000
0.140995 0.644043 0.273417
0.085516 0.644687 0.300224
0.124350 0.640274 0.294544
0.158065 0.637380 0.290635
0.188097 0.635326 0.287951
0.220635 0.635066 0.287038
0.262833 0.638893 0.286925
0.325036 0.642795 0.277501
0.357119 0.672990 0.285478
0.438099 0.672906 0.261180
0.522521 0.668204 0.254643
0.609914 0.659480 0.239769
0.707548 0.664754 0.181789
0.804972 0.688357 0.099992
0.859484 0.689856 0.041105
0.893625 0.679943 0.000831
0.138120 0.699037 0.297921
0.080854 0.699962 0.327605
0.119354 0.696247 0.322705
0.159089 0.693232 0.318046
0.193827 0.690891 0.314478
0.226801 0.689413 0.311971
0.264752 0.691195 0.311664
0.319036 0.695997 0.307045
0.348124 0.724362 0.315262
0.427761 0.726282 0.292069
0.506824 0.725737 0.277181
0.589788 0.721010 0.275338
0.677355 0.714559 0.254599
0.772875 0.721058 0.193237
0.865221 0.740235 0.110617
0.912674 0.737720 0.044735
0.138412 0.751715 0.320942
0.079314 0.752664 0.352207
0.117428 0.750038 0.348515
0.156895 0.748026 0.344958
0.196358 0.745683 0.340917
0.232513 0.743735 0.337470
0.269389 0.743117 0.335395
0.312226 0.746589 0.333298
0.337606 0.775705 0.343940
0.415103 0.779890 0.327612
0.493917 0.782036 0.305523
0.569170 0.781403 0.298175
0.650468 0.776653 0.298245
0.735776 0.769489 0.274787
0.832650 0.778453 0.213304
0.921916 0.796313 0.139714
0.131783 0.800650 0.347894
0.070092 0.800220 0.373015
0.110158 0.798446 0.369962
0.153308 0.797280 0.367108
0.194408 0.795814 0.363814
0.234489 0.794129 0.360193
0.272587 0.792940 0.357220
0.310719 0.794423 0.355291
0.331167 0.818189 0.362402
0.400944 0.825133 0.354130
0.484029 0.830628 0.332782
0.556371 0.834214 0.321267
0.630765 0.835481 0.318980
0.710613 0.831362 0.320963
0.797589 0.826338 0.293017
0.895400 0.836822 0.232416
0.096425 0.088932 0.037788
0.033871 0.008665 0.019799
0.069011 0.009054 0.019023
0.115014 0.011274 0.017966
0.187640 0.020368 0.016864
0.274233 0.039393 0.016405
0.362200 0.060730 0.016097
0.438804 0.078050 0.016129
0.470676 0.084656 0.029969
0.530521 0.096189 0.030061
0.580577 0.104444 0.030149
0.624974 0.111022 0.030212
0.666368 0.116437 0.030338
0.705736 0.121223 0.030333
0.742144 0.125173 0.030477
0.772240 0.126889 0.030563
0.081850 0.031989 0.034664
0.033575 0.021389 0.034392
0.068688 0.021171 0.033148
0.115737 0.023192 0.032116
0.188735 0.031851 0.030893
0.273823 0.050438 0.030331
0.361229 0.071633 0.029886
0.437818 0.088941 0.029782
0.465939 0.107837 0.029536
0.526623 0.119657 0.029686
0.577347 0.128172 0.029829
0.622080 0.134811 0.029913
0.663794 0.140390 0.030102
0.703448 0.145222 0.030126
0.740379 0.149369 0.030255
0.771518 0.151466 0.030365
0.082938 0.062726 0.039664
0.033039 0.052804 0.039977
0.068800 0.050844 0.035665
0.110253 0.051884 0.034119
0.174294 0.056902 0.031276
0.255310 0.071413 0.030300
0.342776 0.091816 0.029795
0.421802 0.109781 0.029595
0.444301 0.127776 0.029852
0.510956 0.141346 0.029915
0.567140 0.151515 0.029986
0.614044 0.158617 0.029940
0.657588 0.164778 0.030080
0.698929 0.170025 0.030080
0.737285 0.174505 0.030052
0.770226 0.177302 0.030086
0.084873 0.101430 0.050852
0.034773 0.092507 0.052100
0.066406 0.089556 0.047505
0.109262 0.088556 0.040615
0.164763 0.091062 0.035075
0.236467 0.098677 0.031625
0.321288 0.114455 0.030545
0.402200 0.131282 0.030140
0.429756 0.151842 0.030152
0.498877 0.165086 0.030008
0.559186 0.176224 0.029921
0.609115 0.184234 0.029811
0.654181 0.190673 0.029730
0.697275 0.196419 0.029719
0.737310 0.201318 0.029710
0.771660 0.204407 0.029783
0.086412 0.144573 0.065111
0.036204 0.136774 0.067433
0.064990 0.132928 0.062678
0.104831 0.128833 0.054275
0.162998 0.130629 0.044357
0.231104 0.136117 0.034828
0.310859 0.147066 0.031753
0.391504 0.160619 0.030600
0.424054 0.185928 0.030537
0.493447 0.195526 0.030071
0.555226 0.204600 0.029931
0.606165 0.211661 0.029838
0.652275 0.218205 0.029723
0.696354 0.223876 0.029695
0.737775 0.229067 0.029677
0.774003 0.232537 0.029736
0.088044 0.195845 0.086212
0.037612 0.189720 0.090141
0.065004 0.185422 0.085332
0.101068 0.180539 0.078837
0.151258 0.178106 0.067861
0.230177 0.184728 0.049643
0.314693 0.194440 0.033193
0.392498 0.203712 0.031362
0.431298 0.236177 0.030698
0.499002 0.241831 0.029940
0.559555 0.245392 0.029669
0.609838 0.247027 0.029641
0.654441 0.249466 0.029697
0.698396 0.253917 0.029649
0.740600 0.258917 0.029599
0.778433 0.262731 0.029565
0.090730 0.258189 0.115958
0.039935 0.254347 0.122084
0.067163 0.248815 0.116631
0.102062 0.243580 0.111083
0.142368 0.238448 0.101348
0.210839 0.238890 0.086592
0.317507 0.252803 0.051197
0.405219 0.263147 0.031077
0.448903 0.302628 0.029756
0.515231 0.305354 0.028869
0.574557 0.306073 0.028628
0.624544 0.303360 0.028610
0.667983 0.299073 0.028779
0.708987 0.295922 0.028853
0.748693 0.295608 0.029057
0.786610 0.298108 0.028953
0.099830 0.326434 0.150206
0.048612 0.326426 0.160213
0.074336 0.321049 0.155308
0.107072 0.315552 0.150115
0.144789 0.310543 0.143412
0.195514 0.307106 0.130139
0.288972 0.311951 0.113032
0.414599 0.331740 0.051960
0.459208 0.372394 0.056009
0.536913 0.379346 0.027095
0.595877 0.379001 0.026072
0.645860 0.375747 0.026615
0.689763 0.369682 0.027013
0.729131 0.361228 0.027410
0.765828 0.351627 0.027668
0.800733 0.345952 0.027962
0.114729 0.392938 0.182840
0.063772 0.395528 0.196474
0.088491 0.390736 0.192197
0.115745 0.386338 0.188120
0.152277 0.381907 0.183461
0.194883 0.379518 0.175363
0.261666 0.377480 0.157913
0.379880 0.385760 0.134763
0.419888 0.422937 0.148521
0.548430 0.448475 0.059643
0.616532 0.453641 0.027008
0.665980 0.450192 0.024450
0.711911 0.445258 0.024855
0.753288 0.438438 0.025181
0.790644 0.429571 0.025529
0.823927 0.418754 0.026104
0.129587 0.460706 0.214963
0.078280 0.463757 0.232335
0.103166 0.459327 0.228361
0.128504 0.455831 0.225162
0.160897 0.452658 0.222010
0.200834 0.451062 0.217385
0.257142 0.450380 0.203880
0.343193 0.448014 0.186096
0.382647 0.485402 0.202005
0.506299 0.492853 0.165355
0.624820 0.517692 0.070570
0.684553 0.521156 0.031070
0.728319 0.515630 0.024437
0.772129 0.510862 0.024399
0.812869 0.505043 0.024436
0.849593 0.497983 0.024591
0.140503 0.525680 0.244086
0.088152 0.527495 0.265096
0.116148 0.523480 0.260991
0.141535 0.520773 0.258423
0.169670 0.518847 0.256449
0.208339 0.518863 0.254794
0.258278 0.520542 0.248022
0.333390 0.519928 0.226433
0.370261 0.554939 0.237976
0.468343 0.550633 0.228238
0.580552 0.554782 0.180294
0.688331 0.577775 0.085688
0.745169 0.581186 0.039092
0.785315 0.574703 0.024409
0.828486 0.570300 0.024397
0.868765 0.565924 0.024397
0.144071 0.585526 0.270663
0.090415 0.586219 0.294563
0.123125 0.582119 0.289727
0.152283 0.579460 0.286639
0.179035 0.577735 0.284799
0.214618 0.578219 0.284406
0.260253 0.582177 0.282376
0.328965 0.584190 0.266434
0.363446 0.615655 0.273778
0.449862 0.613374 0.257782
0.542025 0.605826 0.247341
0.643825 0.608923 0.191931
0.746048 0.632722 0.103020
0.803069 0.637304 0.052933
0.839905 0.628616 0.024799
0.881886 0.624259 0.024397
0.139585 0.644090 0.298046
0.084561 0.644650 0.324697
0.123747 0.640125 0.318894
0.157813 0.637181 0.314882
0.187892 0.635134 0.312212
0.220180 0.634745 0.311198
0.262146 0.638469 0.311136
0.323699 0.642480 0.302146
0.355647 0.672685 0.310317
0.436909 0.672649 0.285606
0.521444 0.667966 0.278783
0.609090 0.659204 0.263895
0.706872 0.664366 0.205818
0.804549 0.687957 0.124082
0.859057 0.689413 0.065171
0.893310 0.679516 0.025216
0.136206 0.699130 0.322614
0.079569 0.699952 0.352110
0.118720 0.696108 0.347059
0.158734 0.693033 0.342314
0.193516 0.690686 0.338742
0.226454 0.689185 0.336208
0.264286 0.690852 0.335861
0.317774 0.695659 0.331574
0.346845 0.724000 0.339794
0.426587 0.725939 0.316675
0.505737 0.725441 0.301423
0.588795 0.720699 0.299418
0.676557 0.714214 0.278711
0.772287 0.720682 0.217222
0.864673 0.739820 0.134872
0.912277 0.737310 0.068784
0.136477 0.751738 0.345593
0.078049 0.752609 0.376704
0.116816 0.749834 0.372816
0.156431 0.747790 0.369202
0.195941 0.745442 0.365160
0.232127 0.743508 0.361723
0.268894 0.742791 0.359580
0.311118 0.746208 0.357665
0.336412 0.775338 0.368391
0.413761 0.779565 0.352362
0.492829 0.781727 0.329893
0.568219 0.781070 0.322369
0.649588 0.776336 0.322253
0.735171 0.769185 0.298818
0.831964 0.777954 0.237220
0.921411 0.795816 0.163574
0.130334 0.800516 0.372418
0.069168 0.800089 0.397474
0.109625 0.798253 0.394247
0.152862 0.797070 0.391365
0.193956 0.795628 0.388108
0.234072 0.793969 0.384515
0.272128 0.792742 0.381492
0.310214 0.794131 0.379598
0.330135 0.818009 0.386899
0.399468 0.824986 0.378968
0.482755 0.830491 0.357672
0.555312 0.834169 0.345747
0.629798 0.835198 0.343213
0.709850 0.831026 0.344940
0.796745 0.825909 0.317104
0.894866 0.836386 0.256393
0.097973 0.093378 0.067136
0.034681 0.012969 0.049271
0.067580 0.012468 0.049114
0.112619 0.013378 0.048071
0.186818 0.019018 0.046208
0.272998 0.036734 0.044583
0.360536 0.059047 0.044192
0.437822 0.076759 0.043726
0.469458 0.082308 0.059512
0.530566 0.094832 0.059372
0.581254 0.103614 0.059318
0.625926 0.110406 0.059088
0.667145 0.115877 0.058699
0.706348 0.120641 0.058277
0.742421 0.124543 0.058254
0.772191 0.126252 0.058318
0.084074 0.038134 0.066214
0.035546 0.028140 0.066344
0.067816 0.026957 0.066414
0.110913 0.027845 0.066489
0.187375 0.029543 0.063677
0.273574 0.043111 0.058955
0.359454 0.066552 0.058139
0.436278 0.086111 0.059134
0.465045 0.105827 0.059250
0.527002 0.118458 0.058771
0.578386 0.127394 0.058519
0.623455 0.134252 0.058170
0.665041 0.139868 0.057831
0.704487 0.144698 0.057477
0.741099 0.148797 0.057423
0.771945 0.150853 0.057462
0.084980 0.066962 0.070238
0.035165 0.057629 0.071133
0.068747 0.054966 0.068662
0.107876 0.054731 0.067335
0.173561 0.056635 0.064520
0.255609 0.067448 0.060727
0.342267 0.088779 0.059254
0.421446 0.107813 0.058585
0.445323 0.126345 0.057725
0.511832 0.140171 0.057014
0.567962 0.150474 0.056715
0.614923 0.157689 0.056480
0.658484 0.164012 0.056440
0.699705 0.169259 0.056332
0.738029 0.173816 0.056329
0.770991 0.176657 0.056417
0.086592 0.102526 0.079601
0.036590 0.093908 0.081165
0.067227 0.091875 0.078416
0.108622 0.088910 0.071828
0.164612 0.089989 0.066733
0.236948 0.096413 0.062541
0.321958 0.112225 0.059794
0.403260 0.129559 0.058099
0.430586 0.150013 0.057576
0.499569 0.163557 0.056893
0.559580 0.174757 0.056503
0.609588 0.182927 0.056235
0.654743 0.189560 0.056007
0.697809 0.195394 0.055854
0.737753 0.200265 0.055785
0.772150 0.203481 0.055866
0.088176 0.147040 0.095681
0.038093 0.139664 0.098359
0.067570 0.136706 0.094093
0.103751 0.131690 0.086038
0.163415 0.130756 0.074124
0.231701 0.134391 0.064313
0.311637 0.144726 0.060304
0.392140 0.158255 0.058176
0.424787 0.183467 0.057556
0.494073 0.193540 0.056498
0.555743 0.202843 0.056043
0.606810 0.210108 0.055825
0.653011 0.216788 0.055577
0.696916 0.222652 0.055461
0.737964 0.227768 0.055428
0.773905 0.231245 0.055547
0.087851 0.201177 0.118779
0.038247 0.195187 0.122631
0.067279 0.190718 0.117098
0.099955 0.185088 0.110085
0.152534 0.181077 0.097622
0.232476 0.184896 0.077365
0.315935 0.192440 0.061547
0.393075 0.200903 0.058660
0.431656 0.233417 0.057710
0.498974 0.239125 0.056159
0.559633 0.243264 0.055495
0.609900 0.245295 0.055476
0.654868 0.248158 0.055400
0.698583 0.252652 0.055265
0.740186 0.257532 0.055227
0.777509 0.261280 0.055274
0.088043 0.265326 0.149575
0.038288 0.261801 0.155614
0.066744 0.255832 0.149165
0.099051 0.249572 0.142193
0.142911 0.242896 0.131779
0.213883 0.241944 0.114610
0.321227 0.252947 0.076904
0.406655 0.261440 0.058325
0.449861 0.301059 0.056208
0.515570 0.303266 0.054918
0.574712 0.304137 0.054279
0.624645 0.301635 0.054062
0.668038 0.297479 0.054261
0.708972 0.294379 0.054296
0.748001 0.293871 0.054581
0.785338 0.296139 0.054537
0.093273 0.334189 0.184204
0.043131 0.334721 0.194219
0.071885 0.328939 0.188091
0.102890 0.322948 0.181769
0.143949 0.315703 0.173744
0.196427 0.311188 0.159174
0.292853 0.315016 0.139508
0.417362 0.332164 0.076502
0.461479 0.372482 0.079692
0.537387 0.377811 0.052412
0.596195 0.377378 0.051309
0.645781 0.374211 0.051681
0.689593 0.368265 0.052045
0.729095 0.359779 0.052524
0.765159 0.349638 0.052928
0.799479 0.343661 0.053310
0.102697 0.401360 0.217402
0.052836 0.404461 0.231073
0.083316 0.398655 0.225021
0.112974 0.393522 0.219621
0.149960 0.387034 0.212983
0.195078 0.383210 0.204108
0.263371 0.380749 0.185211
0.383750 0.388001 0.159697
0.423312 0.424657 0.172928
0.549294 0.447991 0.083300
0.616670 0.452335 0.051371
0.665597 0.448834 0.048884
0.711076 0.443793 0.049437
0.752648 0.436859 0.049824
0.789582 0.427060 0.050303
0.822529 0.415597 0.051035
0.110880 0.469596 0.250402
0.060254 0.473311 0.267941
0.093314 0.467743 0.261855
0.124261 0.462963 0.256790
0.157831 0.457549 0.251090
0.200433 0.453754 0.244989
0.257181 0.452739 0.231204
0.345062 0.450166 0.212032
0.384524 0.487137 0.227621
0.509549 0.494359 0.188954
0.625894 0.517624 0.093929
0.684204 0.520139 0.055269
0.727265 0.514356 0.048835
0.771095 0.509372 0.048806
0.811465 0.502594 0.048850
0.847774 0.494572 0.049067
0.111908 0.535230 0.281105
0.060155 0.537867 0.302379
0.098440 0.532539 0.295956
0.132405 0.528149 0.290905
0.166080 0.523770 0.285848
0.207147 0.520845 0.281620
0.257022 0.521866 0.274641
0.333307 0.521324 0.252423
0.370217 0.556133 0.263722
0.470817 0.552427 0.253697
0.584116 0.556618 0.203630
0.689464 0.577978 0.109032
0.744354 0.580182 0.063154
0.784374 0.573401 0.048807
0.827528 0.568543 0.048794
0.867592 0.563487 0.048794
0.106529 0.594758 0.308430
0.052416 0.596516 0.332931
0.095953 0.591999 0.326483
0.136351 0.587429 0.320534
0.172037 0.583241 0.315328
0.212350 0.580451 0.311292
0.258821 0.582804 0.308292
0.327666 0.585138 0.292782
0.362325 0.616488 0.299974
0.450921 0.614967 0.283458
0.545219 0.608200 0.272941
0.646766 0.610781 0.215881
0.746377 0.632662 0.126796
0.802059 0.636123 0.076573
0.839271 0.627307 0.049182
0.881394 0.622734 0.048794
0.102133 0.649879 0.334064
0.046596 0.652220 0.361641
0.092967 0.649745 0.355996
0.140164 0.645204 0.349175
0.180230 0.640773 0.343246
0.220154 0.637674 0.338705
0.265659 0.639433 0.336539
0.329042 0.643181 0.326363
0.372650 0.673543 0.330445
0.456261 0.672973 0.309477
0.542947 0.667774 0.301178
0.633249 0.661835 0.275625
0.730411 0.670472 0.210464
0.816868 0.687678 0.133795
0.866123 0.685838 0.077729
0.692064 0.682684 0.127031
0.100482 0.700340 0.356484
0.042220 0.704925 0.387838
0.087649 0.705571 0.384028
0.142288 0.700824 0.376513
0.189104 0.696043 0.369585
0.230927 0.692697 0.364378
0.275827 0.693059 0.361103
0.334632 0.696840 0.353077
0.364224 0.725136 0.360574
0.444999 0.726704 0.338753
0.526022 0.725422 0.326332
0.610958 0.720314 0.319010
0.700983 0.716948 0.287625
0.795737 0.725847 0.219966
0.875989 0.738364 0.140881
0.667885 0.740006 0.178208
0.098907 0.751312 0.379343
0.037627 0.755344 0.412238
0.078361 0.758875 0.410718
0.133023 0.756666 0.404887
0.186318 0.751850 0.397462
0.232752 0.747713 0.390944
0.276140 0.745855 0.386483
0.325704 0.748106 0.381479
0.351709 0.777507 0.391936
0.430536 0.781306 0.373836
0.510480 0.782901 0.354036
0.588200 0.781117 0.347858
0.671358 0.775906 0.340740
0.761173 0.773309 0.307594
0.854528 0.782851 0.242868
0.674469 0.795102 0.254022
0.100261 0.798213 0.405141
0.035781 0.800435 0.431860
0.072938 0.805194 0.431540
0.124414 0.806584 0.428459
0.181367 0.803219 0.421967
0.233080 0.799221 0.415133
0.278424 0.796632 0.409861
0.322126 0.797103 0.405727
0.344315 0.821563 0.412856
0.416126 0.827683 0.401295
0.498680 0.832838 0.381965
0.573131 0.835726 0.370913
0.649955 0.835123 0.368815
0.733028 0.831118 0.361552
0.822275 0.830503 0.327010
0.656233 0.619687 0.231992
0.106696 0.099927 0.099512
0.044873 0.019712 0.081976
0.078960 0.018498 0.081829
0.128571 0.018549 0.082323
0.208999 0.019993 0.078314
0.296712 0.032698 0.071905
0.379856 0.055862 0.069897
0.454070 0.075611 0.070465
0.529204 0.089595 0.084514
0.579617 0.100175 0.085360
0.624017 0.107982 0.086371
0.664807 0.114115 0.087208
0.703670 0.119235 0.087522
0.739868 0.123337 0.087799
0.769947 0.125295 0.087876
0.136023 0.052346 0.103007
0.034552 0.037156 0.104378
0.067470 0.034163 0.101487
0.103422 0.034673 0.104081
0.178698 0.032817 0.102633
0.270954 0.034247 0.093769
0.356917 0.053837 0.086094
0.433587 0.076452 0.084202
0.500258 0.094246 0.084248
0.525242 0.113570 0.084723
0.576488 0.124295 0.085686
0.621261 0.132135 0.086636
0.662486 0.138302 0.087239
0.701704 0.143420 0.087190
0.738490 0.147666 0.087159
0.769543 0.149958 0.087168
0.136460 0.081215 0.106210
0.034152 0.067037 0.108974
0.067373 0.063250 0.104650
0.102432 0.062064 0.104823
0.167202 0.060288 0.102398
0.254666 0.059982 0.093842
0.340480 0.077504 0.086889
0.418421 0.099524 0.085404
0.487141 0.117509 0.085938
0.509264 0.137140 0.088032
0.565665 0.148654 0.087232
0.612745 0.156296 0.085930
0.656370 0.162804 0.085210
0.697545 0.168170 0.084679
0.736037 0.172811 0.084364
0.769196 0.175819 0.084401
0.137799 0.113939 0.112449
0.035617 0.100684 0.116519
0.066442 0.098342 0.113929
0.105906 0.095356 0.110654
0.161515 0.093442 0.105264
0.236860 0.094419 0.098262
0.321585 0.106853 0.092143
0.402089 0.125267 0.089660
0.472893 0.141652 0.089027
0.498838 0.161555 0.088476
0.558610 0.173144 0.086059
0.608354 0.181542 0.084501
0.653613 0.188445 0.083719
0.696431 0.194359 0.083313
0.736438 0.199321 0.083153
0.771158 0.202801 0.083256
0.139886 0.154033 0.123792
0.037679 0.142465 0.129499
0.067091 0.140631 0.127421
0.103370 0.137953 0.123733
0.161301 0.132948 0.112069
0.230151 0.133610 0.101863
0.310149 0.142004 0.095809
0.390614 0.154941 0.091990
0.463307 0.167853 0.089273
0.492500 0.190271 0.087604
0.554191 0.200331 0.085588
0.605184 0.208070 0.084107
0.651697 0.214984 0.083152
0.695802 0.221227 0.082663
0.736988 0.226454 0.082472
0.773097 0.230147 0.082648
0.137969 0.207087 0.146223
0.035148 0.199537 0.155680
0.062880 0.197827 0.153516
0.098662 0.194304 0.147998
0.149485 0.187487 0.135140
0.231341 0.186527 0.112448
0.315272 0.190800 0.096153
0.392323 0.197325 0.091153
0.461752 0.204697 0.088222
0.497576 0.235423 0.086323
0.557993 0.240284 0.084573
0.608088 0.243026 0.083646
0.653427 0.246366 0.082820
0.697087 0.250977 0.082410
0.738752 0.256065 0.082229
0.775990 0.259966 0.082385
0.134556 0.272113 0.178864
0.031068 0.269783 0.193013
0.057799 0.266314 0.188971
0.091221 0.262335 0.182630
0.139338 0.252706 0.169561
0.212217 0.248237 0.149575
0.321392 0.254139 0.109463
0.406806 0.259486 0.089670
0.474719 0.262483 0.086625
0.515038 0.300428 0.083726
0.573818 0.301224 0.082358
0.623702 0.299610 0.081364
0.667009 0.296239 0.081057
0.707948 0.293368 0.080929
0.746824 0.292646 0.081173
0.783850 0.294696 0.081229
0.132078 0.339321 0.213049
0.026629 0.343751 0.233936
0.054426 0.339466 0.228861
0.089091 0.336432 0.223047
0.136733 0.327858 0.211440
0.194615 0.320244 0.195510
0.293030 0.321097 0.171424
0.417628 0.333183 0.106855
0.496175 0.336206 0.082191
0.537588 0.377074 0.079582
0.596174 0.375674 0.077888
0.645520 0.372706 0.077889
0.688894 0.367474 0.077918
0.728381 0.359435 0.078291
