assets/lut/berat sunlightlove.cube
# Created by: G'MIC (https://gmic.eu)
TITLE "sunlightlove"
# LUT size
LUT_3D_SIZE 13
# Data domain
DOMAIN_MIN 0.0 0.0 0.0
DOMAIN_MAX 1.0 1.0 1.0
# LUT data points
0.042252186685800552 0.038983453065156937 0.038193512707948685
0.051687426865100861 0.040999963879585266 0.038734931498765945
0.065302617847919464 0.041060250252485275 0.036550633609294891
0.10317997634410858 0.041203383356332779 0.030189065262675285
0.17097865045070648 0.042811494320631027 0.021621808409690857
0.24939554929733276 0.043598055839538574 0.011857231147587299
0.33693370223045349 0.050175536423921585 0.0023306603543460369
0.43199977278709412 0.069502845406532288 0.00018436207028571516
0.52623558044433594 0.094079248607158661 0
0.61014318466186523 0.12923049926757812 0
0.69652336835861206 0.17685465514659882 0
0.81145578622817993 0.25410923361778259 0
0.88402187824249268 0.30592027306556702 0
0.046983890235424042 0.050607897341251373 0.040273226797580719
0.056947521865367889 0.051143869757652283 0.04036242887377739
0.071182310581207275 0.050886191427707672 0.038643736392259598
0.10924052447080612 0.050989069044589996 0.032524991780519485
0.17917574942111969 0.052829384803771973 0.022091660648584366
0.26185512542724609 0.054103296250104904 0.011860133148729801
0.35499516129493713 0.060329169034957886 0.0021924036554992199
0.45590007305145264 0.084786973893642426 0
0.558388352394104 0.11812222003936768 0
0.6514732837677002 0.16061273217201233 0
0.75872480869293213 0.22394202649593353 0
0.86449825763702393 0.29767301678657532 0
0.88436776399612427 0.31401678919792175 0
0.053624171763658524 0.06683775782585144 0.042670469731092453
0.065283529460430145 0.070093370974063873 0.043076205998659134
0.081332236528396606 0.071105718612670898 0.041993055492639542
0.11942236125469208 0.070217818021774292 0.036074470728635788
0.18961702287197113 0.069389775395393372 0.0236078891903162
0.27730119228363037 0.07373085618019104 0.014503059908747673
0.37588891386985779 0.081265531480312347 0.0047574508935213089
0.48422947525978088 0.11066386103630066 0.00061507878126576543
0.59110909700393677 0.1498216837644577 5.3256164392223582e-05
0.69630110263824463 0.20640905201435089 0
0.81766462326049805 0.28042382001876831 0
0.88160741329193115 0.32306241989135742 0
0.88255339860916138 0.32577431201934814 0
0.073381669819355011 0.1063578724861145 0.052268564701080322
0.085132688283920288 0.1123899444937706 0.052949808537960052
0.10210436582565308 0.11620596796274185 0.052017107605934143
0.14363904297351837 0.1186821460723877 0.048817098140716553
0.21190726757049561 0.11979371309280396 0.040304955095052719
0.30116727948188782 0.12799480557441711 0.028506634756922722
0.4021030068397522 0.14415879547595978 0.016404379159212112
0.50861841440200806 0.16709110140800476 0.0072461147792637348
0.61079865694046021 0.20244984328746796 0.0026404436212033033
0.71477842330932617 0.25339636206626892 4.6045639464864507e-05
0.8372342586517334 0.32295790314674377 0
0.88882684707641602 0.351845383644104 0
0.88902801275253296 0.35177934169769287 0
0.11517944186925888 0.1817343533039093 0.072160385549068451
0.12906734645366669 0.19033128023147583 0.075083144009113312
0.14634640514850616 0.19785438477993011 0.074875839054584503
0.18768592178821564 0.20170076191425323 0.074323393404483795
0.25097599625587463 0.20513388514518738 0.068415939807891846
0.33301535248756409 0.21105919778347015 0.052882593125104904
0.42750492691993713 0.22521275281906128 0.03360048308968544
0.52764594554901123 0.2441246509552002 0.018138496205210686
0.62295937538146973 0.27068984508514404 0.0083892224356532097
0.72111815214157104 0.30868509411811829 0.0015419455012306571
0.83961993455886841 0.36613649129867554 1.4361213288793806e-05
0.89320492744445801 0.39394721388816833 0
0.89407169818878174 0.39418533444404602 0
0.19413411617279053 0.28626978397369385 0.11306191235780716
0.20862548053264618 0.29491445422172546 0.11924274265766144
0.22232098877429962 0.29970026016235352 0.11961735785007477
0.2530001699924469 0.3014657199382782 0.11534540355205536
0.30290505290031433 0.30590435862541199 0.10819733887910843
0.3743937611579895 0.3089413046836853 0.092925146222114563
0.4588717520236969 0.3166869580745697 0.071561239659786224
0.5449831485748291 0.32961627840995789 0.042694855481386185
0.63413834571838379 0.35124188661575317 0.021399285644292831
0.73060989379882812 0.38195586204528809 0.010908223688602448
0.84586364030838013 0.42680376768112183 0.0026045856066048145
0.89611989259719849 0.45006564259529114 1.382266782457009e-05
0.89758658409118652 0.4529360830783844 0
0.29279693961143494 0.40342250466346741 0.17435915768146515
0.30636048316955566 0.41041368246078491 0.18079215288162231
0.31531336903572083 0.41179397702217102 0.17836079001426697
0.33361342549324036 0.41252067685127258 0.17462240159511566
0.3741452693939209 0.41778677701950073 0.17653429508209229
0.42806655168533325 0.42031404376029968 0.1663476973772049
0.49734634160995483 0.42053210735321045 0.14072327315807343
0.57296150922775269 0.43065232038497925 0.11658434569835663
0.65230923891067505 0.44496133923530579 0.079061634838581085
0.74132370948791504 0.46765777468681335 0.036835119128227234
0.84553897380828857 0.50389492511749268 0.011807849630713463
0.90195649862289429 0.525887131690979 0.0013794692931696773
0.90593010187149048 0.53057771921157837 4.2096307879546657e-05
0.4049781858921051 0.52695959806442261 0.2564217746257782
0.42082607746124268 0.53561019897460938 0.2674102783203125
0.42974632978439331 0.53690075874328613 0.26763653755187988
0.44092747569084167 0.53710329532623291 0.26537433266639709
0.46874263882637024 0.54001212120056152 0.26312083005905151
0.50425773859024048 0.54313158988952637 0.25632748007774353
0.55486118793487549 0.53945374488830566 0.23652152717113495
0.61952531337738037 0.54399293661117554 0.21552838385105133
0.68720537424087524 0.55489909648895264 0.1894126832485199
0.76499736309051514 0.56712883710861206 0.13580319285392761
0.8506704568862915 0.58763837814331055 0.066774509847164154
0.91328006982803345 0.60483336448669434 0.022332495078444481
0.91692692041397095 0.60978966951370239 0.0068500591441988945
0.52813363075256348 0.65219712257385254 0.35302960872650146
0.54202675819396973 0.66422015428543091 0.36532491445541382
0.55502098798751831 0.66975641250610352 0.37093183398246765
0.56275123357772827 0.6689450740814209 0.36905097961425781
0.57488268613815308 0.66460227966308594 0.36103630065917969
0.59924948215484619 0.66307985782623291 0.35414198040962219
0.62827539443969727 0.65481126308441162 0.33772051334381104
0.68225932121276855 0.65393000841140747 0.31701630353927612
0.73461079597473145 0.65455144643783569 0.29494032263755798
0.79518860578536987 0.66068440675735474 0.26196581125259399
0.87174874544143677 0.67244291305541992 0.19411914050579071
0.9301459789276123 0.68330055475234985 0.11020225286483765
0.93399584293365479 0.68737363815307617 0.10183298587799072
0.68011927604675293 0.8031160831451416 0.48026052117347717
0.69310426712036133 0.8152574896812439 0.49147146940231323
0.70120072364807129 0.81944626569747925 0.49592363834381104
0.70198994874954224 0.81337058544158936 0.4896966814994812
0.69025850296020508 0.79199576377868652 0.46861997246742249
0.70500582456588745 0.78392601013183594 0.45833581686019897
0.71780890226364136 0.76761621236801147 0.43820875883102417
0.74726802110671997 0.75630402565002441 0.41672104597091675
0.7903168797492981 0.75279664993286133 0.39433825016021729
0.83542340993881226 0.75254315137863159 0.37139946222305298
0.90023332834243774 0.7600817084312439 0.33301901817321777
0.95121872425079346 0.76654481887817383 0.28157776594161987
0.95505422353744507 0.76781833171844482 0.28291085362434387
0.77127349376678467 0.89282447099685669 0.55871152877807617
0.78204095363616943 0.90239238739013672 0.56699496507644653
0.78478115797042847 0.90260392427444458 0.56733167171478271
0.78584975004196167 0.8992658257484436 0.56301200389862061
0.78510701656341553 0.89174091815948486 0.55517196655273438
0.7925649881362915 0.88369333744049072 0.54494303464889526
0.80019462108612061 0.86707776784896851 0.52621257305145264
0.81622105836868286 0.85748082399368286 0.51281577348709106
0.84809529781341553 0.85243916511535645 0.49628296494483948
0.88605624437332153 0.85054391622543335 0.47959440946578979
0.93883401155471802 0.85483396053314209 0.45710587501525879
0.97886157035827637 0.85828018188476562 0.43608385324478149
0.98287993669509888 0.85993826389312744 0.43547067046165466
0.7791515588760376 0.90039443969726562 0.56582355499267578
0.78175735473632812 0.90157413482666016 0.56501883268356323
0.78431838750839233 0.9009932279586792 0.56489872932434082
0.78826051950454712 0.90066879987716675 0.56435990333557129
0.79676955938339233 0.90280628204345703 0.56468003988265991
0.80966520309448242 0.9017367959022522 0.56089675426483154
0.82497698068618774 0.89654994010925293 0.55265331268310547
0.8456648588180542 0.89675056934356689 0.54888749122619629
0.87601256370544434 0.89989089965820312 0.54459482431411743
0.91475933790206909 0.90256285667419434 0.53525269031524658
0.95940738916397095 0.90759074687957764 0.52444285154342651
0.99028223752975464 0.90390950441360474 0.50340086221694946
0.9958452582359314 0.90421813726425171 0.5014457106590271
0.78454959392547607 0.90538161993026733 0.56981825828552246
0.78401327133178711 0.90225076675415039 0.5668531060218811
0.78442645072937012 0.89993035793304443 0.56434071063995361
0.78767651319503784 0.89965587854385376 0.56288522481918335
0.79648840427398682 0.90110933780670166 0.56330037117004395
0.80992954969406128 0.90056616067886353 0.55971008539199829
0.82685834169387817 0.89808356761932373 0.55410540103912354
0.84845238924026489 0.89803922176361084 0.55024510622024536
0.88059955835342407 0.90257042646408081 0.54665476083755493
0.92021489143371582 0.90793526172637939 0.53935915231704712
0.96339708566665649 0.91181522607803345 0.52724635601043701
0.99376291036605835 0.9125981330871582 0.51429504156112671
0.99769163131713867 0.91318762302398682 0.51344215869903564
0.042810522019863129 0.043002080172300339 0.053872141987085342
0.053459227085113525 0.044400293380022049 0.051623880863189697
0.067637257277965546 0.043896246701478958 0.046141844242811203
0.10337395966053009 0.043491154909133911 0.03837648406624794
0.17218634486198425 0.045480437576770782 0.030285300686955452
0.25502756237983704 0.04967460036277771 0.022574584931135178
0.34731486439704895 0.056985609233379364 0.0093503762036561966
0.43834215402603149 0.073490902781486511 0.0029328439850360155
0.52796190977096558 0.096425242722034454 0.0002616134297568351
0.61471307277679443 0.13372965157032013 0
0.7017747163772583 0.18182298541069031 0
0.81346726417541504 0.25683140754699707 0
0.88313126564025879 0.30705326795578003 0
0.047148998826742172 0.05253060907125473 0.050483029335737228
0.058198440819978714 0.055604148656129837 0.052414435893297195
0.075299777090549469 0.055724110454320908 0.050067991018295288
0.11147917062044144 0.055542860180139542 0.041833512485027313
0.17993210256099701 0.055502992123365402 0.031214844435453415
0.26818099617958069 0.057747125625610352 0.020914848893880844
0.36828857660293579 0.064107798039913177 0.0067329257726669312
0.46532520651817322 0.086593031883239746 0.0010680254781618714
0.56071096658706665 0.11819431185722351 0.00072761985938996077
0.65835750102996826 0.16493268311023712 0.00020882101671304554
0.76678049564361572 0.22971625626087189 0
0.86929893493652344 0.30219689011573792 0
0.88636618852615356 0.31760945916175842 0
0.05276857316493988 0.067675225436687469 0.049507785588502884
0.065553180873394012 0.073123365640640259 0.052842713892459869
0.085483595728874207 0.07538381963968277 0.052729588001966476
0.12140578031539917 0.07342635840177536 0.044874753803014755
0.19227646291255951 0.072341874241828918 0.031537957489490509
0.28653314709663391 0.0788307785987854 0.021115247160196304
0.39009895920753479 0.088753856718540192 0.0088288700208067894
0.49535861611366272 0.11914951354265213 0.0031747706234455109
0.59701180458068848 0.16143526136875153 0.002805433003231883
0.70195925235748291 0.2102620005607605 0.0005749422125518322
0.82716023921966553 0.28743889927864075 0
0.88425910472869873 0.32676789164543152 0
0.88573038578033447 0.3305995762348175 0
0.07226996123790741 0.10766326636075974 0.057678882032632828
0.083345122635364532 0.11459316313266754 0.060276418924331665
0.10548470914363861 0.12027124315500259 0.060994599014520645
0.14828936755657196 0.1232534795999527 0.05780366063117981
0.21644312143325806 0.124190554022789 0.049817148596048355
0.30970627069473267 0.13401801884174347 0.03659617155790329
0.41548576951026917 0.14849720895290375 0.020989377051591873
0.5184517502784729 0.17155042290687561 0.0085096769034862518
0.61604005098342896 0.21125249564647675 0.0044001112692058086
0.71923869848251343 0.25925081968307495 0.00038440182106569409
0.83881670236587524 0.32604902982711792 0
0.88817006349563599 0.35481128096580505 0
0.88788330554962158 0.35525166988372803 0
0.11818329989910126 0.1838175356388092 0.077705726027488708
0.13058507442474365 0.1959577351808548 0.083283200860023499
0.15385445952415466 0.20342350006103516 0.08432500809431076
0.19404946267604828 0.20778046548366547 0.082723803818225861
0.25671231746673584 0.21036836504936218 0.079144664108753204
0.33944833278656006 0.21638911962509155 0.064133815467357635
0.43695870041847229 0.2293119877576828 0.04291573166847229
0.53365504741668701 0.24966484308242798 0.026577070355415344
0.62657737731933594 0.27782300114631653 0.01354058925062418
0.72655105590820312 0.31473997235298157 0.003314777510240674
0.84260165691375732 0.37104213237762451 0.00095561909256502986
0.89218240976333618 0.39633336663246155 0
0.89276444911956787 0.39784514904022217 0
0.1910783052444458 0.28613495826721191 0.11324041336774826
0.20451250672340393 0.29647523164749146 0.12155353277921677
0.22407892346382141 0.30193981528282166 0.12411944568157196
0.25698530673980713 0.30585339665412903 0.12290776520967484
0.30667263269424438 0.30913805961608887 0.11679090559482574
0.37995022535324097 0.31254273653030396 0.10230494290590286
0.46378567814826965 0.32032337784767151 0.083600409328937531
0.54745876789093018 0.33381268382072449 0.055520735681056976
0.63651704788208008 0.35540884733200073 0.027894413098692894
0.73439258337020874 0.38647961616516113 0.012422210536897182
0.84489518404006958 0.42988041043281555 0.0041629117913544178
0.89358973503112793 0.45349287986755371 7.3720897489693016e-05
0.89619570970535278 0.4585796594619751 0
0.29094770550727844 0.40129807591438293 0.17785345017910004
0.30230861902236938 0.40921860933303833 0.1830320805311203
0.31551286578178406 0.41356956958770752 0.1849386990070343
0.34220299124717712 0.416574627161026 0.18622364103794098
0.37979975342750549 0.42148247361183167 0.18504619598388672
0.42856782674789429 0.42196086049079895 0.17373478412628174
0.49435475468635559 0.42206427454948425 0.15328215062618256
0.56886869668960571 0.43129214644432068 0.12570615112781525
0.65341472625732422 0.44764769077301025 0.087601542472839355
0.74549686908721924 0.47194206714630127 0.045188393443822861
0.84711509943008423 0.50625485181808472 0.014006147161126137
0.89837747812271118 0.52757316827774048 0.0038707060739398003
0.90442103147506714 0.53411740064620972 0.001749764196574688
0.40837496519088745 0.5273851752281189 0.26476842164993286
0.42012017965316772 0.53520709276199341 0.27333596348762512
0.43335893750190735 0.54079854488372803 0.27805003523826599
0.44865727424621582 0.54386729001998901 0.27805653214454651
0.47621524333953857 0.5457426905632019 0.27540719509124756
0.50807684659957886 0.54691135883331299 0.26571589708328247
0.55297553539276123 0.53994870185852051 0.24579685926437378
0.61314249038696289 0.53969889879226685 0.22218166291713715
0.68699747323989868 0.55446982383728027 0.19601729512214661
0.76670724153518677 0.57086300849914551 0.14901402592658997
0.85506159067153931 0.59172701835632324 0.074276581406593323
0.91007989645004272 0.60659265518188477 0.030406996607780457
0.91567009687423706 0.6105007529258728 0.013576537370681763
0.53472959995269775 0.65804624557495117 0.36294040083885193
0.54691743850708008 0.66717362403869629 0.37427127361297607
0.56184691190719604 0.67543691396713257 0.3822387158870697
0.5726502537727356 0.67745530605316162 0.38280665874481201
0.58204555511474609 0.67087858915328979 0.37320074439048767
0.59961289167404175 0.66453474760055542 0.35994046926498413
0.62600910663604736 0.65465849637985229 0.34176439046859741
0.67425888776779175 0.64880090951919556 0.31955286860466003
0.73207014799118042 0.65265560150146484 0.29649767279624939
0.79706907272338867 0.66198986768722534 0.26587745547294617
0.87226575613021851 0.67440593242645264 0.19785009324550629
0.92941701412200928 0.68520545959472656 0.12229523062705994
0.93420898914337158 0.68759632110595703 0.11130254715681076
0.68754154443740845 0.8099939227104187 0.48939111828804016
0.69341051578521729 0.81421113014221191 0.49439117312431335
0.7013360857963562 0.81866151094436646 0.49880030751228333
0.70584791898727417 0.8157619833946228 0.4959406852722168
0.69478398561477661 0.79421412944793701 0.4756561815738678
0.69937306642532349 0.78029245138168335 0.45851331949234009
0.71210455894470215 0.76515763998031616 0.43856129050254822
0.74456769227981567 0.75487601757049561 0.41793164610862732
0.78522533178329468 0.74948608875274658 0.39502426981925964
0.83840417861938477 0.75262469053268433 0.3687681257724762
0.90053671598434448 0.76030445098876953 0.33347350358963013
0.95036262273788452 0.76589286327362061 0.2876775860786438
0.95569133758544922 0.76867955923080444 0.28466445207595825
0.77468478679656982 0.89583367109298706 0.56357568502426147
0.77645415067672729 0.89670264720916748 0.56363934278488159
0.78084105253219604 0.89881819486618042 0.56584823131561279
0.78323948383331299 0.89570891857147217 0.56199508905410767
0.7812458872795105 0.88594526052474976 0.55279344320297241
0.78706687688827515 0.87755507230758667 0.54273074865341187
0.79605650901794434 0.86458522081375122 0.52623707056045532
0.81653237342834473 0.85748821496963501 0.51380860805511475
0.84560585021972656 0.84875231981277466 0.49366000294685364
0.8826448917388916 0.844868004322052 0.47384661436080933
0.93782192468643188 0.85422337055206299 0.45648697018623352
0.97466588020324707 0.85838544368743896 0.43670552968978882
0.98163646459579468 0.8574029803276062 0.42982938885688782
0.77910339832305908 0.89995616674423218 0.56848585605621338
0.77978205680847168 0.89836752414703369 0.56577742099761963
0.78189545869827271 0.89853477478027344 0.56532442569732666
0.78626000881195068 0.89811205863952637 0.56402945518493652
0.79433560371398926 0.89827811717987061 0.56321275234222412
0.80691111087799072 0.89757746458053589 0.55992501974105835
0.82405382394790649 0.8954511284828186 0.55362105369567871
0.84564465284347534 0.89761447906494141 0.55143332481384277
0.87556976079940796 0.89979004859924316 0.54569637775421143
0.91168707609176636 0.90514224767684937 0.54096585512161255
0.95382457971572876 0.90207743644714355 0.52000325918197632
0.98530513048171997 0.90237635374069214 0.50282412767410278
0.99561446905136108 0.90712249279022217 0.50601184368133545
0.78145205974578857 0.90252208709716797 0.57182282209396362
0.78063696622848511 0.89952248334884644 0.56775009632110596
0.78043752908706665 0.89745688438415527 0.5642210841178894
0.78518497943878174 0.8954046368598938 0.56138676404953003
0.79456090927124023 0.89788627624511719 0.56103050708770752
0.8076401948928833 0.89731216430664062 0.55916672945022583
0.82549017667770386 0.89635038375854492 0.55442720651626587
0.84662091732025146 0.89778870344161987 0.55157607793807983
0.87813115119934082 0.90255075693130493 0.54882192611694336
0.91560065746307373 0.90845060348510742 0.54322004318237305
0.95746737718582153 0.90940713882446289 0.52904200553894043
0.9877774715423584 0.90984565019607544 0.51540845632553101
0.99656891822814941 0.91342425346374512 0.51701170206069946
0.041344765573740005 0.046976275742053986 0.071539141237735748
0.051537636667490005 0.049367118626832962 0.073760762810707092
0.066923759877681732 0.048800181597471237 0.067482605576515198
0.10179826617240906 0.047832190990447998 0.05807698518037796
0.1706157773733139 0.049827307462692261 0.048841964453458786
0.25775504112243652 0.056051291525363922 0.039674364030361176
0.35242393612861633 0.062375940382480621 0.020849877968430519
0.44283947348594666 0.073504127562046051 0.0051623177714645863
0.53263098001480103 0.1038823127746582 0.0046795117668807507
0.61601197719573975 0.13857518136501312 0.0023232253734022379
0.70622962713241577 0.18770831823348999 0
0.81835418939590454 0.26234051585197449 0
0.88311922550201416 0.30959942936897278 0
0.045488081872463226 0.056379295885562897 0.071582317352294922
0.056632217019796371 0.059597495943307877 0.074583835899829865
0.074542179703712463 0.060354825109243393 0.071722857654094696
0.11056656390428543 0.058887992054224014 0.062790140509605408
0.17852872610092163 0.056788887828588486 0.04971739649772644
0.2680898904800415 0.060339145362377167 0.03709430992603302
0.37304723262786865 0.070519015192985535 0.019437797367572784
0.47234553098678589 0.091253332793712616 0.0076781627722084522
0.56742674112319946 0.12816551327705383 0.0095508499071002007
0.6609312891960144 0.17237465083599091 0.0052491878159344196
0.77308642864227295 0.23880808055400848 0.00026355817681178451
0.87270569801330566 0.30826893448829651 0
0.88620227575302124 0.32118457555770874 0
0.052933219820261002 0.074317306280136108 0.073909074068069458
0.063207007944583893 0.07632184773683548 0.07587934285402298
0.083374068140983582 0.078326433897018433 0.074901536107063293
0.12291748821735382 0.078750848770141602 0.067524045705795288
0.19379620254039764 0.079096533358097076 0.055615786463022232
0.28679361939430237 0.085044175386428833 0.044007334858179092
0.39365339279174805 0.096372954547405243 0.029733769595623016
0.50263375043869019 0.12773759663105011 0.016689060255885124
0.60310202836990356 0.17154836654663086 0.015594512224197388
0.70687353610992432 0.22163577377796173 0.010108140297234058
0.83015710115432739 0.29545646905899048 0.0025798273272812366
0.88635158538818359 0.33299589157104492 0
0.88661104440689087 0.33645284175872803 7.7789904025848955e-05
0.073180884122848511 0.1143193393945694 0.081106491386890411
0.084200821816921234 0.1211254820227623 0.084220319986343384
0.10607302933931351 0.12609143555164337 0.083744630217552185
0.15002395212650299 0.12899908423423767 0.079450391232967377
0.21937562525272369 0.13129638135433197 0.071273058652877808
0.31121173501014709 0.14026597142219543 0.060918230563402176
0.41635596752166748 0.15529583394527435 0.046325698494911194
0.52290636301040649 0.18163822591304779 0.027090243995189667
0.62047731876373291 0.22060823440551758 0.016937838867306709
0.72454297542572021 0.26908060908317566 0.0069886599667370319
0.84237015247344971 0.33272174000740051 0.0023993100039660931
0.88926398754119873 0.36092722415924072 2.2544112653122284e-05
0.88914400339126587 0.36237385869026184 0.00078083114931359887
0.11797033250331879 0.18924055993556976 0.097750253975391388
0.13046053051948547 0.2015545517206192 0.10273844748735428
0.1555413156747818 0.20939972996711731 0.10529197007417679
0.19635401666164398 0.21427026391029358 0.10323937982320786
0.25812152028083801 0.2179180234670639 0.097598686814308167
0.34095349907875061 0.22466291487216949 0.085085801780223846
0.4371071457862854 0.23662340641021729 0.067241504788398743
0.53632104396820068 0.25891321897506714 0.046765167266130447
0.63000905513763428 0.2856346070766449 0.027220945805311203
0.73181092739105225 0.32227346301078796 0.0093542365357279778
0.84630399942398071 0.3779604434967041 0.0050797853618860245
0.89240378141403198 0.40152978897094727 0.0014536839444190264
0.89196395874023438 0.40261566638946533 0.0016010658582672477
0.19114981591701508 0.28813943266868591 0.13442735373973846
0.20388802886009216 0.29985907673835754 0.13846375048160553
0.22639563679695129 0.30737888813018799 0.14160998165607452
