assets/lut/berat goldenface.cube
TITLE "goldenface"
LUT_3D_SIZE 6
DOMAIN_MIN 0.0 0.0 0.0
DOMAIN_MAX 1.0 1.0 1.0
0.000000 0.000000 0.000000
0.146655 0.000000 0.000000
0.245315 0.000000 0.000000
0.423037 0.000000 0.000000
0.746013 0.000000 0.000000
1.000000 0.000000 0.000000
0.000000 0.056236 0.000000
0.048988 0.041852 0.000000
0.218577 0.031563 0.000000
0.434947 0.023276 0.000000
0.772881 0.007054 0.000000
1.000000 0.000000 0.000000
0.000000 0.219843 0.000000
0.049396 0.217956 0.000000
0.233177 0.217799 0.000000
0.469150 0.218310 0.000000
0.821642 0.208939 0.000000
1.000000 0.162064 0.000000
0.000000 0.473542 0.000000
0.090937 0.471431 0.000000
0.286752 0.469886 0.000000
0.545576 0.467238 0.000000
0.906194 0.458447 0.000000
0.041270 0.518661 0.000000
0.000000 0.828934 0.000000
0.090389 0.824880 0.000000
0.293544 0.819492 0.000000
0.555741 0.811940 0.000000
0.912697 0.799300 0.000000
0.000000 0.886217 0.000000
0.000000 1.000000 0.000000
0.046320 1.000000 0.000000
0.276255 1.000000 0.000000
0.545466 1.000000 0.000000
0.905473 1.000000 0.000000
0.000000 0.000000 0.000000
0.516146 0.000000 0.031449
0.218250 0.000000 0.063649
0.426767 0.000000 0.026656
0.720006 0.000000 0.014877
0.266531 0.000000 0.083234
0.494346 0.000000 0.031147
0.124043 0.044448 0.026816
0.272107 0.037190 0.017374
0.579528 0.025358 0.012170
0.647468 0.032231 0.011710
0.355976 0.044286 0.010746
0.124173 0.068643 0.024598
0.175960 0.231670 0.016438
0.394159 0.230273 0.009411
0.688037 0.217132 0.005816
0.218175 0.252027 0.010791
0.419076 0.246869 0.004445
0.177909 0.266911 0.015720
0.414435 0.487234 0.003917
0.604299 0.484572 0.000675
0.192588 0.519250 0.000431
0.488465 0.513905 0.000055
0.738068 0.503121 0.000000
0.560464 0.530442 0.002604
0.627565 0.822919 0.000000
0.118062 0.882722 0.000000
0.327846 0.877547 0.000000
0.607778 0.869337 0.000000
0.510838 0.884107 0.000000
0.614563 0.880728 0.000000
0.651649 0.600000 0.059626
0.141254 0.000000 0.127831
0.305499 0.000000 0.068098
0.535296 0.000000 0.036465
0.449903 0.000000 0.079242
0.630869 0.000000 0.057630
0.067254 0.000000 0.240795
0.227509 0.000000 0.204188
0.445471 0.000000 0.197957
0.775988 0.000000 0.191711
0.460636 0.000000 0.215951
0.057455 0.000000 0.230086
0.090782 0.081440 0.204351
0.284272 0.074710 0.201509
0.545304 0.065033 0.196006
0.840288 0.036780 0.181272
0.240021 0.091104 0.190182
0.067365 0.111953 0.203562
0.095835 0.289731 0.202298
0.300172 0.287640 0.191431
0.582566 0.282002 0.187093
0.863479 0.271103 0.167261
0.242554 0.310925 0.191899
0.074803 0.328052 0.203471
0.133674 0.572518 0.192039
0.345836 0.569331 0.176780
0.644212 0.559619 0.159655
0.896995 0.547932 0.126082
0.246226 0.605449 0.170903
0.108361 0.625897 0.190160
0.152407 0.929641 0.150059
0.375328 0.925717 0.132201
0.679640 0.916896 0.103881
0.897707 0.907028 0.048748
0.249261 0.951333 0.123045
0.123828 0.967244 0.140824
0.179549 0.000000 0.243788
0.374384 0.000000 0.228218
0.670075 0.000000 0.226547
0.907724 0.000000 0.211148
0.197463 0.000000 0.262635
0.149868 0.000000 0.242870
0.904614 0.000000 0.420383
0.047059 0.000000 0.407965
0.082491 0.000000 0.394984
0.269026 0.000000 0.395849
0.521519 0.000000 0.408393
0.855170 0.000000 0.420254
0.744887 0.035255 0.415341
0.080025 0.104639 0.399510
0.164892 0.104693 0.409411
0.395303 0.096582 0.420520
0.674561 0.075360 0.424813
0.718103 0.072182 0.418043
0.767246 0.268701 0.418682
0.109802 0.321304 0.432793
0.250016 0.322980 0.439209
0.510986 0.316126 0.442722
0.535733 0.325665 0.433131
0.759194 0.309176 0.417846
0.771889 0.551933 0.395179
0.073300 0.624160 0.436064
0.257295 0.622337 0.426541
0.516616 0.615379 0.413243
0.550770 0.624752 0.409026
0.763162 0.608142 0.394402
0.773594 0.909411 0.348219
0.080420 0.966543 0.404924
0.284177 0.964415 0.392151
0.550354 0.959577 0.373199
0.575850 0.961220 0.370425
0.761717 0.950055 0.346031
0.772700 0.000000 0.450784
0.078643 0.000000 0.435302
0.261280 0.000000 0.431201
0.513093 0.000000 0.444474
0.531086 0.000000 0.448758
0.763334 0.000000 0.451945
0.493876 0.000000 0.697737
0.864123 0.000000 0.735688
0.400000 0.000000 0.673416
0.030728 0.000000 0.639867
0.213895 0.000000 0.662431
0.450562 0.000000 0.696361
0.683315 0.101530 0.749607
0.949876 0.043566 0.754937
0.178919 0.137527 0.698694
0.114568 0.160191 0.704670
0.331999 0.155840 0.731704
0.631142 0.143332 0.753301
0.750239 0.342483 0.777057
0.635559 0.350145 0.759204
0.190216 0.386371 0.754678
0.145109 0.402201 0.763854
0.377336 0.397504 0.777278
0.700221 0.386702 0.779967
0.821015 0.644634 0.754720
0.382266 0.696299 0.756320
0.043052 0.733661 0.763865
0.192330 0.730579 0.762604
0.437837 0.724595 0.761582
0.776222 0.705505 0.749712
0.823342 0.980206 0.675815
0.368548 0.988341 0.705077
0.067804 0.997769 0.726145
0.217888 0.997622 0.716906
0.485589 0.997368 0.700114
0.795900 0.996451 0.671141
0.811636 0.000000 0.790473
0.367007 0.000000 0.724672
0.110637 0.000000 0.692225
0.262004 0.000000 0.719717
0.542965 0.000000 0.757491
0.793210 0.000000 0.788702
0.590280 0.000000 0.996048
0.964812 0.000000 1.000000
0.000000 0.000000 0.955493
0.039604 0.000000 0.966756
0.262855 0.000000 0.988724
0.539483 0.000000 0.995850
0.800592 0.080171 1.000000
1.000000 0.012854 1.000000
0.000038 0.170119 0.994100
0.148316 0.165612 0.996768
0.398325 0.156602 0.999856
0.738922 0.134035 1.000000
0.821362 0.363730 1.000000
1.000000 0.330675 1.000000
0.000000 0.434440 1.000000
0.151016 0.430984 1.000000
0.408276 0.424952 1.000000
0.755248 0.412228 1.000000
0.828865 0.692208 1.000000
0.824762 0.686619 1.000000
0.000002 0.784506 1.000000
0.183578 0.779581 1.000000
0.446171 0.771577 1.000000
0.804783 0.754672 1.000000
0.843311 0.995282 0.999478
0.600000 0.992107 0.999556
0.000000 1.000000 0.999997
0.160904 1.000000 0.999696
0.431781 1.000000 0.999161
0.773132 1.000000 0.998144
0.000000 0.000000 0.000000
0.000000 0.000000 0.000000
0.000000 0.000000 0.000000
0.000000 0.000000 0.000000
0.000000 0.000000 0.000000
0.000000 0.000000 0.000000
