assets/lut/berat brownbm.cube
# Created by: G'MIC (https://gmic.eu)
TITLE "brownbm"
# LUT size
LUT_3D_SIZE 13
# Data domain
DOMAIN_MIN 0.0 0.0 0.0
DOMAIN_MAX 1.0 1.0 1.0
# LUT data points
0.030204145237803459 0.030447043478488922 0.030859135091304779
0.03808281198143959 0.029889065772294998 0.028985371813178062
0.055437710136175156 0.033398333936929703 0.029097193852066994
0.084682077169418335 0.036786891520023346 0.027579573914408684
0.12788330018520355 0.036898519843816757 0.020008774474263191
0.18327206373214722 0.035292934626340866 0.0077979443594813347
0.24336226284503937 0.033938031643629074 0.00014127843314781785
0.3071480393409729 0.034375403076410294 0
0.37553390860557556 0.039611171931028366 0
0.45273134112358093 0.054608020931482315 0
0.54363715648651123 0.087140344083309174 0
0.65753704309463501 0.14823302626609802 0.0015445484314113855
0.81281238794326782 0.25394222140312195 0.0056868009269237518
0.034102719277143478 0.040018584579229355 0.031965471804141998
0.041020546108484268 0.039857588708400726 0.030936894938349724
0.05800279974937439 0.042769592255353928 0.031896822154521942
0.087711453437805176 0.045159522444009781 0.030289549380540848
0.13084718585014343 0.045720584690570831 0.023168571293354034
0.18457326292991638 0.044761821627616882 0.01147175207734108
0.24444448947906494 0.044591642916202545 0.00098507455550134182
0.30834534764289856 0.046276360750198364 0
0.37725576758384705 0.051628544926643372 0
0.45550811290740967 0.067133314907550812 0
0.54951602220535278 0.10017294436693192 0
0.66569596529006958 0.16232471168041229 0.0046221413649618626
0.81761819124221802 0.26233875751495361 0.009360593743622303
0.045563984662294388 0.060466766357421875 0.037229828536510468
0.051969833672046661 0.060505077242851257 0.036901943385601044
0.068436399102210999 0.063009090721607208 0.038138415664434433
0.098196439445018768 0.064582228660583496 0.03636583685874939
0.14114813506603241 0.064575225114822388 0.029435833916068077
0.19299526512622833 0.064883075654506683 0.018320584669709206
0.25136274099349976 0.06621493399143219 0.0053380480967462063
0.31415447592735291 0.069193236529827118 7.9465382441412657e-05
0.38205260038375854 0.075172483921051025 0
0.45868039131164551 0.089108377695083618 0
0.54991447925567627 0.11894302070140839 0
0.66437619924545288 0.17613354325294495 0.0026674158871173859
0.81800895929336548 0.27232924103736877 0.0070551554672420025
0.066384516656398773 0.09773273766040802 0.046662125736474991
0.072401084005832672 0.097303919494152069 0.04641125351190567
0.088313549757003784 0.097740665078163147 0.04745013639330864
0.11738801747560501 0.097952716052532196 0.045523729175329208
0.15897653996944427 0.097346752882003784 0.039056383073329926
0.20884831249713898 0.098873987793922424 0.028600400313735008
0.26425781846046448 0.10169193148612976 0.015472771599888802
0.3252582848072052 0.10572122037410736 0.0036085839383304119
0.39093232154846191 0.11150259524583817 2.6927275030175224e-05
0.46343994140625 0.12273399531841278 0
0.54885238409042358 0.14671486616134644 0
0.65924721956253052 0.19493764638900757 0.00047215481754392385
0.81392651796340942 0.28366845846176147 0.0030184728093445301
0.097429327666759491 0.15004406869411469 0.060552902519702911
0.10337569564580917 0.14901398122310638 0.059768196195363998
0.11898969858884811 0.14894445240497589 0.05972658097743988
0.14595003426074982 0.14890854060649872 0.057776834815740585
0.18428163230419159 0.14788831770420074 0.052128810435533524
0.23091444373130798 0.14893645048141479 0.042802084237337112
0.28359022736549377 0.15216256678104401 0.030529741197824478
0.34166383743286133 0.1564117968082428 0.016572302207350731
0.40525135397911072 0.1619972437620163 0.0038851120043545961
0.47457817196846008 0.1709945946931839 2.6927275030175224e-05
0.55586177110671997 0.18956105411052704 0
0.66478222608566284 0.23176749050617218 0.0012820673873648047
0.81795918941497803 0.3095550537109375 0.0030101852025836706
0.13767631351947784 0.21372391283512115 0.079438529908657074
0.14339162409305573 0.21300393342971802 0.077869698405265808
0.15768232941627502 0.21260359883308411 0.077283747494220734
0.18181414902210236 0.21076515316963196 0.075088769197463989
0.21591740846633911 0.2099253386259079 0.070560663938522339
0.25882071256637573 0.21124280989170074 0.062921337783336639
0.30846279859542847 0.21436798572540283 0.051975354552268982
0.36396580934524536 0.21856570243835449 0.037360981106758118
0.42476633191108704 0.22382737696170807 0.01995423249900341
0.49171692132949829 0.2315203994512558 0.0047515719197690487
0.56837326288223267 0.2451702207326889 0.00011077581439167261
0.67167419195175171 0.2776910662651062 0.0019024867797270417
0.81861454248428345 0.34127739071846008 0.0020706325303763151
0.1858355849981308 0.28298518061637878 0.10364891588687897
0.19060520827770233 0.28314951062202454 0.10153867304325104
0.20254315435886383 0.28175923228263855 0.10061939060688019
0.22315920889377594 0.27934080362319946 0.099093958735466003
0.25308457016944885 0.27879375219345093 0.096056215465068817
0.29177021980285645 0.28061595559120178 0.090862646698951721
0.33752334117889404 0.28387731313705444 0.082051880657672882
0.38913297653198242 0.28728857636451721 0.06789030134677887
0.44675335288047791 0.29160198569297791 0.047539759427309036
0.50995314121246338 0.29754757881164551 0.023920530453324318
0.58185774087905884 0.30696544051170349 0.0054783839732408524
0.68013954162597656 0.33053255081176758 0.00088155409321188927
0.82003247737884521 0.37943193316459656 0.00071623560506850481
0.24029138684272766 0.35202044248580933 0.13367205858230591
0.2425970584154129 0.3517862856388092 0.1311507374048233
0.25205114483833313 0.35061165690422058 0.13053260743618011
0.26936519145965576 0.34883472323417664 0.13031542301177979
0.29491019248962402 0.34931671619415283 0.12931899726390839
0.32946097850799561 0.3522583544254303 0.12675943970680237
0.37016433477401733 0.35608398914337158 0.12099616974592209
0.41684982180595398 0.35837095975875854 0.10866390913724899
0.46941429376602173 0.36096945405006409 0.089125961065292358
0.52759206295013428 0.36492794752120972 0.060790535062551498
0.5954289436340332 0.37147819995880127 0.02581309899687767
0.68942266702651978 0.38874098658561707 0.0026867436245083809
0.82645159959793091 0.42602765560150146 0.0010980643564835191
0.29928860068321228 0.42027917504310608 0.1709006130695343
0.29992353916168213 0.4190862774848938 0.16814978420734406
0.30757758021354675 0.41883307695388794 0.16865964233875275
0.32125738263130188 0.41881343722343445 0.16967755556106567
0.3425411581993103 0.41996374726295471 0.17009878158569336
0.37095290422439575 0.42355909943580627 0.1698320209980011
0.40666234493255615 0.42763489484786987 0.16711333394050598
0.4473300576210022 0.42914175987243652 0.15843255817890167
0.49503350257873535 0.43098080158233643 0.14374122023582458
0.54981797933578491 0.43453517556190491 0.11831138283014297
0.61276006698608398 0.43895944952964783 0.07298608124256134
0.69993281364440918 0.44972383975982666 0.018447576090693474
0.83281141519546509 0.47721132636070251 0.00036998075665906072
0.36626362800598145 0.49169221520423889 0.21890923380851746
0.36680230498313904 0.4907626211643219 0.21697072684764862
0.37394353747367859 0.49289184808731079 0.2195405513048172
0.38539829850196838 0.49486839771270752 0.22168797254562378
0.40063416957855225 0.49534314870834351 0.22239236533641815
0.42142340540885925 0.49724552035331726 0.22113248705863953
0.44898048043251038 0.49897032976150513 0.21910378336906433
0.48382347822189331 0.50129318237304688 0.21485289931297302
0.5259661078453064 0.50389087200164795 0.20763739943504333
0.57702326774597168 0.50828051567077637 0.19231148064136505
0.63554763793945312 0.51173871755599976 0.15491482615470886
0.71784853935241699 0.51848959922790527 0.085031904280185699
0.84213864803314209 0.53554195165634155 0.0065503586083650589
0.44796925783157349 0.57537424564361572 0.28350457549095154
0.4509124755859375 0.57737278938293457 0.28490772843360901
0.45961651206016541 0.58240765333175659 0.28988951444625854
0.46906188130378723 0.58519536256790161 0.29369089007377625
0.47864386439323425 0.58507668972015381 0.29281455278396606
0.49052751064300537 0.58343851566314697 0.28906100988388062
0.50956010818481445 0.5832628607749939 0.28603819012641907
0.53623229265213013 0.58488541841506958 0.28345295786857605
0.57053184509277344 0.58744055032730103 0.28026542067527771
0.61434227228164673 0.59201157093048096 0.27509310841560364
0.66697049140930176 0.59614896774291992 0.25836306810379028
0.74045592546463013 0.60082226991653442 0.21068961918354034
0.85592317581176758 0.60957056283950806 0.069315783679485321
0.55724680423736572 0.68372136354446411 0.37387049198150635
0.56310892105102539 0.68908226490020752 0.37890732288360596
0.57205796241760254 0.69625949859619141 0.38577908277511597
0.57972413301467896 0.69947105646133423 0.38913819193840027
0.58565002679824829 0.69915604591369629 0.3885747492313385
0.5921904444694519 0.69666224718093872 0.38470152020454407
0.60487395524978638 0.69578325748443604 0.38119548559188843
0.62127667665481567 0.69574213027954102 0.37719738483428955
0.6397697925567627 0.69391363859176636 0.37023931741714478
0.67480599880218506 0.69788682460784912 0.3693159818649292
0.71849346160888672 0.70186132192611694 0.36585298180580139
0.77598583698272705 0.70264250040054321 0.34903404116630554
0.87999206781387329 0.70816493034362793 0.25796860456466675
0.70946341753005981 0.83274251222610474 0.50177681446075439
0.70946109294891357 0.83331263065338135 0.50263303518295288
0.71285754442214966 0.83678847551345825 0.50665533542633057
0.71677929162979126 0.83961957693099976 0.50926303863525391
0.72081750631332397 0.84040540456771851 0.51087498664855957
0.72729593515396118 0.84039950370788574 0.510661780834198
0.73859095573425293 0.84252876043319702 0.51037734746932983
0.7464410662651062 0.84115749597549438 0.50551915168762207
0.7496105432510376 0.8345293402671814 0.49515840411186218
0.77354246377944946 0.83747333288192749 0.49472850561141968
0.80737167596817017 0.84157407283782959 0.49469852447509766
0.84598720073699951 0.83913701772689819 0.48551151156425476
0.9295310378074646 0.84414196014404297 0.45345309376716614
0.028538273647427559 0.03295573964715004 0.040938641875982285
0.036743462085723877 0.033084645867347717 0.039644606411457062
0.054778438061475754 0.036263693124055862 0.039758957922458649
0.084412142634391785 0.039128724485635757 0.037795603275299072
0.12791694700717926 0.039744239300489426 0.030781585723161697
0.18336348235607147 0.03914681077003479 0.018833683803677559
0.24528130888938904 0.039056368172168732 0.0046761604025959969
0.30927127599716187 0.039714064449071884 4.3771782657131553e-05
0.37694108486175537 0.044261783361434937 0
0.45201486349105835 0.057213831692934036 0
0.54159271717071533 0.088421903550624847 0
0.65707492828369141 0.15120571851730347 0.0018924638861790299
0.81104505062103271 0.25364154577255249 0.0086432062089443207
0.032056458294391632 0.042226620018482208 0.042166333645582199
0.039860773831605911 0.042457297444343567 0.041289445012807846
0.057456072419881821 0.045615117996931076 0.042191032320261002
0.087590672075748444 0.047972958534955978 0.040593676269054413
0.13113470375537872 0.048689600080251694 0.03390929102897644
0.18539814651012421 0.048608534038066864 0.022060170769691467
0.24668246507644653 0.04913744330406189 0.0077618616633117199
0.31116154789924622 0.050779528915882111 0.00026939241797663271
0.37952971458435059 0.055706579238176346 0
0.45535272359848022 0.069153010845184326 0
0.54556453227996826 0.10019335150718689 0
0.6616857647895813 0.16171827912330627 0.0033053529914468527
0.81425851583480835 0.26046034693717957 0.01243699062615633
0.043144721537828445 0.063034966588020325 0.047617968171834946
0.05063508078455925 0.063098952174186707 0.047260135412216187
0.068005114793777466 0.06550203263759613 0.048284821212291718
0.09804593026638031 0.066864743828773499 0.04638214036822319
0.14095292985439301 0.067094035446643829 0.039886400103569031
0.19371318817138672 0.068129383027553558 0.028903422877192497
0.25327754020690918 0.069980353116989136 0.014788728207349777
0.31714621186256409 0.073073908686637878 0.0026504066772758961
0.38517427444458008 0.078701406717300415 1.3164445590518881e-05
0.46002998948097229 0.091365858912467957 0
0.54875451326370239 0.1197788342833519 0
0.66277164220809937 0.17643259465694427 0.0023208619095385075
0.81553655862808228 0.2697092592716217 0.011039554141461849
0.063144370913505554 0.099408306181430817 0.056716859340667725
0.070698067545890808 0.099244944751262665 0.056453928351402283
0.087648250162601471 0.10055660456418991 0.057052329182624817
0.11704788357019424 0.10084903240203857 0.055239882320165634
0.15822184085845947 0.10063625872135162 0.048999682068824768
0.20889045298099518 0.10197622328996658 0.038846559822559357
0.26580715179443359 0.10529707372188568 0.02584788016974926
0.32807269692420959 0.10939555615186691 0.011726394295692444
0.39422166347503662 0.11514972150325775 0.0014689726522192359
0.46627646684646606 0.12580673396587372 0
0.55063736438751221 0.14880466461181641 0
0.66184180974960327 0.19725066423416138 0.00079887238098308444
0.81469649076461792 0.28351598978042603 0.0069093294441699982
0.093433454632759094 0.15140905976295471 0.069847539067268372
0.10106027871370316 0.15102337300777435 0.069116704165935516
0.11763712763786316 0.1515069454908371 0.069467730820178986
0.14517894387245178 0.15099190175533295 0.067302510142326355
0.18343508243560791 0.15069553256034851 0.061686377972364426
0.23066921532154083 0.1522739976644516 0.052816607058048248
0.28452736139297485 0.1557190865278244 0.041369717568159103
0.34407627582550049 0.16012214124202728 0.027584914118051529
0.4076995849609375 0.16539520025253296 0.011702429503202438
0.47662478685379028 0.17365388572216034 0.0014426587149500847
0.55754977464675903 0.19148010015487671 0
0.66668933629989624 0.23252160847187042 0.00097372016170993447
0.81965702772140503 0.30914899706840515 0.0038327234797179699
0.13419540226459503 0.21439248323440552 0.088014386594295502
0.14105716347694397 0.21460667252540588 0.08661980926990509
0.15650945901870728 0.2145046591758728 0.08643621951341629
0.1812017560005188 0.21385882794857025 0.08478856086730957
0.21530754864215851 0.21376819908618927 0.080128476023674011
0.25853326916694641 0.21510206162929535 0.072913162410259247
0.30889031291007996 0.21809098124504089 0.063339576125144958
0.36471331119537354 0.2218489795923233 0.049870569258928299
0.42554908990859985 0.22636620700359344 0.031752012670040131
0.49137693643569946 0.23288831114768982 0.012515932321548462
0.56859666109085083 0.24648873507976532 0.001496543176472187
0.67488855123519897 0.27973452210426331 0.0014541476266458631
0.82333177328109741 0.34286096692085266 0.0016516143223270774
0.18389920890331268 0.28357985615730286 0.1119159460067749
0.1894107311964035 0.28414732217788696 0.11038387566804886
0.20207680761814117 0.28364616632461548 0.1099993959069252
0.2232690304517746 0.28259307146072388 0.10878876596689224
0.25322076678276062 0.28261083364486694 0.1058102622628212
0.29174512624740601 0.28416204452514648 0.10072126239538193
0.33749336004257202 0.28687864542007446 0.093081995844841003
0.38914602994918823 0.28979435563087463 0.080387011170387268
0.44579479098320007 0.29347744584083557 0.060770459473133087
0.5085374116897583 0.29844993352890015 0.034862980246543884
0.58085793256759644 0.30805152654647827 0.0097612421959638596
0.6821599006652832 0.33284050226211548 0.00074036541627719998
0.82525384426116943 0.38148030638694763 0.00077266321750357747
0.24084481596946716 0.35436773300170898 0.14182649552822113
0.24378156661987305 0.35404393076896667 0.1397022008895874
0.25306493043899536 0.35302740335464478 0.13968303799629211
0.27040466666221619 0.35227403044700623 0.13949590921401978
0.29561784863471985 0.35264468193054199 0.13839605450630188
0.32950571179389954 0.35449779033660889 0.13571916520595551
0.36967623233795166 0.3571077287197113 0.13046205043792725
0.41602933406829834 0.35953411459922791 0.12011784315109253
0.46915104985237122 0.36250975728034973 0.1024625301361084
0.52798676490783691 0.36683505773544312 0.074506945908069611
0.59541434049606323 0.37346687912940979 0.033509064465761185
0.69093793630599976 0.39031288027763367 0.0066190231591463089
0.83232063055038452 0.42795664072036743 0.0049033369868993759
0.30301198363304138 0.42457142472267151 0.17877896130084991
0.3028520941734314 0.42268657684326172 0.17625270783901215
0.30940404534339905 0.42202478647232056 0.17687933146953583
0.32308778166770935 0.42182230949401855 0.17777363955974579
0.34318768978118896 0.42263326048851013 0.17792510986328125
0.37076884508132935 0.42447468638420105 0.17696166038513184
0.40559685230255127 0.42696473002433777 0.17401255667209625
0.44607046246528625 0.42905855178833008 0.16729778051376343
0.49460017681121826 0.43184641003608704 0.15593802928924561
0.55121505260467529 0.43658599257469177 0.13512085378170013
0.61472094058990479 0.44160839915275574 0.09215303510427475
0.70376765727996826 0.45224842429161072 0.041033260524272919
0.8392101526260376 0.47948721051216125 0.0064979703165590763
0.37020239233970642 0.49632358551025391 0.22601225972175598
0.37005650997161865 0.49513283371925354 0.22410950064659119
0.37576669454574585 0.49573352932929993 0.22601911425590515
0.38633352518081665 0.49643433094024658 0.22767722606658936
0.40103974938392639 0.49693161249160767 0.22787442803382874
0.42178267240524292 0.49809139966964722 0.22684065997600555
0.44910332560539246 0.49891003966331482 0.22499464452266693
0.48338407278060913 0.50172185897827148 0.22159500420093536
0.52534884214401245 0.50407522916793823 0.21588584780693054
0.5758475661277771 0.50812917947769165 0.20309928059577942
0.63532435894012451 0.51218438148498535 0.17203086614608765
0.71943396329879761 0.52002805471420288 0.11225234717130661
0.84541773796081543 0.53758114576339722 0.017663693055510521
0.45340827107429504 0.58069694042205811 0.29032570123672485
0.45492798089981079 0.58133482933044434 0.29067444801330566
0.46135798096656799 0.58433091640472412 0.2945006787776947
0.46946984529495239 0.58568847179412842 0.29668977856636047
0.47912251949310303 0.58536064624786377 0.29628598690032959
0.49266564846038818 0.58496320247650146 0.29413193464279175
0.51210731267929077 0.58539992570877075 0.29171624779701233
0.53815007209777832 0.58683913946151733 0.28881040215492249
0.57092547416687012 0.58852577209472656 0.28474265336990356
0.61311519145965576 0.59166383743286133 0.27791425585746765
0.66587263345718384 0.59448254108428955 0.26350855827331543
0.74093115329742432 0.60062676668167114 0.22723193466663361
0.85718703269958496 0.61214065551757812 0.092834562063217163
0.56486541032791138 0.69070851802825928 0.38084796071052551
0.5678107738494873 0.69286066293716431 0.38327884674072266
0.57463788986206055 0.69783097505569458 0.38873612880706787
0.5808563232421875 0.70013797283172607 0.39168909192085266
0.58675283193588257 0.69973009824752808 0.39114433526992798
0.59451031684875488 0.69866383075714111 0.3883633017539978
0.60729551315307617 0.69857239723205566 0.38538184762001038
0.62361156940460205 0.69843930006027222 0.38096773624420166
0.64471620321273804 0.69806581735610962 0.37504374980926514
0.67722082138061523 0.70019090175628662 0.37034469842910767
0.72031795978546143 0.70308828353881836 0.36550149321556091
0.78082841634750366 0.70492672920227051 0.35531854629516602
0.88296151161193848 0.71057629585266113 0.25857660174369812
0.71104198694229126 0.83318877220153809 0.50067043304443359
0.71174746751785278 0.83434569835662842 0.50312036275863647
0.71591329574584961 0.83817481994628906 0.50789511203765869
0.72012150287628174 0.84091192483901978 0.51153469085693359
0.72307848930358887 0.84100651741027832 0.51185816526412964
0.72780448198318481 0.84056824445724487 0.51094138622283936
0.735687255859375 0.84157413244247437 0.50935053825378418
0.74339956045150757 0.84084159135818481 0.50499016046524048
0.75302308797836304 0.83914864063262939 0.49895212054252625
0.77602559328079224 0.84189516305923462 0.49742832779884338
0.8084685206413269 0.84561681747436523 0.4998222291469574
0.85058397054672241 0.84650856256484985 0.49638074636459351
0.93214905261993408 0.84830600023269653 0.44991537928581238
0.031122604385018349 0.039934150874614716 0.059990931302309036
0.039550077170133591 0.039948601275682449 0.058759517967700958
0.056976735591888428 0.04271920770406723 0.058981802314519882
0.086989670991897583 0.045225240290164948 0.057164493948221207
0.1304316520690918 0.04576607421040535 0.051450900733470917
0.18530309200286865 0.04573904350399971 0.040604878216981888
0.2477317750453949 0.046615242958068848 0.025659030303359032
0.3137747049331665 0.049415603280067444 0.0090131871402263641
0.38305822014808655 0.055331166833639145 0.00088088092161342502
0.45749729871749878 0.067430324852466583 0
0.54445326328277588 0.096360348165035248 0
0.65875864028930664 0.1564895361661911 0.00090258731506764889
0.8127942681312561 0.25765231251716614 0.0087490007281303406
0.034182500094175339 0.04888559877872467 0.061830632388591766
0.042684860527515411 0.049157608300447464 0.061017338186502457
0.060400284826755524 0.051681876182556152 0.061659496277570724
0.090471990406513214 0.053858470171689987 0.060246918350458145
0.13371574878692627 0.054547298699617386 0.054492425173521042
0.18834245204925537 0.055013470351696014 0.043832592666149139
0.2502095103263855 0.056749753654003143 0.02906474657356739
0.31652459502220154 0.059933096170425415 0.012498743832111359
0.38607898354530334 0.065869271755218506 0.0020048252772539854
0.46087807416915894 0.078532561659812927 0
0.54852044582366943 0.10773484408855438 0
0.66255885362625122 0.16695484519004822 0.0014027165016159415
0.81478428840637207 0.2638629674911499 0.012278777547180653
0.044159937649965286 0.069403752684593201 0.067632131278514862
0.052758730947971344 0.069524131715297699 0.067144386470317841
0.070923447608947754 0.071418866515159607 0.067609377205371857
0.10086379945278168 0.07250029593706131 0.06615784764289856
0.14316883683204651 0.072816230356693268 0.060379445552825928
0.19634312391281128 0.074300594627857208 0.05043468251824379
0.25707492232322693 0.077353067696094513 0.036742087453603745
0.32276320457458496 0.081526078283786774 0.020818104967474937
0.39207044243812561 0.088096156716346741 0.0058695776388049126
0.46653848886489868 0.10081891715526581 0.00017667283827904612
0.55291604995727539 0.12798887491226196 0
0.66517454385757446 0.18262083828449249 0.00092079309979453683
0.81644320487976074 0.27334332466125488 0.011693811975419521
0.06278122216463089 0.10485274344682693 0.075985729694366455
0.071634598076343536 0.10484593361616135 0.075686469674110413
0.089977845549583435 0.10612939298152924 0.076366141438484192
0.11932066082954407 0.10626162588596344 0.074307881295681
0.15980967879295349 0.10601881146430969 0.068524695932865143
0.21060879528522491 0.10794924199581146 0.05937856063246727
0.26938045024871826 0.11246483027935028 0.047659825533628464
0.33330255746841431 0.1174284964799881 0.033100306987762451
0.40124952793121338 0.12423575669527054 0.015729298815131187
0.47417455911636353 0.13545471429824829 0.0021706076804548502
0.55689972639083862 0.15747329592704773 0
0.66454023122787476 0.20325936377048492 0.00012398514081723988
0.81480938196182251 0.28604406118392944 0.0074996198527514935
0.091747000813484192 0.15497353672981262 0.087811142206192017
0.10085663199424744 0.15522636473178864 0.087581053376197815
0.11884263157844543 0.15620116889476776 0.087995685636997223
0.14641384780406952 0.15644840896129608 0.085848547518253326
0.18444661796092987 0.15650889277458191 0.080062836408615112
0.23191046714782715 0.15867467224597931 0.072049953043460846
0.28737238049507141 0.16262412071228027 0.062800943851470947
0.34830963611602783 0.16729626059532166 0.049999851733446121
0.41335079073905945 0.17323580384254456 0.032255958765745163
0.48320683836936951 0.18204617500305176 0.01250356063246727
