assets/lut/berat westernlut2.cube
# Created by: G'MIC (https://gmic.eu)
TITLE "westernlut2"
# LUT size
LUT_3D_SIZE 5
# Data domain
DOMAIN_MIN 0.0 0.0 0.0
DOMAIN_MAX 1.0 1.0 1.0
# LUT data points
0.0059965844266116619 0.008406306616961956 0.0078116022050380707
0.081771388649940491 0.0040450901724398136 0.0062245535664260387
0.17942076921463013 0.00077963434159755707 0
0.26535448431968689 0.0016362956957891583 0.00020608340855687857
0.34480732679367065 0.0021493202075362206 8.6346793978009373e-05
0.0022657506633549929 0.068698495626449585 0.0013033997965976596
0.074437037110328674 0.072719588875770569 0.0058231130242347717
0.22401426732540131 0.089016631245613098 0.0045297658070921898
0.42789876461029053 0.10633347183465958 0.0060887206345796585
0.64509838819503784 0.13699644804000854 0.011889289133250713
0.0023360906634479761 0.282184898853302 0.0016018586466088891
0.12674875557422638 0.32718601822853088 0.0076621710322797298
0.38051286339759827 0.3495541512966156 0.0051176482811570168
0.62427830696105957 0.37217235565185547 0.0083423387259244919
0.78136509656906128 0.40912190079689026 0.020430052652955055
0.032007597386837006 0.59516745805740356 0.018926613032817841
0.21744278073310852 0.61936545372009277 0.032229106873273849
0.46837872266769409 0.62896072864532471 0.036248359829187393
0.68565112352371216 0.63602346181869507 0.034501604735851288
0.83324605226516724 0.65453958511352539 0.052084334194660187
0.10938595235347748 0.78967171907424927 0.067158639430999756
0.30073657631874084 0.79907941818237305 0.075671300292015076
0.54111433029174805 0.81789571046829224 0.083309710025787354
0.73503905534744263 0.81972032785415649 0.073287099599838257
0.87284129858016968 0.82105123996734619 0.084202349185943604
0.005905570462346077 0.0097079705446958542 0.084453105926513672
0.076972000300884247 0.0059611001051962376 0.075137555599212646
0.1768578439950943 0.00033318015630356967 0.062178876250982285
0.26909208297729492 0.0030334324110299349 0.061815224587917328
0.36021855473518372 0.001054038293659687 0.076287440955638885
0.0032966614235192537 0.069344691932201385 0.070871315896511078
0.082112930715084076 0.082774803042411804 0.080081060528755188
0.25194725394248962 0.098879285156726837 0.092098802328109741
0.46653082966804504 0.11787332594394684 0.10316611081361771
0.66885769367218018 0.14645673334598541 0.12501983344554901
0.0044522304087877274 0.30425062775611877 0.087546885013580322
0.14222955703735352 0.34498918056488037 0.1234256848692894
0.39971134066581726 0.36438551545143127 0.12849359214305878
0.63343334197998047 0.38668251037597656 0.13485465943813324
0.78921610116958618 0.4193456768989563 0.15832783281803131
0.042964741587638855 0.60864394903182983 0.14867296814918518
0.22268691658973694 0.63111734390258789 0.17343884706497192
0.47670316696166992 0.63889521360397339 0.17963410913944244
0.69381129741668701 0.64338225126266479 0.18137536942958832
0.84049385786056519 0.65864425897598267 0.20544715225696564
0.11133841425180435 0.7957007884979248 0.23308949172496796
0.30559214949607849 0.8133009672164917 0.23735988140106201
0.53951019048690796 0.81845152378082275 0.23334905505180359
0.74382990598678589 0.8172684907913208 0.22295469045639038
0.88624769449234009 0.8282349705696106 0.24507297575473785
0.0066187093034386635 0.0016182992840185761 0.18720664083957672
0.072123616933822632 0.0013721989234909415 0.1798681765794754
0.17193315923213959 0.00038164923898875713 0.17713329195976257
0.2681213915348053 0.00094610475935041904 0.17619611322879791
0.3821486234664917 0.00085742428200319409 0.20525757968425751
0.0061198216862976551 0.068148277699947357 0.18123398721218109
0.091894738376140594 0.094515226781368256 0.21473111212253571
0.27208903431892395 0.10610644519329071 0.24388681352138519
0.50218266248703003 0.123102106153965 0.28668504953384399
0.71555668115615845 0.15419204533100128 0.34018492698669434
0.011399677023291588 0.31859466433525085 0.29075402021408081
0.16416291892528534 0.35502475500106812 0.32734045386314392
0.40966182947158813 0.36957833170890808 0.33686965703964233
0.64717167615890503 0.39209911227226257 0.3592028021812439
0.79568731784820557 0.42748361825942993 0.39386355876922607
0.055769827216863632 0.62031096220016479 0.3799094557762146
0.23602768778800964 0.63528883457183838 0.39681577682495117
0.47861403226852417 0.63558363914489746 0.39525860548019409
0.69453805685043335 0.64378488063812256 0.40340185165405273
0.84085369110107422 0.65963464975357056 0.4247506856918335
0.12470047920942307 0.80410289764404297 0.4607776403427124
0.30529102683067322 0.81172668933868408 0.45890137553215027
0.53130888938903809 0.81440651416778564 0.44507423043251038
0.73670852184295654 0.81979769468307495 0.43986496329307556
0.88700407743453979 0.8309323787689209 0.45374146103858948
0.0049018412828445435 0.00025275736697949469 0.28190618753433228
0.067573338747024536 0.0011860865633934736 0.27492794394493103
0.16897009313106537 0.00073354382766410708 0.26313731074333191
0.28411003947257996 0.00091168272774666548 0.28143686056137085
0.4140264093875885 0.0012850742787122726 0.32712835073471069
0.002462110249325633 0.077260680496692657 0.28956428170204163
0.096818052232265472 0.099321030080318451 0.34980535507202148
0.29176127910614014 0.11104073375463486 0.3999168872833252
0.53378111124038696 0.12911891937255859 0.47094982862472534
0.73043173551559448 0.16058941185474396 0.53062552213668823
0.010198570787906647 0.33080980181694031 0.47873684763908386
0.16763986647129059 0.36576652526855469 0.52338677644729614
0.42239263653755188 0.38003510236740112 0.54449570178985596
0.64873933792114258 0.40179634094238281 0.56306242942810059
0.80201297998428345 0.43451637029647827 0.59242236614227295
0.054934527724981308 0.62760788202285767 0.58398830890655518
0.24313756823539734 0.64674669504165649 0.60275965929031372
0.48585912585258484 0.64349454641342163 0.60014790296554565
0.70065122842788696 0.65055513381958008 0.61213004589080811
0.84707760810852051 0.66552531719207764 0.62703520059585571
0.1260405033826828 0.81010836362838745 0.65792620182037354
0.3089396059513092 0.82056611776351929 0.66502457857131958
0.5329785943031311 0.82061320543289185 0.64928001165390015
0.73702234029769897 0.82504045963287354 0.64583110809326172
0.88851183652877808 0.83419102430343628 0.65483665466308594
0.0052062538452446461 0.0015134025597944856 0.33660382032394409
0.069551475346088409 0.00097231398103758693 0.3329002857208252
0.17393159866333008 0.0007492962758988142 0.32641679048538208
0.29673528671264648 0.00073529413202777505 0.35531088709831238
0.46194985508918762 0.00260011269710958 0.43626472353935242
0.0064671533182263374 0.082336738705635071 0.37079671025276184
0.10551618784666061 0.10927549004554749 0.45049521327018738
0.31962448358535767 0.12169551104307175 0.5245593786239624
0.56278437376022339 0.14129255712032318 0.60686206817626953
0.73626399040222168 0.17206273972988129 0.65552157163619995
0.012730617076158524 0.34799861907958984 0.62318134307861328
0.17690683901309967 0.38064652681350708 0.67151403427124023
0.44023799896240234 0.39434042572975159 0.69970166683197021
0.66943466663360596 0.41761654615402222 0.70840078592300415
0.81414389610290527 0.44299358129501343 0.72743290662765503
0.059983916580677032 0.62957775592803955 0.71348458528518677
0.25296422839164734 0.65050315856933594 0.73624086380004883
0.49674585461616516 0.65070134401321411 0.74811971187591553
0.70832091569900513 0.65970724821090698 0.74939078092575073
0.85867613554000854 0.6769406795501709 0.76440000534057617
0.13242918252944946 0.8145255446434021 0.77092951536178589
0.3146480917930603 0.82940059900283813 0.787822425365448
0.54372906684875488 0.8323436975479126 0.7910923957824707
0.74253302812576294 0.83126568794250488 0.79205822944641113
0.89332228899002075 0.84063422679901123 0.80170172452926636
