assets/lut/creative futuristicbleak 02.cube
# Created by: G'MIC (https://gmic.eu)
TITLE "futuristicbleak_2"
# LUT size
LUT_3D_SIZE 13
# Data domain
DOMAIN_MIN 0.0 0.0 0.0
DOMAIN_MAX 1.0 1.0 1.0
# LUT data points
0.010012084618210793 0.086609348654747009 0.10988284647464752
0.023063555359840393 0.089930333197116852 0.11463730782270432
0.058715507388114929 0.10351327806711197 0.13029859960079193
0.11317051947116852 0.12424838542938232 0.14893637597560883
0.16771715879440308 0.14431387186050415 0.15630654990673065
0.2158467024564743 0.16972075402736664 0.17101792991161346
0.26263278722763062 0.19438141584396362 0.18122746050357819
0.3203282356262207 0.22440712153911591 0.19194471836090088
0.37864580750465393 0.25544348359107971 0.19898712635040283
0.44548618793487549 0.2880728542804718 0.20488123595714569
0.52855771780014038 0.32165718078613281 0.20330633223056793
0.61697399616241455 0.35384523868560791 0.20005965232849121
0.70238000154495239 0.38484233617782593 0.20263898372650146
0.019700756296515465 0.11631176620721817 0.12401106953620911
0.037550263106822968 0.12181592732667923 0.12609894573688507
0.080813989043235779 0.13270480930805206 0.1319025456905365
0.1369706392288208 0.15013629198074341 0.14108927547931671
0.18256193399429321 0.16758766770362854 0.14949384331703186
0.22672939300537109 0.19135333597660065 0.16212466359138489
0.27281674742698669 0.2195485383272171 0.17547942698001862
0.32711595296859741 0.24766165018081665 0.1861710250377655
0.38954880833625793 0.27690669894218445 0.19131477177143097
0.45615029335021973 0.30733808875083923 0.19836434721946716
0.53673529624938965 0.336843341588974 0.20179268717765808
0.62117010354995728 0.36427533626556396 0.20252926647663116
0.70298361778259277 0.39654707908630371 0.2074945867061615
0.028123714029788971 0.1701456606388092 0.16069813072681427
0.054381247609853745 0.17646445333957672 0.15964034199714661
0.098828382790088654 0.18553005158901215 0.15812014043331146
0.15289737284183502 0.20111881196498871 0.15954233705997467
0.19865283370018005 0.21056830883026123 0.15259213745594025
0.24563691020011902 0.23139579594135284 0.15609949827194214
0.29473116993904114 0.2590198814868927 0.16729392111301422
0.34922796487808228 0.28190356492996216 0.17588783800601959
0.41405388712882996 0.3101230263710022 0.18485710024833679
0.479501873254776 0.3383793830871582 0.19467045366764069
0.55485379695892334 0.36517244577407837 0.20470556616783142
0.62908852100372314 0.39580333232879639 0.21595202386379242
0.70803868770599365 0.42662486433982849 0.22831675410270691
0.073661834001541138 0.23795498907566071 0.20128746330738068
0.092949777841567993 0.24057982861995697 0.19843241572380066
0.12598483264446259 0.24725107848644257 0.19792327284812927
0.1788007915019989 0.26112821698188782 0.19943250715732574
0.2241998165845871 0.27362191677093506 0.19916912913322449
0.27272367477416992 0.28899303078651428 0.19554464519023895
0.32524067163467407 0.30854755640029907 0.19300352036952972
0.38162469863891602 0.32825958728790283 0.19173276424407959
0.44608962535858154 0.35310646891593933 0.19149310886859894
0.50889205932617188 0.38128834962844849 0.20005649328231812
0.57665050029754639 0.40801870822906494 0.21404300630092621
0.64315086603164673 0.43875771760940552 0.23347264528274536
0.72399425506591797 0.46907511353492737 0.25276926159858704
0.12593366205692291 0.30323362350463867 0.24955745041370392
0.1484803706407547 0.30620273947715759 0.24379315972328186
0.17617174983024597 0.31010037660598755 0.23610681295394897
0.21856328845024109 0.32082495093345642 0.23738650977611542
0.2633092999458313 0.33579185605049133 0.24197325110435486
0.30959555506706238 0.34826916456222534 0.24392785131931305
0.360728919506073 0.36283615231513977 0.24117021262645721
0.41965422034263611 0.38227006793022156 0.23473566770553589
0.48477756977081299 0.4075809121131897 0.22973138093948364
0.54567670822143555 0.43128961324691772 0.2284030020236969
0.60642737150192261 0.4549044668674469 0.23417308926582336
0.6738019585609436 0.48111680150032043 0.24539539217948914
0.74834948778152466 0.50997710227966309 0.26506951451301575
0.20132476091384888 0.37126165628433228 0.2991732656955719
0.22211802005767822 0.37493586540222168 0.29175999760627747
0.24412205815315247 0.37762457132339478 0.27909630537033081
0.28064221143722534 0.3870159387588501 0.2726045548915863
0.32558313012123108 0.40085455775260925 0.2781214714050293
0.36735302209854126 0.41302400827407837 0.28408369421958923
0.41220122575759888 0.42599600553512573 0.2877180278301239
0.4670252799987793 0.44448506832122803 0.28951862454414368
0.53198367357254028 0.46451863646507263 0.28213199973106384
0.59340929985046387 0.48375692963600159 0.27305567264556885
0.65082252025604248 0.50281757116317749 0.2685733437538147
0.72074383497238159 0.52759748697280884 0.26969185471534729
0.78510928153991699 0.54983913898468018 0.27491533756256104
0.29077771306037903 0.44350001215934753 0.34463098645210266
0.30432140827178955 0.44469663500785828 0.33524513244628906
0.32780936360359192 0.44957131147384644 0.32466226816177368
0.36712491512298584 0.46107620000839233 0.31644442677497864
0.4071926474571228 0.47206059098243713 0.31959766149520874
0.4456058144569397 0.4813913106918335 0.32569980621337891
0.48248252272605896 0.4900396466255188 0.33165726065635681
0.52734148502349854 0.50603771209716797 0.33814927935600281
0.58492249250411987 0.52424639463424683 0.335600346326828
0.64640408754348755 0.53962236642837524 0.32743912935256958
0.69983506202697754 0.55543071031570435 0.31825157999992371
0.76030665636062622 0.57666188478469849 0.31544119119644165
0.81720614433288574 0.59571927785873413 0.31426253914833069
0.40275293588638306 0.52115964889526367 0.37301796674728394
0.40714427828788757 0.52018958330154419 0.36512744426727295
0.42623841762542725 0.52475064992904663 0.36116394400596619
0.46026861667633057 0.53514915704727173 0.35673433542251587
0.49441671371459961 0.54226678609848022 0.35977032780647278
0.52922499179840088 0.55062127113342285 0.36548277735710144
0.56539124250411987 0.5598984956741333 0.37081435322761536
0.60759741067886353 0.5730094313621521 0.37929555773735046
0.65572470426559448 0.5872037410736084 0.38552582263946533
0.70341235399246216 0.59994387626647949 0.3877561092376709
0.74868267774581909 0.61256307363510132 0.38102895021438599
0.80146324634552002 0.63078153133392334 0.37334835529327393
0.85192519426345825 0.64559555053710938 0.36300605535507202
0.49964874982833862 0.59820115566253662 0.40601703524589539
0.50608164072036743 0.59582924842834473 0.40229138731956482
0.52684241533279419 0.59958738088607788 0.40018585324287415
0.55195558071136475 0.60558086633682251 0.39859899878501892
0.58171290159225464 0.61072659492492676 0.39989319443702698
0.60981976985931396 0.61580008268356323 0.40205097198486328
0.63951897621154785 0.62346714735031128 0.40712514519691467
0.67412573099136353 0.63426059484481812 0.41506132483482361
0.71631819009780884 0.64603906869888306 0.4254097044467926
0.75577855110168457 0.65736246109008789 0.43341556191444397
0.79695522785186768 0.66665536165237427 0.43451908230781555
0.84184998273849487 0.67905181646347046 0.42684334516525269
0.88555997610092163 0.69227892160415649 0.41288277506828308
0.57200604677200317 0.66170275211334229 0.4531702995300293
0.58113282918930054 0.66474497318267822 0.45451235771179199
0.60279792547225952 0.66586810350418091 0.44891881942749023
0.62524223327636719 0.66810953617095947 0.4414207935333252
0.65229111909866333 0.67128026485443115 0.43883869051933289
0.68077003955841064 0.67656362056732178 0.43877825140953064
0.70592314004898071 0.68250745534896851 0.44303923845291138
0.7351001501083374 0.69021910429000854 0.4501003623008728
0.77185750007629395 0.69873106479644775 0.46120914816856384
0.80912309885025024 0.70670914649963379 0.4696401059627533
0.84213554859161377 0.71463936567306519 0.47227394580841064
0.87807661294937134 0.72549331188201904 0.47092333436012268
0.91874438524246216 0.73787492513656616 0.46248272061347961
0.65829825401306152 0.72485774755477905 0.48569485545158386
0.66241788864135742 0.72507989406585693 0.48517772555351257
0.67851459980010986 0.72959047555923462 0.48391541838645935
0.6991344690322876 0.73151606321334839 0.48010510206222534
0.7247193455696106 0.73355644941329956 0.47883260250091553
0.74752110242843628 0.73832607269287109 0.47742646932601929
0.771148681640625 0.74272280931472778 0.48015114665031433
0.79853153228759766 0.74702823162078857 0.48504218459129333
0.82633256912231445 0.74854081869125366 0.49219229817390442
0.85390627384185791 0.75497537851333618 0.49732372164726257
0.88325482606887817 0.76417315006256104 0.50224596261978149
0.91492033004760742 0.77157539129257202 0.50741052627563477
0.95173114538192749 0.77946233749389648 0.50619137287139893
0.73981243371963501 0.78923094272613525 0.51839417219161987
0.73884844779968262 0.78845328092575073 0.51722407341003418
0.75086033344268799 0.79044520854949951 0.51762843132019043
0.77006417512893677 0.79028117656707764 0.51587772369384766
0.78607797622680664 0.79172652959823608 0.51310592889785767
0.79888570308685303 0.79384994506835938 0.50925421714782715
0.82417643070220947 0.79610347747802734 0.51075148582458496
0.84897780418395996 0.79820340871810913 0.51249569654464722
0.8757203221321106 0.80246609449386597 0.5174630880355835
0.90238380432128906 0.80755865573883057 0.52294927835464478
0.92705947160720825 0.81189107894897461 0.5279848575592041
0.95822262763977051 0.814697265625 0.53347915410995483
0.98282146453857422 0.8226742148399353 0.54245215654373169
0.79661720991134644 0.84326374530792236 0.55164253711700439
0.80109459161758423 0.84304285049438477 0.55089634656906128
0.81042975187301636 0.84485101699829102 0.54912000894546509
0.82686543464660645 0.8441433310508728 0.54875439405441284
0.84149312973022461 0.84351998567581177 0.54669332504272461
0.85403341054916382 0.84394407272338867 0.54248464107513428
0.87576782703399658 0.84158337116241455 0.53923743963241577
0.90175545215606689 0.84345966577529907 0.53830671310424805
0.92371469736099243 0.8451765775680542 0.54043734073638916
0.94803255796432495 0.84935289621353149 0.54538905620574951
0.9646340012550354 0.85100531578063965 0.54907840490341187
0.98464107513427734 0.85665196180343628 0.55701059103012085
0.99582022428512573 0.86281049251556396 0.57066792249679565
0.0068538440391421318 0.094038389623165131 0.11530786007642746
0.014797165989875793 0.1007782444357872 0.12247691303491592
0.037284642457962036 0.11260215938091278 0.13592733442783356
0.079851336777210236 0.13518628478050232 0.15946261584758759
0.13329523801803589 0.15724566578865051 0.18229366838932037
0.18748289346694946 0.18045757710933685 0.20359522104263306
0.24068982899188995 0.20352922379970551 0.22210265696048737
0.30166542530059814 0.23064383864402771 0.23679952323436737
0.36662477254867554 0.26043874025344849 0.24079985916614532
0.43337976932525635 0.29117107391357422 0.25369033217430115
0.51214659214019775 0.327199786901474 0.25786551833152771
0.59944063425064087 0.36046102643013 0.2588687539100647
0.69237029552459717 0.3892609179019928 0.24863681197166443
0.01361242588609457 0.12158997356891632 0.13150119781494141
0.026954784989356995 0.12776060402393341 0.13723555207252502
0.061380393803119659 0.13864926993846893 0.14961592853069305
0.11146934330463409 0.15734010934829712 0.1690998375415802
0.15970253944396973 0.17655695974826813 0.18668392300605774
0.21073108911514282 0.19753441214561462 0.2038244903087616
0.2614319920539856 0.2222331315279007 0.22066481411457062
0.31798246502876282 0.2499067634344101 0.23073124885559082
0.37944605946540833 0.2777855396270752 0.23564770817756653
0.44861313700675964 0.30842339992523193 0.24499863386154175
0.52527862787246704 0.34069335460662842 0.25309523940086365
0.60976731777191162 0.36848625540733337 0.25232765078544617
0.69896554946899414 0.3968961238861084 0.24249362945556641
0.026161732152104378 0.17114226520061493 0.16718019545078278
0.050139140337705612 0.17647004127502441 0.16969837248325348
0.090314976871013641 0.18440240621566772 0.17448060214519501
0.14539346098899841 0.20081649720668793 0.18061377108097076
0.19125571846961975 0.21290141344070435 0.18738722801208496
0.2378631979227066 0.2338954359292984 0.19531771540641785
0.28485849499702454 0.2575528621673584 0.21266904473304749
0.33577916026115417 0.2840004563331604 0.22425888478755951
0.40112996101379395 0.31056889891624451 0.23005743324756622
0.47253262996673584 0.33941876888275146 0.23743173480033875
0.54797887802124023 0.36638504266738892 0.2440173327922821
0.63082277774810791 0.39581221342086792 0.24478460848331451
0.71408385038375854 0.42582586407661438 0.24761153757572174
0.071898534893989563 0.23846744000911713 0.21136981248855591
0.09355628490447998 0.24284574389457703 0.21139328181743622
0.12689021229743958 0.25003063678741455 0.21312497556209564
0.1747792512178421 0.26337066292762756 0.21533134579658508
0.22257307171821594 0.27478575706481934 0.21528244018554688
0.26953700184822083 0.28870272636413574 0.21109293401241302
0.32045897841453552 0.30965784192085266 0.21426393091678619
0.37307482957839966 0.33187216520309448 0.21952879428863525
0.43919026851654053 0.35583356022834778 0.22581784427165985
0.50675636529922485 0.38261178135871887 0.235020712018013
0.57678341865539551 0.40977242588996887 0.24409033358097076
0.65085673332214355 0.43904155492782593 0.25389719009399414
0.73122984170913696 0.46679741144180298 0.26576974987983704
0.12677860260009766 0.30417570471763611 0.25959333777427673
0.13805119693279266 0.30548277497291565 0.25732719898223877
0.17222574353218079 0.31247043609619141 0.25223824381828308
0.21017998456954956 0.32199060916900635 0.25181281566619873
0.25484773516654968 0.33572319149971008 0.2531435489654541
0.30075785517692566 0.34806165099143982 0.25301611423492432
0.35642567276954651 0.3640800416469574 0.25261369347572327
0.4165128767490387 0.38249045610427856 0.24627436697483063
0.48502412438392639 0.40838652849197388 0.24489937722682953
0.54900527000427246 0.43131762742996216 0.24908167123794556
0.61007964611053467 0.45621821284294128 0.25724750757217407
0.67658770084381104 0.48399969935417175 0.26892244815826416
0.75263696908950806 0.5119553804397583 0.28519472479820251
0.19980731606483459 0.3729434609413147 0.3125016987323761
0.21304404735565186 0.37503337860107422 0.3077818751335144
0.2398088127374649 0.37909761071205139 0.29541870951652527
0.27554810047149658 0.38813763856887817 0.28971269726753235
0.31974834203720093 0.40025210380554199 0.28888460993766785
0.36221742630004883 0.41248014569282532 0.29457187652587891
0.40715193748474121 0.42598333954811096 0.29672122001647949
0.46242716908454895 0.44185814261436462 0.29384130239486694
0.53039568662643433 0.46484267711639404 0.29047206044197083
0.59241360425949097 0.48655980825424194 0.2868914008140564
0.65257292985916138 0.50698602199554443 0.28593206405639648
0.72072517871856689 0.53038090467453003 0.28646281361579895
0.78408187627792358 0.55357712507247925 0.29714086651802063
0.28728556632995605 0.44531214237213135 0.36235648393630981
0.29646065831184387 0.44541481137275696 0.35664534568786621
0.32498112320899963 0.45056977868080139 0.34366044402122498
0.35671904683113098 0.458414226770401 0.32984381914138794
0.39670225977897644 0.46902790665626526 0.32746797800064087
0.43744027614593506 0.47924691438674927 0.3338257372379303
0.47276142239570618 0.48481374979019165 0.33680793642997742
0.52182674407958984 0.50362682342529297 0.34180670976638794
0.58146554231643677 0.52425819635391235 0.34325355291366577
0.64337348937988281 0.54268950223922729 0.3404727578163147
0.70286375284194946 0.55993103981018066 0.333565354347229
0.76247203350067139 0.57805800437927246 0.32477438449859619
0.81713366508483887 0.59647828340530396 0.32152816653251648
0.39695605635643005 0.52076679468154907 0.38978910446166992
0.40132549405097961 0.52027809619903564 0.38472583889961243
0.42218294739723206 0.5238528847694397 0.37584462761878967
0.44944846630096436 0.53084605932235718 0.36623886227607727
0.4823099672794342 0.53960996866226196 0.36587494611740112
0.52127927541732788 0.55121642351150513 0.37380987405776978
0.557669997215271 0.55628675222396851 0.37803199887275696
0.60358726978302002 0.57081836462020874 0.38526004552841187
0.65202426910400391 0.58562350273132324 0.39126947522163391
0.70191651582717896 0.60094612836837769 0.39413464069366455
0.7513052225112915 0.61450570821762085 0.39032551646232605
0.80303806066513062 0.63007724285125732 0.37991774082183838
0.8499951958656311 0.64440536499023438 0.36857903003692627
0.49405178427696228 0.59738874435424805 0.4183313250541687
0.50217151641845703 0.59699445962905884 0.41296577453613281
0.52146238088607788 0.5997198224067688 0.40782245993614197
0.54674392938613892 0.60585159063339233 0.40689325332641602
0.57584577798843384 0.611797034740448 0.40784567594528198
0.60690367221832275 0.61682802438735962 0.40979656577110291
0.63788414001464844 0.62256413698196411 0.41417089104652405
0.67595463991165161 0.63336503505706787 0.42274925112724304
0.7152785062789917 0.64577692747116089 0.43196481466293335
0.7523425817489624 0.6576647162437439 0.43803116679191589
0.79374033212661743 0.6669120192527771 0.43997395038604736
0.84043037891387939 0.67860263586044312 0.43202707171440125
0.88568699359893799 0.69303178787231445 0.42084267735481262
0.56950670480728149 0.66372299194335938 0.46402528882026672
0.57669878005981445 0.66552478075027466 0.46234747767448425
0.59705269336700439 0.66576176881790161 0.4540303647518158
0.620136559009552 0.66800642013549805 0.45074924826622009
0.64884787797927856 0.67219835519790649 0.44941267371177673
0.68071132898330688 0.67706513404846191 0.44637629389762878
0.70606148242950439 0.68314677476882935 0.44960981607437134
0.73861849308013916 0.69367986917495728 0.45851030945777893
0.77296161651611328 0.70046603679656982 0.46722981333732605
0.80751228332519531 0.70707970857620239 0.47403618693351746
0.83961945772171021 0.7150304913520813 0.4772225022315979
0.87685805559158325 0.7263178825378418 0.47522762417793274
0.92314791679382324 0.74099719524383545 0.46745401620864868
0.64862185716629028 0.7278481125831604 0.49274700880050659
0.65376448631286621 0.72723627090454102 0.49233400821685791
0.66938227415084839 0.7302250862121582 0.48914352059364319
0.69831424951553345 0.73203897476196289 0.48615661263465881
0.72538739442825317 0.73372191190719604 0.48398256301879883
0.74799388647079468 0.73862874507904053 0.48250535130500793
0.77092474699020386 0.74320250749588013 0.48482325673103333
0.79781311750411987 0.74733036756515503 0.49073389172554016
0.82559138536453247 0.74981963634490967 0.49684369564056396
0.85371953248977661 0.75541967153549194 0.50190544128417969
0.88339316844940186 0.7641446590423584 0.50750547647476196
0.91610312461853027 0.77167612314224243 0.51207262277603149
0.95415139198303223 0.78059965372085571 0.51037168502807617
0.72796452045440674 0.79181361198425293 0.52648156881332397
0.73148918151855469 0.78982675075531006 0.52486300468444824
0.74555492401123047 0.79097545146942139 0.52333766222000122
0.76370048522949219 0.78962588310241699 0.51886773109436035
0.78159743547439575 0.78966230154037476 0.51572108268737793
0.79802626371383667 0.79255473613739014 0.51333737373352051
0.82180488109588623 0.79498279094696045 0.51473057270050049
0.8491891622543335 0.79794120788574219 0.51833701133728027
0.87485396862030029 0.8026508092880249 0.52333265542984009
0.90050768852233887 0.807076096534729 0.52728921175003052
0.92576688528060913 0.81171333789825439 0.53161203861236572
0.96014028787612915 0.81554579734802246 0.5391508936882019
0.98056244850158691 0.82311570644378662 0.54641038179397583
0.78822261095046997 0.84249633550643921 0.55610579252243042
0.79736727476119995 0.84393101930618286 0.55425137281417847
0.80867093801498413 0.84575259685516357 0.55377376079559326
0.82451575994491577 0.843028724193573 0.55098152160644531
0.84087902307510376 0.84174108505249023 0.54958128929138184
0.85616284608840942 0.84428399801254272 0.54797166585922241
0.87474900484085083 0.84212279319763184 0.5448838472366333
0.9018288254737854 0.84498631954193115 0.54456233978271484
0.92596334218978882 0.84768593311309814 0.54849129915237427
0.94548279047012329 0.8483806848526001 0.55018907785415649
0.96324849128723145 0.84986388683319092 0.5527459979057312
0.98331773281097412 0.85610759258270264 0.56172329187393188
0.99550187587738037 0.86477893590927124 0.57576459646224976
0.0026126187294721603 0.10111294686794281 0.12401224672794342
0.0082240235060453415 0.10854513198137283 0.13124994933605194
0.02432352676987648 0.12277515232563019 0.14680697023868561
0.058234766125679016 0.1467505544424057 0.17064656317234039
0.10355706512928009 0.17017519474029541 0.19184271991252899
0.15402847528457642 0.19605050981044769 0.21554039418697357
0.2054436206817627 0.22191597521305084 0.24246831238269806
0.26931905746459961 0.25057247281074524 0.27486076951026917
0.33511441946029663 0.27950009703636169 0.29573339223861694
0.40381824970245361 0.30723181366920471 0.30691921710968018
0.48142701387405396 0.34132713079452515 0.32071790099143982
0.56679642200469971 0.37480741739273071 0.33126446604728699
0.65880554914474487 0.40611490607261658 0.33530601859092712
0.0064253713935613632 0.12776020169258118 0.14155466854572296
0.018506458029150963 0.13693858683109283 0.14909498393535614
0.045696467161178589 0.14883469045162201 0.16178178787231445
0.080725021660327911 0.16975171864032745 0.18236516416072845
0.12824942171573639 0.1900370717048645 0.20294506847858429
0.17644332349300385 0.21347886323928833 0.22327156364917755
0.22756952047348022 0.23654638230800629 0.24801886081695557
0.28934890031814575 0.26215577125549316 0.27468076348304749
0.35252541303634644 0.29254487156867981 0.29430893063545227
0.42207127809524536 0.32112875580787659 0.30284938216209412
0.49998494982719421 0.35378000140190125 0.31736189126968384
0.58212494850158691 0.38384160399436951 0.32683214545249939
0.67258626222610474 0.41272929310798645 0.32428866624832153
0.030245477333664894 0.17539069056510925 0.17600201070308685
0.046881042420864105 0.18028606474399567 0.18045715987682343
0.080937676131725311 0.19303923845291138 0.19169554114341736
0.12394331395626068 0.20762349665164948 0.20427227020263672
0.16670627892017365 0.22290709614753723 0.21728822588920593
0.21625246107578278 0.24418579041957855 0.23429660499095917
0.26393383741378784 0.2625332772731781 0.25443845987319946
0.3195662796497345 0.28941944241523743 0.27872169017791748
0.38136014342308044 0.31858798861503601 0.28918826580047607
0.4527614414691925 0.34484890103340149 0.29663032293319702
0.52903276681900024 0.37525480985641479 0.31065699458122253
0.61182540655136108 0.4069887101650238 0.31364405155181885
0.70467501878738403 0.43293169140815735 0.30802685022354126
0.080673471093177795 0.23907284438610077 0.22189970314502716
0.097688145935535431 0.24536953866481781 0.22435265779495239
0.12737669050693512 0.25434467196464539 0.23016811907291412
0.16663910448551178 0.26543432474136353 0.2344672828912735
0.21390655636787415 0.27610352635383606 0.23656219244003296
0.260649174451828 0.29098784923553467 0.24235977232456207
0.30848094820976257 0.30940443277359009 0.25703233480453491
0.36225512623786926 0.33520263433456421 0.2745099663734436
0.42178124189376831 0.36325386166572571 0.28377446532249451
0.4910714328289032 0.38734620809555054 0.29272225499153137
0.56586438417434692 0.41197773814201355 0.2973361611366272
0.64580613374710083 0.44066029787063599 0.29612714052200317
0.73515623807907104 0.46480703353881836 0.30044317245483398
0.13102069497108459 0.30359867215156555 0.27116194367408752
0.14287073910236359 0.30741503834724426 0.27050402760505676
0.171213299036026 0.31466683745384216 0.27099135518074036
0.20549361407756805 0.32398396730422974 0.27256742119789124
0.25198552012443542 0.33880868554115295 0.27656704187393188
0.29725617170333862 0.35080567002296448 0.27251985669136047
0.35156345367431641 0.36604925990104675 0.27382957935333252
0.41082477569580078 0.38609936833381653 0.27418312430381775
0.47468268871307373 0.41335764527320862 0.2833918035030365
