assets/lut/creative futuristicbleak 01.cube
# Created by: G'MIC (https://gmic.eu)
TITLE "futuristicbleak_1"
# LUT size
LUT_3D_SIZE 13
# Data domain
DOMAIN_MIN 0.0 0.0 0.0
DOMAIN_MAX 1.0 1.0 1.0
# LUT data points
0.072319164872169495 0.082180172204971313 0.10647563636302948
0.10451947152614594 0.08908863365650177 0.11141423135995865
0.15422803163528442 0.1079886183142662 0.12719513475894928
0.21851329505443573 0.13518159091472626 0.14773324131965637
0.27567312121391296 0.16054466366767883 0.16097632050514221
0.33272269368171692 0.18481123447418213 0.17518909275531769
0.3877595067024231 0.20925936102867126 0.19102761149406433
0.44503819942474365 0.23458075523376465 0.20753604173660278
0.50092810392379761 0.2616998553276062 0.22412148118019104
0.55656832456588745 0.28767693042755127 0.24259327352046967
0.61415946483612061 0.31362244486808777 0.25697940587997437
0.67863541841506958 0.34169879555702209 0.27197003364562988
0.74161076545715332 0.36898452043533325 0.29102665185928345
0.10044564306735992 0.13182349503040314 0.12861268222332001
0.12967205047607422 0.13790388405323029 0.13221199810504913
0.1724219024181366 0.15086625516414642 0.13704352080821991
0.23578618466854095 0.17014813423156738 0.14740009605884552
0.29039481282234192 0.18778243660926819 0.16200840473175049
0.34288275241851807 0.20916977524757385 0.17716768383979797
0.39696100354194641 0.23236702382564545 0.19326674938201904
0.44974371790885925 0.25565895438194275 0.21021589636802673
0.50350672006607056 0.27910545468330383 0.22736723721027374
0.56064754724502563 0.30338996648788452 0.24391072988510132
0.61774879693984985 0.32689186930656433 0.26062878966331482
0.6806643009185791 0.35180953145027161 0.27624684572219849
0.74579602479934692 0.37961289286613464 0.2902781069278717
0.13480466604232788 0.19522595405578613 0.16581648588180542
0.15985782444477081 0.20216748118400574 0.16532449424266815
0.19729605317115784 0.2140367329120636 0.17102983593940735
0.24810025095939636 0.22881902754306793 0.17581963539123535
0.30271509289741516 0.23531371355056763 0.17570188641548157
0.35610434412956238 0.25080344080924988 0.18472775816917419
0.41088047623634338 0.26699733734130859 0.19515816867351532
0.46620461344718933 0.28700554370880127 0.21043784916400909
0.51959729194641113 0.30616921186447144 0.22723166644573212
0.57699209451675415 0.32953208684921265 0.24385879933834076
0.6321750283241272 0.35377147793769836 0.26242378354072571
0.69256722927093506 0.37800201773643494 0.28129768371582031
0.75292891263961792 0.40119245648384094 0.29882150888442993
0.18884214758872986 0.27064019441604614 0.2082756906747818
0.20099532604217529 0.27090027928352356 0.20442791283130646
0.22980073094367981 0.27887237071990967 0.2105584442615509
0.27057704329490662 0.29271042346954346 0.21787470579147339
0.31025421619415283 0.30097350478172302 0.22049291431903839
0.35971492528915405 0.30925926566123962 0.21810528635978699
0.41970542073249817 0.32032003998756409 0.21867367625236511
0.47902029752731323 0.33196505904197693 0.22185692191123962
0.54094767570495605 0.34843307733535767 0.23189286887645721
0.5998835563659668 0.36506855487823486 0.24536745250225067
0.65610802173614502 0.38648056983947754 0.26337963342666626
0.71540910005569458 0.40895074605941772 0.28303831815719604
0.77081644535064697 0.42900305986404419 0.30292150378227234
0.23487362265586853 0.33484837412834167 0.24716490507125854
0.24668896198272705 0.33551010489463806 0.24365696310997009
0.26890683174133301 0.33937922120094299 0.24393624067306519
0.30307617783546448 0.34911361336708069 0.25063550472259521
0.33679258823394775 0.36032050848007202 0.26024192571640015
0.37420350313186646 0.36698448657989502 0.2637079656124115
0.42548054456710815 0.37714612483978271 0.25847592949867249
0.48397281765937805 0.38775947690010071 0.25485354661941528
0.55165475606918335 0.4002285897731781 0.25737076997756958
0.61679708957672119 0.41051504015922546 0.25962921977043152
0.67725390195846558 0.42478829622268677 0.2685987651348114
0.73949241638183594 0.43946215510368347 0.28001895546913147
0.79900318384170532 0.45854043960571289 0.297249436378479
0.28325816988945007 0.39492720365524292 0.28418967127799988
0.29469358921051025 0.39746704697608948 0.2830539345741272
0.31055667996406555 0.39919432997703552 0.27943471074104309
0.34138950705528259 0.40748828649520874 0.28346115350723267
0.37499514222145081 0.41740921139717102 0.29257658123970032
0.40739926695823669 0.42352113127708435 0.29805406928062439
0.44450238347053528 0.43140485882759094 0.29900625348091125
0.4982038140296936 0.44324332475662231 0.29432958364486694
0.5608818531036377 0.45517948269844055 0.29200604557991028
0.62638169527053833 0.46531933546066284 0.29090145230293274
0.68726086616516113 0.47716352343559265 0.2960030734539032
0.75358563661575317 0.48757946491241455 0.29935237765312195
0.81665331125259399 0.49817389249801636 0.30341055989265442
0.33440476655960083 0.45596039295196533 0.32184359431266785
0.34719917178153992 0.45724856853485107 0.3187522292137146
0.36078277230262756 0.45986974239349365 0.31398266553878784
0.38393962383270264 0.46624761819839478 0.31559500098228455
0.41517651081085205 0.47352242469787598 0.32073849439620972
0.45074164867401123 0.48066291213035583 0.32707798480987549
0.48585626482963562 0.4879859983921051 0.3328360915184021
0.52771139144897461 0.49656820297241211 0.33655315637588501
0.57948774099349976 0.50923115015029907 0.33386033773422241
0.63669854402542114 0.52163267135620117 0.33404973149299622
0.69570809602737427 0.53206628561019897 0.33346515893936157
0.76193231344223022 0.54147028923034668 0.3339678943157196
0.82486867904663086 0.5456889271736145 0.33335044980049133
0.40382018685340881 0.52004867792129517 0.35448485612869263
0.4121285080909729 0.52051419019699097 0.35310530662536621
0.42382854223251343 0.52513861656188965 0.35084700584411621
0.44281879067420959 0.53060430288314819 0.35122022032737732
0.46739876270294189 0.53470492362976074 0.35478189587593079
0.49878916144371033 0.54077106714248657 0.3591763973236084
0.53373509645462036 0.54607516527175903 0.36303743720054626
0.57145130634307861 0.55415010452270508 0.36980441212654114
0.61346638202667236 0.56662780046463013 0.37772181630134583
0.65463751554489136 0.5779346227645874 0.37947666645050049
0.70693355798721313 0.58930987119674683 0.37856796383857727
0.76878881454467773 0.59874987602233887 0.37636277079582214
0.82899081707000732 0.6040986180305481 0.37467119097709656
0.46880143880844116 0.58300292491912842 0.38938802480697632
0.47487464547157288 0.58423423767089844 0.38991305232048035
0.48479154706001282 0.58930182456970215 0.38873058557510376
0.49986320734024048 0.5933341383934021 0.38837113976478577
0.52028113603591919 0.59669554233551025 0.39066088199615479
0.54619383811950684 0.60203009843826294 0.39399555325508118
0.57660824060440063 0.60676825046539307 0.39815309643745422
0.61002939939498901 0.61458432674407959 0.40473851561546326
0.64738154411315918 0.62131553888320923 0.41458958387374878
0.68412977457046509 0.63338345289230347 0.42188367247581482
0.72551578283309937 0.64449805021286011 0.42444831132888794
0.77975833415985107 0.65331739187240601 0.4227011501789093
0.83345133066177368 0.66214144229888916 0.4219571053981781
0.5240287184715271 0.64506083726882935 0.42960003018379211
0.52728903293609619 0.64550286531448364 0.43125706911087036
0.53596627712249756 0.64925551414489746 0.43072611093521118
0.54807490110397339 0.65236592292785645 0.42818161845207214
0.56757032871246338 0.65586650371551514 0.42910957336425781
0.59195113182067871 0.65952068567276001 0.42960146069526672
0.61887615919113159 0.6649472713470459 0.43222871422767639
0.64812380075454712 0.67206615209579468 0.4382455050945282
0.68316757678985596 0.67688536643981934 0.44762143492698669
0.71999961137771606 0.68541830778121948 0.45766890048980713
0.75320976972579956 0.69684362411499023 0.46517446637153625
0.79782259464263916 0.70841395854949951 0.46789506077766418
0.84179788827896118 0.71828025579452515 0.46737802028656006
0.58164846897125244 0.70424920320510864 0.47044432163238525
0.58307111263275146 0.70666193962097168 0.4724280834197998
0.5895887017250061 0.71177172660827637 0.4747772216796875
0.600788414478302 0.71460884809494019 0.47141891717910767
0.6180986762046814 0.71769678592681885 0.46930655837059021
0.64009976387023926 0.72052925825119019 0.46814176440238953
0.66350871324539185 0.72518670558929443 0.46941769123077393
0.69025945663452148 0.73127704858779907 0.47489151358604431
0.72047287225723267 0.73510140180587769 0.48205292224884033
0.75230056047439575 0.74166816473007202 0.49024629592895508
0.78728324174880981 0.75086337327957153 0.49882680177688599
0.82797378301620483 0.76285368204116821 0.50832414627075195
0.86209964752197266 0.77213591337203979 0.51363396644592285
0.63908648490905762 0.76829725503921509 0.51434469223022461
0.64113467931747437 0.77030402421951294 0.51436924934387207
0.64757066965103149 0.77666378021240234 0.51856809854507446
0.65777021646499634 0.7807159423828125 0.51745313405990601
0.67378973960876465 0.78415501117706299 0.51520311832427979
0.69119077920913696 0.78614753484725952 0.51349979639053345
0.71191984415054321 0.78969335556030273 0.51375609636306763
0.7368009090423584 0.79463779926300049 0.51778680086135864
0.76467448472976685 0.7997056245803833 0.52380800247192383
0.79183322191238403 0.80441111326217651 0.52921748161315918
0.82458215951919556 0.81113266944885254 0.53788536787033081
0.86503255367279053 0.82092505693435669 0.54950684309005737
0.90485775470733643 0.83040535449981689 0.56232106685638428
0.68787723779678345 0.83065813779830933 0.55746257305145264
0.69116497039794922 0.83070588111877441 0.55512672662734985
0.70003610849380493 0.83655804395675659 0.55796355009078979
0.70762258768081665 0.83924037218093872 0.5570831298828125
0.71928447484970093 0.84177112579345703 0.55568021535873413
0.73510199785232544 0.84371328353881836 0.55431985855102539
0.7542148232460022 0.84653043746948242 0.55371582508087158
0.77869927883148193 0.85110265016555786 0.55657720565795898
0.80601620674133301 0.8572317361831665 0.5624040961265564
0.83145987987518311 0.86082309484481812 0.56882733106613159
0.86258363723754883 0.86932778358459473 0.57821357250213623
0.90110129117965698 0.87937450408935547 0.58864206075668335
0.94303637742996216 0.89041262865066528 0.60525709390640259
0.070773899555206299 0.085066899657249451 0.12126529216766357
0.10108021646738052 0.097189553081989288 0.13218340277671814
0.14577509462833405 0.1178431510925293 0.14902761578559875
0.20093061029911041 0.14555245637893677 0.17134140431880951
0.25569367408752441 0.17081147432327271 0.19063472747802734
0.313834547996521 0.1962178647518158 0.20773053169250488
0.36930912733078003 0.21894800662994385 0.22427859902381897
0.42909204959869385 0.24340340495109558 0.24005056917667389
0.48863014578819275 0.26797965168952942 0.25668936967849731
0.54867970943450928 0.29093471169471741 0.27058950066566467
0.60954034328460693 0.31563559174537659 0.28378090262413025
0.674338698387146 0.34311312437057495 0.29784911870956421
0.73735302686691284 0.37045496702194214 0.31243014335632324
0.10272499173879623 0.13537926971912384 0.1478399932384491
0.12542234361171722 0.14274461567401886 0.15609990060329437
0.16536238789558411 0.1555684506893158 0.16739414632320404
0.22215533256530762 0.17572647333145142 0.18063437938690186
0.27511110901832581 0.1956828385591507 0.19854840636253357
0.32935336232185364 0.21612134575843811 0.21332930028438568
0.38212496042251587 0.23724132776260376 0.22670738399028778
0.43527954816818237 0.25893306732177734 0.24200655519962311
0.49378225207328796 0.28412020206451416 0.25968772172927856
0.55445188283920288 0.3054099977016449 0.27316385507583618
0.61312878131866455 0.3286680281162262 0.28664711117744446
0.67597299814224243 0.35193458199501038 0.30002093315124512
0.73959338665008545 0.37895086407661438 0.31361353397369385
0.14061613380908966 0.19949562847614288 0.18538668751716614
0.15772548317909241 0.20571251213550568 0.18731725215911865
0.19501437246799469 0.21666321158409119 0.19505536556243896
0.24652270972728729 0.22759756445884705 0.19935117661952972
0.29696750640869141 0.23902973532676697 0.20405867695808411
0.35012108087539673 0.25501003861427307 0.21762669086456299
0.4008655846118927 0.27115717530250549 0.23071281611919403
0.45259237289428711 0.29228293895721436 0.24715591967105865
0.5090453028678894 0.31205600500106812 0.26312202215194702
0.56699973344802856 0.33285090327262878 0.27666172385215759
0.62548136711120605 0.35716566443443298 0.29148072004318237
0.68868213891983032 0.37954610586166382 0.30630907416343689
0.74943166971206665 0.40106523036956787 0.31826663017272949
0.1885860413312912 0.27038475871086121 0.22764745354652405
0.20126701891422272 0.27482587099075317 0.22767548263072968
0.22653131186962128 0.28190600872039795 0.23136094212532043
0.26717343926429749 0.29294255375862122 0.23582741618156433
0.31044113636016846 0.30132505297660828 0.23702506721019745
0.36278712749481201 0.30974659323692322 0.23779916763305664
0.41936367750167847 0.32044032216072083 0.24046579003334045
0.4745444655418396 0.3360990583896637 0.24977990984916687
0.53163832426071167 0.35411322116851807 0.26553818583488464
0.58899140357971191 0.37034070491790771 0.28058579564094543
0.64608824253082275 0.39142456650733948 0.29458177089691162
0.70920616388320923 0.41299724578857422 0.3118845522403717
0.76604765653610229 0.4319385290145874 0.32558301091194153
0.23419162631034851 0.33599561452865601 0.26394227147102356
0.24533849954605103 0.33703351020812988 0.26495510339736938
0.26694449782371521 0.34137850999832153 0.2648581862449646
0.29673054814338684 0.34880897402763367 0.26735725998878479
0.33455866575241089 0.36052286624908447 0.27425006031990051
0.37205791473388672 0.36772981286048889 0.27678731083869934
0.42515984177589417 0.37801218032836914 0.27435034513473511
0.48835873603820801 0.38968971371650696 0.27305212616920471
0.55318892002105713 0.40068948268890381 0.27520659565925598
0.61416840553283691 0.4103495180606842 0.28273278474807739
0.6722792387008667 0.42757999897003174 0.29464918375015259
0.73158776760101318 0.44864901900291443 0.31071823835372925
0.78628963232040405 0.46648979187011719 0.32616710662841797
0.28199240565299988 0.39471930265426636 0.30050846934318542
0.29095399379730225 0.39583158493041992 0.30044907331466675
0.31145253777503967 0.40107971429824829 0.29771554470062256
0.34143689274787903 0.41001564264297485 0.29964354634284973
0.37426123023033142 0.41918143630027771 0.30646625161170959
0.4056093692779541 0.42586138844490051 0.31008690595626831
0.44414755702018738 0.43367302417755127 0.31058847904205322
0.49890652298927307 0.44450479745864868 0.3096524178981781
0.5626598596572876 0.45510467886924744 0.30655953288078308
0.62558937072753906 0.46536755561828613 0.30739530920982361
0.68777632713317871 0.47680029273033142 0.31271913647651672
0.75101637840270996 0.48921146988868713 0.31602120399475098
0.80913686752319336 0.50067007541656494 0.32376512885093689
0.33727777004241943 0.45647707581520081 0.33364963531494141
0.3423098623752594 0.45639032125473022 0.33264130353927612
0.36231249570846558 0.46219655871391296 0.33055898547172546
0.38559380173683167 0.46853047609329224 0.32946723699569702
0.41670048236846924 0.47668290138244629 0.33390191197395325
0.45205274224281311 0.48527616262435913 0.34120914340019226
0.48771685361862183 0.4916071891784668 0.34459444880485535
0.52719497680664062 0.4981895387172699 0.34596911072731018
0.57932072877883911 0.51040399074554443 0.3454279899597168
0.63856035470962524 0.5231592059135437 0.3469492495059967
0.69568276405334473 0.531535804271698 0.34505105018615723
0.759776771068573 0.5408250093460083 0.34490871429443359
0.82348650693893433 0.54676347970962524 0.34479865431785583
0.40261074900627136 0.52156275510787964 0.36433473229408264
0.40767869353294373 0.52140390872955322 0.36448153853416443
0.42371532320976257 0.52699977159500122 0.36262273788452148
0.43870699405670166 0.52904379367828369 0.36064913868904114
0.46403738856315613 0.53520619869232178 0.36405712366104126
0.49854418635368347 0.54476368427276611 0.37206539511680603
0.53401833772659302 0.54906654357910156 0.37582200765609741
0.57047784328460693 0.55482673645019531 0.38081037998199463
0.61169201135635376 0.56897813081741333 0.38819399476051331
0.65553075075149536 0.58063280582427979 0.39059221744537354
0.7067217230796814 0.58845806121826172 0.38735637068748474
0.76553452014923096 0.59810757637023926 0.38485404849052429
0.82705289125442505 0.60104459524154663 0.38315722346305847
0.46507278084754944 0.58536553382873535 0.39985525608062744
0.47042074799537659 0.58609884977340698 0.400127112865448
0.4816109836101532 0.58912330865859985 0.39997404813766479
0.49943804740905762 0.59226834774017334 0.39945510029792786
0.52052116394042969 0.59696513414382935 0.40009084343910217
0.54613250494003296 0.60303753614425659 0.40475326776504517
0.57717609405517578 0.60902100801467896 0.4102787971496582
0.6104118824005127 0.61613959074020386 0.41642031073570251
0.64835816621780396 0.62337219715118408 0.42407378554344177
0.68444919586181641 0.63444650173187256 0.43048429489135742
0.72458213567733765 0.64446169137954712 0.43174803256988525
0.77664482593536377 0.65245193243026733 0.42988172173500061
0.83285272121429443 0.65968990325927734 0.43214136362075806
0.52434223890304565 0.64789283275604248 0.44188255071640015
0.52544659376144409 0.64884835481643677 0.44156315922737122
0.53472024202346802 0.6501462459564209 0.4409632682800293
0.54935932159423828 0.65308994054794312 0.43912866711616516
0.56854283809661865 0.65585809946060181 0.43695744872093201
0.59260028600692749 0.66110920906066895 0.4381047785282135
0.62063342332839966 0.66706889867782593 0.44342425465583801
0.6499062180519104 0.67406409978866577 0.44986236095428467
0.68414121866226196 0.67935633659362793 0.45750075578689575
0.71926277875900269 0.68636196851730347 0.46522197127342224
0.75353467464447021 0.69783347845077515 0.47269824147224426
0.79667633771896362 0.70763081312179565 0.474100261926651
0.84675174951553345 0.71824353933334351 0.47577324509620667
0.58194136619567871 0.70870858430862427 0.48241046071052551
0.58121794462203979 0.71040856838226318 0.48182228207588196
0.58887475728988647 0.71174293756484985 0.4821968674659729
0.60281980037689209 0.7135205864906311 0.47965747117996216
0.6205565333366394 0.71654951572418213 0.47590240836143494
0.64024388790130615 0.7216610312461853 0.47384336590766907
0.66281557083129883 0.72468394041061401 0.47857183218002319
0.69055581092834473 0.73001515865325928 0.48639926314353943
0.72038400173187256 0.73663336038589478 0.49186286330223083
0.75242429971694946 0.74419975280761719 0.4988635778427124
0.7913089394569397 0.75301444530487061 0.51022720336914062
0.8275488018989563 0.76210200786590576 0.51519697904586792
0.86600399017333984 0.77184784412384033 0.51888126134872437
0.63612329959869385 0.77261579036712646 0.52450728416442871
0.63945502042770386 0.77500408887863159 0.52411919832229614
0.64858752489089966 0.77788126468658447 0.52509021759033203
0.66001814603805542 0.77939450740814209 0.52364814281463623
0.67490875720977783 0.78257113695144653 0.52153235673904419
0.69057369232177734 0.78563493490219116 0.52035003900527954
0.70892834663391113 0.789165198802948 0.52076154947280884
0.73625260591506958 0.79495728015899658 0.52663731575012207
0.76440668106079102 0.8004528284072876 0.5326305627822876
0.79253131151199341 0.806049644947052 0.53810346126556396
0.82619273662567139 0.81146395206451416 0.546286940574646
0.866191565990448 0.81882333755493164 0.5559157133102417
0.90248852968215942 0.82748931646347046 0.56515908241271973
0.68286657333374023 0.83224308490753174 0.56374615430831909
0.68984526395797729 0.83434569835662842 0.56216078996658325
0.70166826248168945 0.83819711208343506 0.56237643957138062
0.70959782600402832 0.83940619230270386 0.56196314096450806
0.72125428915023804 0.84170663356781006 0.56166273355484009
0.73637264966964722 0.84438031911849976 0.56299763917922974
0.75491571426391602 0.84767621755599976 0.56147181987762451
0.7779737114906311 0.85320401191711426 0.56343913078308105
0.80680125951766968 0.85880666971206665 0.57058638334274292
0.83292931318283081 0.86275190114974976 0.57613563537597656
0.86417293548583984 0.86935949325561523 0.5834958553314209
0.90276968479156494 0.87916779518127441 0.59387952089309692
0.94000327587127686 0.88899976015090942 0.60880333185195923
0.076226867735385895 0.090508870780467987 0.14425469934940338
0.1011253222823143 0.10374591499567032 0.15422181785106659
0.1427762359380722 0.12680017948150635 0.17207248508930206
0.18935465812683105 0.15668253600597382 0.19398568570613861
0.23521357774734497 0.18468421697616577 0.21510826051235199
0.28614237904548645 0.21190536022186279 0.23987556993961334
0.34143230319023132 0.23629815876483917 0.25912445783615112
0.39986515045166016 0.26232767105102539 0.27817866206169128
0.4592781662940979 0.28491166234016418 0.29615506529808044
0.52168124914169312 0.30617052316665649 0.31038591265678406
0.58418631553649902 0.33055728673934937 0.32560005784034729
0.653248131275177 0.35518831014633179 0.33824008703231812
0.71854895353317261 0.37859198451042175 0.34871017932891846
0.10665012151002884 0.13994491100311279 0.17196671664714813
0.12324190139770508 0.14822909235954285 0.17873246967792511
0.16100956499576569 0.16368183493614197 0.19290763139724731
0.20666483044624329 0.18755459785461426 0.21071673929691315
0.25323957204818726 0.2094646543264389 0.23040808737277985
0.30172175168991089 0.23259763419628143 0.24897474050521851
0.35653680562973022 0.25203317403793335 0.26275670528411865
0.41271030902862549 0.27362000942230225 0.28120636940002441
0.47164058685302734 0.29684501886367798 0.29824662208557129
0.53387010097503662 0.31673893332481384 0.31052601337432861
0.59572732448577881 0.34109359979629517 0.3257865309715271
0.66236352920532227 0.36225244402885437 0.33718559145927429
0.72626721858978271 0.38527929782867432 0.34766879677772522
0.14254970848560333 0.20220676064491272 0.20538580417633057
0.15778344869613647 0.20812836289405823 0.21082425117492676
0.18924351036548615 0.21805240213871002 0.22298687696456909
0.2347729504108429 0.23067943751811981 0.23416638374328613
0.28054431080818176 0.24674980342388153 0.24561262130737305
0.33045631647109985 0.26691243052482605 0.26195037364959717
0.37859717011451721 0.28091347217559814 0.2730349600315094
0.43423092365264893 0.29971763491630554 0.28957214951515198
0.49312344193458557 0.31934091448783875 0.30022773146629333
0.55281192064285278 0.33707049489021301 0.3125617504119873
0.61574035882949829 0.35933491587638855 0.32878017425537109
0.67820644378662109 0.3835618793964386 0.34156277775764465
0.74080067873001099 0.40206840634346008 0.35021314024925232
0.1888195127248764 0.27116525173187256 0.24967131018638611
0.20094071328639984 0.27516019344329834 0.25388452410697937
0.22432005405426025 0.28363654017448425 0.25954043865203857
0.26426032185554504 0.29176038503646851 0.26354965567588806
0.30835196375846863 0.30074378848075867 0.26437324285507202
0.3566226065158844 0.31188678741455078 0.27164265513420105
0.40869894623756409 0.32254600524902344 0.27978995442390442
0.46351468563079834 0.33938902616500854 0.29193383455276489
0.51992356777191162 0.35838726162910461 0.30765601992607117
0.57525336742401123 0.37477496266365051 0.32249093055725098
0.63447988033294678 0.3921668529510498 0.33363950252532959
0.69899773597717285 0.41431844234466553 0.34928667545318604
0.75895446538925171 0.43338331580162048 0.36098727583885193
0.23845364153385162 0.33694303035736084 0.28707599639892578
0.24813643097877502 0.33772605657577515 0.2902655303478241
0.26586872339248657 0.34129452705383301 0.29138264060020447
0.29730963706970215 0.35008120536804199 0.29525607824325562
0.3329131007194519 0.3598136305809021 0.29779627919197083
0.37199944257736206 0.36792024970054626 0.29747256636619568
0.42484006285667419 0.37741637229919434 0.29746213555335999
0.48670521378517151 0.3886292576789856 0.30062392354011536
0.54630893468856812 0.40257608890533447 0.3111724853515625
