assets/lut/creative tensiongreen 01.cube
# Created by: G'MIC (https://gmic.eu)
TITLE "tensiongreen_1"
# LUT size
LUT_3D_SIZE 13
# Data domain
DOMAIN_MIN 0.0 0.0 0.0
DOMAIN_MAX 1.0 1.0 1.0
# LUT data points
0.0055803935974836349 0.049866933375597 0.052505388855934143
0.042347956448793411 0.055826358497142792 0.049548204988241196
0.12402123957872391 0.065937474370002747 0.048345077782869339
0.21108445525169373 0.070182055234909058 0.039210658520460129
0.28621077537536621 0.071428023278713226 0.028414288535714149
0.35805407166481018 0.073085993528366089 0.022073438391089439
0.42696431279182434 0.073528289794921875 0.01691780798137188
0.50470268726348877 0.077498160302639008 0.012413832359015942
0.57705855369567871 0.091602057218551636 0.016598450019955635
0.65443402528762817 0.095034807920455933 0.016699053347110748
0.73407477140426636 0.089267298579216003 0.011564471758902073
0.81752455234527588 0.070126764476299286 0.017863957211375237
0.89764297008514404 0.046362094581127167 0.018512336537241936
0.01434058416634798 0.10475912690162659 0.060078401118516922
0.060169309377670288 0.10784836113452911 0.043330010026693344
0.14071589708328247 0.11408619582653046 0.025211453437805176
0.22023342549800873 0.11494339257478714 0.020622402429580688
0.29188048839569092 0.11614197492599487 0.016318541020154953
0.36110538244247437 0.11950945109128952 0.011158408597111702
0.42747396230697632 0.12857043743133545 0.014949633739888668
0.50209653377532959 0.13627651333808899 0.014020209200680256
0.58025491237640381 0.14148548245429993 0.011045164428651333
0.65468460321426392 0.14394427835941315 0.0098025156185030937
0.73003971576690674 0.13970206677913666 0.010232409462332726
0.81359195709228516 0.12769842147827148 0.0152676897123456
0.89632350206375122 0.11608695238828659 0.016516277566552162
0.033187702298164368 0.17034146189689636 0.06405600905418396
0.070334553718566895 0.17686966061592102 0.041560228914022446
0.1337655633687973 0.18628202378749847 0.026474388316273689
0.2086198478937149 0.1867603063583374 0.015461999922990799
0.28578394651412964 0.18376964330673218 0.0095872916281223297
0.35901769995689392 0.18328461050987244 0.004765619058161974
0.43576356768608093 0.19075115025043488 0.0063598332926630974
0.51378524303436279 0.19610901176929474 0.0041661281138658524
0.58919119834899902 0.20015272498130798 0.0053903916850686073
0.66091138124465942 0.20648181438446045 0.0058202408254146576
0.73039209842681885 0.21048782765865326 0.0056956270709633827
0.81222528219223022 0.20366479456424713 0.0088151069357991219
0.8966439962387085 0.19537501037120819 0.01232172641903162
0.056691486388444901 0.24572959542274475 0.066738083958625793
0.085905648767948151 0.2496960312128067 0.044195301830768585
0.13468357920646667 0.25792402029037476 0.030761269852519035
0.19588343799114227 0.26472300291061401 0.020945305004715919
0.26166072487831116 0.26671040058135986 0.013340983539819717
0.3391185998916626 0.26961338520050049 0.0054205800406634808
0.42239877581596375 0.27059221267700195 0.0023999682161957026
0.51271098852157593 0.26886093616485596 0.00052059395238757133
0.59447681903839111 0.26678818464279175 0.0013496548635885119
0.67378038167953491 0.2630094587802887 0.0025044758804142475
0.74812030792236328 0.26284494996070862 0.0020891076419502497
0.82759952545166016 0.26409620046615601 0.0033665227238088846
0.90840244293212891 0.26220139861106873 0.0035511690657585859
0.081312753260135651 0.31609892845153809 0.073767945170402527
0.11030212044715881 0.32164233922958374 0.056792732328176498
0.14387179911136627 0.32469430565834045 0.031985115259885788
0.20178911089897156 0.33405086398124695 0.021643694490194321
0.25926125049591064 0.33997887372970581 0.016750065609812737
0.32654431462287903 0.34635674953460693 0.015298536978662014
0.4020218551158905 0.35024121403694153 0.0099260220304131508
0.48987427353858948 0.35013943910598755 0.0038552526384592056
0.57830655574798584 0.34626764059066772 0.0014052746118977666
0.66810029745101929 0.33888125419616699 0.0019884894136339426
0.75587821006774902 0.32979366183280945 0.00037466309731826186
0.84749037027359009 0.32536661624908447 0.0017302419291809201
0.93414705991744995 0.31607109308242798 0.0010140362428501248
0.12134598195552826 0.38916924595832825 0.091713473200798035
0.14038577675819397 0.39119914174079895 0.078381843864917755
0.17057742178440094 0.394083172082901 0.04639759287238121
0.21735070645809174 0.4006531834602356 0.025346763432025909
0.27438613772392273 0.40814569592475891 0.021317485719919205
0.33114355802536011 0.4161624014377594 0.027475155889987946
0.39069962501525879 0.42050167918205261 0.025300731882452965
0.47417405247688293 0.42410147190093994 0.011176344938576221
0.55848079919815063 0.42705821990966797 0.0085569648072123528
0.65032917261123657 0.42196241021156311 0.0024268955457955599
0.74341857433319092 0.4145779013633728 0.00070705037796869874
0.84620380401611328 0.40279540419578552 0.00037683226400986314
0.93989676237106323 0.38868927955627441 3.8775277062086388e-05
0.1706654280424118 0.46113544702529907 0.11654015630483627
0.17676441371440887 0.45997107028961182 0.10291033238172531
0.20682775974273682 0.46353793144226074 0.072047308087348938
0.24288247525691986 0.46759968996047974 0.04462471604347229
0.2929750382900238 0.47470632195472717 0.039303425699472427
0.34958580136299133 0.4833558201789856 0.047539252787828445
0.403585284948349 0.48910290002822876 0.049600981175899506
0.4715026319026947 0.49501031637191772 0.044860150665044785
0.55371320247650146 0.4998106062412262 0.038951441645622253
0.64081615209579468 0.49952533841133118 0.020289253443479538
0.73033571243286133 0.49663776159286499 0.0082351686432957649
0.82987499237060547 0.48869097232818604 0.0054078046232461929
0.92507541179656982 0.47653797268867493 0.0029378104954957962
0.22544699907302856 0.53386193513870239 0.1636108011007309
0.23362183570861816 0.53477591276168823 0.14869295060634613
0.25558805465698242 0.53846460580825806 0.1213052049279213
0.28332525491714478 0.54352802038192749 0.090904071927070618
0.32390227913856506 0.54518383741378784 0.075936473906040192
0.37731629610061646 0.55212748050689697 0.080732814967632294
0.43372955918312073 0.56030619144439697 0.090225502848625183
0.49333459138870239 0.56998282670974731 0.096331082284450531
0.56160455942153931 0.57145923376083374 0.092376083135604858
0.63847923278808594 0.5770992636680603 0.087241530418395996
0.72468531131744385 0.5765228271484375 0.048495512455701828
0.81562501192092896 0.57514756917953491 0.033708281815052032
0.90703201293945312 0.56435889005661011 0.021803028881549835
0.28386780619621277 0.60670429468154907 0.2085883617401123
0.29379522800445557 0.60808748006820679 0.1952064037322998
0.30869939923286438 0.61262774467468262 0.17813731729984283
0.33517545461654663 0.61511325836181641 0.15273885428905487
0.37326139211654663 0.61987918615341187 0.13390913605690002
0.41902551054954529 0.62660437822341919 0.12912507355213165
0.47013521194458008 0.63302862644195557 0.13689154386520386
0.52369368076324463 0.6402813196182251 0.14382672309875488
0.58102875947952271 0.64323312044143677 0.14630340039730072
0.64901113510131836 0.64836490154266357 0.15068802237510681
0.72602665424346924 0.65117341279983521 0.1383824497461319
0.81071025133132935 0.65297436714172363 0.10659656673669815
0.89546024799346924 0.65118390321731567 0.081363946199417114
0.34186181426048279 0.67820960283279419 0.25319972634315491
0.35136556625366211 0.67788606882095337 0.24292659759521484
0.36368647217750549 0.68075639009475708 0.22970667481422424
0.38588148355484009 0.68450820446014404 0.21038976311683655
0.41942712664604187 0.68913894891738892 0.188020259141922
0.45715481042861938 0.69554996490478516 0.17073948681354523
0.50663822889328003 0.70250821113586426 0.17714408040046692
0.55894559621810913 0.70817035436630249 0.18658961355686188
0.61164814233779907 0.71100497245788574 0.18951939046382904
0.66997933387756348 0.71829146146774292 0.19911451637744904
0.73862940073013306 0.72301214933395386 0.20296724140644073
0.81594705581665039 0.7264862060546875 0.19497430324554443
0.89405494928359985 0.72474479675292969 0.17151987552642822
0.40080568194389343 0.74843770265579224 0.30321037769317627
0.40998804569244385 0.74976164102554321 0.29662260413169861
0.42029982805252075 0.75115925073623657 0.28250834345817566
0.43715962767601013 0.7560882568359375 0.26590234041213989
0.46549803018569946 0.76029890775680542 0.2437141090631485
0.50008833408355713 0.76583403348922729 0.22255173325538635
0.54288727045059204 0.77260845899581909 0.21923770010471344
0.59387171268463135 0.77614456415176392 0.22516418993473053
0.64935201406478882 0.77950859069824219 0.22844785451889038
0.70171952247619629 0.7870020866394043 0.24017618596553802
0.76065564155578613 0.79358780384063721 0.24992352724075317
0.83185750246047974 0.79433643817901611 0.25198176503181458
0.89958572387695312 0.794211745262146 0.24738375842571259
0.4653523862361908 0.82517176866531372 0.35991162061691284
0.47140201926231384 0.82629966735839844 0.35282522439956665
0.47887727618217468 0.82826739549636841 0.34073019027709961
0.49478599429130554 0.83308708667755127 0.32370644807815552
0.51995784044265747 0.83720672130584717 0.30462998151779175
0.54944491386413574 0.84083688259124756 0.28429350256919861
0.58536392450332642 0.84560716152191162 0.26637625694274902
0.63339149951934814 0.84952110052108765 0.26690548658370972
0.68590354919433594 0.85278964042663574 0.27036365866661072
0.73825109004974365 0.85849654674530029 0.27879652380943298
0.79316949844360352 0.86630755662918091 0.28887853026390076
0.8572157621383667 0.86838638782501221 0.2971307635307312
0.91527038812637329 0.86907565593719482 0.30749380588531494
0.52178359031677246 0.89441978931427002 0.41099950671195984
0.52523374557495117 0.89648956060409546 0.40561842918395996
0.53244519233703613 0.89769697189331055 0.39262107014656067
0.54641866683959961 0.90331041812896729 0.37548023462295532
0.56826615333557129 0.90542209148406982 0.35669782757759094
0.59342366456985474 0.90890669822692871 0.33731737732887268
0.62906986474990845 0.9113839864730835 0.31655421853065491
0.67278850078582764 0.91778290271759033 0.30696889758110046
0.72137326002120972 0.92075586318969727 0.30995556712150574
0.77107155323028564 0.92450964450836182 0.31554549932479858
0.82293456792831421 0.92940479516983032 0.32188901305198669
0.88175511360168457 0.93524646759033203 0.33015355467796326
0.93488669395446777 0.94068223237991333 0.34110242128372192
0.0039573372341692448 0.054736912250518799 0.079362921416759491
0.027354221791028976 0.067744232714176178 0.083000510931015015
0.089966654777526855 0.086996696889400482 0.091527409851551056
0.16102907061576843 0.10408297926187515 0.094279162585735321
0.23484018445014954 0.11465835571289062 0.091367922723293304
0.31269201636314392 0.12197753041982651 0.086870782077312469
0.38840487599372864 0.11952701956033707 0.079135403037071228
0.47325828671455383 0.11282742023468018 0.064675845205783844
0.55863326787948608 0.12431573122739792 0.067909836769104004
0.64189809560775757 0.11786403506994247 0.067307792603969574
0.72302192449569702 0.10211625695228577 0.06204184889793396
0.80750459432601929 0.079662635922431946 0.069481000304222107
0.88377797603607178 0.063689261674880981 0.068695396184921265
0.01524505577981472 0.10809481889009476 0.090842030942440033
0.047355771064758301 0.11346466839313507 0.090691402554512024
0.11281856149435043 0.12256405502557755 0.085677124559879303
0.18774749338626862 0.13131730258464813 0.081476427614688873
0.25784847140312195 0.13950031995773315 0.080084003508090973
0.33085587620735168 0.14476455748081207 0.0724458247423172
0.40457621216773987 0.14640152454376221 0.067329853773117065
0.48719596862792969 0.14820028841495514 0.061085257679224014
0.56523746252059937 0.1557362973690033 0.057327538728713989
0.64367133378982544 0.15719899535179138 0.054810497909784317
0.72655004262924194 0.14432621002197266 0.054511621594429016
0.80802011489868164 0.13448238372802734 0.062645554542541504
0.88642072677612305 0.12902747094631195 0.065118707716464996
0.037017013877630234 0.17082181572914124 0.104458287358284
0.061123434454202652 0.17448076605796814 0.094678990542888641
0.11951741576194763 0.18363790214061737 0.078235730528831482
0.19872297346591949 0.1879258006811142 0.061080619692802429
0.27154085040092468 0.19148711860179901 0.05432911217212677
0.34602192044258118 0.19325283169746399 0.046330604702234268
0.41909497976303101 0.20129619538784027 0.043939493596553802
0.49796897172927856 0.20740032196044922 0.037852808833122253
0.57238566875457764 0.21230293810367584 0.041363000869750977
0.64659357070922852 0.21990726888179779 0.045086640864610672
0.72621160745620728 0.21476322412490845 0.044872000813484192
0.80717778205871582 0.20881266891956329 0.051646556705236435
0.89332360029220581 0.20175476372241974 0.059386309236288071
0.065289139747619629 0.24417884647846222 0.11399494111537933
0.088408634066581726 0.24936506152153015 0.10097707062959671
0.12827381491661072 0.25690203905105591 0.082428216934204102
0.19233612716197968 0.26446348428726196 0.064277231693267822
0.26225191354751587 0.26937901973724365 0.046621374785900116
0.33866602182388306 0.27044469118118286 0.027621624991297722
0.41859576106071472 0.27292302250862122 0.022660423070192337
0.50426101684570312 0.27428257465362549 0.019620679318904877
0.58008790016174316 0.2791019082069397 0.026234017685055733
0.65572899580001831 0.28161129355430603 0.033150780946016312
0.73345190286636353 0.28040504455566406 0.029103387147188187
0.81198364496231079 0.28350967168807983 0.036634303629398346
0.89238995313644409 0.27935728430747986 0.048062358051538467
0.093854628503322601 0.31504878401756287 0.12545867264270782
0.11462743580341339 0.32227322459220886 0.11079736053943634
0.14191350340843201 0.32705077528953552 0.088102824985980988
0.19898106157779694 0.33521255850791931 0.067522458732128143
0.26000741124153137 0.34220689535140991 0.056691668927669525
0.32339781522750854 0.34662115573883057 0.045451954007148743
0.40116152167320251 0.35124531388282776 0.031052069738507271
0.48925900459289551 0.35191452503204346 0.01930033415555954
0.57784497737884521 0.34839063882827759 0.011571846902370453
0.65891247987747192 0.34654942154884338 0.016947144642472267
0.74735033512115479 0.33904346823692322 0.014942812733352184
0.8293578028678894 0.34341138601303101 0.02383911982178688
0.91431707143783569 0.3379860520362854 0.022604474797844887
0.1377357542514801 0.3884274959564209 0.13983643054962158
0.14567428827285767 0.39145094156265259 0.12742762267589569
0.17135535180568695 0.39590290188789368 0.10038987547159195
0.21433763206005096 0.40148985385894775 0.070516891777515411
0.27270209789276123 0.41028693318367004 0.066098593175411224
0.33030331134796143 0.41693228483200073 0.065821029245853424
0.39062932133674622 0.4234309196472168 0.060088708996772766
0.47084224224090576 0.42657068371772766 0.041908085346221924
0.56026428937911987 0.426993727684021 0.02231120690703392
0.65048784017562866 0.4229826033115387 0.011862736195325851
0.74352031946182251 0.41529133915901184 0.010730414651334286
0.83774399757385254 0.40968328714370728 0.012606288306415081
0.93231898546218872 0.39670702815055847 0.0043201074004173279
0.17663770914077759 0.45861896872520447 0.1570533961057663
0.18102405965328217 0.45951956510543823 0.14661966264247894
0.20443417131900787 0.4635864794254303 0.12420853227376938
0.24087634682655334 0.46857064962387085 0.094875380396842957
0.29018592834472656 0.47549110651016235 0.083502210676670074
0.34690707921981812 0.48357143998146057 0.086187012493610382
0.39896073937416077 0.4883715808391571 0.086712181568145752
0.47000151872634888 0.49596753716468811 0.083294853568077087
0.55502843856811523 0.50075578689575195 0.066133894026279449
0.6409185528755188 0.50080341100692749 0.044283084571361542
0.73103076219558716 0.4970518946647644 0.023239703848958015
0.8273390531539917 0.49190810322761536 0.017075048759579659
0.92267328500747681 0.4808925986289978 0.011483884416520596
0.22247634828090668 0.52933239936828613 0.18849323689937592
0.2332676500082016 0.53144484758377075 0.17926980555057526
0.25776958465576172 0.53777587413787842 0.16537648439407349
0.2850700318813324 0.54060393571853638 0.13712894916534424
0.3215327262878418 0.54724752902984619 0.11762985587120056
0.37335550785064697 0.55312818288803101 0.11743095517158508
0.42585659027099609 0.55892395973205566 0.12359160184860229
0.48910030722618103 0.57048052549362183 0.13083505630493164
0.55927145481109619 0.57569259405136108 0.12934179604053497
0.63698971271514893 0.57824373245239258 0.11569882929325104
0.72335988283157349 0.57563525438308716 0.079335063695907593
0.8132215142250061 0.57846194505691528 0.058917596936225891
0.90714567899703979 0.57083415985107422 0.036498334258794785
0.28450408577919006 0.60773128271102905 0.2352597564458847
0.29576525092124939 0.60793101787567139 0.22497235238552094
0.31321895122528076 0.61254286766052246 0.2132999449968338
0.33673760294914246 0.61579829454421997 0.18922978639602661
0.36604011058807373 0.62126237154006958 0.16627943515777588
0.41024911403656006 0.62549126148223877 0.15971904993057251
0.46125558018684387 0.63194721937179565 0.16452699899673462
0.51788944005966187 0.63877612352371216 0.16971808671951294
0.5813402533531189 0.64387238025665283 0.17323052883148193
0.64776104688644409 0.64893001317977905 0.17647965252399445
0.72420871257781982 0.65004557371139526 0.16252250969409943
0.80903059244155884 0.65154385566711426 0.13797537982463837
0.89506769180297852 0.6476014256477356 0.10989103466272354
0.34208238124847412 0.67698293924331665 0.28167107701301575
0.35229018330574036 0.67852234840393066 0.27273359894752502
0.36652752757072449 0.68172246217727661 0.26148048043251038
0.38630202412605286 0.68580561876296997 0.24193024635314941
0.41491338610649109 0.69058716297149658 0.21988329291343689
0.45388385653495789 0.69515800476074219 0.20145978033542633
0.50041687488555908 0.70134985446929932 0.19886849820613861
0.55478060245513916 0.70823144912719727 0.20719452202320099
0.61263686418533325 0.71399641036987305 0.2131829559803009
0.66984432935714722 0.71879428625106812 0.22115583717823029
0.73638039827346802 0.72203493118286133 0.2228851318359375
0.81116330623626709 0.72610187530517578 0.21710309386253357
0.89099013805389404 0.72550952434539795 0.19583605229854584
0.39948809146881104 0.7467951774597168 0.32961982488632202
0.40730944275856018 0.75018346309661865 0.32451030611991882
0.42038378119468689 0.75355803966522217 0.31323084235191345
0.4375661313533783 0.7570456862449646 0.29443424940109253
0.46268358826637268 0.76437896490097046 0.27650338411331177
0.50087434053421021 0.76723587512969971 0.25421884655952454
0.54043138027191162 0.77280491590499878 0.24322189390659332
0.58680731058120728 0.7778283953666687 0.24380159378051758
0.64319545030593872 0.77951055765151978 0.25103586912155151
0.69802415370941162 0.78738045692443848 0.26050242781639099
0.75774723291397095 0.79262793064117432 0.2659202516078949
0.82361435890197754 0.79744476079940796 0.27174460887908936
0.89317572116851807 0.7985539436340332 0.26787915825843811
0.4643825888633728 0.82394742965698242 0.38002586364746094
0.46955195069313049 0.82626116275787354 0.37630951404571533
0.47795411944389343 0.82864296436309814 0.36710360646247864
0.4950348436832428 0.83179914951324463 0.34859612584114075
0.51813441514968872 0.83858680725097656 0.33120658993721008
0.55025148391723633 0.84194666147232056 0.31243488192558289
0.58687639236450195 0.8459317684173584 0.29369071125984192
0.62940412759780884 0.85029661655426025 0.2842862606048584
0.68182623386383057 0.85291975736618042 0.29002583026885986
0.73418194055557251 0.85947740077972412 0.29777622222900391
0.7914310097694397 0.8656543493270874 0.30523717403411865
0.85282886028289795 0.86792290210723877 0.31173437833786011
0.91187244653701782 0.86662799119949341 0.3161981999874115
0.52388197183609009 0.89376091957092285 0.42522847652435303
0.52965819835662842 0.89639323949813843 0.42206066846847534
0.53500229120254517 0.89505493640899658 0.41171839833259583
0.54869097471237183 0.89962100982666016 0.39808371663093567
0.56905239820480347 0.90546494722366333 0.38018471002578735
0.59367603063583374 0.90826588869094849 0.36086922883987427
0.62835162878036499 0.91083967685699463 0.33563333749771118
0.67114090919494629 0.91610729694366455 0.3210119903087616
0.7201685905456543 0.92079144716262817 0.32625916600227356
0.76922303438186646 0.92623281478881836 0.33183163404464722
0.82103568315505981 0.93024510145187378 0.33874902129173279
0.88033860921859741 0.93446975946426392 0.34675332903862
0.93300420045852661 0.93885380029678345 0.35578277707099915
0.0042523401789367199 0.063551418483257294 0.10799504071474075
0.026605643332004547 0.076847568154335022 0.11109921336174011
0.079052284359931946 0.098279155790805817 0.11872740834951401
0.12705585360527039 0.12440113723278046 0.12772537767887115
0.17825707793235779 0.15103080868721008 0.1346423476934433
0.24014288187026978 0.16987231373786926 0.14055955410003662
0.31391292810440063 0.18225623667240143 0.1419416069984436
0.40571245551109314 0.18900264799594879 0.1393180787563324
0.49534216523170471 0.19932730495929718 0.14119409024715424
0.58695966005325317 0.19950370490550995 0.14111821353435516
0.66945993900299072 0.19126239418983459 0.140501469373703
0.76581406593322754 0.18037191033363342 0.14531002938747406
0.85689324140548706 0.15450932085514069 0.15202109515666962
0.018528986722230911 0.11164122819900513 0.11937026679515839
0.04477856308221817 0.12032153457403183 0.12223919481039047
0.090417943894863129 0.13400231301784515 0.12596689164638519
0.14248640835285187 0.15184669196605682 0.12936405837535858
0.1967027485370636 0.17021012306213379 0.13606105744838715
0.26197364926338196 0.18592607975006104 0.13881047070026398
0.33849099278450012 0.19527019560337067 0.13719326257705688
0.42829799652099609 0.20087637007236481 0.133199542760849
0.51654917001724243 0.20787042379379272 0.13335932791233063
0.60123974084854126 0.21214298903942108 0.13460122048854828
0.68249082565307617 0.20826494693756104 0.13596829771995544
0.77129685878753662 0.20556579530239105 0.14424408972263336
0.86708599328994751 0.17643503844738007 0.14927761256694794
0.046510376036167145 0.17579823732376099 0.13261967897415161
0.066789589822292328 0.17852719128131866 0.13394002616405487
0.10961848497390747 0.18901841342449188 0.13308057188987732
0.17273895442485809 0.19662664830684662 0.12750162184238434
0.23453442752361298 0.2077784538269043 0.12419269233942032
0.30130413174629211 0.2187349796295166 0.12693314254283905
0.37372830510139465 0.22721701860427856 0.12702076137065887
0.46263983845710754 0.23265141248703003 0.12254904955625534
0.54187417030334473 0.23720353841781616 0.12142781168222427
0.62568020820617676 0.23988893628120422 0.12186820805072784
0.70409983396530151 0.24236145615577698 0.12911798059940338
0.78780144453048706 0.23337467014789581 0.13190902769565582
0.8798711895942688 0.21748143434524536 0.14110963046550751
0.082424074411392212 0.2483990341424942 0.1476205438375473
0.099756471812725067 0.25103691220283508 0.14644043147563934
0.1299520879983902 0.25758266448974609 0.13843807578086853
0.1827637106180191 0.26679667830467224 0.12509717047214508
0.25339138507843018 0.27176803350448608 0.10851725935935974
0.32712069153785706 0.27668321132659912 0.099823907017707825
0.40112453699111938 0.28165930509567261 0.094022847712039948
0.48278149962425232 0.28558725118637085 0.093272686004638672
0.56268095970153809 0.29126673936843872 0.10654538869857788
0.64023834466934204 0.2937280535697937 0.11201255768537521
0.7189527153968811 0.29409202933311462 0.11073605716228485
0.80375152826309204 0.29342034459114075 0.12016384303569794
0.8883785605430603 0.28967881202697754 0.13736146688461304
0.11753000319004059 0.31784647703170776 0.16426117718219757
0.13171151280403137 0.32202941179275513 0.1587928980588913
0.14722228050231934 0.32573896646499634 0.14718888700008392
0.19437770545482635 0.33609673380851746 0.13077209889888763
