assets/lut/creative futuristicbleak 04.cube
# Created by: G'MIC (https://gmic.eu)
TITLE "futuristicbleak_4"
# LUT size
LUT_3D_SIZE 5
# Data domain
DOMAIN_MIN 0.0 0.0 0.0
DOMAIN_MAX 1.0 1.0 1.0
# LUT data points
0.1001313328742981 0.10173536092042923 0.10479617863893509
0.15521590411663055 0.1372079998254776 0.13931375741958618
0.2453954666852951 0.19706536829471588 0.19104327261447906
0.37091627717018127 0.28328213095664978 0.26688659191131592
0.51938354969024658 0.3796115517616272 0.35122749209403992
0.17424222826957703 0.19846640527248383 0.17953774333000183
0.21922594308853149 0.22513692080974579 0.20094409584999084
0.29087573289871216 0.26315373182296753 0.23049409687519073
0.41637131571769714 0.3333638608455658 0.29117479920387268
0.56123310327529907 0.4180566668510437 0.37069708108901978
0.30111402273178101 0.33575791120529175 0.2963569164276123
0.32843589782714844 0.35305303335189819 0.30580359697341919
0.39438113570213318 0.39318549633026123 0.34008496999740601
0.50591182708740234 0.45837479829788208 0.38518083095550537
0.65623652935028076 0.53250807523727417 0.44108247756958008
0.48476803302764893 0.5393749475479126 0.44484251737594604
0.50745111703872681 0.55155521631240845 0.45451155304908752
0.56672650575637817 0.58519750833511353 0.48096618056297302
0.65627551078796387 0.64053714275360107 0.53077971935272217
0.78224313259124756 0.71354985237121582 0.58791249990463257
0.71342766284942627 0.79251110553741455 0.6515345573425293
0.73304718732833862 0.80600887537002563 0.6591765284538269
0.77852767705917358 0.83390039205551147 0.67846232652664185
0.87578117847442627 0.89216899871826172 0.72945111989974976
0.98191046714782715 0.96475112438201904 0.79984235763549805
0.11371602118015289 0.11607401072978973 0.12693436443805695
0.16064915060997009 0.15223006904125214 0.16710856556892395
0.24645543098449707 0.2272341251373291 0.23754754662513733
0.36268135905265808 0.30913212895393372 0.31638374924659729
0.5248333215713501 0.4072144627571106 0.40488788485527039
0.18681171536445618 0.21227024495601654 0.21046493947505951
0.23065294325351715 0.24145083129405975 0.24041092395782471
0.30509147047996521 0.28898930549621582 0.28597307205200195
0.42563802003860474 0.36099112033843994 0.35498282313346863
0.57645297050476074 0.44960212707519531 0.43226876854896545
0.31804957985877991 0.34990611672401428 0.32810899615287781
0.34281107783317566 0.36679232120513916 0.33995881676673889
0.40566125512123108 0.40760976076126099 0.36935073137283325
0.52458924055099487 0.47235724329948425 0.41965043544769287
0.6710699200630188 0.55165946483612061 0.48476043343544006
0.50526422262191772 0.55511432886123657 0.48105880618095398
0.52905094623565674 0.56953847408294678 0.49335163831710815
0.58026033639907837 0.60345929861068726 0.51403123140335083
0.66917753219604492 0.65404772758483887 0.56501376628875732
0.79774940013885498 0.72582411766052246 0.62018084526062012
0.72970676422119141 0.81174349784851074 0.6838565468788147
0.74669957160949707 0.82021749019622803 0.69071537256240845
0.79443424940109253 0.84989142417907715 0.70919895172119141
0.88361155986785889 0.90136301517486572 0.75349342823028564
0.99148702621459961 0.98113906383514404 0.83571416139602661
0.14655356109142303 0.14664611220359802 0.17268872261047363
0.18720422685146332 0.18046353757381439 0.20918940007686615
0.26799434423446655 0.24973657727241516 0.27342984080314636
0.36625343561172485 0.33199366927146912 0.34828144311904907
0.50752705335617065 0.43023422360420227 0.44048610329627991
0.21563743054866791 0.23685227334499359 0.25145047903060913
0.25010982155799866 0.26230785250663757 0.27587428689002991
0.31737002730369568 0.31062045693397522 0.32183739542961121
0.41495400667190552 0.38196894526481628 0.38831126689910889
0.56752687692642212 0.48854032158851624 0.48994830250740051
0.33746084570884705 0.36967068910598755 0.36001020669937134
0.36468216776847839 0.38962766528129578 0.37686917185783386
0.42576292157173157 0.43137550354003906 0.41649609804153442
0.54342633485794067 0.50506877899169922 0.48615628480911255
0.68712538480758667 0.59436273574829102 0.57436943054199219
0.53664755821228027 0.58270186185836792 0.53450798988342285
0.56398904323577881 0.59984195232391357 0.55109649896621704
0.61096465587615967 0.63012015819549561 0.57679861783981323
0.69284307956695557 0.68235284090042114 0.61899805068969727
0.83301883935928345 0.75243723392486572 0.67643994092941284
0.75843596458435059 0.83176243305206299 0.73384243249893188
0.78104221820831299 0.84506577253341675 0.74600130319595337
0.8232002854347229 0.87409907579421997 0.76697021722793579
0.90920126438140869 0.92709147930145264 0.80712151527404785
0.99487102031707764 0.98689454793930054 0.87537354230880737
0.19337581098079681 0.19210356473922729 0.23428775370121002
0.22919477522373199 0.2227645218372345 0.26307743787765503
0.29684245586395264 0.2802828848361969 0.31721174716949463
0.39808127284049988 0.35936382412910461 0.39615693688392639
0.5408705472946167 0.46587201952934265 0.49682137370109558
0.25227996706962585 0.26986700296401978 0.29756155610084534
0.28373348712921143 0.29349681735038757 0.32020094990730286
0.34215900301933289 0.33878713846206665 0.36486446857452393
0.44945120811462402 0.41107663512229919 0.44252359867095947
0.58666324615478516 0.52028316259384155 0.54064148664474487
0.37500494718551636 0.40645876526832581 0.41782656311988831
0.39996474981307983 0.42246052622795105 0.43462046980857849
0.45979529619216919 0.46748897433280945 0.47440767288208008
0.56685709953308105 0.54135406017303467 0.54749810695648193
0.67783427238464355 0.62557125091552734 0.62490159273147583
0.57290065288543701 0.61322146654129028 0.58808177709579468
0.59652793407440186 0.62973135709762573 0.60211598873138428
0.64448922872543335 0.66044074296951294 0.63315945863723755
0.72531867027282715 0.71533608436584473 0.68757253885269165
0.85987740755081177 0.79568672180175781 0.76553845405578613
0.79795247316360474 0.86593145132064819 0.79110413789749146
0.81638723611831665 0.87539613246917725 0.80104237794876099
0.86099374294281006 0.90269565582275391 0.82785773277282715
0.94280833005905151 0.95872890949249268 0.87697309255599976
0.99986213445663452 0.99824821949005127 0.96913719177246094
0.25047439336776733 0.24699018895626068 0.29966467618942261
0.27845948934555054 0.27142292261123657 0.32376560568809509
0.33721652626991272 0.32160267233848572 0.37649229168891907
0.44668933749198914 0.40485954284667969 0.46798330545425415
0.58721905946731567 0.51038509607315063 0.56812310218811035
0.30444478988647461 0.31392201781272888 0.3617686927318573
0.33307164907455444 0.33736824989318848 0.38672211766242981
0.39030557870864868 0.3801150918006897 0.4329674243927002
0.49449175596237183 0.45165464282035828 0.5060386061668396
0.63270390033721924 0.56080347299575806 0.60714238882064819
0.42101070284843445 0.44618982076644897 0.48147138953208923
0.44874969124794006 0.46913865208625793 0.50322574377059937
0.50916081666946411 0.51072180271148682 0.54150354862213135
0.6039312481880188 0.57780903577804565 0.60713082551956177
0.71719920635223389 0.66205167770385742 0.68719828128814697
0.61534237861633301 0.65338790416717529 0.6560978889465332
0.63681894540786743 0.66740876436233521 0.66797930002212524
0.68494319915771484 0.69683003425598145 0.70010280609130859
0.75789213180541992 0.74980002641677856 0.74755781888961792
0.87909746170043945 0.83198642730712891 0.82756936550140381
0.84026527404785156 0.89900475740432739 0.85229814052581787
0.85957044363021851 0.91322004795074463 0.86690586805343628
0.91172784566879272 0.94806504249572754 0.90204012393951416
0.98673915863037109 0.99112176895141602 0.95614349842071533
1 0.99972695112228394 0.99121654033660889
