assets/lut/creative dropblues.cube
# Created by: G'MIC (https://gmic.eu)
TITLE "dropblues"
# LUT size
LUT_3D_SIZE 7
# Data domain
DOMAIN_MIN 0.0 0.0 0.0
DOMAIN_MAX 1.0 1.0 1.0
# LUT data points
0.076655171811580658 0.081798046827316284 0.073143929243087769
0.19087839126586914 0.088380374014377594 0.083712212741374969
0.35662722587585449 0.080273360013961792 0.068497873842716217
0.50381463766098022 0.072536513209342957 0.057471916079521179
0.65598922967910767 0.046801682561635971 0.051902022212743759
0.8003469705581665 0.037216439843177795 0.049213677644729614
0.95296543836593628 0.025958102196455002 0.045264687389135361
0.057338055223226547 0.20838730037212372 0.056431233882904053
0.2103687971830368 0.20935702323913574 0.053543660789728165
0.36238458752632141 0.20742441713809967 0.049616001546382904
0.50613176822662354 0.19312009215354919 0.046212438493967056
0.65487039089202881 0.18982064723968506 0.040335293859243393
0.79860150814056396 0.18559738993644714 0.046543285250663757
0.94859766960144043 0.16707791388034821 0.047719977796077728
0.065605312585830688 0.35550695657730103 0.043564170598983765
0.20264703035354614 0.3565763533115387 0.041810519993305206
0.3615419864654541 0.35547927021980286 0.048171501606702805
0.50166398286819458 0.35305950045585632 0.050525233149528503
0.64792299270629883 0.35063734650611877 0.034147810190916061
0.79560333490371704 0.3451714813709259 0.036160711199045181
0.94470387697219849 0.33501088619232178 0.025628872215747833
0.045301459729671478 0.50095874071121216 0.039809733629226685
0.19872863590717316 0.49574795365333557 0.036834627389907837
0.3591039776802063 0.4971865713596344 0.036207340657711029
0.50438576936721802 0.49334800243377686 0.032694123685359955
0.6467859148979187 0.49215191602706909 0.028697682544589043
0.79177337884902954 0.49036478996276855 0.025904711335897446
0.94098997116088867 0.48499825596809387 0.023571942001581192
0.047997448593378067 0.64647805690765381 0.025947811082005501
0.20396357774734497 0.64359664916992188 0.022980993613600731
0.35777229070663452 0.64402920007705688 0.027142394334077835
0.50165814161300659 0.64100950956344604 0.023536890745162964
0.64621186256408691 0.63609498739242554 0.030870744958519936
0.78886139392852783 0.63727658987045288 0.024210792034864426
0.93313038349151611 0.63437074422836304 0.020003315061330795
0.063100211322307587 0.78943628072738647 0.013523999601602554
0.2050824761390686 0.79029178619384766 0.017790745943784714
0.35643675923347473 0.78989541530609131 0.021896392107009888
0.49701845645904541 0.78778117895126343 0.014878770336508751
0.65057992935180664 0.78297245502471924 0.012475241906940937
0.79677313566207886 0.77984046936035156 0.011630922555923462
0.94063204526901245 0.78291052579879761 0.010358354076743126
0.044863756746053696 0.93796658515930176 0.0081482529640197754
0.18182264268398285 0.93733894824981689 0.0092272590845823288
0.34287062287330627 0.93106013536453247 0.0094573823735117912
0.49558231234550476 0.93345361948013306 0.0086619509384036064
0.64981371164321899 0.93275684118270874 0.007448921911418438
0.78954827785491943 0.93471300601959229 0.0078390231356024742
0.94139653444290161 0.92548054456710815 0.0036335366312414408
0.090238146483898163 0.094148240983486176 0.12037347257137299
0.15348392724990845 0.12249380350112915 0.15107080340385437
0.24963435530662537 0.16919796168804169 0.19316607713699341
0.39067614078521729 0.18919706344604492 0.21937768161296844
0.56392115354537964 0.18837295472621918 0.23034922778606415
0.7406386137008667 0.16645920276641846 0.22503672540187836
0.91377979516983032 0.12053327262401581 0.20917096734046936
0.11543030291795731 0.20012515783309937 0.18038806319236755
0.20093317329883575 0.20705345273017883 0.19217871129512787
0.32345917820930481 0.2218858003616333 0.20743149518966675
0.45713648200035095 0.23005446791648865 0.21602107584476471
0.61809730529785156 0.23163524270057678 0.2192595899105072
0.77183979749679565 0.22196292877197266 0.21400092542171478
0.9382474422454834 0.1859210878610611 0.19840101897716522
0.068214341998100281 0.35881990194320679 0.19462338089942932
0.1920982301235199 0.35695689916610718 0.19710554182529449
0.35595166683197021 0.35241690278053284 0.19493862986564636
0.49880930781364441 0.35232833027839661 0.19035454094409943
0.64956182241439819 0.34863230586051941 0.18971426784992218
0.79445958137512207 0.34813684225082397 0.18940369784832001
0.94534540176391602 0.33992922306060791 0.18870420753955841
0.037979830056428909 0.49825555086135864 0.18010830879211426
0.19361646473407745 0.49902233481407166 0.17489434778690338
0.35401132702827454 0.4957004189491272 0.18409110605716705
0.49967974424362183 0.49703240394592285 0.17804068326950073
0.65107953548431396 0.4910203218460083 0.17545822262763977
0.79217785596847534 0.48912271857261658 0.17014716565608978
0.9435732364654541 0.48678916692733765 0.17076556384563446
0.036517783999443054 0.64813792705535889 0.17269507050514221
0.17541161179542542 0.64409768581390381 0.16339199244976044
0.34774941205978394 0.63954812288284302 0.17350326478481293
0.49725636839866638 0.64131832122802734 0.1695963591337204
0.65193724632263184 0.63792890310287476 0.16871047019958496
0.78907060623168945 0.63835495710372925 0.17103292047977448
0.93905758857727051 0.63543206453323364 0.16049270331859589
0.043121650815010071 0.79142087697982788 0.1568266898393631
0.15399764478206635 0.78653925657272339 0.16278620064258575
0.3397657573223114 0.78337621688842773 0.16514661908149719
0.48893553018569946 0.78389132022857666 0.15567004680633545
0.6450270414352417 0.78307992219924927 0.15911282598972321
0.79604142904281616 0.78135573863983154 0.16749474406242371
0.94356256723403931 0.78143775463104248 0.15184301137924194
0.019815556704998016 0.93945580720901489 0.14171086251735687
0.12857700884342194 0.93908679485321045 0.15499411523342133
0.32464635372161865 0.93151700496673584 0.13871362805366516
0.48814064264297485 0.93452996015548706 0.14189063012599945
0.64906901121139526 0.93787050247192383 0.13958689570426941
0.78827017545700073 0.93345493078231812 0.13691234588623047
0.9376104474067688 0.92303502559661865 0.13425657153129578
0.12341075390577316 0.11244209110736847 0.17304389178752899
0.1690002977848053 0.14262564480304718 0.19861319661140442
0.2530064582824707 0.19614771008491516 0.2467353492975235
0.32958877086639404 0.24894578754901886 0.29168963432312012
0.43311247229576111 0.30459368228912354 0.34091994166374207
0.58251583576202393 0.33362925052642822 0.38261157274246216
0.76184087991714478 0.34391695261001587 0.4066072404384613
0.18709121644496918 0.20605362951755524 0.23763111233711243
0.2166757732629776 0.22081618010997772 0.25027540326118469
0.2860952615737915 0.25475889444351196 0.28489786386489868
0.35821986198425293 0.29172834753990173 0.31890764832496643
0.47592252492904663 0.33218169212341309 0.36253184080123901
0.62822788953781128 0.35280734300613403 0.39169043302536011
0.80009299516677856 0.35722893476486206 0.40077647566795349
0.17064337432384491 0.33868667483329773 0.31842485070228577
0.24495542049407959 0.34495356678962708 0.3266238272190094
0.34826412796974182 0.3547731339931488 0.3401370644569397
0.45466834306716919 0.36609706282615662 0.35604912042617798
0.59170323610305786 0.37959390878677368 0.37075859308242798
0.73466020822525024 0.38790127635002136 0.3776756227016449
0.88803106546401978 0.39057826995849609 0.37520298361778259
0.053128574043512344 0.49774876236915588 0.34805142879486084
0.18961106240749359 0.49771764874458313 0.34732580184936523
0.34901013970375061 0.49484357237815857 0.34461459517478943
0.49758371710777283 0.49285852909088135 0.34568896889686584
0.64499449729919434 0.49095919728279114 0.34402167797088623
0.79008209705352783 0.4909558892250061 0.34566968679428101
0.94318181276321411 0.48870423436164856 0.34652829170227051
0.034158714115619659 0.64578568935394287 0.34292247891426086
0.16111540794372559 0.64274102449417114 0.33731797337532043
0.34219029545783997 0.63913369178771973 0.33326107263565063
0.49958086013793945 0.64258193969726562 0.33756464719772339
0.64426040649414062 0.64014118909835815 0.33959183096885681
0.7880445122718811 0.63880795240402222 0.33480051159858704
0.94437289237976074 0.63808882236480713 0.33296903967857361
0.015621230006217957 0.79232800006866455 0.33398407697677612
0.14737673103809357 0.78600186109542847 0.32731294631958008
0.32966071367263794 0.78332513570785522 0.32799941301345825
0.49530106782913208 0.78367221355438232 0.32521545886993408
0.64460909366607666 0.78610396385192871 0.33071723580360413
0.78936636447906494 0.78397172689437866 0.33402052521705627
0.93896490335464478 0.78180766105651855 0.32857140898704529
0.0057310364209115505 0.9428066611289978 0.32729727029800415
0.10782118886709213 0.93611717224121094 0.32293581962585449
0.31468439102172852 0.93091779947280884 0.31944677233695984
0.48519560694694519 0.93635851144790649 0.32304525375366211
0.64296251535415649 0.93871599435806274 0.32542538642883301
0.78828984498977661 0.9321897029876709 0.32510384917259216
0.94150453805923462 0.92374300956726074 0.32027336955070496
0.16385142505168915 0.14399521052837372 0.22867660224437714
0.198670893907547 0.16719329357147217 0.2503654956817627
0.26173341274261475 0.21048548817634583 0.28838726878166199
0.3392939567565918 0.26186093688011169 0.33460497856140137
0.42234387993812561 0.32531660795211792 0.38478425145149231
0.51486349105834961 0.38963580131530762 0.43963736295700073
0.61806493997573853 0.44215908646583557 0.4902205765247345
0.21582821011543274 0.22405591607093811 0.28420457243919373
0.24055099487304688 0.23909908533096313 0.29645347595214844
0.29292997717857361 0.26728436350822449 0.32240837812423706
0.36875566840171814 0.30855643749237061 0.36602970957756042
0.44372224807739258 0.35842409729957581 0.40472221374511719
0.53324979543685913 0.41508695483207703 0.45705229043960571
0.65312981605529785 0.45800876617431641 0.50621259212493896
0.30045199394226074 0.33440455794334412 0.36235564947128296
0.31889176368713379 0.34408041834831238 0.37193343043327332
0.35912618041038513 0.36614373326301575 0.39362955093383789
0.42186740040779114 0.39422643184661865 0.42178627848625183
0.49817526340484619 0.4324595034122467 0.45805713534355164
0.59838759899139404 0.46740230917930603 0.49751231074333191
0.74323076009750366 0.49002209305763245 0.52974003553390503
0.23519320785999298 0.47570264339447021 0.44925087690353394
0.29749593138694763 0.47742986679077148 0.45753228664398193
0.39377224445343018 0.48278960585594177 0.46401318907737732
0.48859268426895142 0.49349257349967957 0.48008492588996887
0.59995967149734497 0.50637471675872803 0.49682947993278503
0.7253572940826416 0.51751804351806641 0.50988936424255371
0.86969929933547974 0.53010493516921997 0.51743358373641968
0.090042456984519958 0.64182537794113159 0.4867432713508606
0.18503215909004211 0.64184093475341797 0.48623675107955933
0.34096357226371765 0.6394345760345459 0.48393711447715759
0.49367612600326538 0.63981121778488159 0.48525166511535645
0.64639443159103394 0.63740843534469604 0.48626610636711121
0.78665953874588013 0.63961255550384521 0.48592329025268555
0.93929958343505859 0.63739001750946045 0.48614025115966797
0.023427058011293411 0.78834301233291626 0.48285007476806641
0.13699626922607422 0.78801602125167847 0.48151248693466187
0.32984980940818787 0.78338420391082764 0.48212859034538269
0.49034339189529419 0.78441965579986572 0.48273369669914246
0.64529156684875488 0.78336083889007568 0.48586052656173706
0.79157561063766479 0.78666400909423828 0.48175966739654541
0.93981069326400757 0.78110688924789429 0.47833168506622314
0.0047305687330663204 0.93198609352111816 0.47856923937797546
0.12847006320953369 0.93235868215560913 0.47954249382019043
0.31428849697113037 0.93616890907287598 0.47435995936393738
0.47928115725517273 0.93221396207809448 0.48175838589668274
0.64057344198226929 0.93736153841018677 0.47873386740684509
0.7908816933631897 0.93432724475860596 0.47683948278427124
0.91424095630645752 0.92263913154602051 0.47544202208518982
0.20668327808380127 0.17928142845630646 0.28956860303878784
0.23557756841182709 0.20021751523017883 0.30703264474868774
0.28891649842262268 0.24143904447555542 0.34069615602493286
0.35740461945533752 0.28290852904319763 0.3806149959564209
0.43768051266670227 0.33753511309623718 0.42704173922538757
0.52606487274169922 0.40207937359809875 0.48331150412559509
0.6121753454208374 0.46717217564582825 0.53569322824478149
0.24527573585510254 0.24355418980121613 0.33448946475982666
0.26748836040496826 0.25709128379821777 0.34484380483627319
0.31859374046325684 0.28547272086143494 0.37252125144004822
0.38014644384384155 0.32355472445487976 0.40788155794143677
0.46114698052406311 0.37425351142883301 0.45510026812553406
0.53816890716552734 0.42619085311889648 0.49619954824447632
0.62680745124816895 0.49066147208213806 0.55124616622924805
0.32043054699897766 0.34845408797264099 0.40973356366157532
0.34051373600959778 0.35914036631584167 0.41834935545921326
0.37368905544281006 0.37878552079200745 0.43521451950073242
0.4294121265411377 0.40592759847640991 0.46325585246086121
0.5056881308555603 0.4464934766292572 0.50231564044952393
0.57918912172317505 0.49196705222129822 0.54256850481033325
0.6614452600479126 0.5401650071144104 0.58710730075836182
0.40619781613349915 0.4647388756275177 0.49158534407615662
0.42304441332817078 0.46984973549842834 0.49757829308509827
0.4566594660282135 0.48135039210319519 0.51347064971923828
0.50054001808166504 0.50704026222229004 0.53433233499526978
0.56662529706954956 0.53575628995895386 0.56429380178451538
0.63228762149810791 0.5671393871307373 0.59666436910629272
0.71983093023300171 0.5986325740814209 0.62929737567901611
0.32214540243148804 0.6203581690788269 0.59738951921463013
0.36506432294845581 0.62315243482589722 0.59830212593078613
0.44854328036308289 0.62741672992706299 0.60684871673583984
0.53605383634567261 0.63387006521224976 0.61353218555450439
0.63736122846603394 0.64475768804550171 0.63113534450531006
0.7428286075592041 0.65764349699020386 0.64728766679763794
0.86598563194274902 0.66803354024887085 0.6571652889251709
0.095732100307941437 0.78332293033599854 0.63047140836715698
0.1878880113363266 0.78449147939682007 0.63250607252120972
0.34876099228858948 0.78560185432434082 0.63404428958892822
0.49412015080451965 0.78442466259002686 0.63336104154586792
0.63843816518783569 0.78370267152786255 0.63338714838027954
0.78767609596252441 0.78128302097320557 0.63465255498886108
0.94047278165817261 0.78522986173629761 0.63846278190612793
0.013048808090388775 0.93491566181182861 0.63017040491104126
0.12876518070697784 0.93224054574966431 0.62920266389846802
0.31348961591720581 0.93679976463317871 0.63187670707702637
0.47877693176269531 0.93989062309265137 0.63367372751235962
0.6325993537902832 0.9353182315826416 0.630470871925354
0.78776383399963379 0.93284320831298828 0.62888866662979126
0.94325268268585205 0.93414300680160522 0.63309299945831299
0.25002861022949219 0.21420583128929138 0.3483574390411377
0.26973605155944824 0.22860421240329742 0.36119744181632996
0.31466621160507202 0.26085883378982544 0.3892330527305603
0.37622889876365662 0.30782648921012878 0.42797130346298218
0.45295235514640808 0.35593640804290771 0.47404062747955322
0.53681045770645142 0.41581401228904724 0.52858924865722656
0.61840236186981201 0.47761720418930054 0.57474404573440552
0.27875277400016785 0.26717981696128845 0.38536077737808228
0.30307087302207947 0.28532150387763977 0.39919522404670715
0.34698373079299927 0.3113848865032196 0.42499324679374695
0.39947673678398132 0.3490501344203949 0.45540148019790649
0.47214588522911072 0.38694870471954346 0.49462142586708069
0.54990893602371216 0.44107753038406372 0.54257595539093018
0.63290238380432129 0.50024718046188354 0.5911632776260376
0.34450867772102356 0.36899417638778687 0.455147385597229
0.36163371801376343 0.37597709894180298 0.46268472075462341
0.39996606111526489 0.39447498321533203 0.48338446021080017
0.4470190703868866 0.42218595743179321 0.50813144445419312
0.51535207033157349 0.45986855030059814 0.54403018951416016
0.59209668636322021 0.50432288646697998 0.586883544921875
0.6681094765663147 0.55392730236053467 0.62952524423599243
0.43273526430130005 0.4742099940776825 0.53767043352127075
0.4450719952583313 0.48068907856941223 0.5424269437789917
0.47244468331336975 0.49675509333610535 0.55643677711486816
0.51367020606994629 0.51706653833389282 0.57598793506622314
0.56794518232345581 0.54444730281829834 0.60136812925338745
0.63977140188217163 0.57934427261352539 0.63752895593643188
0.71475791931152344 0.62243372201919556 0.67731744050979614
0.52125447988510132 0.60054975748062134 0.62630057334899902
0.53344428539276123 0.60293686389923096 0.63281238079071045
0.56375813484191895 0.61185663938522339 0.64094293117523193
0.59985077381134033 0.62759488821029663 0.65821051597595215
0.64559096097946167 0.65121161937713623 0.680794358253479
0.70667570829391479 0.67824459075927734 0.7079891562461853
0.77762186527252197 0.71247583627700806 0.73905330896377563
0.38897067308425903 0.75906765460968018 0.73463910818099976
0.43249282240867615 0.76149976253509521 0.73987138271331787
0.50712448358535767 0.76422011852264404 0.74330282211303711
0.58674687147140503 0.76973587274551392 0.74568653106689453
0.6827690601348877 0.77518624067306519 0.7528265118598938
0.78537631034851074 0.78894245624542236 0.77754706144332886
0.89297986030578613 0.80617219209671021 0.79510831832885742
0.05491149052977562 0.93238765001296997 0.77584636211395264
0.15044732391834259 0.93420577049255371 0.77828872203826904
0.33364960551261902 0.93440419435501099 0.78236812353134155
0.48442021012306213 0.93753623962402344 0.78083652257919312
0.63418388366699219 0.93219554424285889 0.7796815037727356
0.78465527296066284 0.9367058277130127 0.78249257802963257
0.93489283323287964 0.93227195739746094 0.78076988458633423
0.28527256846427917 0.24874822795391083 0.39870074391365051
0.30510354042053223 0.2588646411895752 0.41103667020797729
0.35361406207084656 0.30091264843940735 0.44603157043457031
0.40256515145301819 0.33461099863052368 0.47963148355484009
0.47261208295822144 0.37908110022544861 0.52052336931228638
0.55359166860580444 0.43296980857849121 0.56906139850616455
0.63254469633102417 0.49389755725860596 0.62073057889938354
0.32055619359016418 0.29868456721305847 0.44285097718238831
0.3406207263469696 0.31288230419158936 0.45558291673660278
0.37623661756515503 0.33289417624473572 0.47386622428894043
0.42702260613441467 0.3690493106842041 0.50293648242950439
0.48867246508598328 0.41018903255462646 0.54214000701904297
0.56698828935623169 0.45797291398048401 0.58880090713500977
0.64483457803726196 0.51347386837005615 0.63590472936630249
0.37609466910362244 0.3836854100227356 0.50124549865722656
0.39562329649925232 0.39567950367927551 0.51143968105316162
0.42840495705604553 0.41438597440719604 0.53059548139572144
0.4731166660785675 0.44082057476043701 0.55442750453948975
0.53056693077087402 0.47529458999633789 0.58831918239593506
0.59997451305389404 0.51753753423690796 0.62887763977050781
0.67731225490570068 0.56512916088104248 0.67321771383285522
0.45058479905128479 0.48777711391448975 0.57519370317459106
0.46684545278549194 0.49619030952453613 0.58833962678909302
0.49068239331245422 0.50687116384506226 0.59514552354812622
0.53211414813995361 0.52838230133056641 0.61735278367996216
0.58147960901260376 0.55882143974304199 0.64333140850067139
0.64814561605453491 0.5920136570930481 0.68316072225570679
0.72479450702667236 0.63525551557540894 0.7226218581199646
0.54890257120132446 0.60749006271362305 0.66696381568908691
0.5574415922164917 0.60907667875289917 0.67146134376525879
0.58294790983200073 0.62423598766326904 0.68503332138061523
0.61289775371551514 0.63747018575668335 0.69871693849563599
0.65655410289764404 0.65976995229721069 0.72131776809692383
0.71286958456039429 0.69385576248168945 0.74981868267059326
0.78436881303787231 0.72265851497650146 0.78387868404388428
0.63756841421127319 0.73403263092041016 0.76134908199310303
0.6439509391784668 0.73468697071075439 0.76084351539611816
0.67022353410720825 0.74262553453445435 0.77115774154663086
0.70073181390762329 0.75260841846466064 0.77981603145599365
0.74380987882614136 0.7694467306137085 0.79830408096313477
0.78816688060760498 0.7937856912612915 0.82127422094345093
0.85175865888595581 0.82326662540435791 0.85451185703277588
0.48622423410415649 0.89854621887207031 0.88172018527984619
0.50324368476867676 0.90112036466598511 0.88021057844161987
0.56696170568466187 0.9062839150428772 0.88327145576477051
0.64741706848144531 0.89014774560928345 0.8679196834564209
0.73730909824371338 0.91624736785888672 0.89788484573364258
0.83470892906188965 0.92070698738098145 0.90388542413711548
0.9230847954750061 0.9227413535118103 0.90065079927444458
