assets/lut/creative tealorange 03.cube
# Created by: G'MIC (https://gmic.eu)
TITLE "tealorange_3"
# LUT size
LUT_3D_SIZE 5
# Data domain
DOMAIN_MIN 0.0 0.0 0.0
DOMAIN_MAX 1.0 1.0 1.0
# LUT data points
0.04991580918431282 0.04431668296456337 0.058391213417053223
0.15383529663085938 0.086564697325229645 0.013305814005434513
0.27974861860275269 0.17575421929359436 0.013855069875717163
0.4556785523891449 0.30301088094711304 0.053199693560600281
0.69971060752868652 0.4504430890083313 0.13006830215454102
0.0032631070353090763 0.23588889837265015 0.092599190771579742
0.22472725808620453 0.22314848005771637 0.073630571365356445
0.35091319680213928 0.30016735196113586 0.11596072465181351
0.52803933620452881 0.41116225719451904 0.18123650550842285
0.75416356325149536 0.5357324481010437 0.24023698270320892
0.028677666559815407 0.51392054557800293 0.18923799693584442
0.31416070461273193 0.47557517886161804 0.089405998587608337
0.5453072190284729 0.51636165380477905 0.26893708109855652
0.70783823728561401 0.57617193460464478 0.31616553664207458
0.87090742588043213 0.66073340177536011 0.35571593046188354
0.31238055229187012 0.81395548582077026 0.29944810271263123
0.33991256356239319 0.79805642366409302 0.25039005279541016
0.73541909456253052 0.75498771667480469 0.35987195372581482
0.88363379240036011 0.76711148023605347 0.4394834041595459
0.98527246713638306 0.79179763793945312 0.44769501686096191
0.42326569557189941 0.96903824806213379 0.32793590426445007
0.42600056529045105 0.96902793645858765 0.32237261533737183
0.71264785528182983 0.94946646690368652 0.14719532430171967
0.97680079936981201 0.90682405233383179 0.48875778913497925
0.99980145692825317 0.90011662244796753 0.49002823233604431
0.0028489355463534594 0.10304687917232513 0.1897561252117157
0.11381545662879944 0.093324117362499237 0.16842655837535858
0.27624797821044922 0.16412477195262909 0.16224917769432068
0.47880369424819946 0.28266245126724243 0.150030717253685
0.72707581520080566 0.42615866661071777 0.20303426682949066
0 0.24045324325561523 0.22174225747585297
0.17852869629859924 0.23928765952587128 0.18939690291881561
0.33838328719139099 0.30628889799118042 0.21965058147907257
0.55660766363143921 0.40205395221710205 0.23671147227287292
0.78450673818588257 0.52023988962173462 0.28722262382507324
0.031554069370031357 0.53684991598129272 0.22101587057113647
0.079162225127220154 0.51689428091049194 0.20130963623523712
0.51704519987106323 0.51290088891983032 0.34798726439476013
0.69906860589981079 0.59222358465194702 0.40065276622772217
0.8588721752166748 0.67055410146713257 0.43167933821678162
0.32340267300605774 0.82042479515075684 0.30348628759384155
0.32681691646575928 0.81912040710449219 0.29841676354408264
0.64999908208847046 0.77657967805862427 0.34654673933982849
0.87309461832046509 0.77304697036743164 0.50329476594924927
0.98234504461288452 0.80131590366363525 0.51380723714828491
0.42397144436836243 0.9702339768409729 0.33246159553527832
0.42575785517692566 0.97067058086395264 0.32888752222061157
0.56648558378219604 0.96784168481826782 0.19468080997467041
0.95735758543014526 0.91372048854827881 0.51597195863723755
0.99886023998260498 0.90265053510665894 0.5452924370765686
0 0.14673973619937897 0.30380111932754517
0.0133501086384058 0.15121597051620483 0.31251734495162964
0.22059834003448486 0.20157472789287567 0.33423605561256409
0.43564313650131226 0.31222957372665405 0.39716747403144836
0.73179525136947632 0.43988528847694397 0.43238580226898193
0.00034996480098925531 0.26620057225227356 0.29115483164787292
0.026851026341319084 0.29141482710838318 0.32656019926071167
0.30394250154495239 0.31597557663917542 0.36957988142967224
0.53193837404251099 0.40679651498794556 0.4189198911190033
0.7990424633026123 0.51581746339797974 0.42352551221847534
0.056433346122503281 0.52035409212112427 0.49241995811462402
0.11655737459659576 0.52111315727233887 0.49121561646461487
0.48542308807373047 0.53329896926879883 0.46810564398765564
0.69144916534423828 0.60113269090652466 0.50798714160919189
0.88914448022842407 0.66328936815261841 0.4965004026889801
0.3213537335395813 0.82839053869247437 0.598030686378479
0.33314606547355652 0.84021729230880737 0.53173172473907471
0.43086338043212891 0.82301706075668335 0.52406275272369385
0.85852015018463135 0.78707873821258545 0.60637009143829346
0.95959806442260742 0.80932921171188354 0.61192458868026733
0.42891877889633179 0.96878904104232788 0.58817297220230103
0.42588195204734802 0.97043037414550781 0.50092709064483643
0.44340667128562927 0.97149419784545898 0.35779398679733276
0.88443803787231445 0.93083280324935913 0.52916699647903442
0.9984663724899292 0.90769869089126587 0.6365552544593811
0 0.1973491907119751 0.43490788340568542
0.0011903351405635476 0.22528664767742157 0.44953086972236633
0.083513922989368439 0.25973528623580933 0.45675081014633179
0.40746530890464783 0.36146628856658936 0.53417551517486572
0.67720073461532593 0.48762497305870056 0.64993637800216675
3.5544002457754686e-05 0.32336342334747314 0.38879209756851196
0.0014435412595048547 0.35552978515625 0.45277160406112671
0.072061590850353241 0.39903086423873901 0.51662421226501465
0.48903059959411621 0.45134404301643372 0.57423311471939087
0.74932444095611572 0.5582391619682312 0.66917085647583008
0.099746569991111755 0.54919928312301636 0.56151264905929565
0.12145653367042542 0.55586403608322144 0.56097185611724854
0.30757519602775574 0.59976500272750854 0.58687436580657959
0.65636265277862549 0.6203923225402832 0.64524006843566895
0.85182911157608032 0.67651164531707764 0.70377039909362793
0.3848344087600708 0.82123303413391113 0.77929353713989258
0.40283381938934326 0.82363927364349365 0.78394114971160889
0.52166390419006348 0.81985002756118774 0.76729792356491089
0.81842821836471558 0.80688583850860596 0.72873771190643311
0.96382385492324829 0.82067924737930298 0.72968339920043945
0.42487552762031555 0.96596431732177734 0.83893728256225586
0.42887979745864868 0.9668419361114502 0.82346540689468384
0.4229617714881897 0.96865057945251465 0.77565783262252808
0.6406283974647522 0.95821088552474976 0.70340359210968018
0.99593311548233032 0.91188347339630127 0.7414976954460144
0 0.26923972368240356 0.56108188629150391
0 0.30982652306556702 0.61353391408920288
0.0020884494297206402 0.35360130667686462 0.60819607973098755
0.29708582162857056 0.42947819828987122 0.65002810955047607
0.66458010673522949 0.54538220167160034 0.74930912256240845
0 0.41090145707130432 0.56650841236114502
0 0.43014270067214966 0.59340280294418335
0.0047309873625636101 0.49539968371391296 0.69331067800521851
0.33510258793830872 0.52892851829528809 0.69741326570510864
0.72425216436386108 0.60065436363220215 0.77466249465942383
0.014482101425528526 0.60866600275039673 0.61482584476470947
0.020078128203749657 0.61545222997665405 0.61931562423706055
0.085579559206962585 0.669261634349823 0.69940871000289917
0.32182854413986206 0.70750159025192261 0.80422079563140869
0.81684845685958862 0.71347838640213013 0.82200199365615845
0.48134636878967285 0.81174331903457642 0.77867370843887329
0.49436166882514954 0.81686556339263916 0.78142356872558594
0.55993574857711792 0.82681757211685181 0.80587011575698853
0.68858635425567627 0.85481107234954834 0.8156207799911499
0.91031265258789062 0.84218442440032959 0.85574519634246826
0.51790517568588257 0.95589286088943481 0.90871310234069824
0.52522033452987671 0.95284605026245117 0.90170478820800781
0.59730798006057739 0.94923001527786255 0.89555102586746216
0.74563711881637573 0.9448198676109314 0.88114380836486816
0.98126256465911865 0.92618036270141602 0.84843665361404419
