assets/lut/creative futuristicbleak 04.cube
# Created by: G'MIC (https://gmic.eu)
TITLE "futuristicbleak_4"
# LUT size
LUT_3D_SIZE 7
# Data domain
DOMAIN_MIN 0.0 0.0 0.0
DOMAIN_MAX 1.0 1.0 1.0
# LUT data points
0.1001313328742981 0.10173536092042923 0.10479617863893509
0.12606543302536011 0.11883433908224106 0.12223569303750992
0.18464106321334839 0.15371735394001007 0.15382671356201172
0.2453954666852951 0.19706536829471588 0.19104327261447906
0.3258289098739624 0.25293236970901489 0.24096366763114929
0.41866818070411682 0.31552794575691223 0.29423898458480835
0.51938354969024658 0.3796115517616272 0.35122749209403992
0.13814602792263031 0.15118543803691864 0.14448393881320953
0.1620299220085144 0.1653454601764679 0.1534745842218399
0.21264748275279999 0.19503091275691986 0.17741285264492035
0.27022156119346619 0.23039194941520691 0.20733310282230377
0.34834891557693481 0.28016677498817444 0.25432434678077698
0.4415382444858551 0.34060531854629517 0.30677744746208191
0.53240048885345459 0.39611929655075073 0.35722589492797852
0.21451278030872345 0.2425558865070343 0.21783250570297241
0.23314392566680908 0.25396466255187988 0.22681351006031036
0.27146905660629272 0.27756762504577637 0.24652893841266632
0.31674009561538696 0.30341258645057678 0.26363831758499146
0.39716169238090515 0.34216594696044922 0.29386010766029358
0.48493993282318115 0.38528931140899658 0.3291589617729187
0.59247595071792603 0.44516530632972717 0.38501065969467163
0.30111402273178101 0.33575791120529175 0.2963569164276123
0.31558918952941895 0.34383133053779602 0.3012365996837616
0.34479901194572449 0.36331605911254883 0.31332123279571533
0.39438113570213318 0.39318549633026123 0.34008496999740601
0.46592497825622559 0.43527990579605103 0.37108632922172546
0.54511302709579468 0.47824275493621826 0.39812657237052917
0.65623652935028076 0.53250807523727417 0.44108247756958008
0.41866549849510193 0.47126385569572449 0.39303582906723022
0.43524181842803955 0.47836780548095703 0.39820221066474915
0.46447294950485229 0.49468177556991577 0.4105822741985321
0.5105750560760498 0.52318644523620605 0.43431141972541809
0.56908929347991943 0.56084376573562622 0.46542835235595703
0.63307583332061768 0.59993767738342285 0.49676203727722168
0.73454326391220093 0.6501585841178894 0.53239899873733521
0.55608069896697998 0.61109000444412231 0.50476819276809692
0.56730020046234131 0.61852079629898071 0.50974851846694946
0.58712857961654663 0.63028502464294434 0.51726716756820679
0.62717485427856445 0.65538889169692993 0.53417211771011353
0.68102240562438965 0.68809324502944946 0.56498032808303833
0.75933033227920532 0.73683381080627441 0.61128795146942139
0.83970379829406738 0.78772133588790894 0.65147733688354492
0.71342766284942627 0.79251110553741455 0.6515345573425293
0.71996694803237915 0.79807752370834351 0.65328943729400635
0.74484354257583618 0.81286287307739258 0.66339230537414551
0.77852767705917358 0.83390039205551147 0.67846232652664185
0.84176921844482422 0.87135189771652222 0.70957493782043457
0.90977609157562256 0.91255486011505127 0.74754267930984497
0.98191046714782715 0.96475112438201904 0.79984235763549805
0.10579181462526321 0.10914143919944763 0.11555904150009155
0.13000676035881042 0.1276974231004715 0.13435696065425873
0.18368825316429138 0.16775920987129211 0.17764197289943695
0.24648894369602203 0.2192169576883316 0.22629895806312561
0.32363086938858032 0.27050051093101501 0.27426061034202576
0.42326211929321289 0.33272716403007507 0.33111783862113953
0.52453750371932983 0.39367073774337769 0.3829045295715332
0.14431582391262054 0.16012300550937653 0.16010962426662445
0.1693086177110672 0.17762464284896851 0.17848142981529236
0.22067750990390778 0.2115149199962616 0.21154215931892395
0.27723890542984009 0.2503410279750824 0.24929147958755493
0.35277670621871948 0.29894134402275085 0.29308873414993286
0.44971221685409546 0.35694822669029236 0.3456282913684845
0.55051440000534058 0.41435140371322632 0.3961983323097229
0.2231004387140274 0.25158601999282837 0.23818621039390564
0.23998664319515228 0.26109284162521362 0.24730527400970459
0.27785125374794006 0.28520801663398743 0.26716858148574829
0.32558807730674744 0.31313112378120422 0.28745219111442566
0.40957644581794739 0.35352692008018494 0.32464280724525452
0.49424123764038086 0.40264016389846802 0.36863085627555847
0.59824687242507935 0.46581542491912842 0.42344298958778381
0.31007522344589233 0.34235861897468567 0.31455150246620178
0.32505449652671814 0.35310429334640503 0.32162374258041382
0.3526642918586731 0.37069204449653625 0.3328883945941925
0.40201908349990845 0.40515673160552979 0.35747995972633362
0.47483623027801514 0.44499021768569946 0.38954600691795349
0.55737972259521484 0.48776185512542725 0.41831579804420471
0.66698682308197021 0.54331612586975098 0.4644293487071991
0.42805016040802002 0.47662833333015442 0.40847957134246826
0.4406241774559021 0.48513498902320862 0.41487210988998413
0.47232961654663086 0.50460553169250488 0.42817988991737366
0.51453417539596558 0.53088235855102539 0.44866305589675903
0.57698434591293335 0.56829828023910522 0.48254546523094177
0.64122354984283447 0.60735219717025757 0.51375120878219604
0.74126976728439331 0.65538620948791504 0.54755574464797974
0.56306135654449463 0.62049049139022827 0.52259433269500732
0.57551127672195435 0.62671589851379395 0.52922052145004272
0.60088837146759033 0.64088469743728638 0.53978639841079712
0.63388729095458984 0.66293972730636597 0.55484157800674438
0.68605363368988037 0.69541746377944946 0.58189433813095093
0.76617467403411865 0.744426429271698 0.63030457496643066
0.84606844186782837 0.79452049732208252 0.66811841726303101
0.7227594256401062 0.8056221604347229 0.67101150751113892
0.73175007104873657 0.80968040227890015 0.672760009765625
0.75267702341079712 0.81998085975646973 0.67959249019622803
0.78565561771392822 0.84094023704528809 0.69270223379135132
0.84239238500595093 0.87470227479934692 0.72205370664596558
0.91230314970016479 0.91419482231140137 0.75768876075744629
0.98804908990859985 0.97473454475402832 0.81984865665435791
0.12227810174226761 0.12523508071899414 0.13976843655109406
0.14489877223968506 0.14399470388889313 0.16041186451911926
0.19493338465690613 0.18177837133407593 0.20121197402477264
0.25133666396141052 0.23341013491153717 0.24769288301467896
0.31803509593009949 0.29003205895423889 0.29934161901473999
0.40835854411125183 0.3498445451259613 0.35836011171340942
0.52289277315139771 0.41926237940788269 0.42137143015861511
0.1595110148191452 0.17550362646579742 0.18706908822059631
0.17950570583343506 0.19163469970226288 0.20173703134059906
0.22951067984104156 0.22749039530754089 0.23842069506645203
0.27884012460708618 0.26714667677879333 0.27442446351051331
0.34467229247093201 0.31813940405845642 0.32207849621772766
0.43863153457641602 0.37615865468978882 0.37862962484359741
0.54764378070831299 0.43937718868255615 0.43734082579612732
0.23416399955749512 0.26268273591995239 0.25855463743209839
0.24962727725505829 0.27385398745536804 0.26872414350509644
0.28824138641357422 0.30069571733474731 0.29567673802375793
0.33719125390052795 0.33023145794868469 0.32457166910171509
0.41142445802688599 0.3743748664855957 0.36670723557472229
0.50145095586776733 0.42476871609687805 0.41488951444625854
0.60755288600921631 0.49057132005691528 0.47239363193511963
0.32587903738021851 0.35878989100456238 0.33973249793052673
0.33801627159118652 0.36530235409736633 0.34694689512252808
0.36592170596122742 0.38493496179580688 0.36209505796432495
0.41086909174919128 0.41335538029670715 0.38274234533309937
0.49060302972793579 0.4595826268196106 0.42065972089767456
0.57420164346694946 0.50582593679428101 0.45829018950462341
0.68209809064865112 0.56792145967483521 0.51554054021835327
0.44893708825111389 0.49297639727592468 0.44073373079299927
0.46195542812347412 0.5011863112449646 0.44952106475830078
0.49026864767074585 0.52104759216308594 0.46329820156097412
0.52971458435058594 0.54481297731399536 0.4806370735168457
0.59043574333190918 0.58360075950622559 0.51480698585510254
0.65628176927566528 0.62126827239990234 0.54575937986373901
0.76029461622238159 0.66823059320449829 0.58034968376159668
0.58529043197631836 0.63652664422988892 0.5616946816444397
0.59449857473373413 0.6421438455581665 0.56518656015396118
0.61957865953445435 0.65776079893112183 0.57759302854537964
0.65380764007568359 0.68283975124359131 0.59259563684463501
0.70140361785888672 0.70982027053833008 0.61463576555252075
0.77609169483184814 0.75479269027709961 0.65721917152404785
0.86199295520782471 0.80971598625183105 0.70154017210006714
0.73780429363250732 0.81618845462799072 0.69945192337036133
0.74573147296905518 0.82226544618606567 0.70428651571273804
0.76720315217971802 0.83469253778457642 0.71248996257781982
0.80201554298400879 0.85729104280471802 0.72763842344284058
0.8550102710723877 0.88814902305603027 0.75077939033508301
0.92734229564666748 0.93063086271286011 0.78600424528121948
0.99090087413787842 0.97950083017349243 0.84210026264190674
0.14655356109142303 0.14664611220359802 0.17268872261047363
0.16501531004905701 0.16290810704231262 0.19109739363193512
0.21123917400836945 0.20085380971431732 0.22902080416679382
0.26799434423446655 0.24973657727241516 0.27342984080314636
0.33126142621040344 0.30320703983306885 0.32339957356452942
0.40753570199012756 0.36291790008544922 0.37589567899703979
0.50752705335617065 0.43023422360420227 0.44048610329627991
0.1793791651725769 0.19279763102531433 0.21391198039054871
0.19800710678100586 0.20969931781291962 0.22921149432659149
0.23964241147041321 0.24198134243488312 0.25957158207893372
0.29423362016677856 0.28190848231315613 0.29985234141349792
0.35364493727684021 0.32959043979644775 0.34502139687538147
0.43218985199928284 0.3872922956943512 0.39581203460693359
0.53744745254516602 0.45961666107177734 0.46471625566482544
0.24870380759239197 0.27762657403945923 0.28522366285324097
0.26760461926460266 0.29065746068954468 0.2969631552696228
0.29666697978973389 0.31106552481651306 0.31665590405464172
0.34367430210113525 0.34409865736961365 0.34818294644355774
0.40959459543228149 0.3887479305267334 0.3916047215461731
0.49327942728996277 0.44536769390106201 0.44394057989120483
0.60214519500732422 0.52089560031890869 0.5172429084777832
0.33746084570884705 0.36967068910598755 0.36001020669937134
0.35082739591598511 0.37999847531318665 0.36985838413238525
0.37956857681274414 0.39928138256072998 0.38601934909820557
0.42576292157173157 0.43137550354003906 0.41649609804153442
0.50117760896682739 0.47943034768104553 0.45959922671318054
0.58379459381103516 0.53027009963989258 0.51125043630599976
0.68712538480758667 0.59436273574829102 0.57436943054199219
0.46726337075233459 0.51145303249359131 0.47435134649276733
0.48188355565071106 0.51982975006103516 0.48228955268859863
0.51369357109069824 0.54019510746002197 0.50202518701553345
0.54870152473449707 0.56425273418426514 0.52139842510223389
0.60884362459182739 0.60247218608856201 0.55411326885223389
0.6801949143409729 0.64071738719940186 0.58643335103988647
0.78953951597213745 0.69382888078689575 0.6337699294090271
0.60491824150085449 0.65493112802505493 0.59541434049606323
0.61770409345626831 0.66117221117019653 0.60335516929626465
0.64297258853912354 0.67839628458023071 0.61835974454879761
0.67472165822982788 0.69969385862350464 0.63491135835647583
0.72134280204772949 0.72938472032546997 0.65577912330627441
0.79416400194168091 0.77534812688827515 0.69571578502655029
0.87868869304656982 0.82527536153793335 0.73586183786392212
0.75843596458435059 0.83176243305206299 0.73384243249893188
0.76994913816452026 0.83867871761322021 0.73988568782806396
0.79488223791122437 0.85416275262832642 0.75363075733184814
0.8232002854347229 0.87409907579421997 0.76697021722793579
0.87661021947860718 0.90766137838363647 0.79231852293014526
0.94233411550521851 0.94615823030471802 0.82412588596343994
0.99487102031707764 0.98689454793930054 0.87537354230880737
0.17449834942817688 0.1757652759552002 0.21223843097686768
0.19644550979137421 0.19268263876438141 0.23007577657699585
0.23533013463020325 0.22624313831329346 0.2607060968875885
0.28683993220329285 0.26945257186889648 0.30288460850715637
0.3491361141204834 0.32122319936752319 0.35121634602546692
0.42833238840103149 0.38064274191856384 0.40770918130874634
0.52620148658752441 0.45160973072052002 0.47546529769897461
0.20982705056667328 0.22066102921962738 0.25085967779159546
0.22515939176082611 0.23411096632480621 0.26306822896003723
0.26287060976028442 0.26331117749214172 0.29101672768592834
0.30991598963737488 0.29885044693946838 0.32593575119972229
0.37092632055282593 0.34711301326751709 0.3721768856048584
0.45379489660263062 0.40668532252311707 0.43062904477119446
0.55339658260345459 0.48420768976211548 0.50143474340438843
0.2758442759513855 0.30044928193092346 0.3176518976688385
0.28548794984817505 0.30842304229736328 0.32575151324272156
0.31929436326026917 0.33047497272491455 0.34749007225036621
0.35925275087356567 0.36032178997993469 0.37614545226097107
0.4294162392616272 0.40755763649940491 0.42571842670440674
0.51016193628311157 0.46582534909248352 0.4787239134311676
0.60327845811843872 0.53962337970733643 0.54436582326889038
0.36284932494163513 0.39395326375961304 0.39785030484199524
0.37562316656112671 0.40263599157333374 0.4067070484161377
0.40279093384742737 0.4216708242893219 0.42521893978118896
0.44758570194244385 0.45664122700691223 0.45702797174453735
0.51704353094100952 0.50416785478591919 0.50069844722747803
0.59174734354019165 0.55864089727401733 0.55203568935394287
0.66420900821685791 0.61092334985733032 0.60162520408630371
0.49345961213111877 0.53162628412246704 0.51047730445861816
0.50610131025314331 0.54115200042724609 0.51680397987365723
0.53560358285903931 0.56066220998764038 0.53880250453948975
0.57320517301559448 0.58689260482788086 0.56180375814437866
0.62854582071304321 0.62487667798995972 0.59828656911849976
0.69797170162200928 0.66625982522964478 0.64093446731567383
0.79973721504211426 0.7243119478225708 0.70120376348495483
0.62974321842193604 0.67388403415679932 0.63108348846435547
0.64058524370193481 0.68024981021881104 0.63795202970504761
0.66427022218704224 0.69751489162445068 0.65455543994903564
0.69701337814331055 0.71900147199630737 0.67397695779800415
0.74595314264297485 0.75295001268386841 0.70248836278915405
0.81777572631835938 0.79985964298248291 0.74151897430419922
0.91018402576446533 0.84953081607818604 0.78407663106918335
0.78364479541778564 0.85212087631225586 0.76992106437683105
0.79791265726089478 0.86149722337722778 0.77857077121734619
0.8161780834197998 0.87131327390670776 0.78894829750061035
0.85117602348327637 0.89557653665542603 0.81032454967498779
0.90162509679794312 0.92897045612335205 0.83700829744338989
0.95869868993759155 0.96416383981704712 0.86489367485046387
0.99923765659332275 0.99709177017211914 0.94065618515014648
0.21137689054012299 0.21129930019378662 0.2559262216091156
0.22926594316959381 0.22370368242263794 0.26884156465530396
0.26648792624473572 0.25577867031097412 0.29942601919174194
0.3098321259021759 0.29259485006332397 0.33461481332778931
0.37131375074386597 0.3429030179977417 0.38656938076019287
0.4575040340423584 0.40459537506103516 0.45094755291938782
0.55487620830535889 0.48079884052276611 0.5203666090965271
0.24242177605628967 0.25099912285804749 0.28878924250602722
0.25660675764083862 0.26061674952507019 0.29926213622093201
0.29017755389213562 0.28873631358146667 0.32572329044342041
0.33307826519012451 0.32368612289428711 0.3607695996761322
0.39495626091957092 0.37079858779907227 0.40984600782394409
0.4813101589679718 0.42826515436172485 0.47178053855895996
0.58026379346847534 0.50881105661392212 0.54236102104187012
0.30214953422546387 0.32212117314338684 0.35206058621406555
0.31659352779388428 0.33320099115371704 0.36141085624694824
0.34563612937927246 0.35389161109924316 0.38533195853233337
0.3866862952709198 0.38398504257202148 0.41557991504669189
0.45651662349700928 0.43191814422607422 0.46646258234977722
0.53991794586181641 0.49292415380477905 0.5227055549621582
0.62360966205596924 0.55938488245010376 0.58337736129760742
0.39046087861061096 0.41879180073738098 0.43843716382980347
0.40320447087287903 0.4261508584022522 0.44682753086090088
0.43206751346588135 0.45026704668998718 0.46765205264091492
0.47541892528533936 0.48124650120735168 0.49623385071754456
0.54328173398971558 0.52947956323623657 0.5432543158531189
0.61585140228271484 0.57855868339538574 0.59225738048553467
0.68986266851425171 0.63755398988723755 0.64519774913787842
0.52078926563262939 0.55837553739547729 0.5534052848815918
0.53204762935638428 0.56711655855178833 0.56127786636352539
0.5579216480255127 0.58263564109802246 0.57673579454421997
0.59813076257705688 0.60847049951553345 0.60297787189483643
0.65011799335479736 0.64823240041732788 0.63983500003814697
0.70894730091094971 0.68698602914810181 0.6786007285118103
0.79387903213500977 0.74310559034347534 0.73125308752059937
0.65302330255508423 0.69543027877807617 0.66457158327102661
0.66273874044418335 0.69978731870651245 0.670296311378479
0.68641859292984009 0.71616137027740479 0.68707793951034546
0.71952623128890991 0.7396431565284729 0.70901727676391602
0.76761233806610107 0.77321320772171021 0.73885583877563477
0.83497166633605957 0.82027369737625122 0.78340262174606323
0.92412668466567993 0.87662041187286377 0.83603757619857788
0.81018435955047607 0.87684446573257446 0.8125419020652771
0.81356227397918701 0.87391328811645508 0.81022822856903076
0.84249049425125122 0.89559924602508545 0.82983404397964478
0.87815910577774048 0.91907775402069092 0.85402822494506836
0.92926347255706787 0.95138168334960938 0.88666754961013794
0.98351442813873291 0.98673295974731445 0.92688727378845215
0.9999271035194397 0.99905526638031006 0.98567897081375122
0.25047439336776733 0.24699018895626068 0.29966467618942261
0.26436534523963928 0.25973242521286011 0.3111775815486908
0.29517465829849243 0.28501304984092712 0.33897963166236877
0.33721652626991272 0.32160267233848572 0.37649229168891907
0.40319520235061646 0.37491768598556519 0.43579137325286865
0.4942719042301178 0.43544879555702209 0.49977931380271912
0.58721905946731567 0.51038509607315063 0.56812310218811035
0.27638706564903259 0.28039759397506714 0.33033174276351929
0.29508373141288757 0.29563042521476746 0.34743788838386536
0.3264097273349762 0.32140013575553894 0.37351697683334351
0.36301425099372864 0.35054728388786316 0.40502458810806274
0.42538973689079285 0.39808392524719238 0.45476606488227844
0.51499927043914795 0.45650723576545715 0.51639819145202637
0.61200869083404541 0.53672748804092407 0.58913248777389526
0.33857893943786621 0.35285243391990662 0.40142139792442322
0.34857574105262756 0.36108404397964478 0.40700855851173401
0.37929105758666992 0.38426735997200012 0.4322657585144043
0.41732433438301086 0.40994161367416382 0.46035295724868774
0.48828661441802979 0.46064788103103638 0.50908195972442627
0.57031726837158203 0.52073633670806885 0.56605786085128784
0.65525645017623901 0.58992654085159302 0.63057327270507812
0.42101070284843445 0.44618982076644897 0.48147138953208923
0.43430718779563904 0.45769047737121582 0.49264076352119446
0.46344670653343201 0.47873643040657043 0.51348984241485596
0.50916081666946411 0.51072180271148682 0.54150354862213135
0.57281005382537842 0.55470854043960571 0.58641946315765381
0.64193415641784668 0.60352963209152222 0.63414794206619263
0.71719920635223389 0.66205167770385742 0.68719828128814697
0.55191600322723389 0.58488494157791138 0.59770059585571289
0.5619971752166748 0.59084773063659668 0.60363692045211792
0.58964055776596069 0.60875147581100464 0.62125319242477417
0.62629157304763794 0.63581711053848267 0.64821755886077881
0.67331421375274658 0.67125529050827026 0.68139708042144775
0.73867720365524292 0.71429145336151123 0.72396278381347656
0.82315373420715332 0.76868140697479248 0.77625590562820435
0.68394738435745239 0.72403144836425781 0.71308314800262451
0.69236117601394653 0.72967779636383057 0.71885514259338379
0.71437364816665649 0.74409979581832886 0.73340660333633423
0.74721610546112061 0.76602727174758911 0.75282591581344604
0.79745912551879883 0.80198937654495239 0.78857111930847168
0.85755670070648193 0.84621107578277588 0.82875639200210571
0.94605475664138794 0.90965121984481812 0.89361518621444702
0.84026527404785156 0.89900475740432739 0.85229814052581787
0.84792059659957886 0.90503865480422974 0.85735851526260376
0.86860209703445435 0.91641294956207275 0.87255662679672241
0.91172784566879272 0.94806504249572754 0.90204012393951416
0.96177840232849121 0.97634506225585938 0.93195229768753052
0.99542105197906494 0.99521684646606445 0.97921514511108398
1 0.99972695112228394 0.99121654033660889
