assets/lut/creative futuristicbleak 03.cube
# Created by: G'MIC (https://gmic.eu)
TITLE "futuristicbleak_3"
# LUT size
LUT_3D_SIZE 5
# Data domain
DOMAIN_MIN 0.0 0.0 0.0
DOMAIN_MAX 1.0 1.0 1.0
# LUT data points
0.11615325510501862 0.14404566586017609 0.15690450370311737
0.21653439104557037 0.18447455763816833 0.18135783076286316
0.34505489468574524 0.22376653552055359 0.20343564450740814
0.47453644871711731 0.27720174193382263 0.23673781752586365
0.62395757436752319 0.33216086030006409 0.27925014495849609
0.20100660622119904 0.27720743417739868 0.23904009163379669
0.25888341665267944 0.30000385642051697 0.23416535556316376
0.36127996444702148 0.32712692022323608 0.2373969554901123
0.52297002077102661 0.35417014360427856 0.24353379011154175
0.66570651531219482 0.39735311269760132 0.27807947993278503
0.34108701348304749 0.42966964840888977 0.33142012357711792
0.36443018913269043 0.43739479780197144 0.31600034236907959
0.42438718676567078 0.46136641502380371 0.32819673418998718
0.53624528646469116 0.4927428662776947 0.33567425608634949
0.7160952091217041 0.50929874181747437 0.31858733296394348
0.51310890913009644 0.58416545391082764 0.44063103199005127
0.52307897806167603 0.59046041965484619 0.43018811941146851
0.56812816858291626 0.60336446762084961 0.427438884973526
0.63401305675506592 0.62600231170654297 0.4512639045715332
0.7296518087387085 0.65741604566574097 0.46361866593360901
0.67466390132904053 0.72975039482116699 0.56312912702560425
0.68062877655029297 0.73702329397201538 0.55365669727325439
0.70503389835357666 0.74955242872238159 0.54307955503463745
0.75338315963745117 0.7615618109703064 0.54925775527954102
0.8254963755607605 0.794838547706604 0.58259093761444092
0.13087892532348633 0.16603437066078186 0.18722228705883026
0.18443490564823151 0.21654079854488373 0.22411993145942688
0.26537600159645081 0.28330647945404053 0.27193138003349304
0.40324851870536804 0.34092605113983154 0.30969053506851196
0.56910455226898193 0.3957391083240509 0.36316820979118347
0.21152953803539276 0.27918738126754761 0.26211521029472351
0.24571549892425537 0.30546504259109497 0.27805599570274353
0.33332410454750061 0.34034278988838196 0.29625669121742249
0.47442507743835449 0.37989214062690735 0.31927970051765442
0.62692475318908691 0.42780336737632751 0.36821579933166504
0.34213873744010925 0.42354881763458252 0.36063140630722046
0.36106577515602112 0.44000139832496643 0.36148509383201599
0.42438066005706787 0.46741944551467896 0.36358475685119629
0.53683513402938843 0.49573907256126404 0.36518701910972595
0.71381497383117676 0.51550936698913574 0.36005684733390808
0.51555931568145752 0.57988578081130981 0.46894368529319763
0.53094422817230225 0.59067791700363159 0.46767681837081909
0.56717675924301147 0.60824239253997803 0.45730376243591309
0.63421708345413208 0.63240563869476318 0.47833329439163208
0.72678869962692261 0.65929180383682251 0.48716357350349426
0.679301917552948 0.73288416862487793 0.58773869276046753
0.68676888942718506 0.73498237133026123 0.58183711767196655
0.7097049355506897 0.75214171409606934 0.57235169410705566
0.75344401597976685 0.76697993278503418 0.57197564840316772
0.82405364513397217 0.79690730571746826 0.60343903303146362
0.15987502038478851 0.20171833038330078 0.22643053531646729
0.19965960085391998 0.24244280159473419 0.25311166048049927
0.27015411853790283 0.30187350511550903 0.30059170722961426
0.36727407574653625 0.37898924946784973 0.34756150841712952
0.49447068572044373 0.45682349801063538 0.397828608751297
0.23528257012367249 0.30230134725570679 0.29292932152748108
0.25814196467399597 0.3218548595905304 0.30842530727386475
0.31419378519058228 0.36609145998954773 0.33598580956459045
0.40842708945274353 0.42480933666229248 0.37657314538955688
0.54158437252044678 0.48355039954185486 0.41926240921020508
0.35849359631538391 0.43437871336936951 0.38553392887115479
0.37500107288360596 0.44650194048881531 0.39305850863456726
0.42198139429092407 0.47260001301765442 0.4096170961856842
0.51802164316177368 0.50943130254745483 0.42879611253738403
0.65737462043762207 0.54308170080184937 0.45437625050544739
0.53399932384490967 0.58589982986450195 0.49547916650772095
0.54483044147491455 0.59078574180603027 0.49848663806915283
0.57100313901901245 0.60852646827697754 0.50727570056915283
0.62833577394485474 0.63511461019515991 0.51246798038482666
0.73405963182449341 0.66360950469970703 0.52025175094604492
0.69028562307357788 0.72968971729278564 0.6156764030456543
0.69319289922714233 0.73160654306411743 0.61664128303527832
0.71346086263656616 0.74808984994888306 0.61838555335998535
0.75180834531784058 0.77346932888031006 0.61055386066436768
0.82133311033248901 0.80062419176101685 0.63563317060470581
0.20238463580608368 0.24732387065887451 0.27558887004852295
0.22958061099052429 0.27535417675971985 0.29472231864929199
0.28749352693557739 0.32660415768623352 0.33495789766311646
0.37420916557312012 0.39503574371337891 0.38316768407821655
0.4807746410369873 0.47174137830734253 0.4393346905708313
0.25690516829490662 0.32326290011405945 0.32144153118133545
0.27978414297103882 0.34173333644866943 0.33652868866920471
0.33020588755607605 0.38444328308105469 0.36650517582893372
0.4154040515422821 0.4405616819858551 0.40644752979278564
0.51884919404983521 0.50770300626754761 0.45592859387397766
0.3773902952671051 0.4465448260307312 0.40558686852455139
0.393565833568573 0.46030953526496887 0.41595423221588135
0.43810358643531799 0.48518499732017517 0.43658295273780823
0.51028496026992798 0.52676928043365479 0.46616336703300476
0.59939432144165039 0.57951867580413818 0.50758683681488037
0.54615300893783569 0.59260523319244385 0.51263105869293213
0.55779707431793213 0.59707975387573242 0.51801908016204834
0.58421552181243896 0.6153985857963562 0.53541016578674316
0.63270431756973267 0.64657324552536011 0.55993747711181641
0.71486657857894897 0.67949140071868896 0.58380520343780518
0.69857203960418701 0.73297631740570068 0.63302123546600342
0.70652663707733154 0.73836851119995117 0.6374201774597168
0.7267611026763916 0.75229716300964355 0.64724361896514893
0.7588508129119873 0.77269560098648071 0.66063028573989868
0.82458591461181641 0.80566507577896118 0.67554247379302979
0.24518857896327972 0.29252120852470398 0.31948328018188477
0.265096515417099 0.30962100625038147 0.33476707339286804
0.30916449427604675 0.3525540828704834 0.36438927054405212
0.39802709221839905 0.42088741064071655 0.41599750518798828
0.48941022157669067 0.48607403039932251 0.46597746014595032
0.29578033089637756 0.35926586389541626 0.36501798033714294
0.31007683277130127 0.37122103571891785 0.37604573369026184
0.36025550961494446 0.40877091884613037 0.40091261267662048
0.43915662169456482 0.46307641267776489 0.4412376880645752
0.53306549787521362 0.52532738447189331 0.49421977996826172
0.40611347556114197 0.47017642855644226 0.43073800206184387
0.42450729012489319 0.48035416007041931 0.44203281402587891
0.46773627400398254 0.501720130443573 0.46215587854385376
0.5321042537689209 0.54191184043884277 0.49625757336616516
0.60663282871246338 0.59315305948257446 0.54018330574035645
0.56016826629638672 0.60148674249649048 0.53778743743896484
0.57134854793548584 0.60901695489883423 0.54364907741546631
0.59876644611358643 0.62747347354888916 0.55852794647216797
0.64417940378189087 0.6544044017791748 0.58446872234344482
0.70182007551193237 0.69245731830596924 0.61759811639785767
0.71254467964172363 0.74166214466094971 0.65157943964004517
0.72174918651580811 0.74947917461395264 0.6590505838394165
0.7427099347114563 0.76199871301651001 0.66909611225128174
0.77332848310470581 0.78283512592315674 0.69053423404693604
0.83402317762374878 0.81721788644790649 0.73218798637390137
