assets/lut/creative tealorange 02.cube
# Created by: G'MIC (https://gmic.eu)
TITLE "tealorange_2"
# LUT size
LUT_3D_SIZE 5
# Data domain
DOMAIN_MIN 0.0 0.0 0.0
DOMAIN_MAX 1.0 1.0 1.0
# LUT data points
0.021236315369606018 0.052700821310281754 0.070613712072372437
0.18130499124526978 0.054439425468444824 0.040730107575654984
0.32684659957885742 0.04430205374956131 0.01292075403034687
0.49436178803443909 0.038499437272548676 0.0046995426528155804
0.68007898330688477 0.048880364745855331 0.0059874588623642921
0.008150915615260601 0.19038647413253784 0.075300954282283783
0.22229903936386108 0.21021376550197601 0.030551550909876823
0.35228914022445679 0.24808517098426819 0.0046053268015384674
0.51378816366195679 0.30766004323959351 0.003888238687068224
0.71654677391052246 0.3584519624710083 0.00053187349112704396
0.0037950403057038784 0.3666439950466156 0.13095743954181671
0.3016517162322998 0.39324969053268433 0.054198380559682846
0.50187855958938599 0.4246724545955658 0.054014451801776886
0.6840633749961853 0.47516584396362305 0.022165620699524879
0.84583324193954468 0.52821004390716553 0.0071496251039206982
0.091732427477836609 0.59110945463180542 0.21098974347114563
0.40919464826583862 0.62442696094512939 0.10048950463533401
0.65554517507553101 0.644672691822052 0.091513857245445251
0.83926194906234741 0.66428494453430176 0.093496881425380707
0.98498481512069702 0.69212847948074341 0.052359037101268768
0.33370944857597351 0.81010180711746216 0.31145581603050232
0.48995044827461243 0.84520208835601807 0.16835308074951172
0.74859422445297241 0.84916341304779053 0.10709577053785324
0.93440014123916626 0.84992462396621704 0.073836952447891235
1 0.85488355159759521 0.049283433705568314
0.00094945571618154645 0.07337295264005661 0.11911556869745255
0.11961627751588821 0.078772753477096558 0.19145329296588898
0.2789216935634613 0.090852744877338409 0.22124375402927399
0.45890781283378601 0.092208638787269592 0.21334217488765717
0.65564358234405518 0.099603064358234406 0.21105970442295074
0.0028978832997381687 0.19722799956798553 0.17697951197624207
0.1985115259885788 0.22245843708515167 0.13697925209999084
0.36184126138687134 0.25842800736427307 0.132874995470047
0.56535637378692627 0.2859862744808197 0.10950217396020889
0.78343158960342407 0.30527430772781372 0.074709318578243256
0.0067844465374946594 0.37661975622177124 0.27658432722091675
0.26136606931686401 0.41512408852577209 0.20439460873603821
0.48813554644584656 0.44218745827674866 0.20992390811443329
0.66637676954269409 0.49453699588775635 0.19378684461116791
0.82689529657363892 0.54496622085571289 0.18374112248420715
0.12355607002973557 0.5985533595085144 0.39541268348693848
0.38021641969680786 0.64125990867614746 0.30569088459014893
0.63762712478637695 0.65955382585525513 0.27365949749946594
0.83038842678070068 0.6857718825340271 0.28842878341674805
0.97541064023971558 0.71111690998077393 0.26898866891860962
0.34775424003601074 0.81933414936065674 0.5085257887840271
0.4981558620929718 0.8537362813949585 0.40495303273200989
0.69432413578033447 0.87110012769699097 0.32123705744743347
0.91733497381210327 0.86818045377731323 0.30783545970916748
0.99985456466674805 0.86415952444076538 0.30200403928756714
0 0.091376282274723053 0.15336026251316071
0.060437459498643875 0.10134283453226089 0.23896321654319763
0.21400615572929382 0.12711116671562195 0.34375578165054321
0.38271284103393555 0.16643849015235901 0.40855348110198975
0.5828971266746521 0.21189507842063904 0.45419716835021973
0.00090453203301876783 0.20296402275562286 0.20517192780971527
0.17231473326683044 0.23314401507377625 0.23538477718830109
0.33860868215560913 0.26877769827842712 0.30200496315956116
0.53362703323364258 0.31328999996185303 0.36052185297012329
0.74134749174118042 0.349477618932724 0.40987622737884521
0.0132191376760602 0.38392236828804016 0.3489500880241394
0.25560542941093445 0.42908856272697449 0.34212914109230042
0.47313690185546875 0.46063464879989624 0.32132798433303833
0.67044734954833984 0.50394487380981445 0.32798153162002563
0.8849567174911499 0.53057253360748291 0.32806524634361267
0.13011927902698517 0.61080765724182129 0.49439239501953125
0.39196503162384033 0.64809846878051758 0.48594897985458374
0.60524988174438477 0.6800416111946106 0.42120686173439026
0.81550043821334839 0.70472979545593262 0.43453654646873474
0.9670640230178833 0.73755550384521484 0.42516615986824036
0.35876742005348206 0.83081823587417603 0.63159871101379395
0.50830924510955811 0.85272526741027832 0.6088259220123291
0.6682928204536438 0.8840489387512207 0.52367568016052246
0.89204597473144531 0.8836255669593811 0.46708840131759644
0.99795567989349365 0.88126426935195923 0.46106931567192078
0 0.10502373427152634 0.19513422250747681
0.014160186052322388 0.12362401932477951 0.25802913308143616
0.16215209662914276 0.15723027288913727 0.37573733925819397
0.33248913288116455 0.20137521624565125 0.50866752862930298
0.51962393522262573 0.2610066831111908 0.62663668394088745
0.0022595722693949938 0.21738868951797485 0.23511719703674316
0.072119705379009247 0.26273524761199951 0.2910342812538147
0.27414232492446899 0.29937589168548584 0.40773087739944458
0.46302351355552673 0.34761986136436462 0.54666590690612793
0.66043025255203247 0.40057232975959778 0.64660680294036865
0.016399204730987549 0.39888444542884827 0.38789042830467224
0.26513761281967163 0.43643635511398315 0.40149593353271484
0.4586251974105835 0.47689041495323181 0.44548767805099487
0.64559340476989746 0.5227121114730835 0.54463368654251099
0.8435174822807312 0.56303125619888306 0.62731754779815674
0.16819864511489868 0.6232292652130127 0.56840580701828003
0.40876662731170654 0.65909701585769653 0.58195680379867554
0.5945746898651123 0.69265365600585938 0.58390390872955322
0.79712551832199097 0.72705674171447754 0.57403761148452759
0.95714753866195679 0.74971318244934082 0.57616758346557617
0.37749618291854858 0.84710156917572021 0.72292238473892212
0.52329176664352417 0.86812132596969604 0.72860920429229736
0.68015837669372559 0.88771075010299683 0.72060137987136841
0.84721267223358154 0.90174597501754761 0.63727849721908569
0.99158096313476562 0.89046424627304077 0.6215636134147644
0 0.12318269163370132 0.23605082929134369
0.00071093987207859755 0.1492946445941925 0.29039433598518372
0.092380806803703308 0.18182207643985748 0.39447799324989319
0.28977930545806885 0.23789484798908234 0.5369146466255188
0.48774653673171997 0.29398712515830994 0.69433474540710449
0.00095047295326367021 0.23891623318195343 0.26325911283493042
0.0079921800643205643 0.29229274392127991 0.34248968958854675
0.18523983657360077 0.33185267448425293 0.43613949418067932
0.41080388426780701 0.38107797503471375 0.58730554580688477
0.62301129102706909 0.44454693794250488 0.74806565046310425
0.088366895914077759 0.41017204523086548 0.38428154587745667
0.23251113295555115 0.45611906051635742 0.44035652279853821
0.35554522275924683 0.51482349634170532 0.51680737733840942
0.58920896053314209 0.56144195795059204 0.64962297677993774
0.77597957849502563 0.59853202104568481 0.78958147764205933
0.2351786196231842 0.63334298133850098 0.60544097423553467
0.45832449197769165 0.67431771755218506 0.61996704339981079
0.61511880159378052 0.70762991905212402 0.65210944414138794
0.76432245969772339 0.75021594762802124 0.70594245195388794
0.91839122772216797 0.77396571636199951 0.81468743085861206
0.38664722442626953 0.85331356525421143 0.79416346549987793
0.53698813915252686 0.8714526891708374 0.81854736804962158
0.6880180835723877 0.88664150238037109 0.81431859731674194
0.84258335828781128 0.90063571929931641 0.80469465255737305
0.99239712953567505 0.90245765447616577 0.77064555883407593
