assets/lut/creative smokey.cube
# Created by: G'MIC (https://gmic.eu)
TITLE "smokey"
# LUT size
LUT_3D_SIZE 13
# Data domain
DOMAIN_MIN 0.0 0.0 0.0
DOMAIN_MAX 1.0 1.0 1.0
# LUT data points
0.048929519951343536 0.044245835393667221 0.022800849750638008
0.13024385273456573 0.0472092404961586 0.02296517975628376
0.20277193188667297 0.047335457056760788 0.021546486765146255
0.26811444759368896 0.046702634543180466 0.020854935050010681
0.33008024096488953 0.045672308653593063 0.021750416606664658
0.39077970385551453 0.044076450169086456 0.023585345596075058
0.4507300853729248 0.041740328073501587 0.02560272254049778
0.51001203060150146 0.040390584617853165 0.027250207960605621
0.5690847635269165 0.040425784885883331 0.028260175138711929
0.62811523675918579 0.042111340910196304 0.029122011736035347
0.68750178813934326 0.042686730623245239 0.030144201591610909
0.74737542867660522 0.043268989771604538 0.031249357387423515
0.80808711051940918 0.043247014284133911 0.03049926832318306
0.054241180419921875 0.110390305519104 0.023041609674692154
0.13682347536087036 0.11253374814987183 0.023284314200282097
0.20894259214401245 0.11388051509857178 0.023327786475419998
0.27337807416915894 0.11512231081724167 0.023750049993395805
0.33541584014892578 0.11531862616539001 0.025178393349051476
0.3974812924861908 0.11460432410240173 0.027318468317389488
0.45861443877220154 0.11368162930011749 0.028856433928012848
0.51866644620895386 0.11368852853775024 0.029495583847165108
0.57834148406982422 0.11469991505146027 0.029677163809537888
0.63812857866287231 0.11618959158658981 0.030837953090667725
0.6983523964881897 0.11783671379089355 0.032677728682756424
0.75927895307540894 0.11922615021467209 0.034196458756923676
0.82084274291992188 0.11941731721162796 0.034513004124164581
0.057447843253612518 0.17027094960212708 0.023062223568558693
0.1394542008638382 0.17231746017932892 0.024035479873418808
0.21265512704849243 0.17567820847034454 0.025354018434882164
0.27751320600509644 0.17974062263965607 0.026852671056985855
0.3408949077129364 0.18161343038082123 0.028932115063071251
0.40433672070503235 0.18185456097126007 0.031225526705384254
0.46652951836585999 0.18262630701065063 0.031700704246759415
0.52734553813934326 0.18449723720550537 0.030338183045387268
0.58761179447174072 0.18720827996730804 0.029473038390278816
0.64828413724899292 0.1894020140171051 0.030556114390492439
0.70940274000167847 0.1912018209695816 0.033421147614717484
0.77128225564956665 0.19244115054607391 0.035988632589578629
0.83379453420639038 0.19343911111354828 0.037138037383556366
0.057450074702501297 0.22941301763057709 0.02406584843993187
0.13942143321037292 0.23265206813812256 0.026773296296596527
0.21339724957942963 0.23702776432037354 0.028853951022028923
0.28103718161582947 0.24177813529968262 0.031039249151945114
0.34662714600563049 0.24513852596282959 0.033637732267379761
0.41137656569480896 0.24677857756614685 0.035675182938575745
0.47473976016044617 0.24946855008602142 0.034920006990432739
0.53611725568771362 0.25344321131706238 0.031973056495189667
0.5968940258026123 0.25765195488929749 0.029992032796144485
0.65849399566650391 0.26053676009178162 0.031172150745987892
0.72085082530975342 0.26240569353103638 0.034694641828536987
0.78375345468521118 0.26431035995483398 0.037885148078203201
0.84697335958480835 0.26600101590156555 0.038813572376966476
0.055693142116069794 0.28904855251312256 0.026433158665895462
0.13698545098304749 0.29348060488700867 0.029894197359681129
0.21243228018283844 0.29857134819030762 0.032669514417648315
0.28338247537612915 0.30391132831573486 0.03541216254234314
0.35143885016441345 0.30808877944946289 0.037915606051683426
0.41767889261245728 0.31145748496055603 0.039462130516767502
0.4819934070110321 0.31551244854927063 0.038490340113639832
0.54459571838378906 0.32042407989501953 0.035625457763671875
0.60668748617172241 0.32529407739639282 0.033353410661220551
0.66930145025253296 0.32871368527412415 0.035072207450866699
0.73248928785324097 0.33150419592857361 0.038217134773731232
0.79634350538253784 0.33445477485656738 0.040806908160448074
0.86033689975738525 0.33748102188110352 0.042220935225486755
0.053765404969453812 0.34940731525421143 0.028945159167051315
0.13551267981529236 0.3546927273273468 0.033009845763444901
0.21267507970333099 0.3606160581111908 0.03620503842830658
0.28538116812705994 0.36649581789970398 0.039263319224119186
0.35552990436553955 0.37174052000045776 0.041561007499694824
0.42326870560646057 0.37649086117744446 0.043045490980148315
0.48886284232139587 0.38122767210006714 0.042798705399036407
0.55314099788665771 0.38628342747688293 0.041385829448699951
0.61660373210906982 0.39084383845329285 0.040859777480363846
0.68029212951660156 0.39488387107849121 0.042154707014560699
0.74440962076187134 0.39897444844245911 0.044106695801019669
0.80904996395111084 0.40372747182846069 0.044981472194194794
0.87353068590164185 0.40842440724372864 0.044771634042263031
0.052818626165390015 0.41087543964385986 0.03113822266459465
0.13536417484283447 0.41703423857688904 0.035688318312168121
0.21277309954166412 0.42344957590103149 0.039464600384235382
0.2879885733127594 0.42992150783538818 0.042441979050636292
0.35942500829696655 0.43615248799324036 0.045178208500146866
0.42854565382003784 0.44185742735862732 0.04675152525305748
0.49564012885093689 0.44721069931983948 0.047619406133890152
0.56132727861404419 0.45235428214073181 0.047736283391714096
0.62633460760116577 0.4569556713104248 0.048444230109453201
0.6911894679069519 0.4615580141544342 0.049697156995534897
0.756264328956604 0.46702370047569275 0.050067439675331116
0.82144778966903687 0.47351241111755371 0.049073565751314163
0.88660347461700439 0.47960445284843445 0.047800160944461823
0.053221460431814194 0.47406965494155884 0.032699435949325562
0.13578936457633972 0.48068153858184814 0.037774808704853058
0.2149137556552887 0.48771494626998901 0.041927982121706009
0.29059323668479919 0.49487096071243286 0.045452028512954712
0.36341851949691772 0.50168883800506592 0.048463050276041031
0.43366962671279907 0.50830686092376709 0.050656501203775406
0.50222325325012207 0.51436007022857666 0.052239213138818741
0.56922096014022827 0.51999580860137939 0.053169205784797668
0.63553392887115479 0.52536028623580933 0.054090656340122223
0.70172131061553955 0.53075182437896729 0.054706111550331116
0.76769149303436279 0.53731310367584229 0.053866174072027206
0.83365863561630249 0.54477483034133911 0.05193016305565834
0.8992760181427002 0.55185693502426147 0.049483895301818848
0.05437907949090004 0.53897553682327271 0.033860750496387482
0.13745877146720886 0.54593169689178467 0.039335109293460846
0.21709029376506805 0.55347877740859985 0.044107042253017426
0.29366740584373474 0.56119215488433838 0.048224624246358871
0.36736229062080383 0.56880056858062744 0.051530666649341583
0.43866971135139465 0.57612615823745728 0.054481402039527893
0.50823253393173218 0.58293753862380981 0.056301206350326538
0.57662826776504517 0.58971512317657471 0.057491406798362732
0.64431345462799072 0.59617459774017334 0.057833235710859299
0.71182936429977417 0.60266602039337158 0.057258367538452148
0.77857816219329834 0.61010390520095825 0.055467955768108368
0.84527570009231567 0.61792463064193726 0.052682105451822281
0.91140186786651611 0.62538307905197144 0.050037473440170288
0.055696688592433929 0.60546332597732544 0.034739043563604355
0.13912366330623627 0.61287540197372437 0.040690597146749496
0.21927760541439056 0.62081408500671387 0.045996423810720444
0.29643213748931885 0.62912857532501221 0.050836585462093353
0.37088719010353088 0.63733261823654175 0.054882992058992386
0.44318884611129761 0.64532649517059326 0.058063987642526627
0.5136944055557251 0.65315788984298706 0.060024455189704895
0.58322042226791382 0.66077548265457153 0.060842119157314301
0.6521492600440979 0.66829299926757812 0.060541070997714996
0.72051697969436646 0.67605787515640259 0.058664135634899139
0.78875070810317993 0.68413984775543213 0.055865626782178879
0.85606932640075684 0.69229191541671753 0.052277792245149612
0.92253386974334717 0.70006102323532104 0.049049735069274902
0.056362707167863846 0.67326170206069946 0.035928778350353241
0.14010348916053772 0.68111515045166016 0.041985724121332169
0.2209705263376236 0.68963795900344849 0.048165250569581985
0.29877912998199463 0.69844239950180054 0.053270600736141205
0.3737560510635376 0.70730412006378174 0.057786274701356888
0.44681265950202942 0.7160906195640564 0.061216391623020172
0.51829081773757935 0.72473067045211792 0.063501246273517609
0.58883213996887207 0.73322629928588867 0.063999190926551819
0.65891408920288086 0.74169731140136719 0.062614068388938904
0.72851389646530151 0.7503083348274231 0.059765983372926712
0.79742723703384399 0.75917059183120728 0.05565287172794342
0.86558926105499268 0.76754677295684814 0.051196318119764328
0.93263942003250122 0.77546066045761108 0.047429762780666351
0.055635176599025726 0.74231505393981934 0.036892220377922058
0.14004729688167572 0.75077587366104126 0.043879639357328415
0.22143279016017914 0.75982457399368286 0.050235748291015625
0.29984933137893677 0.76914119720458984 0.055993262678384781
0.37566310167312622 0.77859711647033691 0.060864198952913284
0.4493749737739563 0.78794151544570923 0.06442616879940033
0.52168744802474976 0.79731655120849609 0.066387996077537537
0.59332835674285889 0.80657905340194702 0.06647384911775589
0.6643451452255249 0.81585806608200073 0.064824841916561127
0.73490053415298462 0.82512235641479492 0.060958519577980042
0.80474317073822021 0.83429867029190063 0.055804412811994553
0.87358683347702026 0.84310132265090942 0.050145376473665237
0.94096291065216064 0.8511805534362793 0.045896135270595551
0.053228940814733505 0.81283056735992432 0.03879648819565773
0.13816672563552856 0.82172238826751709 0.0460662841796875
0.22005786001682281 0.83117032051086426 0.052984319627285004
0.29932093620300293 0.84085088968276978 0.058939434587955475
0.37610518932342529 0.85091537237167358 0.063896417617797852
0.4505632221698761 0.86080676317214966 0.067479781806468964
0.52403879165649414 0.87070900201797485 0.069661371409893036
0.59636956453323364 0.88056325912475586 0.069448120892047882
0.66823393106460571 0.89037883281707764 0.067119225859642029
0.73941588401794434 0.90006530284881592 0.062991723418235779
0.80982434749603271 0.90956765413284302 0.057355064898729324
0.87926775217056274 0.91855418682098389 0.051259912550449371
0.94703471660614014 0.92668843269348145 0.04650522768497467
0.047989625483751297 0.045832749456167221 0.054826520383358002
0.13223274052143097 0.046145852655172348 0.057442143559455872
0.20655077695846558 0.046037338674068451 0.058737870305776596
0.2728039026260376 0.046465959399938583 0.060202132910490036
0.33473807573318481 0.046121738851070404 0.062494136393070221
0.39508301019668579 0.044786863029003143 0.06549612432718277
0.45458805561065674 0.042993314564228058 0.068906284868717194
0.51373988389968872 0.041602518409490585 0.072299525141716003
0.57272148132324219 0.042085010558366776 0.074564449489116669
0.63192105293273926 0.043070565909147263 0.076143510639667511
0.69151943922042847 0.045118696987628937 0.077881366014480591
0.75179696083068848 0.046407975256443024 0.079147741198539734
0.81282073259353638 0.046549554914236069 0.079260535538196564
0.051509063690900803 0.11292425543069839 0.057163853198289871
0.13611027598381042 0.11271972954273224 0.060289390385150909
0.21079690754413605 0.11354193836450577 0.062176410108804703
0.27710312604904175 0.11507835984230042 0.064548566937446594
0.3398558497428894 0.11531862616539001 0.067655600607395172
0.40136629343032837 0.11510995775461197 0.071067720651626587
0.46206533908843994 0.11430318653583527 0.074019953608512878
0.52195727825164795 0.11433907598257065 0.076038464903831482
0.58157002925872803 0.11555854976177216 0.077669866383075714
0.64159888029098511 0.11763796210289001 0.079678766429424286
0.70204722881317139 0.11953636258840561 0.082130283117294312
0.76337486505508423 0.12073861062526703 0.08439367264509201
0.82515996694564819 0.12150464206933975 0.085298307240009308
0.05455506220459938 0.17393043637275696 0.060366012156009674
0.13840457797050476 0.17462621629238129 0.063554845750331879
0.21274673938751221 0.17699140310287476 0.066521301865577698
0.2799873948097229 0.18020124733448029 0.069674655795097351
0.34424808621406555 0.18187633156776428 0.073686756193637848
0.40775865316390991 0.18211787939071655 0.077344991266727448
0.46983242034912109 0.18283285200595856 0.079427115619182587
0.53039711713790894 0.18508169054985046 0.079594090580940247
0.59071153402328491 0.18765278160572052 0.080124706029891968
0.65149068832397461 0.19040277600288391 0.081988602876663208
0.71292084455490112 0.19230157136917114 0.085220485925674438
0.7750663161277771 0.19436666369438171 0.088188275694847107
0.83772552013397217 0.19567382335662842 0.089873276650905609
0.055001862347126007 0.23229190707206726 0.064863122999668121
0.13749520480632782 0.23527735471725464 0.068417899310588837
0.21250882744789124 0.23912222683429718 0.071974419057369232
0.28187209367752075 0.24330092966556549 0.075899817049503326
0.34872376918792725 0.24596038460731506 0.080365680158138275
0.41441231966018677 0.24697908759117126 0.084409289062023163
0.47789937257766724 0.24937325716018677 0.085398174822330475
0.53912633657455444 0.25326129794120789 0.084016896784305573
0.60010677576065063 0.25749367475509644 0.083518952131271362
0.6616395115852356 0.26075708866119385 0.085344918072223663
0.7240365743637085 0.26337110996246338 0.088865660130977631
0.78706490993499756 0.26575192809104919 0.092282839119434357
0.85057598352432251 0.26814305782318115 0.094179920852184296
0.05377623438835144 0.29114803671836853 0.069843336939811707
0.13560207188129425 0.29546323418617249 0.074143335223197937
0.21210974454879761 0.3005748987197876 0.078005969524383545
0.28379839658737183 0.30560296773910522 0.082159332931041718
0.35285735130310059 0.3093838095664978 0.086386032402515411
0.42012527585029602 0.31208890676498413 0.09005400538444519
0.48490536212921143 0.31557875871658325 0.090870954096317291
0.54761672019958496 0.32027998566627502 0.089709006249904633
0.60972952842712402 0.32491409778594971 0.089466378092765808
0.67222189903259277 0.3287353515625 0.091484501957893372
0.7355462908744812 0.33224517107009888 0.094799771904945374
0.79942828416824341 0.33589926362037659 0.097725793719291687
0.86368769407272339 0.33944985270500183 0.09907156229019165
0.052664529532194138 0.35043647885322571 0.074995063245296478
0.13492298126220703 0.35607367753982544 0.079731494188308716
0.21267074346542358 0.36211025714874268 0.083773218095302582
0.2860235869884491 0.3680013120174408 0.087981037795543671
0.35692054033279419 0.37311521172523499 0.091935068368911743
0.4253486692905426 0.37733721733093262 0.095003567636013031
0.49160557985305786 0.38169634342193604 0.096466556191444397
0.55585563182830811 0.38635960221290588 0.096957184374332428
0.6193966269493103 0.39086699485778809 0.097975999116897583
0.68302828073501587 0.39506399631500244 0.10029305517673492
0.74728000164031982 0.39986234903335571 0.10272946953773499
0.81181240081787109 0.40515238046646118 0.10389892011880875
0.87663722038269043 0.41031950712203979 0.10460000485181808
0.052641462534666061 0.41162768006324768 0.07950235903263092
0.13512614369392395 0.41775667667388916 0.084675326943397522
0.21324057877063751 0.4246213436126709 0.089000821113586426
0.28911522030830383 0.43137866258621216 0.093331940472126007
0.36125063896179199 0.43743860721588135 0.097246415913105011
0.43080645799636841 0.44282940030097961 0.10051999241113663
0.49821946024894714 0.44792607426643372 0.10273254662752151
0.56398671865463257 0.45288148522377014 0.10464847087860107
0.62889772653579712 0.45738446712493896 0.10695015639066696
0.69379836320877075 0.4619753360748291 0.1095508337020874
0.75889414548873901 0.46790194511413574 0.11073826998472214
0.82420891523361206 0.4747791588306427 0.11059945821762085
0.88956713676452637 0.48158302903175354 0.10973405838012695
0.054009471088647842 0.474822998046875 0.083233118057250977
0.13694863021373749 0.48140928149223328 0.088757142424583435
0.21671080589294434 0.48883235454559326 0.093739420175552368
0.29267182946205139 0.49605920910835266 0.098269186913967133
0.36573144793510437 0.50302231311798096 0.10245802998542786
0.43631184101104736 0.50938445329666138 0.10606758296489716
0.50478178262710571 0.51531070470809937 0.10919643938541412
0.5718848705291748 0.52086597681045532 0.11186464875936508
0.63824433088302612 0.52611535787582397 0.11440537124872208
0.70429813861846924 0.53163045644760132 0.11645013839006424
0.77032995223999023 0.53852373361587524 0.11687649041414261
0.83639156818389893 0.54638266563415527 0.11557529121637344
0.90222018957138062 0.55404537916183472 0.11390760540962219
0.056491583585739136 0.54009497165679932 0.086238756775856018
0.13968928158283234 0.54719740152359009 0.092368841171264648
0.21987469494342804 0.55476593971252441 0.097840718924999237
0.29656502604484558 0.56256639957427979 0.10299666225910187
0.37032002210617065 0.570182204246521 0.10765393078327179
0.44166502356529236 0.57744443416595459 0.11178231239318848
0.51106834411621094 0.58418965339660645 0.11530214548110962
0.57943207025527954 0.59059929847717285 0.11820615828037262
0.64686703681945801 0.59714800119400024 0.12019086629152298
0.71421641111373901 0.60392469167709351 0.12110200524330139
0.78132778406143188 0.6116030216217041 0.12050854414701462
0.84800899028778076 0.61988312005996704 0.11894827336072922
0.91428208351135254 0.62776243686676025 0.11670925468206406
0.058889545500278473 0.6071544885635376 0.089110851287841797
0.1425614207983017 0.61448460817337036 0.095675028860569
0.22298772633075714 0.62253117561340332 0.10167331993579865
0.30028212070465088 0.63078564405441284 0.10748157650232315
0.37455379962921143 0.63903772830963135 0.11275217682123184
0.44654560089111328 0.64696621894836426 0.11744455248117447
0.51683706045150757 0.65470850467681885 0.12127645313739777
0.58605444431304932 0.66227144002914429 0.12387234717607498
0.65486240386962891 0.66977214813232422 0.12505514919757843
0.72327226400375366 0.67777407169342041 0.12481601536273956
0.79140013456344604 0.68610632419586182 0.12337631732225418
0.8588445782661438 0.69457322359085083 0.12093875557184219
0.92552351951599121 0.70270490646362305 0.11852803081274033
0.060531046241521835 0.67553490400314331 0.091960489749908447
0.1446148157119751 0.68334764242172241 0.098993517458438873
0.22543279826641083 0.69177168607711792 0.10570898652076721
0.30316838622093201 0.70053082704544067 0.11212810128927231
0.37808600068092346 0.7093052864074707 0.11795651167631149
0.45062202215194702 0.71803265810012817 0.12298554182052612
0.52166903018951416 0.72659820318222046 0.12696747481822968
0.59187263250350952 0.73510265350341797 0.1291741281747818
0.66176551580429077 0.74366873502731323 0.1296563595533371
0.73123979568481445 0.75236517190933228 0.12825807929039001
0.8002428412437439 0.7612953782081604 0.1256728321313858
0.86848598718643188 0.77006804943084717 0.12249942868947983
0.93553107976913452 0.77830523252487183 0.11957591772079468
0.060681961476802826 0.74519932270050049 0.095237895846366882
0.14523190259933472 0.75341153144836426 0.1027558445930481
0.22647127509117126 0.76233232021331787 0.10991755127906799
0.30467534065246582 0.77154481410980225 0.11669634282588959
0.38043564558029175 0.78094029426574707 0.12289995700120926
0.4537164568901062 0.79027199745178223 0.12818662822246552
0.52556407451629639 0.79955685138702393 0.13212326169013977
0.59666621685028076 0.80889111757278442 0.1341530829668045
0.66750657558441162 0.81823819875717163 0.13379453122615814
0.73795640468597412 0.82761889696121216 0.13166189193725586
0.8076789379119873 0.83697295188903809 0.12814722955226898
0.87641823291778564 0.84587234258651733 0.12426033616065979
0.94394028186798096 0.85421568155288696 0.12060929834842682
0.058721072971820831 0.81612879037857056 0.099104605615139008
0.1438787430524826 0.82480663061141968 0.10694187879562378
0.22585985064506531 0.83412826061248779 0.11452940106391907
0.30456957221031189 0.84377479553222656 0.12154446542263031
0.38119456171989441 0.85358697175979614 0.12784142792224884
0.45550906658172607 0.86341816186904907 0.13305635750293732
0.52835613489151001 0.87325000762939453 0.1367223709821701
0.60033977031707764 0.88319629430770874 0.13848128914833069
0.67190444469451904 0.89306163787841797 0.13781118392944336
0.74297112226486206 0.90285629034042358 0.13531176745891571
0.81314188241958618 0.9124605655670166 0.13156281411647797
0.88238275051116943 0.92166924476623535 0.12707433104515076
0.95008933544158936 0.92993348836898804 0.12360278517007828
0.048537071794271469 0.043974783271551132 0.084631673991680145
0.13427530229091644 0.042742006480693817 0.089469209313392639
0.20914669334888458 0.043831516057252884 0.092687539756298065
0.27581223845481873 0.045292887836694717 0.095692023634910583
0.33797356486320496 0.046616841107606888 0.098931841552257538
0.39789897203445435 0.046286996454000473 0.10272990167140961
0.45734715461730957 0.045374326407909393 0.10720908641815186
0.51635545492172241 0.044330552220344543 0.11179018020629883
0.57568836212158203 0.044549200683832169 0.11553165316581726
0.63519179821014404 0.045935969799757004 0.11871390044689178
0.69536638259887695 0.046869583427906036 0.12150388211011887
0.7560122013092041 0.047578535974025726 0.12373917549848557
0.8174397349357605 0.047605566680431366 0.12481355667114258
0.049696918576955795 0.11259285360574722 0.089453361928462982
0.1352870911359787 0.11160589754581451 0.094121314585208893
0.21136900782585144 0.11232830584049225 0.098052002489566803
0.27923393249511719 0.11458323150873184 0.10182743519544601
0.34238326549530029 0.11618971079587936 0.10594823211431503
0.4037642776966095 0.11670415848493576 0.10994353890419006
0.46398204565048218 0.11672249436378479 0.1138041764497757
0.52403557300567627 0.11695006489753723 0.11760349571704865
0.58411526679992676 0.11800184100866318 0.12113167345523834
0.64459800720214844 0.11960127949714661 0.12452969700098038
0.70551067590713501 0.12141994386911392 0.12806494534015656
0.76714366674423218 0.12296056002378464 0.13107322156429291
0.82922202348709106 0.12364376336336136 0.13286922872066498
0.051446892321109772 0.17459867894649506 0.095501996576786041
0.13534684479236603 0.17579507827758789 0.10000580549240112
0.21160213649272919 0.17789536714553833 0.1043664813041687
0.28107947111129761 0.18107487261295319 0.10891114920377731
0.3459954559803009 0.18323758244514465 0.11383340507745743
0.40950262546539307 0.18419508635997772 0.11833717674016953
0.47142377495765686 0.18528103828430176 0.12157371640205383
0.53228485584259033 0.18702296912670135 0.12384694069623947
0.59300011396408081 0.18939359486103058 0.12649407982826233
0.6542096734046936 0.19170589745044708 0.12997537851333618
0.71598255634307861 0.19405707716941833 0.13389712572097778
0.77846598625183105 0.19593465328216553 0.1374666839838028
0.84146082401275635 0.19745555520057678 0.13993881642818451
0.051873583346605301 0.23466897010803223 0.10268200188875198
0.13480612635612488 0.23726958036422729 0.10732641816139221
0.21103395521640778 0.24119986593723297 0.11207298189401627
0.2817656397819519 0.24554009735584259 0.11708957701921463
0.34920084476470947 0.24835118651390076 0.12256668508052826
0.41534414887428284 0.24961687624454498 0.12760826945304871
0.47911736369132996 0.25168398022651672 0.13025043904781342
0.54102301597595215 0.25497180223464966 0.13141204416751862
0.60240870714187622 0.25852522253990173 0.13312935829162598
0.66432446241378784 0.26165130734443665 0.13642571866512299
0.7269403338432312 0.26465743780136108 0.14046376943588257
0.79011744260787964 0.26752877235412598 0.14417676627635956
0.85384339094161987 0.27002593874931335 0.14664846658706665
0.051057104021310806 0.29299235343933105 0.11048874258995056
0.13323956727981567 0.29754224419593811 0.11551076918840408
0.2103075385093689 0.30289450287818909 0.12023665755987167
