assets/lut/creative horrorblue.cube
# Created by: G'MIC (https://gmic.eu)
TITLE "horrorblue"
# LUT size
LUT_3D_SIZE 5
# Data domain
DOMAIN_MIN 0.0 0.0 0.0
DOMAIN_MAX 1.0 1.0 1.0
# LUT data points
0.0028494291473180056 0.076355338096618652 0.1210283488035202
0.19274319708347321 0.041362956166267395 0.085271246731281281
0.40171772241592407 0.010446511209011078 0.044946722686290741
0.67359602451324463 0.011363010853528976 0.081989318132400513
0.97070467472076416 0.023214077576994896 0.15141254663467407
0.0011468026787042618 0.21300302445888519 0.12256822735071182
0.17592498660087585 0.21785852313041687 0.11422012746334076
0.42014986276626587 0.23378963768482208 0.038466598838567734
0.73192411661148071 0.24935610592365265 0.021367361769080162
0.9876975417137146 0.29124543070793152 0.099862508475780487
0.055122628808021545 0.49043595790863037 0.2639223039150238
0.26086512207984924 0.49708041548728943 0.26349976658821106
0.49617454409599304 0.52765423059463501 0.28733232617378235
0.77122455835342407 0.55088794231414795 0.2309204488992691
0.99254852533340454 0.53192508220672607 0.05709037184715271
0.32545924186706543 0.77234429121017456 0.4137917160987854
0.45820295810699463 0.76957160234451294 0.40991029143333435
0.64592939615249634 0.76869255304336548 0.40157121419906616
0.84380191564559937 0.76466572284698486 0.407358318567276
0.99383032321929932 0.74658644199371338 0.35218039155006409
0.56635922193527222 0.95585465431213379 0.48190587759017944
0.63858294486999512 0.94811773300170898 0.47344765067100525
0.78097057342529297 0.93451082706451416 0.45182082056999207
0.93437767028808594 0.91812425851821899 0.44886672496795654
1 0.89855426549911499 0.45763784646987915
0 0.081281684339046478 0.23917154967784882
0.077695570886135101 0.099264748394489288 0.23348495364189148
0.24160781502723694 0.16262818872928619 0.26563391089439392
0.52667075395584106 0.21928997337818146 0.33555585145950317
0.90320432186126709 0.26625281572341919 0.40863215923309326
0 0.22558988630771637 0.26511743664741516
0.0451214499771595 0.24847234785556793 0.27864083647727966
0.30837586522102356 0.28060495853424072 0.30174297094345093
0.6258469820022583 0.33411890268325806 0.35229402780532837
0.96152025461196899 0.36097562313079834 0.39967706799507141
0.00055555457947775722 0.49412059783935547 0.4012482762336731
0.066613964736461639 0.51506698131561279 0.39941644668579102
0.40441069006919861 0.54171442985534668 0.41285783052444458
0.72289776802062988 0.57509684562683105 0.36018654704093933
0.98961573839187622 0.55710458755493164 0.30134090781211853
0.18301284313201904 0.78322124481201172 0.51149928569793701
0.32999274134635925 0.78810817003250122 0.49928531050682068
0.57187306880950928 0.78149467706680298 0.503348708152771
0.78968518972396851 0.78001683950424194 0.50400608777999878
0.992931067943573 0.76638168096542358 0.4338938295841217
0.4729621410369873 0.9715343713760376 0.52401965856552124
0.55917477607727051 0.95962977409362793 0.53100430965423584
0.72008681297302246 0.94639128446578979 0.5385667085647583
0.90114337205886841 0.9312889575958252 0.52337831258773804
0.99948233366012573 0.91343587636947632 0.53104197978973389
0 0.098711170256137848 0.34651312232017517
0.0305799450725317 0.12134170532226562 0.3487389087677002
0.22274863719940186 0.18633748590946198 0.38715654611587524
0.43781036138534546 0.31134033203125 0.48116546869277954
0.69708460569381714 0.45043349266052246 0.58841121196746826
0 0.24263083934783936 0.38685816526412964
0.0047224755398929119 0.26833030581474304 0.40474531054496765
0.21799799799919128 0.32242906093597412 0.45088943839073181
0.46661242842674255 0.43012860417366028 0.53554713726043701
0.76639127731323242 0.52327924966812134 0.62615871429443359
0 0.51688897609710693 0.53230196237564087
0.031996753066778183 0.5359383225440979 0.54863899946212769
0.25541287660598755 0.57718753814697266 0.58318412303924561
0.58787405490875244 0.61771434545516968 0.61522012948989868
0.91084581613540649 0.62233883142471313 0.62840193510055542
0.13082681596279144 0.79074585437774658 0.66038614511489868
0.23768091201782227 0.79494321346282959 0.66492187976837158
0.44166639447212219 0.807445228099823 0.65734541416168213
0.70791530609130859 0.80625724792480469 0.64658021926879883
0.97601866722106934 0.79087406396865845 0.56060868501663208
0.4428977370262146 0.96753573417663574 0.68572646379470825
0.48818358778953552 0.96569573879241943 0.67668312788009644
0.60324901342391968 0.96959298849105835 0.65053701400756836
0.82204192876815796 0.94863909482955933 0.65180492401123047
0.9893154501914978 0.92220771312713623 0.64491969347000122
0 0.12861433625221252 0.45851448178291321
0.014675409533083439 0.1550392210483551 0.4744299054145813
0.21564759314060211 0.22308845818042755 0.52204805612564087
0.44484308362007141 0.33942922949790955 0.62014800310134888
0.69709575176239014 0.48513290286064148 0.72597253322601318
0 0.27683559060096741 0.5250127911567688
0.0057056499645113945 0.2955968976020813 0.54243052005767822
0.20344674587249756 0.35903605818748474 0.59408509731292725
0.46613782644271851 0.45312660932540894 0.67373782396316528
0.71654725074768066 0.56566143035888672 0.7580447793006897
0 0.53332185745239258 0.6718524694442749
0.0060807471163570881 0.5574573278427124 0.6920742392539978
0.23944553732872009 0.60125935077667236 0.72274041175842285
0.51071995496749878 0.65166383981704712 0.75931841135025024
0.75409221649169922 0.69861787557601929 0.79143553972244263
0.1492745578289032 0.79594206809997559 0.78176683187484741
0.2373550683259964 0.80162769556045532 0.78475582599639893
0.41483226418495178 0.8152320384979248 0.79808205366134644
0.60899513959884644 0.83174479007720947 0.80367434024810791
0.87080127000808716 0.83136063814163208 0.80328404903411865
0.43004775047302246 0.96942871809005737 0.81622099876403809
0.48407146334648132 0.96816456317901611 0.8149915337562561
0.57043027877807617 0.96761327981948853 0.81772255897521973
0.71332526206970215 0.97501510381698608 0.81093120574951172
0.95228248834609985 0.94729357957839966 0.79755270481109619
0 0.18266651034355164 0.59840846061706543
0.014597978442907333 0.20874683558940887 0.61919623613357544
0.23564155399799347 0.2720942497253418 0.66923332214355469
0.46613919734954834 0.38497433066368103 0.76394671201705933
0.71596693992614746 0.51849794387817383 0.86617320775985718
0 0.3131166398525238 0.666736900806427
0.018901046365499496 0.34555190801620483 0.69275069236755371
0.23492333292961121 0.40181723237037659 0.74545896053314209
0.48831573128700256 0.49432337284088135 0.82388567924499512
0.72631007432937622 0.58472239971160889 0.89181149005889893
0 0.57073181867599487 0.82008850574493408
0.011422849260270596 0.58732897043228149 0.83690470457077026
0.26093763113021851 0.62764447927474976 0.86764746904373169
0.52167558670043945 0.66964459419250488 0.90153408050537109
0.76484060287475586 0.70488572120666504 0.92829698324203491
0.12956306338310242 0.80996239185333252 0.93042480945587158
0.245949387550354 0.81155890226364136 0.9278254508972168
0.40712681412696838 0.82426369190216064 0.93263208866119385
0.60907638072967529 0.8375476598739624 0.93473356962203979
0.81493395566940308 0.85226845741271973 0.93743407726287842
0.4441065788269043 0.97223788499832153 0.93832147121429443
0.48754420876502991 0.97045964002609253 0.93376845121383667
0.57232087850570679 0.97210437059402466 0.93355041742324829
0.70988988876342773 0.98000967502593994 0.94235658645629883
0.87868750095367432 0.9640306830406189 0.94276553392410278
