assets/lut/creative colornegative.cube
# Created by: G'MIC (https://gmic.eu)
TITLE "colornegative"
# LUT size
LUT_3D_SIZE 5
# Data domain
DOMAIN_MIN 0.0 0.0 0.0
DOMAIN_MAX 1.0 1.0 1.0
# LUT data points
0.93270611763000488 0.79819333553314209 0.69007539749145508
0.60079061985015869 0.81250941753387451 0.70233714580535889
0.28561842441558838 0.814491868019104 0.71597790718078613
0.086684301495552063 0.80646097660064697 0.70448261499404907
0 0.80411839485168457 0.68340229988098145
0.94588965177536011 0.37500837445259094 0.71027499437332153
0.63561528921127319 0.38921922445297241 0.73733675479888916
0.37504240870475769 0.41286638379096985 0.74787968397140503
0.17178937792778015 0.42147797346115112 0.7419160008430481
0.0058683059178292751 0.42740058898925781 0.74257898330688477
0.9491201639175415 0.072328530251979828 0.72826981544494629
0.64993172883987427 0.1485915333032608 0.7353789210319519
0.39856874942779541 0.18841896951198578 0.7497754693031311
0.20689001679420471 0.19429358839988708 0.74875730276107788
0.04524371400475502 0.21604081988334656 0.73892062902450562
0.95147347450256348 0 0.71733981370925903
0.65226715803146362 0.03346029669046402 0.72815912961959839
0.40666091442108154 0.073601998388767242 0.74244827032089233
0.22768756747245789 0.095013275742530823 0.74413043260574341
0.069132618606090546 0.10903598368167877 0.73540514707565308
0.94736963510513306 0 0.7325127124786377
0.65246975421905518 0 0.73385459184646606
0.40975064039230347 0.0072626001201570034 0.74612826108932495
0.23649895191192627 0.025558186694979668 0.73639613389968872
0.084236547350883484 0.043558862060308456 0.74941682815551758
0.93489199876785278 0.80078250169754028 0.10855801403522491
0.61127561330795288 0.80937474966049194 0.17117922008037567
0.30160558223724365 0.81835532188415527 0.16251365840435028
0.064041674137115479 0.81408810615539551 0.22039060294628143
0.001868767780251801 0.81407850980758667 0.21277275681495667
0.94941991567611694 0.37704747915267944 0.25015118718147278
0.64669853448867798 0.40880358219146729 0.29877054691314697
0.39125785231590271 0.43003144860267639 0.31255379319190979
0.17284606397151947 0.43616849184036255 0.32792088389396667
0.013158072717487812 0.44113236665725708 0.34160050749778748
0.94825953245162964 0.090073637664318085 0.28594869375228882
0.6523318886756897 0.16971105337142944 0.32334885001182556
0.411916583776474 0.20438528060913086 0.34028708934783936
0.22489863634109497 0.21459269523620605 0.35450217127799988
0.05506814643740654 0.22306340932846069 0.34648001194000244
0.95040470361709595 0 0.30189374089241028
0.65201729536056519 0.032522432506084442 0.33163934946060181
0.41189107298851013 0.079996161162853241 0.34125885367393494
0.23463955521583557 0.099554397165775299 0.35671296715736389
0.076062209904193878 0.11139922589063644 0.35321912169456482
0.94734126329421997 0.0073042027652263641 0.30525365471839905
0.65373343229293823 0.00038797713932581246 0.32769325375556946
0.41543662548065186 0.011326554231345654 0.3460746705532074
0.23924686014652252 0.031055765226483345 0.34735575318336487
0.086362339556217194 0.048637885600328445 0.34845161437988281
0.9316176176071167 0.80270862579345703 0
0.6123349666595459 0.80808210372924805 0
0.32248502969741821 0.81382888555526733 0
0.082658283412456512 0.81336444616317749 0
0 0.81555294990539551 0.00025455249124206603
0.94904124736785889 0.39128962159156799 6.5702552092261612e-05
0.64449912309646606 0.41887879371643066 0.010349826887249947
0.40034472942352295 0.42867657542228699 0.053059909492731094
0.19205808639526367 0.43179523944854736 0.068495795130729675
0.026513192802667618 0.44304850697517395 0.10124815255403519
0.95197165012359619 0.091830864548683167 0.00031594670144841075
0.65273445844650269 0.17927786707878113 0.065940827131271362
0.4118516743183136 0.20890232920646667 0.12311634421348572
0.22683393955230713 0.22636544704437256 0.14127688109874725
0.069981396198272705 0.22808448970317841 0.14397139847278595
0.94605809450149536 0 0.02133229561150074
0.64931851625442505 0.029527133330702782 0.096431583166122437
0.40988752245903015 0.082104191184043884 0.13731136918067932
0.23804904520511627 0.10917923599481583 0.15838785469532013
0.086952269077301025 0.11834109574556351 0.16455265879631042
0.94662195444107056 0.00012135224824305624 0.013679444789886475
0.65131384134292603 0 0.10542619228363037
0.41275227069854736 0.0042933742515742779 0.14715611934661865
0.23851801455020905 0.035294700413942337 0.15979427099227905
0.093788519501686096 0.053154006600379944 0.16933643817901611
0.93244904279708862 0.80201864242553711 0.0063450532034039497
0.60719436407089233 0.80687350034713745 0
0.30914750695228577 0.81246328353881836 0
0.055083524435758591 0.81261688470840454 0.006423561368137598
0 0.80936902761459351 0
0.94594764709472656 0.39788517355918884 0.0052814260125160217
0.64072906970977783 0.4200497567653656 0
0.39648410677909851 0.42886596918106079 0
0.19371044635772705 0.43081215023994446 0
0.022378658875823021 0.43604621291160583 0.0034636552445590496
0.95254462957382202 0.13352745771408081 6.8933826696593314e-05
0.65227127075195312 0.18522682785987854 0
0.40782919526100159 0.21390795707702637 0.012572314590215683
0.23073448240756989 0.22447329759597778 0.031630810350179672
0.074573799967765808 0.2252080887556076 0.039600104093551636
0.94540268182754517 0.00021016737446188927 0
0.64923679828643799 0.041615594178438187 0
0.40813863277435303 0.092660136520862579 0.02064870111644268
0.23993301391601562 0.10919827967882156 0.061760533601045609
0.092893950641155243 0.1218944638967514 0.074454031884670258
0.94399243593215942 0 0
0.65269976854324341 0 0
0.41024529933929443 0.01082325354218483 0.035233337432146072
0.2363356351852417 0.0423419289290905 0.069898687303066254
0.093940988183021545 0.059169471263885498 0.090082131326198578
0.93284618854522705 0.79164016246795654 0.0067764432169497013
0.6149328351020813 0.80392849445343018 0.0032958535011857748
0.34205165505409241 0.81421101093292236 0.0051548229530453682
0.13128508627414703 0.80830127000808716 0.015664104372262955
0.0051214480772614479 0.81830394268035889 0.0014976501697674394
0.94423902034759521 0.39698553085327148 0.002154181944206357
0.6416814923286438 0.42074000835418701 0.0027236638125032187
0.39936664700508118 0.42562201619148254 0.001020528725348413
0.19465641677379608 0.4313105046749115 0.0032265607733279467
0.011612103320658207 0.43192988634109497 7.0010914896556642e-06
0.94794493913650513 0.13081128895282745 0.00073287065606564283
0.65274238586425781 0.19187113642692566 5.2508185035549104e-05
0.4140249490737915 0.21493205428123474 0
0.23187276721000671 0.22332361340522766 0.00068425195058807731
0.071389488875865936 0.22749222815036774 0.0056598735973238945
0.94679409265518188 6.8260640546213835e-05 0
0.65168273448944092 0.032918639481067657 0
0.41158783435821533 0.095660269260406494 0.0022311042994260788
0.23722180724143982 0.1143626794219017 0.018245307728648186
0.093062609434127808 0.12158382683992386 0.034554246813058853
0.94701868295669556 6.5732470829971135e-05 0.0013272901996970177
0.65280675888061523 0 0
0.4122893214225769 0.011096850037574768 0.008249589242041111
0.23772884905338287 0.044685933738946915 0.02748667448759079
0.096390590071678162 0.060220412909984589 0.055584970861673355
