assets/lut/creative tensiongreen 04.cube
# Created by: G'MIC (https://gmic.eu)
TITLE "tensiongreen_4"
# LUT size
LUT_3D_SIZE 5
# Data domain
DOMAIN_MIN 0.0 0.0 0.0
DOMAIN_MAX 1.0 1.0 1.0
# LUT data points
0.072010025382041931 0.079787984490394592 0.080251432955265045
0.13457642495632172 0.10731121897697449 0.10078778862953186
0.21668322384357452 0.13345873355865479 0.1202738881111145
0.33990144729614258 0.17208972573280334 0.15178777277469635
0.46729305386543274 0.19567815959453583 0.18329815566539764
0.10933145135641098 0.14793799817562103 0.11218969523906708
0.15221154689788818 0.17080727219581604 0.11403675377368927
0.25255084037780762 0.2108958512544632 0.13850046694278717
0.39508703351020813 0.25981152057647705 0.17774572968482971
0.55795955657958984 0.31432786583900452 0.21870338916778564
0.18710440397262573 0.2694646418094635 0.17709551751613617
0.22066603600978851 0.28380462527275085 0.16488417983055115
0.29984369874000549 0.32963737845420837 0.18697331845760345
0.449806809425354 0.39719957113265991 0.21981574594974518
0.65425676107406616 0.4574611485004425 0.26075318455696106
0.36166438460350037 0.49549344182014465 0.32838979363441467
0.37933012843132019 0.50178295373916626 0.31161093711853027
0.45306301116943359 0.53698241710662842 0.31481608748435974
0.60200363397598267 0.62644243240356445 0.3831595778465271
0.79342073202133179 0.70689553022384644 0.42421445250511169
0.60426121950149536 0.80024319887161255 0.54323285818099976
0.62117135524749756 0.80760765075683594 0.53325289487838745
0.67525666952133179 0.8263479471206665 0.51565378904342651
0.81112629175186157 0.89694792032241821 0.55663245916366577
0.96957427263259888 0.9751659631729126 0.61934572458267212
0.081628598272800446 0.094611287117004395 0.10279282182455063
0.12825515866279602 0.12778885662555695 0.1314188688993454
0.19896498322486877 0.18620547652244568 0.172573521733284
0.34510239958763123 0.26943263411521912 0.24371792376041412
0.55179667472839355 0.34028002619743347 0.32397875189781189
0.13086742162704468 0.1674959808588028 0.14693817496299744
0.16450004279613495 0.19367387890815735 0.16578598320484161
0.2644752562046051 0.24851876497268677 0.20870323479175568
0.41630423069000244 0.31735804677009583 0.26792106032371521
0.61979103088378906 0.39340817928314209 0.34735676646232605
0.23204730451107025 0.30774915218353271 0.24303364753723145
0.25956830382347107 0.33000472187995911 0.25127902626991272
0.33744600415229797 0.37521252036094666 0.2684347927570343
0.48955705761909485 0.43361130356788635 0.29660013318061829
0.69737458229064941 0.50805419683456421 0.35702741146087646
0.41068804264068604 0.53828603029251099 0.41015559434890747
0.42127677798271179 0.5458531379699707 0.39952337741851807
0.47964629530906677 0.57460492849349976 0.39263144135475159
0.63619029521942139 0.66688770055770874 0.4576876163482666
0.82888698577880859 0.74232339859008789 0.50155860185623169
0.64979803562164307 0.84120291471481323 0.62505573034286499
0.66475480794906616 0.85131174325942993 0.61922246217727661
0.70529407262802124 0.8677370548248291 0.59558588266372681
0.82714563608169556 0.9255903959274292 0.6177215576171875
0.99035626649856567 0.99262064695358276 0.69946068525314331
0.11502154171466827 0.12324351817369461 0.14251706004142761
0.1458929032087326 0.14897562563419342 0.16637983918190002
0.22546374797821045 0.21933041512966156 0.22165882587432861
0.32279118895530701 0.30646705627441406 0.28619301319122314
0.485635906457901 0.42363962531089783 0.39210817217826843
0.15622077882289886 0.19631652534008026 0.19155076146125793
0.18744702637195587 0.22475534677505493 0.2144978940486908
0.26477786898612976 0.27826476097106934 0.2598423957824707
0.36567404866218567 0.35872498154640198 0.32412081956863403
0.55674284696578979 0.48071908950805664 0.43871930241584778
0.26245060563087463 0.33749818801879883 0.28643688559532166
0.30247679352760315 0.37391310930252075 0.31995236873626709
0.3593786358833313 0.4124239981174469 0.35114476084709167
0.5155760645866394 0.49838149547576904 0.42577067017555237
0.73886239528656006 0.60337883234024048 0.53083783388137817
0.45556974411010742 0.57738965749740601 0.47663033008575439
0.48349159955978394 0.596027672290802 0.49610555171966553
0.53903830051422119 0.63593453168869019 0.52238613367080688
0.66295152902603149 0.71106541156768799 0.56060755252838135
0.88605803251266479 0.7946772575378418 0.6140674352645874
0.73866528272628784 0.91001486778259277 0.75437229871749878
0.75730127096176147 0.92244648933410645 0.7626914381980896
0.77938103675842285 0.94241428375244141 0.75333333015441895
0.8685382604598999 0.9773329496383667 0.74668914079666138
0.99732184410095215 0.99873745441436768 0.8199579119682312
0.15235717594623566 0.16148966550827026 0.19538415968418121
0.18474812805652618 0.19063134491443634 0.22021470963954926
0.25652381777763367 0.25375580787658691 0.27058494091033936
0.35733833909034729 0.34011384844779968 0.3422597348690033
0.50804823637008667 0.46385851502418518 0.44834485650062561
0.19261224567890167 0.23624542355537415 0.24504128098487854
0.22484564781188965 0.26066684722900391 0.2676551342010498
0.29652398824691772 0.31504595279693604 0.31365483999252319
0.40107709169387817 0.3972133994102478 0.38631162047386169
0.56232422590255737 0.52821171283721924 0.50199604034423828
0.29572954773902893 0.37681615352630615 0.34728574752807617
0.32760772109031677 0.40219104290008545 0.36931240558624268
0.38746866583824158 0.45085588097572327 0.41236680746078491
0.51597088575363159 0.54100143909454346 0.49951896071434021
0.67279607057571411 0.65751630067825317 0.61011862754821777
0.49917331337928772 0.62006258964538574 0.54600495100021362
0.52851474285125732 0.63824248313903809 0.56299149990081787
0.59241259098052979 0.68378835916519165 0.60812115669250488
0.70152628421783447 0.76706224679946899 0.684856116771698
0.9095529317855835 0.8800702691078186 0.79200440645217896
0.77330029010772705 0.94431757926940918 0.81660240888595581
0.80055117607116699 0.96175497770309448 0.83527117967605591
0.85703223943710327 0.9875786304473877 0.87463796138763428
0.94851148128509521 0.99802833795547485 0.92830520868301392
0.99923187494277954 0.99987632036209106 0.97360551357269287
0.20450033247470856 0.21578449010848999 0.26163017749786377
0.23698176443576813 0.24521069228649139 0.28420421481132507
0.30065780878067017 0.29989001154899597 0.33123272657394409
0.40552392601966858 0.38514396548271179 0.41295728087425232
0.56057864427566528 0.51217019557952881 0.5316241979598999
0.24633917212486267 0.28404611349105835 0.30693119764328003
0.27829936146736145 0.307047039270401 0.33179447054862976
0.34125757217407227 0.35739752650260925 0.37679553031921387
0.44984534382820129 0.44890028238296509 0.46440762281417847
0.6191214919090271 0.58366149663925171 0.59494572877883911
0.35055139660835266 0.43283149600028992 0.43006300926208496
0.37512227892875671 0.4501921534538269 0.44808158278465271
0.44473913311958313 0.50790631771087646 0.50274491310119629
0.56473404169082642 0.59521174430847168 0.58658629655838013
0.71259045600891113 0.70057052373886108 0.6908075213432312
0.54588401317596436 0.67095726728439331 0.63482511043548584
0.57435309886932373 0.68799293041229248 0.64937257766723633
0.64012038707733154 0.73857229948043823 0.69560390710830688
0.74082094430923462 0.81444931030273438 0.76891577243804932
0.90183955430984497 0.9264838695526123 0.8812941312789917
0.81859356164932251 0.98034095764160156 0.8925701379776001
0.85436052083969116 0.98998576402664185 0.92600816488265991
0.90639716386795044 0.99602609872817993 0.95886099338531494
0.99178957939147949 0.99997901916503906 0.99828851222991943
0.99963593482971191 1 0.99925500154495239
