assets/lut/creative horrorblue.cube
# Created by: G'MIC (https://gmic.eu)
TITLE "horrorblue"
# LUT size
LUT_3D_SIZE 7
# Data domain
DOMAIN_MIN 0.0 0.0 0.0
DOMAIN_MAX 1.0 1.0 1.0
# LUT data points
0.0028494291473180056 0.076355338096618652 0.1210283488035202
0.11234071105718613 0.059067297726869583 0.10532525926828384
0.26085728406906128 0.023602010682225227 0.064720675349235535
0.40171772241592407 0.010446511209011078 0.044946722686290741
0.57669961452484131 0.017137130722403526 0.067220412194728851
0.78084784746170044 0.0098151415586471558 0.10088468343019485
0.97070467472076416 0.023214077576994896 0.15141254663467407
0.0016214856877923012 0.15261064469814301 0.11033234000205994
0.095128409564495087 0.14567402005195618 0.094412796199321747
0.2533600926399231 0.1385125070810318 0.033771738409996033
0.41695821285247803 0.13067013025283813 0.021470207720994949
0.59738141298294067 0.15010188519954681 0.03771432489156723
0.79292303323745728 0.17495232820510864 0.081042543053627014
0.97785097360610962 0.19256031513214111 0.14111579954624176
0.0037812027148902416 0.2960764467716217 0.15840485692024231
0.10543154180049896 0.29314777255058289 0.15290318429470062
0.26783084869384766 0.31644028425216675 0.17224001884460449
0.4328213632106781 0.32987341284751892 0.12638434767723083
0.64027398824691772 0.34793654084205627 0.055097781121730804
0.85542577505111694 0.35580718517303467 0.024950290098786354
0.99300003051757812 0.35066556930541992 0.040949549525976181
0.055122628808021545 0.49043595790863037 0.2639223039150238
0.17139641940593719 0.49180948734283447 0.26021543145179749
0.34658840298652649 0.50725215673446655 0.27091720700263977
0.49617454409599304 0.52765423059463501 0.28733232617378235
0.67533618211746216 0.54587513208389282 0.26664641499519348
0.86764293909072876 0.54886770248413086 0.17330515384674072
0.99254852533340454 0.53192508220672607 0.05709037184715271
0.22082901000976562 0.6932491660118103 0.37632584571838379
0.31866824626922607 0.69606626033782959 0.37886643409729004
0.46497145295143127 0.69724452495574951 0.37160205841064453
0.59114986658096313 0.7013201117515564 0.37160861492156982
0.7379080057144165 0.70473313331604004 0.3847011923789978
0.89236629009246826 0.70118898153305054 0.36471977829933167
0.99618446826934814 0.68563985824584961 0.25947755575180054
0.4278528094291687 0.83732682466506958 0.4436170756816864
0.47713151574134827 0.83950656652450562 0.44440516829490662
0.5827484130859375 0.8336067795753479 0.42640388011932373
0.70034998655319214 0.82816821336746216 0.42295438051223755
0.81927132606506348 0.82263970375061035 0.42349949479103088
0.94312030076980591 0.81260329484939575 0.42339992523193359
0.99582767486572266 0.80067861080169678 0.41194272041320801
0.56635922193527222 0.95585465431213379 0.48190587759017944
0.60801541805267334 0.95286637544631958 0.47834527492523193
0.68177676200866699 0.94189774990081787 0.46488869190216064
0.78097057342529297 0.93451082706451416 0.45182082056999207
0.888652503490448 0.92380642890930176 0.44790595769882202
0.97608339786529541 0.91523110866546631 0.45160701870918274
1 0.89855426549911499 0.45763784646987915
0 0.079205699265003204 0.19650506973266602
0.039636902511119843 0.082321673631668091 0.19178564846515656
0.15905016660690308 0.10329410433769226 0.19446156919002533
0.29510709643363953 0.11792716383934021 0.21333600580692291
0.49703207612037659 0.12180512398481369 0.23602278530597687
0.71803003549575806 0.12458077073097229 0.26570090651512146
0.94517034292221069 0.1457924097776413 0.31463256478309631
0 0.15519331395626068 0.20009154081344604
0.017964441329240799 0.16015197336673737 0.19788080453872681
0.1753336638212204 0.17111000418663025 0.19312021136283875
0.34414273500442505 0.18609344959259033 0.2123381495475769
0.54000842571258545 0.20474410057067871 0.23626132309436798
0.75694698095321655 0.21987934410572052 0.26577341556549072
0.9725111722946167 0.22888214886188507 0.30709207057952881
0.00029913210892118514 0.30059888958930969 0.25485852360725403
0.016056733205914497 0.30858388543128967 0.24948948621749878
0.18810665607452393 0.32397392392158508 0.25324377417564392
0.39108419418334961 0.34271502494812012 0.22018024325370789
0.612091064453125 0.36579981446266174 0.1971859484910965
0.81165939569473267 0.39481091499328613 0.23053827881813049
0.9831308126449585 0.41479718685150146 0.27367690205574036
0.0091145085170865059 0.49381420016288757 0.33908671140670776
0.041431665420532227 0.5000755786895752 0.32697346806526184
0.26415422558784485 0.51643991470336914 0.34866601228713989
0.44757562875747681 0.53866356611251831 0.35790169239044189
0.64706659317016602 0.55726355314254761 0.3293459415435791
0.85039359331130981 0.56170594692230225 0.26572385430335999
0.9949759840965271 0.54090887308120728 0.17452087998390198
0.11688323318958282 0.70453232526779175 0.42658120393753052
0.21705874800682068 0.7077333927154541 0.43219715356826782
0.39675891399383545 0.70997148752212524 0.43580988049507141
0.55374240875244141 0.70949816703796387 0.43274027109146118
0.69888496398925781 0.71289336681365967 0.44078105688095093
0.86294019222259521 0.71365475654602051 0.42246651649475098
0.99401789903640747 0.69416660070419312 0.31681516766548157
0.34707385301589966 0.84841620922088623 0.46860599517822266
0.4164128303527832 0.8469201922416687 0.47654399275779724
0.53051042556762695 0.84034466743469238 0.48159220814704895
0.6617124080657959 0.83572483062744141 0.47320225834846497
0.7896963357925415 0.82727360725402832 0.47288340330123901
0.9195563793182373 0.82015252113342285 0.47378596663475037
0.99464863538742065 0.81047922372817993 0.45084571838378906
0.50921666622161865 0.96441900730133057 0.50086420774459839
0.55911868810653687 0.96109449863433838 0.50658965110778809
0.64358437061309814 0.94840312004089355 0.50578826665878296
0.74861717224121094 0.94222104549407959 0.49827340245246887
0.87303882837295532 0.92949360609054565 0.4877760112285614
0.96529805660247803 0.92046904563903809 0.48976802825927734
0.9999271035194397 0.90785717964172363 0.49802049994468689
0 0.082137927412986755 0.27688470482826233
0.011728622950613499 0.094512820243835449 0.27249595522880554
0.12041082978248596 0.12168701738119125 0.27773836255073547
0.23446260392665863 0.17144671082496643 0.30677250027656555
0.37818711996078491 0.24351382255554199 0.36088678240776062
0.57527965307235718 0.30289903283119202 0.42627683281898499
0.83013629913330078 0.35296517610549927 0.48644047975540161
0 0.16700680553913116 0.28565314412117004
0.0021163341589272022 0.17715150117874146 0.28763392567634583
0.093237720429897308 0.19895215332508087 0.30238452553749084
0.23680441081523895 0.24644911289215088 0.33829399943351746
0.40398547053337097 0.30099707841873169 0.38745209574699402
0.61998534202575684 0.35188895463943481 0.44725438952445984
0.87293404340744019 0.38759893178939819 0.49372151494026184
0 0.31260770559310913 0.34270128607749939
0.0022161295637488365 0.31887045502662659 0.34633249044418335
0.059697601944208145 0.34399431943893433 0.36764419078826904
0.28458055853843689 0.37262266874313354 0.3894900381565094
0.50429332256317139 0.414701908826828 0.42943289875984192
0.72131729125976562 0.44762414693832397 0.46144342422485352
0.94426751136779785 0.46636554598808289 0.48358181118965149
1.8310547602595761e-05 0.49845635890960693 0.44585379958152771
0.0033564399927854538 0.51302331686019897 0.45584836602210999
0.08866456151008606 0.53119832277297974 0.4619758129119873
0.35791876912117004 0.55329698324203491 0.47053754329681396
0.59158849716186523 0.57846981287002563 0.44218647480010986
0.79772025346755981 0.58547681570053101 0.42564469575881958
0.98069930076599121 0.57945430278778076 0.4289950430393219
0.047185532748699188 0.70787954330444336 0.54634219408035278
0.09938734769821167 0.71168732643127441 0.54710811376571655
0.26857146620750427 0.72404205799102783 0.53571039438247681
0.47264337539672852 0.72314858436584473 0.53421813249588013
0.64530771970748901 0.73236173391342163 0.53576362133026123
0.81826967000961304 0.72957694530487061 0.50309306383132935
0.98528951406478882 0.71195042133331299 0.4179820716381073
0.28621479868888855 0.85009318590164185 0.58121341466903687
0.33200612664222717 0.85222148895263672 0.57444286346435547
0.43527621030807495 0.85428011417388916 0.56141889095306396
0.58251482248306274 0.85177302360534668 0.56658309698104858
0.74147963523864746 0.84265929460525513 0.55755466222763062
0.87861531972885132 0.84083265066146851 0.55579233169555664
0.99105972051620483 0.82824844121932983 0.52708250284194946
0.45379716157913208 0.97191965579986572 0.57585626840591431
0.4862651526927948 0.96789628267288208 0.57015210390090942
0.56103056669235229 0.96391558647155762 0.56554996967315674
0.68439865112304688 0.95021170377731323 0.5742906928062439
0.81847143173217773 0.9393002986907959 0.56518262624740601
0.93591475486755371 0.92984437942504883 0.55837374925613403
0.99747377634048462 0.91727185249328613 0.56714046001434326
0 0.098711170256137848 0.34651312232017517
0.002513885498046875 0.10712465643882751 0.34682416915893555
0.08981546014547348 0.13783459365367889 0.35593396425247192
0.22274863719940186 0.18633748590946198 0.38715654611587524
0.36496469378471375 0.2640748918056488 0.44625988602638245
0.51551944017410278 0.35820132493972778 0.51611018180847168
0.69708460569381714 0.45043349266052246 0.58841121196746826
0 0.18213178217411041 0.3652006983757019
0.0011569004273042083 0.18637867271900177 0.36873579025268555
0.066346801817417145 0.20900464057922363 0.38274663686752319
0.22566081583499908 0.25686627626419067 0.41794919967651367
0.37228992581367493 0.32736435532569885 0.47436019778251648
0.53346723318099976 0.41574010252952576 0.54134476184844971
0.73404574394226074 0.48984700441360474 0.61124217510223389
0 0.32674530148506165 0.42798075079917908
4.5596851123264059e-05 0.33847799897193909 0.44049236178398132
0.029626030474901199 0.36606991291046143 0.46069735288619995
0.21587754786014557 0.39969682693481445 0.49133008718490601
0.39818105101585388 0.46196794509887695 0.54060715436935425
0.58243709802627563 0.52013981342315674 0.59260332584381104
0.81168633699417114 0.55664807558059692 0.63958311080932617
0 0.51688897609710693 0.53230196237564087
0.0050283991731703281 0.52563214302062988 0.53798288106918335
0.073221348226070404 0.54819381237030029 0.56188976764678955
0.25541287660598755 0.57718753814697266 0.58318412303924561
0.48708412051200867 0.60369682312011719 0.60381495952606201
0.69315725564956665 0.6229555606842041 0.62021344900131226
0.91084581613540649 0.62233883142471313 0.62840193510055542
0.034308712929487228 0.71666848659515381 0.63585108518600464
0.065823271870613098 0.72244942188262939 0.64073127508163452
0.20340466499328613 0.72889155149459839 0.64286142587661743
0.37304747104644775 0.73991674184799194 0.64358615875244141
0.58031302690505981 0.74772685766220093 0.64149308204650879
0.77511799335479736 0.74863642454147339 0.59844326972961426
0.97468441724777222 0.73183172941207886 0.54335552453994751
0.25861942768096924 0.85361200571060181 0.67556416988372803
0.30968388915061951 0.85745322704315186 0.67586654424667358
0.39313715696334839 0.85826379060745239 0.67671781778335571
0.50784677267074585 0.86353540420532227 0.66122955083847046
0.67408758401870728 0.85563498735427856 0.64928346872329712
0.83098572492599487 0.85902184247970581 0.64592814445495605
0.97471576929092407 0.843211829662323 0.60379999876022339
0.4428977370262146 0.96753573417663574 0.68572646379470825
0.46171417832374573 0.96572583913803101 0.67924773693084717
0.51936131715774536 0.96685612201690674 0.67598432302474976
0.60324901342391968 0.96959298849105835 0.65053701400756836
0.74672609567642212 0.95685195922851562 0.65578699111938477
0.89679563045501709 0.94284182786941528 0.64560908079147339
0.9893154501914978 0.92220771312713623 0.64491969347000122
0 0.11656263470649719 0.42028433084487915
0.0016918256878852844 0.12808223068714142 0.42399021983146667
0.065712422132492065 0.15971231460571289 0.44375535845756531
0.22099784016609192 0.21338492631912231 0.48112684488296509
0.36773771047592163 0.28517636656761169 0.53842198848724365
0.5202404260635376 0.37493523955345154 0.6058429479598999
0.69332998991012573 0.47651964426040649 0.68095201253890991
0 0.20072124898433685 0.44946783781051636
0.0016902399947866797 0.2082722932100296 0.45601376891136169
0.054714635014533997 0.23159457743167877 0.47696423530578613
0.21466721594333649 0.27829775214195251 0.51282328367233276
0.3740827739238739 0.34823626279830933 0.56947213411331177
0.535178542137146 0.42658817768096924 0.62790572643280029
0.70243561267852783 0.52004218101501465 0.69999271631240845
0 0.3409171998500824 0.51917338371276855
0 0.35553714632987976 0.53212523460388184
0.01785329170525074 0.38014969229698181 0.54916739463806152
0.20560666918754578 0.42208844423294067 0.58694297075271606
0.39480569958686829 0.48091387748718262 0.633464515209198
0.561268150806427 0.54574930667877197 0.68772017955780029
0.72469252347946167 0.60171264410018921 0.7283405065536499
0 0.52982383966445923 0.62440162897109985
0.00032698686118237674 0.53791290521621704 0.63154202699661255
0.044129583984613419 0.56410437822341919 0.65209954977035522
0.23092904686927795 0.59193199872970581 0.67730021476745605
0.43362319469451904 0.62823247909545898 0.70801019668579102
0.59374314546585083 0.66196984052658081 0.72720646858215332
0.76113641262054443 0.68673688173294067 0.75215572118759155
0.025925535708665848 0.72492402791976929 0.72125744819641113
0.066529728472232819 0.72775650024414062 0.71854645013809204
0.19649037718772888 0.73402410745620728 0.72451549768447876
0.34706392884254456 0.75174599885940552 0.73857325315475464
0.49793702363967896 0.76754981279373169 0.74883139133453369
0.68417870998382568 0.77470850944519043 0.74836760759353638
0.87842351198196411 0.77043229341506958 0.75427061319351196
0.26225376129150391 0.85788178443908691 0.75687986612319946
0.30733379721641541 0.85875916481018066 0.75959211587905884
0.38987702131271362 0.86267167329788208 0.76125770807266235
0.48519745469093323 0.86838608980178833 0.76640725135803223
0.60034322738647461 0.87496417760848999 0.7603456974029541
0.7604600191116333 0.87332910299301147 0.75332212448120117
0.93767631053924561 0.86184000968933105 0.70550870895385742
0.42832660675048828 0.96791255474090576 0.77365744113922119
0.45684322714805603 0.96767789125442505 0.77342683076858521
0.50786322355270386 0.97007584571838379 0.77435767650604248
0.57096993923187256 0.96721994876861572 0.77463853359222412
0.66819083690643311 0.97298824787139893 0.76021689176559448
0.82439380884170532 0.9634740948677063 0.75428056716918945
0.9704781174659729 0.93970918655395508 0.74536406993865967
0 0.1424400806427002 0.50017493963241577
0.0007331548840738833 0.15437179803848267 0.5097581148147583
0.05354035273194313 0.1894669383764267 0.53608578443527222
0.22220568358898163 0.23768353462219238 0.56826084852218628
0.37504878640174866 0.30930763483047485 0.6337166428565979
0.52639216184616089 0.39568719267845154 0.70015078783035278
0.69993895292282104 0.49521622061729431 0.77477008104324341
0 0.21926283836364746 0.53444862365722656
5.8043235185323283e-05 0.22966232895851135 0.54418337345123291
0.046723533421754837 0.26176303625106812 0.56647109985351562
0.21628335118293762 0.30557152628898621 0.60675406455993652
0.38068991899490356 0.36914312839508057 0.6628187894821167
0.54016244411468506 0.44634237885475159 0.72498208284378052
0.71374762058258057 0.53397214412689209 0.78964835405349731
0 0.36180219054222107 0.61320382356643677
0.0017391429282724857 0.38098612427711487 0.62833356857299805
0.032858919352293015 0.41388511657714844 0.65475380420684814
0.19665177166461945 0.44464018940925598 0.68269532918930054
0.39449372887611389 0.49956393241882324 0.7306830883026123
0.56995242834091187 0.55857688188552856 0.77687114477157593
0.72841942310333252 0.61482197046279907 0.81278914213180542
0 0.54822230339050293 0.72322201728820801
0.00014549704792443663 0.55736762285232544 0.72858345508575439
0.030858686193823814 0.5800902247428894 0.75197577476501465
0.24458536505699158 0.61101377010345459 0.77011686563491821
0.42904981970787048 0.64230597019195557 0.79571115970611572
0.59830665588378906 0.67228412628173828 0.81778877973556519
0.75759315490722656 0.70381617546081543 0.83440637588500977
0.055702853947877884 0.73066204786300659 0.80704802274703979
0.054081261157989502 0.73548072576522827 0.80865281820297241
0.18388815224170685 0.74320423603057861 0.813457190990448
0.34660634398460388 0.75788885354995728 0.82567256689071655
0.48914378881454468 0.77185517549514771 0.83300721645355225
0.64391767978668213 0.786937415599823 0.84350329637527466
0.79795891046524048 0.80182164907455444 0.84907925128936768
0.26668724417686462 0.86143201589584351 0.84092539548873901
0.312782883644104 0.86332648992538452 0.83938729763031006
0.39624407887458801 0.86845463514328003 0.84295952320098877
0.48540085554122925 0.87292629480361938 0.8436279296875
0.58779501914978027 0.88110440969467163 0.84595215320587158
0.70348149538040161 0.88434213399887085 0.85043013095855713
0.85909533500671387 0.88479959964752197 0.85242468118667603
0.43504393100738525 0.96644163131713867 0.85762244462966919
0.45935851335525513 0.96613729000091553 0.85270863771438599
0.50743764638900757 0.96865129470825195 0.85551702976226807
0.57001727819442749 0.97118091583251953 0.85637384653091431
0.65316230058670044 0.97124850749969482 0.85713344812393188
0.76347070932388306 0.97542256116867065 0.85837739706039429
0.9298895001411438 0.95278263092041016 0.84506642818450928
0 0.18266651034355164 0.59840846061706543
0.0037530336994677782 0.19457872211933136 0.61129271984100342
0.067821189761161804 0.22551289200782776 0.63136571645736694
0.23564155399799347 0.2720942497253418 0.66923332214355469
0.38695776462554932 0.34663364291191101 0.73383009433746338
0.54809868335723877 0.42981547117233276 0.80158102512359619
0.71596693992614746 0.51849794387817383 0.86617320775985718
0 0.2486584484577179 0.63129228353500366
0.0017371532740071416 0.26227453351020813 0.64315187931060791
0.071400478482246399 0.29430085420608521 0.66685593128204346
0.23756347596645355 0.33661690354347229 0.70704132318496704
0.39735552668571472 0.41008734703063965 0.76865828037261963
0.56151682138442993 0.47736170887947083 0.83015841245651245
0.71977561712265015 0.55155724287033081 0.87483721971511841
0 0.3916967511177063 0.71419990062713623
0.00019250009790994227 0.40059599280357361 0.71687346696853638
0.06469416618347168 0.43847936391830444 0.75133854150772095
0.23154519498348236 0.47045227885246277 0.7833743691444397
0.41613113880157471 0.52514135837554932 0.82922601699829102
0.57950741052627563 0.57712727785110474 0.87210261821746826
0.7282910943031311 0.6181710958480835 0.90391397476196289
0 0.57073181867599487 0.82008850574493408
0.0020053039770573378 0.57717198133468628 0.82742065191268921
0.07058309018611908 0.59967583417892456 0.84145534038543701
0.26093763113021851 0.62764447927474976 0.86764746904373169
0.44196018576622009 0.65681058168411255 0.89275813102722168
0.60005241632461548 0.68195587396621704 0.90903455018997192
0.76484060287475586 0.70488572120666504 0.92829698324203491
0.026181388646364212 0.74025493860244751 0.90630632638931274
0.062236066907644272 0.7446175217628479 0.90534108877182007
0.19826625287532806 0.75420874357223511 0.91332113742828369
0.34034597873687744 0.76540970802307129 0.92099994421005249
0.50127190351486206 0.78043729066848755 0.92773157358169556
0.64597296714782715 0.79343622922897339 0.9331737756729126
0.80345386266708374 0.80556195974349976 0.9363255500793457
0.26931038498878479 0.86787497997283936 0.93301141262054443
0.3214242160320282 0.86981332302093506 0.93228650093078613
0.39890316128730774 0.8712916374206543 0.93184769153594971
0.47460475564002991 0.87647002935409546 0.93382632732391357
0.59076571464538574 0.88788765668869019 0.94288259744644165
0.7018280029296875 0.88912016153335571 0.94070541858673096
0.81958413124084473 0.89740240573883057 0.94193875789642334
0.4441065788269043 0.97223788499832153 0.93832147121429443
0.46681973338127136 0.97129571437835693 0.93685710430145264
0.5070793628692627 0.97117942571640015 0.93717986345291138
0.57232087850570679 0.97210437059402466 0.93355041742324829
0.65748238563537598 0.977042555809021 0.9285578727722168
0.75355178117752075 0.97657948732376099 0.94546782970428467
0.87868750095367432 0.9640306830406189 0.94276553392410278
