assets/lut/creative latesunset.cube
# Created by: G'MIC (https://gmic.eu)
TITLE "latesunset"
# LUT size
LUT_3D_SIZE 5
# Data domain
DOMAIN_MIN 0.0 0.0 0.0
DOMAIN_MAX 1.0 1.0 1.0
# LUT data points
0.01308415737003088 0.0080825053155422211 0.021689590066671371
0.13684697449207306 0.012082836590707302 0.092980407178401947
0.25194945931434631 0.00023579316621180624 0.16095201671123505
0.37913355231285095 0.0034557417966425419 0.17614854872226715
0.53971278667449951 0.070283912122249603 0.19278246164321899
0.10242408514022827 0.10602366179227829 0.16116476058959961
0.17779508233070374 0.097091346979141235 0.16735422611236572
0.28347131609916687 0.094493895769119263 0.17423857748508453
0.41250622272491455 0.1058519259095192 0.18538330495357513
0.58482128381729126 0.16000258922576904 0.20451723039150238
0.22292186319828033 0.22419032454490662 0.19832964241504669
0.27450734376907349 0.22570778429508209 0.20132133364677429
0.37554621696472168 0.23682141304016113 0.2043093740940094
0.51439589262008667 0.26794338226318359 0.21407642960548401
0.71534448862075806 0.33656340837478638 0.19725479185581207
0.48348602652549744 0.45013138651847839 0.19915308058261871
0.53294211626052856 0.45946985483169556 0.18627014756202698
0.63327127695083618 0.48507750034332275 0.15395157039165497
0.78558629751205444 0.53813302516937256 0.1132327988743782
0.9491506814956665 0.63784700632095337 0.19510313868522644
0.78076183795928955 0.85856533050537109 0.37956753373146057
0.8004688024520874 0.86256504058837891 0.39342567324638367
0.85387551784515381 0.89535737037658691 0.46457776427268982
0.93342804908752441 0.93407386541366577 0.54337215423583984
0.99894851446151733 0.9732358455657959 0.62396931648254395
0.039006520062685013 0.0048577254638075829 0.13294906914234161
0.12223587185144424 0.015343176200985909 0.19236642122268677
0.24315255880355835 0.0024146134965121746 0.24342960119247437
0.3727894127368927 0.0033104091417044401 0.25039678812026978
0.5351945161819458 0.061591684818267822 0.26092815399169922
0.082188762724399567 0.10323493927717209 0.23283149302005768
0.16165181994438171 0.10151519626379013 0.24502983689308167
0.26921650767326355 0.096001796424388885 0.24890483915805817
0.40004745125770569 0.10613590478897095 0.25438100099563599
0.57298809289932251 0.15898643434047699 0.26205494999885559
0.22198517620563507 0.22679166495800018 0.25547567009925842
0.2691504955291748 0.22502504289150238 0.25612768530845642
0.37209716439247131 0.23785410821437836 0.2540549635887146
0.51446706056594849 0.26986286044120789 0.26499718427658081
0.72520977258682251 0.34292054176330566 0.25195169448852539
0.49370145797729492 0.45899203419685364 0.24882842600345612
0.53564321994781494 0.46578553318977356 0.23250420391559601
0.63908439874649048 0.48719686269760132 0.20529267191886902
0.79576551914215088 0.54374104738235474 0.18382275104522705
0.95359671115875244 0.64313411712646484 0.26642778515815735
0.7765735387802124 0.86121249198913574 0.42689940333366394
0.7968900203704834 0.87233138084411621 0.45288625359535217
0.85562586784362793 0.89480626583099365 0.50722092390060425
0.92908918857574463 0.9394487738609314 0.58842164278030396
1 0.97849148511886597 0.67070335149765015
0.033389519900083542 0.021509282290935516 0.26716351509094238
0.10288501530885696 0.01900126226246357 0.30369961261749268
0.24055632948875427 0.0024183085188269615 0.32940661907196045
0.373536616563797 0.018539205193519592 0.32994025945663452
0.55014985799789429 0.083478279411792755 0.34645286202430725
0.083680592477321625 0.10208409279584885 0.32595586776733398
0.15589322149753571 0.099656440317630768 0.32925185561180115
0.27157402038574219 0.10032879561185837 0.32808774709701538
0.40784376859664917 0.11750613898038864 0.33471545577049255
0.58998745679855347 0.17305168509483337 0.34977257251739502
0.23027579486370087 0.22941084206104279 0.33448991179466248
0.27252060174942017 0.22906880080699921 0.33884528279304504
0.37710195779800415 0.24481220543384552 0.34066733717918396
0.52432960271835327 0.27789413928985596 0.34931093454360962
0.7380484938621521 0.34949022531509399 0.33198374509811401
0.51334589719772339 0.46043959259986877 0.32450369000434875
0.55254650115966797 0.46820297837257385 0.3084845244884491
0.64998263120651245 0.49508315324783325 0.29589059948921204
0.80614519119262695 0.55641472339630127 0.28959283232688904
0.95842498540878296 0.65780735015869141 0.38023030757904053
0.78163808584213257 0.8695865273475647 0.52780932188034058
0.80384683609008789 0.88235437870025635 0.54075473546981812
0.8479001522064209 0.90541046857833862 0.59829789400100708
0.92366224527359009 0.93799960613250732 0.66594535112380981
0.9979587197303772 0.97226077318191528 0.73121428489685059
0.026904521510004997 0.017500005662441254 0.39085763692855835
0.11770080775022507 0.011469193734228611 0.40125235915184021
0.24528147280216217 0.0042120092548429966 0.41095989942550659
0.38055804371833801 0.016005378216505051 0.41217759251594543
0.56256568431854248 0.093327373266220093 0.42544189095497131
0.10384374856948853 0.10001585632562637 0.41274347901344299
0.16970381140708923 0.099907338619232178 0.41448938846588135
0.27463114261627197 0.10643690824508667 0.41632646322250366
0.42037245631217957 0.12470579147338867 0.41831663250923157
0.61400783061981201 0.18818561732769012 0.43362036347389221
0.25771698355674744 0.23361329734325409 0.42278310656547546
0.30664995312690735 0.23993358016014099 0.42127075791358948
0.39541003108024597 0.25153762102127075 0.42217186093330383
0.54875344038009644 0.28933951258659363 0.43023857474327087
0.76351624727249146 0.36244082450866699 0.40507468581199646
0.55655133724212646 0.46945095062255859 0.39356487989425659
0.60217082500457764 0.48395517468452454 0.3883005678653717
0.69276946783065796 0.51456022262573242 0.38856938481330872
0.83285856246948242 0.57640832662582397 0.39452293515205383
0.9752921462059021 0.67865157127380371 0.50729000568389893
0.78924357891082764 0.88269519805908203 0.64366757869720459
0.8142998218536377 0.88923913240432739 0.65799570083618164
0.85246330499649048 0.91520988941192627 0.70947861671447754
0.92505574226379395 0.94564515352249146 0.76301020383834839
1 0.98375111818313599 0.84362828731536865
0.091831400990486145 0.010287655517458916 0.48982056975364685
0.16132143139839172 0.0064819334074854851 0.49039772152900696
0.27003148198127747 0.011379421688616276 0.49640336632728577
0.40540304780006409 0.028241310268640518 0.49985453486442566
0.59169429540634155 0.1269814670085907 0.51207232475280762
0.15338611602783203 0.10540106147527695 0.49756738543510437
0.20660030841827393 0.1004205122590065 0.4989018440246582
0.30472242832183838 0.11100481450557709 0.50089538097381592
0.44896355271339417 0.13554345071315765 0.50635653734207153
0.64537400007247925 0.21253161132335663 0.51665741205215454
0.30215418338775635 0.24247030913829803 0.50975608825683594
0.34435808658599854 0.2511691153049469 0.51937389373779297
0.43550407886505127 0.26731112599372864 0.51496642827987671
0.5971447229385376 0.30774050951004028 0.50932806730270386
0.81796371936798096 0.39188721776008606 0.49451202154159546
0.6254538893699646 0.49445274472236633 0.48080876469612122
0.65720468759536743 0.49768239259719849 0.47302180528640747
0.74230647087097168 0.53453582525253296 0.47484710812568665
0.86461359262466431 0.59718209505081177 0.50127226114273071
0.98672616481781006 0.70637160539627075 0.63158148527145386
0.81086844205856323 0.89678603410720825 0.7651219367980957
0.82521671056747437 0.91118186712265015 0.79184579849243164
0.8639761209487915 0.92760586738586426 0.82369458675384521
0.92965328693389893 0.95875030755996704 0.8807222843170166
0.99673229455947876 0.98535346984863281 0.95230966806411743
