assets/lut/creative bleachbypass 03.cube
# Created by: G'MIC (https://gmic.eu)
TITLE "bleachbypass_3"
# LUT size
LUT_3D_SIZE 7
# Data domain
DOMAIN_MIN 0.0 0.0 0.0
DOMAIN_MAX 1.0 1.0 1.0
# LUT data points
0.10317638516426086 0.10098371654748917 0.098069705069065094
0.15172703564167023 0.11078353226184845 0.10763033479452133
0.22239531576633453 0.12979559600353241 0.12782967090606689
0.30099856853485107 0.15095262229442596 0.1494450718164444
0.39798110723495483 0.17556728422641754 0.17222078144550323
0.49538573622703552 0.19756306707859039 0.19551312923431396
0.51296758651733398 0.19934865832328796 0.19706554710865021
0.14138913154602051 0.14606310427188873 0.13193133473396301
0.16881266236305237 0.15749643743038177 0.12098906189203262
0.23839521408081055 0.18385441601276398 0.13895915448665619
0.32569268345832825 0.2051515132188797 0.16201668977737427
0.42285880446434021 0.23092144727706909 0.18498930335044861
0.5260738730430603 0.26413002610206604 0.21013860404491425
0.55810171365737915 0.27233538031578064 0.2162921279668808
0.19004987180233002 0.20607993006706238 0.17120048403739929
0.20723891258239746 0.22606489062309265 0.15764419734477997
0.26152104139328003 0.25208181142807007 0.15702240169048309
0.35164070129394531 0.28393968939781189 0.18105176091194153
0.45342454314231873 0.31718277931213379 0.20471307635307312
0.56768679618835449 0.35188016295433044 0.23169858753681183
0.60869431495666504 0.36071160435676575 0.23856568336486816
0.23461535573005676 0.26152649521827698 0.20980396866798401
0.26746177673339844 0.28909161686897278 0.21588434278964996
0.28772547841072083 0.32208046317100525 0.1787162572145462
0.37799671292304993 0.36196208000183105 0.20162470638751984
0.48367130756378174 0.40091654658317566 0.22557799518108368
0.60237294435501099 0.44012439250946045 0.25451460480690002
0.66321331262588501 0.45853117108345032 0.26627868413925171
0.28270635008811951 0.32532414793968201 0.25580084323883057
0.33637127280235291 0.36586368083953857 0.2843373715877533
0.34374448657035828 0.40553829073905945 0.23458819091320038
0.40574941039085388 0.45165577530860901 0.22123286128044128
0.5133368968963623 0.49550405144691467 0.24462451040744781
0.64285987615585327 0.54484570026397705 0.27964848279953003
0.72372877597808838 0.57243841886520386 0.29857459664344788
0.33650210499763489 0.40388709306716919 0.30472639203071594
0.39782792329788208 0.44583374261856079 0.33912792801856995
0.42522865533828735 0.48808720707893372 0.31297391653060913
0.45298805832862854 0.54330134391784668 0.26067104935646057
0.54868525266647339 0.60061007738113403 0.26905572414398193
0.67905443906784058 0.65734577178955078 0.30598989129066467
0.77824044227600098 0.69308829307556152 0.32831913232803345
0.39603018760681152 0.48469501733779907 0.35643509030342102
0.46528869867324829 0.52875524759292603 0.39517766237258911
0.52179193496704102 0.57891106605529785 0.40849891304969788
0.53111857175827026 0.64188653230667114 0.3375106155872345
0.5909307599067688 0.71362543106079102 0.30365827679634094
0.71415030956268311 0.77433913946151733 0.32765057682991028
0.81453460454940796 0.81459337472915649 0.34902933239936829
0.12014200538396835 0.11788883805274963 0.14113686978816986
0.17247427999973297 0.13415804505348206 0.15049497783184052
0.23993328213691711 0.15277256071567535 0.17804785072803497
0.32586869597434998 0.17203536629676819 0.20881244540214539
0.43191024661064148 0.19418041408061981 0.2346053272485733
0.53400146961212158 0.21568483114242554 0.26050344109535217
0.55334460735321045 0.21778927743434906 0.26077073812484741
0.14095224440097809 0.16508869826793671 0.16317977011203766
0.19378672540187836 0.18259736895561218 0.17476969957351685
0.26463508605957031 0.2026432603597641 0.19505713880062103
0.35538855195045471 0.22714564204216003 0.22066193819046021
0.45813509821891785 0.25414630770683289 0.24493066966533661
0.56992053985595703 0.28752344846725464 0.27543225884437561
0.60301584005355835 0.29999655485153198 0.28680691123008728
0.19385302066802979 0.22267253696918488 0.19915951788425446
0.24949926137924194 0.25090503692626953 0.22141292691230774
0.28691962361335754 0.27476048469543457 0.21122820675373077
0.38245680928230286 0.30913388729095459 0.23927074670791626
0.48826518654823303 0.34146261215209961 0.26433977484703064
0.60771626234054565 0.37595599889755249 0.2941378653049469
0.65083539485931396 0.38616287708282471 0.30480733513832092
0.25017634034156799 0.27775496244430542 0.24123044312000275
0.30304807424545288 0.31077221035957336 0.26960670948028564
0.32318514585494995 0.34516584873199463 0.24750813841819763
0.40524518489837646 0.38758781552314758 0.25831109285354614
0.51758986711502075 0.42904117703437805 0.2884521484375
0.63555681705474854 0.4625287652015686 0.31324389576911926
0.70168954133987427 0.48223304748535156 0.32858073711395264
0.30241671204566956 0.34436812996864319 0.28888094425201416
0.3558349609375 0.38239800930023193 0.31768664717674255
0.40792906284332275 0.43215346336364746 0.33360838890075684
0.43725210428237915 0.47997918725013733 0.2871401309967041
0.54510027170181274 0.52553224563598633 0.3071257472038269
0.67008894681930542 0.56966519355773926 0.33457863330841064
0.75774526596069336 0.60035508871078491 0.35945165157318115
0.35584470629692078 0.42484879493713379 0.33808106184005737
0.41486465930938721 0.46560236811637878 0.37122824788093567
0.48932406306266785 0.5140342116355896 0.40564084053039551
0.50754082202911377 0.56900119781494141 0.35813814401626587
0.57704401016235352 0.62970507144927979 0.32947832345962524
0.70222622156143188 0.67845267057418823 0.3577863872051239
0.8031691312789917 0.71530115604400635 0.37810361385345459
0.41479066014289856 0.50740069150924683 0.39287722110748291
0.48479545116424561 0.55103558301925659 0.42956921458244324
0.56298524141311646 0.60096639394760132 0.46936178207397461
0.6004062294960022 0.66476285457611084 0.45387926697731018
0.6336667537689209 0.74091267585754395 0.38715836405754089
0.73676204681396484 0.79960912466049194 0.37926584482192993
0.85980772972106934 0.84739482402801514 0.40274778008460999
0.13991059362888336 0.13754215836524963 0.19892114400863647
0.19851501286029816 0.15678752958774567 0.21540109813213348
0.26722410321235657 0.17975364625453949 0.23122212290763855
0.34714370965957642 0.20489859580993652 0.2680869996547699
0.43507584929466248 0.224775031208992 0.30507728457450867
0.54865282773971558 0.24694773554801941 0.34371882677078247
0.61351990699768066 0.25546553730964661 0.36107400059700012
0.15817497670650482 0.18778181076049805 0.22356437146663666
0.22171397507190704 0.21481435000896454 0.24805083870887756
0.29636123776435852 0.23933358490467072 0.26217177510261536
0.38537448644638062 0.26435062289237976 0.30035513639450073
0.49317711591720581 0.28802943229675293 0.33686822652816772
0.60984528064727783 0.31353071331977844 0.36904320120811462
0.65723890066146851 0.32863453030586243 0.38150203227996826
0.18459101021289825 0.25533431768417358 0.24963679909706116
0.25382450222969055 0.28228193521499634 0.27838638424873352
0.32698544859886169 0.31124475598335266 0.29774859547615051
0.42481768131256104 0.34239190816879272 0.32826980948448181
0.53817886114120483 0.37766328454017639 0.36134633421897888
0.66029447317123413 0.41330158710479736 0.39557629823684692
0.70945531129837036 0.42614489793777466 0.4102635383605957
0.23136153817176819 0.30970537662506104 0.27802446484565735
0.31323501467704773 0.33213087916374207 0.30715727806091309
0.3743339478969574 0.36642029881477356 0.33283558487892151
0.44484832882881165 0.42501029372215271 0.35030290484428406
0.56687051057815552 0.46830695867538452 0.38490763306617737
0.6940610408782959 0.50685906410217285 0.41808536648750305
0.75838911533355713 0.52558571100234985 0.4346468448638916
0.30221021175384521 0.37649068236351013 0.3218332827091217
0.3773343563079834 0.40630015730857849 0.35605186223983765
0.45098656415939331 0.45050927996635437 0.39377516508102417
0.49551969766616821 0.51527804136276245 0.39682543277740479
0.59086024761199951 0.57139259576797485 0.40907591581344604
0.7263486385345459 0.61736404895782471 0.44360062479972839
0.81378293037414551 0.64549130201339722 0.4642409086227417
0.36938533186912537 0.44943854212760925 0.37439024448394775
0.43987420201301575 0.4870467483997345 0.40970790386199951
0.51877355575561523 0.53634893894195557 0.45056051015853882
0.57524406909942627 0.58799159526824951 0.47046184539794922
0.6267363429069519 0.6763264536857605 0.44147065281867981
0.75594276189804077 0.73104888200759888 0.47054943442344666
0.86976975202560425 0.76998424530029297 0.49420705437660217
0.43111336231231689 0.52703976631164551 0.42504361271858215
0.51020383834838867 0.57642507553100586 0.467572420835495
0.58953088521957397 0.62695926427841187 0.5132707953453064
0.65535277128219604 0.67385202646255493 0.54451072216033936
0.69664120674133301 0.77081966400146484 0.51430368423461914
0.79327219724655151 0.85329580307006836 0.49780052900314331
0.91970521211624146 0.9065251350402832 0.52388721704483032
0.15741607546806335 0.15510883927345276 0.25477012991905212
0.2222273051738739 0.17564117908477783 0.28718125820159912
0.29010120034217834 0.19689331948757172 0.28990775346755981
0.37368631362915039 0.22518929839134216 0.31614267826080322
0.46234285831451416 0.25398135185241699 0.35061079263687134
0.5596388578414917 0.28056231141090393 0.39640152454376221
0.66563254594802856 0.30300819873809814 0.44405266642570496
0.17648375034332275 0.21115404367446899 0.28412780165672302
0.24437616765499115 0.23865936696529388 0.31814771890640259
0.32245135307312012 0.26322847604751587 0.33630603551864624
0.41665717959403992 0.29678347706794739 0.35264527797698975
0.51112741231918335 0.32868298888206482 0.39394354820251465
0.62127357721328735 0.35641181468963623 0.44479697942733765
0.71321797370910645 0.37210479378700256 0.4817650318145752
0.20196822285652161 0.28412654995918274 0.31873273849487305
0.27543681859970093 0.31487137079238892 0.35562533140182495
0.35309585928916931 0.34446319937705994 0.38353148102760315
0.4592292308807373 0.37884232401847839 0.39482000470161438
0.56233906745910645 0.41246229410171509 0.445982426404953
0.69502466917037964 0.44748246669769287 0.49299609661102295
0.76762562990188599 0.46937271952629089 0.52151608467102051
0.22514602541923523 0.35435125231742859 0.34782186150550842
0.30372700095176697 0.38919314742088318 0.3828718364238739
0.38564401865005493 0.41643884778022766 0.41133713722229004
0.48400735855102539 0.45592838525772095 0.43916827440261841
0.60978525876998901 0.50281709432601929 0.47983160614967346
0.74428582191467285 0.54855740070343018 0.52523916959762573
0.81509411334991455 0.56718331575393677 0.54388493299484253
0.27768036723136902 0.42916214466094971 0.37828442454338074
0.36683669686317444 0.45743989944458008 0.40845564007759094
0.46467408537864685 0.47979912161827087 0.43575501441955566
0.54113119840621948 0.52230435609817505 0.46893671154975891
0.63828009366989136 0.61459624767303467 0.51341789960861206
0.77932929992675781 0.66189664602279663 0.55576902627944946
0.87173432111740112 0.69158446788787842 0.5812375545501709
0.34653270244598389 0.4929656982421875 0.41404768824577332
0.44258260726928711 0.52203524112701416 0.45176398754119873
0.54089570045471191 0.56053799390792847 0.49389427900314331
0.61476510763168335 0.6051362156867981 0.53288227319717407
0.68056142330169678 0.70210230350494385 0.55228167772293091
0.80911505222320557 0.77942746877670288 0.58504098653793335
0.9265550971031189 0.82093924283981323 0.61386442184448242
0.4294966459274292 0.57165080308914185 0.46994629502296448
0.52560532093048096 0.60209196805953979 0.51055765151977539
0.6138235330581665 0.64960253238677979 0.55850285291671753
0.69279450178146362 0.70225834846496582 0.60401743650436401
0.77257752418518066 0.77953678369522095 0.6363985538482666
0.84967553615570068 0.90253430604934692 0.62005436420440674
0.97707629203796387 0.96373987197875977 0.65091878175735474
0.18369098007678986 0.18088518083095551 0.3346620500087738
0.24700956046581268 0.20159198343753815 0.37009328603744507
0.32319632172584534 0.22330337762832642 0.39425152540206909
0.40425670146942139 0.24675709009170532 0.38623657822608948
0.4964631199836731 0.27575156092643738 0.41734758019447327
0.60309875011444092 0.30862134695053101 0.46268472075462341
0.70939403772354126 0.34434467554092407 0.50649642944335938
0.20186306536197662 0.23905040323734283 0.36652407050132751
0.26952335238456726 0.26445281505584717 0.40237966179847717
0.35089561343193054 0.29027816653251648 0.4393366277217865
0.44658443331718445 0.32423710823059082 0.43700101971626282
0.55052852630615234 0.36043959856033325 0.46330949664115906
0.66216593980789185 0.39988040924072266 0.51083457469940186
0.76120847463607788 0.42464187741279602 0.55906182527542114
0.22931259870529175 0.31837838888168335 0.40595138072967529
0.2998238205909729 0.34710174798965454 0.44240108132362366
0.38862109184265137 0.38115361332893372 0.48335257172584534
0.48377817869186401 0.41285359859466553 0.50383257865905762
0.60215383768081665 0.45016831159591675 0.51241970062255859
0.72060048580169678 0.49157077074050903 0.56657451391220093
0.82251322269439697 0.52162808179855347 0.62612807750701904
0.25661003589630127 0.39622339606285095 0.44388014078140259
0.32967391610145569 0.42875263094902039 0.48064503073692322
0.42038831114768982 0.46580156683921814 0.52139478921890259
0.51561099290847778 0.50470501184463501 0.55731385946273804
0.65481287240982056 0.54806607961654663 0.56764310598373413
0.77854013442993164 0.59075808525085449 0.63415402173995972
0.87657821178436279 0.61791759729385376 0.67544806003570557
0.28608959913253784 0.4898717999458313 0.48533156514167786
0.36297774314880371 0.52723896503448486 0.52086246013641357
0.46151000261306763 0.56637710332870483 0.56009483337402344
0.55947417020797729 0.60255390405654907 0.59769713878631592
0.68949395418167114 0.6573367714881897 0.63332217931747437
0.83825498819351196 0.71329605579376221 0.6860390305519104
0.93358993530273438 0.74337863922119141 0.71559780836105347
0.32228931784629822 0.56977909803390503 0.51499706506729126
0.42409577965736389 0.599601149559021 0.54550129175186157
0.53166490793228149 0.63134306669235229 0.58153748512268066
0.6367374062538147 0.6510280966758728 0.60272908210754395
0.73163044452667236 0.69679456949234009 0.64071881771087646
0.87101995944976807 0.8380129337310791 0.7244265079498291
0.98677438497543335 0.88252705335617065 0.75970590114593506
0.40552878379821777 0.64765036106109619 0.55075013637542725
0.50914454460144043 0.67767715454101562 0.58523726463317871
0.62259954214096069 0.70716220140457153 0.62261307239532471
0.72335958480834961 0.73684674501419067 0.65857094526290894
0.81725358963012695 0.78795081377029419 0.70639187097549438
0.91829198598861694 0.92411059141159058 0.76332354545593262
0.99814409017562866 0.99511462450027466 0.80212277173995972
0.20511102676391602 0.20258209109306335 0.41409954428672791
0.27766013145446777 0.22467909753322601 0.45570185780525208
0.35609430074691772 0.24853381514549255 0.4929334819316864
0.43673133850097656 0.27037069201469421 0.49410045146942139
0.53251606225967407 0.30030286312103271 0.49619990587234497
0.6447073221206665 0.33666160702705383 0.54164087772369385
0.74646848440170288 0.36546149849891663 0.58135712146759033
0.22625884413719177 0.26620152592658997 0.45216667652130127
0.30625796318054199 0.29752907156944275 0.49800083041191101
0.38714754581451416 0.32348811626434326 0.53659987449645996
0.47772711515426636 0.35253831744194031 0.56474310159683228
0.58364778757095337 0.38583672046661377 0.55010199546813965
0.70221883058547974 0.42293816804885864 0.58881998062133789
0.80395424365997314 0.45874950289726257 0.63056367635726929
0.25477361679077148 0.34924626350402832 0.49479195475578308
0.33148500323295593 0.37796181440353394 0.53711509704589844
0.42150759696960449 0.41573807597160339 0.58195751905441284
0.51583188772201538 0.4482865035533905 0.62363123893737793
0.63753002882003784 0.48416218161582947 0.61742687225341797
0.76420658826828003 0.5273321270942688 0.64443618059158325
0.85955178737640381 0.55938935279846191 0.68206918239593506
0.27812349796295166 0.4325873851776123 0.53497880697250366
0.36401861906051636 0.46853071451187134 0.58020550012588501
0.45737370848655701 0.50831997394561768 0.62699401378631592
0.55550909042358398 0.54845041036605835 0.67297732830047607
0.6799314022064209 0.5868370532989502 0.69240880012512207
0.82411795854568481 0.63283729553222656 0.69834548234939575
0.91394883394241333 0.66582876443862915 0.7397836446762085
0.3045288622379303 0.52729922533035278 0.57799440622329712
0.39363855123519897 0.56874030828475952 0.62665581703186035
0.49545928835868835 0.61440104246139526 0.67313456535339355
0.59701830148696899 0.65721112489700317 0.72021639347076416
0.71327352523803711 0.70123910903930664 0.761272132396698
0.89056062698364258 0.75612515211105347 0.76811379194259644
0.98286771774291992 0.79528164863586426 0.82980501651763916
0.33783641457557678 0.63299667835235596 0.62711262702941895
0.42733821272850037 0.67564898729324341 0.6706470251083374
0.53273147344589233 0.72216218709945679 0.71751588582992554
0.64101886749267578 0.76778602600097656 0.76209080219268799
0.76121664047241211 0.80684453248977661 0.80191516876220703
0.92179715633392334 0.87774121761322021 0.84924781322479248
0.99916970729827881 0.9374503493309021 0.8992164134979248
0.37593486905097961 0.73763823509216309 0.66706621646881104
0.48175114393234253 0.77756577730178833 0.70740002393722534
0.60395509004592896 0.81089550256729126 0.74370706081390381
0.72086739540100098 0.84127378463745117 0.7718474268913269
0.84540945291519165 0.85100638866424561 0.78818970918655396
0.95054572820663452 0.89445751905441284 0.82430708408355713
0.99997663497924805 0.99970775842666626 0.9567449688911438
0.23227895796298981 0.23010998964309692 0.51063805818557739
0.3080897331237793 0.25192674994468689 0.5565991997718811
0.39419430494308472 0.27964398264884949 0.60585027933120728
0.47979938983917236 0.30435413122177124 0.6410554051399231
0.57352232933044434 0.32763993740081787 0.61271709203720093
0.68069499731063843 0.35798615217208862 0.62035608291625977
0.79080146551132202 0.38943788409233093 0.66334700584411621
0.25284641981124878 0.29358178377151489 0.54671913385391235
0.33923801779747009 0.32880747318267822 0.60165274143218994
0.42519322037696838 0.35494688153266907 0.64877021312713623
0.52033579349517822 0.39236381649971008 0.69562166929244995
0.62449133396148682 0.41805508732795715 0.69030314683914185
0.74085706472396851 0.45065468549728394 0.67712938785552979
0.84423601627349854 0.48261556029319763 0.71556705236434937
0.28143900632858276 0.38405686616897583 0.60137981176376343
0.37087252736091614 0.41967934370040894 0.65153932571411133
0.46230757236480713 0.45409893989562988 0.70232552289962769
0.55896550416946411 0.48976010084152222 0.74770194292068481
0.67389088869094849 0.52576404809951782 0.78191632032394409
0.80233585834503174 0.55731022357940674 0.74418801069259644
0.90351122617721558 0.59111493825912476 0.77280503511428833
0.30742174386978149 0.4713624119758606 0.64696478843688965
0.39712467789649963 0.50892585515975952 0.69512403011322021
0.49728167057037354 0.54968106746673584 0.74645853042602539
0.59795701503753662 0.58942431211471558 0.79617595672607422
0.71320295333862305 0.62992322444915771 0.84475892782211304
0.85693341493606567 0.67017441987991333 0.82879441976547241
0.95982730388641357 0.70081025362014771 0.82756137847900391
0.34001979231834412 0.57656919956207275 0.70127081871032715
0.42790234088897705 0.61470383405685425 0.74614328145980835
0.53716212511062622 0.66486924886703491 0.80114662647247314
0.64224702119827271 0.70646429061889648 0.85066437721252441
0.7635377049446106 0.75616765022277832 0.90799885988235474
0.90126931667327881 0.80152559280395508 0.9344983696937561
0.99765360355377197 0.82288122177124023 0.87973111867904663
0.3699585497379303 0.68116158246994019 0.75075358152389526
0.46249264478683472 0.72656750679016113 0.79699206352233887
0.57453709840774536 0.77663528919219971 0.85225820541381836
0.68610292673110962 0.82448172569274902 0.90052920579910278
0.81152653694152832 0.87846416234970093 0.9599158763885498
0.938079833984375 0.93043375015258789 0.99048316478729248
1 0.96303927898406982 0.96734428405761719
0.39840686321258545 0.805450439453125 0.80311137437820435
0.50431650876998901 0.85787194967269897 0.85691499710083008
0.61908680200576782 0.91397899389266968 0.91013592481613159
0.73025649785995483 0.95934939384460449 0.95810544490814209
0.86300921440124512 0.98905360698699951 0.98474264144897461
0.98241734504699707 0.99520915746688843 0.98628425598144531
1 0.99613219499588013 0.9855009913444519
