assets/lut/creative bleachbypass 04.cube
# Created by: G'MIC (https://gmic.eu)
TITLE "bleachbypass_4"
# LUT size
LUT_3D_SIZE 7
# Data domain
DOMAIN_MIN 0.0 0.0 0.0
DOMAIN_MAX 1.0 1.0 1.0
# LUT data points
0.10755886137485504 0.10243973135948181 0.10447489470243454
0.15134187042713165 0.12053776532411575 0.12090767920017242
0.20840205252170563 0.13706742227077484 0.14141073822975159
0.27611455321311951 0.15945813059806824 0.1654449999332428
0.34995853900909424 0.18684202432632446 0.19419929385185242
0.42672532796859741 0.21556538343429565 0.22311000525951385
0.51609241962432861 0.24073991179466248 0.24851983785629272
0.1269410103559494 0.14188016951084137 0.12218008935451508
0.1821092963218689 0.16822996735572815 0.1474834680557251
0.24223661422729492 0.1944972425699234 0.16934195160865784
0.3160516619682312 0.22311925888061523 0.19516770541667938
0.39667278528213501 0.25442403554916382 0.22317783534526825
0.48126250505447388 0.2896064817905426 0.24854832887649536
0.57566326856613159 0.32311666011810303 0.28138116002082825
0.15034365653991699 0.20231766998767853 0.14888659119606018
0.2153557687997818 0.24007430672645569 0.17709004878997803
0.27974241971969604 0.26955720782279968 0.20224352180957794
0.36009243130683899 0.30271300673484802 0.22717735171318054
0.44666934013366699 0.33801773190498352 0.25532352924346924
0.53807204961776733 0.37160769104957581 0.28445956110954285
0.63724356889724731 0.41059750318527222 0.32025590538978577
0.18232466280460358 0.27239999175071716 0.17999109625816345
0.25250878930091858 0.31250485777854919 0.20472730696201324
0.32412701845169067 0.34775400161743164 0.23389092087745667
0.41019207239151001 0.39182263612747192 0.26561012864112854
0.50137364864349365 0.43373551964759827 0.29522025585174561
0.59919852018356323 0.47312676906585693 0.32585257291793823
0.69953227043151855 0.51541948318481445 0.35970309376716614
0.21450859308242798 0.35700643062591553 0.20635171234607697
0.29111278057098389 0.40545225143432617 0.23572950065135956
0.36865141987800598 0.44586905837059021 0.2703431248664856
0.46262818574905396 0.49784725904464722 0.30642127990722656
0.56127512454986572 0.54465913772583008 0.33950525522232056
0.6654476523399353 0.58838915824890137 0.37148481607437134
0.76971721649169922 0.63304686546325684 0.40480723977088928
0.2504410445690155 0.45289909839630127 0.23968799412250519
0.3339042067527771 0.50736397504806519 0.27773922681808472
0.41819539666175842 0.55549758672714233 0.31310084462165833
0.52030819654464722 0.61430817842483521 0.35167655348777771
0.62228906154632568 0.66506797075271606 0.38552522659301758
0.72916615009307861 0.71497875452041626 0.41972678899765015
0.83375364542007446 0.76279014348983765 0.45670881867408752
0.28918415307998657 0.56475430727005005 0.27954387664794922
0.38028517365455627 0.6237061619758606 0.32063749432563782
0.47365060448646545 0.67969495058059692 0.35945063829421997
0.57561522722244263 0.73693960905075073 0.39763623476028442
0.6789669394493103 0.78916400671005249 0.43248260021209717
0.78551918268203735 0.84110844135284424 0.46817183494567871
0.88452392816543579 0.88385766744613647 0.50632435083389282
0.11928868293762207 0.11548804491758347 0.14517705142498016
0.17404292523860931 0.13629744946956635 0.17240780591964722
0.23512066900730133 0.15942828357219696 0.19906851649284363
0.3069109320640564 0.18439126014709473 0.22726236283779144
0.38752281665802002 0.2108614444732666 0.25803697109222412
0.47220709919929504 0.23828783631324768 0.2922089695930481
0.56534886360168457 0.26536959409713745 0.32579728960990906
0.14583849906921387 0.16587217152118683 0.17451086640357971
0.20925351977348328 0.19553646445274353 0.20550580322742462
0.27562490105628967 0.22255361080169678 0.23218043148517609
0.34943744540214539 0.25129511952400208 0.2617000937461853
0.43195396661758423 0.28250578045845032 0.29552030563354492
0.52395117282867432 0.31681519746780396 0.32779043912887573
0.62595599889755249 0.35200434923171997 0.3657284677028656
0.17307694256305695 0.23348011076450348 0.20720343291759491
0.24243089556694031 0.26603564620018005 0.23932361602783203
0.31223383545875549 0.29998600482940674 0.26883998513221741
0.39667937159538269 0.33168298006057739 0.30111506581306458
0.4827004075050354 0.37121161818504333 0.33629024028778076
0.581371009349823 0.40464621782302856 0.37068894505500793
0.68872904777526855 0.4492509663105011 0.40906855463981628
0.20734012126922607 0.30828064680099487 0.24345515668392181
0.2807941734790802 0.34288498759269714 0.27443423867225647
0.35540276765823364 0.38533973693847656 0.30858564376831055
0.44651561975479126 0.42608246207237244 0.34303703904151917
0.53908860683441162 0.47129672765731812 0.3778052031993866
0.64774829149246216 0.51556527614593506 0.41861611604690552
0.75460314750671387 0.55880868434906006 0.45655727386474609
0.24242758750915527 0.40191107988357544 0.28166273236274719
0.3236238956451416 0.44181230664253235 0.31501242518424988
0.40604713559150696 0.48609450459480286 0.34965258836746216
0.50117242336273193 0.53337943553924561 0.38649842143058777
0.59999257326126099 0.58225077390670776 0.42433664202690125
0.71189874410629272 0.6315007209777832 0.46650037169456482
0.82471877336502075 0.68261891603469849 0.50727516412734985
0.28276506066322327 0.50316137075424194 0.3218027651309967
0.37133172154426575 0.5556761622428894 0.3636164665222168
0.46066597104072571 0.60387390851974487 0.39935153722763062
0.56209176778793335 0.65827655792236328 0.43769153952598572
0.66347044706344604 0.7101864218711853 0.47453895211219788
0.7791866660118103 0.76452493667602539 0.5156933069229126
0.89591830968856812 0.82031702995300293 0.56190735101699829
0.32434922456741333 0.61925607919692993 0.36649951338768005
0.41872408986091614 0.68132203817367554 0.40987676382064819
0.51491159200668335 0.73647677898406982 0.45049095153808594
0.61936932802200317 0.79227364063262939 0.4913194477558136
0.72608739137649536 0.84553897380828857 0.52865397930145264
0.84387987852096558 0.9059370756149292 0.56898432970046997
0.94883948564529419 0.95074671506881714 0.61375576257705688
0.13887090981006622 0.13543599843978882 0.20028167963027954
0.19776400923728943 0.1578155905008316 0.22930543124675751
0.26334121823310852 0.18119333684444427 0.25926017761230469
0.33905687928199768 0.20583105087280273 0.29516494274139404
0.42392247915267944 0.23297165334224701 0.32987186312675476
0.51581394672393799 0.26386547088623047 0.36597353219985962
0.61294400691986084 0.29388865828514099 0.40192112326622009
0.16675585508346558 0.18793486058712006 0.23160019516944885
0.23426820337772369 0.21875680983066559 0.2657712996006012
0.30735498666763306 0.2480657547712326 0.30015602707862854
0.38479003310203552 0.27890735864639282 0.33271476626396179
0.47181937098503113 0.31179264187812805 0.37012392282485962
0.56868767738342285 0.34790205955505371 0.40620553493499756
0.67416632175445557 0.38046419620513916 0.45013570785522461
0.19704017043113708 0.26235106587409973 0.2686869204044342
0.27022424340248108 0.29620200395584106 0.30444997549057007
0.34671509265899658 0.32920712232589722 0.34051212668418884
0.43416443467140198 0.36404478549957275 0.37692040205001831
0.52584606409072876 0.4043155312538147 0.41549825668334961
0.62790948152542114 0.44077548384666443 0.45614641904830933
0.73843103647232056 0.48282560706138611 0.5006287693977356
0.23341125249862671 0.33769616484642029 0.30926087498664856
0.31048104166984558 0.38014981150627136 0.34513884782791138
0.38948100805282593 0.42035761475563049 0.38160794973373413
0.48613590002059937 0.46541646122932434 0.42301881313323975
0.58269327878952026 0.50728374719619751 0.46406036615371704
0.69141852855682373 0.55296438932418823 0.50624698400497437
0.80538463592529297 0.60071134567260742 0.5523144006729126
0.26608887314796448 0.43394932150840759 0.35149309039115906
0.35360154509544373 0.48221266269683838 0.39221587777137756
0.44208505749702454 0.52970767021179199 0.43166154623031616
0.5405387282371521 0.57614433765411377 0.47395563125610352
0.64240211248397827 0.62280869483947754 0.51520830392837524
0.75746023654937744 0.67479854822158813 0.55952614545822144
0.87809628248214722 0.73086166381835938 0.60833549499511719
0.30531054735183716 0.54177701473236084 0.3993384838104248
0.3997836709022522 0.59916436672210693 0.44684615731239319
0.4942169189453125 0.65192264318466187 0.488046795129776
0.59880572557449341 0.70362311601638794 0.53091466426849365
0.70741182565689087 0.75933700799942017 0.57351493835449219
0.8316580057144165 0.81675964593887329 0.61786103248596191
0.95694494247436523 0.872780442237854 0.66956758499145508
0.35396304726600647 0.6676405668258667 0.45400327444076538
0.45195049047470093 0.73111945390701294 0.50192654132843018
0.55145537853240967 0.78769040107727051 0.54615861177444458
0.6598551869392395 0.84566622972488403 0.59136706590652466
0.77688604593276978 0.90680950880050659 0.63677287101745605
0.90779358148574829 0.96569156646728516 0.68138992786407471
0.99680876731872559 0.9959450364112854 0.72905582189559937
0.16250407695770264 0.15610297024250031 0.25750133395195007
0.2257416695356369 0.17827019095420837 0.29339012503623962
0.29724633693695068 0.20426428318023682 0.32879793643951416
0.37864938378334045 0.23005843162536621 0.37128779292106628
0.46374529600143433 0.2607022225856781 0.41020855307579041
0.55919402837753296 0.29235416650772095 0.44974574446678162
0.66142010688781738 0.32243397831916809 0.49008452892303467
0.18838375806808472 0.21350009739398956 0.29327964782714844
0.26157465577125549 0.24398574233055115 0.33471974730491638
0.33935678005218506 0.27683675289154053 0.374041348695755
0.42364534735679626 0.30755841732025146 0.41502618789672852
0.51342189311981201 0.34313154220581055 0.45428761839866638
0.61736690998077393 0.38147073984146118 0.49963134527206421
0.72474020719528198 0.41277056932449341 0.5443422794342041
0.21985329687595367 0.28872230648994446 0.33797791600227356
0.29930990934371948 0.3241245448589325 0.38283970952033997
0.38048037886619568 0.36249077320098877 0.42120394110679626
0.47436660528182983 0.3997570276260376 0.46455514430999756
0.56935536861419678 0.43598538637161255 0.50618010759353638
0.6778298020362854 0.47736582159996033 0.55497074127197266
0.78987967967987061 0.52095162868499756 0.60175424814224243
0.25700786709785461 0.37090203166007996 0.38511097431182861
0.34263312816619873 0.41858118772506714 0.43041545152664185
0.42581573128700256 0.45942619442939758 0.47136694192886353
0.52946484088897705 0.50398522615432739 0.519550621509552
0.62650877237319946 0.54502540826797485 0.56174290180206299
0.74126315116882324 0.59551548957824707 0.61134892702102661
0.85809981822967529 0.6456073522567749 0.65775972604751587
0.29502356052398682 0.47222080826759338 0.43455401062965393
0.3879738450050354 0.52715331315994263 0.48353761434555054
0.47846364974975586 0.57350373268127441 0.52844917774200439
0.5838504433631897 0.62213033437728882 0.57655477523803711
0.68802428245544434 0.66997897624969482 0.62018430233001709
0.81145548820495605 0.72157621383666992 0.67183995246887207
0.93382936716079712 0.7799188494682312 0.72089231014251709
0.33689185976982117 0.58665364980697632 0.48983138799667358
0.43494820594787598 0.64657580852508545 0.54162156581878662
0.53081190586090088 0.70008111000061035 0.58677834272384644
0.64345461130142212 0.7529340386390686 0.6368369460105896
0.75605219602584839 0.80934017896652222 0.68506485223770142
0.88595890998840332 0.86843705177307129 0.73646718263626099
0.99190652370452881 0.92961841821670532 0.78882837295532227
0.38571012020111084 0.71751463413238525 0.54860609769821167
0.48840638995170593 0.78084284067153931 0.60230427980422974
0.59079039096832275 0.83620113134384155 0.64989387989044189
0.70496636629104614 0.89952987432479858 0.69919204711914062
0.82639193534851074 0.96336466073989868 0.75128364562988281
0.96274739503860474 0.99238377809524536 0.80652177333831787
1 1 0.85816526412963867
0.1810208261013031 0.17543469369411469 0.32717573642730713
0.25287202000617981 0.20102725923061371 0.36889132857322693
0.33460137248039246 0.22981242835521698 0.41395288705825806
0.41992020606994629 0.26275825500488281 0.45989778637886047
0.5038682222366333 0.28983399271965027 0.50073105096817017
0.60245621204376221 0.32021602988243103 0.54501259326934814
0.71239316463470459 0.35484939813613892 0.59144133329391479
0.21398264169692993 0.2372032105922699 0.37096059322357178
0.28932830691337585 0.27001416683197021 0.41380593180656433
0.37354061007499695 0.30619663000106812 0.45941370725631714
0.463390052318573 0.34324932098388672 0.50746011734008789
0.55369472503662109 0.37589046359062195 0.54907721281051636
0.66311603784561157 0.41426306962966919 0.60032981634140015
0.77682554721832275 0.44832131266593933 0.6490938663482666
0.24589760601520538 0.31833270192146301 0.41908916831016541
0.32840567827224731 0.35715895891189575 0.46299946308135986
0.41615188121795654 0.39459449052810669 0.50845044851303101
0.51267820596694946 0.43476322293281555 0.5581551194190979
0.61161381006240845 0.47517797350883484 0.60305947065353394
0.7264636754989624 0.52082324028015137 0.65892237424850464
0.84287554025650024 0.56277894973754883 0.71077567338943481
0.28441035747528076 0.40916776657104492 0.47113704681396484
0.37511149048805237 0.45702031254768372 0.52023994922637939
0.46296584606170654 0.49679273366928101 0.56496667861938477
0.56693750619888306 0.54165464639663696 0.61363989114761353
0.6735571026802063 0.58722007274627686 0.66613608598709106
0.7908281683921814 0.63893932104110718 0.71732789278030396
0.9106135368347168 0.68914794921875 0.76748090982437134
0.32468199729919434 0.51445412635803223 0.52573871612548828
0.42133909463882446 0.56644850969314575 0.57833296060562134
0.51642948389053345 0.61341923475265503 0.62731587886810303
0.6260068416595459 0.66617923974990845 0.67560207843780518
0.73535335063934326 0.71593433618545532 0.73042726516723633
0.8636244535446167 0.76794290542602539 0.78149503469467163
0.98387360572814941 0.82658541202545166 0.83831560611724854
0.36770659685134888 0.63311916589736938 0.58621001243591309
0.46851256489753723 0.68998026847839355 0.63918441534042358
0.5719107985496521 0.74521940946578979 0.68953835964202881
0.688926100730896 0.80258268117904663 0.74235725402832031
0.80138719081878662 0.85675537586212158 0.79574978351593018
0.93990808725357056 0.92506265640258789 0.85219943523406982
0.99989873170852661 0.97552567720413208 0.91116529703140259
0.41495257616043091 0.76646733283996582 0.64571821689605713
0.52184832096099854 0.82880699634552002 0.70555031299591064
0.63211572170257568 0.88752657175064087 0.76097947359085083
0.75327295064926147 0.95358443260192871 0.81344115734100342
0.87842345237731934 0.99302303791046143 0.86894875764846802
0.98904323577880859 1 0.92652177810668945
0.99965089559555054 1 0.98022788763046265
0.20578683912754059 0.19209679961204529 0.40486994385719299
0.28247848153114319 0.22473622858524323 0.44908332824707031
0.36618399620056152 0.25749805569648743 0.50031954050064087
0.45391261577606201 0.2879524827003479 0.55071717500686646
0.5456773042678833 0.31701084971427917 0.59803527593612671
0.64805465936660767 0.34797081351280212 0.64513272047042847
0.75531941652297974 0.37942785024642944 0.6890486478805542
0.23688550293445587 0.26603591442108154 0.45207124948501587
0.31732097268104553 0.30037850141525269 0.4961489737033844
0.40796229243278503 0.33861684799194336 0.55020606517791748
0.50386697053909302 0.37642183899879456 0.60470819473266602
0.60036647319793701 0.41115540266036987 0.65392768383026123
0.71227848529815674 0.45023831725120544 0.70855432748794556
0.82821834087371826 0.48667848110198975 0.75931626558303833
0.27210694551467896 0.3501642644405365 0.50705814361572266
0.35975241661071777 0.3903142511844635 0.55395030975341797
0.45532140135765076 0.43127065896987915 0.60676079988479614
0.55560410022735596 0.47053450345993042 0.66060942411422729
0.65753316879272461 0.51416146755218506 0.71153396368026733
0.7791932225227356 0.56056022644042969 0.77450841665267944
0.90291577577590942 0.60472065210342407 0.83363217115402222
0.31328701972961426 0.44891068339347839 0.56472665071487427
0.40750297904014587 0.49410322308540344 0.61608290672302246
0.50367599725723267 0.53886514902114868 0.66773563623428345
0.60888552665710449 0.58281469345092773 0.72152149677276611
0.72053033113479614 0.63394874334335327 0.77956205606460571
0.84667056798934937 0.68374621868133545 0.83984214067459106
0.96673166751861572 0.73292934894561768 0.89496421813964844
0.35480177402496338 0.5599173903465271 0.6262696385383606
0.45809909701347351 0.61053681373596191 0.68396800756454468
0.55641168355941772 0.6604040265083313 0.73610770702362061
0.66975700855255127 0.71026253700256348 0.79132521152496338
0.78489094972610474 0.76500201225280762 0.84988045692443848
0.92180091142654419 0.82181310653686523 0.91538774967193604
0.99855411052703857 0.87411350011825562 0.96810758113861084
0.40073773264884949 0.6839834451675415 0.69260287284851074
0.50754022598266602 0.74280160665512085 0.75338351726531982
0.61423408985137939 0.79887849092483521 0.81110179424285889
0.73528820276260376 0.86001193523406982 0.86986863613128662
0.85430872440338135 0.91940641403198242 0.93231815099716187
0.98924738168716431 0.97719293832778931 0.98623347282409668
0.99746537208557129 0.99919962882995605 0.99893367290496826
0.44870749115943909 0.81494951248168945 0.75182247161865234
0.55881863832473755 0.88103419542312622 0.81884443759918213
0.6732291579246521 0.94030523300170898 0.88359194993972778
0.80335813760757446 0.99053692817687988 0.94580322504043579
0.9304802417755127 1 0.9835350513458252
1 0.99858766794204712 1
0.99680274724960327 1 1
0.23375731706619263 0.21627254784107208 0.49218767881393433
0.31681856513023376 0.25700226426124573 0.54292184114456177
0.39778321981430054 0.28502911329269409 0.59389996528625488
0.4846520721912384 0.30781769752502441 0.64412921667098999
0.58289980888366699 0.33937078714370728 0.6962968111038208
0.68781858682632446 0.37419033050537109 0.7454906702041626
0.79287683963775635 0.41018515825271606 0.78906381130218506
0.26799610257148743 0.29528018832206726 0.54434239864349365
0.35388895869255066 0.3369615375995636 0.59690916538238525
0.44403651356697083 0.37175682187080383 0.65233534574508667
0.54181420803070068 0.40554222464561462 0.70844060182571411
0.64333784580230713 0.44071093201637268 0.76242434978485107
0.75680845975875854 0.48172193765640259 0.81735533475875854
0.87007969617843628 0.52259474992752075 0.8665732741355896
0.30388531088829041 0.38332313299179077 0.60395938158035278
0.39755657315254211 0.42728689312934875 0.66002476215362549
0.49690881371498108 0.47264266014099121 0.71859347820281982
0.59943968057632446 0.51137310266494751 0.77513653039932251
0.70286709070205688 0.55039829015731812 0.82907116413116455
0.82618618011474609 0.59444648027420044 0.88956558704376221
0.94881850481033325 0.64073085784912109 0.94575750827789307
0.34518325328826904 0.48750832676887512 0.66750860214233398
0.44548788666725159 0.53438258171081543 0.72599244117736816
0.54631000757217407 0.58186858892440796 0.78341764211654663
0.65280020236968994 0.62774157524108887 0.84298580884933472
0.7652849555015564 0.67629861831665039 0.90339326858520508
0.89328306913375854 0.72270083427429199 0.95520919561386108
0.99504709243774414 0.7732168436050415 0.99382776021957397
0.38511908054351807 0.59980106353759766 0.73302555084228516
0.49411216378211975 0.65791106224060059 0.79618579149246216
0.59924906492233276 0.70728474855422974 0.8536643385887146
0.71571338176727295 0.75884449481964111 0.91564822196960449
0.83530348539352417 0.81577199697494507 0.97649842500686646
0.96313726902008057 0.86885529756546021 0.99525350332260132
1 0.92590916156768799 1
0.43368732929229736 0.7264404296875 0.79949969053268433
0.54811137914657593 0.79325908422470093 0.86809217929840088
0.65995728969573975 0.84928953647613525 0.92979788780212402
0.78617972135543823 0.91060370206832886 0.98747777938842773
0.90665888786315918 0.96780860424041748 0.99969649314880371
0.99962800741195679 0.99730312824249268 0.99933809041976929
0.99783647060394287 1 0.99985277652740479
0.48407730460166931 0.8548891544342041 0.85417157411575317
0.60065943002700806 0.9278607964515686 0.92485833168029785
0.71866017580032349 0.98827064037322998 0.98474067449569702
0.8512037992477417 0.99998706579208374 1
0.98033344745635986 0.99977558851242065 0.99969369173049927
1 0.99928218126296997 0.99628180265426636
0.99895572662353516 1 1
