assets/lut/creative tensiongreen 02.cube
# Created by: G'MIC (https://gmic.eu)
TITLE "tensiongreen_2"
# LUT size
LUT_3D_SIZE 5
# Data domain
DOMAIN_MIN 0.0 0.0 0.0
DOMAIN_MAX 1.0 1.0 1.0
# LUT data points
5.834242983837612e-05 0.061149954795837402 0.090623699128627777
0.13461363315582275 0.073271825909614563 0.051634546369314194
0.3037884533405304 0.068147800862789154 0.0045793722383677959
0.51237475872039795 0.081680238246917725 0.00026254093972966075
0.78683614730834961 0.074440330266952515 0
0 0.19842211902141571 0.12631684541702271
0.13874331116676331 0.21950845420360565 0.031935688108205795
0.33030453324317932 0.24867978692054749 0.0051097944378852844
0.5296817421913147 0.30611208081245422 0
0.77609634399414062 0.36386731266975403 0
0.068193428218364716 0.42484071850776672 0.18414205312728882
0.22442467510700226 0.43859392404556274 0.077723480761051178
0.44417259097099304 0.46543291211128235 0.067187078297138214
0.67102569341659546 0.49731048941612244 0.033396255224943161
0.90105646848678589 0.54020243883132935 0.00050416833255439997
0.4224725067615509 0.69277828931808472 0.35253798961639404
0.48297742009162903 0.70396804809570312 0.27394008636474609
0.6481705904006958 0.70228469371795654 0.21789731085300446
0.80775296688079834 0.71428424119949341 0.23924528062343597
0.98258256912231445 0.72218996286392212 0.19558323919773102
0.63929080963134766 0.88159334659576416 0.48051869869232178
0.65504539012908936 0.89629733562469482 0.41808748245239258
0.79209411144256592 0.89314866065979004 0.34877857565879822
0.93358373641967773 0.8785819411277771 0.32197102904319763
0.99804282188415527 0.8735884428024292 0.33545076847076416
0 0.090053781867027283 0.11822468042373657
0.033248469233512878 0.12248454242944717 0.13490684330463409
0.16251061856746674 0.19206526875495911 0.1613076776266098
0.38976708054542542 0.27128365635871887 0.15601837635040283
0.71455711126327515 0.29724335670471191 0.13800176978111267
0.0021231707651168108 0.20899267494678497 0.18924511969089508
0.057873714715242386 0.23415181040763855 0.18180370330810547
0.27053257822990417 0.27821582555770874 0.16009587049484253
0.48810595273971558 0.33976694941520691 0.14084652066230774
0.80889725685119629 0.353912353515625 0.096197478473186493
0.13483850657939911 0.42820492386817932 0.32072281837463379
0.18749643862247467 0.44557669758796692 0.28718081116676331
0.41345548629760742 0.48380723595619202 0.2144753485918045
0.66126710176467896 0.50617808103561401 0.15926045179367065
0.87488043308258057 0.55442184209823608 0.083965867757797241
0.456512451171875 0.68399029970169067 0.48776933550834656
0.47826677560806274 0.69716775417327881 0.43841242790222168
0.60369753837585449 0.71398192644119263 0.32947489619255066
0.78871595859527588 0.72670042514801025 0.33589041233062744
0.97781592607498169 0.73477435111999512 0.29444572329521179
0.66751945018768311 0.8869403600692749 0.60515695810317993
0.68577796220779419 0.89442175626754761 0.55325710773468018
0.74348264932632446 0.89994168281555176 0.45047926902770996
0.90479487180709839 0.88694095611572266 0.3978208601474762
0.99804317951202393 0.88523650169372559 0.39862173795700073
0 0.12363497912883759 0.15499548614025116
0.0082496339455246925 0.1568761020898819 0.17187775671482086
0.1471220999956131 0.21815110743045807 0.21833908557891846
0.31311929225921631 0.33213376998901367 0.26491269469261169
0.52735871076583862 0.46513825654983521 0.33604055643081665
0.0040200925432145596 0.22340665757656097 0.21918143332004547
0.061018820852041245 0.25707468390464783 0.24018189311027527
0.20035861432552338 0.31749376654624939 0.26264539361000061
0.38328254222869873 0.41066291928291321 0.30062520503997803
0.61902189254760742 0.50890296697616577 0.36326995491981506
0.16236752271652222 0.43747743964195251 0.37027803063392639
0.23610888421535492 0.46227326989173889 0.37920358777046204
0.34716939926147461 0.50125986337661743 0.38774892687797546
0.58519154787063599 0.54604905843734741 0.37487682700157166
0.80861419439315796 0.59624427556991577 0.38596993684768677
0.48844221234321594 0.68918240070343018 0.55453968048095703
0.52063804864883423 0.69663697481155396 0.55435067415237427
0.57404977083206177 0.72182399034500122 0.52643746137619019
0.74909126758575439 0.74178147315979004 0.45596420764923096
0.96496319770812988 0.74679070711135864 0.41009309887886047
0.70212471485137939 0.87531810998916626 0.68492227792739868
0.72492820024490356 0.88684427738189697 0.69428986310958862
0.7370837926864624 0.88468855619430542 0.62707895040512085
0.86642855405807495 0.90790992975234985 0.52025532722473145
0.99467605352401733 0.89544713497161865 0.49873679876327515
0 0.17193029820919037 0.19798840582370758
0.0045759011991322041 0.1980079859495163 0.21736271679401398
0.11294181644916534 0.26687467098236084 0.26585018634796143
0.32105529308319092 0.35817626118659973 0.35010945796966553
0.52198320627212524 0.48581841588020325 0.43577095866203308
0.032679911702871323 0.26414784789085388 0.26235446333885193
0.092488490045070648 0.28909379243850708 0.27753648161888123
0.22166332602500916 0.35078096389770508 0.32436931133270264
0.39107415080070496 0.43579974770545959 0.38355103135108948
0.58473902940750122 0.54527008533477783 0.45760214328765869
0.22255800664424896 0.46801465749740601 0.43056139349937439
0.26989087462425232 0.48043447732925415 0.4357154369354248
0.36493277549743652 0.52165675163269043 0.4603717029094696
0.53445309400558472 0.58385515213012695 0.48173362016677856
0.70586174726486206 0.65524041652679443 0.51902318000793457
0.51370888948440552 0.70044064521789551 0.60583746433258057
0.54176265001296997 0.70647704601287842 0.60409283638000488
0.59991395473480225 0.72807174921035767 0.61716699600219727
0.70040321350097656 0.76565688848495483 0.62100052833557129
0.89412903785705566 0.78418266773223877 0.60067915916442871
0.72249120473861694 0.88397336006164551 0.75495517253875732
0.74223750829696655 0.88712829351425171 0.7544131875038147
0.7781909704208374 0.89088922739028931 0.74271899461746216
0.82669174671173096 0.90889924764633179 0.70812809467315674
0.97019022703170776 0.90273940563201904 0.62557744979858398
0 0.22220990061759949 0.2422730028629303
0.010734617710113525 0.26064687967300415 0.27727237343788147
0.10356692224740982 0.32081317901611328 0.32831612229347229
0.32018855214118958 0.4076695442199707 0.40956056118011475
0.52482694387435913 0.51626074314117432 0.51461160182952881
0.077867694199085236 0.3177313506603241 0.31682398915290833
0.12656141817569733 0.34590601921081543 0.33866548538208008
0.23447835445404053 0.40007933974266052 0.38209694623947144
0.39594349265098572 0.4773220419883728 0.45168933272361755
0.59653663635253906 0.57308000326156616 0.54617804288864136
0.29857441782951355 0.49579468369483948 0.45902296900749207
0.34185308218002319 0.51322460174560547 0.47525301575660706
0.42977061867713928 0.55451899766921997 0.50223463773727417
0.56423425674438477 0.61293512582778931 0.55085980892181396
0.71721631288528442 0.67971336841583252 0.61301398277282715
0.5453263521194458 0.71074992418289185 0.65247750282287598
0.56529694795608521 0.71854418516159058 0.65648865699768066
0.63206559419631958 0.74570715427398682 0.67205560207366943
0.7126471996307373 0.77884835004806519 0.68905735015869141
0.83552062511444092 0.8119623064994812 0.70437216758728027
0.73658734560012817 0.88669013977050781 0.78057575225830078
0.76139378547668457 0.88983052968978882 0.79007613658905029
0.77291738986968994 0.874908447265625 0.76748812198638916
0.85066157579421997 0.91199147701263428 0.79298382997512817
0.95346701145172119 0.92062699794769287 0.79890930652618408
