assets/lut/creative bleachbypass 01.cube
# Created by: G'MIC (https://gmic.eu)
TITLE "bleachbypass_1"
# LUT size
LUT_3D_SIZE 7
# Data domain
DOMAIN_MIN 0.0 0.0 0.0
DOMAIN_MAX 1.0 1.0 1.0
# LUT data points
0.055134642869234085 0.055478472262620926 0.054605491459369659
0.13266550004482269 0.07846127450466156 0.078729607164859772
0.25242260098457336 0.11351072788238525 0.11423565447330475
0.4209379255771637 0.15410915017127991 0.15438714623451233
0.63489145040512085 0.20343673229217529 0.20323330163955688
0.89911353588104248 0.26185238361358643 0.26166999340057373
1 0.32396304607391357 0.32582572102546692
0.077088087797164917 0.129628986120224 0.0776711106300354
0.18189164996147156 0.18068529665470123 0.11341802775859833
0.32355675101280212 0.23793070018291473 0.15428914129734039
0.51350933313369751 0.29666042327880859 0.19895657896995544
0.75697511434555054 0.37159401178359985 0.25258064270019531
0.98843967914581299 0.44879162311553955 0.31550830602645874
1 0.53313308954238892 0.38648462295532227
0.10607267171144485 0.25662884116172791 0.10809149593114853
0.238570436835289 0.32352668046951294 0.15210497379302979
0.4096105694770813 0.40634015202522278 0.20225940644741058
0.61692458391189575 0.48811885714530945 0.25191876292228699
0.86981320381164551 0.57941007614135742 0.30961668491363525
0.99722528457641602 0.68367934226989746 0.37796330451965332
1 0.79190874099731445 0.45023560523986816
0.14750528335571289 0.42931458353996277 0.14983673393726349
0.30064493417739868 0.51618462800979614 0.19780679047107697
0.49276310205459595 0.61890065670013428 0.25307634472846985
0.73057949542999268 0.7358405590057373 0.31161984801292419
0.98125028610229492 0.83615970611572266 0.37420797348022461
0.99943989515304565 0.9562612771987915 0.44822946190834045
0.99912750720977783 0.99945861101150513 0.52781260013580322
0.19862484931945801 0.64421826601028442 0.19975215196609497
0.37060803174972534 0.7613976001739502 0.25226086378097534
0.5778048038482666 0.88211363554000854 0.30897325277328491
0.83995521068572998 0.97616147994995117 0.37271720170974731
0.99770385026931763 0.9994502067565918 0.4403262734413147
0.99999690055847168 1 0.51712405681610107
0.99914759397506714 1 0.60708165168762207
0.26041236519813538 0.89385420083999634 0.25960877537727356
0.45159554481506348 0.97045475244522095 0.31597396731376648
0.68425142765045166 0.99972015619277954 0.37909963726997375
0.94453847408294678 1 0.44636228680610657
1 1 0.52850699424743652
1 1 0.60851472616195679
0.99971681833267212 1 0.70675277709960938
0.33300161361694336 1 0.32462930679321289
0.55496430397033691 1 0.38717806339263916
0.81056249141693115 1 0.45184504985809326
0.9975208044052124 0.99931728839874268 0.53206551074981689
1 1 0.63516813516616821
1 1 0.71562165021896362
1 1 0.8047950267791748
0.079475447535514832 0.080524057149887085 0.13404706120491028
0.18018031120300293 0.11277338862419128 0.17932498455047607
0.31921327114105225 0.15267674624919891 0.23357291519641876
0.51077616214752197 0.20090465247631073 0.29636943340301514
0.75180435180664062 0.25312104821205139 0.36838018894195557
0.98247635364532471 0.31585019826889038 0.44963982701301575
1 0.3819521963596344 0.54009431600570679
0.1098509281873703 0.18050998449325562 0.18236640095710754
0.23672083020210266 0.23569807410240173 0.23614044487476349
0.39495852589607239 0.2959534227848053 0.29494580626487732
0.60388863086700439 0.36371868848800659 0.36087131500244141
0.87678629159927368 0.44093769788742065 0.43530511856079102
0.99999040365219116 0.52517551183700562 0.52161014080047607
0.99967026710510254 0.60971200466156006 0.61672121286392212
0.14909952878952026 0.32174456119537354 0.23920004069805145
0.29710546135902405 0.39592441916465759 0.29524621367454529
0.47875136137008667 0.47929370403289795 0.36024388670921326
0.70663195848464966 0.5720093846321106 0.43658941984176636
0.96358966827392578 0.668659508228302 0.51550954580307007
1 0.78149926662445068 0.60984385013580322
1 0.88897812366485596 0.7027289867401123
0.1980738490819931 0.5122067928314209 0.30475717782974243
0.36742156744003296 0.61041045188903809 0.36749574542045593
0.57125484943389893 0.70485514402389526 0.43248313665390015
0.83734190464019775 0.83056056499481201 0.51401400566101074
0.99988478422164917 0.93571454286575317 0.59950095415115356
0.99999767541885376 0.99762660264968872 0.6974174976348877
1 1 0.80752080678939819
0.25159966945648193 0.75027322769165039 0.36913332343101501
0.44148480892181396 0.87402200698852539 0.44144651293754578
0.66455084085464478 0.97081351280212402 0.5150153636932373
0.93181699514389038 0.99965870380401611 0.6014893651008606
1 1 0.69173574447631836
1 1 0.80589741468429565
1 0.99752616882324219 0.90216845273971558
0.31202247738838196 0.97511464357376099 0.44853988289833069
0.519878089427948 0.99973601102828979 0.52838194370269775
0.77593004703521729 0.99948912858963013 0.60913324356079102
0.99612694978713989 0.99484086036682129 0.6954541802406311
1 1 0.80844706296920776
1 1 0.91115552186965942
1 1 0.98423224687576294
0.38781583309173584 1 0.54206568002700806
0.62102878093719482 1 0.62115055322647095
0.90226900577545166 0.99976807832717896 0.70342493057250977
1 0.99729055166244507 0.80599284172058105
0.99995917081832886 1 0.92515617609024048
0.99915188550949097 1 0.98455929756164551
1 1 0.99997776746749878
0.10635310411453247 0.11053962260484695 0.25464442372322083
0.23117801547050476 0.14904609322547913 0.32185631990432739
0.39540800452232361 0.19827395677566528 0.40060940384864807
0.60445088148117065 0.25143086910247803 0.48459544777870178
0.85712474584579468 0.31122854351997375 0.58224797248840332
0.99422299861907959 0.37789136171340942 0.68247854709625244
1 0.45117104053497314 0.79518526792526245
0.15346257388591766 0.2408871203660965 0.3261888325214386
0.29520544409751892 0.29417222738265991 0.39823544025421143
0.48032298684120178 0.35984575748443604 0.47941228747367859
0.70750463008880615 0.42996856570243835 0.56759393215179443
0.96029329299926758 0.52026081085205078 0.67199498414993286
1 0.61096978187561035 0.78491103649139404
1 0.70070725679397583 0.88869386911392212
0.19898593425750732 0.40237906575202942 0.4049123227596283
0.36041685938835144 0.48076629638671875 0.48231524229049683
0.56612688302993774 0.56386452913284302 0.56793791055679321
0.82472354173660278 0.65732651948928833 0.65653568506240845
0.9997100830078125 0.77530044317245483 0.77225172519683838
1 0.88324874639511108 0.8885880708694458
1 0.97631019353866577 0.97539991140365601
0.25308367609977722 0.61609560251235962 0.49357560276985168
0.43500414490699768 0.71258747577667236 0.57014620304107666
0.67132091522216797 0.82691401243209839 0.67050468921661377
0.94038641452789307 0.94070041179656982 0.76202923059463501
0.9994499683380127 0.99573296308517456 0.88062673807144165
0.99995917081832886 0.99994635581970215 0.97221344709396362
1 0.99999570846557617 0.99964034557342529
0.30950078368186951 0.87091064453125 0.57728672027587891
0.51136296987533569 0.956157386302948 0.66266107559204102
0.76660221815109253 0.99870854616165161 0.76268982887268066
0.99515283107757568 0.99995046854019165 0.88153570890426636
0.99878352880477905 0.99909275770187378 0.97622060775756836
1 1 0.99970054626464844
1 0.99996858835220337 1
0.37481403350830078 0.99991011619567871 0.69126880168914795
0.60014611482620239 1 0.79148256778717041
0.89056837558746338 1 0.89272719621658325
0.99887335300445557 0.99998599290847778 0.97566652297973633
0.99651610851287842 0.99990296363830566 0.99945360422134399
0.9999120831489563 1 1
1 1 1
0.45121237635612488 1 0.79673218727111816
0.69685035943984985 1 0.90139734745025635
0.976268470287323 1 0.97497552633285522
1 1 0.99868583679199219
0.99507564306259155 1 1
0.99604851007461548 1 1
1 1 1
0.14743304252624512 0.1503027081489563 0.41949325799942017
0.29523861408233643 0.19557903707027435 0.51749533414840698
0.48551735281944275 0.25412353873252869 0.6197584867477417
0.73077338933944702 0.31442725658416748 0.74191999435424805
0.97371983528137207 0.37444004416465759 0.8439030647277832
1 0.44666528701782227 0.95861327648162842
0.99725896120071411 0.52642405033111572 0.99118953943252563
0.19683736562728882 0.29850062727928162 0.51030856370925903
0.36076143383979797 0.36221286654472351 0.60656803846359253
0.5746835470199585 0.43867790699005127 0.71979868412017822
0.83537465333938599 0.5188148021697998 0.83397567272186279
0.99887055158615112 0.59985876083374023 0.94156050682067871
0.99867671728134155 0.69849878549575806 0.99619299173355103
0.99873661994934082 0.79888403415679932 1
0.25131919980049133 0.48472324013710022 0.60941845178604126
0.43168997764587402 0.57092654705047607 0.71041405200958252
0.65582734346389771 0.65739250183105469 0.83259111642837524
0.92594951391220093 0.76933407783508301 0.92835080623626709
1 0.88294053077697754 0.9915463924407959
1 0.97485584020614624 0.9983031153678894
1 0.99969136714935303 0.99990648031234741
0.31123539805412292 0.72444170713424683 0.72572100162506104
0.51144683361053467 0.83016932010650635 0.82919257879257202
0.76471269130706787 0.94415366649627686 0.94450139999389648
0.9953799843788147 0.99439966678619385 0.99388188123703003
0.99999785423278809 1 1
1 1 1
1 1 1
0.37548163533210754 0.96920758485794067 0.84271466732025146
0.60673809051513672 0.99959534406661987 0.94651597738265991
0.8871961236000061 1 0.99499648809432983
1 0.99998867511749268 1
0.99998599290847778 1 1
1 1 1
1 1 1
0.44947132468223572 0.99783700704574585 0.95282447338104248
0.69484561681747437 1 0.99483752250671387
0.97536391019821167 1 0.99947041273117065
1 1 0.99984753131866455
0.99792963266372681 1 0.99681383371353149
1 0.9990692138671875 0.99991381168365479
1 1 0.9995582103729248
0.53384780883789062 1 0.99784594774246216
0.81293827295303345 0.99918943643569946 1
0.99960458278656006 1 0.99915498495101929
1 1 1
1 1 1
0.99998384714126587 0.9999769926071167 1
1 1 0.99713492393493652
0.20426188409328461 0.20620875060558319 0.63642346858978271
0.36781665682792664 0.2520042359828949 0.76470655202865601
0.57890224456787109 0.30944320559501648 0.859302818775177
0.84130269289016724 0.375803142786026 0.98444777727127075
0.99988800287246704 0.4469178318977356 0.99987399578094482
1 0.52408891916275024 1
0.99607843160629272 0.61247438192367554 0.99858242273330688
0.25340372323989868 0.37300205230712891 0.75600147247314453
0.43372055888175964 0.43921086192131042 0.86133956909179688
0.66707301139831543 0.51457291841506958 0.95345515012741089
0.94425153732299805 0.6029818058013916 0.99947655200958252
1 0.6880190372467041 1
1 0.79705780744552612 1
1 0.90693080425262451 0.99739569425582886
0.31075775623321533 0.5837017297744751 0.87453389167785645
0.52309602499008179 0.67571574449539185 0.97323614358901978
0.78113114833831787 0.77436566352844238 0.99833601713180542
0.99022555351257324 0.88490140438079834 1
0.99999380111694336 0.97667443752288818 0.99985772371292114
1 0.99953567981719971 0.9991573691368103
1 1 1
0.37367507815361023 0.83970129489898682 0.97661370038986206
0.60703408718109131 0.94832754135131836 0.99956071376800537
0.88155412673950195 0.99665194749832153 0.99972468614578247
1 1 0.99705111980438232
1 1 1
1 1 1
1 1 1
0.44412031769752502 0.99988484382629395 0.99944108724594116
0.69583088159561157 1 1
0.97710251808166504 0.99959641695022583 0.99996268749237061
0.99923694133758545 1 1
1 1 1
1 0.99893760681152344 0.99852663278579712
1 1 1
0.52178412675857544 1 1
0.80027663707733154 1 1
0.99919247627258301 1 1
0.99988627433776855 1 1
0.99997800588607788 1 0.99857622385025024
1 0.99625003337860107 0.99606209993362427
1 1 0.9977409839630127
0.62100070714950562 1 1
0.92133182287216187 1 1
1 1 0.99970787763595581
0.99996769428253174 1 1
1 1 1
1 1 1
1 1 1
0.26311224699020386 0.25811126828193665 0.90751856565475464
0.45124843716621399 0.3133338987827301 0.97688990831375122
0.68797522783279419 0.37413570284843445 0.99016374349594116
0.93302410840988159 0.44436442852020264 1
1 0.52395391464233398 1
0.99903637170791626 0.61180216073989868 0.99970674514770508
0.99703103303909302 0.70935899019241333 0.99632585048675537
0.31553846597671509 0.4494665265083313 0.97616660594940186
0.52073496580123901 0.52282369136810303 0.99991261959075928
0.77857929468154907 0.60575383901596069 0.99989843368530273
0.99464976787567139 0.69746118783950806 0.99858689308166504
1 0.79812395572662354 1
0.99999767541885376 0.91328173875808716 1
1 0.98475867509841919 1
0.37764587998390198 0.68513983488082886 0.99994540214538574
0.61355125904083252 0.77997714281082153 0.99999642372131348
0.89155048131942749 0.88838034868240356 1
0.99996644258499146 0.97355777025222778 1
0.99996852874755859 0.99963808059692383 1
1 1 1
1 1 1
0.44810947775840759 0.9538533091545105 0.99789142608642578
0.70519012212753296 0.99466949701309204 0.9933021068572998
0.97664517164230347 1 1
1 1 1
1 0.99754613637924194 1
1 0.99975532293319702 1
1 1 1
0.52426379919052124 1 1
0.80542558431625366 0.99998712539672852 0.9999699592590332
0.99935871362686157 0.99946862459182739 1
0.9999193549156189 0.99987363815307617 1
0.99961203336715698 0.99956017732620239 0.99996495246887207
1 0.99637907743453979 0.99669814109802246
1 1 1
0.61083120107650757 1 1
0.90724903345108032 0.999988853931427 1
0.99988776445388794 1 1
0.99675744771957397 1 1
0.99648112058639526 0.99984467029571533 0.99995279312133789
1 0.99685037136077881 0.99694442749023438
1 1 1
0.71295499801635742 1 1
0.98184072971343994 1 1
1 1 1
0.99545449018478394 1 1
0.9992561936378479 1 1
1 1 1
1 1 1
0.33580711483955383 0.32227131724357605 0.99748909473419189
0.5477372407913208 0.38587167859077454 1
0.79051989316940308 0.4552217423915863 1
0.99554133415222168 0.53235167264938354 1
1 0.61898458003997803 0.99976491928100586
0.99923396110534668 0.70895695686340332 0.99773168563842773
1 0.80623084306716919 1
0.38775438070297241 0.53676456212997437 1
0.61710655689239502 0.6151764988899231 1
0.87228065729141235 0.70834285020828247 0.99993896484375
0.9989514946937561 0.81227576732635498 1
1 0.91643065214157104 1
0.99965977668762207 0.98330110311508179 1
1 0.99993610382080078 1
0.45198717713356018 0.7924731969833374 1
0.70382928848266602 0.89669626951217651 1
0.97206205129623413 0.97515153884887695 1
0.99986845254898071 0.99966448545455933 1
0.999553382396698 1 1
1 1 1
1 0.99865752458572388 1
0.52762699127197266 0.99708729982376099 0.99866044521331787
0.80378943681716919 1 0.9988783597946167
0.99944472312927246 1 1
1 1 1
1 1 1
1 1 1
1 1 1
0.62258809804916382 1 1
0.90418410301208496 0.99791955947875977 1
1 1 1
1 1 1
1 1 1
1 1 1
1 1 1
0.73474687337875366 1 1
0.98585617542266846 0.99983698129653931 1
1 1 1
1 1 1
1 1 1
1 1 1
1 1 1
0.83178073167800903 1 1
0.99987536668777466 1 1
0.99858975410461426 1 1
0.99966621398925781 1 1
1 1 1
1 1 1
1 1 1
