assets/lut/creative futuristicbleak 03.cube
# Created by: G'MIC (https://gmic.eu)
TITLE "futuristicbleak_3"
# LUT size
LUT_3D_SIZE 7
# Data domain
DOMAIN_MIN 0.0 0.0 0.0
DOMAIN_MAX 1.0 1.0 1.0
# LUT data points
0.11615325510501862 0.14404566586017609 0.15690450370311737
0.16905507445335388 0.16810217499732971 0.17439621686935425
0.25838211178779602 0.19528461992740631 0.18729102611541748
0.34505489468574524 0.22376653552055359 0.20343564450740814
0.43055179715156555 0.2610701322555542 0.22744408249855042
0.523517906665802 0.29579976201057434 0.25234103202819824
0.62395757436752319 0.33216086030006409 0.27925014495849609
0.1633913516998291 0.22583717107772827 0.20932433009147644
0.20174938440322876 0.24097733199596405 0.20113816857337952
0.27672511339187622 0.26030269265174866 0.20507046580314636
0.36766588687896729 0.27715784311294556 0.20486879348754883
0.45758858323097229 0.30585667490959167 0.22372196614742279
0.54670697450637817 0.33913427591323853 0.24829657375812531
0.64477348327636719 0.37255403399467468 0.28203886747360229
0.24109315872192383 0.32795089483261108 0.26564422249794006
0.26719862222671509 0.33614826202392578 0.25658604502677917
0.3088633120059967 0.35563203692436218 0.2649020254611969
0.36597159504890442 0.37465086579322815 0.27515241503715515
0.46724247932434082 0.39026543498039246 0.26766151189804077
0.58906525373458862 0.40054017305374146 0.26427006721496582
0.69653314352035522 0.41928145289421082 0.27935636043548584
0.34108701348304749 0.42966964840888977 0.33142012357711792
0.34824636578559875 0.4292028546333313 0.31778934597969055
0.38239842653274536 0.44453859329223633 0.3165554404258728
0.42438718676567078 0.46136641502380371 0.32819673418998718
0.49685603380203247 0.48338150978088379 0.33683210611343384
0.58955985307693481 0.50241726636886597 0.33128982782363892
0.7160952091217041 0.50929874181747437 0.31858733296394348
0.4551699161529541 0.533549964427948 0.40208813548088074
0.46008679270744324 0.53422194719314575 0.39473345875740051
0.48251977562904358 0.54701060056686401 0.38884422183036804
0.52157634496688843 0.55734419822692871 0.39359322190284729
0.57013285160064697 0.57266920804977417 0.40897431969642639
0.63167434930801392 0.59334510564804077 0.4196765124797821
0.71632868051528931 0.61213809251785278 0.41195601224899292
0.56724721193313599 0.63277125358581543 0.48157423734664917
0.56987780332565308 0.63432502746582031 0.47307446599006653
0.58253985643386841 0.6439586877822876 0.46488893032073975
0.61200875043869019 0.65365004539489746 0.46440014243125916
0.65287595987319946 0.66438263654708862 0.47523018717765808
0.70168077945709229 0.67916500568389893 0.49428430199623108
0.76008766889572144 0.7010185718536377 0.51062470674514771
0.67466390132904053 0.72975039482116699 0.56312912702560425
0.67861264944076538 0.73159497976303101 0.55819243192672729
0.68534153699874878 0.74163597822189331 0.54850733280181885
0.70503389835357666 0.74955242872238159 0.54307955503463745
0.73837614059448242 0.75806939601898193 0.54512494802474976
0.77654522657394409 0.77069520950317383 0.55880236625671387
0.8254963755607605 0.794838547706604 0.58259093761444092
0.12376279383897781 0.15728133916854858 0.17602299153804779
0.15523792803287506 0.18688943982124329 0.1977723240852356
0.21165198087692261 0.23086592555046082 0.23067408800125122
0.28525614738464355 0.2662893533706665 0.25550004839897156
0.38604721426963806 0.30294820666313171 0.28091526031494141
0.48535448312759399 0.32911941409111023 0.30142688751220703
0.5969470739364624 0.3612983226776123 0.33279472589492798
0.17078965902328491 0.23182483017444611 0.22132273018360138
0.19568222761154175 0.25069886445999146 0.23736543953418732
0.25313195586204529 0.27168819308280945 0.24602413177490234
0.33228248357772827 0.29486486315727234 0.25577336549758911
0.42797139286994934 0.32444161176681519 0.27552884817123413
0.51815241575241089 0.35476049780845642 0.30447334051132202
0.62619292736053467 0.38315314054489136 0.33310022950172424
0.25005441904067993 0.32648438215255737 0.28701812028884888
0.26492676138877869 0.33762437105178833 0.28763404488563538
0.30631005764007568 0.35874488949775696 0.29135257005691528
0.361930251121521 0.37666872143745422 0.28892666101455688
0.4654567539691925 0.39427661895751953 0.28329670429229736
0.57562673091888428 0.41477406024932861 0.29177892208099365
0.67692595720291138 0.44070908427238464 0.31814810633659363
0.33903595805168152 0.42298778891563416 0.34845849871635437
0.34541642665863037 0.43077182769775391 0.34507152438163757
0.37200704216957092 0.44365441799163818 0.33764311671257019
0.42230209708213806 0.46461504697799683 0.3483613133430481
0.49222791194915771 0.48439672589302063 0.35075598955154419
0.59418106079101562 0.50212883949279785 0.34216594696044922
0.71713876724243164 0.5112728476524353 0.33319494128227234
0.45177647471427917 0.5328717827796936 0.41850826144218445
0.46061903238296509 0.53698146343231201 0.41547787189483643
0.48396545648574829 0.54612118005752563 0.40900158882141113
0.51927250623703003 0.55963826179504395 0.41091510653495789
0.56736463308334351 0.57567930221557617 0.42304143309593201
0.63088274002075195 0.59632480144500732 0.43601441383361816
0.71555197238922119 0.61285930871963501 0.42640611529350281
0.56804227828979492 0.62995356321334839 0.49681615829467773
0.57700365781784058 0.63331931829452515 0.49561432003974915
0.5893058180809021 0.64255392551422119 0.48839792609214783
0.61289066076278687 0.65425556898117065 0.47859588265419006
0.65252643823623657 0.66889148950576782 0.49130681157112122
0.69845849275588989 0.67996394634246826 0.50798577070236206
0.75941139459609985 0.70295089483261108 0.52220720052719116
0.67692303657531738 0.73273438215255737 0.57711952924728394
0.68219339847564697 0.73417013883590698 0.57447177171707153
0.69118630886077881 0.73832899332046509 0.56652045249938965
0.70743626356124878 0.75184732675552368 0.55932164192199707
0.73532354831695557 0.76104795932769775 0.55848777294158936
0.77425092458724976 0.77339541912078857 0.57110631465911865
0.82002562284469604 0.79279571771621704 0.59036606550216675
0.13894957304000854 0.17615069448947906 0.19876135885715485
0.16555036604404449 0.20476908981800079 0.21584291756153107
0.20969288051128387 0.24221406877040863 0.24795454740524292
0.2659248411655426 0.29005640745162964 0.2831462025642395
0.33556962013244629 0.33796104788780212 0.30778560042381287
0.42964446544647217 0.37822994589805603 0.34065669775009155
0.54296547174453735 0.42235809564590454 0.38378840684890747
0.18197396397590637 0.24177946150302887 0.23972572386264801
0.19998440146446228 0.25615528225898743 0.2523249089717865
0.24006395041942596 0.28727579116821289 0.27532926201820374
0.2872518002986908 0.32314884662628174 0.3005530834197998
0.361549973487854 0.36309748888015747 0.32335695624351501
0.46058869361877441 0.39870727062225342 0.35238245129585266
0.57176941633224487 0.43372055888175964 0.3886817991733551
0.25833457708358765 0.33331859111785889 0.30537289381027222
0.26816830039024353 0.34149384498596191 0.30872127413749695
0.30074194073677063 0.36433428525924683 0.32170626521110535
0.35052311420440674 0.38455325365066528 0.33544853329658508
0.43324220180511475 0.41227477788925171 0.34675759077072144
0.5315738320350647 0.43559682369232178 0.3610846996307373
0.63506847620010376 0.46839767694473267 0.39974328875541687
0.34687227010726929 0.42810860276222229 0.36815419793128967
0.35898891091346741 0.43632715940475464 0.37357214093208313
0.3758794367313385 0.44931268692016602 0.37842836976051331
0.4225810170173645 0.46849328279495239 0.37794631719589233
0.48968642950057983 0.48665270209312439 0.38413271307945251
0.59000331163406372 0.50431734323501587 0.38201180100440979
0.69904482364654541 0.52323287725448608 0.39425218105316162
0.46695920825004578 0.53215932846069336 0.44433256983757019
0.47055241465568542 0.53388714790344238 0.4460296630859375
0.49212309718132019 0.54839968681335449 0.44398048520088196
0.52066296339035034 0.56422364711761475 0.44029614329338074
0.56310373544692993 0.57867836952209473 0.44661059975624084
0.62596112489700317 0.59822028875350952 0.4573310911655426
0.72264498472213745 0.61244779825210571 0.44772633910179138
0.57751220464706421 0.62781476974487305 0.51631361246109009
0.58293116092681885 0.63242292404174805 0.51898062229156494
0.59302991628646851 0.64468717575073242 0.51872873306274414
0.61208242177963257 0.65439081192016602 0.51056301593780518
0.64653211832046509 0.66825836896896362 0.50939518213272095
0.6941571831703186 0.68317198753356934 0.5270078182220459
0.75476974248886108 0.70573610067367554 0.54337650537490845
0.68438315391540527 0.73299908638000488 0.6002545952796936
0.68581610918045044 0.7354738712310791 0.59942090511322021
0.69532722234725952 0.73938548564910889 0.59287148714065552
0.71250742673873901 0.75195538997650146 0.58719867467880249
0.73315525054931641 0.76321119070053101 0.57997345924377441
0.77244096994400024 0.77354699373245239 0.58924967050552368
0.82456696033477783 0.79637938737869263 0.61367702484130859
0.15987502038478851 0.20171833038330078 0.22643053531646729
0.18317551910877228 0.22450287640094757 0.24299032986164093
0.22013509273529053 0.25932008028030396 0.26716423034667969
0.27015411853790283 0.30187350511550903 0.30059170722961426
0.33219453692436218 0.35371482372283936 0.33397957682609558
0.40333074331283569 0.40412595868110657 0.36172875761985779
0.49447068572044373 0.45682349801063538 0.397828608751297
0.203031986951828 0.26267766952514648 0.26601371169090271
0.21429283916950226 0.27112260460853577 0.27324828505516052
0.25322198867797852 0.29935738444328308 0.2952638566493988
0.29482340812683105 0.33629909157752991 0.32083424925804138
0.35259032249450684 0.38177865743637085 0.35117125511169434
0.42166697978973389 0.42679354548454285 0.37703731656074524
0.51548153162002563 0.4707891047000885 0.40878733992576599
0.26863062381744385 0.34213706851005554 0.32134678959846497
0.27740094065666199 0.35269716382026672 0.3277069628238678
0.30219358205795288 0.37371137738227844 0.34044724702835083
0.34588086605072021 0.39896443486213684 0.35790848731994629
0.4054255485534668 0.4327068030834198 0.38352024555206299
0.47175055742263794 0.46946585178375244 0.40441536903381348
0.57889139652252197 0.50189626216888428 0.43436220288276672
0.35849359631538391 0.43437871336936951 0.38553392887115479
0.36697232723236084 0.44073477387428284 0.38900366425514221
0.38703954219818115 0.45410332083702087 0.3987535834312439
0.42198139429092407 0.47260001301765442 0.4096170961856842
0.48257312178611755 0.49498000741004944 0.41865253448486328
0.55944043397903442 0.52208167314529419 0.43643230199813843
0.65737462043762207 0.54308170080184937 0.45437625050544739
0.47709700465202332 0.53529065847396851 0.45780166983604431
0.48406073451042175 0.53800636529922485 0.45921584963798523
0.50015628337860107 0.54908943176269531 0.46775931119918823
0.5223889946937561 0.56399309635162354 0.47176423668861389
0.56426405906677246 0.58405488729476929 0.47725266218185425
0.62756729125976562 0.60341185331344604 0.48568183183670044
0.72298234701156616 0.61684125661849976 0.48427709937095642
0.58238047361373901 0.63171625137329102 0.53297793865203857
0.58978438377380371 0.63600248098373413 0.53291302919387817
0.59947448968887329 0.64172786474227905 0.53885287046432495
0.61606895923614502 0.65448957681655884 0.54537087678909302
0.64648687839508057 0.67303466796875 0.53827971220016479
0.69433450698852539 0.68690550327301025 0.55169045925140381
0.75341671705245972 0.70964109897613525 0.56089162826538086
0.69028562307357788 0.72968971729278564 0.6156764030456543
0.69137352705001831 0.72972202301025391 0.61584079265594482
0.70003443956375122 0.73770391941070557 0.62049263715744019
0.71346086263656616 0.74808984994888306 0.61838555335998535
0.73199689388275146 0.76319795846939087 0.61150574684143066
0.77284687757492065 0.78063005208969116 0.614726722240448
0.82133311033248901 0.80062419176101685 0.63563317060470581
0.18966642022132874 0.23354616761207581 0.26198729872703552
0.20735283195972443 0.25282377004623413 0.27399417757987976
0.23367330431938171 0.27889204025268555 0.28987225890159607
0.28207582235336304 0.31959101557731628 0.32248994708061218
0.33683750033378601 0.36346855759620667 0.35526540875434875
0.40359953045845032 0.41440904140472412 0.38830104470252991
0.47786799073219299 0.46731987595558167 0.42408668994903564
0.22066323459148407 0.27828416228294373 0.2888396680355072
0.23515355587005615 0.28946226835250854 0.30037546157836914
0.26444464921951294 0.31388184428215027 0.31725567579269409
0.30200603604316711 0.35005506873130798 0.34044608473777771
0.35817939043045044 0.38967344164848328 0.3710249662399292
0.4229835569858551 0.43398395180702209 0.40014830231666565
0.4970761239528656 0.48485112190246582 0.43325930833816528
0.28127029538154602 0.35659018158912659 0.33525577187538147
0.2923545241355896 0.36676472425460815 0.34434729814529419
0.31450304388999939 0.38459023833274841 0.35941365361213684
0.35619387030601501 0.40827688574790955 0.37966585159301758
0.41180163621902466 0.44243073463439941 0.40232035517692566
0.46932533383369446 0.47982442378997803 0.42586010694503784
0.54202669858932495 0.52686393260955811 0.45883205533027649
0.3702513575553894 0.44321617484092712 0.39847466349601746
0.38183796405792236 0.4501568078994751 0.40568938851356506
0.39747446775436401 0.461607426404953 0.41363722085952759
0.43161621689796448 0.48240175843238831 0.42881232500076294
0.4745919406414032 0.5044594407081604 0.44370883703231812
0.53459703922271729 0.5415034294128418 0.46924647688865662
0.59887439012527466 0.57297831773757935 0.494882732629776
0.48748001456260681 0.54134285449981689 0.4682859480381012
0.49659040570259094 0.5447235107421875 0.47152981162071228
0.50960838794708252 0.55479812622070312 0.47967091202735901
0.52888327836990356 0.56833744049072266 0.49205070734024048
0.56376892328262329 0.58718681335449219 0.50738990306854248
0.62183815240859985 0.61150377988815308 0.52442967891693115
0.69287711381912231 0.63664591312408447 0.54000294208526611
0.59309595823287964 0.63643306493759155 0.5446886420249939
0.59842818975448608 0.63717615604400635 0.54651761054992676
0.60737699270248413 0.64337426424026489 0.55278056859970093
0.62741744518280029 0.65772902965545654 0.56473124027252197
0.65337163209915161 0.67504280805587769 0.57339304685592651
0.69499963521957397 0.69474714994430542 0.58083522319793701
0.75456303358078003 0.71375256776809692 0.58948260545730591
0.69556474685668945 0.73003625869750977 0.6262814998626709
0.69938540458679199 0.73404186964035034 0.62878400087356567
0.70950371026992798 0.74120688438415527 0.63525468111038208
0.72213178873062134 0.74978005886077881 0.63961696624755859
0.73963958024978638 0.76196640729904175 0.64596414566040039
0.77097183465957642 0.78011655807495117 0.64534717798233032
0.82370662689208984 0.80149072408676147 0.66129952669143677
0.21580129861831665 0.26202914118766785 0.28787514567375183
0.22832678258419037 0.27569803595542908 0.30055093765258789
0.25518473982810974 0.29966968297958374 0.31846258044242859
0.29493701457977295 0.33732080459594727 0.34588479995727539
0.35152792930603027 0.38162907958030701 0.37595400214195251
0.41374859213829041 0.42727836966514587 0.41233089566230774
0.48535186052322388 0.47647875547409058 0.45174306631088257
0.24473488330841064 0.30009698867797852 0.3158436119556427
0.25341132283210754 0.30946552753448486 0.32269078493118286
0.28013351559638977 0.33386260271072388 0.34198832511901855
0.31256499886512756 0.36594271659851074 0.36063313484191895
0.37040737271308899 0.40515789389610291 0.38950785994529724
0.43362522125244141 0.44648456573486328 0.42491564154624939
0.50208067893981934 0.49474537372589111 0.45901650190353394
0.29967531561851501 0.37260696291923523 0.35755613446235657
0.31122034788131714 0.38130351901054382 0.36403465270996094
0.33596399426460266 0.39785975217819214 0.37845882773399353
0.37302961945533752 0.42364156246185303 0.39782840013504028
0.42443528771400452 0.45610317587852478 0.4218277633190155
0.48061993718147278 0.49359235167503357 0.44930183887481689
0.54871636629104614 0.53542345762252808 0.48221766948699951
0.389250248670578 0.45683291554450989 0.41638094186782837
0.39927807450294495 0.46474236249923706 0.42238101363182068
0.41386783123016357 0.4741385281085968 0.42982718348503113
0.4493267834186554 0.49175867438316345 0.44645515084266663
0.49015781283378601 0.51611828804016113 0.46463233232498169
0.54479122161865234 0.54935193061828613 0.49020221829414368
0.59955489635467529 0.58397048711776733 0.51909840106964111
0.49405044317245483 0.54895120859146118 0.4818396270275116
0.50313210487365723 0.55571025609970093 0.48832395672798157
0.51991277933120728 0.5602918267250061 0.49617961049079895
0.54169100522994995 0.57489371299743652 0.50914222002029419
0.57568168640136719 0.59763497114181519 0.52867990732192993
0.61263453960418701 0.62159943580627441 0.54562890529632568
0.66458618640899658 0.65378648042678833 0.57176399230957031
0.60133141279220581 0.6433948278427124 0.55903857946395874
0.60771620273590088 0.64322882890701294 0.55898350477218628
0.61735093593597412 0.65168792009353638 0.56581705808639526
0.63668215274810791 0.66620004177093506 0.57718586921691895
0.66322165727615356 0.68054723739624023 0.5953858494758606
0.69495272636413574 0.70121461153030396 0.61048859357833862
0.74775236845016479 0.72494387626647949 0.62842279672622681
0.7021598219871521 0.73782765865325928 0.64008039236068726
0.70638221502304077 0.74047458171844482 0.64132165908813477
0.71337670087814331 0.74170058965682983 0.64527446031570435
0.73098504543304443 0.75520354509353638 0.65501630306243896
0.75120824575424194 0.76824939250946045 0.66787362098693848
0.77704787254333496 0.78564625978469849 0.67768222093582153
0.82944035530090332 0.80855411291122437 0.69504791498184204
0.24518857896327972 0.29252120852470398 0.31948328018188477
0.25517606735229492 0.30108126997947693 0.32735493779182434
0.28054988384246826 0.32352438569068909 0.34634208679199219
0.30916449427604675 0.3525540828704834 0.36438927054405212
0.36413908004760742 0.39746561646461487 0.39381784200668335
0.42558646202087402 0.44347196817398071 0.43579897284507751
0.48941022157669067 0.48607403039932251 0.46597746014595032
0.27175197005271912 0.32788893580436707 0.34536993503570557
0.27946659922599792 0.33209797739982605 0.35005727410316467
0.30005118250846863 0.35431677103042603 0.36697542667388916
0.33231896162033081 0.38392212986946106 0.38355335593223572
0.38838890194892883 0.42255118489265442 0.41189870238304138
0.44582793116569519 0.46299433708190918 0.44607388973236084
0.51116800308227539 0.50526374578475952 0.47989764809608459
0.32354578375816345 0.38971865177154541 0.38568156957626343
0.33482983708381653 0.39700132608413696 0.39263603091239929
0.35689812898635864 0.41275256872177124 0.40205290913581848
0.39389735460281372 0.43667662143707275 0.41890180110931396
0.44214978814125061 0.46863266825675964 0.44171157479286194
0.49670147895812988 0.50624227523803711 0.47256588935852051
0.55511212348937988 0.54597431421279907 0.50747776031494141
0.40611347556114197 0.47017642855644226 0.43073800206184387
0.4136049747467041 0.47459074854850769 0.43514347076416016
0.43896538019180298 0.48750790953636169 0.45103773474693298
0.46773627400398254 0.501720130443573 0.46215587854385376
0.50799381732940674 0.52410173416137695 0.48145860433578491
0.55652153491973877 0.56057250499725342 0.51107853651046753
0.60663282871246338 0.59315305948257446 0.54018330574035645
0.51048022508621216 0.55826646089553833 0.50159221887588501
0.51651394367218018 0.56367671489715576 0.50610083341598511
0.53044295310974121 0.57234025001525879 0.51449751853942871
0.55260884761810303 0.58279705047607422 0.52443546056747437
0.58550995588302612 0.60285300016403198 0.54392200708389282
0.62337034940719604 0.63057458400726318 0.56556349992752075
0.67170482873916626 0.66183501482009888 0.59306031465530396
0.60915011167526245 0.64802932739257812 0.57501262426376343
0.6141122579574585 0.65431147813796997 0.57839435338973999
0.62752002477645874 0.65890181064605713 0.5826256275177002
0.64682990312576294 0.6734389066696167 0.59329158067703247
0.67279446125030518 0.6847042441368103 0.60839569568634033
0.70147216320037842 0.70570451021194458 0.62814193964004517
0.73681670427322388 0.7316163182258606 0.6437610387802124
0.71254467964172363 0.74166214466094971 0.65157943964004517
0.71739643812179565 0.74643623828887939 0.65635591745376587
0.72732532024383545 0.75205051898956299 0.66182076930999756
0.7427099347114563 0.76199871301651001 0.66909611225128174
0.76310509443283081 0.77534753084182739 0.68327182531356812
0.7856563925743103 0.79078888893127441 0.69997376203536987
0.83402317762374878 0.81721788644790649 0.73218798637390137
