assets/lut/creative anime.cube
# Created by: G'MIC (https://gmic.eu)
TITLE "anime"
# LUT size
LUT_3D_SIZE 7
# Data domain
DOMAIN_MIN 0.0 0.0 0.0
DOMAIN_MAX 1.0 1.0 1.0
# LUT data points
0.0775742307305336 0.034832194447517395 0.0053431643173098564
0.18620386719703674 0.061182793229818344 0.0050532622262835503
0.30077964067459106 0.11193178594112396 0.012717647477984428
0.41087689995765686 0.17542797327041626 0.041257116943597794
0.52998733520507812 0.24336440861225128 0.080286420881748199
0.64946424961090088 0.31821313500404358 0.13126534223556519
0.78392273187637329 0.39794832468032837 0.1903776228427887
0.016673741862177849 0.18781578540802002 0.00089850334916263819
0.21103295683860779 0.17591568827629089 0.03148220106959343
0.31252071261405945 0.21166145801544189 0.068039208650588989
0.41434067487716675 0.26086726784706116 0.10574553161859512
0.53187543153762817 0.31870391964912415 0.14733736217021942
0.65120500326156616 0.37929722666740417 0.19049663841724396
0.77962362766265869 0.4406554102897644 0.2342083603143692
0.012471277266740799 0.366485595703125 9.3347889560391195e-06
0.19850678741931915 0.33720320463180542 0.035383053123950958
0.37012305855751038 0.33788600564002991 0.13557617366313934
0.46060484647750854 0.37659940123558044 0.17336516082286835
0.55896604061126709 0.42531314492225647 0.21280765533447266
0.66630351543426514 0.47643759846687317 0.25616627931594849
0.78520101308822632 0.53534454107284546 0.30565339326858521
0.0060274163261055946 0.53841322660446167 0
0.13909116387367249 0.5203927755355835 0.014033418148756027
0.41257479786872864 0.48951750993728638 0.18835577368736267
0.52227365970611572 0.50587159395217896 0.25198748707771301
0.62225633859634399 0.53985297679901123 0.28604671359062195
0.71643781661987305 0.58753955364227295 0.32497057318687439
0.82124489545822144 0.63525652885437012 0.36567854881286621
0.0026250053197145462 0.72186011075973511 0
0.0304731335490942 0.71452212333679199 0.0032283707987517118
0.36999398469924927 0.68146497011184692 0.090952374041080475
0.58411270380020142 0.66778194904327393 0.33865395188331604
0.69675469398498535 0.6860308051109314 0.37638133764266968
0.79041439294815063 0.70866233110427856 0.40286731719970703
0.88037729263305664 0.74201834201812744 0.42947325110435486
0 0.88836467266082764 0
0.014941870234906673 0.88137578964233398 0
0.25982934236526489 0.86105585098266602 0.021644202992320061
0.59003967046737671 0.83131963014602661 0.28787785768508911
0.75613600015640259 0.82405614852905273 0.45533177256584167
0.85898977518081665 0.83699524402618408 0.47711828351020813
0.95717817544937134 0.85686659812927246 0.49857416749000549
0 0.99292111396789551 0
0.00074693269561976194 0.99004673957824707 0
0.087480224668979645 0.98716068267822266 0.00058599736075848341
0.51307713985443115 0.98252010345458984 0.096204943954944611
0.79489684104919434 0.96529632806777954 0.47442436218261719
0.90271890163421631 0.96856379508972168 0.54497188329696655
0.9883275032043457 0.97438764572143555 0.55796933174133301
0.10365661978721619 0.039416294544935226 0.14196501672267914
0.19495400786399841 0.051598984748125076 0.084222815930843353
0.29606646299362183 0.10654869675636292 0.088802814483642578
0.40812700986862183 0.16848693788051605 0.11390482634305954
0.53058159351348877 0.24023564159870148 0.14474566280841827
0.65792220830917358 0.31484022736549377 0.18647199869155884
0.7911146879196167 0.38938075304031372 0.2313762754201889
0.039501909166574478 0.19586636126041412 0.10964156687259674
0.19722513854503632 0.17667225003242493 0.11394886672496796
0.32425081729888916 0.20605131983757019 0.14418064057826996
0.42871382832527161 0.24687068164348602 0.16525349020957947
0.54947638511657715 0.30739012360572815 0.19200485944747925
0.67143923044204712 0.36704686284065247 0.22651223838329315
0.80313420295715332 0.43320140242576599 0.26233449578285217
0.00089081411715596914 0.38062193989753723 0.024723995476961136
0.074476785957813263 0.36116018891334534 0.033970702439546585
0.3619009256362915 0.33918407559394836 0.2032335102558136
0.46033170819282532 0.37941175699234009 0.24475285410881042
0.56737262010574341 0.42634889483451843 0.28338316082954407
0.68218070268630981 0.4718400239944458 0.30970174074172974
0.80817389488220215 0.52401161193847656 0.34096768498420715
0.00064686796395108104 0.55674141645431519 0.0026073530316352844
0.037970822304487228 0.54353636503219604 0.0079913269728422165
0.35240572690963745 0.50149613618850708 0.17066115140914917
0.51911723613739014 0.50760716199874878 0.30759674310684204
0.62133944034576416 0.54267239570617676 0.34259557723999023
0.71639221906661987 0.59045732021331787 0.38206836581230164
0.82121652364730835 0.63142305612564087 0.41245430707931519
2.8722427032334963e-06 0.73513853549957275 0.00088852527551352978
0.014960045926272869 0.72494953870773315 0.002802620641887188
0.26478150486946106 0.7009347677230835 0.051045093685388565
0.57072752714157104 0.67211663722991943 0.3537009060382843
0.69292557239532471 0.68227320909500122 0.42040297389030457
0.7889217734336853 0.71150010824203491 0.44853878021240234
0.87887585163116455 0.74387425184249878 0.47320172190666199
0 0.89127475023269653 0.00046090519754216075
0.0049683516845107079 0.89783167839050293 0
0.13575460016727448 0.87558627128601074 0.015068413689732552
0.54306185245513916 0.84538614749908447 0.25289863348007202
0.7544054388999939 0.82892334461212158 0.49134066700935364
0.85540199279785156 0.84064066410064697 0.51438206434249878
0.95131349563598633 0.85750192403793335 0.53837937116622925
0 0.99395322799682617 0
0.00028324502636678517 0.99360460042953491 0
0.034451130777597427 0.99135416746139526 0.0017588597256690264
0.41603818535804749 0.98714530467987061 0.079932555556297302
0.77705675363540649 0.97311902046203613 0.47116315364837646
0.90205764770507812 0.9670102596282959 0.5764085054397583
0.98812282085418701 0.97533327341079712 0.58588969707489014
0.12237927317619324 0.036367066204547882 0.30560040473937988
0.23264387249946594 0.034981716424226761 0.25879204273223877
0.31482422351837158 0.10705207288265228 0.18641792237758636
0.41739115118980408 0.17329256236553192 0.20306195318698883
0.53192824125289917 0.2416880875825882 0.23808856308460236
0.65786826610565186 0.31853118538856506 0.27860483527183533
0.78454780578613281 0.39616471529006958 0.31224015355110168
0.084192626178264618 0.19018538296222687 0.30263647437095642
0.21577908098697662 0.18752506375312805 0.29435938596725464
0.33248433470726013 0.19711506366729736 0.2331194132566452
0.42898589372634888 0.24224628508090973 0.23944593966007233
0.54736816883087158 0.3052310049533844 0.26982122659683228
0.66814166307449341 0.36536678671836853 0.30119895935058594
0.79926872253417969 0.43265745043754578 0.33479976654052734
0.050396233797073364 0.36644273996353149 0.26527419686317444
0.1108861118555069 0.36422276496887207 0.27241218090057373
0.34423404932022095 0.34963998198509216 0.29721963405609131
0.4720492959022522 0.38035666942596436 0.32715615630149841
0.5830579400062561 0.41716402769088745 0.34436973929405212
0.6978181004524231 0.46486169099807739 0.37026840448379517
0.82660830020904541 0.51475244760513306 0.3907322883605957
0.00027479283744469285 0.55804193019866943 0.15744389593601227
0.0025276781525462866 0.55450230836868286 0.13881997764110565
0.18016363680362701 0.53387093544006348 0.19943280518054962
0.51290667057037354 0.50944662094116211 0.38881051540374756
0.6170506477355957 0.54990452527999878 0.43104726076126099
0.72426807880401611 0.58660590648651123 0.45690596103668213
0.8457302451133728 0.62685972452163696 0.47874414920806885
0 0.74316048622131348 0.042746059596538544
0.00065295648528262973 0.74499022960662842 0.031650811433792114
0.058100022375583649 0.73333656787872314 0.049721077084541321
0.50512957572937012 0.69053328037261963 0.35501107573509216
0.6858704686164856 0.68939286470413208 0.49856236577033997
0.78462666273117065 0.71482241153717041 0.52721941471099854
0.87616044282913208 0.74740946292877197 0.55099838972091675
0 0.89807814359664917 0.044313900172710419
0.00050892547005787492 0.90448969602584839 0.017710937187075615
0.030542695894837379 0.90578770637512207 0.0089426971971988678
0.38397249579429626 0.87106794118881226 0.18758994340896606
0.73752623796463013 0.83265972137451172 0.53537744283676147
0.85106933116912842 0.84113168716430664 0.58650451898574829
0.9404911994934082 0.85898679494857788 0.60628503561019897
0 0.99455833435058594 0.037974487990140915
0 0.99555832147598267 0.013458671048283577
0.012549710460007191 0.99030601978302002 0.0058356192894279957
0.2516113817691803 0.99081707000732422 0.055152937769889832
0.70409232378005981 0.97798365354537964 0.42666918039321899
0.89391034841537476 0.96685516834259033 0.62605595588684082
0.98835772275924683 0.97510892152786255 0.64821720123291016
0.1258300244808197 0.038700327277183533 0.44683361053466797
0.23841628432273865 0.035650186240673065 0.41993746161460876
0.35934597253799438 0.069250799715518951 0.35000452399253845
0.43609130382537842 0.17200800776481628 0.29522350430488586
0.54271984100341797 0.25017270445823669 0.32046064734458923
0.66116142272949219 0.3226361870765686 0.36091053485870361
0.78432822227478027 0.39555758237838745 0.39915531873703003
0.081855878233909607 0.19044369459152222 0.45802304148674011
0.20819909870624542 0.19125872850418091 0.45538040995597839
0.36169824004173279 0.19650611281394958 0.40724089741706848
0.45096001029014587 0.24794785678386688 0.33551579713821411
0.55907279253005981 0.31343388557434082 0.35502138733863831
0.67232614755630493 0.36878654360771179 0.38507965207099915
0.7963377833366394 0.43630525469779968 0.41627487540245056
0.044469647109508514 0.36327719688415527 0.46022450923919678
0.16988030076026917 0.35882037878036499 0.45953074097633362
0.35320192575454712 0.35983899235725403 0.46400442719459534
0.47942259907722473 0.37326109409332275 0.41577503085136414
0.58795130252838135 0.41922265291213989 0.42059233784675598
0.69909465312957764 0.46450147032737732 0.44309079647064209
0.82794380187988281 0.52026891708374023 0.46770969033241272
0.082197271287441254 0.53897833824157715 0.4364495575428009
0.10014078766107559 0.5380856990814209 0.4465542733669281
0.24287360906600952 0.53167843818664551 0.45661446452140808
0.49392196536064148 0.51891523599624634 0.47516357898712158
0.62689018249511719 0.54617547988891602 0.50513154268264771
0.73971152305603027 0.58047819137573242 0.51586365699768066
0.86710453033447266 0.62123823165893555 0.53434276580810547
0.00033416747464798391 0.74808299541473389 0.38741219043731689
0.00019317328406032175 0.74898338317871094 0.36114698648452759
0.0083711510524153709 0.74984633922576904 0.32226842641830444
0.29167655110359192 0.72672390937805176 0.38235732913017273
0.68885844945907593 0.69415223598480225 0.58028572797775269
0.78182238340377808 0.72043442726135254 0.6116633415222168
0.88000947237014771 0.75121003389358521 0.62866449356079102
0 0.9054291844367981 0.31328335404396057
0 0.91465145349502563 0.2661760151386261
0.00073747819988057017 0.92346072196960449 0.1201651319861412
0.11158985644578934 0.90898799896240234 0.17997013032436371
0.68501609563827515 0.85035854578018188 0.54574316740036011
0.84779304265975952 0.84243649244308472 0.66163456439971924
0.93692195415496826 0.86326843500137329 0.68110793828964233
0 0.99465596675872803 0.2778116762638092
0 0.9983288049697876 0.23291261494159698
0.00048410752788186073 0.99679660797119141 0.1051579937338829
0.057138331234455109 0.99534511566162109 0.060205809772014618
0.55285799503326416 0.98816817998886108 0.37764272093772888
0.88184142112731934 0.96556848287582397 0.67574620246887207
0.97863161563873291 0.96769267320632935 0.71716761589050293
0.10521966964006424 0.04592934250831604 0.6012953519821167
0.23255394399166107 0.044618941843509674 0.58174920082092285
0.38426560163497925 0.054247163236141205 0.53553712368011475
0.48405477404594421 0.14205838739871979 0.4623512327671051
0.56645292043685913 0.25093075633049011 0.41522648930549622
0.6735459566116333 0.32895764708518982 0.43526992201805115
0.79492175579071045 0.40385329723358154 0.48209616541862488
0.033542588353157043 0.19626727700233459 0.62102454900741577
0.18779557943344116 0.19474701583385468 0.61658912897109985
0.36158081889152527 0.20010451972484589 0.58557969331741333
0.49161815643310547 0.23283432424068451 0.51540082693099976
0.57753902673721313 0.30902099609375 0.45250549912452698
0.68719714879989624 0.38098540902137756 0.46746540069580078
0.80837732553482056 0.44358035922050476 0.50671231746673584
0.012490949593484402 0.36998099088668823 0.64045202732086182
0.14582711458206177 0.36377343535423279 0.63598513603210449
0.33998203277587891 0.36806350946426392 0.63372725248336792
0.4981803297996521 0.37339255213737488 0.59874999523162842
0.60510081052780151 0.41985780000686646 0.51945239305496216
0.71127474308013916 0.47070762515068054 0.52330905199050903
0.82802426815032959 0.52179926633834839 0.55184131860733032
0.064235582947731018 0.53192538022994995 0.63467741012573242
0.096714049577713013 0.53006243705749512 0.64019560813903809
0.30762407183647156 0.52781176567077637 0.6572418212890625
0.49800541996955872 0.52876240015029907 0.65257596969604492
0.64096224308013916 0.54443341493606567 0.59869390726089478
0.7432742714881897 0.58620524406433105 0.59811186790466309
0.86258983612060547 0.62264132499694824 0.61764723062515259
0.048839643597602844 0.73111194372177124 0.62688976526260376
0.092628046870231628 0.73095703125 0.63015788793563843
0.13714466989040375 0.72793287038803101 0.63838815689086914
0.36492747068405151 0.72132748365402222 0.65273338556289673
0.6675868034362793 0.70612645149230957 0.67582190036773682
0.78861367702484131 0.7216179370880127 0.69048571586608887
0.90438497066497803 0.74785804748535156 0.70061498880386353
0.0015393126523122191 0.91267102956771851 0.60721957683563232
0.00039500815910287201 0.91916537284851074 0.60049843788146973
0.0025246862787753344 0.92464756965637207 0.56563466787338257
0.041475873440504074 0.91767406463623047 0.52850353717803955
0.5069090723991394 0.88998609781265259 0.57758146524429321
0.84286975860595703 0.85155695676803589 0.74909293651580811
0.93889743089675903 0.8687821626663208 0.77328711748123169
0 0.99483019113540649 0.54988139867782593
0 0.99530351161956787 0.52999019622802734
0 0.99915778636932373 0.47567763924598694
0.0027182933408766985 0.99887055158615112 0.34212014079093933
0.24710191786289215 0.99494647979736328 0.40463879704475403
0.81865793466567993 0.98035407066345215 0.6839098334312439
0.97952467203140259 0.97328376770019531 0.80354768037796021
0.068325653672218323 0.067401573061943054 0.75507581233978271
0.20495395362377167 0.067558825016021729 0.74590933322906494
0.37018904089927673 0.066387444734573364 0.7080918550491333
0.51348268985748291 0.11212961375713348 0.66243380308151245
0.61397671699523926 0.23222009837627411 0.57591640949249268
0.69315856695175171 0.33515632152557373 0.54340285062789917
0.80773597955703735 0.41415315866470337 0.5654718279838562
0.010514801368117332 0.20094472169876099 0.78212827444076538
0.12740588188171387 0.20352178812026978 0.77329331636428833
0.35392960906028748 0.20717363059520721 0.74860817193984985
0.50995129346847534 0.225213423371315 0.7046094536781311
0.62215864658355713 0.29448783397674561 0.61735916137695312
0.70971810817718506 0.38098204135894775 0.57341891527175903
0.81882500648498535 0.4512287974357605 0.58556145429611206
0.0040632658638060093 0.36971649527549744 0.79626131057739258
0.077365577220916748 0.37413820624351501 0.79737657308578491
0.31085142493247986 0.37508323788642883 0.79844540357589722
0.4877052903175354 0.38342034816741943 0.77400261163711548
0.64323657751083374 0.40534773468971252 0.69654554128646851
0.73305326700210571 0.47273308038711548 0.62880343198776245
0.84025764465332031 0.53195047378540039 0.63436579704284668
0.0075696907006204128 0.54151231050491333 0.81972968578338623
0.053986985236406326 0.53683841228485107 0.82445931434631348
0.2855052649974823 0.53426599502563477 0.82000398635864258
0.47744566202163696 0.53741645812988281 0.81792962551116943
0.65879398584365845 0.54223406314849854 0.77970784902572632
0.76587128639221191 0.58583635091781616 0.7021021842956543
0.87348514795303345 0.63014167547225952 0.69903898239135742
0.15431436896324158 0.70615017414093018 0.77221393585205078
0.17103724181652069 0.70824456214904785 0.78852474689483643
0.24899689853191376 0.7126428484916687 0.81379371881484985
0.46365746855735779 0.71210557222366333 0.83771467208862305
0.66479849815368652 0.70631778240203857 0.83775454759597778
0.80268913507461548 0.72067713737487793 0.78882580995559692
0.90950894355773926 0.74856662750244141 0.77344048023223877
0.089101321995258331 0.89663195610046387 0.79089581966400146
0.090568035840988159 0.90000241994857788 0.79964369535446167
0.15527613461017609 0.89287614822387695 0.79876065254211426
0.21621373295783997 0.88936144113540649 0.805877685546875
0.54519963264465332 0.87899619340896606 0.81849437952041626
0.82991474866867065 0.85854160785675049 0.83997565507888794
0.94668543338775635 0.86903101205825806 0.85045069456100464
0.00060993270017206669 0.996021568775177 0.79274839162826538
0.0011470869649201632 0.99719512462615967 0.78777092695236206
0.0047248839400708675 0.99859356880187988 0.76957255601882935
0.0098756374791264534 0.9969329833984375 0.72717660665512085
0.089004933834075928 0.99603128433227539 0.68694555759429932
0.64955085515975952 0.99216550588607788 0.71866929531097412
0.97534167766571045 0.9712289571762085 0.88263618946075439
0.027970407158136368 0.10224972665309906 0.89822006225585938
0.16884659230709076 0.093318089842796326 0.8980603814125061
0.3561587929725647 0.099961854517459869 0.87963229417800903
0.51638215780258179 0.12567520141601562 0.84775239229202271
0.65394121408462524 0.19787701964378357 0.79043972492218018
0.74269658327102661 0.3191278874874115 0.70271754264831543
0.83223903179168701 0.42368599772453308 0.67244589328765869
0.0044064242392778397 0.22021061182022095 0.94425970315933228
0.079885460436344147 0.22897486388683319 0.93870997428894043
0.31962990760803223 0.22295524179935455 0.92435431480407715
0.50214624404907227 0.23355935513973236 0.88332277536392212
0.66086846590042114 0.27012860774993896 0.83173704147338867
0.75397700071334839 0.3676740825176239 0.74405968189239502
0.83598381280899048 0.45550119876861572 0.6893925666809082
0.00030822755070403218 0.3782438337802887 0.96249997615814209
0.024187229573726654 0.37989148497581482 0.96242332458496094
0.2601933479309082 0.38900253176689148 0.96558213233947754
0.46556371450424194 0.39097529649734497 0.94973695278167725
0.65975821018218994 0.40073433518409729 0.89876371622085571
0.77721363306045532 0.45717933773994446 0.80825924873352051
0.86492550373077393 0.53928393125534058 0.74592840671539307
4.0929458918981254e-05 0.53501921892166138 0.96956604719161987
0.018319103866815567 0.5362432599067688 0.97628539800643921
0.24160692095756531 0.54430365562438965 0.97300857305526733
0.44909107685089111 0.54220575094223022 0.97576051950454712
0.64456230401992798 0.55135184526443481 0.96287673711776733
0.80677187442779541 0.57024919986724854 0.88750410079956055
0.88889533281326294 0.62891441583633423 0.7951238751411438
0.0060633490793406963 0.72221922874450684 0.97962266206741333
0.019534256309270859 0.71988320350646973 0.9810483455657959
0.13440312445163727 0.7154240608215332 0.98151534795761108
0.43210023641586304 0.71200692653656006 0.98350703716278076
0.64223921298980713 0.71183836460113525 0.97901642322540283
0.81838458776473999 0.71784192323684692 0.9620940089225769
0.922130286693573 0.74864298105239868 0.86753123998641968
0.19341512024402618 0.86579209566116333 0.9211583137512207
0.21778720617294312 0.86455267667770386 0.92465221881866455
0.24538059532642365 0.87062424421310425 0.94619286060333252
0.41931936144828796 0.87343233823776245 0.9653397798538208
0.62825590372085571 0.86927998065948486 0.98309779167175293
0.82414895296096802 0.85713094472885132 0.98501187562942505
0.95599782466888428 0.8666151762008667 0.9390830397605896
0.0097495280206203461 0.99534362554550171 0.95276975631713867
0.017328150570392609 0.99305737018585205 0.95392942428588867
0.043416626751422882 0.99376064538955688 0.95367419719696045
0.13550275564193726 0.99224358797073364 0.95621901750564575
0.41743755340576172 0.98890489339828491 0.96707940101623535
0.71352511644363403 0.98610091209411621 0.95745319128036499
0.97224217653274536 0.98366671800613403 0.97524291276931763
