assets/lut/creative tensiongreen 04.cube
# Created by: G'MIC (https://gmic.eu)
TITLE "tensiongreen_4"
# LUT size
LUT_3D_SIZE 13
# Data domain
DOMAIN_MIN 0.0 0.0 0.0
DOMAIN_MAX 1.0 1.0 1.0
# LUT data points
0.072010025382041931 0.079787984490394592 0.080251432955265045
0.08212878555059433 0.085533872246742249 0.083631344139575958
0.10630661994218826 0.09633839875459671 0.093499518930912018
0.13457642495632172 0.10731121897697449 0.10078778862953186
0.1628185510635376 0.11589469015598297 0.10785462707281113
0.19071561098098755 0.12540377676486969 0.11465927958488464
0.21668322384357452 0.13345873355865479 0.1202738881111145
0.25397476553916931 0.14560793340206146 0.12787117063999176
0.29962626099586487 0.16308790445327759 0.142324298620224
0.33990144729614258 0.17208972573280334 0.15178777277469635
0.3837566077709198 0.17768062651157379 0.16133673489093781
0.43428096175193787 0.187366783618927 0.17450664937496185
0.46729305386543274 0.19567815959453583 0.18329815566539764
0.07970079779624939 0.094678796827793121 0.089180290699005127
0.090858563780784607 0.098979800939559937 0.087632916867733002
0.1098954901099205 0.10619593411684036 0.090155221521854401
0.13887125253677368 0.11682805418968201 0.099012844264507294
0.16901440918445587 0.12666504085063934 0.10747960209846497
0.19603894650936127 0.13859489560127258 0.11457055807113647
0.22519275546073914 0.14989538490772247 0.12317736446857452
0.26569473743438721 0.16287268698215485 0.13338971138000488
0.31027716398239136 0.1813017874956131 0.14647519588470459
0.35224875807762146 0.1952323317527771 0.15727436542510986
0.39887288212776184 0.20562513172626495 0.16950234770774841
0.45388996601104736 0.21790222823619843 0.18334968388080597
0.50491398572921753 0.23059932887554169 0.19304147362709045
0.090997911989688873 0.11265116930007935 0.098150677978992462
0.10011041909456253 0.11598910391330719 0.094890981912612915
0.11800915747880936 0.12632820010185242 0.097399614751338959
0.14382490515708923 0.13772118091583252 0.10363808274269104
0.175639808177948 0.14967954158782959 0.11296109855175018
0.20540463924407959 0.15996080636978149 0.1193600669503212
0.24001190066337585 0.17281845211982727 0.12934374809265137
0.28554010391235352 0.19134607911109924 0.14333665370941162
0.32914081215858459 0.20875619351863861 0.15511511266231537
0.37065640091896057 0.22489927709102631 0.16566815972328186
0.41876929998397827 0.24100878834724426 0.17829659581184387
0.47778236865997314 0.25761881470680237 0.19448766112327576
0.5297582745552063 0.27160298824310303 0.20691227912902832
0.10933145135641098 0.14793799817562103 0.11218969523906708
0.11636768281459808 0.1501915454864502 0.10787724703550339
0.12925121188163757 0.15847383439540863 0.10796721279621124
0.15221154689788818 0.17080727219581604 0.11403675377368927
0.18522769212722778 0.18571813404560089 0.12339092791080475
0.21745389699935913 0.19841174781322479 0.13054172694683075
0.25255084037780762 0.2108958512544632 0.13850046694278717
0.302427738904953 0.2299552708864212 0.15383236110210419
0.35058125853538513 0.24505208432674408 0.16622209548950195
0.39508703351020813 0.25981152057647705 0.17774572968482971
0.4474557638168335 0.27821215987205505 0.19139184057712555
0.50877231359481812 0.29819679260253906 0.2065984308719635
0.55795955657958984 0.31432786583900452 0.21870338916778564
0.12840643525123596 0.18411816656589508 0.12753111124038696
0.13678516447544098 0.18738041818141937 0.12548194825649261
0.14673274755477905 0.19168868660926819 0.12090231478214264
0.16822376847267151 0.20292530953884125 0.12557686865329742
0.19860610365867615 0.21788854897022247 0.1360393762588501
0.2295747846364975 0.23266798257827759 0.14254249632358551
0.26088005304336548 0.24750453233718872 0.14892417192459106
0.30790725350379944 0.26531809568405151 0.16045792400836945
0.36225655674934387 0.28440719842910767 0.17441751062870026
0.41422009468078613 0.3012746274471283 0.18775433301925659
0.47263413667678833 0.31827512383460999 0.20224092900753021
0.53819501399993896 0.33634936809539795 0.21748082339763641
0.59858244657516479 0.3507494330406189 0.23023572564125061
0.15395040810108185 0.22272928059101105 0.14816048741340637
0.15771996974945068 0.22217325866222382 0.14284628629684448
0.1656079888343811 0.22440426051616669 0.13508225977420807
0.18467962741851807 0.23263904452323914 0.13499726355075836
0.21528062224388123 0.24797046184539795 0.14529182016849518
0.24386014044284821 0.26427105069160461 0.15417146682739258
0.27697300910949707 0.28493106365203857 0.16392338275909424
0.32124724984169006 0.30319046974182129 0.17266941070556641
0.37340202927589417 0.32444664835929871 0.18568563461303711
0.42861688137054443 0.34557071328163147 0.19897016882896423
0.49412858486175537 0.36284369230270386 0.21360528469085693
0.56622898578643799 0.3814384937286377 0.22967785596847534
0.62904882431030273 0.39852184057235718 0.24283492565155029
0.18710440397262573 0.2694646418094635 0.17709551751613617
0.1877751350402832 0.26876649260520935 0.17151102423667908
0.19991639256477356 0.27423754334449768 0.16689060628414154
0.22066603600978851 0.28380462527275085 0.16488417983055115
0.24523274600505829 0.29620131850242615 0.16867370903491974
0.27048462629318237 0.31127133965492249 0.17690034210681915
0.29984369874000549 0.32963737845420837 0.18697331845760345
0.34720972180366516 0.35384342074394226 0.19947929680347443
0.40036526322364807 0.3796268105506897 0.21485382318496704
0.449806809425354 0.39719957113265991 0.21981574594974518
0.50969761610031128 0.41594141721725464 0.22743518650531769
0.58441579341888428 0.43919938802719116 0.24456000328063965
0.65425676107406616 0.4574611485004425 0.26075318455696106
0.2401806116104126 0.34267362952232361 0.22427259385585785
0.2371329665184021 0.33741617202758789 0.21533437073230743
0.24859656393527985 0.34213784337043762 0.21056051552295685
0.26733240485191345 0.35195481777191162 0.20748040080070496
0.28710165619850159 0.36089232563972473 0.20583386719226837
0.31244441866874695 0.3742862343788147 0.21219697594642639
0.34847968816757202 0.39865553379058838 0.23149877786636353
0.39282968640327454 0.42379897832870483 0.24913464486598969
0.44727373123168945 0.4511009156703949 0.26718491315841675
0.49294000864028931 0.4661310613155365 0.26628401875495911
0.54266113042831421 0.48013487458229065 0.26366573572158813
0.61293584108352661 0.50741088390350342 0.27539277076721191
0.68237698078155518 0.52737194299697876 0.28889477252960205
0.29970380663871765 0.41993415355682373 0.27484756708145142
0.30151805281639099 0.4171622097492218 0.26819103956222534
0.30860188603401184 0.4188118577003479 0.26134690642356873
0.31971010565757751 0.42366242408752441 0.25422900915145874
0.33599212765693665 0.43092703819274902 0.25125047564506531
0.36141741275787354 0.44288492202758789 0.25649923086166382
0.39826923608779907 0.46557894349098206 0.27195066213607788
0.44441568851470947 0.49208930134773254 0.29041281342506409
0.49542492628097534 0.51966273784637451 0.30947390198707581
0.54603630304336548 0.54470372200012207 0.32650706171989441
0.59900826215744019 0.5643390417098999 0.33492061495780945
0.66401642560958862 0.58617162704467773 0.33753225207328796
0.7283363938331604 0.6077767014503479 0.34001463651657104
0.36166438460350037 0.49549344182014465 0.32838979363441467
0.36524561047554016 0.49681186676025391 0.3261028528213501
0.37178122997283936 0.50052452087402344 0.32258853316307068
0.37933012843132019 0.50178295373916626 0.31161093711853027
0.38957729935646057 0.5050310492515564 0.30182722210884094
0.41551831364631653 0.51724076271057129 0.30340108275413513
0.45306301116943359 0.53698241710662842 0.31481608748435974
0.49833971261978149 0.56286603212356567 0.33230781555175781
0.54827749729156494 0.59477674961090088 0.3572935163974762
0.60200363397598267 0.62644243240356445 0.3831595778465271
0.65872573852539062 0.65097212791442871 0.4006059467792511
0.7258906364440918 0.67849314212799072 0.41415524482727051
0.79342073202133179 0.70689553022384644 0.42421445250511169
0.43519994616508484 0.58851766586303711 0.39354628324508667
0.43703266978263855 0.58947128057479858 0.39249160885810852
0.4444831907749176 0.59636753797531128 0.39300793409347534
0.45135414600372314 0.59661710262298584 0.38179808855056763
0.46404749155044556 0.60016489028930664 0.37058645486831665
0.48701813817024231 0.60996967554092407 0.36477440595626831
0.52279812097549438 0.62860572338104248 0.37447646260261536
0.56647199392318726 0.65421992540359497 0.3924199640750885
0.61480450630187988 0.6846623420715332 0.41609424352645874
0.6677238941192627 0.71495097875595093 0.44069218635559082
0.72510063648223877 0.74367696046829224 0.46204444766044617
0.79048448801040649 0.77398413419723511 0.48268535733222961
0.85765522718429565 0.80587232112884521 0.50550347566604614
0.52208101749420166 0.69965088367462158 0.47054606676101685
0.5239068865776062 0.69980114698410034 0.47013029456138611
0.53038656711578369 0.70534563064575195 0.47035235166549683
0.53944927453994751 0.70727497339248657 0.46194744110107422
0.55285698175430298 0.71109038591384888 0.45255905389785767
0.57271194458007812 0.71877557039260864 0.44615638256072998
0.6041075587272644 0.73421752452850342 0.44929742813110352
0.64220744371414185 0.75514358282089233 0.45848044753074646
0.69087427854537964 0.78337210416793823 0.47876736521720886
0.74444210529327393 0.81236755847930908 0.50269991159439087
0.79998701810836792 0.84084784984588623 0.52524751424789429
0.85944592952728271 0.87027794122695923 0.54736125469207764
0.92672032117843628 0.90832537412643433 0.57662445306777954
0.60426121950149536 0.80024319887161255 0.54323285818099976
0.60598015785217285 0.79999017715454102 0.54174709320068359
0.61221319437026978 0.80252939462661743 0.53828591108322144
0.62117135524749756 0.80760765075683594 0.53325289487838745
0.63151246309280396 0.81090599298477173 0.52634501457214355
0.64834213256835938 0.81676489114761353 0.51993167400360107
0.67525666952133179 0.8263479471206665 0.51565378904342651
0.70965492725372314 0.84386557340621948 0.51701313257217407
0.76023381948471069 0.87177199125289917 0.53438395261764526
0.81112629175186157 0.89694792032241821 0.55663245916366577
0.86807137727737427 0.92828220129013062 0.58281248807907104
0.92637437582015991 0.95708805322647095 0.60393321514129639
0.96957427263259888 0.9751659631729126 0.61934572458267212
0.074575282633304596 0.08459809422492981 0.086912326514720917
0.0827149897813797 0.090508118271827698 0.091761104762554169
0.10360573977231979 0.10278297960758209 0.10353367775678635
0.12646837532520294 0.11693863570690155 0.11328218877315521
0.15569677948951721 0.1285489946603775 0.12359771877527237
0.1890026181936264 0.13974618911743164 0.13363711535930634
0.21741367876529694 0.14868263900279999 0.13988880813121796
0.25941947102546692 0.162490114569664 0.15073686838150024
0.30930107831954956 0.18013635277748108 0.16672228276729584
0.35021081566810608 0.18809357285499573 0.17553980648517609
0.39586085081100464 0.19488862156867981 0.18534035980701447
0.4508357048034668 0.20401735603809357 0.20153717696666718
0.49409949779510498 0.21098917722702026 0.21351572871208191
0.083049654960632324 0.099232390522956848 0.096123114228248596
0.093847520649433136 0.10461786389350891 0.099812045693397522
0.11313012987375259 0.11357918381690979 0.10723335295915604
0.13669398427009583 0.12504297494888306 0.114879310131073
0.16713437438011169 0.13664096593856812 0.12521886825561523
0.19881761074066162 0.14862620830535889 0.13484807312488556
0.23087780177593231 0.1613612174987793 0.14348465204238892
0.27105724811553955 0.17436537146568298 0.15321359038352966
0.31717187166213989 0.19077932834625244 0.16582632064819336
0.36074844002723694 0.204514279961586 0.1787932813167572
0.40719646215438843 0.21577146649360657 0.18973077833652496
0.46382951736450195 0.22905582189559937 0.20651909708976746
0.51527690887451172 0.24228985607624054 0.22172567248344421
0.097556933760643005 0.12001969665288925 0.10859096795320511
0.1055733934044838 0.12224420160055161 0.10831542313098907
0.12106167525053024 0.13277579843997955 0.11223964393138885
0.14563681185245514 0.14294150471687317 0.11691468209028244
0.17769235372543335 0.15468655526638031 0.12757056951522827
0.21030540764331818 0.17023679614067078 0.13706529140472412
0.24565665423870087 0.18552875518798828 0.14576944708824158
0.28788906335830688 0.20125992596149445 0.15697643160820007
0.33155804872512817 0.21734875440597534 0.17007823288440704
0.37553274631500244 0.23521745204925537 0.18321645259857178
0.42546087503433228 0.25282806158065796 0.19753767549991608
0.48396402597427368 0.26364687085151672 0.21395289897918701
0.5464550256729126 0.27974167466163635 0.2324666827917099
0.11809200048446655 0.1540866494178772 0.1262933760881424
0.12380758672952652 0.15751791000366211 0.12501433491706848
0.13465619087219238 0.16581746935844421 0.12491148710250854
0.15669567883014679 0.17744532227516174 0.12992416322231293
0.18811608850955963 0.19059798121452332 0.13806173205375671
0.22178815305233002 0.20533856749534607 0.14494988322257996
0.25776961445808411 0.21872363984584808 0.14964099228382111
0.30626592040061951 0.23579883575439453 0.16121906042098999
0.35172641277313232 0.25339692831039429 0.17474594712257385
0.39541301131248474 0.26823127269744873 0.18610286712646484
0.44864848256111145 0.28964307904243469 0.20132778584957123
0.51218152046203613 0.31197062134742737 0.22305160760879517
0.57231330871582031 0.32846423983573914 0.24198669195175171
0.13811387121677399 0.19333718717098236 0.14308103919029236
0.14386211335659027 0.19584496319293976 0.14060793817043304
0.15217453241348267 0.20020413398742676 0.13751868903636932
0.17301906645298004 0.21112687885761261 0.14145384728908539
0.202898308634758 0.22623832523822784 0.15150506794452667
0.23414246737957001 0.24125653505325317 0.15757015347480774
0.26430076360702515 0.25185480713844299 0.15628653764724731
0.31159362196922302 0.26757663488388062 0.1663166880607605
0.36526992917060852 0.28750717639923096 0.18096764385700226
0.41435414552688599 0.30463686585426331 0.19218011200428009
0.47447541356086731 0.32237842679023743 0.2069566547870636
0.5418122410774231 0.34658464789390564 0.22822912037372589
0.60094994306564331 0.36616867780685425 0.24660705029964447
0.16433154046535492 0.23513361811637878 0.16533070802688599
0.16499042510986328 0.23303687572479248 0.16086484491825104
0.17249739170074463 0.23578877747058868 0.15430916845798492
0.19074465334415436 0.24357520043849945 0.1536419689655304
0.22305475175380707 0.2595365047454834 0.16480903327465057
0.25309443473815918 0.27712857723236084 0.17523321509361267
0.28072112798690796 0.28967475891113281 0.17635361850261688
0.31978246569633484 0.30311134457588196 0.17934006452560425
0.37615731358528137 0.32357120513916016 0.19028009474277496
0.43166506290435791 0.34477409720420837 0.20149329304695129
0.49414080381393433 0.36386886239051819 0.21652466058731079
0.56576704978942871 0.38426616787910461 0.23244723677635193
0.63007456064224243 0.40114924311637878 0.24670720100402832
0.19386543333530426 0.27885746955871582 0.18943284451961517
0.19306771457195282 0.2769990861415863 0.18737877905368805
0.20654192566871643 0.28472331166267395 0.18539236485958099
0.22566190361976624 0.29286539554595947 0.18335826694965363
0.25328430533409119 0.30754601955413818 0.19024722278118134
0.27907884120941162 0.32122614979743958 0.19887059926986694
0.30816417932510376 0.3383355438709259 0.20674082636833191
0.35116416215896606 0.36171162128448486 0.21744056046009064
0.40683948993682861 0.38393533229827881 0.22764284908771515
0.45424461364746094 0.3996126651763916 0.22648493945598602
0.51481395959854126 0.42121988534927368 0.23724909126758575
0.58778005838394165 0.44325706362724304 0.25135329365730286
0.65629351139068604 0.45867720246315002 0.26228266954421997
0.2441989928483963 0.34808927774429321 0.23438197374343872
0.2499045729637146 0.35204672813415527 0.23413807153701782
0.25968244671821594 0.35643643140792847 0.23003256320953369
0.27537763118743896 0.3627115786075592 0.22537194192409515
0.2976934015750885 0.37370803952217102 0.22807116806507111
0.32214546203613281 0.38656896352767944 0.23458077013492584
0.35256472229957581 0.40444952249526978 0.24521183967590332
0.39476260542869568 0.42738458514213562 0.25886067748069763
0.45042523741722107 0.45547327399253845 0.27690678834915161
0.49990099668502808 0.4763849675655365 0.2830386757850647
0.552703857421875 0.4909965991973877 0.28073149919509888
0.62134772539138794 0.51360434293746948 0.28832116723060608
0.68675035238265991 0.53286296129226685 0.2952398955821991
0.30666157603263855 0.42684882879257202 0.28939342498779297
0.31128275394439697 0.42957884073257446 0.28779542446136475
0.31901454925537109 0.43217867612838745 0.2826809287071228
0.32982075214385986 0.43515691161155701 0.27359950542449951
0.34333920478820801 0.44060122966766357 0.26751089096069336
0.36719736456871033 0.45200419425964355 0.2716117799282074
0.4045805037021637 0.47279161214828491 0.28492417931556702
0.45079660415649414 0.49947676062583923 0.30255204439163208
0.50019556283950806 0.52768576145172119 0.32446038722991943
0.55158692598342896 0.55341631174087524 0.34228187799453735
0.60483717918395996 0.57195454835891724 0.35071447491645813
0.67173659801483154 0.59384453296661377 0.35458618402481079
0.73574686050415039 0.61432623863220215 0.35598808526992798
0.37183204293251038 0.50430655479431152 0.34608057141304016
0.37665361166000366 0.50924026966094971 0.34647804498672485
0.38311243057250977 0.51311540603637695 0.3442838191986084
0.38892343640327454 0.51283907890319824 0.33358028531074524
0.39956077933311462 0.51595336198806763 0.32309767603874207
0.42406213283538818 0.52709180116653442 0.3230133056640625
0.46047547459602356 0.5466962456703186 0.33259111642837524
0.506458580493927 0.57316356897354126 0.35185003280639648
0.55480670928955078 0.60276573896408081 0.37475836277008057
0.60773766040802002 0.63372498750686646 0.39695587754249573
0.66411447525024414 0.66064810752868652 0.41679596900939941
0.73173898458480835 0.68932449817657471 0.43233767151832581
0.79669809341430664 0.71104556322097778 0.4377138614654541
0.44144651293754578 0.5972333550453186 0.4098798930644989
0.44600841403007507 0.60085242986679077 0.41066190600395203
0.45301651954650879 0.60570675134658813 0.4100402295589447
0.45973312854766846 0.60852652788162231 0.40206244587898254
0.47454982995986938 0.61375629901885986 0.39362660050392151
0.49922525882720947 0.62288743257522583 0.38967490196228027
0.53024911880493164 0.63875287771224976 0.3913479745388031
0.57274901866912842 0.66282910108566284 0.40759474039077759
0.62009555101394653 0.69175881147384644 0.43052175641059875
0.67025774717330933 0.72018522024154663 0.45315200090408325
0.72751110792160034 0.74883967638015747 0.47565755248069763
0.79375052452087402 0.78045094013214111 0.49786829948425293
0.86056137084960938 0.81250381469726562 0.51864713430404663
0.52561104297637939 0.70558780431747437 0.48399463295936584
0.52981293201446533 0.7079932689666748 0.48504051566123962
0.53612148761749268 0.71136379241943359 0.48336175084114075
0.54584765434265137 0.71611475944519043 0.4778655469417572
0.5609319806098938 0.72203046083450317 0.47069084644317627
0.58312642574310303 0.73021399974822998 0.46542143821716309
0.61027634143829346 0.74162960052490234 0.46262630820274353
0.6488996148109436 0.76242333650588989 0.47247818112373352
0.69554418325424194 0.78944700956344604 0.49249029159545898
0.74639606475830078 0.81683701276779175 0.51457428932189941
0.80235534906387329 0.844951331615448 0.53768336772918701
0.86457657814025879 0.87614250183105469 0.56182181835174561
0.92980390787124634 0.9140465259552002 0.58922082185745239
0.61382263898849487 0.8065875768661499 0.55586296319961548
0.61575746536254883 0.81105011701583862 0.55642217397689819
0.61884921789169312 0.81126320362091064 0.55178707838058472
0.62832814455032349 0.81583988666534424 0.54814380407333374
0.63921797275543213 0.81932276487350464 0.53935009241104126
0.65719527006149292 0.82588464021682739 0.53305172920227051
0.68214935064315796 0.83435302972793579 0.5282599925994873
0.71735554933547974 0.85080105066299438 0.53204762935638428
0.76522290706634521 0.87783145904541016 0.54774987697601318
0.81622117757797241 0.90410757064819336 0.56973159313201904
0.87144225835800171 0.93356221914291382 0.5946195125579834
0.93202465772628784 0.96257108449935913 0.61838692426681519
0.97391831874847412 0.97994804382324219 0.63354146480560303
0.077384695410728455 0.088638663291931152 0.095158778131008148
0.085364200174808502 0.094043448567390442 0.099029541015625
0.10524541884660721 0.10765225440263748 0.11123661696910858
0.12448418140411377 0.12280379980802536 0.1230049729347229
0.14543852210044861 0.13722324371337891 0.13505765795707703
0.17371861636638641 0.15511193871498108 0.14763514697551727
0.20939870178699493 0.17174944281578064 0.16127909719944
0.25470155477523804 0.1920822411775589 0.17806684970855713
0.30532044172286987 0.21282783150672913 0.19694693386554718
0.3560982346534729 0.23189744353294373 0.21267054975032806
0.41003608703613281 0.24971248209476471 0.22980794310569763
0.47366780042648315 0.26371866464614868 0.25030982494354248
0.53536272048950195 0.26800042390823364 0.2653718888759613
0.086093291640281677 0.10332372039556503 0.10331767797470093
0.095653459429740906 0.10849416255950928 0.10777037590742111
0.11208723485469818 0.11973863840103149 0.11756768077611923
0.1307179182767868 0.1315624862909317 0.12767109274864197
0.15348514914512634 0.14600315690040588 0.13879105448722839
0.1861564964056015 0.16397635638713837 0.15191660821437836
0.22326628863811493 0.18099907040596008 0.16599749028682709
0.26576179265975952 0.19950190186500549 0.18065781891345978
0.31656616926193237 0.22276781499385834 0.19861811399459839
0.36911934614181519 0.24117638170719147 0.21582020819187164
0.42108619213104248 0.26123523712158203 0.23357740044593811
0.48306962847709656 0.27597513794898987 0.25311121344566345
0.54642778635025024 0.2816348671913147 0.26966157555580139
0.1016525998711586 0.1242697611451149 0.11697693169116974
0.11027639359235764 0.12866872549057007 0.12045750021934509
0.12439120560884476 0.1387757807970047 0.12835286557674408
0.14608973264694214 0.15215034782886505 0.13741412758827209
0.17424997687339783 0.16663400828838348 0.14639273285865784
0.20963425934314728 0.18486304581165314 0.16022956371307373
0.24402667582035065 0.20185056328773499 0.1731092780828476
0.28772014379501343 0.21971516311168671 0.18721754848957062
0.33885201811790466 0.24089489877223969 0.20444120466709137
0.38966044783592224 0.26132327318191528 0.22103019058704376
0.44127127528190613 0.2821381688117981 0.23875990509986877
0.5041385293006897 0.29457247257232666 0.25649857521057129
0.57069224119186401 0.30860626697540283 0.2785181999206543
0.12491046637296677 0.16001909971237183 0.13694900274276733
0.13027356564998627 0.16534543037414551 0.13855434954166412
0.1388041228055954 0.17186917364597321 0.14052742719650269
0.16249273717403412 0.18581721186637878 0.14903469383716583
0.19537407159805298 0.20034328103065491 0.15787465870380402
0.23062144219875336 0.21705351769924164 0.16961811482906342
0.26576897501945496 0.23267652094364166 0.17937321960926056
0.31122028827667236 0.25113937258720398 0.1907147616147995
0.36348655819892883 0.27094945311546326 0.20739154517650604
0.41100338101387024 0.28970283269882202 0.22335942089557648
0.46590566635131836 0.31102079153060913 0.24149525165557861
0.53260809183120728 0.3336603045463562 0.26614806056022644
0.60108113288879395 0.35521671175956726 0.29234588146209717
0.15005677938461304 0.2018500417470932 0.15859462320804596
0.15382839739322662 0.20562417805194855 0.15847903490066528
0.16023959219455719 0.20957702398300171 0.15849132835865021
0.17961493134498596 0.22030307352542877 0.16311143338680267
0.21097837388515472 0.23702961206436157 0.17352040112018585
0.24311485886573792 0.2523895800113678 0.18166901171207428
0.27618309855461121 0.26450413465499878 0.18450468778610229
0.32220390439033508 0.27916115522384644 0.18906985223293304
0.37813648581504822 0.30104982852935791 0.20646369457244873
