assets/lut/creative tealorange 03.cube
# Created by: G'MIC (https://gmic.eu)
TITLE "tealorange_3"
# LUT size
LUT_3D_SIZE 7
# Data domain
DOMAIN_MIN 0.0 0.0 0.0
DOMAIN_MAX 1.0 1.0 1.0
# LUT data points
0.04991580918431282 0.04431668296456337 0.058391213417053223
0.12070134282112122 0.062304180115461349 0.021544482558965683
0.19138398766517639 0.11251308768987656 0.010324739851057529
0.27974861860275269 0.17575421929359436 0.013855069875717163
0.38759598135948181 0.25781655311584473 0.037521645426750183
0.5301167368888855 0.35062214732170105 0.070115663111209869
0.69971060752868652 0.4504430890083313 0.13006830215454102
0.0087278177961707115 0.16208080947399139 0.071761518716812134
0.14646172523498535 0.14258521795272827 0.031104741618037224
0.22504356503486633 0.18843512237071991 0.049404099583625793
0.30725577473640442 0.24686308205127716 0.074156560003757477
0.42018482089042664 0.31785175204277039 0.10626497119665146
0.56503605842590332 0.40828964114189148 0.14360666275024414
0.72345691919326782 0.49307182431221008 0.18878401815891266
0.0026034186594188213 0.32150194048881531 0.12299714982509613
0.15409299731254578 0.2949988842010498 0.057304996997117996
0.31532025337219238 0.31352460384368896 0.12962663173675537
0.40687286853790283 0.36006483435630798 0.1610780656337738
0.51883906126022339 0.42585647106170654 0.20038394629955292
0.64694672822952271 0.4996497631072998 0.23870109021663666
0.78468775749206543 0.57516241073608398 0.28500762581825256
0.028677666559815407 0.51392054557800293 0.18923799693584442
0.098684884607791901 0.49015992879867554 0.12070858478546143
0.42902418971061707 0.47623279690742493 0.19394989311695099
0.5453072190284729 0.51636165380477905 0.26893708109855652
0.65272372961044312 0.54812824726104736 0.29852816462516785
0.76331204175949097 0.60351872444152832 0.32706746459007263
0.87090742588043213 0.66073340177536011 0.35571593046188354
0.23791597783565521 0.72862446308135986 0.2688392698764801
0.2394840270280838 0.7151908278465271 0.24977520108222961
0.49900886416435242 0.68782055377960205 0.15888325870037079
0.68826800584793091 0.67682021856307983 0.35295343399047852
0.78816026449203491 0.69391196966171265 0.39391052722930908
0.88191580772399902 0.72153300046920776 0.4168948233127594
0.96060526371002197 0.75030779838562012 0.42161679267883301
0.36814618110656738 0.88651400804519653 0.30737662315368652
0.36699679493904114 0.88020676374435425 0.30616486072540283
0.45396614074707031 0.86951029300689697 0.221821129322052
0.74886566400527954 0.82891488075256348 0.31541538238525391
0.88707178831100464 0.81900686025619507 0.45635998249053955
0.96028107404708862 0.82420438528060913 0.46972444653511047
0.99770474433898926 0.83295261859893799 0.47012805938720703
0.42326569557189941 0.96903824806213379 0.32793590426445007
0.4225115180015564 0.96821767091751099 0.3289496898651123
0.43556183576583862 0.9670524001121521 0.2919982373714447
0.71264785528182983 0.94946646690368652 0.14719532430171967
0.93492448329925537 0.91348063945770264 0.44942215085029602
0.9939115047454834 0.90529465675354004 0.49204960465431213
0.99980145692825317 0.90011662244796753 0.49002823233604431
0.0086280377581715584 0.079686380922794342 0.14544029533863068
0.10138307511806488 0.064365550875663757 0.10511206835508347
0.18948659300804138 0.10113007575273514 0.08918704092502594
0.2819448709487915 0.16590844094753265 0.084632173180580139
0.40751945972442627 0.24153923988342285 0.083786875009536743
0.54757785797119141 0.33873334527015686 0.11893271654844284
0.7112693190574646 0.43703654408454895 0.17467279732227325
0.0026673858519643545 0.16364111006259918 0.14376401901245117
0.10556335747241974 0.15537600219249725 0.11123149842023849
0.21144740283489227 0.18608449399471283 0.11881353706121445
0.30849137902259827 0.24251872301101685 0.13086743652820587
0.43423601984977722 0.31316971778869629 0.15214349329471588
0.5764811635017395 0.39448270201683044 0.16743370890617371
0.74409252405166626 0.48887914419174194 0.22274182736873627
0.00045245300862006843 0.33204585313796997 0.14553648233413696
0.03875134140253067 0.31761178374290466 0.11551506072282791
0.29571223258972168 0.31570082902908325 0.18818531930446625
0.39648428559303284 0.37027078866958618 0.22767616808414459
0.51578241586685181 0.43739193677902222 0.2586977481842041
0.64949184656143188 0.50381946563720703 0.28578677773475647
0.7928774356842041 0.57620036602020264 0.31757873296737671
0.038877837359905243 0.53526967763900757 0.20003655552864075
0.034699205309152603 0.51506549119949341 0.17923629283905029
0.36424368619918823 0.48694878816604614 0.19449742138385773
0.53256142139434814 0.51299774646759033 0.31362694501876831
0.64888674020767212 0.55992728471755981 0.34969553351402283
0.76009547710418701 0.61588698625564575 0.37968704104423523
0.86444580554962158 0.66820776462554932 0.4016757607460022
0.25826045870780945 0.74191033840179443 0.27225491404533386
0.25137102603912354 0.7330620288848877 0.27137288451194763
0.38307297229766846 0.71175366640090942 0.17647850513458252
0.67059993743896484 0.68388152122497559 0.37654080986976624
0.78594064712524414 0.70068204402923584 0.43734109401702881
0.87533074617385864 0.72295653820037842 0.45191287994384766
0.95211023092269897 0.75536412000656128 0.45862677693367004
0.37142631411552429 0.88855063915252686 0.30395826697349548
0.37187430262565613 0.88854140043258667 0.30454951524734497
0.40505608916282654 0.88009142875671387 0.27600455284118652
0.69667375087738037 0.84327071905136108 0.29864370822906494
0.87624788284301758 0.82394284009933472 0.48458811640739441
0.95894926786422729 0.82676488161087036 0.5017693042755127
0.99344378709793091 0.83051484823226929 0.50099623203277588
0.42075404524803162 0.96502923965454102 0.32617044448852539
0.42273208498954773 0.96936357021331787 0.3290729820728302
0.43237069249153137 0.97249501943588257 0.31416752934455872
0.6294293999671936 0.9606393575668335 0.1652408242225647
0.91480064392089844 0.92181593179702759 0.43816035985946655
0.98925101757049561 0.9052276611328125 0.51708734035491943
0.99959850311279297 0.90070825815200806 0.51397383213043213
0.0022636712528765202 0.11834718286991119 0.23112979531288147
0.027213646098971367 0.10888314247131348 0.23254750669002533
0.1417200118303299 0.12543235719203949 0.22652645409107208
0.26155510544776917 0.1739477664232254 0.23208160698413849
0.39498353004455566 0.24105066061019897 0.22934724390506744
0.56067091226577759 0.32657817006111145 0.23178903758525848
0.74644315242767334 0.41917401552200317 0.23552672564983368
0.000632237468380481 0.18224498629570007 0.20618782937526703
0.03505542129278183 0.18983015418052673 0.22648462653160095
0.18906562030315399 0.19246982038021088 0.23210985958576202
0.30079305171966553 0.24026474356651306 0.24071806669235229
0.43463736772537231 0.30534866452217102 0.24555277824401855
0.59636998176574707 0.38209089636802673 0.2590351402759552
0.77717000246047974 0.46551495790481567 0.26978790760040283
0.0023724574130028486 0.32504826784133911 0.30422767996788025
0.03386375680565834 0.32743695378303528 0.29951107501983643
0.25408798456192017 0.33378922939300537 0.27715381979942322
0.3904489278793335 0.37981584668159485 0.30733984708786011
0.51821351051330566 0.43747466802597046 0.31831321120262146
0.67400598526000977 0.49495509266853333 0.33327367901802063
0.82419455051422119 0.5627179741859436 0.3468787670135498
0.035591036081314087 0.53539514541625977 0.34324336051940918
0.039130028337240219 0.5342944860458374 0.31418392062187195
0.17102009057998657 0.51447564363479614 0.31793761253356934
0.50845742225646973 0.51709085702896118 0.38098132610321045
0.6358180046081543 0.57039809226989746 0.42059594392776489
0.74909806251525879 0.62141245603561401 0.44134923815727234
0.8725084662437439 0.66802138090133667 0.44929364323616028
0.26407444477081299 0.74804407358169556 0.30919799208641052
0.26819232106208801 0.75275051593780518 0.30050861835479736
0.28885257244110107 0.74176067113876343 0.28299382328987122
0.60239690542221069 0.70627057552337646 0.39574608206748962
0.76903653144836426 0.70872247219085693 0.49701070785522461
0.8583865761756897 0.73366159200668335 0.51751744747161865
0.942638099193573 0.76476448774337769 0.52454036474227905
0.37907415628433228 0.89387673139572144 0.3469032347202301
0.3790212869644165 0.89668446779251099 0.3200165331363678
0.38432186841964722 0.8959847092628479 0.3126947283744812
0.55102020502090454 0.8767508864402771 0.29139918088912964
0.85652768611907959 0.83303987979888916 0.52387732267379761
0.95341718196868896 0.83086007833480835 0.55768847465515137
0.98737412691116333 0.83792442083358765 0.56301796436309814
0.4250912070274353 0.97183001041412354 0.35031422972679138
0.42310774326324463 0.97101390361785889 0.33975505828857422
0.42827937006950378 0.97129708528518677 0.32815185189247131
0.48652797937393188 0.97339355945587158 0.2577153742313385
0.83712852001190186 0.93911850452423096 0.4146573543548584
0.98290455341339111 0.90325969457626343 0.57214456796646118
0.99957984685897827 0.90418487787246704 0.57780647277832031
0 0.14673973619937897 0.30380111932754517
0.0049353805370628834 0.15561243891716003 0.31346914172172546
0.063629463315010071 0.15449364483356476 0.31581518054008484
0.22059834003448486 0.20157472789287567 0.33423605561256409
0.35539284348487854 0.27186870574951172 0.37701922655105591
0.52294659614562988 0.35233962535858154 0.41016983985900879
0.73179525136947632 0.43988528847694397 0.43238580226898193
0 0.21021106839179993 0.26129519939422607
0.0018576079746708274 0.22542713582515717 0.3061535656452179
0.071181491017341614 0.23292714357376099 0.32964009046554565
0.2658335268497467 0.26314613223075867 0.34989586472511292
0.40718996524810791 0.32575023174285889 0.38624757528305054
0.56882435083389282 0.39815235137939453 0.41949138045310974
0.76623821258544922 0.47988492250442505 0.41790658235549927
0.012193208560347557 0.33440074324607849 0.34026265144348145
0.046786155551671982 0.34303119778633118 0.34506711363792419
0.14857412874698639 0.37016919255256653 0.37402573227882385
0.36006921529769897 0.37891378998756409 0.39155566692352295
0.50786912441253662 0.4356960654258728 0.42882710695266724
0.66285645961761475 0.49381160736083984 0.44605293869972229
0.835121750831604 0.55846291780471802 0.43123236298561096
0.056433346122503281 0.52035409212112427 0.49241995811462402
0.078524664044380188 0.51928210258483887 0.49549099802970886
0.22932513058185577 0.52441418170928955 0.482770174741745
0.48542308807373047 0.53329896926879883 0.46810564398765564
0.62984651327133179 0.57348501682281494 0.49503263831138611
0.75120431184768677 0.62393611669540405 0.50506657361984253
0.88914448022842407 0.66328936815261841 0.4965004026889801
0.25736761093139648 0.74955612421035767 0.59336632490158081
0.25804963707923889 0.7529367208480835 0.57594674825668335
0.26829102635383606 0.75513845682144165 0.54825234413146973
0.43376845121383667 0.73545724153518677 0.53299450874328613
0.75801104307174683 0.71890473365783691 0.56693506240844727
0.84935587644577026 0.74720364809036255 0.59036076068878174
0.93441909551620483 0.76988512277603149 0.5859794020652771
0.3746681809425354 0.89813387393951416 0.59923398494720459
0.37941908836364746 0.90343785285949707 0.55362951755523682
0.38993993401527405 0.91242063045501709 0.42634129524230957
0.46087870001792908 0.89932560920715332 0.44371703267097473
0.80211865901947021 0.85335069894790649 0.55092668533325195
0.93580871820449829 0.83898556232452393 0.6286240816116333
0.98418062925338745 0.84654790163040161 0.63110804557800293
0.42891877889633179 0.96878904104232788 0.58817297220230103
0.42954105138778687 0.97031408548355103 0.55138075351715088
0.42953592538833618 0.97192633152008057 0.42838588356971741
0.44340667128562927 0.97149419784545898 0.35779398679733276
0.70982265472412109 0.95752239227294922 0.42676076292991638
0.9638742208480835 0.91203814744949341 0.61142158508300781
0.9984663724899292 0.90769869089126587 0.6365552544593811
0 0.1797916442155838 0.39225766062736511
0.00057289272081106901 0.19360843300819397 0.4023284912109375
0.0082217799499630928 0.20563769340515137 0.40188223123550415
0.14693337678909302 0.23469679057598114 0.41613936424255371
0.33228626847267151 0.30396729707717896 0.46442499756813049
0.4996662437915802 0.38480854034423828 0.53475028276443481
0.68654370307922363 0.4727051854133606 0.59832698106765747
0 0.24702614545822144 0.34991559386253357
1.0172526344831567e-05 0.26435554027557373 0.38847267627716064
0.0067298142239451408 0.28100425004959106 0.42155417799949646
0.14288641512393951 0.30182117223739624 0.43992254137992859
0.37680381536483765 0.35709455609321594 0.49078911542892456
0.53817504644393921 0.42839846014976501 0.55025506019592285
0.72405344247817993 0.50652778148651123 0.60264509916305542
0.0061075249686837196 0.37466394901275635 0.39790958166122437
0.0024375766515731812 0.38122615218162537 0.39918184280395508
0.035606864839792252 0.41331937909126282 0.44491636753082275
0.1901879608631134 0.43906694650650024 0.50348210334777832
0.48026952147483826 0.46572116017341614 0.53214806318283081
0.63649410009384155 0.51971977949142456 0.58009552955627441
0.79908007383346558 0.57939136028289795 0.61358320713043213
0.17017881572246552 0.52600079774856567 0.50702345371246338
0.18663507699966431 0.52945470809936523 0.50785493850708008
0.26794007420539856 0.54902124404907227 0.53360676765441895
0.40761929750442505 0.57562047243118286 0.55065453052520752
0.59981924295425415 0.58855170011520386 0.58423399925231934
0.74242174625396729 0.62924057245254517 0.61522376537322998
0.86815512180328369 0.66426700353622437 0.63387411832809448
0.29994878172874451 0.73874729871749878 0.70321410894393921
0.32411357760429382 0.73890799283981323 0.7032046914100647
0.35971790552139282 0.73934060335159302 0.69713324308395386
0.50215995311737061 0.74018710851669312 0.68205219507217407
0.72930479049682617 0.73791211843490601 0.66099351644515991
0.84571933746337891 0.75322890281677246 0.6728789210319519
0.93820387125015259 0.77513855695724487 0.66686993837356567
0.38627356290817261 0.90368741750717163 0.78567099571228027
0.39191707968711853 0.90533220767974854 0.7825891375541687
0.3970990777015686 0.91141742467880249 0.76001995801925659
0.40307408571243286 0.90891110897064209 0.74174380302429199
0.65073275566101074 0.88524436950683594 0.68739235401153564
0.91918140649795532 0.8489643931388855 0.70195817947387695
0.98116964101791382 0.85841870307922363 0.70460230112075806
0.41983270645141602 0.96553164720535278 0.77007180452346802
0.42202267050743103 0.96706134080886841 0.75782543420791626
0.42486435174942017 0.96960574388504028 0.72847485542297363
0.42703834176063538 0.97024929523468018 0.63596022129058838
0.53008437156677246 0.96514403820037842 0.62420427799224854
0.90244263410568237 0.93082880973815918 0.63617295026779175
0.99870449304580688 0.90480160713195801 0.71095985174179077
0 0.22004012763500214 0.48019552230834961
0 0.239288330078125 0.49925678968429565
0.00018101112800650299 0.26212537288665771 0.49637126922607422
0.028805796056985855 0.29393875598907471 0.50506705045700073
0.28589954972267151 0.34408742189407349 0.53904348611831665
0.4841029942035675 0.42096900939941406 0.6020391583442688
0.67663908004760742 0.50469803810119629 0.69095122814178467
0 0.28573828935623169 0.45258426666259766
0 0.30298465490341187 0.4825003445148468
0.0011659360025078058 0.34315559267997742 0.52953320741653442
0.048232506960630417 0.3714250922203064 0.54217052459716797
0.32046744227409363 0.40106523036956787 0.56509655714035034
0.52752548456192017 0.46131759881973267 0.6237255334854126
0.71158099174499512 0.53790879249572754 0.70476782321929932
0.003818511962890625 0.41716250777244568 0.45499420166015625
0.00048163920291699469 0.4260508120059967 0.46816664934158325
0.0040758168324828148 0.46803966164588928 0.5398484468460083
0.044015787541866302 0.50187152624130249 0.60142225027084351
0.35687577724456787 0.5104295015335083 0.61842173337936401
0.61402398347854614 0.5491829514503479 0.66346293687820435
0.76757353544235229 0.6083686351776123 0.72874546051025391
0.070122435688972473 0.57358694076538086 0.59412676095962524
0.057511348277330399 0.57101619243621826 0.58927589654922485
0.099389530718326569 0.59000444412231445 0.5826878547668457
0.21483360230922699 0.62520325183868408 0.62973576784133911
0.42940628528594971 0.64439696073532104 0.68615901470184326
0.7120475172996521 0.651622474193573 0.71055293083190918
0.8361397385597229 0.68943804502487183 0.75756502151489258
0.42907008528709412 0.72349852323532104 0.66980171203613281
0.43591645359992981 0.72659659385681152 0.67575889825820923
0.47724646329879761 0.73042559623718262 0.68599587678909302
0.55469650030136108 0.74599695205688477 0.71381253004074097
0.64760667085647583 0.7679753303527832 0.72706764936447144
0.80592745542526245 0.77201449871063232 0.75310319662094116
0.9270012378692627 0.78175806999206543 0.76829254627227783
0.43561682105064392 0.89421814680099487 0.85655838251113892
0.44201838970184326 0.8905830979347229 0.85073304176330566
0.46729362010955811 0.89005506038665771 0.84927129745483398
0.52914643287658691 0.88766670227050781 0.84083157777786255
0.69561123847961426 0.87773591279983521 0.81071406602859497
0.89502924680709839 0.86045414209365845 0.78207576274871826
0.98260635137557983 0.86001682281494141 0.78188765048980713
0.43866240978240967 0.96412402391433716 0.90753424167633057
0.44216617941856384 0.96354877948760986 0.90068703889846802
0.43823358416557312 0.9665224552154541 0.89109551906585693
0.43705090880393982 0.96634167432785034 0.86656033992767334
0.46604260802268982 0.96522849798202515 0.84231126308441162
0.77421540021896362 0.95001161098480225 0.76341575384140015
0.99052947759628296 0.91999483108520508 0.76667386293411255
0 0.26923972368240356 0.56108188629150391
0 0.28600618243217468 0.58968460559844971
0 0.32504114508628845 0.6164320707321167
0.0020884494297206402 0.35360130667686462 0.60819607973098755
0.092425420880317688 0.4078386127948761 0.63883811235427856
0.44943332672119141 0.4632229208946228 0.67516642808914185
0.66458010673522949 0.54538220167160034 0.74930912256240845
0 0.34777683019638062 0.56500101089477539
0 0.34730985760688782 0.55766266584396362
0 0.40042203664779663 0.62925291061401367
0.0058708637952804565 0.44096213579177856 0.66655361652374268
0.10276182740926743 0.46127942204475403 0.66133219003677368
0.48803249001502991 0.50330114364624023 0.68887519836425781
0.69694465398788452 0.57351434230804443 0.76090037822723389
0 0.47408333420753479 0.56905990839004517
0 0.47510257363319397 0.57082569599151611
0.00037351122591644526 0.50985532999038696 0.62838554382324219
0.0068968231789767742 0.55768191814422607 0.70364701747894287
0.11840498447418213 0.58319354057312012 0.7328258752822876
0.5579683780670166 0.58600234985351562 0.7347223162651062
0.74744480848312378 0.63346213102340698 0.78724992275238037
0.014482101425528526 0.60866600275039673 0.61482584476470947
0.016855532303452492 0.60818326473236084 0.61348903179168701
0.014593775384128094 0.62820649147033691 0.63000530004501343
0.085579559206962585 0.669261634349823 0.69940871000289917
0.16068524122238159 0.70433008670806885 0.78376024961471558
0.5902019739151001 0.69871330261230469 0.79499691724777222
0.81684845685958862 0.71347838640213013 0.82200199365615845
0.32321345806121826 0.757354736328125 0.77136409282684326
0.30493032932281494 0.75985157489776611 0.77781909704208374
0.2963269054889679 0.76220172643661499 0.77674704790115356
0.43349781632423401 0.77934199571609497 0.75798225402832031
0.50445127487182617 0.80176281929016113 0.78110992908477783
0.64530247449874878 0.822520911693573 0.84681624174118042
0.88604056835174561 0.8007013201713562 0.84812486171722412
0.55753487348556519 0.86043339967727661 0.79308515787124634
0.57880884408950806 0.86092638969421387 0.78981304168701172
0.616260826587677 0.86613070964813232 0.79429829120635986
0.67976558208465576 0.87034273147583008 0.8040958046913147
0.7470737099647522 0.87798190116882324 0.83059847354888916
0.81559300422668457 0.88590306043624878 0.83753079175949097
0.9405638575553894 0.87517029047012329 0.85635852813720703
0.51790517568588257 0.95589286088943481 0.90871310234069824
0.52264833450317383 0.95404428243637085 0.90404915809631348
0.52779531478881836 0.95389091968536377 0.90463352203369141
0.59730798006057739 0.94923001527786255 0.89555102586746216
0.67939823865890503 0.94854068756103516 0.88752442598342896
0.82695889472961426 0.9376375675201416 0.86738741397857666
0.98126256465911865 0.92618036270141602 0.84843665361404419
