assets/lut/creative tealorange 02.cube
# Created by: G'MIC (https://gmic.eu)
TITLE "tealorange_2"
# LUT size
LUT_3D_SIZE 13
# Data domain
DOMAIN_MIN 0.0 0.0 0.0
DOMAIN_MAX 1.0 1.0 1.0
# LUT data points
0.021236315369606018 0.052700821310281754 0.070613712072372437
0.078796088695526123 0.050726737827062607 0.061631985008716583
0.13411930203437805 0.05193125456571579 0.046354763209819794
0.18130499124526978 0.054439425468444824 0.040730107575654984
0.22831203043460846 0.052514437586069107 0.031123815104365349
0.27874875068664551 0.051698766648769379 0.02025471068918705
0.32684659957885742 0.04430205374956131 0.01292075403034687
0.38139152526855469 0.039782669395208359 0.016418172046542168
0.43314006924629211 0.043844662606716156 0.015246701426804066
0.49436178803443909 0.038499437272548676 0.0046995426528155804
0.55515462160110474 0.039344802498817444 0.0029834224842488766
0.61867290735244751 0.046688497066497803 0.0050608166493475437
0.68007898330688477 0.048880364745855331 0.0059874588623642921
0.020619247108697891 0.096891410648822784 0.065774016082286835
0.075677238404750824 0.096278533339500427 0.040214717388153076
0.13030259311199188 0.099702648818492889 0.022127697244286537
0.17423789203166962 0.10589062422513962 0.015093740075826645
0.2221049964427948 0.1095486506819725 0.0080546215176582336
0.27467650175094604 0.11532193422317505 0.0037253585178405046
0.32542678713798523 0.11748351901769638 0.0044636894017457962
0.38109126687049866 0.11960192024707794 0.0045498418621718884
0.43576928973197937 0.12719614803791046 0.0034977633040398359
0.49196770787239075 0.1333862841129303 0.0011518739629536867
0.55143886804580688 0.14120200276374817 0.001637567300349474
0.61620944738388062 0.15067228674888611 0.0024075675755739212
0.68524283170700073 0.1594235897064209 0.0022483228240162134
0.019363269209861755 0.1409933865070343 0.071642674505710602
0.077046908438205719 0.14169773459434509 0.041235305368900299
0.14286564290523529 0.14406971633434296 0.027205852791666985
0.19386462867259979 0.15234492719173431 0.019545327872037888
0.23541301488876343 0.16515013575553894 0.010164642706513405
0.27666914463043213 0.17557519674301147 0.0030764711555093527
0.32197427749633789 0.18694141507148743 0.0012794494396075606
0.3750099241733551 0.20520874857902527 0.0017011156305670738
0.4321323037147522 0.22098024189472198 0.0019603953696787357
0.49103149771690369 0.23649358749389648 0.0024620953481644392
0.55233049392700195 0.24725493788719177 0.0049558305181562901
0.62374770641326904 0.25652715563774109 0.0023440939839929342
0.69932669401168823 0.26886320114135742 0.00045952890650369227
0.008150915615260601 0.19038647413253784 0.075300954282283783
0.063448034226894379 0.19414085149765015 0.042458940297365189
0.15583078563213348 0.19928805530071259 0.034155990928411484
0.22229903936386108 0.21021376550197601 0.030551550909876823
0.27008259296417236 0.22179622948169708 0.022187640890479088
0.31155067682266235 0.23377248644828796 0.011770854704082012
0.35228914022445679 0.24808517098426819 0.0046053268015384674
0.40498927235603333 0.26977142691612244 0.0057614794932305813
0.45862358808517456 0.28889590501785278 0.004445692989975214
0.51378816366195679 0.30766004323959351 0.003888238687068224
0.57920616865158081 0.32552364468574524 0.0062865763902664185
0.64575648307800293 0.34282323718070984 0.0034260170068591833
0.71654677391052246 0.3584519624710083 0.00053187349112704396
0.0052706100977957249 0.24591805040836334 0.086501054465770721
0.055568888783454895 0.25232532620429993 0.052129212766885757
0.16146029531955719 0.25423398613929749 0.041272629052400589
0.24500778317451477 0.26840910315513611 0.039420902729034424
0.30454531311988831 0.28162708878517151 0.0360092893242836
0.35663214325904846 0.29213029146194458 0.0263633131980896
0.40363818407058716 0.30424067378044128 0.017817748710513115
0.4568822979927063 0.32343602180480957 0.012826179154217243
0.50753045082092285 0.34470432996749878 0.0087877614423632622
0.56102645397186279 0.36525347828865051 0.0056694028899073601
0.62308222055435181 0.38547736406326294 0.0060272067785263062
0.68645411729812622 0.40454539656639099 0.0037685318384319544
0.74608081579208374 0.42100805044174194 0.0019694310612976551
0.0036435294896364212 0.30505436658859253 0.10726088285446167
0.050538022071123123 0.31590083241462708 0.06552288681268692
0.16837400197982788 0.31725102663040161 0.050106167793273926
0.27128180861473083 0.32740932703018188 0.043466798961162567
0.33804818987846375 0.34104955196380615 0.045461121946573257
0.40063908696174622 0.35240903496742249 0.042345114052295685
0.45671734213829041 0.36427447199821472 0.034941550344228745
0.5123024582862854 0.37780067324638367 0.022100875154137611
0.56314289569854736 0.3979952335357666 0.016613110899925232
0.61877572536468506 0.41963979601860046 0.010615135543048382
0.68023675680160522 0.44256371259689331 0.0084480289369821548
0.74022060632705688 0.46131837368011475 0.0035048690624535084
0.78973609209060669 0.47438904643058777 0.0035134707577526569
0.0037950403057038784 0.3666439950466156 0.13095743954181671
0.062150947749614716 0.37997785210609436 0.08282095193862915
0.18909403681755066 0.38673952221870422 0.063731536269187927
0.3016517162322998 0.39324969053268433 0.054198380559682846
0.37691399455070496 0.40482088923454285 0.05591931939125061
0.44308549165725708 0.41687533259391785 0.05661633238196373
0.50187855958938599 0.4246724545955658 0.054014451801776886
0.56328892707824707 0.4375896155834198 0.042257960885763168
0.62351268529891968 0.4545457661151886 0.032136324793100357
0.6840633749961853 0.47516584396362305 0.022165620699524879
0.74158602952957153 0.49715900421142578 0.019113607704639435
0.79723364114761353 0.51494210958480835 0.012843172997236252
0.84583324193954468 0.52821004390716553 0.0071496251039206982
0.013031993061304092 0.44069656729698181 0.16454702615737915
0.086348198354244232 0.45217925310134888 0.10650576651096344
0.21943467855453491 0.4642089307308197 0.077677704393863678
0.33632609248161316 0.46546614170074463 0.064420334994792938
0.4227442741394043 0.47667497396469116 0.063593678176403046
0.4901459813117981 0.48577061295509338 0.064770609140396118
0.55588024854660034 0.5000719428062439 0.066127538681030273
0.6174507737159729 0.50746089220046997 0.063653416931629181
0.68260061740875244 0.52113044261932373 0.060826830565929413
0.74255663156509399 0.53528410196304321 0.053087465465068817
0.80234962701797485 0.55384975671768188 0.039960224181413651
0.85818308591842651 0.56940215826034546 0.019399022683501244
0.90880477428436279 0.58575373888015747 0.0091930609196424484
0.029219742864370346 0.51623344421386719 0.19192062318325043
0.11302511394023895 0.52901732921600342 0.13341209292411804
0.24792875349521637 0.53935176134109497 0.097226433455944061
0.37394186854362488 0.54756993055343628 0.077771581709384918
0.47084924578666687 0.55441159009933472 0.070264630019664764
0.54584199190139771 0.56329119205474854 0.076330162584781647
0.61004233360290527 0.57423907518386841 0.080171726644039154
0.67698812484741211 0.58444857597351074 0.078833438456058502
0.74004203081130981 0.59200656414031982 0.083710417151451111
0.79497432708740234 0.59837400913238525 0.083792157471179962
0.85242146253585815 0.6110120415687561 0.071755938231945038
0.91189080476760864 0.62460726499557495 0.038235623389482498
0.95548826456069946 0.63833868503570557 0.025634016841650009
0.091732427477836609 0.59110945463180542 0.21098974347114563
0.16688629984855652 0.60423558950424194 0.15602263808250427
0.28868505358695984 0.61475688219070435 0.12077078968286514
0.40919464826583862 0.62442696094512939 0.10048950463533401
0.51302194595336914 0.63133615255355835 0.088202305138111115
0.59451586008071899 0.63623100519180298 0.08669617772102356
0.65554517507553101 0.644672691822052 0.091513857245445251
0.71995216608047485 0.6541406512260437 0.090868540108203888
0.78210973739624023 0.66090202331542969 0.090359166264533997
0.83926194906234741 0.66428494453430176 0.093496881425380707
0.89933961629867554 0.67344284057617188 0.08870571106672287
0.95443868637084961 0.68363159894943237 0.066435776650905609
0.98498481512069702 0.69212847948074341 0.052359037101268768
0.19612707197666168 0.66752636432647705 0.24777738749980927
0.24805247783660889 0.67847353219985962 0.18940356373786926
0.33947011828422546 0.6926954984664917 0.14418689906597137
0.44279271364212036 0.700203537940979 0.12446322292089462
0.547066330909729 0.70584827661514282 0.10740628838539124
0.62855559587478638 0.70557159185409546 0.10002768784761429
0.69455522298812866 0.71033221483230591 0.095280319452285767
0.76043117046356201 0.72074288129806519 0.09399191290140152
0.8182176947593689 0.72618979215621948 0.097859792411327362
0.87825793027877808 0.73059827089309692 0.092690818011760712
0.92897903919219971 0.73436766862869263 0.090048924088478088
0.97657757997512817 0.74045360088348389 0.082847058773040771
0.99504894018173218 0.74361276626586914 0.079758919775485992
0.27922821044921875 0.74395358562469482 0.28900817036628723
0.31768786907196045 0.75586980581283569 0.22588822245597839
0.37907350063323975 0.77035695314407349 0.17319726943969727
0.46719226241111755 0.77789765596389771 0.15550252795219421
0.56722736358642578 0.780994713306427 0.1328754723072052
0.65188688039779663 0.77772611379623413 0.11384045332670212
0.72539240121841431 0.77827906608581543 0.096840754151344299
0.79718953371047974 0.78679609298706055 0.096265919506549835
0.85359138250350952 0.7960239052772522 0.10965815186500549
0.90691620111465454 0.79442793130874634 0.090015426278114319
0.95899420976638794 0.79772353172302246 0.077069438993930817
0.9894869327545166 0.80062246322631836 0.074030362069606781
0.99939137697219849 0.80207997560501099 0.075650565326213837
0.33370944857597351 0.81010180711746216 0.31145581603050232
0.35918751358985901 0.82723313570022583 0.24333114922046661
0.40525603294372559 0.84027522802352905 0.19122561812400818
0.48995044827461243 0.84520208835601807 0.16835308074951172
0.58568263053894043 0.85112911462783813 0.14898155629634857
0.66752892732620239 0.85088104009628296 0.12493081390857697
0.74859422445297241 0.84916341304779053 0.10709577053785324
0.82144320011138916 0.84911549091339111 0.092621117830276489
0.88215982913970947 0.85289007425308228 0.085053309798240662
0.93440014123916626 0.84992462396621704 0.073836952447891235
0.97239691019058228 0.85025256872177124 0.062116332352161407
0.99514645338058472 0.85389292240142822 0.052634205669164658
1 0.85488355159759521 0.049283433705568314
0.011131496168673038 0.059015415608882904 0.093476541340351105
0.061596378684043884 0.05379924550652504 0.10127463191747665
0.12028452754020691 0.055124722421169281 0.092503294348716736
0.17079249024391174 0.057521536946296692 0.091398142278194427
0.2205585390329361 0.055139578878879547 0.082336932420730591
0.27094936370849609 0.053718209266662598 0.067826636135578156
0.31896576285362244 0.046243481338024139 0.054885908961296082
0.37752377986907959 0.041610147804021835 0.054297801107168198
0.43363091349601746 0.043225891888141632 0.048969238996505737
0.49487072229385376 0.040536392480134964 0.042763728648424149
0.55533766746520996 0.039491616189479828 0.03741995245218277
0.62200927734375 0.037266016006469727 0.034369330853223801
0.68769317865371704 0.03176281601190567 0.027279512956738472
0.012765862047672272 0.09730791300535202 0.093392722308635712
0.068409740924835205 0.097784213721752167 0.077352188527584076
0.12669272720813751 0.10038622468709946 0.056804865598678589
0.17467972636222839 0.10648404061794281 0.050497271120548248
0.22567453980445862 0.10918509960174561 0.046897605061531067
0.28041782975196838 0.11363212764263153 0.038832452148199081
0.3333858847618103 0.10980787128210068 0.029715385288000107
0.39202618598937988 0.10723167657852173 0.025956710800528526
0.44685515761375427 0.11494855582714081 0.026008995249867439
0.50675117969512939 0.12056337296962738 0.022359391674399376
0.57042205333709717 0.1226351261138916 0.016875158995389938
0.6410067081451416 0.12109680473804474 0.011547776870429516
0.70916670560836792 0.12300620228052139 0.0074425041675567627
0.0087910369038581848 0.14118160307407379 0.10631228983402252
0.061487086117267609 0.14621777832508087 0.074806928634643555
0.13387662172317505 0.15044869482517242 0.057352088391780853
0.18709912896156311 0.15771441161632538 0.046700466424226761
0.23309609293937683 0.1675916314125061 0.039064489305019379
0.28291842341423035 0.17854483425617218 0.03356507420539856
0.33422145247459412 0.18353526294231415 0.024316376075148582
0.3922114372253418 0.19384852051734924 0.017877137288451195
0.44850930571556091 0.20977367460727692 0.018092421814799309
0.51311886310577393 0.22083520889282227 0.014990084804594517
0.57498908042907715 0.23257732391357422 0.015897294506430626
0.65126943588256836 0.23424699902534485 0.0071467980742454529
0.72426354885101318 0.23643818497657776 0.0037079006433486938
0.0084451260045170784 0.19325637817382812 0.12029076367616653
0.049191493541002274 0.20035415887832642 0.084186166524887085
0.14321386814117432 0.20560897886753082 0.068074934184551239
0.21555642783641815 0.21398733556270599 0.065190337598323822
0.26627147197723389 0.22611443698406219 0.056471627205610275
0.30879330635070801 0.23988312482833862 0.044085633009672165
0.34904849529266357 0.25221732258796692 0.035076409578323364
0.40458086133003235 0.27207162976264954 0.032618384808301926
0.46267852187156677 0.29030963778495789 0.031367596238851547
0.52243602275848389 0.30643653869628906 0.030603371560573578
0.58827942609786987 0.32300463318824768 0.028752660378813744
0.66276681423187256 0.33400237560272217 0.013006501831114292
0.73040229082107544 0.34269404411315918 0.0043514627031981945
0.0082409577444195747 0.24711309373378754 0.13652686774730682
0.043675936758518219 0.25547909736633301 0.098185628652572632
0.15187613666057587 0.26174700260162354 0.080797962844371796
0.24075420200824738 0.27384093403816223 0.079849034547805786
0.3016742467880249 0.28523367643356323 0.076345361769199371
0.35303482413291931 0.29658246040344238 0.06389927864074707
0.39818260073661804 0.31118974089622498 0.055115256458520889
0.45274227857589722 0.33045092225074768 0.047696281224489212
0.50743728876113892 0.35017722845077515 0.040602248162031174
0.56208795309066772 0.36857622861862183 0.033315066248178482
0.62365615367889404 0.38843587040901184 0.031135303899645805
0.68962222337722778 0.40660747885704041 0.021353313699364662
0.75111347436904907 0.41993814706802368 0.013011917471885681
0.0047210096381604671 0.30540776252746582 0.15785011649131775
0.041213493794202805 0.31872469186782837 0.11547484993934631
0.15407593548297882 0.32656782865524292 0.094296939671039581
0.26370838284492493 0.33389204740524292 0.088868491351604462
0.33449593186378479 0.34574005007743835 0.08995509147644043
0.39533373713493347 0.35593649744987488 0.085588701069355011
0.45321929454803467 0.37005412578582764 0.079753950238227844
0.51014012098312378 0.38549259305000305 0.068244293332099915
0.56324172019958496 0.40576249361038208 0.058725662529468536
0.61692166328430176 0.42560476064682007 0.046938009560108185
0.673514723777771 0.44599705934524536 0.03684711828827858
0.73136526346206665 0.46423646807670593 0.019436631351709366
0.78296542167663574 0.47869759798049927 0.016616970300674438
0.004887809045612812 0.36929720640182495 0.18635506927967072
0.042648643255233765 0.38434940576553345 0.13819889724254608
0.15795677900314331 0.39336147904396057 0.11208687722682953
0.28667595982551575 0.39921867847442627 0.10338779538869858
0.37329760193824768 0.40988147258758545 0.10135677456855774
0.43786713480949402 0.42339164018630981 0.10832833498716354
0.49959155917167664 0.43179574608802795 0.1088443249464035
0.56190794706344604 0.44673994183540344 0.10048126429319382
0.62127053737640381 0.46309342980384827 0.085747554898262024
0.67842566967010498 0.48223364353179932 0.075061976909637451
0.73419314622879028 0.50181233882904053 0.05734335258603096
0.79045569896697998 0.5203743577003479 0.038133598864078522
0.84397447109222412 0.53782594203948975 0.028279995545744896
0.014031593687832355 0.44195598363876343 0.22237005829811096
0.068154186010360718 0.45429006218910217 0.17081259191036224
0.19126367568969727 0.46569207310676575 0.13693156838417053
0.31744763255119324 0.47165191173553467 0.12240578234195709
0.41390568017959595 0.48311024904251099 0.11982402205467224
0.4881645143032074 0.49459147453308105 0.12544921040534973
0.55315452814102173 0.50516176223754883 0.12948466837406158
0.61837214231491089 0.51682335138320923 0.12810105085372925
0.68245095014572144 0.52953249216079712 0.12471891194581985
0.74282717704772949 0.54233777523040771 0.11231964826583862
0.79882591962814331 0.55844682455062866 0.090430513024330139
0.85241377353668213 0.57486653327941895 0.066957883536815643
0.90554094314575195 0.59354978799819946 0.042869284749031067
0.048169784247875214 0.5179213285446167 0.2581028938293457
0.12831881642341614 0.53026086091995239 0.21520689129829407
0.23749084770679474 0.54336434602737427 0.16421720385551453
0.35498633980751038 0.55361807346343994 0.14127011597156525
0.4572395384311676 0.55987393856048584 0.13855890929698944
0.53783696889877319 0.56907820701599121 0.14189097285270691
0.60582935810089111 0.58152371644973755 0.14703929424285889
0.66966879367828369 0.58883148431777954 0.14769591391086578
0.73595726490020752 0.59817278385162354 0.1519940197467804
0.7957843542098999 0.60526686906814575 0.14479278028011322
0.85276788473129272 0.61538833379745483 0.12889760732650757
0.90503102540969849 0.62854796648025513 0.10589117556810379
0.95161867141723633 0.64277136325836182 0.076246626675128937
0.11218468099832535 0.59261846542358398 0.28610008955001831
0.19089086353778839 0.60479617118835449 0.2439265102148056
0.29205825924873352 0.61891758441925049 0.19087599217891693
0.39631170034408569 0.632770836353302 0.16910666227340698
0.49410369992256165 0.63899350166320801 0.16267453134059906
0.5816769003868103 0.64401721954345703 0.15908718109130859
0.65007758140563965 0.6504860520362854 0.161629319190979
0.71414172649383545 0.65903156995773315 0.16370905935764313
0.77732783555984497 0.66639477014541626 0.1646973192691803
0.83716088533401489 0.67007410526275635 0.16547952592372894
0.89713525772094727 0.67846572399139404 0.16290296614170074
0.95052182674407959 0.6887892484664917 0.14707723259925842
0.98207312822341919 0.69638139009475708 0.12073877453804016
0.2099749892950058 0.66873824596405029 0.31405165791511536
0.27146324515342712 0.6795966625213623 0.26872330904006958
0.34758156538009644 0.69466781616210938 0.2113431990146637
0.43232592940330505 0.70728206634521484 0.19059698283672333
0.5232696533203125 0.71211165189743042 0.18227717280387878
0.61314970254898071 0.7123945951461792 0.17195969820022583
0.68805360794067383 0.71672385931015015 0.16812780499458313
0.75304919481277466 0.72391873598098755 0.16994808614253998
0.81383341550827026 0.72962301969528198 0.17071878910064697
0.87198114395141602 0.73338997364044189 0.17134694755077362
0.93223947286605835 0.74233531951904297 0.17595364153385162
0.9766772985458374 0.74739140272140503 0.16751183569431305
0.99202620983123779 0.74990177154541016 0.15851636230945587
0.29398131370544434 0.74498659372329712 0.34478902816772461
0.33386266231536865 0.75735116004943848 0.30196565389633179
0.38460412621498108 0.77003222703933716 0.24517291784286499
0.45854476094245911 0.7831612229347229 0.21537046134471893
0.54794597625732422 0.78751194477081299 0.20024140179157257
0.63907665014266968 0.78626477718353271 0.18773235380649567
0.71709740161895752 0.78849148750305176 0.17731311917304993
0.79210174083709717 0.7939603328704834 0.17297714948654175
0.84912055730819702 0.79634124040603638 0.17231500148773193
0.9024474024772644 0.79661029577255249 0.16836826503276825
0.95421111583709717 0.79953616857528687 0.1640532910823822
0.98803997039794922 0.80487751960754395 0.16122201085090637
0.99789756536483765 0.80959230661392212 0.15924791991710663
0.3490140438079834 0.8080945611000061 0.3665345311164856
0.37933900952339172 0.82626491785049438 0.33068075776100159
0.41499486565589905 0.84099698066711426 0.2833649218082428
0.48080527782440186 0.85135674476623535 0.2396572083234787
0.56521046161651611 0.85753840208053589 0.2156909853219986
0.64737486839294434 0.85633689165115356 0.19975738227367401
0.73126512765884399 0.85582447052001953 0.18402840197086334
0.80684059858322144 0.85283166170120239 0.17380815744400024
0.87441235780715942 0.85560703277587891 0.16701522469520569
0.92552000284194946 0.85093992948532104 0.16113284230232239
0.97007101774215698 0.85184800624847412 0.14936245977878571
0.99485760927200317 0.85868024826049805 0.14178816974163055
0.9999203085899353 0.86007672548294067 0.14627525210380554
0.00357667519710958 0.064228609204292297 0.10669627785682678
0.03761913999915123 0.062275636941194534 0.12502084672451019
0.094388894736766815 0.063051126897335052 0.13383388519287109
0.1489638090133667 0.067109517753124237 0.1462734043598175
0.20073087513446808 0.069395683705806732 0.14950869977474213
0.25152844190597534 0.069879509508609772 0.14606419205665588
0.30244806408882141 0.067721575498580933 0.13882295787334442
0.36064338684082031 0.068757884204387665 0.14135646820068359
0.42068082094192505 0.06525731086730957 0.1253398209810257
0.48034602403640747 0.06398405134677887 0.11666306108236313
0.54179590940475464 0.061667364090681076 0.11468502879142761
0.61070317029953003 0.053953956812620163 0.10625459253787994
0.6713988184928894 0.048735134303569794 0.098838552832603455
0.0092242369428277016 0.10070784389972687 0.10700812190771103
0.055379919707775116 0.099665924906730652 0.10672534257173538
0.11724895238876343 0.10161910951137543 0.1032932922244072
0.17319424450397491 0.10641832649707794 0.10273799300193787
0.22455449402332306 0.11302319914102554 0.11160143464803696
0.27473503351211548 0.11874018609523773 0.11099096387624741
0.32705962657928467 0.11862445622682571 0.098158039152622223
0.38969194889068604 0.11771958321332932 0.087101250886917114
0.44723784923553467 0.12095164507627487 0.084100119769573212
0.50799649953842163 0.12515440583229065 0.073134571313858032
0.57126635313034058 0.12653252482414246 0.068115532398223877
0.64213204383850098 0.12580220401287079 0.065966583788394928
0.71773034334182739 0.11801439523696899 0.055381011217832565
0.0054245744831860065 0.14344938099384308 0.12793949246406555
0.050667647272348404 0.14812202751636505 0.10888496786355972
0.12509730458259583 0.15366217494010925 0.095382079482078552
0.18192876875400543 0.15909650921821594 0.084434747695922852
0.23117262125015259 0.1702449768781662 0.084732130169868469
0.28478047251701355 0.17792756855487823 0.087880484759807587
0.3432765007019043 0.18250013887882233 0.077090546488761902
0.40648537874221802 0.19187526404857635 0.062714733183383942
0.46861380338668823 0.19601978361606598 0.052278093993663788
0.53911095857620239 0.20372968912124634 0.046004336327314377
0.59952592849731445 0.21328233182430267 0.047258384525775909
0.67224198579788208 0.21251629292964935 0.039949424564838409
0.75125229358673096 0.21049687266349792 0.029425647109746933
0.0057138330303132534 0.19604463875293732 0.15616452693939209
0.043410327285528183 0.20351143181324005 0.12896353006362915
0.13460411131381989 0.20955191552639008 0.10735511034727097
0.20698577165603638 0.21740545332431793 0.10246972739696503
0.26096898317337036 0.22987216711044312 0.096066445112228394
0.30633693933486938 0.24396891891956329 0.090970851480960846
0.35511741042137146 0.25363349914550781 0.081039443612098694
0.41261625289916992 0.26906934380531311 0.07645086944103241
0.47660788893699646 0.28381121158599854 0.072163604199886322
0.54396075010299683 0.29649201035499573 0.068514265120029449
0.6092870831489563 0.31095239520072937 0.067750744521617889
0.6846662163734436 0.31595245003700256 0.04187774658203125
0.76214408874511719 0.3175559937953949 0.023207571357488632
0.0062438216991722584 0.25023186206817627 0.18101334571838379
0.044927723705768585 0.25900661945343018 0.15028701722621918
0.14144521951675415 0.26656800508499146 0.12230296432971954
