assets/lut/creative candlelight.cube
# Created by: G'MIC (https://gmic.eu)
TITLE "candlelight"
# LUT size
LUT_3D_SIZE 13
# Data domain
DOMAIN_MIN 0.0 0.0 0.0
DOMAIN_MAX 1.0 1.0 1.0
# LUT data points
0.072633795440196991 0.057425361126661301 0.045770756900310516
0.12579797208309174 0.085652805864810944 0.072072900831699371
0.17521360516548157 0.10754936188459396 0.091315314173698425
0.22355075180530548 0.12332934141159058 0.10553790628910065
0.27305504679679871 0.13915401697158813 0.1208207830786705
0.32672297954559326 0.15925657749176025 0.14180353283882141
0.389352947473526 0.18632455170154572 0.17288748919963837
0.46753475069999695 0.22352133691310883 0.2116847038269043
0.56292498111724854 0.27205696702003479 0.25589066743850708
0.67351305484771729 0.32723808288574219 0.30860266089439392
0.78521299362182617 0.38186538219451904 0.36404222249984741
0.87110304832458496 0.42544907331466675 0.40462788939476013
0.93304616212844849 0.4578711986541748 0.43520256876945496
0.10105085372924805 0.098498128354549408 0.065980233252048492
0.13800826668739319 0.11258808523416519 0.081129424273967743
0.18203742802143097 0.13105826079845428 0.097035430371761322
0.22790832817554474 0.14631666243076324 0.11094894260168076
0.27582702040672302 0.15935821831226349 0.1261744499206543
0.32755652070045471 0.17896291613578796 0.14443396031856537
0.38915494084358215 0.20553673803806305 0.17256677150726318
0.46745401620864868 0.23953253030776978 0.21262554824352264
0.56262141466140747 0.28408148884773254 0.25699195265769958
0.66956853866577148 0.33486285805702209 0.30683436989784241
0.77903532981872559 0.38806596398353577 0.36041367053985596
0.8707197904586792 0.43384957313537598 0.40465086698532104
0.93646091222763062 0.46783527731895447 0.43831393122673035
0.13318660855293274 0.14880642294883728 0.08946952223777771
0.15795083343982697 0.15045976638793945 0.09461638331413269
0.19322255253791809 0.15962664783000946 0.1042858213186264
0.23472879827022552 0.17220042645931244 0.11617030948400497
0.28019750118255615 0.1852167546749115 0.13084566593170166
0.33170357346534729 0.20313049852848053 0.14989785850048065
0.39434796571731567 0.2275824248790741 0.17782685160636902
0.47284755110740662 0.25909429788589478 0.21623586118221283
0.56708967685699463 0.29984202980995178 0.26086881756782532
0.67329537868499756 0.3477916419506073 0.3111707866191864
0.78282922506332397 0.39951077103614807 0.36409536004066467
0.8746408224105835 0.44462218880653381 0.40892782807350159
0.94118726253509521 0.47826346755027771 0.44265982508659363
0.1584320068359375 0.18816520273685455 0.1068757027387619
0.17945863306522369 0.18915955722332001 0.10947319120168686
0.20859929919242859 0.19408901035785675 0.11467720568180084
0.24494285881519318 0.20316678285598755 0.12331589311361313
0.28669917583465576 0.21640238165855408 0.1358790397644043
0.33783444762229919 0.23185557126998901 0.15623018145561218
0.40107613801956177 0.2519879937171936 0.18552452325820923
0.4788130521774292 0.28143897652626038 0.22173653542995453
0.57221758365631104 0.32008817791938782 0.26504451036453247
0.67802363634109497 0.36612635850906372 0.31494143605232239
0.78708118200302124 0.41541892290115356 0.36758747696876526
0.87836927175521851 0.45737972855567932 0.41211614012718201
0.94411647319793701 0.48935195803642273 0.44499239325523376
0.18040047585964203 0.23091123998165131 0.12360227853059769
0.2008306086063385 0.23198847472667694 0.12578895688056946
0.2269124835729599 0.23514038324356079 0.12903915345668793
0.25876986980438232 0.2413957267999649 0.1343083381652832
0.29699698090553284 0.25215384364128113 0.14371055364608765
0.346016526222229 0.26484611630439758 0.16274821758270264
0.40785342454910278 0.28227812051773071 0.19117876887321472
0.48450478911399841 0.30860784649848938 0.22604897618293762
0.57628065347671509 0.34396481513977051 0.26809686422348022
0.67954766750335693 0.38702723383903503 0.31575432419776917
0.78587925434112549 0.43161243200302124 0.36647045612335205
0.87630808353424072 0.47022771835327148 0.40944972634315491
0.94274675846099854 0.50140190124511719 0.4444068968296051
0.20737473666667938 0.28271567821502686 0.14455008506774902
0.22651576995849609 0.28386518359184265 0.14661170542240143
0.25051087141036987 0.28439825773239136 0.14897608757019043
0.27954486012458801 0.28681734204292297 0.1522136777639389
0.31489142775535583 0.29232841730117798 0.1591133326292038
0.35976970195770264 0.30266743898391724 0.1740507036447525
0.41738560795783997 0.31984239816665649 0.19814352691173553
0.49160382151603699 0.34174594283103943 0.23174035549163818
0.58187353610992432 0.37162116169929504 0.27323561906814575
0.6845281720161438 0.4104824960231781 0.32086047530174255
0.78961896896362305 0.45225194096565247 0.37045091390609741
0.87807202339172363 0.48838520050048828 0.41203111410140991
0.9424738883972168 0.5183911919593811 0.44527879357337952
0.24407118558883667 0.33622613549232483 0.17094847559928894
0.2620883584022522 0.33977037668228149 0.17342375218868256
0.28328561782836914 0.34186336398124695 0.17599427700042725
0.30934032797813416 0.34314084053039551 0.17879292368888855
0.34067484736442566 0.34570205211639404 0.18397358059883118
0.38075903058052063 0.35247886180877686 0.1948293149471283
0.4336429238319397 0.36556354165077209 0.21392554044723511
0.50334054231643677 0.38330551981925964 0.24319621920585632
0.59041887521743774 0.40802541375160217 0.28191673755645752
0.69266432523727417 0.44286787509918213 0.32911491394042969
0.79871910810470581 0.4824034571647644 0.37881812453269958
0.88584709167480469 0.51652741432189941 0.41903567314147949
0.94747388362884521 0.54545336961746216 0.45100438594818115
0.29237043857574463 0.40379336476325989 0.20609173178672791
0.30778557062149048 0.40786957740783691 0.20861829817295074
0.32744961977005005 0.41174149513244629 0.2116125077009201
0.35020557045936584 0.41464030742645264 0.21494314074516296
0.37693780660629272 0.41625332832336426 0.21894349157810211
0.41080793738365173 0.41924384236335754 0.22585174441337585
0.45758619904518127 0.42769935727119446 0.23929320275783539
0.52060043811798096 0.44098210334777832 0.26105853915214539
0.60154300928115845 0.46012184023857117 0.29287508130073547
0.70075976848602295 0.49034783244132996 0.33663934469223022
0.80575942993164062 0.52520334720611572 0.3851979672908783
0.89340108633041382 0.55577152967453003 0.42494925856590271
0.95518577098846436 0.58347678184509277 0.45817404985427856
0.35367506742477417 0.49150380492210388 0.25194624066352844
0.36672753095626831 0.49395674467086792 0.25394326448440552
0.38454201817512512 0.49889573454856873 0.25765207409858704
0.40500187873840332 0.50377023220062256 0.26247084140777588
0.42708867788314819 0.504325270652771 0.26513421535491943
0.45329681038856506 0.50317776203155518 0.26801586151123047
0.49146157503128052 0.50749498605728149 0.27470278739929199
0.54658085107803345 0.51738595962524414 0.28841975331306458
0.61858844757080078 0.52970796823501587 0.31093502044677734
0.712299644947052 0.55334699153900146 0.34941789507865906
0.81626468896865845 0.58421653509140015 0.3958340585231781
0.90413028001785278 0.61055618524551392 0.4335191547870636
0.96511459350585938 0.63524055480957031 0.46774598956108093
0.43099814653396606 0.59874463081359863 0.309062659740448
0.4416387677192688 0.59983450174331665 0.31097406148910522
0.45554563403129578 0.60518091917037964 0.31552177667617798
0.47414252161979675 0.61160910129547119 0.32137051224708557
0.49272879958152771 0.61204183101654053 0.32358387112617493
0.51184165477752686 0.60717463493347168 0.32243117690086365
0.54188752174377441 0.60716694593429565 0.32432925701141357
0.58997601270675659 0.61526018381118774 0.33264255523681641
0.65387099981307983 0.62379157543182373 0.34812280535697937
0.73960459232330322 0.64155375957489014 0.37923559546470642
0.83827167749404907 0.66681623458862305 0.41844487190246582
0.92185908555984497 0.68813002109527588 0.44899740815162659
0.97741568088531494 0.70752066373825073 0.48481282591819763
0.52050530910491943 0.72070157527923584 0.37569946050643921
0.52592718601226807 0.7177312970161438 0.37453570961952209
0.53614085912704468 0.72024261951446533 0.37772893905639648
0.55058395862579346 0.72663199901580811 0.38388773798942566
0.56644368171691895 0.72844260931015015 0.38649177551269531
0.58179885149002075 0.72391432523727417 0.38440263271331787
0.60871952772140503 0.72541928291320801 0.3855559229850769
0.65112006664276123 0.73221862316131592 0.39174720644950867
0.70738869905471802 0.73713850975036621 0.4023190438747406
0.78227436542510986 0.74948054552078247 0.42272931337356567
0.86928689479827881 0.76765185594558716 0.4450739324092865
0.94541186094284058 0.78230959177017212 0.46499374508857727
0.9901580810546875 0.79524195194244385 0.51432269811630249
0.59536892175674438 0.82326483726501465 0.43067893385887146
0.59877908229827881 0.81892573833465576 0.42868047952651978
0.60505574941635132 0.81943988800048828 0.43008992075920105
0.61610627174377441 0.82370889186859131 0.43410080671310425
0.62865358591079712 0.82594680786132812 0.43608525395393372
0.64504474401473999 0.82582658529281616 0.43590295314788818
0.6721043586730957 0.83170789480209351 0.44071981310844421
0.71159189939498901 0.83931815624237061 0.44790038466453552
0.76066899299621582 0.84042394161224365 0.45379871129989624
0.82510250806808472 0.84692400693893433 0.46355107426643372
0.90061300992965698 0.8589242696762085 0.47174891829490662
0.96741217374801636 0.86799752712249756 0.48856151103973389
0.99774104356765747 0.87380051612854004 0.56357425451278687
0.64614582061767578 0.89625680446624756 0.46999648213386536
0.65160191059112549 0.89519375562667847 0.46952551603317261
0.65683990716934204 0.89521360397338867 0.47037395834922791
0.66446518898010254 0.8962932825088501 0.47081789374351501
0.67444658279418945 0.89661908149719238 0.47066938877105713
0.692210853099823 0.90044945478439331 0.47489228844642639
0.72026771306991577 0.90911620855331421 0.48395392298698425
0.7568504810333252 0.91571849584579468 0.49285575747489929
0.80208730697631836 0.91681301593780518 0.4997011125087738
0.85746568441390991 0.92021399736404419 0.50847387313842773
0.9198765754699707 0.92747730016708374 0.52313435077667236
0.97056156396865845 0.93146157264709473 0.56269413232803345
0.99358546733856201 0.93250882625579834 0.65543848276138306
0.081764578819274902 0.066242039203643799 0.057514999061822891
0.12535308301448822 0.086048200726509094 0.077317915856838226
0.17460648715496063 0.10740175098180771 0.096995800733566284
0.22398103773593903 0.12464379519224167 0.11311439424753189
0.27314859628677368 0.14033760130405426 0.12899181246757507
0.32495075464248657 0.16094404458999634 0.14960148930549622
0.38800618052482605 0.18910591304302216 0.17923954129219055
0.46736994385719299 0.22753468155860901 0.21667098999023438
0.56381344795227051 0.2758592963218689 0.26024684309959412
0.67386519908905029 0.32946652173995972 0.31198772788047791
0.78307795524597168 0.38200005888938904 0.36515766382217407
0.86990296840667725 0.42466723918914795 0.40631690621376038
0.93358170986175537 0.45673298835754395 0.4377114474773407
0.1046149879693985 0.10180092602968216 0.075295150279998779
0.13499552011489868 0.11230664700269699 0.085904724895954132
0.17901375889778137 0.12952111661434174 0.10197438299655914
0.22654908895492554 0.14726182818412781 0.1181294322013855
0.27489331364631653 0.16266389191150665 0.13484960794448853
0.32574224472045898 0.1823069155216217 0.15437681972980499
0.38794687390327454 0.20880040526390076 0.18307101726531982
0.46771833300590515 0.24453683197498322 0.22046613693237305
0.56417417526245117 0.28924852609634399 0.26373863220214844
0.67219370603561401 0.33834275603294373 0.31470593810081482
0.77955156564712524 0.38922315835952759 0.3657805323600769
0.86806535720825195 0.43279856443405151 0.40702676773071289
0.93355637788772583 0.46562469005584717 0.43894308805465698
0.1314823180437088 0.14729505777359009 0.095033667981624603
0.15416865050792694 0.14924710988998413 0.099656499922275543
0.1891118586063385 0.15649396181106567 0.10945405811071396
0.23077838122844696 0.17086274921894073 0.12254692614078522
0.27703589200973511 0.18680264055728912 0.13900096714496613
0.32941129803657532 0.20611229538917542 0.15977232158184052
0.39262759685516357 0.23079834878444672 0.18849553167819977
0.47181373834609985 0.26341930031776428 0.22493889927864075
0.56704670190811157 0.30362617969512939 0.26811021566390991
0.67372363805770874 0.34927403926849365 0.31911173462867737
0.78126895427703857 0.39953252673149109 0.36913123726844788
0.87129414081573486 0.443197101354599 0.41040953993797302
0.93727672100067139 0.47592467069625854 0.4423496425151825
0.15687437355518341 0.18488651514053345 0.1115434542298317
0.17664122581481934 0.1845373809337616 0.1140049621462822
0.2040436863899231 0.18873940408229828 0.11944893002510071
0.23927411437034607 0.19860607385635376 0.12873412668704987
0.28235727548599243 0.21395422518253326 0.14343605935573578
0.33555972576141357 0.23190192878246307 0.16611549258232117
0.39950340986251831 0.25416231155395508 0.19526155292987823
0.47646281123161316 0.28389120101928711 0.22952136397361755
0.56952619552612305 0.321828693151474 0.27134096622467041
0.675834059715271 0.36652621626853943 0.32038843631744385
0.78418970108032227 0.41486996412277222 0.3708360493183136
0.87490701675415039 0.45589640736579895 0.41256910562515259
0.94083160161972046 0.48727554082870483 0.44441020488739014
0.18075636029243469 0.22697536647319794 0.12900884449481964
0.20002329349517822 0.22517044842243195 0.13141949474811554
0.22397306561470032 0.22870263457298279 0.13478332757949829
0.2540130615234375 0.23470047116279602 0.14015279710292816
0.29263952374458313 0.24614721536636353 0.15117175877094269
0.34314292669296265 0.26192668080329895 0.17179645597934723
0.40540292859077454 0.28250414133071899 0.19943732023239136
0.48111063241958618 0.30981773138046265 0.23316760361194611
0.57300412654876709 0.34516757726669312 0.27406778931617737
0.67743086814880371 0.38786360621452332 0.32115459442138672
0.78449165821075439 0.4319661557674408 0.37030297517776489
0.87483984231948853 0.46961882710456848 0.41200172901153564
0.94020456075668335 0.49936187267303467 0.44352066516876221
0.20906843245029449 0.27960255742073059 0.15085610747337341
0.22762642800807953 0.27771031856536865 0.15355360507965088
0.2496454268693924 0.27872577309608459 0.15608599781990051
0.27606752514839172 0.28014180064201355 0.15883353352546692
0.30975711345672607 0.28624594211578369 0.1655542403459549
0.35427436232566833 0.2987939715385437 0.18033349514007568
0.41235184669494629 0.31732764840126038 0.20437529683113098
0.48744937777519226 0.34150496125221252 0.23784525692462921
0.57881206274032593 0.37264010310173035 0.2792239785194397
0.68270337581634521 0.41192710399627686 0.32626023888587952
0.78857135772705078 0.45280468463897705 0.37475806474685669
0.8762819766998291 0.48751160502433777 0.41397979855537415
0.93861669301986694 0.51583081483840942 0.44337213039398193
0.24650870263576508 0.3366125226020813 0.17853623628616333
0.26363632082939148 0.33610114455223083 0.18143755197525024
0.28403946757316589 0.33739414811134338 0.18369857966899872
0.30674666166305542 0.33792659640312195 0.18546043336391449
0.33545443415641785 0.34057208895683289 0.18967939913272858
0.37434747815132141 0.34829628467559814 0.19972224533557892
0.42796730995178223 0.36133503913879395 0.21924515068531036
0.49920755624771118 0.37970429658889771 0.24918346107006073
0.58729380369186401 0.4072476327419281 0.28750258684158325
0.69029277563095093 0.44398057460784912 0.33399572968482971
0.79609811305999756 0.48283573985099792 0.38214787840843201
0.88191843032836914 0.51521027088165283 0.41940882802009583
0.94231134653091431 0.54255396127700806 0.44792172312736511
0.29522106051445007 0.40719899535179138 0.21431601047515869
0.31029495596885681 0.4072929322719574 0.21643459796905518
0.32862550020217896 0.40969717502593994 0.21856503188610077
0.34843641519546509 0.41071733832359314 0.22058212757110596
0.37250873446464539 0.41146025061607361 0.2235322892665863
0.40566235780715942 0.41459038853645325 0.23017683625221252
0.45300567150115967 0.42251944541931152 0.24383638799190521
0.516562819480896 0.4358634352684021 0.26602455973625183
0.59817010164260864 0.45840531587600708 0.29752436280250549
0.69802629947662354 0.49158546328544617 0.34098875522613525
0.80264043807983398 0.52569502592086792 0.38763979077339172
0.88891226053237915 0.55422329902648926 0.42407926917076111
0.94914114475250244 0.58022499084472656 0.45383435487747192
0.35637763142585754 0.49557894468307495 0.25897234678268433
0.36815473437309265 0.49441534280776978 0.26012608408927917
0.38507401943206787 0.49756577610969543 0.26283702254295349
0.40382516384124756 0.49965313076972961 0.26596081256866455
0.42384594678878784 0.49897196888923645 0.26811254024505615
0.45094394683837891 0.49921727180480957 0.2710627019405365
0.49004751443862915 0.50531458854675293 0.27877640724182129
0.54360747337341309 0.51490175724029541 0.29191792011260986
0.61589938402175903 0.52842855453491211 0.31408983469009399
0.71082186698913574 0.55344319343566895 0.35280880331993103
0.81429100036621094 0.58334815502166748 0.39827725291252136
0.9009249210357666 0.60810917615890503 0.43225577473640442
0.96079963445663452 0.63159120082855225 0.46293753385543823
0.43234708905220032 0.60073530673980713 0.31418392062187195
0.44119146466255188 0.59889209270477295 0.31491759419441223
0.45589372515678406 0.60395026206970215 0.31942155957221985
0.47323140501976013 0.60735523700714111 0.32331913709640503
0.49020546674728394 0.60599797964096069 0.32473987340927124
0.51197880506515503 0.60488265752792358 0.32544532418251038
0.54422593116760254 0.60953366756439209 0.32955363392829895
0.58993279933929443 0.61559033393859863 0.33643263578414917
0.65153229236602783 0.6209293007850647 0.34907171130180359
0.7384185791015625 0.63809788227081299 0.38046720623970032
0.83841514587402344 0.66285222768783569 0.42025387287139893
0.9211394190788269 0.68524950742721558 0.4499782919883728
0.97448468208312988 0.70547401905059814 0.48219180107116699
0.51875865459442139 0.71814513206481934 0.37676000595092773
0.52590751647949219 0.717568039894104 0.37804791331291199
0.5377047061920166 0.72214740514755249 0.38257995247840881
0.55049991607666016 0.72446984052658081 0.38585862517356873
0.56430137157440186 0.72330862283706665 0.38651961088180542
0.58283638954162598 0.72302305698394775 0.38710042834281921
0.61234855651855469 0.72949224710464478 0.39157912135124207
0.65289509296417236 0.73443466424942017 0.39665332436561584
0.70658636093139648 0.73451179265975952 0.40287578105926514
0.78265571594238281 0.74412769079208374 0.42051288485527039
0.87104111909866333 0.76206791400909424 0.44389957189559937
0.94450265169143677 0.7809022068977356 0.46917775273323059
0.98656070232391357 0.79910963773727417 0.5184587836265564
0.5941702127456665 0.82079696655273438 0.43040698766708374
0.59930145740509033 0.8191719651222229 0.43116754293441772
0.60733962059020996 0.82146292924880981 0.43424132466316223
0.61712545156478882 0.82337164878845215 0.4367881715297699
0.62877267599105835 0.82363098859786987 0.43753722310066223
0.64642608165740967 0.82616513967514038 0.43936502933502197
0.67450201511383057 0.83401161432266235 0.44561818242073059
0.71275180578231812 0.83949202299118042 0.45130670070648193
0.76083379983901978 0.83835530281066895 0.45438781380653381
0.82605868577957153 0.84304481744766235 0.46099889278411865
0.90242612361907959 0.85538214445114136 0.47052249312400818
0.96482294797897339 0.8686710000038147 0.4959159791469574
0.99500107765197754 0.87974739074707031 0.567973792552948
0.64816099405288696 0.89742910861968994 0.47119855880737305
0.65231895446777344 0.89379256963729858 0.47084534168243408
0.65845853090286255 0.89483726024627686 0.47207710146903992
0.66699051856994629 0.89723807573318481 0.47391596436500549
0.67747992277145386 0.89831584692001343 0.47479280829429626
0.69444423913955688 0.90125024318695068 0.47810229659080505
0.72097909450531006 0.90839231014251709 0.48538756370544434
0.75693738460540771 0.91371601819992065 0.49308675527572632
0.80233418941497803 0.91437870264053345 0.49832966923713684
0.85914117097854614 0.91751611232757568 0.50538575649261475
0.92213767766952515 0.92567795515060425 0.52023899555206299
0.97151196002960205 0.93150675296783447 0.56019669771194458
0.99460506439208984 0.93486589193344116 0.64580965042114258
0.09258715808391571 0.074512436985969543 0.07493668794631958
0.12864351272583008 0.088452234864234924 0.089863479137420654
0.17526689171791077 0.10854094475507736 0.1074836403131485
0.22375664114952087 0.12434949725866318 0.12406710535287857
0.27155551314353943 0.13967502117156982 0.14060154557228088
0.32357913255691528 0.16087706387042999 0.16071037948131561
0.38715741038322449 0.18980561196804047 0.18897244334220886
0.46854686737060547 0.22959926724433899 0.22489982843399048
0.56753575801849365 0.27876433730125427 0.26844391226768494
0.67821776866912842 0.33185276389122009 0.31990107893943787
0.78558588027954102 0.38289761543273926 0.37083199620246887
0.87064200639724731 0.4243837296962738 0.41064384579658508
0.9336058497428894 0.45542630553245544 0.44193759560585022
0.10985535383224487 0.10365371406078339 0.087913572788238525
0.13690730929374695 0.11327032744884491 0.096411928534507751
0.1779831200838089 0.12987346947193146 0.11162405461072922
0.22424538433551788 0.14691172540187836 0.12880592048168182
0.27179494500160217 0.16374200582504272 0.14626960456371307
0.32277846336364746 0.18430940806865692 0.16650921106338501
0.38666272163391113 0.21097612380981445 0.19614574313163757
0.46842122077941895 0.24811407923698425 0.23143185675144196
0.56670373678207397 0.29426988959312439 0.27187326550483704
0.67500275373458862 0.3424089252948761 0.32231447100639343
0.78173208236694336 0.3916776180267334 0.37219661474227905
0.86781996488571167 0.43325743079185486 0.41176831722259521
0.93111717700958252 0.46415147185325623 0.44220468401908875
0.13442197442054749 0.14411820471286774 0.10358068346977234
0.15557755529880524 0.14574043452739716 0.10869267582893372
0.18633286654949188 0.15245625376701355 0.11869776248931885
0.22563114762306213 0.1684238612651825 0.13266545534133911
0.27195730805397034 0.18789052963256836 0.14970721304416656
0.32527580857276917 0.20950919389724731 0.17148607969284058
0.3905923068523407 0.23454031348228455 0.2014041543006897
0.47083079814910889 0.2676435112953186 0.23548164963722229
0.56657689809799194 0.30807021260261536 0.27525028586387634
0.67398577928543091 0.35357251763343811 0.32540696859359741
0.7827344536781311 0.40293943881988525 0.37529036402702332
0.87133336067199707 0.44487980008125305 0.41523158550262451
0.93540167808532715 0.47549498081207275 0.44548273086547852
0.15803083777427673 0.18340751528739929 0.12025930732488632
0.17685158550739288 0.18121194839477539 0.12302315235137939
0.20088209211826324 0.18349680304527283 0.1284947395324707
0.23197226226329803 0.19521813094615936 0.1372494250535965
0.27655333280563354 0.21301515400409698 0.15379790961742401
0.33229196071624756 0.23392932116985321 0.17738887667655945
0.39736130833625793 0.2576669454574585 0.20677526295185089
0.4743802547454834 0.28706026077270508 0.23928537964820862
0.5670897364616394 0.32368934154510498 0.27849993109703064
0.67581087350845337 0.36952680349349976 0.32742041349411011
0.78628122806549072 0.41848099231719971 0.37795990705490112
0.87665659189224243 0.4590086042881012 0.41841694712638855
0.9402727484703064 0.48807096481323242 0.44854569435119629
0.18109980225563049 0.22786922752857208 0.13808582723140717
0.20066919922828674 0.22193619608879089 0.14131467044353485
0.22287453711032867 0.22333703935146332 0.14480000734329224
0.24946382641792297 0.22985312342643738 0.14988422393798828
0.28828257322311401 0.24206992983818054 0.16226106882095337
0.34113585948944092 0.25994488596916199 0.18396018445491791
0.40415915846824646 0.28327912092208862 0.21138036251068115
0.47984328866004944 0.31230255961418152 0.24339665472507477
0.57196259498596191 0.34834036231040955 0.28272217512130737
