assets/lut/creative bleachbypass 01.cube
# Created by: G'MIC (https://gmic.eu)
TITLE "bleachbypass_1"
# LUT size
LUT_3D_SIZE 13
# Data domain
DOMAIN_MIN 0.0 0.0 0.0
DOMAIN_MAX 1.0 1.0 1.0
# LUT data points
0.055134642869234085 0.055478472262620926 0.054605491459369659
0.087757289409637451 0.067199766635894775 0.066234380006790161
0.13266550004482269 0.07846127450466156 0.078729607164859772
0.18717364966869354 0.094179846346378326 0.093816421926021576
0.25242260098457336 0.11351072788238525 0.11423565447330475
0.32949832081794739 0.1336819976568222 0.13502657413482666
0.4209379255771637 0.15410915017127991 0.15438714623451233
0.52206265926361084 0.1774696409702301 0.1767057329416275
0.63489145040512085 0.20343673229217529 0.20323330163955688
0.76258218288421631 0.23224052786827087 0.23234924674034119
0.89911353588104248 0.26185238361358643 0.26166999340057373
0.99068671464920044 0.29172560572624207 0.29205173254013062
1 0.32396304607391357 0.32582572102546692
0.066625870764255524 0.086446560919284821 0.066020816564559937
0.1062605157494545 0.10457639396190643 0.081265375018119812
0.15650881826877594 0.12360669672489166 0.095672100782394409
0.21723473072052002 0.14631721377372742 0.11290482431650162
0.28820532560348511 0.16888530552387238 0.13441282510757446
0.36844590306282043 0.19296655058860779 0.15464599430561066
0.46412765979766846 0.22025801241397858 0.17535561323165894
0.57316279411315918 0.2506251335144043 0.19915047287940979
0.6956552267074585 0.28310379385948181 0.22645321488380432
0.83176589012145996 0.3168184757232666 0.25660872459411621
0.9541175365447998 0.35086184740066528 0.28720295429229736
0.99968528747558594 0.38596174120903015 0.31973040103912354
1 0.42408663034439087 0.35539534687995911
0.077088087797164917 0.129628986120224 0.0776711106300354
0.12609671056270599 0.15299594402313232 0.095842041075229645
0.18189164996147156 0.18068529665470123 0.11341802775859833
0.24658453464508057 0.21005812287330627 0.13236692547798157
0.32355675101280212 0.23793070018291473 0.15428914129734039
0.41115149855613708 0.26737412810325623 0.17628812789916992
0.51350933313369751 0.29666042327880859 0.19895657896995544
0.62913155555725098 0.33249121904373169 0.22391663491725922
0.75697511434555054 0.37159401178359985 0.25258064270019531
0.89246273040771484 0.41069105267524719 0.28374463319778442
0.98843967914581299 0.44879162311553955 0.31550830602645874
1 0.48929110169410706 0.34921678900718689
1 0.53313308954238892 0.38648462295532227
0.089738883078098297 0.18765616416931152 0.091459192335605621
0.14699020981788635 0.21500198543071747 0.11203505843877792
0.20963984727859497 0.24699112772941589 0.13266941905021667
0.28081235289573669 0.27963641285896301 0.15385448932647705
0.36432111263275146 0.31268274784088135 0.17705132067203522
0.45888084173202515 0.34985315799713135 0.20073047280311584
0.56585419178009033 0.38413569331169128 0.22449320554733276
0.68531268835067749 0.42533010244369507 0.25024271011352539
0.81290125846862793 0.46979841589927673 0.28023675084114075
0.93362182378768921 0.51509696245193481 0.31295877695083618
0.9978141188621521 0.56028878688812256 0.34627297520637512
1 0.60599678754806519 0.38008642196655273
1 0.65479505062103271 0.41799312829971313
0.10607267171144485 0.25662884116172791 0.10809149593114853
0.16948497295379639 0.28769207000732422 0.12999060750007629
0.238570436835289 0.32352668046951294 0.15210497379302979
0.31794837117195129 0.3630845844745636 0.17552012205123901
0.4096105694770813 0.40634015202522278 0.20225940644741058
0.5085151195526123 0.44760730862617493 0.22772771120071411
0.61692458391189575 0.48811885714530945 0.25191876292228699
0.74004262685775757 0.53292930126190186 0.27813827991485596
0.86981320381164551 0.57941007614135742 0.30961668491363525
0.96324539184570312 0.63023662567138672 0.34397062659263611
0.99722528457641602 0.68367934226989746 0.37796330451965332
1 0.7368813157081604 0.41166961193084717
1 0.79190874099731445 0.45023560523986816
0.12527205049991608 0.33711326122283936 0.1277192085981369
0.19411559402942657 0.3726997971534729 0.15057079493999481
0.2679893970489502 0.41310477256774902 0.17291826009750366
0.35258638858795166 0.45879429578781128 0.19756112992763519
0.45145916938781738 0.51041078567504883 0.2271806001663208
0.55715101957321167 0.55880659818649292 0.25518134236335754
0.67102682590484619 0.60648298263549805 0.28134852647781372
0.80214953422546387 0.65477633476257324 0.30966413021087646
0.93350857496261597 0.70249336957931519 0.34204918146133423
0.9917217493057251 0.75923317670822144 0.37736284732818604
0.99917775392532349 0.82153481245040894 0.4121367335319519
0.99891602993011475 0.88394021987915039 0.44767433404922485
0.99998366832733154 0.93855386972427368 0.48712751269340515
0.14750528335571289 0.42931458353996277 0.14983673393726349
0.22139108180999756 0.47013410925865173 0.17378024756908417
0.30064493417739868 0.51618462800979614 0.19780679047107697
0.38960474729537964 0.56464844942092896 0.22340421378612518
0.49276310205459595 0.61890065670013428 0.25307634472846985
0.60614585876464844 0.67663156986236572 0.28208553791046143
0.73057949542999268 0.7358405590057373 0.31161984801292419
0.86691182851791382 0.78921198844909668 0.34272831678390503
0.98125028610229492 0.83615970611572266 0.37420797348022461
0.99996387958526611 0.8949170708656311 0.40994584560394287
0.99943989515304565 0.9562612771987915 0.44822946190834045
0.99638694524765015 0.98973757028579712 0.48677912354469299
0.99912750720977783 0.99945861101150513 0.52781260013580322
0.17186877131462097 0.53213763236999512 0.17362914979457855
0.25053372979164124 0.57919186353683472 0.19865161180496216
0.33496445417404175 0.6336904764175415 0.22447812557220459
0.42799434065818787 0.68751108646392822 0.25113129615783691
0.53358709812164307 0.73954498767852783 0.279642254114151
0.65470021963119507 0.80375480651855469 0.3093811571598053
0.78872591257095337 0.86994332075119019 0.34115079045295715
0.91875392198562622 0.91917085647583008 0.37350156903266907
0.99460315704345703 0.95375800132751465 0.40566083788871765
1 0.98659908771514893 0.44161245226860046
0.99954724311828613 0.99963903427124023 0.48080536723136902
0.99728715419769287 1 0.52181136608123779
0.9985772967338562 1 0.56649690866470337
0.19862484931945801 0.64421826601028442 0.19975215196609497
0.28101411461830139 0.69670462608337402 0.22506633400917053
0.37060803174972534 0.7613976001739502 0.25226086378097534
0.4688931405544281 0.82593894004821777 0.27997866272926331
0.5778048038482666 0.88211363554000854 0.30897325277328491
0.70500707626342773 0.93513500690460205 0.33986815810203552
0.83995521068572998 0.97616147994995117 0.37271720170974731
0.94920122623443604 0.99524414539337158 0.40599203109741211
0.99770385026931763 0.9994502067565918 0.4403262734413147
1 1 0.47754934430122375
0.99999690055847168 1 0.51712405681610107
0.99953830242156982 1 0.55899524688720703
0.99914759397506714 1 0.60708165168762207
0.2285795658826828 0.76463353633880615 0.22887223958969116
0.31463298201560974 0.81936085224151611 0.25441074371337891
0.40919595956802368 0.88045418262481689 0.28253966569900513
0.5133776068687439 0.93965595960617065 0.3118259608745575
0.62861073017120361 0.98246365785598755 0.34257400035858154
0.76232528686523438 0.9981423020362854 0.37448617815971375
0.89371001720428467 0.99997901916503906 0.40749931335449219
0.9778602123260498 1 0.4430287778377533
0.99969601631164551 1 0.48079073429107666
1 1 0.52003854513168335
1 1 0.55994105339050293
1 1 0.60329633951187134
0.99995452165603638 1 0.65453928709030151
0.26041236519813538 0.89385420083999634 0.25960877537727356
0.351358562707901 0.938071608543396 0.28641805052757263
0.45159554481506348 0.97045475244522095 0.31597396731376648
0.56147468090057373 0.99275112152099609 0.34710729122161865
0.68425142765045166 0.99972015619277954 0.37909963726997375
0.82342463731765747 1 0.41129788756370544
0.94453847408294678 1 0.44636228680610657
0.99620610475540161 1 0.48613163828849792
1 1 0.52850699424743652
1 1 0.56951099634170532
1 1 0.60851472616195679
1 1 0.65309351682662964
0.99971681833267212 1 0.70675277709960938
0.29328513145446777 0.99229001998901367 0.29078537225723267
0.39236289262771606 0.99898660182952881 0.31992578506469727
0.50063842535018921 0.99990803003311157 0.35123088955879211
0.61764514446258545 1 0.38353541493415833
0.74461948871612549 0.99996268749237061 0.4156610369682312
0.88093888759613037 0.99931633472442627 0.44860157370567322
0.98067867755889893 0.99966323375701904 0.48823028802871704
0.99993741512298584 1 0.53488993644714355
1 1 0.58209526538848877
1 1 0.62354117631912231
1 1 0.66129273176193237
1 1 0.70712673664093018
0.9996258020401001 1 0.75965362787246704
0.33300161361694336 1 0.32462930679321289
0.43910327553749084 1 0.35523667931556702
0.55496430397033691 1 0.38717806339263916
0.67972022294998169 1 0.4195934534072876
0.81056249141693115 1 0.45184504985809326
0.93492144346237183 0.99974316358566284 0.48699739575386047
0.9975208044052124 0.99931728839874268 0.53206551074981689
1 1 0.5849921703338623
1 1 0.63516813516616821
1 1 0.67760640382766724
1 1 0.71562165021896362
1 1 0.76001590490341187
1 1 0.8047950267791748
0.066505655646324158 0.067383512854576111 0.086745813488960266
0.10814733803272247 0.081776641309261322 0.10613010078668594
0.1570759117603302 0.095273964107036591 0.12500831484794617
0.21409283578395844 0.11251331120729446 0.14396181702613831
0.28541937470436096 0.13209347426891327 0.1689969003200531
0.36876878142356873 0.15500326454639435 0.19548909366130829
0.46520644426345825 0.17779245972633362 0.22100159525871277
0.57132136821746826 0.20145303010940552 0.24952113628387451
0.68963891267776489 0.2270621657371521 0.28165644407272339
0.82489681243896484 0.25658264756202698 0.31624498963356018
0.94532573223114014 0.28729516267776489 0.35206431150436401
0.99712425470352173 0.31780073046684265 0.38930380344390869
1 0.35140010714530945 0.42919424176216125
0.079928211867809296 0.10578139126300812 0.10598576813936234
0.12548072636127472 0.12483581900596619 0.12534652650356293
0.18254607915878296 0.14513882994651794 0.14663198590278625
0.24900323152542114 0.16855505108833313 0.16985708475112915
0.32506844401359558 0.19318792223930359 0.19486826658248901
0.40954956412315369 0.22091235220432281 0.22033223509788513
0.50957351922988892 0.24913491308689117 0.24587507545948029
0.62293112277984619 0.27861678600311279 0.27518075704574585
0.74687492847442627 0.31054037809371948 0.3079339861869812
0.88255774974822998 0.34553611278533936 0.34366342425346375
0.98268705606460571 0.38095605373382568 0.38072827458381653
0.99999982118606567 0.41568830609321594 0.41942304372787476
1 0.45478063821792603 0.46170938014984131
0.092083528637886047 0.1538853645324707 0.12597858905792236
0.14365391433238983 0.17898975312709808 0.14535987377166748
0.20843450725078583 0.20726321637630463 0.17053458094596863
0.28070691227912903 0.23694762587547302 0.19543233513832092
0.36073249578475952 0.26710516214370728 0.22098228335380554
0.45127353072166443 0.29969501495361328 0.24758525192737579
0.55821812152862549 0.32996129989624023 0.27528402209281921
0.68239790201187134 0.36481475830078125 0.30522951483726501
0.81660300493240356 0.40410161018371582 0.33880847692489624
0.94154453277587891 0.44590744376182556 0.37547320127487183
0.99784237146377563 0.48622176051139832 0.41352981328964233
1 0.52549451589584351 0.45332854986190796
1 0.56945937871932983 0.49696764349937439
0.10811378806829453 0.21500559151172638 0.14700871706008911
0.16802430152893066 0.2440839558839798 0.16955643892288208
0.23786379396915436 0.27701839804649353 0.19602152705192566
0.31396117806434631 0.3104366660118103 0.22134667634963989
0.39999067783355713 0.34793168306350708 0.24841167032718658
0.49701312184333801 0.38710972666740417 0.27745965123176575
0.60913115739822388 0.42159846425056458 0.3066801130771637
0.74017584323883057 0.46168413758277893 0.33698257803916931
0.87882477045059204 0.5050700306892395 0.37091782689094543
0.97742289304733276 0.55521565675735474 0.40977916121482849
0.99995064735412598 0.60440707206726074 0.44977793097496033
1 0.64964133501052856 0.48995357751846313
1 0.69878298044204712 0.53385704755783081
0.12681062519550323 0.28639766573905945 0.17104887962341309
0.19372119009494781 0.3196529746055603 0.19492541253566742
0.26650607585906982 0.35686394572257996 0.22025121748447418
0.34875494241714478 0.39698851108551025 0.24649150669574738
0.44464397430419922 0.44436651468276978 0.27803409099578857
0.54742062091827393 0.48689192533493042 0.30935531854629517
0.65969699621200562 0.52699488401412964 0.33859720826148987
0.79173320531845093 0.57140237092971802 0.36852070689201355
0.9280819296836853 0.61787205934524536 0.40516135096549988
0.99436527490615845 0.67513608932495117 0.44702324271202087
0.99999356269836426 0.73305243253707886 0.48722276091575623
1 0.786304771900177 0.52608919143676758
1 0.84282469749450684 0.56992346048355103
0.14836707711219788 0.37015077471733093 0.19705341756343842
0.22034949064254761 0.40912601351737976 0.22227382659912109
0.29643511772155762 0.45108440518379211 0.24645216763019562
0.38088312745094299 0.49395900964736938 0.27120295166969299
0.48558917641639709 0.54610967636108398 0.30582335591316223
0.59779459238052368 0.59506374597549438 0.34029993414878845
0.71691519021987915 0.64482790231704712 0.37198364734649658
0.85125720500946045 0.69698512554168701 0.40434163808822632
0.97235888242721558 0.74828809499740601 0.44351759552955627
0.99984776973724365 0.81062287092208862 0.48582524061203003
1 0.87353825569152832 0.52646994590759277
0.99896252155303955 0.92673003673553467 0.5665733814239502
1 0.97122776508331299 0.61080962419509888
0.1722012460231781 0.46771273016929626 0.22451287508010864
0.24987669289112091 0.51218670606613159 0.25188806653022766
0.33231088519096375 0.56003087759017944 0.27857047319412231
0.42209520936012268 0.60527616739273071 0.30440753698348999
0.52870684862136841 0.65694648027420044 0.33670511841773987
0.64722275733947754 0.71259903907775879 0.37062796950340271
0.77937132120132446 0.77474838495254517 0.4070582389831543
0.91755414009094238 0.83378499746322632 0.44472405314445496
0.99652671813964844 0.88319331407546997 0.48178958892822266
1 0.93755578994750977 0.52302849292755127
1 0.98414486646652222 0.56771373748779297
0.9983178973197937 0.99843043088912964 0.61303806304931641
0.99986821413040161 1 0.65979510545730591
0.19751021265983582 0.57652044296264648 0.2522892951965332
0.2798561155796051 0.62626045942306519 0.28107663989067078
0.36863589286804199 0.68301689624786377 0.31081226468086243
0.46499311923980713 0.73816508054733276 0.33957847952842712
0.57307904958724976 0.7926139235496521 0.36987987160682678
0.69724088907241821 0.84988945722579956 0.40387076139450073
0.8368493914604187 0.90720659494400024 0.44265317916870117
0.96136200428009033 0.95194607973098755 0.48115929961204529
0.99993598461151123 0.97926580905914307 0.51823264360427856
1 0.9966701865196228 0.56141191720962524
1 1 0.60793745517730713
0.99995517730712891 0.99999821186065674 0.65622949600219727
0.99999642372131348 0.99994444847106934 0.7048991322517395
0.22432142496109009 0.69523954391479492 0.2810935378074646
0.31035080552101135 0.74818497896194458 0.31083542108535767
0.40517482161521912 0.81602257490158081 0.34286844730377197
0.50765234231948853 0.88274556398391724 0.37460267543792725
0.61995083093643188 0.93610119819641113 0.40570899844169617
0.75188350677490234 0.97364181280136108 0.44105097651481628
0.88916367292404175 0.99238145351409912 0.47954514622688293
0.98316246271133423 0.99927866458892822 0.5182611346244812
1 0.99999904632568359 0.55997383594512939
1 1 0.60667753219604492
1 1 0.65444409847259521
1 0.99996036291122437 0.70077544450759888
1 0.99957108497619629 0.748931884765625
0.25350886583328247 0.82192301750183105 0.31284856796264648
0.34309098124504089 0.87068808078765869 0.34374085068702698
0.44295072555541992 0.93014687299728394 0.37792712450027466
0.55298519134521484 0.98075348138809204 0.41219273209571838
0.67346155643463135 0.9983404278755188 0.44642752408981323
0.81532043218612671 0.9999881386756897 0.48238363862037659
0.94565778970718384 1 0.52047222852706909
0.99758142232894897 1 0.56185311079025269
1 1 0.6089167594909668
1 1 0.65871715545654297
1 1 0.70594042539596558
1 1 0.75114047527313232
1 1 0.80206763744354248
0.28538256883621216 0.94695144891738892 0.34770253300666809
0.37961557507514954 0.97463548183441162 0.3809913694858551
0.48421633243560791 0.993702232837677 0.41720095276832581
0.59972238540649414 0.99985456466674805 0.45410361886024475
0.72933179140090942 0.99997717142105103 0.49028021097183228
0.87600845098495483 0.99822467565536499 0.52615433931350708
0.98548924922943115 0.99822998046875 0.5658869743347168
0.99999791383743286 0.99997997283935547 0.61310642957687378
1 1 0.66528874635696411
1 1 0.71570903062820435
1 1 0.75905996561050415
1 1 0.80396318435668945
1 1 0.85902315378189087
0.32013776898384094 0.99983274936676025 0.38643583655357361
0.42096197605133057 1 0.42135927081108093
0.53271377086639404 1 0.45855826139450073
0.65638238191604614 1 0.49662786722183228
0.79060840606689453 0.99940413236618042 0.53311789035797119
0.92640894651412964 0.99318081140518188 0.56924349069595337
0.99733728170394897 0.99412840604782104 0.61500847339630127
1 0.99935293197631836 0.67084264755249023
1 1 0.72675752639770508
1 1 0.77339255809783936
1 1 0.81203246116638184
1 1 0.86037057638168335
1 1 0.91358357667922974
0.36013334989547729 1 0.42814585566520691
0.46826505661010742 1 0.4631006121635437
0.58782327175140381 1 0.49899819493293762
0.71875816583633423 1 0.53650063276290894
0.85606580972671509 0.99996554851531982 0.57273155450820923
0.97218745946884155 0.99852776527404785 0.61155039072036743
0.9999815821647644 0.99695116281509399 0.66528940200805664
1 0.99924814701080322 0.72708827257156372
1 1 0.78315478563308716
1 1 0.827464759349823
1 1 0.86314618587493896
1 1 0.9111589789390564
1 1 0.95505261421203613
0.079475447535514832 0.080524057149887085 0.13404706120491028
0.12634225189685822 0.096043996512889862 0.1559450626373291
0.18018031120300293 0.11277338862419128 0.17932498455047607
0.24349024891853333 0.13133692741394043 0.20484729111194611
0.31921327114105225 0.15267674624919891 0.23357291519641876
0.40785309672355652 0.17643663287162781 0.26448523998260498
0.51077616214752197 0.20090465247631073 0.29636943340301514
0.62584710121154785 0.22611540555953979 0.33124881982803345
0.75180435180664062 0.25312104821205139 0.36838018894195557
0.88689231872558594 0.28377264738082886 0.40800014138221741
0.98247635364532471 0.31585019826889038 0.44963982701301575
0.99973666667938232 0.34675782918930054 0.49328047037124634
1 0.3819521963596344 0.54009431600570679
0.095860257744789124 0.12555359303951263 0.15810681879520416
0.14672981202602386 0.14485070109367371 0.17993968725204468
0.20945563912391663 0.16786597669124603 0.20825108885765076
0.27975767850875854 0.19340498745441437 0.23626647889614105
0.35775929689407349 0.21967989206314087 0.26369670033454895
0.44849893450737 0.2480207234621048 0.29370579123497009
0.55527967214584351 0.27745071053504944 0.32567092776298523
0.67761099338531494 0.3082318902015686 0.3610212504863739
0.80709993839263916 0.34140899777412415 0.39930698275566101
0.9347420334815979 0.37790447473526001 0.44025823473930359
0.99848037958145142 0.41459658741950989 0.48303401470184326
0.99998706579208374 0.44957819581031799 0.52744168043136597
0.99971610307693481 0.48970586061477661 0.57615488767623901
0.1098509281873703 0.18050998449325562 0.18236640095710754
0.16547293961048126 0.20648646354675293 0.20424582064151764
0.23672083020210266 0.23569807410240173 0.23614044487476349
0.31236213445663452 0.26680490374565125 0.26625007390975952
0.39495852589607239 0.2959534227848053 0.29494580626487732
0.49004492163658142 0.3295404314994812 0.32661542296409607
0.60388863086700439 0.36371868848800659 0.36087131500244141
0.73841995000839233 0.4007667601108551 0.39697080850601196
0.87678629159927368 0.44093769788742065 0.43530511856079102
0.97986865043640137 0.48390945792198181 0.47788628935813904
0.99999040365219116 0.52517551183700562 0.52161014080047607
0.99999451637268066 0.56506145000457764 0.56692802906036377
0.99967026710510254 0.60971200466156006 0.61672121286392212
0.12771183252334595 0.24655754864215851 0.20910660922527313
0.19155767560005188 0.2769533097743988 0.23376350104808807
0.2671540379524231 0.30916887521743774 0.26640015840530396
0.34600618481636047 0.34244111180305481 0.29614275693893433
0.43438994884490967 0.37985566258430481 0.32641315460205078
0.53550618886947632 0.422740638256073 0.36176967620849609
0.65342777967453003 0.46292522549629211 0.39859837293624878
0.79556846618652344 0.50580203533172607 0.43618795275688171
0.93189245462417603 0.54995590448379517 0.47516831755638123
0.99726510047912598 0.60016673803329468 0.51929104328155518
1 0.64827650785446167 0.56498938798904419
1 0.69409984350204468 0.61168712377548218
1 0.74316865205764771 0.66178435087203979
0.14909952878952026 0.32174456119537354 0.23920004069805145
0.2191554456949234 0.35743734240531921 0.26554951071739197
0.29710546135902405 0.39592441916465759 0.29524621367454529
0.38159394264221191 0.43351984024047852 0.32584893703460693
0.47875136137008667 0.47929370403289795 0.36024388670921326
0.58736330270767212 0.52644622325897217 0.39849177002906799
0.70663195848464966 0.5720093846321106 0.43658941984176636
0.84602749347686768 0.62153846025466919 0.47485807538032532
0.96358966827392578 0.668659508228302 0.51550954580307007
0.9995611310005188 0.72550064325332642 0.56307238340377808
1 0.78149926662445068 0.60984385013580322
1 0.83524078130722046 0.65416097640991211
1 0.88897812366485596 0.7027289867401123
0.17261755466461182 0.40944385528564453 0.27167710661888123
0.24825488030910492 0.45129719376564026 0.30001607537269592
0.32950475811958313 0.49671089649200439 0.32859081029891968
0.41786158084869385 0.53691762685775757 0.35755851864814758
0.52394217252731323 0.58497846126556396 0.39463022351264954
0.6422843337059021 0.63679295778274536 0.43437424302101135
0.77052581310272217 0.69121545553207397 0.47378140687942505
0.9067111611366272 0.74934560060501099 0.5146639347076416
0.98969089984893799 0.80470579862594604 0.55707365274429321
1 0.86262452602386475 0.60527819395065308
0.99999219179153442 0.92264866828918457 0.654013991355896
0.9990692138671875 0.96172547340393066 0.70100051164627075
1 0.98948824405670166 0.75054669380187988
0.1980738490819931 0.5122067928314209 0.30475717782974243
0.27950942516326904 0.55956000089645386 0.33619251847267151
0.36742156744003296 0.61041045188903809 0.36749574542045593
0.46128711104393005 0.65322756767272949 0.39666524529457092
0.57125484943389893 0.70485514402389526 0.43248313665390015
0.6955379843711853 0.76549142599105835 0.47105783224105835
0.83734190464019775 0.83056056499481201 0.51401400566101074
0.96572655439376831 0.88791531324386597 0.55861365795135498
0.99988478422164917 0.93571454286575317 0.59950095415115356
1 0.97477686405181885 0.64651244878768921
0.99999767541885376 0.99762660264968872 0.6974174976348877
0.9989587664604187 0.9999462366104126 0.75285404920578003
1 1 0.80752080678939819
0.22423134744167328 0.62684160470962524 0.33670550584793091
0.31037589907646179 0.6791873574256897 0.36964306235313416
0.40439566969871521 0.73592746257781982 0.4042193591594696
0.5053095817565918 0.7897179126739502 0.43804875016212463
0.61761897802352905 0.84784114360809326 0.47352424263954163
0.74671608209609985 0.90891307592391968 0.51394593715667725
0.88910114765167236 0.95878595113754272 0.55905264616012573
0.98812544345855713 0.98502212762832642 0.60059493780136108
1 0.99595803022384644 0.64287310838699341
1 0.99980831146240234 0.693836510181427
1 1 0.74741047620773315
1 0.99981510639190674 0.80664551258087158
1 0.99938756227493286 0.85814833641052246
0.25159966945648193 0.75027322769165039 0.36913332343101501
0.3416818380355835 0.80665665864944458 0.40298658609390259
0.44148480892181396 0.87402200698852539 0.44144651293754578
0.54846072196960449 0.93291974067687988 0.47874993085861206
