assets/lut/creative tealmagentagold.cube
# Created by: G'MIC (https://gmic.eu)
TITLE "tealmagentagold"
# LUT size
LUT_3D_SIZE 5
# Data domain
DOMAIN_MIN 0.0 0.0 0.0
DOMAIN_MAX 1.0 1.0 1.0
# LUT data points
0.025429071858525276 0.081065744161605835 0.059833258390426636
0.32921233773231506 0.11879890412092209 0.095242522656917572
0.60291010141372681 0.11999688297510147 0.091383211314678192
0.85437518358230591 0.063038572669029236 0.099023334681987762
1 0.018178123980760574 0.081213980913162231
0.15598213672637939 0.34080713987350464 0.10646574944257736
0.37818562984466553 0.32892683148384094 0.10352028906345367
0.6199493408203125 0.30744260549545288 0.10288398712873459
0.86023157835006714 0.27539119124412537 0.10058924555778503
1 0.25018355250358582 0.081244461238384247
0.28111380338668823 0.55319970846176147 0.10892137885093689
0.42692303657531738 0.54253625869750977 0.11214855313301086
0.65316116809844971 0.5201534628868103 0.10906526446342468
0.8682091236114502 0.49728173017501831 0.08750578761100769
0.99982839822769165 0.48647072911262512 0.060656409710645676
0.30157434940338135 0.76090759038925171 0.048429228365421295
0.41830563545227051 0.75573289394378662 0.047133456915616989
0.61146742105484009 0.74797230958938599 0.037790514528751373
0.84144604206085205 0.73612290620803833 0.041488334536552429
0.99853354692459106 0.73218786716461182 0.010222640819847584
0.22100192308425903 0.97593390941619873 0
0.34905970096588135 0.97830969095230103 0
0.54404288530349731 0.97528928518295288 0
0.77494651079177856 0.96953141689300537 0
0.97247999906539917 0.96181297302246094 0
0.036373872309923172 0.10249920934438705 0.31997719407081604
0.33829963207244873 0.12296537309885025 0.33391466736793518
0.60838824510574341 0.11592414975166321 0.33209139108657837
0.85134291648864746 0.067650571465492249 0.32577085494995117
1 0.022927826270461082 0.30606275796890259
0.16443464159965515 0.33564093708992004 0.33330118656158447
0.38356715440750122 0.32741597294807434 0.33353111147880554
0.61999046802520752 0.30547496676445007 0.32858434319496155
0.8533366322517395 0.27823692560195923 0.31852132081985474
1 0.25290191173553467 0.29658582806587219
0.29960304498672485 0.54753249883651733 0.31673291325569153
0.42763113975524902 0.54291850328445435 0.31745702028274536
0.65483784675598145 0.51632595062255859 0.31664973497390747
0.87522858381271362 0.49670758843421936 0.30210605263710022
1 0.48991629481315613 0.27910599112510681
0.31330391764640808 0.75905722379684448 0.27015519142150879
0.41935029625892639 0.75777822732925415 0.27885422110557556
0.61423051357269287 0.7456555962562561 0.26870623230934143
0.84211647510528564 0.73375529050827026 0.26659905910491943
1 0.73041719198226929 0.24641743302345276
0.20195698738098145 0.9769287109375 0.20312502980232239
0.33717602491378784 0.97931063175201416 0.19667309522628784
0.53692662715911865 0.97527021169662476 0.19759035110473633
0.76172208786010742 0.97224092483520508 0.21197143197059631
0.97271907329559326 0.96618926525115967 0.19596098363399506
0.13599187135696411 0.11723817139863968 0.58513432741165161
0.34580740332603455 0.12615865468978882 0.58799940347671509
0.61142367124557495 0.11622312664985657 0.57905840873718262
0.84780895709991455 0.056815758347511292 0.56356346607208252
1 0.020624138414859772 0.5432732105255127
0.23485392332077026 0.3237774670124054 0.57651036977767944
0.39106780290603638 0.31654050946235657 0.57584583759307861
0.62235617637634277 0.30102264881134033 0.56825453042984009
0.8472791314125061 0.27156493067741394 0.55303829908370972
1 0.25226080417633057 0.53387910127639771
0.32463100552558899 0.53977084159851074 0.55445241928100586
0.45288723707199097 0.53004014492034912 0.55031400918960571
0.66634255647659302 0.50604474544525146 0.54340696334838867
0.86729007959365845 0.49605846405029297 0.52294719219207764
0.99970471858978271 0.4946918785572052 0.51076418161392212
0.32626768946647644 0.75566107034683228 0.50691014528274536
0.44262653589248657 0.75370806455612183 0.50330382585525513
0.6349560022354126 0.74409776926040649 0.49636220932006836
0.8413543701171875 0.73640745878219604 0.49488168954849243
1 0.72946500778198242 0.47710967063903809
0.22114261984825134 0.97595357894897461 0.46362629532814026
0.35375136137008667 0.97561532258987427 0.4572717547416687
0.55454343557357788 0.97204315662384033 0.45090919733047485
0.77119690179824829 0.97064352035522461 0.45494040846824646
0.98148542642593384 0.96262800693511963 0.44786331057548523
0.20542320609092712 0.12116766721010208 0.83716350793838501
0.38167378306388855 0.12096409499645233 0.84020125865936279
0.61513024568557739 0.099543914198875427 0.81897246837615967
0.85089480876922607 0.051472920924425125 0.79705214500427246
1 0.022963758558034897 0.77699202299118042
0.28907477855682373 0.31476786732673645 0.821266770362854
0.42079341411590576 0.3075810968875885 0.82199513912200928
0.62744557857513428 0.29174116253852844 0.80230098962783813
0.85305690765380859 0.26794058084487915 0.78324908018112183
1 0.25408238172531128 0.7673640251159668
0.38814231753349304 0.5277828574180603 0.79087382555007935
0.49232399463653564 0.51945441961288452 0.78956180810928345
0.67077529430389404 0.50561392307281494 0.77911674976348877
0.87054812908172607 0.4946315586566925 0.76241594552993774
1 0.49296414852142334 0.74428856372833252
0.37760823965072632 0.75003302097320557 0.73993849754333496
0.46771523356437683 0.74875342845916748 0.73610860109329224
0.64898329973220825 0.73891043663024902 0.72912192344665527
0.85151404142379761 0.73169529438018799 0.7170788049697876
0.99984419345855713 0.73356777429580688 0.6996161937713623
0.29053032398223877 0.97438168525695801 0.6802971363067627
0.39593890309333801 0.97114753723144531 0.67551642656326294
0.57183593511581421 0.97117733955383301 0.67459762096405029
0.78121739625930786 0.96894437074661255 0.66857922077178955
0.98652225732803345 0.9570152759552002 0.65704482793807983
0.24670714139938354 0.091108612716197968 1
0.41531825065612793 0.10027711093425751 1
0.61781400442123413 0.082661166787147522 0.99984580278396606
0.82548397779464722 0.052482094615697861 0.99581634998321533
0.99424105882644653 0.030969478189945221 0.98779797554016113
0.32383531332015991 0.29504239559173584 0.99986857175827026
0.44588226079940796 0.29976484179496765 0.99963200092315674
0.63125550746917725 0.28258255124092102 0.98966580629348755
0.84531229734420776 0.26802092790603638 0.99046581983566284
1 0.25775912404060364 0.98598450422286987
0.44327443838119507 0.50720202922821045 0.99331367015838623
0.51920968294143677 0.50496172904968262 0.99405348300933838
0.67820388078689575 0.5007205605506897 0.98694497346878052
0.86989063024520874 0.49411764740943909 0.98714917898178101
1 0.4902941882610321 0.9773184061050415
0.42622783780097961 0.74123549461364746 0.97018414735794067
0.49727520346641541 0.74222445487976074 0.97339683771133423
0.66207164525985718 0.735584557056427 0.96709251403808594
0.85703784227371216 0.73009055852890015 0.95511776208877563
0.99996554851531982 0.72901809215545654 0.93270683288574219
0.33663347363471985 0.96686232089996338 0.90725111961364746
0.43193268775939941 0.97207611799240112 0.90838432312011719
0.58926665782928467 0.97326803207397461 0.90779751539230347
0.79199397563934326 0.96552133560180664 0.89260268211364746
0.98856145143508911 0.95395737886428833 0.87193310260772705
