assets/lut/creative bleachbypass 01.cube
# Created by: G'MIC (https://gmic.eu)
TITLE "bleachbypass_1"
# LUT size
LUT_3D_SIZE 5
# Data domain
DOMAIN_MIN 0.0 0.0 0.0
DOMAIN_MAX 1.0 1.0 1.0
# LUT data points
0.055134642869234085 0.055478472262620926 0.054605491459369659
0.18717364966869354 0.094179846346378326 0.093816421926021576
0.4209379255771637 0.15410915017127991 0.15438714623451233
0.76258218288421631 0.23224052786827087 0.23234924674034119
1 0.32396304607391357 0.32582572102546692
0.089738883078098297 0.18765616416931152 0.091459192335605621
0.28081235289573669 0.27963641285896301 0.15385448932647705
0.56585419178009033 0.38413569331169128 0.22449320554733276
0.93362182378768921 0.51509696245193481 0.31295877695083618
1 0.65479505062103271 0.41799312829971313
0.14750528335571289 0.42931458353996277 0.14983673393726349
0.38960474729537964 0.56464844942092896 0.22340421378612518
0.73057949542999268 0.7358405590057373 0.31161984801292419
0.99996387958526611 0.8949170708656311 0.40994584560394287
0.99912750720977783 0.99945861101150513 0.52781260013580322
0.2285795658826828 0.76463353633880615 0.22887223958969116
0.5133776068687439 0.93965595960617065 0.3118259608745575
0.89371001720428467 0.99997901916503906 0.40749931335449219
1 1 0.52003854513168335
0.99995452165603638 1 0.65453928709030151
0.33300161361694336 1 0.32462930679321289
0.67972022294998169 1 0.4195934534072876
0.9975208044052124 0.99931728839874268 0.53206551074981689
1 1 0.67760640382766724
1 1 0.8047950267791748
0.092512138187885284 0.096648365259170532 0.19028045237064362
0.27482801675796509 0.15140043199062347 0.27737617492675781
0.55596864223480225 0.22481933236122131 0.38393339514732361
0.92490267753601074 0.31343850493431091 0.51233381032943726
1 0.41580972075462341 0.66204750537872314
0.15099059045314789 0.28082114458084106 0.28223428130149841
0.37798669934272766 0.37976750731468201 0.38103166222572327
0.70230686664581299 0.49840757250785828 0.50075757503509521
0.999764084815979 0.64498758316040039 0.64361906051635742
1 0.79486662149429321 0.80236524343490601
0.22502061724662781 0.56300723552703857 0.393503338098526
0.50310438871383667 0.7113264799118042 0.5009499192237854
0.88778179883956909 0.89010399580001831 0.6283453106880188
0.99864906072616577 0.99518865346908569 0.78648215532302856
1 0.99997627735137939 0.94679057598114014
0.30998620390892029 0.92496985197067261 0.51047217845916748
0.63492512702941895 0.99997532367706299 0.64061397314071655
0.99463772773742676 0.99999219179153442 0.78799057006835938
1 1 0.94632554054260254
1 1 0.99976146221160889
0.41737419366836548 1 0.66597825288772583
0.79789578914642334 1 0.7954641580581665
1 0.9996827244758606 0.93716228008270264
0.99465221166610718 1 0.99996095895767212
1 1 1
0.14743304252624512 0.1503027081489563 0.41949325799942017
0.38431227207183838 0.22385555505752563 0.56750452518463135
0.73077338933944702 0.31442725658416748 0.74191999435424805
0.99950879812240601 0.40821927785873413 0.90112721920013428
0.99725896120071411 0.52642405033111572 0.99118953943252563
0.22432267665863037 0.38543057441711426 0.55943387746810913
0.49668681621551514 0.49667498469352722 0.70645618438720703
0.87927192449569702 0.63727045059204102 0.88157826662063599
1 0.79072862863540649 0.98977601528167725
0.9999314546585083 0.94142657518386841 1
0.31123539805412292 0.72444170713424683 0.72572100162506104
0.63222968578338623 0.89382898807525635 0.89034456014633179
0.9953799843788147 0.99439966678619385 0.99388188123703003
0.9997628927230835 1 1
1 1 1
0.41385030746459961 0.99793940782546997 0.91136366128921509
0.78565269708633423 1 0.99746829271316528
1 1 0.99993538856506348
0.99996852874755859 1 1
1 1 0.99998277425765991
0.53384780883789062 1 0.99784594774246216
0.94631308317184448 1 0.99964863061904907
1 1 1
1 1 1
1 1 0.99713492393493652
0.23360846936702728 0.23314537107944489 0.7749248743057251
0.51301103830337524 0.30942907929420471 0.9182201623916626
0.88876360654830933 0.40759453177452087 0.99994277954101562
1 0.5225711464881897 1
0.99623191356658936 0.65792196989059448 0.99463719129562378
0.31234535574913025 0.51176977157592773 0.94916671514511108
0.64154058694839478 0.63973045349121094 0.99731409549713135
0.99190795421600342 0.7933967113494873 0.99991929531097412
1 0.94514429569244385 1
1 0.99996274709701538 1
0.40903902053833008 0.90481722354888916 0.99998944997787476
0.79208576679229736 0.99649214744567871 0.99677640199661255
0.99993354082107544 0.99988800287246704 0.99977284669876099
1 1 1
1 1 1
0.52044439315795898 1 1
0.94645982980728149 1 1
0.99996852874755859 1 1
1 0.99609297513961792 0.99615234136581421
1 1 0.99952590465545654
0.66155028343200684 1 1
0.99995607137680054 1 0.99971181154251099
0.99779337644577026 1 1
1 1 1
1 1 1
0.33580711483955383 0.32227131724357605 0.99748909473419189
0.66497993469238281 0.41990205645561218 1
0.99554133415222168 0.53235167264938354 1
0.99998652935028076 0.66015791893005371 0.99744457006454468
1 0.80623084306716919 1
0.41699352860450745 0.65731716156005859 1
0.80495727062225342 0.80104702711105347 1
0.99978089332580566 0.94611024856567383 1
1 0.99995607137680054 1
1 0.99963092803955078 1
0.52762699127197266 0.99708729982376099 0.99866044521331787
0.94248390197753906 1 1
1 1 1
1 1 1
1 1 1
0.68099582195281982 1 1
0.99980515241622925 0.9991835355758667 1
1 1 1
1 1 1
1 1 1
0.83178073167800903 1 1
1 1 1
0.99966621398925781 1 1
1 1 1
1 1 1
