assets/lut/creative futuristicbleak 03.cube
# Created by: G'MIC (https://gmic.eu)
TITLE "futuristicbleak_3"
# LUT size
LUT_3D_SIZE 13
# Data domain
DOMAIN_MIN 0.0 0.0 0.0
DOMAIN_MAX 1.0 1.0 1.0
# LUT data points
0.11615325510501862 0.14404566586017609 0.15690450370311737
0.13260509073734283 0.15338505804538727 0.16425539553165436
0.16905507445335388 0.16810217499732971 0.17439621686935425
0.21653439104557037 0.18447455763816833 0.18135783076286316
0.25838211178779602 0.19528461992740631 0.18729102611541748
0.30308413505554199 0.20946577191352844 0.1961943507194519
0.34505489468574524 0.22376653552055359 0.20343564450740814
0.38896197080612183 0.242950439453125 0.21607279777526855
0.43055179715156555 0.2610701322555542 0.22744408249855042
0.47453644871711731 0.27720174193382263 0.23673781752586365
0.523517906665802 0.29579976201057434 0.25234103202819824
0.57402867078781128 0.31448072195053101 0.26628011465072632
0.62395757436752319 0.33216086030006409 0.27925014495849609
0.1379692554473877 0.18404999375343323 0.18033657968044281
0.15265719592571259 0.1883397102355957 0.17783769965171814
0.18921773135662079 0.19804157316684723 0.17782129347324371
0.23295550048351288 0.20863702893257141 0.18104422092437744
0.27440354228019714 0.21774893999099731 0.18442283570766449
0.31454694271087646 0.22946256399154663 0.18880721926689148
0.35671332478523254 0.24489641189575195 0.19848573207855225
0.39769867062568665 0.26161852478981018 0.2119782418012619
0.44061172008514404 0.28043806552886963 0.22777657210826874
0.48283648490905762 0.29887938499450684 0.23708780109882355
0.52873390913009644 0.31457287073135376 0.25306233763694763
0.57958143949508667 0.33014670014381409 0.26469868421554565
0.62973642349243164 0.34684780240058899 0.27955621480941772
0.1633913516998291 0.22583717107772827 0.20932433009147644
0.17638112604618073 0.2300335168838501 0.2019362598657608
0.20174938440322876 0.24097733199596405 0.20113816857337952
0.23799115419387817 0.25156143307685852 0.20491392910480499
0.27672511339187622 0.26030269265174866 0.20507046580314636
0.32149147987365723 0.26543986797332764 0.20068486034870148
0.36766588687896729 0.27715784311294556 0.20486879348754883
0.4138847291469574 0.2913564145565033 0.21135196089744568
0.45758858323097229 0.30585667490959167 0.22372196614742279
0.50072759389877319 0.32385852932929993 0.23537175357341766
0.54670697450637817 0.33913427591323853 0.24829657375812531
0.59811925888061523 0.3565007746219635 0.26521974802017212
0.64477348327636719 0.37255403399467468 0.28203886747360229
0.20100660622119904 0.27720743417739868 0.23904009163379669
0.21046498417854309 0.28120452165603638 0.23548726737499237
0.23030571639537811 0.288950115442276 0.23044028878211975
0.25888341665267944 0.30000385642051697 0.23416535556316376
0.28514614701271057 0.3101692795753479 0.23709844052791595
0.31704658269882202 0.31935176253318787 0.23782850801944733
0.36127996444702148 0.32712692022323608 0.2373969554901123
0.41846224665641785 0.33542773127555847 0.23641982674598694
0.47281420230865479 0.34310698509216309 0.23603507876396179
0.52297002077102661 0.35417014360427856 0.24353379011154175
0.57256627082824707 0.36434432864189148 0.25078275799751282
0.62126988172531128 0.38166952133178711 0.26355817914009094
0.66570651531219482 0.39735311269760132 0.27807947993278503
0.24109315872192383 0.32795089483261108 0.26564422249794006
0.2539132833480835 0.33197364211082458 0.26128140091896057
0.26719862222671509 0.33614826202392578 0.25658604502677917
0.28854820132255554 0.34677347540855408 0.26066303253173828
0.3088633120059967 0.35563203692436218 0.2649020254611969
0.33453860878944397 0.36518022418022156 0.27034565806388855
0.36597159504890442 0.37465086579322815 0.27515241503715515
0.40981703996658325 0.38316702842712402 0.27563995122909546
0.46724247932434082 0.39026543498039246 0.26766151189804077
0.52678537368774414 0.39804762601852417 0.2660040557384491
0.58906525373458862 0.40054017305374146 0.26427006721496582
0.64656412601470947 0.40729531645774841 0.26851770281791687
0.69653314352035522 0.41928145289421082 0.27935636043548584
0.28976327180862427 0.37933361530303955 0.29769802093505859
0.29961055517196655 0.3826480507850647 0.29245093464851379
0.30626153945922852 0.38391903042793274 0.28414347767829895
0.3222382664680481 0.39115789532661438 0.28496259450912476
0.34459885954856873 0.4006805419921875 0.29139611124992371
0.36684378981590271 0.40917807817459106 0.29683670401573181
0.39130094647407532 0.41863164305686951 0.30414238572120667
0.4248410165309906 0.42854461073875427 0.30629923939704895
0.46828153729438782 0.43846967816352844 0.30333316326141357
0.52431046962738037 0.44771981239318848 0.29762753844261169
0.58855932950973511 0.45293399691581726 0.29178935289382935
0.65499353408813477 0.45420706272125244 0.28939840197563171
0.71009570360183716 0.45876142382621765 0.29280418157577515
0.34108701348304749 0.42966964840888977 0.33142012357711792
0.34460675716400146 0.42934116721153259 0.32520434260368347
0.34824636578559875 0.4292028546333313 0.31778934597969055
0.36443018913269043 0.43739479780197144 0.31600034236907959
0.38239842653274536 0.44453859329223633 0.3165554404258728
0.4004075825214386 0.45046788454055786 0.31876066327095032
0.42438718676567078 0.46136641502380371 0.32819673418998718
0.45934215188026428 0.47335994243621826 0.33465856313705444
0.49685603380203247 0.48338150978088379 0.33683210611343384
0.53624528646469116 0.4927428662776947 0.33567425608634949
0.58955985307693481 0.50241726636886597 0.33128982782363892
0.65345507860183716 0.50740617513656616 0.32274863123893738
0.7160952091217041 0.50929874181747437 0.31858733296394348
0.3937201201915741 0.48027780652046204 0.36538910865783691
0.39585906267166138 0.47895163297653198 0.35935810208320618
0.39739444851875305 0.47751477360725403 0.35311409831047058
0.41232144832611084 0.48737552762031555 0.34937480092048645
0.42926561832427979 0.49428334832191467 0.34859675168991089
0.44746914505958557 0.49988904595375061 0.35211822390556335
0.46886637806892395 0.50843542814254761 0.35838675498962402
0.50188738107681274 0.51885485649108887 0.3665938675403595
0.53365081548690796 0.52809703350067139 0.3724939227104187
0.56563460826873779 0.53745144605636597 0.37620919942855835
0.60523730516433716 0.55022197961807251 0.37529027462005615
0.65783959627151489 0.55823367834091187 0.36802995204925537
0.71298342943191528 0.56096565723419189 0.36063316464424133
0.4551699161529541 0.533549964427948 0.40208813548088074
0.45732557773590088 0.53308790922164917 0.39939695596694946
0.46008679270744324 0.53422194719314575 0.39473345875740051
0.4690764844417572 0.54049044847488403 0.38877201080322266
0.48251977562904358 0.54701060056686401 0.38884422183036804
0.50091564655303955 0.55255603790283203 0.39082378149032593
0.52157634496688843 0.55734419822692871 0.39359322190284729
0.54623246192932129 0.56381767988204956 0.40003728866577148
0.57013285160064697 0.57266920804977417 0.40897431969642639
0.59786826372146606 0.58168870210647583 0.41611388325691223
0.63167434930801392 0.59334510564804077 0.4196765124797821
0.6706233024597168 0.60585153102874756 0.41896241903305054
0.71632868051528931 0.61213809251785278 0.41195601224899292
0.51310890913009644 0.58416545391082764 0.44063103199005127
0.51386702060699463 0.58396822214126587 0.43851813673973083
0.51677316427230835 0.58605724573135376 0.43421223759651184
0.52307897806167603 0.59046041965484619 0.43018811941146851
0.53502386808395386 0.59702914953231812 0.42903554439544678
0.55008363723754883 0.59996455907821655 0.42702043056488037
0.56812816858291626 0.60336446762084961 0.427438884973526
0.58888733386993408 0.60993903875350952 0.43402442336082458
0.61062061786651611 0.61804759502410889 0.44249200820922852
0.63401305675506592 0.62600231170654297 0.4512639045715332
0.66468864679336548 0.63729238510131836 0.46309468150138855
0.69831609725952148 0.64882045984268188 0.4670347273349762
0.7296518087387085 0.65741604566574097 0.46361866593360901
0.56724721193313599 0.63277125358581543 0.48157423734664917
0.56841719150543213 0.63274604082107544 0.47804906964302063
0.56987780332565308 0.63432502746582031 0.47307446599006653
0.57350760698318481 0.6387971043586731 0.46751236915588379
0.58253985643386841 0.6439586877822876 0.46488893032073975
0.59532260894775391 0.64791631698608398 0.46426847577095032
0.61200875043869019 0.65365004539489746 0.46440014243125916
0.63189131021499634 0.65829473733901978 0.46899345517158508
0.65287595987319946 0.66438263654708862 0.47523018717765808
0.67573964595794678 0.67116868495941162 0.48257985711097717
0.70168077945709229 0.67916500568389893 0.49428430199623108
0.73408633470535278 0.69080722332000732 0.5064539909362793
0.76008766889572144 0.7010185718536377 0.51062470674514771
0.6248161792755127 0.68466204404830933 0.52526682615280151
0.62482517957687378 0.68425244092941284 0.52183371782302856
0.62669569253921509 0.68537050485610962 0.51728993654251099
0.62938642501831055 0.69015210866928101 0.51160866022109985
0.63539248704910278 0.69514882564544678 0.50747305154800415
0.64595186710357666 0.70001256465911865 0.50553971529006958
0.6596977710723877 0.70537960529327393 0.50503808259963989
0.67907357215881348 0.70929771661758423 0.50761812925338745
0.69918453693389893 0.71388977766036987 0.51147252321243286
0.71824747323989868 0.71838492155075073 0.51660281419754028
0.74118930101394653 0.72580474615097046 0.52725726366043091
0.77007824182510376 0.73786818981170654 0.53950983285903931
0.79545825719833374 0.7496870756149292 0.54911226034164429
0.67466390132904053 0.72975039482116699 0.56312912702560425
0.67550265789031982 0.72945207357406616 0.56100046634674072
0.67861264944076538 0.73159497976303101 0.55819243192672729
0.68062877655029297 0.73702329397201538 0.55365669727325439
0.68534153699874878 0.74163597822189331 0.54850733280181885
0.69305121898651123 0.74551862478256226 0.54453450441360474
0.70503389835357666 0.74955242872238159 0.54307955503463745
0.72321438789367676 0.75472795963287354 0.54303437471389771
0.73837614059448242 0.75806939601898193 0.54512494802474976
0.75338315963745117 0.7615618109703064 0.54925775527954102
0.77654522657394409 0.77069520950317383 0.55880236625671387
0.80230647325515747 0.78259861469268799 0.57072126865386963
0.8254963755607605 0.794838547706604 0.58259093761444092
0.11910087615251541 0.1508529931306839 0.16658267378807068
0.13140001893043518 0.16179077327251434 0.1741470992565155
0.15658700466156006 0.17925943434238434 0.18812395632266998
0.19284415245056152 0.19872164726257324 0.20441913604736328
0.23381681740283966 0.21424798667430878 0.2149253785610199
0.27801015973091125 0.22848516702651978 0.22290945053100586
0.32033908367156982 0.2410619854927063 0.23114708065986633
0.3712153434753418 0.25636345148086548 0.2394428551197052
0.41665938496589661 0.27467501163482666 0.24968945980072021
0.46372917294502258 0.28740015625953674 0.2585456371307373
0.51551991701126099 0.30104002356529236 0.27076205611228943
0.56564843654632568 0.31781274080276489 0.28556734323501587
0.61872696876525879 0.33681419491767883 0.29941284656524658
0.13989497721195221 0.18806725740432739 0.18766185641288757
0.15111115574836731 0.19416981935501099 0.19233687222003937
0.17927007377147675 0.20436234772205353 0.2000546008348465
0.21413388848304749 0.21828007698059082 0.20803770422935486
0.25372931361198425 0.23075562715530396 0.21288396418094635
0.29534834623336792 0.24126937985420227 0.21694666147232056
0.33714592456817627 0.25381174683570862 0.22689312696456909
0.38414293527603149 0.26851904392242432 0.23738418519496918
0.43047752976417542 0.28592577576637268 0.24692021310329437
0.47421887516975403 0.30334293842315674 0.25845196843147278
0.52331584692001343 0.31723618507385254 0.2708209753036499
0.57368940114974976 0.33288741111755371 0.28305140137672424
0.62517708539962769 0.35021105408668518 0.29895451664924622
0.16696415841579437 0.2293955385684967 0.21636545658111572
0.17486284673213959 0.23480002582073212 0.21780900657176971
0.19812034070491791 0.2457176148891449 0.2188093364238739
0.23453311622142792 0.25454029440879822 0.21882311999797821
0.27076134085655212 0.26603046059608459 0.22003120183944702
0.31253260374069214 0.27232775092124939 0.21746824681758881
0.35744285583496094 0.28257349133491516 0.22197903692722321
0.40341329574584961 0.29695072770118713 0.23016376793384552
0.44938439130783081 0.31326773762702942 0.23976552486419678
0.49322736263275146 0.32871890068054199 0.25097832083702087
0.53920382261276245 0.34410688281059265 0.26524484157562256
0.58932244777679443 0.35972690582275391 0.28095516562461853
0.63715267181396484 0.37639722228050232 0.30019316077232361
0.20331354439258575 0.27711740136146545 0.24756383895874023
0.2096562534570694 0.28160515427589417 0.24751846492290497
0.22906880080699921 0.29211819171905518 0.24506202340126038
0.2565942108631134 0.30176156759262085 0.24543383717536926
0.28461310267448425 0.31230401992797852 0.2458837479352951
0.3192085325717926 0.31992334127426147 0.24278055131435394
0.36032789945602417 0.32815200090408325 0.24195230007171631
0.41473227739334106 0.33767890930175781 0.24206067621707916
0.46451446413993835 0.3492315411567688 0.2437850683927536
0.51255780458450317 0.36175554990768433 0.25156399607658386
0.56226366758346558 0.37424620985984802 0.26162451505661011
0.61262995004653931 0.3873102068901062 0.27429649233818054
0.65825772285461426 0.40146481990814209 0.28942087292671204
0.24552743136882782 0.3285006582736969 0.27690482139587402
0.25447732210159302 0.33336940407752991 0.27586740255355835
0.26561489701271057 0.33765468001365662 0.27007684111595154
0.28464177250862122 0.34650149941444397 0.2700844407081604
0.30403366684913635 0.35580778121948242 0.27205097675323486
0.3311639130115509 0.36535367369651794 0.2756514847278595
0.36428356170654297 0.37442237138748169 0.2766818106174469
0.41321927309036255 0.3839966356754303 0.27655616402626038
0.46694362163543701 0.39201128482818604 0.27042481303215027
0.52711492776870728 0.40022611618041992 0.26521313190460205
0.58526957035064697 0.40625479817390442 0.2674872875213623
0.64026796817779541 0.41491833329200745 0.27455323934555054
0.68918174505233765 0.42720422148704529 0.28195634484291077
0.29194873571395874 0.37880483269691467 0.30754551291465759
0.29871121048927307 0.38292983174324036 0.30543532967567444
0.30751383304595947 0.38641291856765747 0.29956480860710144
0.31879565119743347 0.39110273122787476 0.29314801096916199
0.34044075012207031 0.40084466338157654 0.29796651005744934
0.3633388876914978 0.41042158007621765 0.30484232306480408
0.39002075791358948 0.41972166299819946 0.30901047587394714
0.42598360776901245 0.43032041192054749 0.30997416377067566
0.46956014633178711 0.43851923942565918 0.30449169874191284
0.52697229385375977 0.44762945175170898 0.29773876070976257
0.5885155200958252 0.45370334386825562 0.29334327578544617
0.6528630256652832 0.4591885507106781 0.29428252577781677
0.71440297365188599 0.46188110113143921 0.29278504848480225
0.33965528011322021 0.42777121067047119 0.33687832951545715
0.34387212991714478 0.42972251772880554 0.33538147807121277
0.34919309616088867 0.43207523226737976 0.331377774477005
0.36228594183921814 0.43827211856842041 0.32583117485046387
0.37838283181190491 0.4449925422668457 0.32561483979225159
0.40006658434867859 0.45352593064308167 0.3307899534702301
0.42398795485496521 0.46282574534416199 0.33638742566108704
0.45850303769111633 0.47331064939498901 0.33960509300231934
0.49376782774925232 0.48148378729820251 0.34092840552330017
0.5382007360458374 0.49289372563362122 0.34019726514816284
0.59152626991271973 0.50302529335021973 0.33291351795196533
0.65459305047988892 0.50820016860961914 0.32581433653831482
0.71779626607894897 0.50883573293685913 0.31977766752243042
0.38995641469955444 0.47896647453308105 0.36818289756774902
0.39432957768440247 0.47985753417015076 0.36807060241699219
0.39848712086677551 0.48057931661605835 0.36593884229660034
0.41175162792205811 0.48761141300201416 0.36127540469169617
0.42835032939910889 0.49441695213317871 0.35913226008415222
0.44792202115058899 0.50153636932373047 0.36238276958465576
0.46830031275749207 0.50861620903015137 0.36596104502677917
0.49945589900016785 0.5188717246055603 0.37226048111915588
0.53169780969619751 0.52809184789657593 0.37808576226234436
0.56574010848999023 0.53807711601257324 0.38279661536216736
0.60727941989898682 0.54889780282974243 0.37804582715034485
0.66053956747055054 0.55685961246490479 0.37145662307739258
0.71523559093475342 0.56021982431411743 0.36339470744132996
0.45136666297912598 0.53214097023010254 0.4073033332824707
0.45656386017799377 0.53426939249038696 0.40675532817840576
0.46198084950447083 0.5366666316986084 0.40396028757095337
0.47007104754447937 0.54046124219894409 0.39877581596374512
0.48293128609657288 0.54608070850372314 0.39684689044952393
0.50180226564407349 0.5534023642539978 0.39815497398376465
0.52123963832855225 0.55832463502883911 0.40073475241661072
0.54443502426147461 0.56557804346084595 0.4057941734790802
0.56970131397247314 0.57391488552093506 0.41331809759140015
0.59960097074508667 0.5831262469291687 0.42220902442932129
0.63233959674835205 0.59350061416625977 0.42637905478477478
0.67293030023574829 0.60533440113067627 0.42388984560966492
0.7159842848777771 0.61184388399124146 0.41797462105751038
0.5117800235748291 0.5828402042388916 0.44811010360717773
0.51585847139358521 0.58436888456344604 0.44728446006774902
0.51919400691986084 0.58701813220977783 0.4428446888923645
0.5241665244102478 0.59004384279251099 0.43828603625297546
0.53537958860397339 0.59523856639862061 0.43557724356651306
0.55121654272079468 0.60182511806488037 0.43356627225875854
0.56803089380264282 0.60618370771408081 0.43342429399490356
0.58822476863861084 0.61274826526641846 0.43858259916305542
0.61047673225402832 0.6214745044708252 0.44740289449691772
0.63528424501419067 0.62951308488845825 0.45647516846656799
0.6628730297088623 0.63760370016098022 0.46687904000282288
0.6969611644744873 0.6497424840927124 0.47024661302566528
0.72978121042251587 0.65867048501968384 0.46810463070869446
0.56839358806610107 0.6313098669052124 0.48809707164764404
0.57260745763778687 0.63313060998916626 0.48788321018218994
0.57364732027053833 0.63407731056213379 0.48322218656539917
0.57650697231292725 0.63694864511489868 0.47800424695014954
0.58368378877639771 0.643260657787323 0.47255456447601318
0.59630340337753296 0.64900928735733032 0.46980470418930054
0.61287742853164673 0.65457308292388916 0.46799787878990173
0.6319650411605835 0.660572350025177 0.47253701090812683
0.6528017520904541 0.66821867227554321 0.48121613264083862
0.67384660243988037 0.67386025190353394 0.48918545246124268
0.69989508390426636 0.68020391464233398 0.50015586614608765
0.73108017444610596 0.6904604434967041 0.50903534889221191
0.76081621646881104 0.70088362693786621 0.51208162307739258
0.62486749887466431 0.68411499261856079 0.53094387054443359
0.6271483302116394 0.68436408042907715 0.52916067838668823
0.62972778081893921 0.68546992540359497 0.52583986520767212
0.63256317377090454 0.68851286172866821 0.52048683166503906
0.63737422227859497 0.69379740953445435 0.51444125175476074
0.64716994762420654 0.7003474235534668 0.51118099689483643
0.66153734922409058 0.70471721887588501 0.5096360445022583
0.67908161878585815 0.70999443531036377 0.51109057664871216
0.69804668426513672 0.7165149450302124 0.51729834079742432
0.71670693159103394 0.72075760364532471 0.52365231513977051
0.74047279357910156 0.72593998908996582 0.53364080190658569
0.76817107200622559 0.7363925576210022 0.54266077280044556
0.79349172115325928 0.74705612659454346 0.55059599876403809
0.67456865310668945 0.730144202709198 0.56823790073394775
0.67769885063171387 0.7322458028793335 0.56752210855484009
0.68015038967132568 0.73280304670333862 0.56487172842025757
0.68278676271438599 0.73464936017990112 0.55972224473953247
0.68743401765823364 0.73959076404571533 0.55469375848770142
0.69476300477981567 0.74715167284011841 0.55004948377609253
0.7057117223739624 0.7494547963142395 0.54706466197967529
0.72258734703063965 0.75464951992034912 0.54643571376800537
0.73776900768280029 0.75948494672775269 0.54890471696853638
0.75460600852966309 0.76462036371231079 0.55435681343078613
0.77483135461807251 0.77119559049606323 0.56212562322616577
0.8010859489440918 0.78250777721405029 0.57341581583023071
0.81700080633163452 0.78909933567047119 0.57993459701538086
0.12376279383897781 0.15728133916854858 0.17602299153804779
0.13226601481437683 0.16779722273349762 0.18250925838947296
0.15523792803287506 0.18688943982124329 0.1977723240852356
0.18294788897037506 0.20951098203659058 0.21446403861045837
0.21165198087692261 0.23086592555046082 0.23067408800125122
0.24671351909637451 0.24957418441772461 0.24501948058605194
0.28525614738464355 0.2662893533706665 0.25550004839897156
0.33693733811378479 0.28354927897453308 0.26687756180763245
0.38604721426963806 0.30294820666313171 0.28091526031494141
0.43377897143363953 0.31510156393051147 0.29079455137252808
0.48535448312759399 0.32911941409111023 0.30142688751220703
0.54205906391143799 0.34820497035980225 0.31712386012077332
0.5969470739364624 0.3612983226776123 0.33279472589492798
0.14280794560909271 0.19023151695728302 0.19459791481494904
0.15190969407558441 0.20002542436122894 0.20155026018619537
0.17151136696338654 0.21333974599838257 0.21299950778484344
0.19680730998516083 0.22836089134216309 0.22562630474567413
0.22560243308544159 0.24570329487323761 0.23870542645454407
0.2614932656288147 0.26256796717643738 0.24899795651435852
0.30393129587173462 0.27654370665550232 0.25727316737174988
0.35637149214744568 0.29119127988815308 0.26852491497993469
0.40160185098648071 0.30804926156997681 0.28044846653938293
0.44858554005622864 0.32284706830978394 0.29202273488044739
0.49736782908439636 0.33691227436065674 0.30308428406715393
0.55339956283569336 0.35069462656974792 0.3162987232208252
0.60980391502380371 0.36615213751792908 0.33187445998191833
0.17078965902328491 0.23182483017444611 0.22132273018360138
0.17894358932971954 0.23948420584201813 0.22811566293239594
0.19568222761154175 0.25069886445999146 0.23736543953418732
0.2220456451177597 0.26018223166465759 0.24297325313091278
0.25313195586204529 0.27168819308280945 0.24602413177490234
0.28937211632728577 0.28287056088447571 0.24836669862270355
0.33228248357772827 0.29486486315727234 0.25577336549758911
0.3821503221988678 0.30901101231575012 0.26579862833023071
0.42797139286994934 0.32444161176681519 0.27552884817123413
0.47195979952812195 0.33889880776405334 0.28984907269477844
0.51815241575241089 0.35476049780845642 0.30447334051132202
0.57149589061737061 0.36610165238380432 0.31572461128234863
0.62619292736053467 0.38315314054489136 0.33310022950172424
0.20706897974014282 0.27620372176170349 0.25435766577720642
0.21478833258152008 0.28458338975906372 0.25936022400856018
0.22795209288597107 0.29387947916984558 0.26192554831504822
0.25062581896781921 0.30274447798728943 0.26404574513435364
0.28082871437072754 0.31453073024749756 0.26755204796791077
0.3145039975643158 0.32201015949249268 0.26544821262359619
0.35419449210166931 0.33139491081237793 0.26338627934455872
0.4059186577796936 0.34215512871742249 0.26518043875694275
0.45277103781700134 0.3539355993270874 0.27296954393386841
0.49742063879966736 0.36830225586891174 0.28473436832427979
0.54609888792037964 0.38214454054832458 0.30079174041748047
0.5959962010383606 0.39658510684967041 0.3145594596862793
0.64776289463043213 0.41115683317184448 0.3297121524810791
0.25005441904067993 0.32648438215255737 0.28701812028884888
0.25584974884986877 0.33229371905326843 0.28943237662315369
0.26492676138877869 0.33762437105178833 0.28763404488563538
0.28123170137405396 0.34527289867401123 0.28766521811485291
0.30631005764007568 0.35874488949775696 0.29135257005691528
0.32954508066177368 0.36691054701805115 0.29118159413337708
0.361930251121521 0.37666872143745422 0.28892666101455688
0.41028061509132385 0.38667455315589905 0.28740599751472473
0.4654567539691925 0.39427661895751953 0.28329670429229736
