assets/lut/creative colornegative.cube
# Created by: G'MIC (https://gmic.eu)
TITLE "colornegative"
# LUT size
LUT_3D_SIZE 7
# Data domain
DOMAIN_MIN 0.0 0.0 0.0
DOMAIN_MAX 1.0 1.0 1.0
# LUT data points
0.93270611763000488 0.79819333553314209 0.69007539749145508
0.71538442373275757 0.81299513578414917 0.70062029361724854
0.48735722899436951 0.81098896265029907 0.70513612031936646
0.28561842441558838 0.814491868019104 0.71597790718078613
0.14135785400867462 0.81108987331390381 0.71409285068511963
0.04074714332818985 0.80210304260253906 0.69333076477050781
0 0.80411839485168457 0.68340229988098145
0.94202840328216553 0.50345683097839355 0.70798546075820923
0.73201602697372437 0.51399481296539307 0.72752708196640015
0.52471518516540527 0.51144200563430786 0.73937052488327026
0.35167047381401062 0.5307387113571167 0.74447077512741089
0.21052250266075134 0.53679734468460083 0.74213731288909912
0.082264512777328491 0.53428727388381958 0.72978717088699341
0.00051030179020017385 0.53679025173187256 0.73127710819244385
0.94935476779937744 0.26041474938392639 0.71371382474899292
0.74373805522918701 0.28304934501647949 0.72842109203338623
0.55028879642486572 0.30212432146072388 0.74240267276763916
0.38823410868644714 0.31801518797874451 0.74920201301574707
0.25032094120979309 0.32244676351547241 0.74906367063522339
0.12745247781276703 0.32886147499084473 0.74124854803085327
0.018661258742213249 0.34028816223144531 0.74379944801330566
0.9491201639175415 0.072328530251979828 0.72826981544494629
0.7477266788482666 0.12365029752254486 0.73162931203842163
0.55804628133773804 0.16957792639732361 0.74083048105239868
0.39856874942779541 0.18841896951198578 0.7497754693031311
0.26562803983688354 0.19097509980201721 0.7517322301864624
0.15111979842185974 0.19942827522754669 0.74385964870452881
0.04524371400475502 0.21604081988334656 0.73892062902450562
0.95049208402633667 0.0013204537099227309 0.72282743453979492
0.7488853931427002 0.03726857528090477 0.72755914926528931
0.56144893169403076 0.078965969383716583 0.73595160245895386
0.40524548292160034 0.10480769723653793 0.74533557891845703
0.2795383632183075 0.11846298724412918 0.75042831897735596
0.16767434775829315 0.12545455992221832 0.74228620529174805
0.062675073742866516 0.13779035210609436 0.73665940761566162
0.95060360431671143 0 0.71658492088317871
0.74865889549255371 0.0073072095401585102 0.72108733654022217
0.56092602014541626 0.026730690151453018 0.7324184775352478
0.40720352530479431 0.04732658714056015 0.74054533243179321
0.2858741283416748 0.063913963735103607 0.7408444881439209
0.17741215229034424 0.073102407157421112 0.73455172777175903
0.074626058340072632 0.084554381668567657 0.73574703931808472
0.94736963510513306 0 0.7325127124786377
0.74812519550323486 0 0.72994762659072876
0.56232506036758423 0.0004855286970268935 0.74033820629119873
0.40975064039230347 0.0072626001201570034 0.74612826108932495
0.29036417603492737 0.020176906138658524 0.73903197050094604
0.18466059863567352 0.030529741197824478 0.73612511157989502
0.084236547350883484 0.043558862060308456 0.74941682815551758
0.93484729528427124 0.79608088731765747 0.2984735369682312
0.71760958433151245 0.80761432647705078 0.32802268862724304
0.49778696894645691 0.8129342794418335 0.32767802476882935
0.28557601571083069 0.81857931613922119 0.34076985716819763
0.11261680722236633 0.81715720891952515 0.37536907196044922
0.027436843141913414 0.80854374170303345 0.36798050999641418
9.6220130217261612e-05 0.80960178375244141 0.36036792397499084
0.94523388147354126 0.49840381741523743 0.37703892588615417
0.73860687017440796 0.51793330907821655 0.39910885691642761
0.54083728790283203 0.53005719184875488 0.41016581654548645
0.36130973696708679 0.54098451137542725 0.42089009284973145
0.20114366710186005 0.54314923286437988 0.43349912762641907
0.076193399727344513 0.54275929927825928 0.4340893030166626
0.0010465285740792751 0.54566776752471924 0.43966123461723328
0.95233839750289917 0.26865977048873901 0.39865791797637939
0.74919372797012329 0.29718771576881409 0.42146760225296021
0.56119024753570557 0.31821528077125549 0.43548551201820374
0.4020652174949646 0.33004391193389893 0.44421654939651489
0.26449999213218689 0.33619827032089233 0.45346570014953613
0.1379455029964447 0.34197050333023071 0.45161974430084229
0.019940843805670738 0.34837824106216431 0.45411068201065063
0.95073181390762329 0.089713588356971741 0.42091172933578491
0.74976062774658203 0.14044994115829468 0.43542346358299255
0.56400066614151001 0.18122090399265289 0.44199439883232117
0.40957355499267578 0.19905580580234528 0.45470008254051208
0.28075999021530151 0.20509545505046844 0.46461394429206848
0.161711186170578 0.21011479198932648 0.46132102608680725
0.050557006150484085 0.21922662854194641 0.45574119687080383
0.95179420709609985 0.0047522750683128834 0.4246145486831665
0.74951761960983276 0.0437813401222229 0.44121596217155457
0.56305146217346191 0.085932746529579163 0.44623717665672302
0.41047641634941101 0.11191780120134354 0.45561811327934265
0.28598812222480774 0.12382727116346359 0.4666500985622406
0.17440560460090637 0.12960997223854065 0.46447893977165222
0.067737653851509094 0.13827162981033325 0.46111732721328735
0.95191317796707153 0.00062863220227882266 0.422678142786026
0.74905097484588623 0.0093599054962396622 0.4354693591594696
0.56298381090164185 0.028875747695565224 0.44423884153366089
0.41057199239730835 0.051337163895368576 0.45270669460296631
0.28896993398666382 0.067033283412456512 0.45811575651168823
0.18085296452045441 0.075689069926738739 0.45519727468490601
0.077514737844467163 0.085537932813167572 0.45466628670692444
0.94758975505828857 0.0040946509689092636 0.43365204334259033
0.74877452850341797 0.00084547157166525722 0.43837007880210876
0.56541818380355835 0.0020840961951762438 0.44612643122673035
0.41378265619277954 0.01139418687671423 0.45681169629096985
0.29258787631988525 0.024831300601363182 0.45446184277534485
0.18567988276481628 0.034771863371133804 0.45169046521186829
0.084358051419258118 0.046866472810506821 0.45522210001945496
0.93353801965713501 0.80476540327072144 0.0033981024753302336
0.71918183565139771 0.80607384443283081 0.041671168059110641
0.5120130181312561 0.81106436252593994 0.042624320834875107
0.3190828263759613 0.81711655855178833 0.030292555689811707
0.14309260249137878 0.81783419847488403 0.057040300220251083
0.036576889455318451 0.81253820657730103 0.095116525888442993
0.0035659191198647022 0.81734460592269897 0.08576858788728714
0.94702774286270142 0.50769937038421631 0.088753886520862579
0.73919302225112915 0.52154242992401123 0.13960246741771698
0.54673385620117188 0.53478258848190308 0.16144901514053345
0.37678766250610352 0.54491037130355835 0.17719385027885437
0.21190732717514038 0.54653477668762207 0.17442305386066437
0.082610093057155609 0.54453194141387939 0.20672783255577087
0.0089304903522133827 0.54776877164840698 0.22831268608570099
0.95166498422622681 0.2759203314781189 0.13060866296291351
0.74573338031768799 0.30317831039428711 0.18616548180580139
0.55807977914810181 0.3229486346244812 0.22234459221363068
0.40565216541290283 0.33894425630569458 0.22982855141162872
0.26843184232711792 0.34667143225669861 0.23704163730144501
0.13998079299926758 0.3491242527961731 0.24808976054191589
0.03406175971031189 0.35501471161842346 0.25489667057991028
0.94775807857513428 0.084034956991672516 0.15163332223892212
0.74774050712585449 0.15299811959266663 0.2142401784658432
0.56103622913360596 0.18858639895915985 0.23602499067783356
0.41256928443908691 0.20699968934059143 0.25131002068519592
0.28764337301254272 0.21644733846187592 0.26340410113334656
0.16877931356430054 0.22184422612190247 0.26606965065002441
0.060329288244247437 0.22608292102813721 0.26284945011138916
0.94757425785064697 0.00019848393276333809 0.1824239194393158
0.7460443377494812 0.036523826420307159 0.23149745166301727
0.56197637319564819 0.086652301251888275 0.24193799495697021
0.41213235259056091 0.11655222624540329 0.25414463877677917
0.2901337742805481 0.13101524114608765 0.27013275027275085
0.18206021189689636 0.13693906366825104 0.27425098419189453
0.075201846659183502 0.14330838620662689 0.27142161130905151
0.94754701852798462 0.0018783120904117823 0.19465790688991547
0.74492162466049194 0.0004112542956136167 0.22970351576805115
0.56241309642791748 0.023173239082098007 0.24564334750175476
0.41210651397705078 0.050622843205928802 0.25557863712310791
0.29092791676521301 0.068966329097747803 0.26671788096427917
0.18553063273429871 0.079273521900177002 0.27041050791740417
0.082971490919589996 0.089345060288906097 0.26811724901199341
0.94719099998474121 0.0075528612360358238 0.19025728106498718
0.74509721994400024 0.00059088913258165121 0.22952640056610107
0.56581610441207886 0.00088620651513338089 0.24949823319911957
0.41549095511436462 0.0093440935015678406 0.26170781254768372
0.29393461346626282 0.024945786222815514 0.2654937207698822
0.18845334649085999 0.037716839462518692 0.26589983701705933
0.089203931391239166 0.049613412469625473 0.27042201161384583
0.9316176176071167 0.80270862579345703 0
0.71681153774261475 0.80630588531494141 0
0.51165425777435303 0.81010842323303223 0
0.32248502969741821 0.81382888555526733 0
0.15112480521202087 0.81455647945404053 0
0.035154934972524643 0.81207573413848877 1.6156365745700896e-05
0 0.81555294990539551 0.00025455249124206603
0.94398808479309082 0.51309698820114136 0
0.73619687557220459 0.52601563930511475 0.0014320523478090763
0.54551547765731812 0.53661489486694336 0.0083514340221881866
0.38380473852157593 0.54073250293731689 0.014211018569767475
0.23631937801837921 0.5404353141784668 0.013621012680232525
0.098138846457004547 0.54253935813903809 0.048662446439266205
0.0099232839420437813 0.54996901750564575 0.07197195291519165
0.9535752534866333 0.28601071238517761 4.3083641685370822e-06
0.747173011302948 0.31458649039268494 0.012339020147919655
0.55735474824905396 0.32805216312408447 0.057389456778764725
0.4073127806186676 0.33710393309593201 0.087117843329906464
0.27554842829704285 0.34228023886680603 0.096530258655548096
0.14925336837768555 0.34679901599884033 0.10815563052892685
0.043637711554765701 0.35536041855812073 0.11913195997476578
0.95197165012359619 0.091830864548683167 0.00031594670144841075
0.75010150671005249 0.15852297842502594 0.045397575944662094
0.56262028217315674 0.19226622581481934 0.086990848183631897
0.4118516743183136 0.20890232920646667 0.12311634421348572
0.28548821806907654 0.22195696830749512 0.13901126384735107
0.17341034114360809 0.22591908276081085 0.14254853129386902
0.069981396198272705 0.22808448970317841 0.14397139847278595
0.94738692045211792 0.00046892353566363454 0.012642026878893375
0.7460322380065918 0.039622481912374496 0.071602858603000641
0.5614248514175415 0.089013010263442993 0.10886035859584808
0.41044008731842041 0.11913667619228363 0.13528338074684143
0.29007259011268616 0.13679850101470947 0.15214288234710693
0.1866823136806488 0.14399230480194092 0.16030411422252655
0.084037169814109802 0.14709047973155975 0.16066098213195801
0.94566857814788818 0 0.020808560773730278
0.74467885494232178 0.0004907496040686965 0.075757481157779694
0.56066888570785522 0.024324364960193634 0.11406808346509933
0.40983882546424866 0.050549600273370743 0.13859625160694122
0.29034987092018127 0.072377040982246399 0.15375390648841858
0.18868191540241241 0.087668806314468384 0.1597551554441452
0.089679807424545288 0.093702711164951324 0.16536572575569153
0.94662195444107056 0.00012135224824305624 0.013679444789886475
0.74485296010971069 0 0.081300444900989532
0.56478607654571533 0.00025527057005092502 0.12117923051118851
0.41275227069854736 0.0042933742515742779 0.14715611934661865
0.29116362333297729 0.025055814534425735 0.1575404554605484
0.18946078419685364 0.043184436857700348 0.16134420037269592
0.093788519501686096 0.053154006600379944 0.16933643817901611
0.93249082565307617 0.80429536104202271 5.6846467487048358e-05
0.71445482969284058 0.8071473240852356 0
0.50470578670501709 0.80957263708114624 0
0.30764728784561157 0.81275850534439087 0
0.12013428658246994 0.81522524356842041 0
0.012959797866642475 0.81079673767089844 0
0 0.81128102540969849 0
0.94244253635406494 0.51691031455993652 0.00068692973582074046
0.73320037126541138 0.52828925848007202 1.660515226831194e-05
0.54064244031906128 0.5369417667388916 0
0.37608882784843445 0.53964823484420776 0
0.22569379210472107 0.5421522855758667 0
0.095132611691951752 0.54077953100204468 0.00076106953201815486
0.0069349850527942181 0.54742735624313354 0.0046975826844573021
0.95134150981903076 0.29568618535995483 0.00031063603819347918
0.74535137414932251 0.31940385699272156 2.0345053144410485e-06
0.55674731731414795 0.33323973417282104 0.00021589690004475415
0.4029083251953125 0.33849549293518066 0.013255265541374683
0.27613791823387146 0.3431822657585144 0.019163154065608978
0.15802827477455139 0.34330359101295471 0.020448977127671242
0.046578485518693924 0.35150641202926636 0.03451060876250267
0.95434433221817017 0.12869328260421753 4.3083641685370822e-06
0.75037938356399536 0.16843968629837036 0
0.56260544061660767 0.19803744554519653 0.0057834400795400143
0.40831542015075684 0.21281766891479492 0.036564890295267105
0.28259509801864624 0.22339402139186859 0.056273367255926132
0.17737141251564026 0.22464001178741455 0.060852814465761185
0.074622809886932373 0.22646646201610565 0.065448731184005737
0.94831556081771851 0.014846666716039181 0
0.74702280759811401 0.054357178509235382 0.00033638149034231901
0.5617256760597229 0.097972095012664795 0.018112391233444214
0.4085351824760437 0.12499461323022842 0.048179969191551208
0.28889560699462891 0.1373821347951889 0.074762739241123199
0.18806122243404388 0.14341281354427338 0.088690802454948425
0.088945366442203522 0.14872704446315765 0.090726278722286224
0.94419294595718384 0 0
0.74485296010971069 0.0038907667621970177 0.00010172525799134746
0.56092911958694458 0.032853279262781143 0.017828218638896942
0.408143550157547 0.05741017684340477 0.053471434861421585
0.28933069109916687 0.07626025378704071 0.080478906631469727
0.18984432518482208 0.091774672269821167 0.093615017831325531
0.095559015870094299 0.096544735133647919 0.10215061902999878
0.94493836164474487 0 0
0.7471434473991394 0 9.8015283583663404e-05
0.56584113836288452 0.00090472650481387973 0.022069340571761131
0.41108283400535583 0.0079382350668311119 0.063860006630420685
0.28913587331771851 0.029677357524633408 0.08716234564781189
0.18747834861278534 0.049153197556734085 0.098950132727622986
0.094587616622447968 0.057275749742984772 0.11100085079669952
0.93134224414825439 0.79606872797012329 0.01186834555119276
0.71324825286865234 0.80164051055908203 0.0039209853857755661
0.50598496198654175 0.80784988403320312 0
0.31804761290550232 0.81213152408599854 4.487879323278321e-06
0.14551560580730438 0.81180489063262939 0.012651241384446621
0.031686160713434219 0.80640548467636108 0.0049362932331860065
0 0.808879554271698 0
0.94125264883041382 0.51439350843429565 0.0095914499834179878
0.73093128204345703 0.52547138929367065 0.0064418716356158257
0.54054945707321167 0.53425973653793335 0
0.38520073890686035 0.53893828392028809 3.5903033790418704e-07
0.23554323613643646 0.54118740558624268 0.0030294081661850214
0.09805857390165329 0.53659874200820923 0.00083354878006502986
0.0044742361642420292 0.54024112224578857 0
0.94744718074798584 0.29403114318847656 0.0055598090402781963
0.74146836996078491 0.31557777523994446 0.0021006267052143812
0.55655473470687866 0.33215042948722839 0
0.4052065908908844 0.33893555402755737 0
0.276288241147995 0.34325969219207764 0
0.15394337475299835 0.34289324283599854 0
0.038545556366443634 0.34501436352729797 0.0022517633624374866
0.95017915964126587 0.13025988638401031 6.8933826696593314e-05
0.74677598476409912 0.16542892158031464 9.6938192655215971e-06
0.56195360422134399 0.19891010224819183 0
0.40908181667327881 0.21392244100570679 0.0011619417928159237
0.28739315271377563 0.22008755803108215 0.009440283291041851
0.18003222346305847 0.22380389273166656 0.014835597015917301
0.073486089706420898 0.22401520609855652 0.021889481693506241
0.94730234146118164 0.017287863418459892 0
0.74519205093383789 0.049721557646989822 0
0.56117707490921021 0.10017699003219604 0
0.40956437587738037 0.12870782613754272 0.0039938534609973431
0.29205605387687683 0.13529391586780548 0.024617992341518402
0.18901748955249786 0.14294101297855377 0.040750347077846527
0.088856145739555359 0.1490551233291626 0.04724324494600296
0.94334030151367188 0 0
0.74187177419662476 0.0009934818372130394 0
0.55853819847106934 0.032430581748485565 0
0.40661934018135071 0.062073156237602234 0.0077589144930243492
0.28943613171577454 0.07806231826543808 0.034929957240819931
0.19029994308948517 0.090711288154125214 0.054042786359786987
0.093143254518508911 0.10104099661111832 0.062273692339658737
0.94370591640472412 0 0
0.74482804536819458 0 0
0.56234216690063477 0.00017592485528439283 1.5557981896563433e-05
0.40939873456954956 0.011646823957562447 0.017846021801233292
0.28818076848983765 0.032799381762742996 0.041600711643695831
0.18725490570068359 0.050625715404748917 0.058251384645700455
0.093654528260231018 0.060474202036857605 0.07388036698102951
0.93284618854522705 0.79164016246795654 0.0067764432169497013
0.71815639734268188 0.79806220531463623 0.0069933123886585236
0.51681923866271973 0.80977696180343628 0.00095953850541263819
0.34205165505409241 0.81421101093292236 0.0051548229530453682
0.1937890350818634 0.81025195121765137 0.015325329266488552
0.079924114048480988 0.80792820453643799 0.012480881996452808
0.0051214480772614479 0.81830394268035889 0.0014976501697674394
0.94165676832199097 0.51373970508575439 0.0027063258457928896
0.7327265739440918 0.52604711055755615 0.0071937260217964649
0.54305446147918701 0.53430604934692383 0.0019741880241781473
0.38552689552307129 0.53768688440322876 0.0040331371128559113
0.24382516741752625 0.54083549976348877 0.0096926521509885788
0.11048091948032379 0.53805333375930786 0.0069244834594428539
0.0054611056111752987 0.54205375909805298 0.0010381062747910619
0.94574689865112305 0.29517883062362671 0.0023124844301491976
0.74182456731796265 0.31951287388801575 0.0038055719342082739
0.55886268615722656 0.3356320858001709 0
0.40742480754852295 0.33716541528701782 4.6673944780195598e-06
0.27522954344749451 0.34157201647758484 0.000340914266416803
0.14735302329063416 0.34420883655548096 0
0.030094759538769722 0.34724852442741394 0
0.94794493913650513 0.13081128895282745 0.00073287065606564283
0.74678212404251099 0.16856227815151215 0.002119401004165411
0.56525319814682007 0.20479029417037964 0
0.4140249490737915 0.21493205428123474 0
0.28902307152748108 0.21982154250144958 2.7645335649140179e-05
0.17682637274265289 0.22480504214763641 0.0015973258996382356
0.071389488875865936 0.22749222815036774 0.0056598735973238945
0.9479672908782959 0.01556555088609457 0
0.74844974279403687 0.040297802537679672 0.00099162675905972719
0.56515920162200928 0.10023274272680283 0
0.41367200016975403 0.13136355578899384 0.00065346510382369161
0.29140943288803101 0.1401086300611496 0.0076265819370746613
0.18671858310699463 0.1460951566696167 0.016846900805830956
0.088717095553874969 0.15088999271392822 0.024796804413199425
0.9452170729637146 0 0
0.74488186836242676 9.5741423137951642e-05 0
0.56112456321716309 0.028567070141434669 0
0.40943539142608643 0.062570847570896149 0.0030162138864398003
0.28924980759620667 0.081725269556045532 0.014745959080755711
0.18769226968288422 0.092371188104152679 0.028728574514389038
0.095668897032737732 0.096760526299476624 0.042284559458494186
0.94701868295669556 6.5732470829971135e-05 0.0013272901996970177
0.74736052751541138 0 5.0563439799589105e-06
0.56371963024139404 0 0.00029832427389919758
0.4122893214225769 0.011096850037574768 0.008249589242041111
0.29086902737617493 0.035127751529216766 0.020734181627631187
0.18865609169006348 0.051328156143426895 0.035563960671424866
0.096390590071678162 0.060220412909984589 0.055584970861673355
