assets/lut/creative tealorange 01.cube
# Created by: G'MIC (https://gmic.eu)
TITLE "tealorange_1"
# LUT size
LUT_3D_SIZE 7
# Data domain
DOMAIN_MIN 0.0 0.0 0.0
DOMAIN_MAX 1.0 1.0 1.0
# LUT data points
0.0087196500971913338 0.015967665240168571 0.075059182941913605
0.11633899062871933 0.0044081145897507668 0.054123435169458389
0.23903070390224457 0.0068620569072663784 0.012783798389136791
0.38957026600837708 0.0093064550310373306 0.0041363583877682686
0.56663620471954346 0.022113112732768059 0.0050936681218445301
0.76194357872009277 0.033837039023637772 0.0028682185802608728
0.97097700834274292 0.094895638525485992 0
3.7369074561866e-05 0.12412448972463608 0.046286743134260178
0.096131645143032074 0.11520005762577057 0.007645835168659687
0.22838021814823151 0.13518758118152618 0.0024888580664992332
0.35387232899665833 0.15891101956367493 6.3219260482583195e-05
0.53875446319580078 0.20533156394958496 0.00018229764827992767
0.74785256385803223 0.23293228447437286 3.5903033221984515e-06
0.96749180555343628 0.25772568583488464 0
0.00013786765339318663 0.2892703115940094 0.066921710968017578
0.088176578283309937 0.28980234265327454 0.01480478048324585
0.30646196007728577 0.30206286907196045 0.011706019751727581
0.44812580943107605 0.31993445754051208 0.0037469752132892609
0.60574942827224731 0.37125149369239807 0.0015988219529390335
0.78298103809356689 0.42298746109008789 0
0.97020286321640015 0.46213445067405701 0
0.010420750826597214 0.48419195413589478 0.14091247320175171
0.11976949870586395 0.49097162485122681 0.038693759590387344
0.39609882235527039 0.49204340577125549 0.018346913158893585
0.5757293701171875 0.50213420391082764 0.013506362214684486
0.74702131748199463 0.52192908525466919 0.0088547347113490105
0.89232832193374634 0.55486732721328735 0.0023894216865301132
0.98881036043167114 0.59125763177871704 0
0.19933201372623444 0.71065783500671387 0.23554623126983643
0.27266392111778259 0.71205860376358032 0.10754134505987167
0.49050462245941162 0.70846617221832275 0.044427085667848587
0.6814342737197876 0.69614177942276001 0.041274290531873703
0.8448978066444397 0.6980556845664978 0.029865413904190063
0.959053635597229 0.69844955205917358 0.024841697886586189
0.9989890456199646 0.70941931009292603 0.0038009195122867823
0.34916520118713379 0.88404232263565063 0.28611612319946289
0.39053487777709961 0.88894951343536377 0.19341203570365906
0.53022897243499756 0.88247054815292358 0.087771832942962646
0.73438930511474609 0.86622083187103271 0.02937215194106102
0.90417790412902832 0.84936904907226562 0.016508080065250397
0.98681902885437012 0.83533555269241333 0.01156717911362648
1 0.82557117938995361 0.012638496235013008
0.43006196618080139 0.99078989028930664 0.32225450873374939
0.44664677977561951 0.99558049440383911 0.21756868064403534
0.53926968574523926 0.9877135157585144 0.06532394140958786
0.72601103782653809 0.97461557388305664 0.016537848860025406
0.90672475099563599 0.95881682634353638 0.0023572135251015425
0.99598133563995361 0.94378864765167236 0.00084672815864905715
1 0.92633974552154541 0.0039215688593685627
0 0.037774328142404556 0.15596345067024231
0.021980540826916695 0.041545838117599487 0.18574357032775879
0.13404813408851624 0.048901665955781937 0.22963637113571167
0.30666124820709229 0.054731123149394989 0.24368701875209808
0.53389114141464233 0.036696877330541611 0.18857386708259583
0.75344431400299072 0.049079909920692444 0.15672719478607178
0.97527271509170532 0.027178552001714706 0.094212010502815247
0 0.1260894238948822 0.14408747851848602
0.043368559330701828 0.12989501655101776 0.13563942909240723
0.20286840200424194 0.13611851632595062 0.14437636733055115
0.36426082253456116 0.14796295762062073 0.136667400598526
0.57595407962799072 0.15311792492866516 0.09271114319562912
0.79812723398208618 0.14559976756572723 0.062445547431707382
0.98466885089874268 0.1495034247636795 0.054627526551485062
1.220703143189894e-05 0.28628891706466675 0.22468161582946777
0.044759113341569901 0.29272502660751343 0.18163996934890747
0.27064371109008789 0.3039298951625824 0.13534341752529144
0.42317777872085571 0.33060535788536072 0.11303308606147766
0.60283875465393066 0.37238049507141113 0.06974252313375473
0.80306130647659302 0.40109091997146606 0.029590770602226257
0.97831547260284424 0.42048612236976624 0.017971532419323921
0.023101598024368286 0.48672971129417419 0.31293889880180359
0.09674777090549469 0.49223223328590393 0.25740787386894226
0.35088124871253967 0.50270253419876099 0.17931497097015381
0.55322372913360596 0.50552827119827271 0.16095572710037231
0.72984176874160767 0.53032934665679932 0.12251836806535721
0.87485188245773315 0.56565147638320923 0.050129055976867676
0.98605513572692871 0.59808158874511719 0.030214646831154823
0.20514567196369171 0.70507752895355225 0.38981053233146667
0.27695763111114502 0.70836269855499268 0.33109205961227417
0.45016312599182129 0.71526187658309937 0.22323961555957794
0.66523164510726929 0.70585340261459351 0.18757183849811554
0.835732102394104 0.70170146226882935 0.18431830406188965
0.97491163015365601 0.70521003007888794 0.14386674761772156
0.99928301572799683 0.71712672710418701 0.041142601519823074
0.36612850427627563 0.88014918565750122 0.43402811884880066
0.41776692867279053 0.88418114185333252 0.39953792095184326
0.5026782751083374 0.88771116733551025 0.26053354144096375
0.70149260759353638 0.87611895799636841 0.19215573370456696
0.88413947820663452 0.85283553600311279 0.16881655156612396
0.98466193675994873 0.8364185094833374 0.14330646395683289
1 0.8245740532875061 0.11324240267276764
0.43931210041046143 0.98643970489501953 0.45622032880783081
0.47833248972892761 0.99210691452026367 0.41436567902565002
0.53224831819534302 0.99120914936065674 0.26477494835853577
0.68860435485839844 0.98912686109542847 0.1516372412443161
0.90216249227523804 0.96944171190261841 0.081407122313976288
0.99480980634689331 0.94524186849594116 0.040418438613414764
1 0.91032165288925171 0.03299427404999733
0 0.072263382375240326 0.26475733518600464
0.0003430534852668643 0.098846226930618286 0.26279595494270325
0.024622345343232155 0.11297972500324249 0.30672633647918701
0.18281358480453491 0.14085273444652557 0.40808689594268799
0.39559972286224365 0.17702680826187134 0.5107153058052063
0.63196182250976562 0.21072110533714294 0.54808264970779419
0.91008996963500977 0.22162461280822754 0.53747844696044922
0 0.14816506206989288 0.19101747870445251
0.0014166140463203192 0.16971166431903839 0.22345538437366486
0.081530585885047913 0.18879982829093933 0.29443627595901489
0.25024145841598511 0.20249064266681671 0.3956940770149231
0.46332177519798279 0.2417997270822525 0.47606176137924194
0.6953117847442627 0.27075296640396118 0.49746313691139221
0.94302940368652344 0.2855885922908783 0.48274156451225281
0.00025730507331900299 0.29298549890518188 0.289205402135849
0.029968336224555969 0.30315753817558289 0.29603362083435059
0.21777033805847168 0.31920063495635986 0.29801076650619507
0.39179912209510803 0.33904018998146057 0.33228668570518494
0.60475301742553711 0.36643704771995544 0.34548699855804443
0.82547378540039062 0.3843352198600769 0.3389773964881897
0.98832541704177856 0.39062529802322388 0.30156686902046204
0.01490071602165699 0.48914813995361328 0.43405571579933167
0.096329435706138611 0.49554631114006042 0.42261645197868347
0.31860208511352539 0.50678163766860962 0.3813481330871582
0.52596676349639893 0.52410143613815308 0.33723270893096924
0.70006126165390015 0.54483020305633545 0.31347742676734924
0.87282150983810425 0.56517058610916138 0.28292015194892883
0.99424386024475098 0.5787656307220459 0.25831255316734314
0.20295114815235138 0.70387107133865356 0.54318654537200928
0.27471572160720825 0.7047761082649231 0.52575910091400146
0.43598836660385132 0.70934748649597168 0.46099236607551575
0.62242597341537476 0.71447098255157471 0.37616115808486938
0.811229407787323 0.7109871506690979 0.35674449801445007
0.95712172985076904 0.71899855136871338 0.33285152912139893
0.99798572063446045 0.73411071300506592 0.2678324282169342
0.35263180732727051 0.87764233350753784 0.60851371288299561
0.41296309232711792 0.88123536109924316 0.59462231397628784
0.51976567506790161 0.88170462846755981 0.51684004068374634
0.65141481161117554 0.88047963380813599 0.39938181638717651
0.86349976062774658 0.86076563596725464 0.3538898229598999
0.98451030254364014 0.84170049428939819 0.33190390467643738
1 0.83472549915313721 0.30016070604324341
0.44087758660316467 0.98297393321990967 0.62400352954864502
0.48140877485275269 0.98604309558868408 0.60599243640899658
0.56459063291549683 0.98594540357589722 0.53927379846572876
0.6592329740524292 0.98359084129333496 0.39400839805603027
0.84525096416473389 0.97301852703094482 0.31351169943809509
0.9895474910736084 0.9490654468536377 0.26064589619636536
1 0.92677092552185059 0.2256348580121994
0 0.11292654275894165 0.35427501797676086
0 0.13966052234172821 0.36601892113685608
0.0047777364961802959 0.17702805995941162 0.37990948557853699
0.079619385302066803 0.2002665102481842 0.45590046048164368
0.29099133610725403 0.2424292266368866 0.58892816305160522
0.53445065021514893 0.29253712296485901 0.73008602857589722
0.78259563446044922 0.34995806217193604 0.8192715048789978
0 0.18674522638320923 0.28313007950782776
0 0.20558778941631317 0.3256550133228302
0.0041479524224996567 0.23607343435287476 0.37450510263442993
0.13480103015899658 0.26247230172157288 0.45291802287101746
0.36880224943161011 0.29656219482421875 0.58614045381546021
0.59543490409851074 0.34651064872741699 0.72134584188461304
0.84004521369934082 0.39040672779083252 0.80557596683502197
0.0021922839805483818 0.31325638294219971 0.34121221303939819
0.014936499297618866 0.32751119136810303 0.33800360560417175
0.057183030992746353 0.35799306631088257 0.37962749600410461
0.27909678220748901 0.37812834978103638 0.46231919527053833
0.5052068829536438 0.41446545720100403 0.58913564682006836
0.71727555990219116 0.44751256704330444 0.67723745107650757
0.92945683002471924 0.47269600629806519 0.71714133024215698
0.066076911985874176 0.49239891767501831 0.46544113755226135
0.16464276611804962 0.49868288636207581 0.47280439734458923
0.32631030678749084 0.51845473051071167 0.48030015826225281
0.48264312744140625 0.53416818380355835 0.49037536978721619
0.67552191019058228 0.55532705783843994 0.53159254789352417
0.86972945928573608 0.56818246841430664 0.54347807168960571
0.98643571138381958 0.57423847913742065 0.53874170780181885
0.21834397315979004 0.70656102895736694 0.641765296459198
0.3040371835231781 0.70835518836975098 0.63347285985946655
0.45302453637123108 0.71373587846755981 0.61279588937759399
0.59479105472564697 0.72370952367782593 0.56871461868286133
0.78866696357727051 0.72724288702011108 0.51412880420684814
0.9340507984161377 0.73358863592147827 0.48817703127861023
0.99861335754394531 0.73993527889251709 0.44920086860656738
0.35638487339019775 0.87888401746749878 0.72718536853790283
0.41530522704124451 0.87938708066940308 0.71748965978622437
0.52369934320449829 0.88233476877212524 0.69378167390823364
0.65033620595932007 0.87986660003662109 0.62391310930252075
0.81944000720977783 0.87276202440261841 0.52297800779342651
0.97863829135894775 0.85409116744995117 0.48833706974983215
0.99976378679275513 0.84796535968780518 0.45594003796577454
0.42626646161079407 0.98670125007629395 0.76391845941543579
0.47490301728248596 0.98233711719512939 0.74778443574905396
0.56953775882720947 0.98709678649902344 0.71269947290420532
0.67017149925231934 0.97432011365890503 0.62041240930557251
0.79466837644577026 0.98875969648361206 0.49461695551872253
0.97872376441955566 0.95988911390304565 0.4297785758972168
0.99945557117462158 0.93100041151046753 0.40539482235908508
0 0.16298891603946686 0.46293142437934875
0 0.18837924301624298 0.47862887382507324
0.00019914215954486281 0.22743323445320129 0.49265807867050171
0.0079909525811672211 0.26636600494384766 0.52510565519332886
0.16480126976966858 0.30769810080528259 0.63859689235687256
0.45908236503601074 0.36158418655395508 0.78030824661254883
0.72084331512451172 0.41073492169380188 0.94189232587814331
0 0.2321944534778595 0.41233557462692261
0 0.25312229990959167 0.44568726420402527
9.5262716058641672e-05 0.29340597987174988 0.49645626544952393
0.012711439281702042 0.32773137092590332 0.53335094451904297
0.24547992646694183 0.35657426714897156 0.63996803760528564
0.520305335521698 0.40605875849723816 0.78356820344924927
0.75603663921356201 0.45197510719299316 0.92830938100814819
0.000359987752744928 0.35465866327285767 0.39219006896018982
0.0010019190376624465 0.37495428323745728 0.42085927724838257
0.00641632080078125 0.41262108087539673 0.49126753211021423
0.06149045005440712 0.44565430283546448 0.56160080432891846
0.39563527703285217 0.46846193075180054 0.64939820766448975
0.63725602626800537 0.50207209587097168 0.78680223226547241
0.83894228935241699 0.52741646766662598 0.92554563283920288
0.074973523616790771 0.51875585317611694 0.52818107604980469
0.10347168892621994 0.52470296621322632 0.5309566855430603
0.20435507595539093 0.54885029792785645 0.53658485412597656
0.34015640616416931 0.58343505859375 0.58130323886871338
0.57410252094268799 0.60005545616149902 0.66868162155151367
0.77000963687896729 0.61418318748474121 0.7885591983795166
0.93686008453369141 0.63030719757080078 0.89070212841033936
0.3385145366191864 0.70948308706283569 0.65912383794784546
0.39117595553398132 0.7142903208732605 0.66267514228820801
0.49803867936134338 0.71950018405914307 0.66565728187561035
0.61042851209640503 0.73070812225341797 0.67337954044342041
0.7526509165763855 0.74388086795806885 0.68074429035186768
0.90162748098373413 0.74556958675384521 0.70750719308853149
0.99524432420730591 0.74033522605895996 0.71564936637878418
0.38478592038154602 0.88232076168060303 0.8251374363899231
0.43624749779701233 0.88250726461410522 0.8199884295463562
0.54382038116455078 0.87651944160461426 0.79157239198684692
0.65960943698883057 0.87741744518280029 0.76891595125198364
0.79898655414581299 0.8800966739654541 0.72023272514343262
0.95452165603637695 0.86641907691955566 0.650981605052948
0.99940735101699829 0.85867393016815186 0.61199402809143066
0.44123193621635437 0.99167394638061523 0.86569136381149292
0.48492178320884705 0.98472058773040771 0.85202711820602417
0.57514709234237671 0.98628675937652588 0.83372527360916138
0.67291772365570068 0.98587572574615479 0.80809211730957031
0.79818475246429443 0.9828944206237793 0.72944241762161255
0.93636977672576904 0.96977841854095459 0.61199700832366943
0.99701827764511108 0.94328451156616211 0.57998359203338623
0 0.21759334206581116 0.57786434888839722
0 0.24080093204975128 0.59614890813827515
0 0.28719180822372437 0.61509203910827637
0.00025464227655902505 0.33260825276374817 0.63033044338226318
0.034910898655653 0.38175675272941589 0.70451194047927856
0.36389040946960449 0.4231242835521698 0.82847529649734497
0.62973666191101074 0.47238549590110779 0.95588940382003784
0 0.28654006123542786 0.54120075702667236
0 0.30696547031402588 0.56667941808700562
0 0.35335040092468262 0.62180852890014648
0.00058839085977524519 0.39032837748527527 0.65222293138504028
0.058793835341930389 0.43320626020431519 0.706512451171875
0.425010085105896 0.46535417437553406 0.83027279376983643
0.69648605585098267 0.51070821285247803 0.97201758623123169
0 0.41284552216529846 0.51371818780899048
0 0.42886063456535339 0.5437924861907959
0.0013047611573711038 0.46875917911529541 0.60997164249420166
0.005850563757121563 0.50704610347747803 0.68340718746185303
0.13878388702869415 0.53928649425506592 0.73066806793212891
0.54419785737991333 0.5538056492805481 0.8343130350112915
0.77641028165817261 0.58220654726028442 0.97206825017929077
0.035501830279827118 0.5637086033821106 0.58069217205047607
0.030359081923961639 0.57324409484863281 0.57765430212020874
0.072431646287441254 0.60200828313827515 0.60912930965423584
0.15507878363132477 0.6388469934463501 0.68266242742538452
0.27921709418296814 0.66489017009735107 0.76640325784683228
0.67204350233078003 0.66303694248199463 0.83928847312927246
0.86991375684738159 0.67664843797683716 0.96468639373779297
0.36730846762657166 0.7270471453666687 0.71229439973831177
0.39178177714347839 0.72926253080368042 0.71394473314285278
0.45105883479118347 0.74181008338928223 0.72215843200683594
0.53799819946289062 0.76023989915847778 0.72670012712478638
0.61818581819534302 0.78457194566726685 0.76448678970336914
0.80277633666992188 0.78300315141677856 0.83533430099487305
0.96405673027038574 0.77742040157318115 0.93755364418029785
0.48900848627090454 0.8767096996307373 0.81694775819778442
0.52553534507751465 0.87690240144729614 0.81296318769454956
0.60341942310333252 0.87967771291732788 0.80940431356430054
0.7010422945022583 0.87975215911865234 0.8156319260597229
0.81221890449523926 0.88220703601837158 0.81258183717727661
0.93104499578475952 0.88088923692703247 0.80686873197555542
0.99787324666976929 0.8679128885269165 0.82919645309448242
0.45509475469589233 0.98872113227844238 0.95296436548233032
0.50148588418960571 0.98864465951919556 0.94536405801773071
0.58157110214233398 0.98742282390594482 0.929790198802948
0.68608903884887695 0.98657172918319702 0.90226775407791138
0.80528777837753296 0.9813380241394043 0.86756622791290283
0.91998660564422607 0.97097599506378174 0.79709243774414062
0.99837732315063477 0.94694811105728149 0.72904706001281738
0 0.2785947322845459 0.67388653755187988
0 0.30823162198066711 0.72672057151794434
0 0.36152678728103638 0.74714082479476929
0 0.40147256851196289 0.76462471485137939
0.0098445368930697441 0.45414289832115173 0.80220955610275269
0.12461873888969421 0.50610893964767456 0.89173394441604614
0.5837557315826416 0.54001414775848389 0.99205225706100464
0 0.34786784648895264 0.67921650409698486
0 0.36655232310295105 0.70225310325622559
0 0.40743234753608704 0.75088709592819214
0 0.45856544375419617 0.78287756443023682
0.0041282805614173412 0.50723230838775635 0.81529301404953003
0.1749882698059082 0.54591035842895508 0.89547073841094971
0.61291134357452393 0.5614740252494812 0.98277759552001953
0 0.47182047367095947 0.65039503574371338
0 0.48336002230644226 0.6791149377822876
0 0.51796180009841919 0.73309391736984253
3.2312731491401792e-05 0.5640379786491394 0.80579572916030884
0.038564331829547882 0.60737353563308716 0.84953886270523071
0.3193296492099762 0.62844681739807129 0.90301501750946045
0.68608689308166504 0.6403624415397644 0.99215060472488403
0.00020769904949702322 0.61176574230194092 0.64566987752914429
0.0022221733815968037 0.62248975038528442 0.66575509309768677
0.010062438435852528 0.65076649188995361 0.71528512239456177
0.011489733122289181 0.68623447418212891 0.79102009534835815
0.061318118125200272 0.72763240337371826 0.87787741422653198
0.42725092172622681 0.73113042116165161 0.91258382797241211
0.77231234312057495 0.72493958473205566 0.98478013277053833
0.1359580010175705 0.76419723033905029 0.78423786163330078
0.13968566060066223 0.77251303195953369 0.7799612283706665
0.22539936006069183 0.78697305917739868 0.77471911907196045
0.32529839873313904 0.80664300918579102 0.78371125459671021
0.3981417715549469 0.83055740594863892 0.85012423992156982
0.56699937582015991 0.85211700201034546 0.93169844150543213
0.88311553001403809 0.82225584983825684 0.97940176725387573
0.55044519901275635 0.88558340072631836 0.84453690052032471
0.56839734315872192 0.88618391752243042 0.84783422946929932
0.61002171039581299 0.89174950122833252 0.86557531356811523
0.66525185108184814 0.89812397956848145 0.86998903751373291
0.74015176296234131 0.90703374147415161 0.86141318082809448
0.80246818065643311 0.92143386602401733 0.88817018270492554
0.96005362272262573 0.9035833477973938 0.9457586407661438
0.57484573125839233 0.98427212238311768 0.9200628399848938
0.59796059131622314 0.98449814319610596 0.92417752742767334
0.67153477668762207 0.98483526706695557 0.91018408536911011
0.73938494920730591 0.98416262865066528 0.91429430246353149
0.83496499061584473 0.97653049230575562 0.90276622772216797
0.92803806066513062 0.96602165699005127 0.88556689023971558
0.99553000926971436 0.95297986268997192 0.87101304531097412
