assets/lut/creative softwarming.cube
# Created by: G'MIC (https://gmic.eu)
TITLE "softwarming"
# LUT size
LUT_3D_SIZE 5
# Data domain
DOMAIN_MIN 0.0 0.0 0.0
DOMAIN_MAX 1.0 1.0 1.0
# LUT data points
0.10679607093334198 0.079034529626369476 0.09511808305978775
0.30647733807563782 0.08749312162399292 0.10732810944318771
0.49672180414199829 0.095152430236339569 0.11851051449775696
0.68179690837860107 0.10525818169116974 0.13062892854213715
0.8637542724609375 0.11390605568885803 0.13577951490879059
0.12752319872379303 0.27195921540260315 0.11563487350940704
0.32661676406860352 0.28076842427253723 0.12465685606002808
0.51594537496566772 0.28890147805213928 0.13455827534198761
0.6996694803237915 0.30188214778900146 0.14735403656959534
0.88120794296264648 0.31319388747215271 0.15257969498634338
0.15020053088665009 0.47015172243118286 0.13666670024394989
0.34716856479644775 0.47876274585723877 0.14480404555797577
0.53413867950439453 0.48764115571975708 0.15254133939743042
0.71587508916854858 0.50039798021316528 0.16168224811553955
0.89655083417892456 0.51256126165390015 0.16443829238414764
0.17199704051017761 0.67407160997390747 0.15898950397968292
0.36792677640914917 0.68366575241088867 0.16750606894493103
0.55321305990219116 0.69369429349899292 0.17184878885746002
0.73360437154769897 0.70515561103820801 0.1751381903886795
0.91304755210876465 0.71668088436126709 0.17339842021465302
0.18641023337841034 0.88125467300415039 0.17398528754711151
0.38304334878921509 0.89232361316680908 0.18250831961631775
0.56899428367614746 0.90317201614379883 0.18430176377296448
0.74970555305480957 0.91420525312423706 0.183244988322258
0.92857950925827026 0.92466068267822266 0.17682461440563202
0.10922212898731232 0.076421760022640228 0.285238116979599
0.31059378385543823 0.089394301176071167 0.29626861214637756
0.50134927034378052 0.098626501858234406 0.30768066644668579
0.68558007478713989 0.10718508064746857 0.31983605027198792
0.86738240718841553 0.11460071802139282 0.32597088813781738
0.13045583665370941 0.2710966169834137 0.30375564098358154
0.32967126369476318 0.28423428535461426 0.31015697121620178
0.51859384775161743 0.29279038310050964 0.32160469889640808
0.70085108280181885 0.30236893892288208 0.33480936288833618
0.88261145353317261 0.31256577372550964 0.34281909465789795
0.15677493810653687 0.47318702936172485 0.32497072219848633
0.35108113288879395 0.48289433121681213 0.33059287071228027
0.53658604621887207 0.49117597937583923 0.33950823545455933
0.71698278188705444 0.50127911567687988 0.35040569305419922
0.89793246984481812 0.51295953989028931 0.35722702741622925
0.18086744844913483 0.67822343111038208 0.34874528646469116
0.37343397736549377 0.68739897012710571 0.35565647482872009
0.55697351694107056 0.69656461477279663 0.36089012026786804
0.73646539449691772 0.70706182718276978 0.36693647503852844
0.91658729314804077 0.71845054626464844 0.36968323588371277
0.19732432067394257 0.88611185550689697 0.3659115731716156
0.39159205555915833 0.89633280038833618 0.3745427131652832
0.57587724924087524 0.90639346837997437 0.3779868483543396
0.75587540864944458 0.91703677177429199 0.37964081764221191
0.93545490503311157 0.92769801616668701 0.37747785449028015
0.11567156761884689 0.08109225332736969 0.46923545002937317
0.31515049934387207 0.092700362205505371 0.479622483253479
0.5046994686126709 0.10109420120716095 0.49010223150253296
0.68786656856536865 0.10852286964654922 0.50071859359741211
0.86940550804138184 0.11544609814882278 0.50747835636138916
0.1389227956533432 0.27835172414779663 0.48743936419487
0.33434298634529114 0.28845697641372681 0.49374175071716309
0.52137869596481323 0.29594311118125916 0.50357800722122192
0.7028241753578186 0.30330383777618408 0.51504963636398315
0.88420289754867554 0.31223788857460022 0.52385836839675903
0.16251221299171448 0.47884544730186462 0.50752907991409302
0.35391467809677124 0.48729115724563599 0.51267462968826294
0.53824919462203979 0.49483615159988403 0.52084004878997803
0.71944928169250488 0.50357145071029663 0.53159010410308838
0.90163528919219971 0.51453244686126709 0.54075735807418823
0.18517175316810608 0.68310725688934326 0.52975887060165405
0.37492069602012634 0.69171738624572754 0.53602910041809082
0.55800747871398926 0.70024746656417847 0.54218631982803345
0.7393108606338501 0.71009337902069092 0.54992830753326416
0.92113566398620605 0.72108221054077148 0.55658382177352905
0.20232503116130829 0.8907085657119751 0.54766064882278442
0.39413309097290039 0.90046209096908569 0.55647903680801392
0.5779535174369812 0.9099956750869751 0.56185662746429443
0.75913882255554199 0.92008864879608154 0.56656759977340698
0.9398311972618103 0.93036448955535889 0.56860703229904175
0.12262026965618134 0.088328041136264801 0.651772141456604
0.32046511769294739 0.096769921481609344 0.66190457344055176
0.50858479738235474 0.10360388457775116 0.67137211561203003
0.69187909364700317 0.11276590824127197 0.68147104978561401
0.87350165843963623 0.12115940451622009 0.68883579969406128
0.14683337509632111 0.28609761595726013 0.67022919654846191
0.34046095609664917 0.29216566681861877 0.67683237791061401
0.5260918140411377 0.29814544320106506 0.68522298336029053
0.70850521326065063 0.30833691358566284 0.69655495882034302
0.8907400369644165 0.31928685307502747 0.70654201507568359
0.16745255887508392 0.48457440733909607 0.68880867958068848
0.35722634196281433 0.49079224467277527 0.69442826509475708
0.54164212942123413 0.49759641289710999 0.70199728012084961
0.72477990388870239 0.50800424814224243 0.71305644512176514
0.9078252911567688 0.51973658800125122 0.72384321689605713
0.18796147406101227 0.68764334917068481 0.70864981412887573
0.37457489967346191 0.69566655158996582 0.71516913175582886
0.55887579917907715 0.70392829179763794 0.72236424684524536
0.74298465251922607 0.71410363912582397 0.73159146308898926
0.92597293853759766 0.7246851921081543 0.74106335639953613
0.2049146443605423 0.89433479309082031 0.7260749340057373
0.39440008997917175 0.9040108323097229 0.73551958799362183
0.57831263542175293 0.91336089372634888 0.74307948350906372
0.76135146617889404 0.92315614223480225 0.75050628185272217
0.94284600019454956 0.9326673150062561 0.7559015154838562
0.12205351144075394 0.091405011713504791 0.83315634727478027
0.32035002112388611 0.097487777471542358 0.84367591142654419
0.50874572992324829 0.10379991680383682 0.85313844680786133
0.6930229663848877 0.1150122731924057 0.86325663328170776
0.87467145919799805 0.12510405480861664 0.87039971351623535
0.1473204642534256 0.28945600986480713 0.85226720571517944
0.34238135814666748 0.29346334934234619 0.85980600118637085
0.52890044450759888 0.29887151718139648 0.86828076839447021
0.71265095472335815 0.31248313188552856 0.88026398420333862
0.89482492208480835 0.32455351948738098 0.89002472162246704
0.16747625172138214 0.48767521977424622 0.87045121192932129
0.35935783386230469 0.49318483471870422 0.87757807970046997
0.54499167203903198 0.49997338652610779 0.88603335618972778
0.72919493913650513 0.51207071542739868 0.89783436059951782
0.91199374198913574 0.52402818202972412 0.90826267004013062
0.18685568869113922 0.69021081924438477 0.88866817951202393
0.37587824463844299 0.69842052459716797 0.89720290899276733
0.56095224618911743 0.70682686567306519 0.90629726648330688
0.74551868438720703 0.71705728769302368 0.91708725690841675
0.92828905582427979 0.72724223136901855 0.92639482021331787
0.20284445583820343 0.89610332250595093 0.90453416109085083
0.39291644096374512 0.90630209445953369 0.91601258516311646
0.57734048366546631 0.91577720642089844 0.92577636241912842
0.76069915294647217 0.92503452301025391 0.93526732921600342
0.94197326898574829 0.93374878168106079 0.94168394804000854
