assets/lut/creative nightfromday.cube
# Created by: G'MIC (https://gmic.eu)
TITLE "nightfromday"
# LUT size
LUT_3D_SIZE 7
# Data domain
DOMAIN_MIN 0.0 0.0 0.0
DOMAIN_MAX 1.0 1.0 1.0
# LUT data points
0.0045942417345941067 0.0078979488462209702 0.022284310311079025
0.071208223700523376 0.0096917394548654556 0.035498406738042831
0.14151185750961304 0.019067037850618362 0.050312522798776627
0.19294127821922302 0.036406572908163071 0.053166992962360382
0.24913355708122253 0.043929126113653183 0.076738558709621429
0.30864515900611877 0.052743349224328995 0.090357102453708649
0.37003996968269348 0.070082403719425201 0.11004389077425003
0.0026915157213807106 0.07680772989988327 0.047814670950174332
0.062160119414329529 0.073057971894741058 0.049342554062604904
0.13165497779846191 0.075269274413585663 0.05615316703915596
0.18797053396701813 0.076486237347126007 0.065592147409915924
0.24743703007698059 0.079716116189956665 0.081826753914356232
0.30780124664306641 0.0848831906914711 0.098306290805339813
0.36987006664276123 0.10016931593418121 0.11883622407913208
0.0088575026020407677 0.1315707266330719 0.080122090876102448
0.064009197056293488 0.13085876405239105 0.078231409192085266
0.12765151262283325 0.13339522480964661 0.087038494646549225
0.18407705426216125 0.13184107840061188 0.092537567019462585
0.24393187463283539 0.13405780494213104 0.10086707025766373
0.30579379200935364 0.13745516538619995 0.11278153955936432
0.37002336978912354 0.15230071544647217 0.13075302541255951
0.005796095822006464 0.19239489734172821 0.11073756217956543
0.055226612836122513 0.19061370193958282 0.11495304852724075
0.12124630808830261 0.19051004946231842 0.11571133136749268
0.18323551118373871 0.1911439448595047 0.12217438966035843
0.2442518025636673 0.19515785574913025 0.13117675483226776
0.30869290232658386 0.20074662566184998 0.14440487325191498
0.38037946820259094 0.21164306998252869 0.16082048416137695
0.015845624729990959 0.25750130414962769 0.15439461171627045
0.058365330100059509 0.25719249248504639 0.1535857766866684
0.12573458254337311 0.25759804248809814 0.15758933126926422
0.18765875697135925 0.25893908739089966 0.16381946206092834
0.25504383444786072 0.26489713788032532 0.1704336553812027
0.31572186946868896 0.2747490406036377 0.18641272187232971
0.39468619227409363 0.2829405665397644 0.19867116212844849
0.02499409019947052 0.33690038323402405 0.20451883971691132
0.072782732546329498 0.33494320511817932 0.20402832329273224
0.1436518132686615 0.33908960223197937 0.20698271691799164
0.19764026999473572 0.34280267357826233 0.21573740243911743
0.27132925391197205 0.34145838022232056 0.22246493399143219
0.34080600738525391 0.35321027040481567 0.23559486865997314
0.41730976104736328 0.36876112222671509 0.25712400674819946
0.081209145486354828 0.43109047412872314 0.27414694428443909
0.11770779639482498 0.42806696891784668 0.26912567019462585
0.18312448263168335 0.43129387497901917 0.27024358510971069
0.2340279221534729 0.43312793970108032 0.28053018450737
0.29535019397735596 0.44000428915023804 0.2887471616268158
0.3674742579460144 0.45443245768547058 0.30549323558807373
0.45083653926849365 0.46714261174201965 0.33020061254501343
0.00031310436315834522 0.0066875233314931393 0.10945166647434235
0.051824219524860382 0.012719172984361649 0.11859451234340668
0.12606857717037201 0.023256085813045502 0.12440855801105499
0.18433420360088348 0.044262170791625977 0.13190080225467682
0.24206717312335968 0.049926504492759705 0.14081864058971405
0.30252471566200256 0.056743022054433823 0.14933647215366364
0.36609700322151184 0.069923907518386841 0.15692099928855896
0 0.077659532427787781 0.12058369070291519
0.045094896107912064 0.07518431544303894 0.12677258253097534
0.1192828044295311 0.076746955513954163 0.13094508647918701
0.18156811594963074 0.078572563827037811 0.13663879036903381
0.24091079831123352 0.08298434317111969 0.14120298624038696
0.30191132426261902 0.089242406189441681 0.15358515083789825
0.36460912227630615 0.10136747360229492 0.16509924829006195
1.4002182979311328e-05 0.13441161811351776 0.13883413374423981
0.038942314684391022 0.13327667117118835 0.1379382461309433
0.11406096071004868 0.1318134069442749 0.13975900411605835
0.17611564695835114 0.13405323028564453 0.14389270544052124
0.23937906324863434 0.13956227898597717 0.15259996056556702
0.30160990357398987 0.1413983553647995 0.16524624824523926
0.3668811023235321 0.15056365728378296 0.17870385944843292
7.9166187788359821e-05 0.19448995590209961 0.16114868223667145
0.03184204176068306 0.19497938454151154 0.16000485420227051
0.10906165838241577 0.19153940677642822 0.16153420507907867
0.17627277970314026 0.19178120791912079 0.1641562432050705
0.24005569517612457 0.19529160857200623 0.17106974124908447
0.30476966500282288 0.20136430859565735 0.18301346898078918
0.3769385814666748 0.21013003587722778 0.20150113105773926
0.00058613199507817626 0.26146993041038513 0.18723131716251373
0.035182010382413864 0.26044076681137085 0.19054664671421051
0.11427947133779526 0.26094663143157959 0.19328814744949341
0.18321356177330017 0.26188215613365173 0.19790998101234436
0.25038763880729675 0.26569154858589172 0.20653396844863892
0.31511303782463074 0.27456232905387878 0.2192007452249527
0.38569697737693787 0.28157269954681396 0.23123089969158173
0.00086599611677229404 0.33679243922233582 0.23121544718742371
0.046796642243862152 0.3358074426651001 0.23553851246833801
0.13181124627590179 0.33863255381584167 0.24061058461666107
0.19861777126789093 0.34347397089004517 0.24545730650424957
0.26460260152816772 0.34648182988166809 0.25343891978263855
0.33769217133522034 0.35365498065948486 0.2663818895816803
0.40785214304924011 0.37009179592132568 0.2837643027305603
0.04476827010512352 0.43208688497543335 0.29400196671485901
0.088878065347671509 0.43131881952285767 0.29750493168830872
0.16778253018856049 0.43361875414848328 0.30365869402885437
0.22573944926261902 0.43661719560623169 0.30680006742477417
0.29172191023826599 0.44191262125968933 0.31447175145149231
0.36420640349388123 0.45305246114730835 0.32559880614280701
0.44701108336448669 0.46683984994888306 0.35213461518287659
0.00060987286269664764 0.01024653110653162 0.19448870420455933
0.034714028239250183 0.018578803166747093 0.19878946244716644
0.10810068249702454 0.029761834070086479 0.20275981724262238
0.17257806658744812 0.044091872870922089 0.20418265461921692
0.23113246262073517 0.054123073816299438 0.20683774352073669
0.29310014843940735 0.061534643173217773 0.21686086058616638
0.3580799400806427 0.07131899893283844 0.22599583864212036
0 0.07554442435503006 0.19804371893405914
0.013703544624149799 0.07918095588684082 0.19948896765708923
0.093268662691116333 0.078510373830795288 0.20504897832870483
0.16671623289585114 0.080331765115261078 0.21006979048252106
0.22692263126373291 0.085555151104927063 0.21588407456874847
0.29187178611755371 0.091471880674362183 0.22535817325115204
0.35785546898841858 0.10012789070606232 0.23603895306587219
0.001190185546875 0.13434657454490662 0.20188286900520325
0.0075704385526478291 0.13451926410198212 0.20526018738746643
0.086654216051101685 0.13458406925201416 0.20783136785030365
0.15935829281806946 0.13656777143478394 0.21515198051929474
0.22525160014629364 0.13851256668567657 0.22585052251815796
0.29183903336524963 0.14243091642856598 0.23432150483131409
0.35956385731697083 0.15056328475475311 0.24496448040008545
0 0.19414432346820831 0.22386942803859711
0.0050956425257027149 0.19523619115352631 0.22503580152988434
0.080113478004932404 0.19213390350341797 0.22569763660430908
0.16047148406505585 0.19575870037078857 0.23073777556419373
0.22582030296325684 0.19963443279266357 0.23675629496574402
0.29503661394119263 0.20477008819580078 0.24665340781211853
0.36756759881973267 0.21412880718708038 0.26034694910049438
0 0.2584194540977478 0.24841892719268799
0.0048406114801764488 0.26038375496864319 0.24995361268520355
0.073007203638553619 0.26303508877754211 0.25221347808837891
0.16635854542255402 0.26250368356704712 0.25620710849761963
0.23858441412448883 0.26719498634338379 0.26676017045974731
0.30443722009658813 0.2728026807308197 0.27527633309364319
0.37816861271858215 0.28092634677886963 0.28768718242645264
0 0.33493542671203613 0.28656426072120667
0.0086320918053388596 0.33720472455024719 0.29046103358268738
0.087423451244831085 0.34290269017219543 0.29077687859535217
0.17756716907024384 0.34274476766586304 0.29543647170066833
0.25013622641563416 0.34770220518112183 0.30486610531806946
0.32473966479301453 0.35419771075248718 0.31795802712440491
0.39894396066665649 0.36772319674491882 0.33254477381706238
0.015109492465853691 0.43153712153434753 0.34210515022277832
0.042423352599143982 0.43698897957801819 0.34565895795822144
0.12387716025114059 0.43744254112243652 0.35276144742965698
0.2038283497095108 0.43857470154762268 0.35419556498527527
0.28009593486785889 0.44343361258506775 0.36354899406433105
0.35889521241188049 0.45317593216896057 0.37909150123596191
0.43995749950408936 0.46626207232475281 0.39698970317840576
0 0.018747935071587563 0.27394434809684753
0.003232365008443594 0.026770154014229774 0.27240774035453796
0.063506484031677246 0.038458012044429779 0.27447658777236938
0.1530841737985611 0.047964073717594147 0.27862685918807983
0.22049498558044434 0.058358915150165558 0.28120151162147522
0.28063681721687317 0.068387992680072784 0.28958168625831604
0.34403470158576965 0.078124776482582092 0.30251076817512512
0 0.079066917300224304 0.27843138575553894
0.00050015916349366307 0.080801360309123993 0.2775709331035614
0.049433868378400803 0.083119906485080719 0.27858603000640869
0.14295865595340729 0.084800049662590027 0.28238758444786072
0.21436376869678497 0.0904679074883461 0.28641772270202637
0.28034895658493042 0.0941590815782547 0.29508599638938904
0.34521159529685974 0.10407319664955139 0.31013208627700806
0.00035413855221122503 0.13449306786060333 0.27843138575553894
3.0517578125e-05 0.13500675559043884 0.28284233808517456
0.035746734589338303 0.1379486471414566 0.28217288851737976
0.14020039141178131 0.13600127398967743 0.2872193455696106
0.20977446436882019 0.14016877114772797 0.29269349575042725
0.27801075577735901 0.14396101236343384 0.30221310257911682
0.34769919514656067 0.15371961891651154 0.31749269366264343
0 0.19591741263866425 0.28977110981941223
1.7053940609912388e-05 0.19501610100269318 0.29289156198501587
0.037696793675422668 0.19475814700126648 0.29420965909957886
0.13113707304000854 0.1961757093667984 0.30011680722236633
0.20495115220546722 0.20177718997001648 0.31055670976638794
0.28258979320526123 0.20741873979568481 0.31998527050018311
0.35717576742172241 0.21799950301647186 0.33240804076194763
0 0.26108840107917786 0.31627777218818665
0 0.25963255763053894 0.31787541508674622
0.029404269531369209 0.26323804259300232 0.3218446671962738
0.13483345508575439 0.26564621925354004 0.32441192865371704
0.22059005498886108 0.2673448920249939 0.33181416988372803
0.2901839017868042 0.27366235852241516 0.34214890003204346
0.3675350546836853 0.28627941012382507 0.35444179177284241
0 0.33991241455078125 0.3527165949344635
5.0653194193728268e-05 0.33973038196563721 0.35191485285758972
0.029023937880992889 0.34271401166915894 0.3536134660243988
0.14121107757091522 0.34455746412277222 0.36064878106117249
0.23216305673122406 0.34968158602714539 0.36852949857711792
0.31428852677345276 0.35655364394187927 0.38076338171958923
0.3901677131652832 0.37022635340690613 0.39790469408035278
0.0011431226739659905 0.43590018153190613 0.4048125147819519
0.014628302305936813 0.43838343024253845 0.40617167949676514
0.072711840271949768 0.44044968485832214 0.41129386425018311
0.17309202253818512 0.44289201498031616 0.41825169324874878
0.26316380500793457 0.44716691970825195 0.42505568265914917
0.34630155563354492 0.45637065172195435 0.44194978475570679
0.42288997769355774 0.46891722083091736 0.45195809006690979
0 0.038608446717262268 0.3479025661945343
0.00070690078428015113 0.04005725309252739 0.34849339723587036
0.036247808486223221 0.04765758290886879 0.34898641705513
0.11775973439216614 0.055298987776041031 0.35243958234786987
0.20234280824661255 0.062698274850845337 0.35649088025093079
0.26755988597869873 0.073499806225299835 0.36300545930862427
0.33073234558105469 0.08651357889175415 0.37475767731666565
0.0025485767982900143 0.086193844676017761 0.35171568393707275
0 0.085035882890224457 0.35375192761421204
0.015216318890452385 0.087013408541679382 0.35451841354370117
0.090980574488639832 0.092411577701568604 0.35625222325325012
0.19247807562351227 0.096228085458278656 0.36319208145141602
0.26827877759933472 0.099801115691661835 0.36594399809837341
0.33062541484832764 0.11362620443105698 0.380126953125
0 0.13818857073783875 0.35701677203178406
0 0.13997870683670044 0.36023810505867004
0.0011161804432049394 0.14018937945365906 0.35972714424133301
0.082925803959369659 0.14132678508758545 0.36332270503044128
0.19284927845001221 0.14337244629859924 0.36740326881408691
0.26735109090805054 0.14841717481613159 0.37256869673728943
0.33434814214706421 0.16139517724514008 0.38923653960227966
0 0.19896863400936127 0.36402300000190735
0.00013976752234157175 0.19473491609096527 0.36744755506515503
0.00032169118640013039 0.1969650536775589 0.36791887879371643
0.071269571781158447 0.20085415244102478 0.37409824132919312
0.18048889935016632 0.20547851920127869 0.38133910298347473
0.26958101987838745 0.20835338532924652 0.3901887834072113
0.34533441066741943 0.2213129997253418 0.40751853585243225
0 0.26403632760047913 0.38472327589988708
0.001078437315300107 0.26251387596130371 0.38165467977523804
0.0027868831530213356 0.2654411792755127 0.39068621397018433
0.084898777306079865 0.2665565013885498 0.39838173985481262
0.19054965674877167 0.27398860454559326 0.40711340308189392
0.27144452929496765 0.28088763356208801 0.4185788631439209
0.35409855842590332 0.28896501660346985 0.43430587649345398
0 0.3425959050655365 0.4220588207244873
0 0.3420274555683136 0.42460787296295166
0.00040525547228753567 0.34483253955841064 0.42640039324760437
0.092348329722881317 0.34703895449638367 0.43260997533798218
0.2080739289522171 0.35520815849304199 0.44284537434577942
0.29407516121864319 0.36233830451965332 0.45319417119026184
0.37186229228973389 0.37377628684043884 0.4701324999332428
0 0.43655496835708618 0.47376939654350281
0.0022815479896962643 0.43963831663131714 0.47527143359184265
0.028050875291228294 0.44091606140136719 0.48034703731536865
0.13017186522483826 0.44434717297554016 0.48933857679367065
0.23892410099506378 0.45014110207557678 0.49781081080436707
0.33250361680984497 0.46239408850669861 0.5101354718208313
0.41324314475059509 0.47177585959434509 0.52582836151123047
0 0.057821806520223618 0.42228475213050842
0.0018226773245260119 0.057104628533124924 0.42498406767845154
0.016815964132547379 0.060537286102771759 0.42513939738273621
0.071569688618183136 0.065114043653011322 0.42837482690811157
0.16119959950447083 0.070269219577312469 0.43187722563743591
0.24009741842746735 0.08068026602268219 0.43826550245285034
0.31545841693878174 0.095548234879970551 0.44884774088859558
0.0035603393334895372 0.094263516366481781 0.42829990386962891
0.00048639634042046964 0.092678159475326538 0.43029943108558655
0.00065267225727438927 0.093724042177200317 0.43042132258415222
0.038456786423921585 0.097221046686172485 0.42968657612800598
0.14869724214076996 0.098875351250171661 0.43493512272834778
0.24423839151859283 0.10455171018838882 0.44096922874450684
0.31473928689956665 0.12081125378608704 0.45370838046073914
0 0.14567908644676208 0.43533620238304138
7.2763483331073076e-05 0.14692780375480652 0.43804618716239929
0 0.14642362296581268 0.43813708424568176
0.02875671349465847 0.14566493034362793 0.43836286664009094
0.14748746156692505 0.14616420865058899 0.44314837455749512
0.24431075155735016 0.1503518670797348 0.44941642880439758
0.31951043009757996 0.16326749324798584 0.46434080600738525
0 0.199920654296875 0.44598281383514404
0.00086203182581812143 0.19712695479393005 0.44667732715606689
0.00020880605734419078 0.19865883886814117 0.44783544540405273
0.026608007028698921 0.20257994532585144 0.45116853713989258
0.14043219387531281 0.20696713030338287 0.45911264419555664
0.242728590965271 0.21143583953380585 0.46716794371604919
0.32914403080940247 0.22044886648654938 0.48313507437705994
0 0.26534256339073181 0.46529412269592285
0.00072256347630172968 0.2655012309551239 0.46185225248336792
0 0.26653018593788147 0.46446296572685242
0.012296340428292751 0.27081477642059326 0.47233307361602783
0.14666426181793213 0.27438411116600037 0.48280906677246094
0.24327681958675385 0.28319188952445984 0.49292001128196716
0.33720415830612183 0.29112282395362854 0.50939786434173584
0 0.34533300995826721 0.49655866622924805
0.00031636556377634406 0.34864950180053711 0.49186572432518005
0 0.34701347351074219 0.49398511648178101
0.029066991060972214 0.35042959451675415 0.5023428201675415
0.16777642071247101 0.35653015971183777 0.51416671276092529
0.26417791843414307 0.36668577790260315 0.52748066186904907
0.35141211748123169 0.37911173701286316 0.54714900255203247
0 0.44211733341217041 0.54524350166320801
0.0031618005596101284 0.44084382057189941 0.54955661296844482
0.0022162343375384808 0.44199627637863159 0.55412060022354126
0.053784240037202835 0.44926729798316956 0.56160181760787964
0.19414475560188293 0.45265999436378479 0.56974709033966064
0.30411022901535034 0.46257960796356201 0.58122611045837402
0.39313957095146179 0.47451028227806091 0.59955382347106934
0 0.065080516040325165 0.50127238035202026
0 0.070067189633846283 0.50220590829849243
0.00076759187504649162 0.076877132058143616 0.50610876083374023
0.018767323344945908 0.082539528608322144 0.50938421487808228
0.091431304812431335 0.088684692978858948 0.51463943719863892
0.20002789795398712 0.094088159501552582 0.5184522271156311
0.29677248001098633 0.10850445926189423 0.52771764993667603
0 0.097662918269634247 0.50413602590560913
0 0.097843393683433533 0.5039253830909729
0 0.10452529042959213 0.50636893510818481
0.00014908734010532498 0.10994386672973633 0.51007366180419922
0.077490068972110748 0.11216762661933899 0.51402872800827026
0.21019542217254639 0.11199440807104111 0.51931166648864746
0.30066347122192383 0.12988382577896118 0.53228962421417236
0 0.14642174541950226 0.51242309808731079
0 0.14854054152965546 0.51218605041503906
0 0.15109094977378845 0.51286572217941284
0.0031280217226594687 0.15084470808506012 0.51380258798599243
0.086821340024471283 0.15515802800655365 0.52006322145462036
0.20826101303100586 0.15661764144897461 0.52823126316070557
0.30226224660873413 0.16929249465465546 0.54322618246078491
0 0.20203506946563721 0.52567428350448608
0.00025969860143959522 0.20546978712081909 0.52483189105987549
0 0.20812726020812988 0.52573531866073608
0.0044914544560015202 0.206925168633461 0.52651482820510864
0.090304628014564514 0.21382094919681549 0.53549599647521973
0.20420441031455994 0.21766427159309387 0.54457926750183105
0.30483177304267883 0.22480246424674988 0.55995815992355347
0 0.2698121964931488 0.54636824131011963
0 0.27197176218032837 0.54258376359939575
0 0.27291613817214966 0.54516464471817017
4.3173396989004686e-05 0.27594098448753357 0.55244630575180054
0.094513431191444397 0.28126111626625061 0.5606924295425415
0.21213763952255249 0.28578284382820129 0.56742674112319946
0.3146594762802124 0.29347792267799377 0.58229094743728638
0 0.34938931465148926 0.57726585865020752
0.00055525539210066199 0.34507524967193604 0.57506340742111206
0 0.34827762842178345 0.57266855239868164
0.0020022373646497726 0.35275167226791382 0.58648467063903809
0.11216412484645844 0.36515641212463379 0.59380227327346802
0.22683806717395782 0.37533217668533325 0.60706692934036255
0.33066320419311523 0.38470545411109924 0.62645071744918823
0 0.44494575262069702 0.62044376134872437
0.0036032134667038918 0.44208115339279175 0.62194240093231201
0 0.44523590803146362 0.62467449903488159
0.012321082875132561 0.45301249623298645 0.63781213760375977
0.14048552513122559 0.46006283164024353 0.64643186330795288
0.26571559906005859 0.47119823098182678 0.65883582830429077
0.37339234352111816 0.48305296897888184 0.68211036920547485
