assets/lut/creative latesunset.cube
# Created by: G'MIC (https://gmic.eu)
TITLE "latesunset"
# LUT size
LUT_3D_SIZE 13
# Data domain
DOMAIN_MIN 0.0 0.0 0.0
DOMAIN_MAX 1.0 1.0 1.0
# LUT data points
0.01308415737003088 0.0080825053155422211 0.021689590066671371
0.053925860673189163 0.0081956600770354271 0.032501071691513062
0.10028695315122604 0.0092759821563959122 0.054644893854856491
0.13684697449207306 0.012082836590707302 0.092980407178401947
0.17187857627868652 0.012122779153287411 0.13209888339042664
0.2110617458820343 0.0045717274770140648 0.1532571017742157
0.25194945931434631 0.00023579316621180624 0.16095201671123505
0.29257658123970032 0 0.16619774699211121
0.33453339338302612 7.62939453125e-05 0.17107480764389038
0.37913355231285095 0.0034557417966425419 0.17614854872226715
0.42779138684272766 0.017984950914978981 0.18135169148445129
0.4813898503780365 0.041619095951318741 0.18654105067253113
0.53971278667449951 0.070283912122249603 0.19278246164321899
0.017547262832522392 0.041860140860080719 0.057172093540430069
0.057612236589193344 0.039241760969161987 0.074050158262252808
0.099368453025817871 0.037602219730615616 0.09734712541103363
0.14035114645957947 0.034036703407764435 0.12245837599039078
0.18151594698429108 0.027868397533893585 0.14640140533447266
0.22218482196331024 0.021644158288836479 0.15943272411823273
0.26167425513267517 0.015595783479511738 0.16475026309490204
0.30054861307144165 0.011900090612471104 0.1692538857460022
0.34178975224494934 0.015780819579958916 0.17384184896945953
0.38592630624771118 0.027122886851429939 0.17915172874927521
0.43381050229072571 0.042884811758995056 0.18590237200260162
0.48785975575447083 0.064505651593208313 0.19174419343471527
0.54817289113998413 0.092663079500198364 0.19770030677318573
0.05186869204044342 0.076001137495040894 0.12164315581321716
0.083587944507598877 0.072007603943347931 0.13099017739295959
0.11670524626970291 0.068913750350475311 0.1406233012676239
0.15477475523948669 0.063579201698303223 0.14992429316043854
0.1957831084728241 0.058376610279083252 0.15880885720252991
0.23485811054706573 0.055474717170000076 0.16433623433113098
0.27184221148490906 0.052115421742200851 0.16810862720012665
0.31011447310447693 0.049293696880340576 0.17213383316993713
0.35195308923721313 0.053147334605455399 0.17603595554828644
0.39692723751068115 0.063391141593456268 0.18124052882194519
0.44475740194320679 0.075639612972736359 0.18944776058197021
0.4996890127658844 0.09466080367565155 0.19639910757541656
0.56249582767486572 0.12179179489612579 0.2018912136554718
0.10242408514022827 0.10602366179227829 0.16116476058959961
0.12004761397838593 0.10459582507610321 0.16328324377536774
0.14519768953323364 0.10141114145517349 0.1657295823097229
0.17779508233070374 0.097091346979141235 0.16735422611236572
0.21307915449142456 0.095970660448074341 0.16885018348693848
0.24839477241039276 0.095944210886955261 0.1710447371006012
0.28347131609916687 0.094493895769119263 0.17423857748508453
0.32187935709953308 0.092647239565849304 0.17797157168388367
0.36537763476371765 0.096874848008155823 0.18086956441402435
0.41250622272491455 0.1058519259095192 0.18538330495357513
0.46220654249191284 0.11682985723018646 0.19275644421577454
0.51925498247146606 0.13420510292053223 0.19902287423610687
0.58482128381729126 0.16000258922576904 0.20451723039150238
0.1430673748254776 0.14071275293827057 0.17776751518249512
0.15575312077999115 0.14206357300281525 0.17794887721538544
0.17463527619838715 0.13956637680530548 0.17820183932781219
0.20240835845470428 0.13476285338401794 0.17933745682239532
0.23311798274517059 0.1345827579498291 0.17971982061862946
0.26528716087341309 0.13502568006515503 0.18144959211349487
0.29956060647964478 0.13525049388408661 0.18491251766681671
0.33905875682830811 0.13687609136104584 0.18765521049499512
0.38443461060523987 0.14232057332992554 0.18973170220851898
0.43324512243270874 0.15131056308746338 0.19334618747234344
0.48582664132118225 0.16413915157318115 0.19799180328845978
0.54611462354660034 0.18333277106285095 0.20132946968078613
0.6158936619758606 0.20841088891029358 0.20660609006881714
0.18059706687927246 0.18011537194252014 0.18836066126823425
0.19356261193752289 0.1806025356054306 0.18843649327754974
0.20809711515903473 0.17994089424610138 0.18850301206111908
0.2315153181552887 0.17752790451049805 0.1909966766834259
0.26069739460945129 0.17826394736766815 0.19051259756088257
0.29369178414344788 0.17953743040561676 0.19157744944095612
0.32812666893005371 0.18094499409198761 0.19601772725582123
0.36864516139030457 0.18599797785282135 0.19841906428337097
0.4150393009185791 0.19375190138816833 0.2001771479845047
0.46491080522537231 0.2043844610452652 0.20297329127788544
0.51924610137939453 0.22012171149253845 0.20427840948104858
0.58180338144302368 0.24226716160774231 0.20420092344284058
0.65583008527755737 0.26780304312705994 0.20875805616378784
0.22292186319828033 0.22419032454490662 0.19832964241504669
0.23338256776332855 0.2240184098482132 0.19778625667095184
0.25030553340911865 0.22454485297203064 0.19918055832386017
0.27450734376907349 0.22570778429508209 0.20132133364677429
0.30350849032402039 0.22893707454204559 0.19959025084972382
0.33927229046821594 0.23215740919113159 0.19920644164085388
0.37554621696472168 0.23682141304016113 0.2043093740940094
0.41612634062767029 0.24492169916629791 0.20700167119503021
0.46317270398139954 0.25540181994438171 0.21017087996006012
0.51439589262008667 0.26794338226318359 0.21407642960548401
0.57142919301986694 0.28498086333274841 0.21404366195201874
0.63884437084197998 0.30674886703491211 0.20769527554512024
0.71534448862075806 0.33656340837478638 0.19725479185581207
0.28586101531982422 0.28212428092956543 0.20919565856456757
0.29344332218170166 0.28341183066368103 0.21045252680778503
0.31136319041252136 0.28497439622879028 0.2100040465593338
0.33580467104911804 0.28700399398803711 0.20966242253780365
0.36301085352897644 0.29067143797874451 0.21105390787124634
0.39979541301727295 0.29647555947303772 0.2095167487859726
0.43926733732223511 0.30461019277572632 0.2107539176940918
0.48049625754356384 0.31410318613052368 0.21237458288669586
0.52909213304519653 0.32617640495300293 0.21299742162227631
0.58472466468811035 0.34261080622673035 0.21187789738178253
0.64721095561981201 0.36140197515487671 0.19925695657730103
0.71978873014450073 0.38397616147994995 0.16880093514919281
0.79703634977340698 0.4202730655670166 0.14247481524944305
0.37188628315925598 0.35615378618240356 0.22140206396579742
0.38208550214767456 0.35875231027603149 0.22417734563350677
0.39971446990966797 0.36184465885162354 0.22044865787029266
0.41982769966125488 0.36373206973075867 0.21683350205421448
0.44359320402145386 0.36637628078460693 0.21638989448547363
0.47602352499961853 0.37327781319618225 0.21392293274402618
0.52018201351165771 0.38479417562484741 0.20883400738239288
0.56649744510650635 0.39637422561645508 0.19649726152420044
0.61475300788879395 0.40790632367134094 0.18588179349899292
0.67600911855697632 0.42755967378616333 0.16419696807861328
0.74432623386383057 0.45190489292144775 0.13473653793334961
0.8109174370765686 0.48126450181007385 0.10612902045249939
0.87871062755584717 0.52090281248092651 0.11334228515625
0.48348602652549744 0.45013138651847839 0.19915308058261871
0.49748063087463379 0.45352280139923096 0.1980975866317749
0.51399189233779907 0.45787045359611511 0.19322364032268524
0.53294211626052856 0.45946985483169556 0.18627014756202698
0.55623507499694824 0.46309620141983032 0.18067814409732819
0.589286208152771 0.47185751795768738 0.16784539818763733
0.63327127695083618 0.48507750034332275 0.15395157039165497
0.68160152435302734 0.50199395418167114 0.13757301867008209
0.7296828031539917 0.51760184764862061 0.12546640634536743
0.78558629751205444 0.53813302516937256 0.1132327988743782
0.84470242261886597 0.56575924158096313 0.11448108404874802
0.89796733856201172 0.59978193044662476 0.14214107394218445
0.9491506814956665 0.63784700632095337 0.19510313868522644
0.62742245197296143 0.57041186094284058 0.12597706913948059
0.63451635837554932 0.57406407594680786 0.13117629289627075
0.64902925491333008 0.57881772518157959 0.12389474362134933
0.66232126951217651 0.58192718029022217 0.12810902297496796
0.67966580390930176 0.58694648742675781 0.13996438682079315
0.70993697643280029 0.59669822454452515 0.12871672213077545
0.74913400411605835 0.60970497131347656 0.12090953439474106
0.7903251051902771 0.62695026397705078 0.14382718503475189
0.8301200270652771 0.64700549840927124 0.15981921553611755
0.87107062339782715 0.6719321608543396 0.18538938462734222
0.91206270456314087 0.7006688117980957 0.23184074461460114
0.95339661836624146 0.73219776153564453 0.28865915536880493
0.99009221792221069 0.76367312669754028 0.34957396984100342
0.73123574256896973 0.71154975891113281 0.18468388915061951
0.73611444234848022 0.71436101198196411 0.1869695782661438
0.74661743640899658 0.7172539234161377 0.1814359724521637
0.75625461339950562 0.719707190990448 0.19481970369815826
0.76813340187072754 0.72627478837966919 0.22006483376026154
0.79093843698501587 0.73957979679107666 0.23825812339782715
0.8217933177947998 0.75398123264312744 0.26073160767555237
0.85291934013366699 0.76748758554458618 0.28954336047172546
0.88181787729263306 0.78620576858520508 0.32208862900733948
0.91312193870544434 0.80888617038726807 0.36263301968574524
0.94489467144012451 0.83260715007781982 0.41308173537254333
0.97545182704925537 0.85492050647735596 0.45600956678390503
0.99743610620498657 0.87754631042480469 0.4997984766960144
0.78076183795928955 0.85856533050537109 0.37956753373146057
0.78449755907058716 0.86033910512924194 0.38635587692260742
0.78992623090744019 0.86091822385787964 0.38854876160621643
0.8004688024520874 0.86256504058837891 0.39342567324638367
0.81306028366088867 0.86916631460189819 0.41095095872879028
0.83082455396652222 0.88205265998840332 0.43714958429336548
0.85387551784515381 0.89535737037658691 0.46457776427268982
0.87759852409362793 0.90617698431015015 0.48768129944801331
0.9033740758895874 0.91977828741073608 0.51563572883605957
0.93342804908752441 0.93407386541366577 0.54337215423583984
0.96358031034469604 0.94704002141952515 0.5694923996925354
0.98790460824966431 0.9588172435760498 0.59026420116424561
0.99894851446151733 0.9732358455657959 0.62396931648254395
0.0079531650990247726 0.008601723238825798 0.061451181769371033
0.048309400677680969 0.0064959060400724411 0.071305051445960999
0.094991691410541534 0.0068334541283547878 0.087734147906303406
0.12983396649360657 0.012140670791268349 0.11960854381322861
0.16586221754550934 0.011779650114476681 0.15225593745708466
0.20792761445045471 0.0037549335975199938 0.17259569466114044
0.2504483163356781 9.4604489277116954e-05 0.18097417056560516
0.29093542695045471 0 0.18718372285366058
0.33249416947364807 7.1626549470238388e-05 0.19255903363227844
0.37686425447463989 0.0025852727703750134 0.19738619029521942
0.42526966333389282 0.01447734422981739 0.20194385945796967
0.47846907377243042 0.036568030714988708 0.20657114684581757
0.53627753257751465 0.064276419579982758 0.21232312917709351
0.017452912405133247 0.04095236212015152 0.091325156390666962
0.057117059826850891 0.037488345056772232 0.10630305856466293
0.097667336463928223 0.035453271120786667 0.12552556395530701
0.1350041925907135 0.035220544785261154 0.14918509125709534
0.17689312994480133 0.029986048117280006 0.17009472846984863
0.21968713402748108 0.022406410425901413 0.18100282549858093
0.25988844037055969 0.015846431255340576 0.18502642214298248
0.29867622256278992 0.013538091443479061 0.18947790563106537
0.33945280313491821 0.017249776050448418 0.19409427046775818
0.38339054584503174 0.026579134166240692 0.19888101518154144
0.43114468455314636 0.040988817811012268 0.20456930994987488
0.4845217764377594 0.061511348932981491 0.20955273509025574
0.54425406455993652 0.088199138641357422 0.21491876244544983
0.049566786736249924 0.074958175420761108 0.14562588930130005
0.080023959279060364 0.073186390101909637 0.15604248642921448
0.11228244006633759 0.070306502282619476 0.16713893413543701
0.149165078997612 0.065190300345420837 0.1773783266544342
0.19228361546993256 0.058857053518295288 0.18501110374927521
0.23293472826480865 0.055371828377246857 0.18805620074272156
0.26979148387908936 0.053032446652650833 0.1894681453704834
0.30755719542503357 0.05130520835518837 0.19233348965644836
0.34931370615959167 0.055253602564334869 0.19550178945064545
0.3940284252166748 0.064118869602680206 0.19983476400375366
0.44179612398147583 0.075700603425502777 0.20616309344768524
0.49598062038421631 0.093591906130313873 0.21204708516597748
0.55755329132080078 0.11936119198799133 0.21730190515518188
0.096068285405635834 0.10514813661575317 0.18077434599399567
0.11447634547948837 0.10540153831243515 0.1838049441576004
0.14066827297210693 0.1021268367767334 0.18804639577865601
0.17379428446292877 0.096999689936637878 0.19115881621837616
0.2104656845331192 0.095925122499465942 0.19281643629074097
0.24606320261955261 0.095810912549495697 0.1932312548160553
0.28094679117202759 0.095287114381790161 0.19469140470027924
0.31924647092819214 0.094343848526477814 0.19696322083473206
0.36285346746444702 0.098672561347484589 0.19914928078651428
0.40994355082511902 0.10711367428302765 0.20291213691234589
0.45935758948326111 0.11797672510147095 0.20902150869369507
0.51498258113861084 0.13518494367599487 0.21380320191383362
0.57905691862106323 0.15994353592395782 0.21876257658004761
0.13663865625858307 0.14240196347236633 0.1931525319814682
0.15152302384376526 0.14240196347236633 0.19427257776260376
0.17252713441848755 0.13872778415679932 0.19537736475467682
0.20045311748981476 0.13443732261657715 0.19669042527675629
0.23100487887859344 0.13483539223670959 0.19824177026748657
0.2630494236946106 0.13504901528358459 0.20028910040855408
0.29719734191894531 0.1358090341091156 0.2028781920671463
0.33679497241973877 0.1381959468126297 0.20422062277793884
0.38241145014762878 0.14398299157619476 0.20579534769058228
0.43233790993690491 0.15315340459346771 0.20919466018676758
0.48498326539993286 0.16628846526145935 0.21361443400382996
0.54324662685394287 0.1864439845085144 0.21545985341072083
0.61075496673583984 0.21077007055282593 0.21999461948871613
0.17831455171108246 0.18100489675998688 0.20132148265838623
0.19102427363395691 0.18101757764816284 0.20267152786254883
0.20667116343975067 0.18032553791999817 0.20180694758892059
0.22874292731285095 0.17876619100570679 0.20396138727664948
0.25706270337104797 0.17939026653766632 0.20517759025096893
0.29071897268295288 0.17953431606292725 0.20809702575206757
0.32631692290306091 0.18094265460968018 0.21174970269203186
0.366414874792099 0.18685097992420197 0.21231274306774139
0.4134666919708252 0.19533444941043854 0.21400359272956848
0.46585819125175476 0.20694571733474731 0.21701605618000031
0.52240556478500366 0.2236868143081665 0.21875922381877899
0.58401691913604736 0.24549944698810577 0.21868786215782166
0.65508061647415161 0.27003228664398193 0.2199677973985672
0.22276356816291809 0.22491414844989777 0.20923200249671936
0.23128147423267365 0.22405378520488739 0.2109416127204895
0.24972255527973175 0.22503845393657684 0.21164630353450775
0.27114108204841614 0.22577579319477081 0.21436533331871033
0.298145592212677 0.22937431931495667 0.21401289105415344
0.33607709407806396 0.23000535368919373 0.21582047641277313
0.37147760391235352 0.23573079705238342 0.21987783908843994
0.4129844605922699 0.24573071300983429 0.21964144706726074
0.46022948622703552 0.25646683573722839 0.22456791996955872
0.51456338167190552 0.27005943655967712 0.22914144396781921
0.57544183731079102 0.28719261288642883 0.22705881297588348
0.64225202798843384 0.30746644735336304 0.22137510776519775
0.71631944179534912 0.33546969294548035 0.20696711540222168
0.28813928365707397 0.28402191400527954 0.21859936416149139
0.29461076855659485 0.28358417749404907 0.21988879144191742
0.31286543607711792 0.28470835089683533 0.22043344378471375
0.33480075001716614 0.28626114130020142 0.22214105725288391
0.35956269502639771 0.29092612862586975 0.2240576446056366
0.39632049202919006 0.29449409246444702 0.2258850634098053
0.43493920564651489 0.30410963296890259 0.22663526237010956
0.47731468081474304 0.31555420160293579 0.22739392518997192
0.5257452130317688 0.32740101218223572 0.23081383109092712
0.58206188678741455 0.3433917760848999 0.22894275188446045
0.64894670248031616 0.36160081624984741 0.21006797254085541
0.7212754487991333 0.38334983587265015 0.18604575097560883
0.79691338539123535 0.41697940230369568 0.16031642258167267
0.37146767973899841 0.35788390040397644 0.23072054982185364
0.38279950618743896 0.35974839329719543 0.22872249782085419
0.40094268321990967 0.3628598153591156 0.22639420628547668
0.42119225859642029 0.3659936785697937 0.22280606627464294
0.44445604085922241 0.36905822157859802 0.22372362017631531
0.47700649499893188 0.37406221032142639 0.22815634310245514
0.51829087734222412 0.38466298580169678 0.22558048367500305
0.56461483240127563 0.39670908451080322 0.21889211237430573
0.61812347173690796 0.41136834025382996 0.19737710058689117
0.67816203832626343 0.43058496713638306 0.17529605329036713
0.74656683206558228 0.45496204495429993 0.15116916596889496
0.81532245874404907 0.48441502451896667 0.13486869633197784
0.88194334506988525 0.51985180377960205 0.13760212063789368
0.48344522714614868 0.45152667164802551 0.21174640953540802
0.49783557653427124 0.45467773079872131 0.19931034743785858
0.51249545812606812 0.45858973264694214 0.19932533800601959
0.53491532802581787 0.46259772777557373 0.18647965788841248
0.56323832273483276 0.46722292900085449 0.18067449331283569
0.59675467014312744 0.47439047694206238 0.18359455466270447
0.63648056983947754 0.48661303520202637 0.17262718081474304
0.68257272243499756 0.5014994740486145 0.15416225790977478
0.73278814554214478 0.51785647869110107 0.13149531185626984
0.78701061010360718 0.5408625602722168 0.12311863899230957
0.84532773494720459 0.5715903639793396 0.13842108845710754
0.90082830190658569 0.60523003339767456 0.16956380009651184
0.95161795616149902 0.63820832967758179 0.21263527870178223
0.62922221422195435 0.57383805513381958 0.137003093957901
0.63591963052749634 0.57540559768676758 0.13011650741100311
0.64648914337158203 0.57871365547180176 0.13254415988922119
0.66473376750946045 0.58345293998718262 0.13304649293422699
0.68953061103820801 0.59056192636489868 0.13986161351203918
0.72066372632980347 0.60177618265151978 0.14030832052230835
0.75274258852005005 0.61347663402557373 0.14793409407138824
0.78896832466125488 0.62645542621612549 0.1584743857383728
0.82738679647445679 0.64447474479675293 0.16993342339992523
0.86841368675231934 0.67290961742401123 0.20368261635303497
0.91130346059799194 0.70513343811035156 0.25477674603462219
0.9535219669342041 0.73637944459915161 0.30776619911193848
0.98930758237838745 0.76485186815261841 0.36187559366226196
0.73579323291778564 0.71697378158569336 0.19410106539726257
0.73836416006088257 0.71747106313705444 0.1927771121263504
0.74584591388702393 0.71770560741424561 0.19352033734321594
0.75836634635925293 0.72035199403762817 0.20958611369132996
0.7760779857635498 0.72896826267242432 0.22936050593852997
0.79809165000915527 0.74311143159866333 0.2474742978811264
0.8223833441734314 0.75575751066207886 0.27453732490539551
0.84966450929641724 0.767059326171875 0.30301356315612793
0.87739729881286621 0.78626376390457153 0.33995068073272705
0.91071385145187378 0.80981463193893433 0.38030233979225159
0.94536620378494263 0.83370709419250488 0.42675858736038208
0.97662150859832764 0.85726034641265869 0.4703572690486908
0.99806982278823853 0.88128101825714111 0.51531761884689331
0.78370589017868042 0.86413073539733887 0.39840784668922424
0.78571295738220215 0.86524981260299683 0.40472376346588135
0.79198896884918213 0.86368930339813232 0.40021079778671265
0.8026387095451355 0.86443507671356201 0.41019538044929504
0.81701552867889404 0.87181437015533447 0.42854541540145874
0.83315151929855347 0.88507825136184692 0.45158955454826355
0.85277491807937622 0.89627283811569214 0.47547370195388794
0.87723654508590698 0.90482103824615479 0.4927157461643219
0.90170985460281372 0.92054098844528198 0.52703487873077393
0.93215650320053101 0.93468225002288818 0.55450177192687988
0.96385985612869263 0.9456946849822998 0.57660180330276489
0.98913085460662842 0.95876383781433105 0.60257565975189209
0.99987882375717163 0.97606664896011353 0.63980704545974731
0.018271457403898239 0.0080866198986768723 0.09944567084312439
0.054345462471246719 0.0058181462809443474 0.10837532579898834
0.094481676816940308 0.007253729272633791 0.12477882206439972
0.12553682923316956 0.013824433088302612 0.1534448117017746
0.16144189238548279 0.01348413247615099 0.18266771733760834
0.20415444672107697 0.005597731564193964 0.20194771885871887
0.24682149291038513 0.00076549756340682507 0.209822878241539
0.28792819380760193 7.5575881055556238e-05 0.21461644768714905
0.3298991322517395 0.00032599954283796251 0.21875979006290436
0.37469121813774109 0.0026582006830722094 0.22262495756149292
0.4234108030796051 0.012859060429036617 0.22637750208377838
0.47662344574928284 0.033851098269224167 0.23030741512775421
0.53479123115539551 0.06106426939368248 0.23512977361679077
0.019376702606678009 0.041442181915044785 0.12853866815567017
0.054909829050302505 0.036598775535821915 0.13909065723419189
0.091758966445922852 0.036503016948699951 0.1565479189157486
0.12821923196315765 0.03799375519156456 0.1806013435125351
0.17174132168292999 0.032521147280931473 0.2001754492521286
0.21536645293235779 0.025116549804806709 0.21040384471416473
0.2553577721118927 0.019386425614356995 0.21384672820568085
0.29462328553199768 0.017405042424798012 0.21671922504901886
0.33583906292915344 0.019770229235291481 0.22000899910926819
0.38012421131134033 0.027352591976523399 0.22362171113491058
0.42839011549949646 0.040205396711826324 0.22763450443744659
0.48196747899055481 0.059950973838567734 0.23154421150684357
0.54162442684173584 0.086298517882823944 0.2362869530916214
0.044724050909280777 0.074532076716423035 0.17445193231105804
0.072957895696163177 0.072335623204708099 0.18192262947559357
0.10364729911088943 0.071647405624389648 0.19436325132846832
0.14065012335777283 0.068764947354793549 0.20741300284862518
0.18709848821163177 0.059753254055976868 0.21498197317123413
0.22807267308235168 0.054932072758674622 0.21750962734222412
0.26441147923469543 0.053647913038730621 0.21773134171962738
0.30274742841720581 0.053614165633916855 0.21890267729759216
0.34480008482933044 0.056856118142604828 0.22129462659358978
0.38968700170516968 0.063805341720581055 0.22467233240604401
0.43818050622940063 0.075376160442829132 0.22869130969047546
0.49236509203910828 0.093338146805763245 0.23267379403114319
0.55378788709640503 0.11831028014421463 0.23708608746528625
0.089940927922725677 0.10476190596818924 0.20530569553375244
0.10914843529462814 0.10505750775337219 0.20788456499576569
0.13409459590911865 0.1041380912065506 0.21336479485034943
0.1669212281703949 0.10038693249225616 0.2182723730802536
0.20524574816226959 0.096007436513900757 0.22045658528804779
0.24114444851875305 0.094544447958469391 0.2211555540561676
0.27597248554229736 0.094837024807929993 0.22111393511295319
0.31481009721755981 0.095354728400707245 0.22195881605148315
0.35867783427238464 0.09896310418844223 0.22386318445205688
0.40540972352027893 0.10647832602262497 0.22707538306713104
0.45525023341178894 0.1183813065290451 0.23070602118968964
0.51115363836288452 0.13614882528781891 0.23390264809131622
0.57505208253860474 0.15992629528045654 0.23840160667896271
0.13265876471996307 0.14224638044834137 0.21494348347187042
0.14783777296543121 0.14234751462936401 0.21579389274120331
0.16824868321418762 0.13975247740745544 0.21747782826423645
0.19625574350357056 0.13744023442268372 0.2195025235414505
0.22776035964488983 0.13590458035469055 0.22132137417793274
0.25986787676811218 0.13534793257713318 0.2238936722278595
