assets/lut/creative nightfromday.cube
# Created by: G'MIC (https://gmic.eu)
TITLE "nightfromday"
# LUT size
LUT_3D_SIZE 13
# Data domain
DOMAIN_MIN 0.0 0.0 0.0
DOMAIN_MAX 1.0 1.0 1.0
# LUT data points
0.0045942417345941067 0.0078979488462209702 0.022284310311079025
0.031432267278432846 0.0075362259522080421 0.026812205091118813
0.071208223700523376 0.0096917394548654556 0.035498406738042831
0.11054027825593948 0.012875067070126534 0.046213291585445404
0.14151185750961304 0.019067037850618362 0.050312522798776627
0.16701458394527435 0.028444461524486542 0.048276670277118683
0.19294127821922302 0.036406572908163071 0.053166992962360382
0.22051922976970673 0.041032321751117706 0.064360976219177246
0.24913355708122253 0.043929126113653183 0.076738558709621429
0.27854439616203308 0.047417271882295609 0.085134319961071014
0.30864515900611877 0.052743349224328995 0.090357102453708649
0.33864185214042664 0.060348808765411377 0.098199881613254547
0.37003996968269348 0.070082403719425201 0.11004389077425003
0.0031115962192416191 0.037094533443450928 0.032572966068983078
0.026980051770806313 0.034169305115938187 0.035690665245056152
0.067132391035556793 0.038387972861528397 0.039887342602014542
0.10721665620803833 0.040954932570457458 0.046314701437950134
0.13753277063369751 0.045028939843177795 0.04883144423365593
0.1636195182800293 0.050093930214643478 0.049008447676897049
0.19040787220001221 0.054759591817855835 0.055229950696229935
0.21877074241638184 0.058386560529470444 0.066408030688762665
0.24829746782779694 0.059688389301300049 0.078840635716915131
0.27820014953613281 0.062390226870775223 0.087592378258705139
0.30864611268043518 0.066515736281871796 0.093038104474544525
0.33916229009628296 0.072956293821334839 0.10189623385667801
0.37057128548622131 0.082512527704238892 0.11417295038700104
0.0026915157213807106 0.07680772989988327 0.047814670950174332
0.022764855995774269 0.074437111616134644 0.04659608006477356
0.062160119414329529 0.073057971894741058 0.049342554062604904
0.10007589310407639 0.075208805501461029 0.051163945347070694
0.13165497779846191 0.075269274413585663 0.05615316703915596
0.15972930192947388 0.075635738670825958 0.060349512845277786
0.18797053396701813 0.076486237347126007 0.065592147409915924
0.21735376119613647 0.078076891601085663 0.072023265063762665
0.24743703007698059 0.079716116189956665 0.081826753914356232
0.27779841423034668 0.08156566321849823 0.091020680963993073
0.30780124664306641 0.0848831906914711 0.098306290805339813
0.33849918842315674 0.090725868940353394 0.10789332538843155
0.36987006664276123 0.10016931593418121 0.11883622407913208
0.0057886010035872459 0.10768832266330719 0.064457044005393982
0.028657726943492889 0.10600660741329193 0.061333585530519485
0.064034603536128998 0.10321555286645889 0.063548460602760315
0.098583728075027466 0.10360196977853775 0.066835798323154449
0.12907890975475311 0.10497074574232101 0.071300908923149109
0.15663118660449982 0.10505417734384537 0.075313478708267212
0.18581344187259674 0.10144776105880737 0.078552067279815674
0.21604339778423309 0.1016894057393074 0.082373693585395813
0.24673613905906677 0.10372001677751541 0.089994020760059357
0.27695807814598083 0.10538904368877411 0.097721993923187256
0.30660915374755859 0.10894401371479034 0.10450879484415054
0.33648845553398132 0.11559386551380157 0.11255031079053879
0.36783388257026672 0.125565305352211 0.12188433110713959
0.0088575026020407677 0.1315707266330719 0.080122090876102448
0.033198025077581406 0.13095425069332123 0.077140018343925476
0.064009197056293488 0.13085876405239105 0.078231409192085266
0.096517093479633331 0.1312885582447052 0.082086034119129181
0.12765151262283325 0.13339522480964661 0.087038494646549225
0.15439897775650024 0.13618758320808411 0.090703733265399933
0.18407705426216125 0.13184107840061188 0.092537567019462585
0.21301448345184326 0.13173739612102509 0.094596609473228455
0.24393187463283539 0.13405780494213104 0.10086707025766373
0.27552017569541931 0.13444170355796814 0.10650733858346939
0.30579379200935364 0.13745516538619995 0.11278153955936432
0.33689150214195251 0.14370439946651459 0.12085143476724625
0.37002336978912354 0.15230071544647217 0.13075302541255951
0.0067417072132229805 0.16086786985397339 0.094594724476337433
0.026680830866098404 0.16117648780345917 0.093043982982635498
0.057775862514972687 0.16040346026420593 0.095818087458610535
0.091085620224475861 0.16043087840080261 0.097038701176643372
0.12120489776134491 0.1617235392332077 0.098544284701347351
0.15327514708042145 0.16252735257148743 0.10331829637289047
0.18470403552055359 0.16027650237083435 0.10740584135055542
0.21280939877033234 0.16157670319080353 0.10869833081960678
0.24202463030815125 0.16536784172058105 0.11268280446529388
0.27442094683647156 0.16614674031734467 0.118547223508358
0.30655863881111145 0.16842390596866608 0.12590900063514709
0.33937323093414307 0.17354276776313782 0.13429637253284454
0.37510401010513306 0.18038393557071686 0.14504119753837585
0.005796095822006464 0.19239489734172821 0.11073756217956543
0.023808363825082779 0.19217942655086517 0.1109158843755722
0.055226612836122513 0.19061370193958282 0.11495304852724075
0.089583031833171844 0.19017866253852844 0.11556372791528702
0.12124630808830261 0.19051004946231842 0.11571133136749268
0.15309484302997589 0.19037182629108429 0.11893150210380554
0.18323551118373871 0.1911439448595047 0.12217438966035843
0.21601799130439758 0.19249723851680756 0.12679025530815125
0.2442518025636673 0.19515785574913025 0.13117675483226776
0.2753882110118866 0.19796137511730194 0.13872277736663818
0.30869290232658386 0.20074662566184998 0.14440487325191498
0.34202137589454651 0.20610642433166504 0.15029382705688477
0.38037946820259094 0.21164306998252869 0.16082048416137695
0.0097998222336173058 0.22447898983955383 0.13032178580760956
0.0263393335044384 0.22402644157409668 0.13025490939617157
0.055545404553413391 0.22286134958267212 0.13322609663009644
0.089911997318267822 0.22238147258758545 0.13494768738746643
0.12289132177829742 0.2220643162727356 0.13594511151313782
0.15333525836467743 0.22182822227478027 0.13818693161010742
0.18412493169307709 0.22373168170452118 0.14104986190795898
0.2185552567243576 0.22560656070709229 0.14529129862785339
0.24779263138771057 0.22749961912631989 0.14958930015563965
0.27829337120056152 0.23081167042255402 0.1572982519865036
0.31138962507247925 0.23579983413219452 0.16479021310806274
0.34627735614776611 0.24074265360832214 0.1692192405462265
0.38626685738563538 0.2462519109249115 0.17760847508907318
0.015845624729990959 0.25750130414962769 0.15439461171627045
0.031005529686808586 0.25718992948532104 0.15293079614639282
0.058365330100059509 0.25719249248504639 0.1535857766866684
0.092271454632282257 0.25746971368789673 0.15542683005332947
0.12573458254337311 0.25759804248809814 0.15758933126926422
0.15626843273639679 0.2574603259563446 0.16116559505462646
0.18765875697135925 0.25893908739089966 0.16381946206092834
0.22160112857818604 0.26177087426185608 0.16555698215961456
0.25504383444786072 0.26489713788032532 0.1704336553812027
0.28464731574058533 0.26905187964439392 0.17791682481765747
0.31572186946868896 0.2747490406036377 0.18641272187232971
0.35529869794845581 0.27691793441772461 0.19213975965976715
0.39468619227409363 0.2829405665397644 0.19867116212844849
0.018854657188057899 0.29514944553375244 0.17842715978622437
0.034646801650524139 0.29328638315200806 0.17716909945011139
0.06328437477350235 0.29363721609115601 0.17715394496917725
0.098498158156871796 0.29577586054801941 0.17830944061279297
0.13164234161376953 0.2966524064540863 0.18101158738136292
0.16039298474788666 0.29885026812553406 0.18487383425235748
0.19022007286548615 0.30061832070350647 0.18799515068531036
0.22592373192310333 0.30033072829246521 0.19043678045272827
0.26294627785682678 0.30194640159606934 0.19451823830604553
0.29515671730041504 0.30673781037330627 0.20005075633525848
0.32799378037452698 0.31116262078285217 0.20766632258892059
0.36518117785453796 0.31595399975776672 0.21598351001739502
0.40438386797904968 0.32364752888679504 0.2248912900686264
0.02499409019947052 0.33690038323402405 0.20451883971691132
0.040497306734323502 0.33491012454032898 0.20444422960281372
0.072782732546329498 0.33494320511817932 0.20402832329273224
0.11099173128604889 0.33649405837059021 0.20420341193675995
0.1436518132686615 0.33908960223197937 0.20698271691799164
0.17006205022335052 0.34181797504425049 0.21118828654289246
0.19764026999473572 0.34280267357826233 0.21573740243911743
0.23264135420322418 0.34153950214385986 0.21926321089267731
0.27132925391197205 0.34145838022232056 0.22246493399143219
0.30624628067016602 0.34646078944206238 0.22730304300785065
0.34080600738525391 0.35321027040481567 0.23559486865997314
0.37754696607589722 0.36056756973266602 0.24580226838588715
0.41730976104736328 0.36876112222671509 0.25712400674819946
0.04527142271399498 0.38244003057479858 0.23731549084186554
0.056734465062618256 0.37936228513717651 0.23715049028396606
0.09059625118970871 0.37948518991470337 0.23468813300132751
0.13075606524944305 0.38151484727859497 0.23345285654067993
0.16193543374538422 0.38364672660827637 0.23658266663551331
0.18697813153266907 0.38556817173957825 0.24171377718448639
0.21303121745586395 0.38584524393081665 0.24717411398887634
0.24464128911495209 0.38579967617988586 0.25123488903045654
0.2791808545589447 0.3891509473323822 0.25363835692405701
0.31514191627502441 0.39506882429122925 0.25953587889671326
0.35353472828865051 0.40174770355224609 0.26982596516609192
0.39368864893913269 0.40850251913070679 0.28199440240859985
0.43367549777030945 0.41640552878379822 0.29373162984848022
0.081209145486354828 0.43109047412872314 0.27414694428443909
0.089628390967845917 0.42833593487739563 0.27245098352432251
0.11770779639482498 0.42806696891784668 0.26912567019462585
0.15357120335102081 0.42980900406837463 0.26749804615974426
0.18312448263168335 0.43129387497901917 0.27024358510971069
0.20800498127937317 0.43243366479873657 0.27494481205940247
0.2340279221534729 0.43312793970108032 0.28053018450737
0.26385954022407532 0.43505778908729553 0.28507521748542786
0.29535019397735596 0.44000428915023804 0.2887471616268158
0.32939633727073669 0.44716379046440125 0.29510942101478577
0.3674742579460144 0.45443245768547058 0.30549323558807373
0.40884920954704285 0.46025419235229492 0.31778427958488464
0.45083653926849365 0.46714261174201965 0.33020061254501343
0.0015363804996013641 0.0075902603566646576 0.064504258334636688
0.023953665047883987 0.0077722887508571148 0.071495696902275085
0.063364557921886444 0.0098115960136055946 0.077482618391513824
0.10383526980876923 0.011769088916480541 0.084221318364143372
0.13579167425632477 0.018227729946374893 0.088799357414245605
0.16213726997375488 0.031098818406462669 0.089358009397983551
0.18920934200286865 0.040147460997104645 0.092988498508930206
0.21731606125831604 0.044493552297353745 0.099549025297164917
0.24599222838878632 0.047076866030693054 0.10771387070417404
0.27560514211654663 0.049973804503679276 0.11406025290489197
0.30582472681999207 0.054520953446626663 0.11636683344841003
0.33634769916534424 0.061179995536804199 0.12074024230241776
0.36764252185821533 0.069847673177719116 0.13049662113189697
0.0002034205972449854 0.038409993052482605 0.072318747639656067
0.01640593633055687 0.038307636976242065 0.076804950833320618
0.059013877063989639 0.038910586386919022 0.083279632031917572
0.099890626966953278 0.040329892188310623 0.085424579679965973
0.13147987425327301 0.044507313519716263 0.087631627917289734
0.1591910719871521 0.050977069884538651 0.090821206569671631
0.18767981231212616 0.056283913552761078 0.095939457416534424
0.2163364440202713 0.06007201224565506 0.10031582415103912
0.2454218864440918 0.062479611486196518 0.1077025905251503
0.2754480242729187 0.064457312226295471 0.11465273052453995
0.30574557185173035 0.068484321236610413 0.11723025143146515
0.33634147047996521 0.074426524341106415 0.12260211259126663
0.36754527688026428 0.082893311977386475 0.13325132429599762
1.6156365745700896e-05 0.076884940266609192 0.086861617863178253
0.011534028686583042 0.076650165021419525 0.086417898535728455
0.055456556379795074 0.074038788676261902 0.088951244950294495
0.095410801470279694 0.07541203498840332 0.08952648937702179
0.12701979279518127 0.075044207274913788 0.093399301171302795
0.15604475140571594 0.076014682650566101 0.096710368990898132
0.18563702702522278 0.076529316604137421 0.10233103483915329
0.21506650745868683 0.079558730125427246 0.10277756303548813
0.2449440062046051 0.08170820027589798 0.10774542391300201
0.27495577931404114 0.083437331020832062 0.11588722467422485
0.30505254864692688 0.086907841265201569 0.12171636521816254
0.33538615703582764 0.092426955699920654 0.12820461392402649
0.36675176024436951 0.10102733224630356 0.13778664171695709
0.00061720306985080242 0.1085464209318161 0.098900318145751953
0.013165268115699291 0.10818751901388168 0.09756971150636673
0.0556500144302845 0.10400671511888504 0.097518593072891235
0.093086272478103638 0.10350492596626282 0.098510727286338806
0.12174224853515625 0.10518882423639297 0.10105735808610916
0.15244986116886139 0.10507506132125854 0.10226944833993912
0.18301890790462494 0.10381201654672623 0.10587876290082932
0.21350763738155365 0.10435101389884949 0.10765534639358521
0.24387176334857941 0.10613375157117844 0.11214973777532578
0.27415004372596741 0.10785467177629471 0.12032072991132736
0.30384054780006409 0.11090861260890961 0.12706512212753296
0.33407753705978394 0.11651819199323654 0.13391098380088806
0.36604315042495728 0.12500132620334625 0.1426851749420166
0.0019609339069575071 0.13426262140274048 0.10887261480093002
0.018671147525310516 0.1341138482093811 0.1060335785150528
0.052440956234931946 0.13298715651035309 0.10584784299135208
0.08957749605178833 0.13199158012866974 0.10808202624320984
0.12207641452550888 0.13327735662460327 0.11162077635526657
0.15152643620967865 0.13593544065952301 0.11305190622806549
0.18161424994468689 0.13579505681991577 0.1145864725112915
0.21126304566860199 0.13528329133987427 0.11772173643112183
0.24130187928676605 0.13676480948925018 0.1218813881278038
0.27272763848304749 0.137089803814888 0.12726646661758423
0.30344220995903015 0.13912186026573181 0.13388101756572723
0.33491599559783936 0.14395925402641296 0.14175286889076233
0.368101567029953 0.15116731822490692 0.15153266489505768
0.00068703445140272379 0.16367566585540771 0.12018773704767227
0.012902367860078812 0.16506946086883545 0.11737494170665741
0.045934878289699554 0.16345715522766113 0.11883515119552612
0.084298528730869293 0.161415696144104 0.12091097235679626
0.11834103614091873 0.16151350736618042 0.12246686220169067
0.15130507946014404 0.16304272413253784 0.12399706244468689
0.18227896094322205 0.16228772699832916 0.12662830948829651
0.21130667626857758 0.16188415884971619 0.12965784966945648
0.240494504570961 0.1660502701997757 0.13237297534942627
0.27166992425918579 0.16759222745895386 0.13566043972969055
0.30424708127975464 0.16943396627902985 0.14355701208114624
0.3374689519405365 0.17326866090297699 0.15325064957141876
0.37347918748855591 0.17900490760803223 0.16463376581668854
0.00079658359754830599 0.19435790181159973 0.13371261954307556
0.013203205540776253 0.19537518918514252 0.13240595161914825
0.043748173862695694 0.1939304918050766 0.13473138213157654
0.081561163067817688 0.19256393611431122 0.13568489253520966
0.11817623674869537 0.1915963888168335 0.13580675423145294
0.15062133967876434 0.19046799838542938 0.13765124976634979
0.1820296049118042 0.19011010229587555 0.14016120135784149
0.21348805725574493 0.19261857867240906 0.14231106638908386
0.24372866749763489 0.19501776993274689 0.14672040939331055
0.27308094501495361 0.1994028240442276 0.15144440531730652
0.30631354451179504 0.2011454850435257 0.15930406749248505
0.34090292453765869 0.20504067838191986 0.16769140958786011
0.37882307171821594 0.20979459583759308 0.179192915558815
0.0032485811971127987 0.22661492228507996 0.1486196368932724
0.01720072515308857 0.22612971067428589 0.1488233357667923
0.045173045247793198 0.22544379532337189 0.15076777338981628
0.081729769706726074 0.22482618689537048 0.15180596709251404
0.1183733195066452 0.2239837646484375 0.15325671434402466
0.14916329085826874 0.22313988208770752 0.15418998897075653
0.18116182088851929 0.2236177921295166 0.15658020973205566
0.21519869565963745 0.22661386430263519 0.15926928818225861
0.24671702086925507 0.22825230658054352 0.16415414214134216
0.27741861343383789 0.23132961988449097 0.17133376002311707
0.30971440672874451 0.23564709722995758 0.17938908934593201
0.34459161758422852 0.23983058333396912 0.18556009232997894
0.38336089253425598 0.24462337791919708 0.19328027963638306
0.0055596446618437767 0.26067960262298584 0.16674460470676422
0.019538281485438347 0.25943848490715027 0.16713038086891174
0.047593839466571808 0.25901433825492859 0.16953122615814209
0.084685608744621277 0.25913050770759583 0.16996705532073975
0.12163691967725754 0.25832131505012512 0.17306439578533173
0.15352863073348999 0.2592596709728241 0.17477419972419739
0.18567991256713867 0.26146113872528076 0.17757648229598999
0.21957838535308838 0.26316115260124207 0.17985227704048157
0.25285884737968445 0.2648337185382843 0.18509075045585632
0.28395187854766846 0.26824221014976501 0.19326601922512054
0.31388238072395325 0.2751401960849762 0.20190776884555817
0.34989643096923828 0.27706196904182434 0.20560425519943237
0.3885904848575592 0.28256332874298096 0.21086777746677399
0.0045114555396139622 0.2964724600315094 0.18861003220081329
0.020046742632985115 0.29619163274765015 0.18935267627239227
0.051416791975498199 0.29619514942169189 0.19052751362323761
0.090837158262729645 0.29620099067687988 0.19191572070121765
0.12832459807395935 0.29830208420753479 0.19413095712661743
0.1597784012556076 0.30072364211082458 0.19765070080757141
0.19101506471633911 0.30212664604187012 0.20141352713108063
0.22582347691059113 0.30067545175552368 0.20482981204986572
0.26073405146598816 0.30046182870864868 0.20922486484050751
0.29426199197769165 0.30509042739868164 0.21476246416568756
0.32523563504219055 0.3106141984462738 0.22144880890846252
0.35846090316772461 0.31504273414611816 0.22745877504348755
0.39724144339561462 0.32271692156791687 0.23562228679656982
0.0061334348283708096 0.33754158020019531 0.21337629854679108
0.022944372147321701 0.33517113327980042 0.21529215574264526
0.060058638453483582 0.33530125021934509 0.21598346531391144
0.10408128052949905 0.33690652251243591 0.2170766144990921
0.14056630432605743 0.33970025181770325 0.2201227992773056
0.16986985504627228 0.34272497892379761 0.22385355830192566
0.19960229098796844 0.3437141478061676 0.22792829573154449
0.23272900283336639 0.34287580847740173 0.23096804320812225
0.26497375965118408 0.34379240870475769 0.23298248648643494
0.30172449350357056 0.34701719880104065 0.23879636824131012
0.33759638667106628 0.35274681448936462 0.24693569540977478
0.37211066484451294 0.36078885197639465 0.25605809688568115
0.41114524006843567 0.368896484375 0.26738548278808594
0.023468915373086929 0.38241180777549744 0.24474118649959564
0.03625139594078064 0.37946847081184387 0.24702176451683044
0.077913515269756317 0.38003659248352051 0.24545660614967346
0.12592899799346924 0.38225725293159485 0.24513012170791626
0.15915229916572571 0.38449054956436157 0.24949045479297638
0.18563650548458099 0.38652846217155457 0.25392508506774902
0.21524316072463989 0.38678577542304993 0.25859785079956055
0.2478814423084259 0.38695541024208069 0.26213228702545166
0.27541881799697876 0.39103502035140991 0.26264497637748718
0.31097814440727234 0.39559274911880493 0.26877328753471375
0.35223135352134705 0.40053826570510864 0.27955529093742371
0.39322167634963989 0.40689793229103088 0.29239726066589355
0.43134143948554993 0.41592887043952942 0.30383896827697754
0.058830663561820984 0.43141233921051025 0.28142395615577698
0.068547643721103668 0.42890083789825439 0.28184708952903748
0.10378100723028183 0.42915830016136169 0.27991107106208801
0.14699283242225647 0.43086022138595581 0.27956801652908325
0.17854073643684387 0.43237629532814026 0.28322738409042358
0.2044329047203064 0.43379679322242737 0.2872617244720459
0.23338383436203003 0.43424245715141296 0.29193776845932007
0.26540133357048035 0.43552377820014954 0.29621440172195435
0.29417699575424194 0.44041857123374939 0.29860270023345947
0.32730740308761597 0.44669643044471741 0.30352988839149475
0.36586052179336548 0.45285549759864807 0.31260424852371216
0.40735930204391479 0.45881527662277222 0.32537826895713806
0.44821429252624512 0.46635383367538452 0.33911231160163879
0.00031310436315834522 0.0066875233314931393 0.10945166647434235
0.015203393995761871 0.0095376558601856232 0.11426287144422531
0.051824219524860382 0.012719172984361649 0.11859451234340668
0.092498064041137695 0.015538503415882587 0.12252117693424225
0.12606857717037201 0.023256085813045502 0.12440855801105499
0.15509809553623199 0.03595956414937973 0.12813633680343628
0.18433420360088348 0.044262170791625977 0.13190080225467682
0.2131846696138382 0.047733515501022339 0.13491785526275635
0.24206717312335968 0.049926504492759705 0.14081864058971405
0.27189633250236511 0.0525970458984375 0.1472984254360199
0.30252471566200256 0.056743022054433823 0.14933647215366364
0.33382734656333923 0.062469854950904846 0.15057505667209625
0.36609700322151184 0.069923907518386841 0.15692099928855896
0 0.036332987248897552 0.11626745760440826
0.0088532539084553719 0.039208579808473587 0.12059098482131958
0.046695947647094727 0.040449809283018112 0.12522664666175842
0.087902277708053589 0.042635120451450348 0.1250765472650528
0.121135413646698 0.047720320522785187 0.12500615417957306
0.15245968103408813 0.054255779832601547 0.12886461615562439
0.18336433172225952 0.058789659291505814 0.13290642201900482
0.2128627598285675 0.06188221275806427 0.13503162562847137
0.24186497926712036 0.06435057520866394 0.14109304547309875
0.27166607975959778 0.066939830780029297 0.14821207523345947
0.30249086022377014 0.070653490722179413 0.15099675953388214
0.33356979489326477 0.076065853238105774 0.15295539796352386
0.36566674709320068 0.08343861997127533 0.16007709503173828
0 0.077659532427787781 0.12058369070291519
0.0085232453420758247 0.07631288468837738 0.12359731644392014
0.045094896107912064 0.07518431544303894 0.12677258253097534
0.084728062152862549 0.075394682586193085 0.1280381828546524
0.1192828044295311 0.076746955513954163 0.13094508647918701
0.15142078697681427 0.078178346157073975 0.13428166508674622
0.18156811594963074 0.078572563827037811 0.13663879036903381
0.21135278046131134 0.080573424696922302 0.1364530473947525
0.24091079831123352 0.08298434317111969 0.14120298624038696
0.27136698365211487 0.085877783596515656 0.14869572222232819
0.30191132426261902 0.089242406189441681 0.15358515083789825
0.33283746242523193 0.094258792698383331 0.15787823498249054
0.36460912227630615 0.10136747360229492 0.16509924829006195
0 0.10747101902961731 0.12813076376914978
0.010462039150297642 0.10512633621692657 0.12834030389785767
0.043840758502483368 0.10512756556272507 0.12934330105781555
0.083066247403621674 0.10432368516921997 0.13134543597698212
0.11484496295452118 0.10583162307739258 0.1341797262430191
0.14798273146152496 0.10496348887681961 0.13688936829566956
0.17836830019950867 0.10510176420211792 0.13896320760250092
0.20925498008728027 0.10600258409976959 0.14012089371681213
0.2400604635477066 0.1088130995631218 0.1442108154296875
0.27098250389099121 0.11088231205940247 0.15328255295753479
0.30150547623634338 0.11327607184648514 0.15898190438747406
0.33238762617111206 0.11769042909145355 0.16358476877212524
0.36464083194732666 0.12432786822319031 0.17105968296527863
1.4002182979311328e-05 0.13441161811351776 0.13883413374423981
0.0080842413008213043 0.13425137102603912 0.13725779950618744
0.038942314684391022 0.13327667117118835 0.1379382461309433
0.080489858984947205 0.13100500404834747 0.13888964056968689
