assets/lut/creative tealorange 01.cube
# Created by: G'MIC (https://gmic.eu)
TITLE "tealorange_1"
# LUT size
LUT_3D_SIZE 13
# Data domain
DOMAIN_MIN 0.0 0.0 0.0
DOMAIN_MAX 1.0 1.0 1.0
# LUT data points
0.0087196500971913338 0.015967665240168571 0.075059182941913605
0.045650705695152283 0.0072395023889839649 0.069622308015823364
0.11633899062871933 0.0044081145897507668 0.054123435169458389
0.17914867401123047 0.0057116192765533924 0.027798986062407494
0.23903070390224457 0.0068620569072663784 0.012783798389136791
0.3071383535861969 0.0086268559098243713 0.0082615269348025322
0.38957026600837708 0.0093064550310373306 0.0041363583877682686
0.47023805975914001 0.012886676006019115 0.00099484308157116175
0.56663620471954346 0.022113112732768059 0.0050936681218445301
0.6615409255027771 0.036191754043102264 0.0073915068060159683
0.76194357872009277 0.033837039023637772 0.0028682185802608728
0.87484544515609741 0.052769500762224197 0.0001026826721499674
0.97097700834274292 0.094895638525485992 0
0.0037226208951324224 0.058805115520954132 0.054251726716756821
0.030606633052229881 0.050928886979818344 0.023162497207522392
0.098161004483699799 0.04764537513256073 0.012216994538903236
0.16095888614654541 0.053025338798761368 0.006950767245143652
0.22345903515815735 0.057493891566991806 0.0052875145338475704
0.29067772626876831 0.060676276683807373 0.0030296025797724724
0.37031391263008118 0.063624769449234009 0.0010253756772726774
0.45772436261177063 0.064842015504837036 0.00030794329359196126
0.55351901054382324 0.085159569978713989 0.002452655928209424
0.65106475353240967 0.10995547473430634 0.0041944915428757668
0.76011025905609131 0.10863563418388367 0.00056358787696808577
0.87272679805755615 0.13202376663684845 0
0.97060376405715942 0.16303151845932007 0
3.7369074561866e-05 0.12412448972463608 0.046286743134260178
0.023878375068306923 0.12011464685201645 0.020787661895155907
0.096131645143032074 0.11520005762577057 0.007645835168659687
0.16716946661472321 0.12331013381481171 0.0060331756249070168
0.22838021814823151 0.13518758118152618 0.0024888580664992332
0.28746071457862854 0.14950250089168549 0.00044836904271505773
0.35387232899665833 0.15891101956367493 6.3219260482583195e-05
0.44411343336105347 0.17792513966560364 0.0001003489742288366
0.53875446319580078 0.20533156394958496 0.00018229764827992767
0.64121639728546143 0.22107133269309998 0.00058928842190653086
0.74785256385803223 0.23293228447437286 3.5903033221984515e-06
0.86047643423080444 0.25584849715232849 0
0.96749180555343628 0.25772568583488464 0
4.7392004489665851e-05 0.20022663474082947 0.054014783352613449
0.015746785327792168 0.19938097894191742 0.023085769265890121
0.10018263012170792 0.19683358073234558 0.0082540474832057953
0.19098640978336334 0.20073235034942627 0.0079191019758582115
0.26476782560348511 0.2119249701499939 0.0077794692479074001
0.32836246490478516 0.2301328033208847 0.0032409518025815487
0.39116117358207703 0.24607440829277039 0.00068779737921431661
0.46918323636054993 0.26902925968170166 4.0390910726273432e-05
0.55572545528411865 0.29819083213806152 5.4931639169808477e-05
0.65027594566345215 0.32345417141914368 0
0.75188851356506348 0.34380877017974854 0
0.85866087675094604 0.36269274353981018 0
0.96628093719482422 0.37283837795257568 0
0.00013786765339318663 0.2892703115940094 0.066921710968017578
0.01573810912668705 0.28852221369743347 0.035367660224437714
0.088176578283309937 0.28980234265327454 0.01480478048324585
0.21323950588703156 0.29021802544593811 0.0093065602704882622
0.30646196007728577 0.30206286907196045 0.011706019751727581
0.38093063235282898 0.31196767091751099 0.0091255633160471916
0.44812580943107605 0.31993445754051208 0.0037469752132892609
0.52570861577987671 0.34252721071243286 0.0024763518013060093
0.60574942827224731 0.37125149369239807 0.0015988219529390335
0.68952161073684692 0.39771878719329834 0.00019203634292352945
0.78298103809356689 0.42298746109008789 0
0.87929719686508179 0.44449719786643982 0
0.97020286321640015 0.46213445067405701 0
8.7887630797922611e-05 0.38298779726028442 0.090679571032524109
0.019966918975114822 0.38692179322242737 0.058723524212837219
0.10375446826219559 0.38751077651977539 0.02120424248278141
0.23626434803009033 0.38763841986656189 0.011397343128919601
0.34197190403938293 0.39341339468955994 0.012085963040590286
0.42868459224700928 0.39914426207542419 0.01042384747415781
0.51086193323135376 0.4063640832901001 0.011197153478860855
0.59487015008926392 0.42177417874336243 0.0062227733433246613
0.67649346590042114 0.44731631875038147 0.0035697936546057463
0.75482434034347534 0.47091490030288696 0.0014755248557776213
0.83373093605041504 0.49214160442352295 1.2566061741381418e-05
0.91526395082473755 0.51308906078338623 0
0.97417575120925903 0.52905356884002686 0
0.010420750826597214 0.48419195413589478 0.14091247320175171
0.032581239938735962 0.48926421999931335 0.092790134251117706
0.11976949870586395 0.49097162485122681 0.038693759590387344
0.27453440427780151 0.49153915047645569 0.023647578433156013
0.39609882235527039 0.49204340577125549 0.018346913158893585
0.49143561720848083 0.49745908379554749 0.015205652453005314
0.5757293701171875 0.50213420391082764 0.013506362214684486
0.66473907232284546 0.50756484270095825 0.010570062324404716
0.74702131748199463 0.52192908525466919 0.0088547347113490105
0.82315987348556519 0.53933429718017578 0.0063634235411882401
0.89232832193374634 0.55486732721328735 0.0023894216865301132
0.95533961057662964 0.57280761003494263 0
0.98881036043167114 0.59125763177871704 0
0.088767766952514648 0.60254466533660889 0.19762919843196869
0.11375845968723297 0.60609936714172363 0.14700961112976074
0.19304509460926056 0.60757529735565186 0.068634539842605591
0.32882946729660034 0.60869085788726807 0.041782483458518982
0.45370990037918091 0.6034550666809082 0.028564527630805969
0.55563104152679443 0.60304385423660278 0.020765461027622223
0.63187742233276367 0.59728425741195679 0.020959382876753807
0.72115975618362427 0.60353994369506836 0.022782329469919205
0.8052065372467041 0.60865455865859985 0.023876713588833809
0.88101345300674438 0.61375546455383301 0.01498152781277895
0.93749600648880005 0.62441372871398926 0.0082837119698524475
0.97649246454238892 0.63516271114349365 0.0018208522815257311
0.99634534120559692 0.65266001224517822 5.8417226682649925e-05
0.19933201372623444 0.71065783500671387 0.23554623126983643
0.21975240111351013 0.71100246906280518 0.1878916323184967
0.27266392111778259 0.71205860376358032 0.10754134505987167
0.37578585743904114 0.71178144216537476 0.067466825246810913
0.49050462245941162 0.70846617221832275 0.044427085667848587
0.59677135944366455 0.7024884819984436 0.038873724639415741
0.6814342737197876 0.69614177942276001 0.041274290531873703
0.76340603828430176 0.69649851322174072 0.033363178372383118
0.8448978066444397 0.6980556845664978 0.029865413904190063
0.9110032320022583 0.69798791408538818 0.025013178586959839
0.959053635597229 0.69844955205917358 0.024841697886586189
0.98764097690582275 0.69880664348602295 0.012466087006032467
0.9989890456199646 0.70941931009292603 0.0038009195122867823
0.28750190138816833 0.8017498254776001 0.26446473598480225
0.30149367451667786 0.8022264838218689 0.22611540555953979
0.34068360924720764 0.80753993988037109 0.15557509660720825
0.41274797916412354 0.80923342704772949 0.099431402981281281
0.51196134090423584 0.80550724267959595 0.066410154104232788
0.61694401502609253 0.79546648263931274 0.04691651463508606
0.71684569120407104 0.78608661890029907 0.031395856291055679
0.8025403618812561 0.7818184494972229 0.027457712218165398
0.87914687395095825 0.77816987037658691 0.025106737390160561
0.9419705867767334 0.77455949783325195 0.023300126194953918
0.97657740116119385 0.76948744058609009 0.029303083196282387
0.99364250898361206 0.76353937387466431 0.01675109937787056
0.99993163347244263 0.76240187883377075 0.0084831835702061653
0.34916520118713379 0.88404232263565063 0.28611612319946289
0.36228695511817932 0.88849318027496338 0.26107823848724365
0.39053487777709961 0.88894951343536377 0.19341203570365906
0.44117254018783569 0.88870441913604736 0.12456320971250534
0.53022897243499756 0.88247054815292358 0.087771832942962646
0.62878257036209106 0.87842750549316406 0.06916828453540802
0.73438930511474609 0.86622083187103271 0.02937215194106102
0.83349424600601196 0.85636603832244873 0.019886629655957222
0.90417790412902832 0.84936904907226562 0.016508080065250397
0.96716707944869995 0.84457671642303467 0.010392267256975174
0.98681902885437012 0.83533555269241333 0.01156717911362648
0.99768918752670288 0.82955574989318848 0.010703083127737045
1 0.82557117938995361 0.012638496235013008
0.40534943342208862 0.9583924412727356 0.31169015169143677
0.40943232178688049 0.95856451988220215 0.27978354692459106
0.42181792855262756 0.9589044451713562 0.21232742071151733
0.45843219757080078 0.95738232135772705 0.13445553183555603
0.53958702087402344 0.95261907577514648 0.082750938832759857
0.63212573528289795 0.94908779859542847 0.058127831667661667
0.73102331161499023 0.94034808874130249 0.020980969071388245
0.83937585353851318 0.92694902420043945 0.0084991306066513062
0.91178357601165771 0.91664361953735352 0.0060011171735823154
0.96423822641372681 0.90400773286819458 0.0051287184469401836
0.99161601066589355 0.89443892240524292 0.004721278790384531
0.99950337409973145 0.88564896583557129 0.0052449693903326988
1 0.88097089529037476 0.0072555243968963623
0.43006196618080139 0.99078989028930664 0.32225450873374939
0.43579968810081482 0.99621844291687012 0.28734087944030762
0.44664677977561951 0.99558049440383911 0.21756868064403534
0.46923479437828064 0.99297314882278442 0.1263897716999054
0.53926968574523926 0.9877135157585144 0.06532394140958786
0.63154774904251099 0.97957968711853027 0.035150967538356781
0.72601103782653809 0.97461557388305664 0.016537848860025406
0.82641899585723877 0.97679483890533447 0.003307148115709424
0.90672475099563599 0.95881682634353638 0.0023572135251015425
0.9590904712677002 0.94993031024932861 0.0019210067111998796
0.99598133563995361 0.94378864765167236 0.00084672815864905715
1 0.93190336227416992 0.0034830281510949135
1 0.92633974552154541 0.0039215688593685627
0.0018084357725456357 0.025356143712997437 0.11040544509887695
0.017687225714325905 0.019460057839751244 0.11997181177139282
0.066046155989170074 0.013535174541175365 0.13623842597007751
0.13471114635467529 0.015435087494552135 0.13415221869945526
0.20770759880542755 0.018054917454719543 0.11053913831710815
0.28604811429977417 0.018622035160660744 0.086146816611289978
0.37061858177185059 0.014469221234321594 0.073824219405651093
0.47268500924110413 0.0090946871787309647 0.040001619607210159
0.57244336605072021 0.0094096614047884941 0.032241731882095337
0.67119485139846802 0.020651379600167274 0.02614065445959568
0.77821463346481323 0.019111109897494316 0.017377786338329315
0.89461439847946167 0.015000242739915848 0.01189530361443758
0.97329545021057129 0.027902476489543915 0.0039811977185308933
0.0025997536722570658 0.064436383545398712 0.096261627972126007
0.016770247370004654 0.057280939072370529 0.083335801959037781
0.077033102512359619 0.052237775176763535 0.080310150980949402
0.1488623172044754 0.053971383720636368 0.073843039572238922
0.21991366147994995 0.05481160432100296 0.065087668597698212
0.29622355103492737 0.04872957244515419 0.045125041157007217
0.37620657682418823 0.045362584292888641 0.040476646274328232
0.47249752283096313 0.043932102620601654 0.03018532507121563
0.57346785068511963 0.047388847917318344 0.020735587924718857
0.67225086688995361 0.06257706880569458 0.0207393579185009
0.78523796796798706 0.059416409581899643 0.014920791611075401
0.89726084470748901 0.061014227569103241 0.0075819874182343483
0.97849893569946289 0.082590676844120026 0.0057026282884180546
2.058440622931812e-05 0.12558850646018982 0.10840324312448502
0.014117461629211903 0.12037703394889832 0.083214268088340759
0.077124543488025665 0.11953333020210266 0.056099999696016312
0.15576255321502686 0.12243782728910446 0.039058774709701538
0.22131982445716858 0.13149175047874451 0.030357973650097847
0.29354956746101379 0.13875071704387665 0.022858414798974991
0.37080198526382446 0.1398855596780777 0.019123570993542671
0.4650912880897522 0.14664702117443085 0.013003749772906303
0.56765204668045044 0.16254927217960358 0.010044441558420658
0.6640428900718689 0.18071116507053375 0.01655660942196846
0.77626770734786987 0.18205441534519196 0.0091288695111870766
0.88696193695068359 0.20272424817085266 0.0074520483613014221
0.97526568174362183 0.20093150436878204 0.0078187230974435806
0.00018072689999826252 0.19910073280334473 0.13075613975524902
0.0071358773857355118 0.19955956935882568 0.099345371127128601
0.062074340879917145 0.20050351321697235 0.061290260404348373
0.17483647167682648 0.20380634069442749 0.045053057372570038
0.25256583094596863 0.21283663809299469 0.038067612797021866
0.31414434313774109 0.23025688529014587 0.026043208315968513
0.37920364737510681 0.24533116817474365 0.014422069303691387
0.46496379375457764 0.26675176620483398 0.012169273570179939
0.56438708305358887 0.28654247522354126 0.011044895276427269
0.66319406032562256 0.30573287606239319 0.0074984082020819187
0.76954478025436401 0.32111814618110657 0.0039241714403033257
0.88116258382797241 0.33522453904151917 0.0037102343048900366
0.97223687171936035 0.34350365400314331 0.0046577304601669312
0.00070969824446365237 0.28335079550743103 0.15495525300502777
0.013516190461814404 0.28961265087127686 0.12198297679424286
0.05353749543428421 0.29188087582588196 0.077170893549919128
0.18923823535442352 0.29506123065948486 0.058412082493305206
0.29335686564445496 0.3022858202457428 0.053842194378376007
0.36920621991157532 0.31178992986679077 0.048116959631443024
0.43835356831550598 0.32536071538925171 0.03653247281908989
0.51714813709259033 0.34962397813796997 0.020725294947624207
0.60043275356292725 0.37441533803939819 0.0091746905818581581
0.68994337320327759 0.3976503312587738 0.005317014642059803
0.7843475341796875 0.41922655701637268 0.001563591999001801
0.88687634468078613 0.43821829557418823 0.00079668831313028932
0.96801698207855225 0.45018064975738525 0.0024002224672585726
0.00051787134725600481 0.38149413466453552 0.1871694028377533
0.016973966732621193 0.38549494743347168 0.15587656199932098
0.077477969229221344 0.3905845582485199 0.097859039902687073
0.21000303328037262 0.39349102973937988 0.072815492749214172
0.3309732973575592 0.3966987133026123 0.066892527043819427
0.42222431302070618 0.4019571840763092 0.062896385788917542
0.50459516048431396 0.41079610586166382 0.054372541606426239
0.58730906248092651 0.42508226633071899 0.025059465318918228
0.667979896068573 0.45036399364471436 0.01852061040699482
0.74709129333496094 0.47167310118675232 0.01009069662541151
0.82788419723510742 0.49332371354103088 0.0034953698050230742
0.91342735290527344 0.51429635286331177 0.001874198205769062
0.96672403812408447 0.52695053815841675 0.0040689208544790745
0.015072557143867016 0.48497378826141357 0.22672280669212341
0.028331233188509941 0.48623961210250854 0.19471350312232971
0.1138642281293869 0.49243369698524475 0.13341161608695984
0.24950793385505676 0.49670261144638062 0.094772845506668091
0.38016963005065918 0.49895966053009033 0.081342391669750214
0.48430031538009644 0.50132125616073608 0.074057832360267639
0.56810915470123291 0.50524115562438965 0.071226887404918671
0.65614181756973267 0.51434242725372314 0.05252591148018837
0.74073541164398193 0.52731144428253174 0.042068976908922195
0.81485247611999512 0.54323852062225342 0.028606250882148743
0.8828284740447998 0.56076633930206299 0.010959954001009464
0.95247864723205566 0.57752472162246704 0.0033154806587845087
0.98257255554199219 0.59055083990097046 0.0027782067190855742
0.091323733329772949 0.59665316343307495 0.26811674237251282
0.092377454042434692 0.59465312957763672 0.23577415943145752
0.17769728600978851 0.60030943155288696 0.17014710605144501
0.30257976055145264 0.60599255561828613 0.11926925927400589
0.43394672870635986 0.6085890531539917 0.099115572869777679
0.54452311992645264 0.60490661859512329 0.084348194301128387
0.63045716285705566 0.60623288154602051 0.08092103898525238
0.71604913473129272 0.61143326759338379 0.077714361250400543
0.80355238914489746 0.61241704225540161 0.072060182690620422
0.88100564479827881 0.62047058343887329 0.047823183238506317
0.94342905282974243 0.63030362129211426 0.026792893186211586
0.98225629329681396 0.64266347885131836 0.010061750188469887
0.99452346563339233 0.65785092115402222 0.0035203222651034594
0.21118311583995819 0.70776957273483276 0.30479174852371216
0.23225779831409454 0.71124237775802612 0.27817252278327942
0.27621081471443176 0.71370768547058105 0.20598483085632324
0.36333954334259033 0.71754831075668335 0.14885540306568146
0.47340592741966248 0.71435546875 0.11930232495069504
0.58674448728561401 0.70693761110305786 0.10161047428846359
0.68070942163467407 0.70278096199035645 0.092571064829826355
0.76143008470535278 0.70082521438598633 0.095094390213489532
0.84577250480651855 0.69922149181365967 0.093581177294254303
0.92216390371322632 0.69997954368591309 0.078743383288383484
0.97308862209320068 0.70038485527038574 0.058888096362352371
0.99093949794769287 0.70427316427230835 0.0341910719871521
0.99883031845092773 0.71374994516372681 0.010808892548084259
0.29666107892990112 0.7981867790222168 0.32975476980209351
0.31676730513572693 0.80203735828399658 0.31274107098579407
0.34731239080429077 0.80720263719558716 0.24516879022121429
0.39989000558853149 0.8124268651008606 0.17663347721099854
0.49575835466384888 0.80741530656814575 0.1448204517364502
0.60668396949768066 0.79717743396759033 0.12086936831474304
0.71078109741210938 0.79032760858535767 0.09358341246843338
0.80235391855239868 0.787911057472229 0.097998194396495819
0.87775909900665283 0.78169792890548706 0.095621146261692047
0.94527190923690796 0.77437973022460938 0.080323345959186554
0.98566466569900513 0.7689131498336792 0.06832384318113327
0.9950597882270813 0.76555359363555908 0.041422195732593536
0.99963057041168213 0.76673412322998047 0.02033538743853569
0.36008265614509583 0.88084423542022705 0.35391691327095032
0.38139769434928894 0.88435178995132446 0.3399406373500824
0.40573331713676453 0.8874887228012085 0.2885124683380127
0.4378783106803894 0.88957506418228149 0.20236192643642426
0.51513814926147461 0.88709843158721924 0.16005900502204895
0.61650556325912476 0.88158941268920898 0.13311311602592468
0.72459417581558228 0.86979228258132935 0.091454736888408661
0.8257175087928772 0.86006689071655273 0.07472577691078186
0.89756506681442261 0.85134714841842651 0.070260681211948395
0.96159929037094116 0.84360092878341675 0.057058028876781464
0.98755121231079102 0.8355746865272522 0.042352832853794098
0.99882787466049194 0.83000820875167847 0.036511469632387161
1 0.82523643970489502 0.04891306534409523
0.41616129875183105 0.95571565628051758 0.37511557340621948
0.4232633113861084 0.95542913675308228 0.35252088308334351
0.43869310617446899 0.95677107572555542 0.29872000217437744
0.46270415186882019 0.95887690782546997 0.20987164974212646
0.52912610769271851 0.95467573404312134 0.1548730731010437
0.61934632062911987 0.95297545194625854 0.1138065978884697
0.72459465265274048 0.9408988356590271 0.0742926225066185
0.83773505687713623 0.9275665283203125 0.046834610402584076
0.91393649578094482 0.91470503807067871 0.032999224960803986
0.97219324111938477 0.90377181768417358 0.023354504257440567
0.99259835481643677 0.89441168308258057 0.021875612437725067
0.99932825565338135 0.88557249307632446 0.024725776165723801
1 0.87800449132919312 0.028619086369872093
0.43949335813522339 0.98862099647521973 0.38300219178199768
0.44718426465988159 0.99360412359237671 0.35878825187683105
0.4629957377910614 0.99524253606796265 0.30817753076553345
0.48729917407035828 0.99148297309875488 0.21731439232826233
0.53033000230789185 0.99204027652740479 0.13095279037952423
0.61892110109329224 0.98971045017242432 0.082510806620121002
0.7112419605255127 0.98767787218093872 0.054055366665124893
0.81854808330535889 0.97767919301986694 0.037360217422246933
0.91293483972549438 0.9622037410736084 0.010566576384007931
0.97099649906158447 0.94905424118041992 0.0060753617435693741
0.99606519937515259 0.9439082145690918 0.0080253304913640022
0.99987345933914185 0.93243485689163208 0.010543912649154663
1 0.92042326927185059 0.010134723037481308
0 0.037774328142404556 0.15596345067024231
0.0040037268772721291 0.041538942605257034 0.16437031328678131
0.021980540826916695 0.041545838117599487 0.18574357032775879
0.061567105352878571 0.042531497776508331 0.21321415901184082
0.13404813408851624 0.048901665955781937 0.22963637113571167
0.22105924785137177 0.050332266837358475 0.23732435703277588
0.30666124820709229 0.054731123149394989 0.24368701875209808
0.41575267910957336 0.045034684240818024 0.21509821712970734
0.53389114141464233 0.036696877330541611 0.18857386708259583
0.63958621025085449 0.053158208727836609 0.18284837901592255
0.75344431400299072 0.049079909920692444 0.15672719478607178
0.87596505880355835 0.033925477415323257 0.10954148322343826
0.97527271509170532 0.027178552001714706 0.094212010502815247
0 0.073816753923892975 0.12710680067539215
0.0031300564296543598 0.076342746615409851 0.13034024834632874
0.028104923665523529 0.076590381562709808 0.15179885923862457
0.08768298476934433 0.077178925275802612 0.17983965575695038
0.15921854972839355 0.080989152193069458 0.20400632917881012
0.24636094272136688 0.082576334476470947 0.20416179299354553
0.33237135410308838 0.08485063910484314 0.20377624034881592
0.43690240383148193 0.077761255204677582 0.18160860240459442
0.55075716972351074 0.07297825813293457 0.15480662882328033
0.65745645761489868 0.078547626733779907 0.142799973487854
0.77748954296112061 0.05770498514175415 0.10288066416978836
0.89464360475540161 0.053045820444822311 0.085699401795864105
0.98166489601135254 0.053253967314958572 0.078344233334064484
0 0.1260894238948822 0.14408747851848602
0.0033713995944708586 0.12870761752128601 0.13612551987171173
0.043368559330701828 0.12989501655101776 0.13563942909240723
0.12711572647094727 0.13033106923103333 0.13672098517417908
0.20286840200424194 0.13611851632595062 0.14437636733055115
0.27902182936668396 0.14571775496006012 0.14698648452758789
0.36426082253456116 0.14796295762062073 0.136667400598526
0.46934765577316284 0.15110264718532562 0.11233605444431305
0.57595407962799072 0.15311792492866516 0.09271114319562912
0.68323403596878052 0.14794924855232239 0.079087004065513611
0.79812723398208618 0.14559976756572723 0.062445547431707382
0.90787988901138306 0.1550842821598053 0.063385665416717529
0.98466885089874268 0.1495034247636795 0.054627526551485062
0 0.19781427085399628 0.1849629282951355
0.0037018421571701765 0.20129765570163727 0.17178438603878021
0.043304070830345154 0.2060079425573349 0.14901652932167053
0.15185132622718811 0.20996205508708954 0.1304379403591156
0.23339107632637024 0.21783339977264404 0.12276162207126617
0.30576342344284058 0.23229503631591797 0.11500652879476547
0.38530078530311584 0.24007473886013031 0.091178730130195618
0.48784640431404114 0.25482061505317688 0.077253364026546478
0.59020155668258667 0.2669159471988678 0.061269499361515045
0.69148141145706177 0.27421808242797852 0.044060353189706802
0.80782401561737061 0.27414244413375854 0.029632613062858582
0.91536170244216919 0.28889507055282593 0.031590018421411514
0.98043477535247803 0.29703050851821899 0.030315892770886421
1.220703143189894e-05 0.28628891706466675 0.22468161582946777
0.0052749784663319588 0.28838086128234863 0.20842276513576508
0.044759113341569901 0.29272502660751343 0.18163996934890747
0.16224679350852966 0.29916897416114807 0.1545533686876297
0.27064371109008789 0.3039298951625824 0.13534341752529144
0.35295975208282471 0.31575247645378113 0.12485776096582413
0.42317777872085571 0.33060535788536072 0.11303308606147766
0.51200294494628906 0.35149642825126648 0.091300562024116516
