assets/lut/creative foggynight.cube
# Created by: G'MIC (https://gmic.eu)
TITLE "foggynight"
# LUT size
LUT_3D_SIZE 7
# Data domain
DOMAIN_MIN 0.0 0.0 0.0
DOMAIN_MAX 1.0 1.0 1.0
# LUT data points
0.1062353104352951 0.14299887418746948 0.20665723085403442
0.15592627227306366 0.13642583787441254 0.20137745141983032
0.20817685127258301 0.1370745450258255 0.18816785514354706
0.24996699392795563 0.14233611524105072 0.1797243058681488
0.29749956727027893 0.15451809763908386 0.18236027657985687
0.35396343469619751 0.17802029848098755 0.1909060925245285
0.424763023853302 0.21365930140018463 0.21035456657409668
0.097079858183860779 0.16903336346149445 0.18605393171310425
0.14426875114440918 0.16551639139652252 0.17267708480358124
0.20151673257350922 0.1633782684803009 0.17470112442970276
0.24739973247051239 0.16578182578086853 0.17911972105503082
0.29982197284698486 0.17910780012607574 0.18608522415161133
0.36043193936347961 0.20218434929847717 0.19880807399749756
0.43614688515663147 0.23855194449424744 0.2241416871547699
0.1123025044798851 0.21474702656269073 0.18355576694011688
0.13766145706176758 0.21137146651744843 0.16736410558223724
0.19960859417915344 0.20867539942264557 0.1665893942117691
0.25661149621009827 0.21239137649536133 0.17523530125617981
0.31391966342926025 0.22341802716255188 0.19599741697311401
0.38066580891609192 0.25191465020179749 0.21728159487247467
0.46954771876335144 0.29680916666984558 0.25129562616348267
0.1473831981420517 0.2724049985408783 0.20224246382713318
0.16450245678424835 0.27473187446594238 0.19021110236644745
0.22010727226734161 0.27933207154273987 0.18318192660808563
0.28354242444038391 0.28675496578216553 0.19079999625682831
0.35770851373672485 0.30326706171035767 0.21236319839954376
0.43278875946998596 0.33058363199234009 0.24650129675865173
0.5237002968788147 0.37849760055541992 0.28778091073036194
0.23010888695716858 0.37750184535980225 0.25457984209060669
0.25140637159347534 0.38517463207244873 0.24810966849327087
0.28629481792449951 0.39109814167022705 0.239675372838974
0.35353705286979675 0.40754720568656921 0.24554666876792908
0.43705710768699646 0.43199142813682556 0.26738765835762024
0.52979159355163574 0.46835422515869141 0.2952120304107666
0.64842128753662109 0.52580809593200684 0.35415500402450562
0.37398374080657959 0.54378068447113037 0.34564197063446045
0.38975322246551514 0.54866743087768555 0.34514573216438293
0.42721998691558838 0.56420022249221802 0.3411070704460144
0.48750871419906616 0.59053820371627808 0.34524661302566528
0.57861191034317017 0.62245386838912964 0.36998528242111206
0.6930268406867981 0.67025315761566162 0.40655648708343506
0.82277947664260864 0.73495227098464966 0.46224892139434814
0.62462741136550903 0.81961911916732788 0.51959693431854248
0.63565468788146973 0.82316404581069946 0.5170828104019165
0.67021220922470093 0.842803955078125 0.51523810625076294
0.72411119937896729 0.87077206373214722 0.51924145221710205
0.81225073337554932 0.90197992324829102 0.54085022211074829
0.89641314744949341 0.93061184883117676 0.56140601634979248
0.96605592966079712 0.93099093437194824 0.57087427377700806
0.085824154317378998 0.13964287936687469 0.26135009527206421
0.14572983980178833 0.13496915996074677 0.24397836625576019
0.19574105739593506 0.13829901814460754 0.23265010118484497
0.24076509475708008 0.14764472842216492 0.22642914950847626
0.28782263398170471 0.15752135217189789 0.22607523202896118
0.34688079357147217 0.18062527477741241 0.22843968868255615
0.41658499836921692 0.21272522211074829 0.2421083003282547
0.089720979332923889 0.1684156209230423 0.23135663568973541
0.13012060523033142 0.16507367789745331 0.22814065217971802
0.18788391351699829 0.16492302715778351 0.22564652562141418
0.23872332274913788 0.16589587926864624 0.22406242787837982
0.29138815402984619 0.17951689660549164 0.22688686847686768
0.35360348224639893 0.20035049319267273 0.23706039786338806
0.43281126022338867 0.24272723495960236 0.25691235065460205
0.10754596441984177 0.21033044159412384 0.22553889453411102
0.13654361665248871 0.21059808135032654 0.21997083723545074
0.19343750178813934 0.20867671072483063 0.21156889200210571
0.2461937814950943 0.21201226115226746 0.21646510064601898
0.31036078929901123 0.22847877442836761 0.23396559059619904
0.37633344531059265 0.25210124254226685 0.25032809376716614
0.46556371450424194 0.29655596613883972 0.28437983989715576
0.14902171492576599 0.26940208673477173 0.24623870849609375
0.1684468686580658 0.27251729369163513 0.23616586625576019
0.21462765336036682 0.28075721859931946 0.22385141253471375
0.28139182925224304 0.28684931993484497 0.228046715259552
0.35342893004417419 0.30322602391242981 0.24648410081863403
0.42919424176216125 0.33303168416023254 0.28186014294624329
0.52153521776199341 0.3808058500289917 0.31823223829269409
0.23301437497138977 0.37515860795974731 0.29132959246635437
0.24783380329608917 0.38010209798812866 0.28370493650436401
0.29162532091140747 0.39511221647262573 0.27856048941612244
0.3482801616191864 0.40938904881477356 0.2763516902923584
0.43691247701644897 0.43161466717720032 0.29268810153007507
0.52971374988555908 0.46773970127105713 0.32828471064567566
0.64743834733963013 0.52651005983352661 0.38430684804916382
0.37750914692878723 0.54020768404006958 0.37951844930648804
0.39583003520965576 0.55064016580581665 0.38054159283638
0.43089598417282104 0.56422382593154907 0.372048020362854
0.48980176448822021 0.59001702070236206 0.37473377585411072
0.58039462566375732 0.62342667579650879 0.39711794257164001
0.68955665826797485 0.66883951425552368 0.43292275071144104
0.82655513286590576 0.74267518520355225 0.48928284645080566
0.62898683547973633 0.82008451223373413 0.54913520812988281
0.64382708072662354 0.82457166910171509 0.54934775829315186
0.67676538228988647 0.8443787693977356 0.5471685528755188
0.72932511568069458 0.87254220247268677 0.54934233427047729
0.8120574951171875 0.90425956249237061 0.56514579057693481
0.89301919937133789 0.9270738959312439 0.58456134796142578
0.9742085337638855 0.94296956062316895 0.60113060474395752
0.093148775398731232 0.13362023234367371 0.3189750611782074
0.13668559491634369 0.13252729177474976 0.30300801992416382
0.18394817411899567 0.14160776138305664 0.27667152881622314
0.22877229750156403 0.14750856161117554 0.26976418495178223
0.27768918871879578 0.16347365081310272 0.27313423156738281
0.33584025502204895 0.18522568047046661 0.2789510190486908
0.41206711530685425 0.22003485262393951 0.29452499747276306
0.071450509130954742 0.16789215803146362 0.28773242235183716
0.12123208492994308 0.1654258668422699 0.28603854775428772
0.17887432873249054 0.164202019572258 0.27464798092842102
0.2271050363779068 0.17202478647232056 0.26888683438301086
0.28214356303215027 0.18576182425022125 0.27650505304336548
0.34818002581596375 0.20884273946285248 0.28618019819259644
0.42760658264160156 0.24584312736988068 0.30402615666389465
0.1043175607919693 0.20950530469417572 0.26548102498054504
0.13358449935913086 0.21021483838558197 0.26716414093971252
0.18029509484767914 0.21023808419704437 0.26882869005203247
0.23800201714038849 0.21861281991004944 0.27384033799171448
0.3000236451625824 0.23289571702480316 0.2873590886592865
0.3690192699432373 0.26003110408782959 0.30090224742889404
0.46308231353759766 0.30278667807579041 0.32897076010704041
0.14899665117263794 0.26924481987953186 0.28406223654747009
0.17472624778747559 0.27332422137260437 0.28797987103462219
0.21148474514484406 0.27803441882133484 0.28540441393852234
0.27167713642120361 0.28803750872612 0.28297531604766846
0.34356546401977539 0.30546194314956665 0.30160421133041382
0.42422351241111755 0.33862560987472534 0.33345869183540344
0.52117347717285156 0.38769596815109253 0.37015321850776672
0.24783876538276672 0.37511113286018372 0.33823519945144653
0.26017433404922485 0.37914836406707764 0.339214026927948
0.2966054379940033 0.39281418919563293 0.33961194753646851
0.34758755564689636 0.40967682003974915 0.33389085531234741
0.43363988399505615 0.43527057766914368 0.34906154870986938
0.52850329875946045 0.47314435243606567 0.38390558958053589
0.63819074630737305 0.53104501962661743 0.43508267402648926
0.40041592717170715 0.54492652416229248 0.43520209193229675
0.40851220488548279 0.54737341403961182 0.43475478887557983
0.44134247303009033 0.56330734491348267 0.43302729725837708
0.49353146553039551 0.59021222591400146 0.4316565990447998
0.58106511831283569 0.62851160764694214 0.44849318265914917
0.69548016786575317 0.67784464359283447 0.48733070492744446
0.82252085208892822 0.74477213621139526 0.54130184650421143
0.64655691385269165 0.81711369752883911 0.6005016565322876
0.66069447994232178 0.82721656560897827 0.60256922245025635
0.69314122200012207 0.84700459241867065 0.60649645328521729
0.73805832862854004 0.87068414688110352 0.60501718521118164
0.81043434143066406 0.90729260444641113 0.61373651027679443
0.88586771488189697 0.92326164245605469 0.62652117013931274
0.98005324602127075 0.94823378324508667 0.64828217029571533
0.092154711484909058 0.13173523545265198 0.36607316136360168
0.1306033581495285 0.13328282535076141 0.35674178600311279
0.1813640296459198 0.13940273225307465 0.33158445358276367
0.22580540180206299 0.15169732272624969 0.31218728423118591
0.27625995874404907 0.16775111854076385 0.31190207600593567
0.3316001296043396 0.18997828662395477 0.31889048218727112
0.41274508833885193 0.22902128100395203 0.33956369757652283
0.052197802811861038 0.16509285569190979 0.34342509508132935
0.11257008463144302 0.16430695354938507 0.34267038106918335
0.17189584672451019 0.16398058831691742 0.32906806468963623
0.22520540654659271 0.17464748024940491 0.31065398454666138
0.27745881676673889 0.18835872411727905 0.31419956684112549
0.3446333110332489 0.21595695614814758 0.32638710737228394
0.42355296015739441 0.2527976930141449 0.35178551077842712
0.094194702804088593 0.21158419549465179 0.31609520316123962
0.12125740945339203 0.21128827333450317 0.3189162015914917
0.1741625964641571 0.21429811418056488 0.32167094945907593
0.23272624611854553 0.22097177803516388 0.31651240587234497
0.29540514945983887 0.23885832726955414 0.32665723562240601
0.3639298677444458 0.26604381203651428 0.34667298197746277
0.46141740679740906 0.30932819843292236 0.37495651841163635
0.15278814733028412 0.26949205994606018 0.31975245475769043
0.17270457744598389 0.27402451634407043 0.32469174265861511
0.21143098175525665 0.27955141663551331 0.32916271686553955
0.26895898580551147 0.29244199395179749 0.34092807769775391
0.33838933706283569 0.31186693906784058 0.35567864775657654
0.42269980907440186 0.34441125392913818 0.3821718692779541
0.52210265398025513 0.39894008636474609 0.42076635360717773
0.24613644182682037 0.38054156303405762 0.37692129611968994
0.26675194501876831 0.384410560131073 0.38137510418891907
0.3021685779094696 0.39305528998374939 0.38871541619300842
0.35377389192581177 0.40973839163780212 0.39673960208892822
0.43503683805465698 0.44039073586463928 0.40733751654624939
0.52530193328857422 0.48138242959976196 0.44387397170066833
0.63780683279037476 0.54150962829589844 0.49448394775390625
0.41129925847053528 0.54976165294647217 0.47906345129013062
0.42290040850639343 0.55230045318603516 0.48217138648033142
0.45435073971748352 0.56423795223236084 0.48795428872108459
0.50949180126190186 0.593944251537323 0.50125151872634888
0.58478802442550659 0.63237154483795166 0.50921148061752319
0.69536256790161133 0.68115806579589844 0.5414893627166748
0.82410091161727905 0.75241011381149292 0.59964644908905029
0.66320031881332397 0.81669265031814575 0.64821475744247437
0.68252819776535034 0.82975846529006958 0.66063064336776733
0.71066808700561523 0.84468626976013184 0.6671869158744812
0.75541597604751587 0.87345510721206665 0.67588192224502563
0.81566643714904785 0.9053955078125 0.67709553241729736
0.89149701595306396 0.930824875831604 0.68453359603881836
0.97616469860076904 0.94865274429321289 0.69683706760406494
0.095170147716999054 0.13135959208011627 0.41454902291297913
0.12499181926250458 0.13194671273231506 0.4081471860408783
0.17500324547290802 0.1370449960231781 0.38758528232574463
0.22713781893253326 0.15002328157424927 0.36475783586502075
0.27446249127388 0.16773363947868347 0.35506728291511536
0.33470335602760315 0.19577489793300629 0.36432570219039917
0.41127923130989075 0.23628245294094086 0.38276708126068115
0.071085132658481598 0.16310429573059082 0.39873254299163818
0.10035573691129684 0.16498464345932007 0.39666444063186646
0.16794870793819427 0.16545729339122772 0.3872586190700531
0.22655192017555237 0.17536929249763489 0.36781191825866699
0.27818813920021057 0.19117915630340576 0.36136999726295471
0.34605282545089722 0.22042365372180939 0.37182700634002686
0.42744439840316772 0.2607782781124115 0.3936915397644043
0.066603928804397583 0.21405494213104248 0.38037788867950439
0.099275343120098114 0.21682438254356384 0.38376632332801819
0.17065651714801788 0.21646516025066376 0.38133969902992249
0.23500542342662811 0.22145622968673706 0.37597557902336121
0.29602953791618347 0.24071109294891357 0.37148305773735046
0.37014347314834595 0.27001732587814331 0.39101621508598328
0.46196234226226807 0.31865695118904114 0.42240756750106812
0.15067657828330994 0.27824810147285461 0.3694121241569519
0.16936443746089935 0.27891147136688232 0.37385576963424683
0.20936138927936554 0.28443083167076111 0.38393914699554443
0.26362377405166626 0.29655751585960388 0.39782395958900452
0.34180295467376709 0.32073459029197693 0.40567615628242493
0.42367494106292725 0.35317665338516235 0.42774897813796997
0.51866841316223145 0.40459796786308289 0.46647059917449951
0.26213261485099792 0.38826730847358704 0.41987225413322449
0.27631381154060364 0.39089834690093994 0.4195249080657959
0.31452536582946777 0.39900746941566467 0.4307122528553009
0.36090186238288879 0.41938143968582153 0.44688361883163452
0.43915334343910217 0.44911408424377441 0.47105735540390015
0.53299885988235474 0.49189883470535278 0.50733202695846558
0.64269417524337769 0.54877316951751709 0.5523567795753479
0.42165693640708923 0.55648672580718994 0.52240234613418579
0.43571525812149048 0.56143748760223389 0.52463090419769287
0.47359195351600647 0.57931756973266602 0.54129862785339355
0.52443951368331909 0.60040003061294556 0.55804634094238281
0.60004115104675293 0.64181226491928101 0.58186626434326172
0.70014315843582153 0.69303840398788452 0.61166733503341675
0.82711195945739746 0.76634526252746582 0.67252475023269653
0.68335562944412231 0.83288955688476562 0.70533186197280884
0.69923543930053711 0.84172093868255615 0.71383178234100342
0.72924560308456421 0.85632419586181641 0.72546923160552979
0.77392935752868652 0.87947618961334229 0.73992514610290527
0.8349425196647644 0.90993094444274902 0.75681596994400024
0.89778083562850952 0.93752121925354004 0.7521064281463623
0.96746820211410522 0.95011401176452637 0.76150810718536377
0.098116807639598846 0.13171955943107605 0.45632490515708923
0.12919008731842041 0.13454276323318481 0.45164966583251953
0.17403779923915863 0.13811129331588745 0.44080334901809692
0.22603967785835266 0.15015415847301483 0.42324820160865784
0.28021946549415588 0.1684507429599762 0.40873557329177856
0.34006887674331665 0.20208828151226044 0.40750172734260559
0.41804590821266174 0.2448364645242691 0.43109780550003052
0.073280856013298035 0.16348069906234741 0.44706729054450989
0.1042524129152298 0.16368459165096283 0.44648957252502441
0.16680136322975159 0.16668592393398285 0.43938800692558289
0.22868742048740387 0.17554748058319092 0.42884746193885803
0.28745085000991821 0.19245953857898712 0.41495928168296814
0.347929447889328 0.22523126006126404 0.41615253686904907
0.43060034513473511 0.27102082967758179 0.44136360287666321
0.066680476069450378 0.21630182862281799 0.43730950355529785
0.10358651727437973 0.21642684936523438 0.43564778566360474
0.17060011625289917 0.21860849857330322 0.43649324774742126
0.23802438378334045 0.22749292850494385 0.43832561373710632
0.30775555968284607 0.24548414349555969 0.43527504801750183
0.3805772066116333 0.28316250443458557 0.44330295920372009
0.46983453631401062 0.33130261301994324 0.47216525673866272
0.13360138237476349 0.28134375810623169 0.43675464391708374
0.15565261244773865 0.28553974628448486 0.4411151111125946
0.20753724873065948 0.29355987906455994 0.45307669043540955
0.27165701985359192 0.30507954955101013 0.46047019958496094
0.35321265459060669 0.32576283812522888 0.47088277339935303
0.43579947948455811 0.36648106575012207 0.48316898941993713
0.53260987997055054 0.4178469181060791 0.51544308662414551
0.27352109551429749 0.39447900652885437 0.46761071681976318
0.28521814942359924 0.39972576498985291 0.47133111953735352
0.32053536176681519 0.41271311044692993 0.48552253842353821
0.37161263823509216 0.43420633673667908 0.51040554046630859
0.44409048557281494 0.46038916707038879 0.5364842414855957
0.53879785537719727 0.50021117925643921 0.55840498208999634
0.6556628942489624 0.56640541553497314 0.60284608602523804
0.43866100907325745 0.56674575805664062 0.5657421350479126
0.4538646936416626 0.57522463798522949 0.57238280773162842
0.48888710141181946 0.59243762493133545 0.58444857597351074
0.54230433702468872 0.61649638414382935 0.60669761896133423
0.61679792404174805 0.65676558017730713 0.64096528291702271
0.7119109034538269 0.7059013843536377 0.68244743347167969
0.84272998571395874 0.78621017932891846 0.74648380279541016
0.70123934745788574 0.84958493709564209 0.75798481702804565
0.71095019578933716 0.85123038291931152 0.75955700874328613
0.74233019351959229 0.86743748188018799 0.77224159240722656
0.79055631160736084 0.89106184244155884 0.79163151979446411
0.8518790602684021 0.91510945558547974 0.81468003988265991
0.90650445222854614 0.94004333019256592 0.82721966505050659
0.97132062911987305 0.95232325792312622 0.82828706502914429
0.09519735723733902 0.13592994213104248 0.5036017894744873
0.12802229821681976 0.13660530745983124 0.49956685304641724
0.17260651290416718 0.14353665709495544 0.49473023414611816
0.22745098173618317 0.15381629765033722 0.48374363780021667
0.28679507970809937 0.17491739988327026 0.47017839550971985
0.35240647196769714 0.20871886610984802 0.47013866901397705
0.42865756154060364 0.26287874579429626 0.48454058170318604
0.082469150424003601 0.16321039199829102 0.49659591913223267
0.11854159832000732 0.16339552402496338 0.49234572052955627
0.17157405614852905 0.17001749575138092 0.49042597413063049
0.22870755195617676 0.17982740700244904 0.48913329839706421
0.29404482245445251 0.1971229761838913 0.47893929481506348
0.3616330623626709 0.23139481246471405 0.47879940271377563
0.44359087944030762 0.28282031416893005 0.49369403719902039
0.086105316877365112 0.21523533761501312 0.49016109108924866
0.12256704270839691 0.22081966698169708 0.49450480937957764
0.18113616108894348 0.22767427563667297 0.49719089269638062
0.24791204929351807 0.2372581958770752 0.49980074167251587
0.31460055708885193 0.25169694423675537 0.50379449129104614
0.39569371938705444 0.28797745704650879 0.50668561458587646
0.48346316814422607 0.34256890416145325 0.52665615081787109
0.14270308613777161 0.2908165454864502 0.50583541393280029
0.16614274680614471 0.29429507255554199 0.51069098711013794
0.20839747786521912 0.30155974626541138 0.51641619205474854
0.28441974520683289 0.31226101517677307 0.52376949787139893
0.36562836170196533 0.33402428030967712 0.53848648071289062
0.45313403010368347 0.37440004944801331 0.55229204893112183
0.55438929796218872 0.4351295530796051 0.57692325115203857
0.27110069990158081 0.40828168392181396 0.53355938196182251
0.29045745730400085 0.41201677918434143 0.54523986577987671
0.32376477122306824 0.42692571878433228 0.55930227041244507
0.37635257840156555 0.4451325535774231 0.58074110746383667
0.45821821689605713 0.47576326131820679 0.6085660457611084
0.56018906831741333 0.51772880554199219 0.63352352380752563
0.66172617673873901 0.57618498802185059 0.65848958492279053
0.4645201563835144 0.58720403909683228 0.62388408184051514
0.47672665119171143 0.59221953153610229 0.6296195387840271
0.51230430603027344 0.60801786184310913 0.64318209886550903
0.56004363298416138 0.63337987661361694 0.67025160789489746
0.63285195827484131 0.67498087882995605 0.70734041929244995
0.73438328504562378 0.73189359903335571 0.75903642177581787
0.86235255002975464 0.80288392305374146 0.80516040325164795
0.72384160757064819 0.86263585090637207 0.80247598886489868
0.73520594835281372 0.86747890710830688 0.80952715873718262
0.7646748423576355 0.87991476058959961 0.81857699155807495
0.80705147981643677 0.90191149711608887 0.83656191825866699
0.86297786235809326 0.92332309484481812 0.85862857103347778
0.9181932806968689 0.94244420528411865 0.87837052345275879
0.97018659114837646 0.95486050844192505 0.88600307703018188
