assets/lut/creative candlelight.cube
# Created by: G'MIC (https://gmic.eu)
TITLE "candlelight"
# LUT size
LUT_3D_SIZE 7
# Data domain
DOMAIN_MIN 0.0 0.0 0.0
DOMAIN_MAX 1.0 1.0 1.0
# LUT data points
0.072633795440196991 0.057425361126661301 0.045770756900310516
0.17521360516548157 0.10754936188459396 0.091315314173698425
0.27305504679679871 0.13915401697158813 0.1208207830786705
0.389352947473526 0.18632455170154572 0.17288748919963837
0.56292498111724854 0.27205696702003479 0.25589066743850708
0.78521299362182617 0.38186538219451904 0.36404222249984741
0.93304616212844849 0.4578711986541748 0.43520256876945496
0.13318660855293274 0.14880642294883728 0.08946952223777771
0.19322255253791809 0.15962664783000946 0.1042858213186264
0.28019750118255615 0.1852167546749115 0.13084566593170166
0.39434796571731567 0.2275824248790741 0.17782685160636902
0.56708967685699463 0.29984202980995178 0.26086881756782532
0.78282922506332397 0.39951077103614807 0.36409536004066467
0.94118726253509521 0.47826346755027771 0.44265982508659363
0.18040047585964203 0.23091123998165131 0.12360227853059769
0.2269124835729599 0.23514038324356079 0.12903915345668793
0.29699698090553284 0.25215384364128113 0.14371055364608765
0.40785342454910278 0.28227812051773071 0.19117876887321472
0.57628065347671509 0.34396481513977051 0.26809686422348022
0.78587925434112549 0.43161243200302124 0.36647045612335205
0.94274675846099854 0.50140190124511719 0.4444068968296051
0.24407118558883667 0.33622613549232483 0.17094847559928894
0.28328561782836914 0.34186336398124695 0.17599427700042725
0.34067484736442566 0.34570205211639404 0.18397358059883118
0.4336429238319397 0.36556354165077209 0.21392554044723511
0.59041887521743774 0.40802541375160217 0.28191673755645752
0.79871910810470581 0.4824034571647644 0.37881812453269958
0.94747388362884521 0.54545336961746216 0.45100438594818115
0.35367506742477417 0.49150380492210388 0.25194624066352844
0.38454201817512512 0.49889573454856873 0.25765207409858704
0.42708867788314819 0.504325270652771 0.26513421535491943
0.49146157503128052 0.50749498605728149 0.27470278739929199
0.61858844757080078 0.52970796823501587 0.31093502044677734
0.81626468896865845 0.58421653509140015 0.3958340585231781
0.96511459350585938 0.63524055480957031 0.46774598956108093
0.52050530910491943 0.72070157527923584 0.37569946050643921
0.53614085912704468 0.72024261951446533 0.37772893905639648
0.56644368171691895 0.72844260931015015 0.38649177551269531
0.60871952772140503 0.72541928291320801 0.3855559229850769
0.70738869905471802 0.73713850975036621 0.4023190438747406
0.86928689479827881 0.76765185594558716 0.4450739324092865
0.9901580810546875 0.79524195194244385 0.51432269811630249
0.64614582061767578 0.89625680446624756 0.46999648213386536
0.65683990716934204 0.89521360397338867 0.47037395834922791
0.67444658279418945 0.89661908149719238 0.47066938877105713
0.72026771306991577 0.90911620855331421 0.48395392298698425
0.80208730697631836 0.91681301593780518 0.4997011125087738
0.9198765754699707 0.92747730016708374 0.52313435077667236
0.99358546733856201 0.93250882625579834 0.65543848276138306
0.09258715808391571 0.074512436985969543 0.07493668794631958
0.17526689171791077 0.10854094475507736 0.1074836403131485
0.27155551314353943 0.13967502117156982 0.14060154557228088
0.38715741038322449 0.18980561196804047 0.18897244334220886
0.56753575801849365 0.27876433730125427 0.26844391226768494
0.78558588027954102 0.38289761543273926 0.37083199620246887
0.9336058497428894 0.45542630553245544 0.44193759560585022
0.13442197442054749 0.14411820471286774 0.10358068346977234
0.18633286654949188 0.15245625376701355 0.11869776248931885
0.27195730805397034 0.18789052963256836 0.14970721304416656
0.3905923068523407 0.23454031348228455 0.2014041543006897
0.56657689809799194 0.30807021260261536 0.27525028586387634
0.7827344536781311 0.40293943881988525 0.37529036402702332
0.93540167808532715 0.47549498081207275 0.44548273086547852
0.18109980225563049 0.22786922752857208 0.13808582723140717
0.22287453711032867 0.22333703935146332 0.14480000734329224
0.28828257322311401 0.24206992983818054 0.16226106882095337
0.40415915846824646 0.28327912092208862 0.21138036251068115
0.57196259498596191 0.34834036231040955 0.28272217512130737
0.78818953037261963 0.43598350882530212 0.37899300456047058
0.94070744514465332 0.50079607963562012 0.4490811824798584
0.24944517016410828 0.33550038933753967 0.18810836970806122
0.28608205914497375 0.33210009336471558 0.19481638073921204
0.33159607648849487 0.33637157082557678 0.19954830408096313
0.42466381192207336 0.35783368349075317 0.22906705737113953
0.5859912633895874 0.41119897365570068 0.29544490575790405
0.79791349172592163 0.48596686124801636 0.3910243809223175
0.94209706783294678 0.54404968023300171 0.45276921987533569
0.35888174176216125 0.49468439817428589 0.26578709483146667
0.38851642608642578 0.49506106972694397 0.27001377940177917
0.422769695520401 0.49296227097511292 0.27403587102890015
0.4894554615020752 0.50207972526550293 0.28596982359886169
0.61471807956695557 0.52847367525100708 0.32068124413490295
0.81264013051986694 0.58390229940414429 0.40158587694168091
0.95998656749725342 0.63324791193008423 0.46682107448577881
0.5185585618019104 0.71751338243484497 0.37974944710731506
0.54042106866836548 0.7233964204788208 0.3890763521194458
0.56500685214996338 0.71873325109481812 0.389619380235672
0.61680513620376587 0.73133581876754761 0.39988765120506287
0.70731246471405029 0.73357504606246948 0.40850818157196045
0.87002074718475342 0.75918781757354736 0.44375619292259216
0.98710501194000244 0.7994462251663208 0.5226738452911377
0.64978247880935669 0.89900130033493042 0.47539445757865906
0.65995723009109497 0.89456945657730103 0.47647690773010254
0.68093371391296387 0.89927268028259277 0.48059585690498352
0.72119140625 0.9041256308555603 0.48805415630340576
0.80489516258239746 0.91542619466781616 0.50396436452865601
0.92560029029846191 0.92637342214584351 0.52476733922958374
0.99468564987182617 0.93123370409011841 0.64471042156219482
0.12731561064720154 0.1011471301317215 0.12807370722293854
0.18415535986423492 0.11107539385557175 0.13902352750301361
0.26849398016929626 0.13580608367919922 0.16643881797790527
0.38897207379341125 0.18930444121360779 0.2110399454832077
0.56705540418624878 0.27634960412979126 0.28574278950691223
0.78379935026168823 0.38173848390579224 0.38247057795524597
0.93760311603546143 0.45561373233795166 0.45429861545562744
0.14494423568248749 0.15098215639591217 0.13830029964447021
0.18958190083503723 0.15737667679786682 0.14554768800735474
0.26568490266799927 0.18913941085338593 0.17560587823390961
0.38803362846374512 0.23913165926933289 0.2275158017873764
0.55999433994293213 0.31208914518356323 0.29549488425254822
0.7831045389175415 0.41232535243034363 0.39119040966033936
0.94031006097793579 0.48181331157684326 0.46030083298683167
0.18096989393234253 0.22451286017894745 0.16322876513004303
0.22372423112392426 0.21535405516624451 0.16871905326843262
0.27968159317970276 0.23414401710033417 0.18705201148986816
0.39488032460212708 0.28550788760185242 0.23575611412525177
0.5648382306098938 0.35147017240524292 0.30181598663330078
0.78767246007919312 0.44489020109176636 0.39642566442489624
0.94004875421524048 0.50669616460800171 0.46592581272125244
0.25138258934020996 0.33322569727897644 0.20971192419528961
0.28801408410072327 0.31971880793571472 0.21754983067512512
0.32669779658317566 0.32068547606468201 0.2224181741476059
0.41439950466156006 0.34801560640335083 0.24991670250892639
0.57638710737228394 0.40756598114967346 0.31292268633842468
0.7980688214302063 0.4906068742275238 0.40945824980735779
0.94605422019958496 0.55195808410644531 0.47187924385070801
0.3625953197479248 0.4937705397605896 0.28346845507621765
0.39204281568527222 0.48397707939147949 0.29069837927818298
0.42625397443771362 0.49008858203887939 0.29889410734176636
0.48495268821716309 0.49318698048591614 0.30587464570999146
0.61034327745437622 0.52330189943313599 0.34076580405235291
0.81450527906417847 0.5867035984992981 0.42305478453636169
0.96370774507522583 0.64313632249832153 0.49024718999862671
0.52241575717926025 0.71931928396224976 0.39285764098167419
0.54433983564376831 0.71905982494354248 0.40340203046798706
0.57354313135147095 0.72214227914810181 0.40949535369873047
0.61781144142150879 0.72318428754806519 0.41473963856697083
0.70411592721939087 0.72697728872299194 0.42674669623374939
0.86741787195205688 0.75687140226364136 0.46280935406684875
0.98823696374893188 0.80263513326644897 0.54805022478103638
0.64953631162643433 0.89795988798141479 0.48428136110305786
0.66547369956970215 0.89631128311157227 0.48998454213142395
0.69178754091262817 0.90297269821166992 0.49808409810066223
0.73058122396469116 0.90621542930603027 0.50467187166213989
0.8099859356880188 0.91731339693069458 0.5197790265083313
0.93119555711746216 0.92422837018966675 0.53218942880630493
0.99249392747879028 0.93081152439117432 0.66624879837036133
0.14655499160289764 0.11112532019615173 0.18183942139148712
0.20032714307308197 0.11812012642621994 0.18872502446174622
0.27575439214706421 0.1380109041929245 0.20781545341014862
0.39867150783538818 0.1916825920343399 0.24774783849716187
0.57558977603912354 0.27713635563850403 0.31488582491874695
0.78910225629806519 0.38388526439666748 0.40306511521339417
0.93494236469268799 0.45425215363502502 0.47093385457992554
0.16343086957931519 0.16517265141010284 0.18902005255222321
0.21007487177848816 0.17162244021892548 0.18365581333637238
0.26701244711875916 0.19047987461090088 0.20269832015037537
0.39009833335876465 0.24283058941364288 0.25596851110458374
0.56536078453063965 0.3190799355506897 0.32522711157798767
0.78745031356811523 0.41819837689399719 0.41514009237289429
0.93912196159362793 0.48315891623497009 0.47805079817771912
0.19058342278003693 0.23000878095626831 0.20409354567527771
0.23017632961273193 0.21918265521526337 0.19746755063533783
0.28526857495307922 0.23881338536739349 0.21691279113292694
0.38960921764373779 0.28849756717681885 0.26273098587989807
0.56421011686325073 0.36449965834617615 0.33386707305908203
0.789328932762146 0.45793810486793518 0.4287736713886261
0.9445921778678894 0.51923704147338867 0.49209755659103394
0.25347501039505005 0.33414638042449951 0.24232259392738342
0.29227584600448608 0.31806281208992004 0.24345481395721436
0.33200752735137939 0.31514546275138855 0.24974124133586884
0.40467536449432373 0.34292376041412354 0.27526956796646118
0.57016879320144653 0.41427391767501831 0.344236820936203
0.7954481840133667 0.502471923828125 0.43971595168113708
0.95406544208526611 0.56837397813796997 0.50497746467590332
0.36293551325798035 0.49343273043632507 0.30679497122764587
0.39814087748527527 0.48508056998252869 0.31768202781677246
0.42959108948707581 0.4777100682258606 0.32358726859092712
0.4796733558177948 0.47855401039123535 0.32944586873054504
0.60216265916824341 0.51521700620651245 0.3667881190776825
0.81382280588150024 0.59153801202774048 0.45270565152168274
0.96836018562316895 0.65525662899017334 0.52287095785140991
0.52472484111785889 0.71885782480239868 0.41037485003471375
0.54976087808609009 0.71736109256744385 0.42283239960670471
0.57648050785064697 0.71039688587188721 0.42822358012199402
0.6257927417755127 0.72063755989074707 0.44048550724983215
0.70743060111999512 0.72804921865463257 0.4553210437297821
0.86564254760742188 0.76023870706558228 0.48790031671524048
0.98592263460159302 0.79981344938278198 0.55984961986541748
0.65103268623352051 0.89665305614471436 0.49808698892593384
0.67170983552932739 0.89802831411361694 0.50755196809768677
0.6998288631439209 0.90115451812744141 0.5195198655128479
0.74145352840423584 0.90676194429397583 0.53116476535797119
0.81286174058914185 0.9126899242401123 0.54130607843399048
0.92773175239562988 0.92183071374893188 0.55731678009033203
0.99051022529602051 0.93089514970779419 0.69673901796340942
0.19715495407581329 0.14383022487163544 0.27679231762886047
0.24408924579620361 0.15270936489105225 0.28192815184593201
0.30408790707588196 0.16209156811237335 0.2911529541015625
0.4049801230430603 0.19618840515613556 0.31164470314979553
0.57644480466842651 0.27158397436141968 0.36680135130882263
0.791218101978302 0.38409233093261719 0.44559475779533386
0.94175195693969727 0.45776140689849854 0.51362252235412598
0.21200792491436005 0.19218321144580841 0.28178811073303223
0.26152390241622925 0.21120946109294891 0.27695712447166443
0.30603715777397156 0.2156534343957901 0.2815144956111908
0.39423337578773499 0.24102838337421417 0.30800566077232361
0.57129514217376709 0.31515142321586609 0.37213736772537231
0.78903365135192871 0.41574510931968689 0.45384401082992554
0.9397813081741333 0.48210373520851135 0.51207667589187622
0.23742689192295074 0.25477582216262817 0.29519528150558472
0.28142395615577698 0.2565186619758606 0.28505668044090271
0.32251891493797302 0.26969707012176514 0.2838132381439209
0.39797380566596985 0.29215723276138306 0.31348618865013123
0.56582677364349365 0.36510530114173889 0.3780619204044342
0.78930652141571045 0.45870468020439148 0.46823510527610779
0.94739359617233276 0.52541857957839966 0.52871513366699219
0.27209189534187317 0.33782762289047241 0.31041118502616882
0.30523893237113953 0.32302203774452209 0.30029752850532532
0.3475756049156189 0.32631626725196838 0.30181592702865601
0.41167891025543213 0.34601283073425293 0.32296028733253479
0.56962764263153076 0.42111128568649292 0.39408987760543823
0.79424774646759033 0.51856827735900879 0.48737016320228577
0.95731717348098755 0.58756667375564575 0.55317479372024536
0.36373159289360046 0.49038922786712646 0.35696089267730713
0.39635637402534485 0.47782239317893982 0.35822898149490356
0.43786323070526123 0.47198551893234253 0.36647966504096985
0.48536041378974915 0.46982261538505554 0.37524482607841492
0.59173166751861572 0.50502622127532959 0.4094490110874176
0.80815374851226807 0.60114395618438721 0.50578087568283081
0.96919751167297363 0.67019248008728027 0.57265985012054443
0.52180546522140503 0.71384835243225098 0.44519200921058655
0.54975605010986328 0.71090471744537354 0.45694178342819214
0.5860896110534668 0.70962315797805786 0.46891161799430847
0.63757234811782837 0.71186363697052002 0.48568621277809143
0.70793980360031128 0.71493798494338989 0.49882769584655762
0.85204923152923584 0.75104737281799316 0.54186546802520752
0.9839853048324585 0.80639749765396118 0.6217045783996582
0.65048462152481079 0.89428073167800903 0.52903914451599121
0.67807132005691528 0.90467864274978638 0.54767626523971558
0.70834362506866455 0.90523964166641235 0.5655205249786377
0.75181204080581665 0.90300679206848145 0.58026129007339478
0.82819008827209473 0.91375774145126343 0.59947562217712402
0.92816919088363647 0.91578119993209839 0.61510616540908813
0.98891347646713257 0.93121117353439331 0.73759180307388306
0.31856855750083923 0.23095004260540009 0.45993682742118835
0.34535261988639832 0.23503726720809937 0.45929375290870667
0.38893148303031921 0.24277596175670624 0.46576082706451416
0.46409621834754944 0.2558847963809967 0.47849768400192261
0.59513896703720093 0.28796181082725525 0.50331121683120728
0.7956244945526123 0.38061371445655823 0.55332833528518677
0.95235109329223633 0.4561133086681366 0.61318838596343994
0.32906374335289001 0.26516509056091309 0.462018221616745
0.36879271268844604 0.28543016314506531 0.46254855394363403
0.40697541832923889 0.29486453533172607 0.46846088767051697
0.47012016177177429 0.30234616994857788 0.47918787598609924
0.5947766900062561 0.32924240827560425 0.50131332874298096
0.79507952928543091 0.41072314977645874 0.55818337202072144
0.94930171966552734 0.48137104511260986 0.6109464168548584
0.34126651287078857 0.31335809826850891 0.46773266792297363
0.38511091470718384 0.32936689257621765 0.46729782223701477
0.42720252275466919 0.34752196073532104 0.46788778901100159
0.47855985164642334 0.35439583659172058 0.47309768199920654
0.59663444757461548 0.38313236832618713 0.49875578284263611
0.79954200983047485 0.4587952196598053 0.56629610061645508
0.9556041955947876 0.52667152881622314 0.62439906597137451
0.36179685592651367 0.37522798776626587 0.47323358058929443
0.40050336718559265 0.38920837640762329 0.47162866592407227
0.44439631700515747 0.39995226263999939 0.46968767046928406
0.49617353081703186 0.41379177570343018 0.47072833776473999
0.59401422739028931 0.43752092123031616 0.49157616496086121
0.80139875411987305 0.52391344308853149 0.57585698366165161
0.95909339189529419 0.59280908107757568 0.64650458097457886
0.41145125031471252 0.50403130054473877 0.49563497304916382
0.44354680180549622 0.50323998928070068 0.49357837438583374
0.4796488881111145 0.49904325604438782 0.48658320307731628
0.5302545428276062 0.49982616305351257 0.48334452509880066
0.6228710412979126 0.53100049495697021 0.51150357723236084
0.80262529850006104 0.61593019962310791 0.5973970890045166
0.96498590707778931 0.6938289999961853 0.67750239372253418
0.54198580980300903 0.72125327587127686 0.55824083089828491
0.56270742416381836 0.71557009220123291 0.56213110685348511
0.5923006534576416 0.70855510234832764 0.56492370367050171
0.64698237180709839 0.70869630575180054 0.57648146152496338
0.71558928489685059 0.70183378458023071 0.58564883470535278
0.8499189019203186 0.75182086229324341 0.64002203941345215
0.98106402158737183 0.82980263233184814 0.73682636022567749
0.65571767091751099 0.89603888988494873 0.63017648458480835
0.67800629138946533 0.90106809139251709 0.64221805334091187
0.70843857526779175 0.89990496635437012 0.65804225206375122
0.76289135217666626 0.90633225440979004 0.67730224132537842
0.84784156084060669 0.91374140977859497 0.70321744680404663
0.94445455074310303 0.91873282194137573 0.72817575931549072
0.98290359973907471 0.9386136531829834 0.82760566473007202
0.48065724968910217 0.35211765766143799 0.70326590538024902
0.49911972880363464 0.35763871669769287 0.70361363887786865
0.52943116426467896 0.3660639226436615 0.71056711673736572
0.58694165945053101 0.37395426630973816 0.72320735454559326
0.68603742122650146 0.38864320516586304 0.73487704992294312
0.82924699783325195 0.41246667504310608 0.74761778116226196
0.96255433559417725 0.45578643679618835 0.77847057580947876
0.48903879523277283 0.37583130598068237 0.71144580841064453
0.51916289329528809 0.39331090450286865 0.71574693918228149
0.54975610971450806 0.4038797914981842 0.72057861089706421
0.60100734233856201 0.40966516733169556 0.72832822799682617
0.69357657432556152 0.4186648428440094 0.73564857244491577
0.84015047550201416 0.44877296686172485 0.7550322413444519
0.96681088209152222 0.48733600974082947 0.78516381978988647
0.49601620435714722 0.40515777468681335 0.71595668792724609
0.53388923406600952 0.42849510908126831 0.7182343602180481
0.57393449544906616 0.45016950368881226 0.72253614664077759
0.61379873752593994 0.45249298214912415 0.72572356462478638
0.70748668909072876 0.46929100155830383 0.74054843187332153
0.84099972248077393 0.48794841766357422 0.75569444894790649
0.97049611806869507 0.52900099754333496 0.79006564617156982
0.50535732507705688 0.45567992329597473 0.71373075246810913
0.54386246204376221 0.47703391313552856 0.71993756294250488
0.59613305330276489 0.50724130868911743 0.73247033357620239
0.65470558404922485 0.52999585866928101 0.74149137735366821
0.73086488246917725 0.53869426250457764 0.74599647521972656
0.84776926040649414 0.55213069915771484 0.75697427988052368
0.96726393699645996 0.58333456516265869 0.78992921113967896
0.54135996103286743 0.56056761741638184 0.73555678129196167
0.56601554155349731 0.57132571935653687 0.73651975393295288
0.61263382434844971 0.59208297729492188 0.74824249744415283
0.67799609899520874 0.614604651927948 0.75060117244720459
0.7682068943977356 0.64792215824127197 0.7634308934211731
0.86931377649307251 0.666922926902771 0.77802056074142456
0.97012007236480713 0.70217388868331909 0.81449621915817261
0.59630835056304932 0.73205310106277466 0.7522701621055603
0.62189030647277832 0.7402111291885376 0.76240617036819458
0.65866929292678833 0.74782878160476685 0.76949381828308105
0.71362864971160889 0.75847405195236206 0.7756049633026123
0.80253666639328003 0.77373939752578735 0.78574734926223755
0.90838503837585449 0.79989743232727051 0.80431848764419556
0.97663915157318115 0.8536076545715332 0.86537927389144897
0.67183643579483032 0.89061141014099121 0.79394328594207764
0.69354677200317383 0.89909011125564575 0.80033773183822632
0.72452807426452637 0.89894360303878784 0.80862581729888916
0.77339428663253784 0.90285134315490723 0.81851553916931152
0.86278241872787476 0.91143476963043213 0.83240187168121338
0.96082961559295654 0.92012208700180054 0.85293030738830566
0.97562950849533081 0.94777703285217285 0.92627137899398804
