assets/lut/creative bleachbypass 02.cube
# Created by: G'MIC (https://gmic.eu)
TITLE "bleachbypass_2"
# LUT size
LUT_3D_SIZE 13
# Data domain
DOMAIN_MIN 0.0 0.0 0.0
DOMAIN_MAX 1.0 1.0 1.0
# LUT data points
0.082958295941352844 0.081898212432861328 0.083044834434986115
0.10109136253595352 0.087682224810123444 0.089223630726337433
0.12208817154169083 0.09658089280128479 0.095835126936435699
0.14826148748397827 0.1060895100235939 0.10401850938796997
0.17806081473827362 0.11532790213823318 0.11286145448684692
0.21069470047950745 0.12597744166851044 0.12352591007947922
0.24744908511638641 0.13700427114963531 0.13639119267463684
0.28642433881759644 0.14680609107017517 0.14838503301143646
0.32539865374565125 0.15716898441314697 0.15806764364242554
0.36634311079978943 0.16862346231937408 0.16672752797603607
0.41386139392852783 0.1794808954000473 0.17801553010940552
0.46432694792747498 0.19220393896102905 0.19165921211242676
0.51480770111083984 0.20709845423698425 0.20690630376338959
0.086777724325656891 0.097485408186912537 0.087840139865875244
0.10715983062982559 0.10556966811418533 0.095559559762477875
0.13221126794815063 0.11678394675254822 0.10424678772687912
0.16156218945980072 0.12791183590888977 0.1139010414481163
0.19278146326541901 0.13823218643665314 0.1233908087015152
0.22592876851558685 0.14913687109947205 0.13383026421070099
0.26334768533706665 0.16085252165794373 0.14540852606296539
0.30289313197135925 0.17345529794692993 0.15613731741905212
0.34283757209777832 0.18738752603530884 0.16609744727611542
0.38493001461029053 0.2006782740354538 0.17710375785827637
0.43572795391082764 0.21187622845172882 0.190794438123703
0.48832458257675171 0.2260623425245285 0.20526202023029327
0.5395616888999939 0.24417845904827118 0.22003401815891266
0.092666164040565491 0.11781385540962219 0.093921497464179993
0.1156153678894043 0.1280008852481842 0.10362505167722702
0.1434042900800705 0.14134477078914642 0.11416494101285934
0.17514738440513611 0.15512816607952118 0.12495391070842743
0.20775805413722992 0.16642025113105774 0.13451722264289856
0.24142089486122131 0.17798492312431335 0.1442040354013443
0.27993577718734741 0.19033624231815338 0.15462040901184082
0.32102596759796143 0.20411834120750427 0.16537438333034515
0.36192387342453003 0.22062952816486359 0.17693619430065155
0.40571406483650208 0.23609665036201477 0.18981176614761353
0.45825028419494629 0.24949733912944794 0.20384959876537323
0.51235842704772949 0.26567956805229187 0.21814940869808197
0.56453627347946167 0.28530097007751465 0.23246690630912781
0.10165680199861526 0.14553242921829224 0.1023203507065773
0.12555602192878723 0.15808013081550598 0.11231463402509689
0.15378336608409882 0.17342644929885864 0.12330561876296997
0.18659718334674835 0.18874861299991608 0.13462339341640472
0.22082214057445526 0.20134463906288147 0.14485669136047363
0.25596892833709717 0.21410395205020905 0.15433356165885925
0.29582029581069946 0.22864468395709991 0.1648775041103363
0.33852466940879822 0.24363231658935547 0.17671751976013184
0.38075381517410278 0.26010772585868835 0.18985171616077423
0.42684495449066162 0.27705800533294678 0.20276166498661041
0.4802757203578949 0.29261073470115662 0.2160399854183197
0.53527724742889404 0.30979520082473755 0.22988158464431763
0.58898037672042847 0.32927191257476807 0.24433910846710205
0.1120184063911438 0.17460247874259949 0.11199565231800079
0.13655807077884674 0.18953530490398407 0.12179891765117645
0.16515263915061951 0.20584207773208618 0.13262626528739929
0.19928902387619019 0.22010882198810577 0.14401637017726898
0.23510052263736725 0.23396375775337219 0.15476179122924805
0.27185344696044922 0.25050505995750427 0.16530242562294006
0.31264171004295349 0.26866060495376587 0.17733182013034821
0.35725456476211548 0.28393286466598511 0.18972964584827423
0.40174245834350586 0.30233076214790344 0.2023407369852066
0.44982215762138367 0.31996351480484009 0.21544906497001648
0.50412225723266602 0.33581265807151794 0.22943636775016785
0.56004774570465088 0.3529607355594635 0.24318991601467133
0.61535739898681641 0.37196621298789978 0.25754046440124512
0.12299013137817383 0.20535658299922943 0.12242110073566437
0.14826077222824097 0.22187222540378571 0.13184155523777008
0.17804113030433655 0.23870480060577393 0.1427246630191803
0.21310217678546906 0.25286728143692017 0.15406829118728638
0.25053557753562927 0.26757454872131348 0.16531020402908325
0.28899058699607849 0.28705191612243652 0.17694631218910217
0.3319682776927948 0.30522215366363525 0.19007647037506104
0.37898802757263184 0.32095438241958618 0.20318588614463806
0.4246559739112854 0.34289366006851196 0.21549384295940399
0.47454401850700378 0.36363980174064636 0.22923268377780914
0.5305209755897522 0.38057488203048706 0.24472819268703461
0.58767908811569214 0.39837160706520081 0.25900214910507202
0.6437840461730957 0.41771495342254639 0.27269384264945984
0.13309553265571594 0.24227724969387054 0.13272233307361603
0.15988340973854065 0.25993618369102478 0.14259962737560272
0.19049552083015442 0.27769380807876587 0.15355020761489868
0.22642381489276886 0.2933942973613739 0.1646040678024292
0.26475700736045837 0.30990564823150635 0.17590762674808502
0.30487561225891113 0.32962173223495483 0.18825100362300873
0.34953206777572632 0.34793275594711304 0.20196764171123505
0.39757731556892395 0.36604070663452148 0.21564653515815735
0.44580405950546265 0.38900840282440186 0.22889328002929688
0.49842935800552368 0.41208896040916443 0.24322938919067383
0.55630326271057129 0.43236100673675537 0.25896212458610535
0.61532920598983765 0.45314234495162964 0.2737424373626709
0.67286139726638794 0.47336074709892273 0.28814706206321716
0.14379727840423584 0.28431221842765808 0.14414188265800476
0.17219404876232147 0.30267572402954102 0.15439337491989136
0.20369458198547363 0.32078331708908081 0.16532012820243835
0.24060206115245819 0.33774438500404358 0.17631544172763824
0.28010034561157227 0.35651293396949768 0.18741966784000397
0.32136136293411255 0.37692007422447205 0.19995124638080597
0.36640468239784241 0.39657080173492432 0.21397684514522552
0.41563630104064941 0.41677334904670715 0.22811964154243469
0.46625912189483643 0.44047817587852478 0.24199835956096649
0.52120620012283325 0.46507126092910767 0.25664451718330383
0.58083546161651611 0.48820367455482483 0.2718970775604248
0.64172393083572388 0.51107674837112427 0.28761166334152222
0.70143204927444458 0.53272819519042969 0.30332648754119873
0.15582244098186493 0.32759740948677063 0.15621489286422729
0.18630838394165039 0.34479954838752747 0.1670897901058197
0.21988527476787567 0.36245405673980713 0.17853446304798126
0.25759401917457581 0.38136619329452515 0.189706951379776
0.2976478636264801 0.40310165286064148 0.20086874067783356
0.34059596061706543 0.425273597240448 0.21338203549385071
0.38699144124984741 0.44642910361289978 0.22739382088184357
0.43688192963600159 0.46805950999259949 0.24175527691841125
0.48938113451004028 0.49248874187469482 0.25602978467941284
0.54591286182403564 0.51778578758239746 0.27099195122718811
0.60667556524276733 0.54156935214996338 0.28663909435272217
0.66872119903564453 0.56506305932998657 0.30264049768447876
0.73021507263183594 0.58935940265655518 0.31927940249443054
0.16839087009429932 0.37121239304542542 0.16864931583404541
0.20067204535007477 0.38776972889900208 0.17967653274536133
0.23614643514156342 0.40554559230804443 0.19180344045162201
0.27509850263595581 0.42599368095397949 0.20390231907367706
0.3163447380065918 0.45102480053901672 0.2158929854631424
0.36073219776153564 0.47586157917976379 0.2289000004529953
0.40887308120727539 0.49879544973373413 0.24267357587814331
0.46069887280464172 0.52155929803848267 0.25661826133728027
0.51538252830505371 0.54656320810317993 0.2712368369102478
0.57338935136795044 0.57271605730056763 0.28636544942855835
0.63463467359542847 0.59744817018508911 0.30238223075866699
0.69759321212768555 0.6218256950378418 0.31893092393875122
0.76036864519119263 0.64910006523132324 0.33535757660865784
0.18061859905719757 0.41615882515907288 0.18104022741317749
0.21442991495132446 0.43368738889694214 0.19146333634853363
0.25062775611877441 0.45322009921073914 0.20340242981910706
0.2908690869808197 0.47627359628677368 0.21664427220821381
0.33432969450950623 0.50304323434829712 0.23048323392868042
0.38059255480766296 0.53012484312057495 0.24498380720615387
0.43116006255149841 0.55543041229248047 0.25914743542671204
0.48541340231895447 0.58008205890655518 0.27300578355789185
0.54236364364624023 0.60637432336807251 0.28742113709449768
0.60209345817565918 0.63401973247528076 0.30256301164627075
0.66487795114517212 0.66086184978485107 0.31850561499595642
0.72908705472946167 0.68790745735168457 0.33468681573867798
0.79218584299087524 0.71573954820632935 0.35148173570632935
0.19344232976436615 0.46349015831947327 0.19321517646312714
0.22729700803756714 0.48264113068580627 0.20269790291786194
0.26441243290901184 0.50452357530593872 0.2141762375831604
0.30634418129920959 0.53011626005172729 0.22831287980079651
0.35216748714447021 0.55844151973724365 0.24401141703128815
0.40148696303367615 0.58738237619400024 0.26010558009147644
0.45427554845809937 0.61494570970535278 0.2752041220664978
0.51048398017883301 0.64198130369186401 0.28960835933685303
0.56988513469696045 0.67015343904495239 0.30415201187133789
0.63182580471038818 0.69943910837173462 0.31922504305839539
0.69599467515945435 0.72895395755767822 0.33474558591842651
0.76111990213394165 0.75817066431045532 0.35074213147163391
0.82424646615982056 0.78595119714736938 0.3674299418926239
0.20615485310554504 0.51304095983505249 0.2059067040681839
0.24097606539726257 0.53415042161941528 0.21479199826717377
0.27930843830108643 0.55822914838790894 0.22601032257080078
0.32305747270584106 0.5855870246887207 0.24060709774494171
0.37147036194801331 0.61514765024185181 0.25761586427688599
0.42331793904304504 0.6452060341835022 0.27472665905952454
0.47843441367149353 0.67480266094207764 0.29089266061782837
0.53657472133636475 0.70412814617156982 0.30613020062446594
0.59761291742324829 0.73421931266784668 0.32126256823539734
0.66120654344558716 0.76506054401397705 0.33643984794616699
0.72638094425201416 0.79604536294937134 0.3520151674747467
0.79170602560043335 0.82654255628585815 0.36770802736282349
0.8540949821472168 0.85372781753540039 0.38434579968452454
0.088794425129890442 0.088288985192775726 0.1008128747344017
0.10785688459873199 0.093912161886692047 0.10791756212711334
0.13062508404254913 0.10281958431005478 0.11627048999071121
0.1586897224187851 0.11226110905408859 0.12620478868484497
0.18861544132232666 0.12232270836830139 0.13553352653980255
0.2211419939994812 0.13305023312568665 0.14616630971431732
0.25977209210395813 0.14392925798892975 0.16085201501846313
0.3019351065158844 0.15523180365562439 0.17576336860656738
0.34452319145202637 0.16731366515159607 0.18800598382949829
0.38850259780883789 0.17967225611209869 0.1986454576253891
0.43697145581245422 0.19211199879646301 0.21068069338798523
0.48817425966262817 0.20573167502880096 0.22581419348716736
0.53980982303619385 0.22073276340961456 0.24353085458278656
0.094039157032966614 0.10647611320018768 0.10709688067436218
0.11455272883176804 0.11442936956882477 0.11489688605070114
0.14086078107357025 0.12477129697799683 0.12461867928504944
0.17212888598442078 0.13513121008872986 0.13591676950454712
0.20351073145866394 0.14620260894298553 0.14604762196540833
0.23644781112670898 0.15772242844104767 0.15735659003257751
0.27583751082420349 0.17013272643089294 0.17147606611251831
0.31850886344909668 0.18488489091396332 0.18432053923606873
0.36090490221977234 0.19996081292629242 0.19654096662998199
0.40738189220428467 0.21315333247184753 0.21044421195983887
0.45855346322059631 0.22619901597499847 0.22507646679878235
0.51179426908493042 0.24143260717391968 0.24086719751358032
0.56464314460754395 0.25909942388534546 0.25751793384552002
0.10197930783033371 0.12954609096050262 0.11550290137529373
0.12441744655370712 0.13866923749446869 0.12503620982170105
0.15316636860370636 0.1500454843044281 0.13597588241100311
0.18587996065616608 0.16358931362628937 0.14611651003360748
0.21866041421890259 0.17555125057697296 0.15730424225330353
0.25234171748161316 0.18836405873298645 0.1691880077123642
0.29339733719825745 0.20298060774803162 0.18211989104747772
0.3377605676651001 0.21895892918109894 0.1951867938041687
0.3813987672328949 0.23420251905918121 0.21007004380226135
0.42862394452095032 0.24958467483520508 0.22460485994815826
0.4815833568572998 0.2652207612991333 0.23918549716472626
0.53642541170120239 0.28227034211158752 0.25469118356704712
0.58989197015762329 0.30090948939323425 0.27098837494850159
0.1117280125617981 0.16020990908145905 0.12561182677745819
0.13506202399730682 0.1711600124835968 0.13603702187538147
0.16388118267059326 0.18498016893863678 0.1468268483877182
0.1983298659324646 0.19900292158126831 0.15751993656158447
0.23277026414871216 0.21127432584762573 0.1689659059047699
0.26749369502067566 0.22586274147033691 0.18031913042068481
0.31055283546447754 0.24326524138450623 0.19305115938186646
0.3566228449344635 0.25906002521514893 0.20775249600410461
0.40169897675514221 0.27337437868118286 0.22453689575195312
0.44966694712638855 0.29045554995536804 0.23850646615028381
0.50435948371887207 0.30911168456077576 0.25203827023506165
0.56024205684661865 0.32715901732444763 0.26688984036445618
0.61485481262207031 0.34522560238838196 0.28344982862472534
0.12179385870695114 0.18956543505191803 0.13660143315792084
0.14636196196079254 0.20353677868843079 0.14693079888820648
0.17592021822929382 0.21930330991744995 0.15828771889209747
0.21154908835887909 0.23337393999099731 0.16964235901832581
0.24812765419483185 0.24720141291618347 0.18091532588005066
0.28562355041503906 0.26426947116851807 0.19334964454174042
0.32943302392959595 0.28315949440002441 0.20803083479404449
0.37568932771682739 0.29950734972953796 0.222734734416008
0.42124328017234802 0.31631031632423401 0.23696370422840118
0.47073838114738464 0.33469459414482117 0.25061464309692383
0.52698969841003418 0.35294872522354126 0.26544153690338135
0.58390933275222778 0.37146714329719543 0.28027907013893127
0.64044356346130371 0.38992881774902344 0.2967953085899353
0.13243256509304047 0.21925672888755798 0.1477665901184082
0.15872964262962341 0.23508629202842712 0.15818004310131073
0.18986982107162476 0.25255924463272095 0.17028281092643738
0.22595256567001343 0.2679743766784668 0.18181705474853516
0.26363790035247803 0.28510963916778564 0.19295595586299896
0.30377617478370667 0.30404931306838989 0.20673920214176178
0.34905779361724854 0.32258671522140503 0.2230561226606369
0.39677083492279053 0.33952450752258301 0.23792913556098938
0.4435274600982666 0.3599141538143158 0.25101888179779053
0.49478262662887573 0.3802628219127655 0.26552075147628784
0.55274361371994019 0.39880681037902832 0.28158572316169739
0.61094242334365845 0.4174652099609375 0.2969936728477478
0.66871947050094604 0.43679529428482056 0.31265556812286377
0.14364901185035706 0.25694012641906738 0.16007420420646667
0.17128343880176544 0.27384841442108154 0.17065529525279999
0.20342037081718445 0.29212683439254761 0.18274818360805511
0.24035568535327911 0.30957823991775513 0.19450782239437103
0.27974206209182739 0.32773515582084656 0.20636245608329773
0.32168906927108765 0.34772747755050659 0.22057917714118958
0.368215411901474 0.36640313267707825 0.2370130717754364
0.41650664806365967 0.38555276393890381 0.25260254740715027
0.46585634350776672 0.40800684690475464 0.2667783796787262
0.52001386880874634 0.43105188012123108 0.28162112832069397
0.57985854148864746 0.45247945189476013 0.29800474643707275
0.64022022485733032 0.47243797779083252 0.31388422846794128
0.69903910160064697 0.49208325147628784 0.33030399680137634
0.15584255754947662 0.30174168944358826 0.17358337342739105
0.18499428033828735 0.31874647736549377 0.18435013294219971
0.21802708506584167 0.33687296509742737 0.19616587460041046
0.25594201683998108 0.35507142543792725 0.20786616206169128
0.29672354459762573 0.37554171681404114 0.21966686844825745
0.34016233682632446 0.39608189463615417 0.23409833014011383
0.3869813084602356 0.41563081741333008 0.25083395838737488
0.43624767661094666 0.43605315685272217 0.2669062614440918
0.48804152011871338 0.4599144458770752 0.28205963969230652
0.54453116655349731 0.48523122072219849 0.29731723666191101
0.60592555999755859 0.50985503196716309 0.31299179792404175
0.66810441017150879 0.53204721212387085 0.3295636773109436
0.72855150699615479 0.55285847187042236 0.34752711653709412
0.16858106851577759 0.34722709655761719 0.18780486285686493
0.19955532252788544 0.36399438977241516 0.19884048402309418
0.23407422006130219 0.38114258646965027 0.21090587973594666
0.27321368455886841 0.40077748894691467 0.22276942431926727
0.31575748324394226 0.42354109883308411 0.23457494378089905
0.36016616225242615 0.44580274820327759 0.24927753210067749
0.40772399306297302 0.46625247597694397 0.2656402587890625
0.45856311917304993 0.48724320530891418 0.28179261088371277
0.51235514879226685 0.51208287477493286 0.29783695936203003
0.57028812170028687 0.53913307189941406 0.31415602564811707
0.63236993551254272 0.56509965658187866 0.33056640625
0.69582825899124146 0.5890313982963562 0.34778681397438049
0.75806057453155518 0.61192065477371216 0.36582714319229126
0.18171511590480804 0.39249807596206665 0.20238526165485382
0.21403264999389648 0.40885919332504272 0.21328431367874146
0.25030675530433655 0.42669218778610229 0.2257588654756546
0.29090505838394165 0.44787490367889404 0.23896163702011108
0.33454769849777222 0.47268912196159363 0.2521418035030365
0.38060137629508972 0.4971865713596344 0.26691326498985291
0.43013554811477661 0.51932603120803833 0.28260695934295654
0.48292231559753418 0.54133963584899902 0.29824930429458618
0.53859686851501465 0.56716620922088623 0.3145524263381958
0.59751433134078979 0.59586650133132935 0.33145657181739807
0.66015923023223877 0.62323659658432007 0.34885367751121521
0.7248416543006897 0.6488075852394104 0.36638069152832031
0.78865164518356323 0.67430722713470459 0.38436555862426758
0.19393819570541382 0.43911352753639221 0.21650195121765137
0.22745798528194427 0.45643436908721924 0.22675034403800964
0.26466807723045349 0.4760080873966217 0.23919022083282471
0.30679267644882202 0.49949300289154053 0.25393617153167725
0.35265114903450012 0.52635949850082397 0.26939159631729126
0.40108391642570496 0.55289524793624878 0.28503179550170898
0.45245721936225891 0.57761377096176147 0.30064940452575684
0.50729829072952271 0.60207468271255493 0.31613835692405701
0.56504136323928833 0.62932932376861572 0.33224618434906006
0.6258811354637146 0.65912270545959473 0.34918689727783203
0.68998622894287109 0.68843978643417358 0.36657589673995972
0.75622838735580444 0.71630764007568359 0.38408026099205017
0.82103872299194336 0.74302798509597778 0.40206274390220642
0.20614960789680481 0.48784711956977844 0.2299751490354538
0.23970420658588409 0.50657755136489868 0.23916448652744293
0.27769458293914795 0.52874642610549927 0.25112184882164001
0.32191762328147888 0.55478519201278687 0.26714912056922913
0.37031185626983643 0.5834161639213562 0.28479591012001038
0.42139706015586853 0.61197614669799805 0.30220630764961243
0.47527053952217102 0.63924908638000488 0.31859657168388367
0.53228151798248291 0.66643643379211426 0.33455869555473328
0.59231770038604736 0.69546002149581909 0.3505951464176178
0.65555894374847412 0.7264447808265686 0.36745846271514893
0.72160500288009644 0.75782138109207153 0.38448581099510193
0.78906494379043579 0.78737956285476685 0.4018150269985199
0.85386770963668823 0.81451898813247681 0.41998359560966492
0.2184092104434967 0.53864157199859619 0.24386748671531677
0.25296318531036377 0.55935263633728027 0.25247684121131897
0.29171508550643921 0.58335733413696289 0.26374298334121704
0.33803901076316833 0.61129969358444214 0.28072583675384521
0.38923907279968262 0.64168787002563477 0.30011895298957825
0.44279971718788147 0.6716957688331604 0.31875640153884888
0.49905633926391602 0.70111763477325439 0.33606371283531189
0.5581013560295105 0.73071223497390747 0.35286346077919006
0.62022858858108521 0.76132452487945557 0.36929643154144287
0.6853758692741394 0.79339599609375 0.38620969653129578
0.75283205509185791 0.82578182220458984 0.40319666266441345
0.82001084089279175 0.85618346929550171 0.42041376233100891
0.88419294357299805 0.88305878639221191 0.43829613924026489
0.095891334116458893 0.097009517252445221 0.12196740508079529
0.11654042452573776 0.10350257903337479 0.13121141493320465
0.1414831280708313 0.11222343891859055 0.14191330969333649
0.17141918838024139 0.12126349657773972 0.1539342999458313
0.20195783674716949 0.1312841922044754 0.16388647258281708
0.23474186658859253 0.14174672961235046 0.17452166974544525
0.2745017409324646 0.1522657573223114 0.19008710980415344
0.3179766833782196 0.16437490284442902 0.20569393038749695
0.36256104707717896 0.17760521173477173 0.21941637992858887
0.40951791405677795 0.19018702208995819 0.23328877985477448
0.45995858311653137 0.20355029404163361 0.24772851169109344
0.51223164796829224 0.21814025938510895 0.26452982425689697
0.56538909673690796 0.23364834487438202 0.28356003761291504
0.10275769978761673 0.11514803022146225 0.13056071102619171
0.12391837686300278 0.12448209524154663 0.13980445265769958
0.15167362987995148 0.13543279469013214 0.15181268751621246
0.18560811877250671 0.1464613676071167 0.16573229432106018
0.21752989292144775 0.15805765986442566 0.17674140632152557
0.25073149800300598 0.16961315274238586 0.18795628845691681
0.29150697588920593 0.18111611902713776 0.20355859398841858
0.33639663457870483 0.19558873772621155 0.21821948885917664
0.3810458779335022 0.21123050153255463 0.23140615224838257
0.42950093746185303 0.22460238635540009 0.24734058976173401
0.48167669773101807 0.23865607380867004 0.26413854956626892
0.53596657514572144 0.25519508123397827 0.28115090727806091
0.59008568525314331 0.2731986939907074 0.2991863489151001
0.11170818656682968 0.13992947340011597 0.1418127566576004
0.13467441499233246 0.14959888160228729 0.15268529951572418
0.16422021389007568 0.1621711254119873 0.16442915797233582
0.19921384751796722 0.17800432443618774 0.1767982691526413
0.23286642134189606 0.19080242514610291 0.18948347866535187
0.26697418093681335 0.20308861136436462 0.20239934325218201
0.30994501709938049 0.21676228940486908 0.21676823496818542
0.35658586025238037 0.2318805605173111 0.23147536814212799
0.40229856967926025 0.24712161719799042 0.2466617226600647
0.45120251178741455 0.26246583461761475 0.26280912756919861
0.50511926412582397 0.27889057993888855 0.27945101261138916
0.56078332662582397 0.29728105664253235 0.29626640677452087
0.61589556932449341 0.31623223423957825 0.31386178731918335
0.12190535664558411 0.17391021549701691 0.15379135310649872
0.14611472189426422 0.18552148342132568 0.16587717831134796
0.17679388821125031 0.19899122416973114 0.17776738107204437
0.21320633590221405 0.21445779502391815 0.18971540033817291
0.24894393980503082 0.22697916626930237 0.20304904878139496
0.28282994031906128 0.24083077907562256 0.21578173339366913
0.32780104875564575 0.25698062777519226 0.22950944304466248
0.37583121657371521 0.27308851480484009 0.24448983371257782
0.42230570316314697 0.28776064515113831 0.2608373761177063
0.47213846445083618 0.30491036176681519 0.27642050385475159
0.52822721004486084 0.3244774341583252 0.29243189096450806
0.58546513319015503 0.3436683714389801 0.30945131182670593
0.64163804054260254 0.36227023601531982 0.32761660218238831
0.13183183968067169 0.20481680333614349 0.16615435481071472
0.15778934955596924 0.21869440376758575 0.17804563045501709
0.18978118896484375 0.23390591144561768 0.19089888036251068
0.22737297415733337 0.24886468052864075 0.20359387993812561
0.2643808126449585 0.26335892081260681 0.2155614048242569
0.3021799623966217 0.27966684103012085 0.22957390546798706
0.34865763783454895 0.29630804061889648 0.24588866531848907
0.395790696144104 0.31381243467330933 0.26075389981269836
0.44128644466400146 0.33131164312362671 0.2741273045539856
