assets/lut/creative smokey.cube
# Created by: G'MIC (https://gmic.eu)
TITLE "smokey"
# LUT size
LUT_3D_SIZE 7
# Data domain
DOMAIN_MIN 0.0 0.0 0.0
DOMAIN_MAX 1.0 1.0 1.0
# LUT data points
0.048929519951343536 0.044245835393667221 0.022800849750638008
0.20277193188667297 0.047335457056760788 0.021546486765146255
0.33008024096488953 0.045672308653593063 0.021750416606664658
0.4507300853729248 0.041740328073501587 0.02560272254049778
0.5690847635269165 0.040425784885883331 0.028260175138711929
0.68750178813934326 0.042686730623245239 0.030144201591610909
0.80808711051940918 0.043247014284133911 0.03049926832318306
0.057447843253612518 0.17027094960212708 0.023062223568558693
0.21265512704849243 0.17567820847034454 0.025354018434882164
0.3408949077129364 0.18161343038082123 0.028932115063071251
0.46652951836585999 0.18262630701065063 0.031700704246759415
0.58761179447174072 0.18720827996730804 0.029473038390278816
0.70940274000167847 0.1912018209695816 0.033421147614717484
0.83379453420639038 0.19343911111354828 0.037138037383556366
0.055693142116069794 0.28904855251312256 0.026433158665895462
0.21243228018283844 0.29857134819030762 0.032669514417648315
0.35143885016441345 0.30808877944946289 0.037915606051683426
0.4819934070110321 0.31551244854927063 0.038490340113639832
0.60668748617172241 0.32529407739639282 0.033353410661220551
0.73248928785324097 0.33150419592857361 0.038217134773731232
0.86033689975738525 0.33748102188110352 0.042220935225486755
0.052818626165390015 0.41087543964385986 0.03113822266459465
0.21277309954166412 0.42344957590103149 0.039464600384235382
0.35942500829696655 0.43615248799324036 0.045178208500146866
0.49564012885093689 0.44721069931983948 0.047619406133890152
0.62633460760116577 0.4569556713104248 0.048444230109453201
0.756264328956604 0.46702370047569275 0.050067439675331116
0.88660347461700439 0.47960445284843445 0.047800160944461823
0.05437907949090004 0.53897553682327271 0.033860750496387482
0.21709029376506805 0.55347877740859985 0.044107042253017426
0.36736229062080383 0.56880056858062744 0.051530666649341583
0.50823253393173218 0.58293753862380981 0.056301206350326538
0.64431345462799072 0.59617459774017334 0.057833235710859299
0.77857816219329834 0.61010390520095825 0.055467955768108368
0.91140186786651611 0.62538307905197144 0.050037473440170288
0.056362707167863846 0.67326170206069946 0.035928778350353241
0.2209705263376236 0.68963795900344849 0.048165250569581985
0.3737560510635376 0.70730412006378174 0.057786274701356888
0.51829081773757935 0.72473067045211792 0.063501246273517609
0.65891408920288086 0.74169731140136719 0.062614068388938904
0.79742723703384399 0.75917059183120728 0.05565287172794342
0.93263942003250122 0.77546066045761108 0.047429762780666351
0.053228940814733505 0.81283056735992432 0.03879648819565773
0.22005786001682281 0.83117032051086426 0.052984319627285004
0.37610518932342529 0.85091537237167358 0.063896417617797852
0.52403879165649414 0.87070900201797485 0.069661371409893036
0.66823393106460571 0.89037883281707764 0.067119225859642029
0.80982434749603271 0.90956765413284302 0.057355064898729324
0.94703471660614014 0.92668843269348145 0.04650522768497467
0.048537071794271469 0.043974783271551132 0.084631673991680145
0.20914669334888458 0.043831516057252884 0.092687539756298065
0.33797356486320496 0.046616841107606888 0.098931841552257538
0.45734715461730957 0.045374326407909393 0.10720908641815186
0.57568836212158203 0.044549200683832169 0.11553165316581726
0.69536638259887695 0.046869583427906036 0.12150388211011887
0.8174397349357605 0.047605566680431366 0.12481355667114258
0.051446892321109772 0.17459867894649506 0.095501996576786041
0.21160213649272919 0.17789536714553833 0.1043664813041687
0.3459954559803009 0.18323758244514465 0.11383340507745743
0.47142377495765686 0.18528103828430176 0.12157371640205383
0.59300011396408081 0.18939359486103058 0.12649407982826233
0.71598255634307861 0.19405707716941833 0.13389712572097778
0.84146082401275635 0.19745555520057678 0.13993881642818451
0.051057104021310806 0.29299235343933105 0.11048874258995056
0.2103075385093689 0.30289450287818909 0.12023665755987167
0.35307079553604126 0.31202545762062073 0.13112145662307739
0.48644620180130005 0.31752485036849976 0.13853015005588531
0.61206930875778198 0.32581815123558044 0.14172396063804626
0.73826491832733154 0.33365243673324585 0.14857171475887299
0.86640697717666626 0.34158343076705933 0.15408676862716675
0.051142450422048569 0.41243308782577515 0.12560078501701355
0.21370397508144379 0.42625442147254944 0.13615803420543671
0.36261636018753052 0.43934336304664612 0.14638715982437134
0.50011640787124634 0.44974011182785034 0.15492881834506989
0.63106179237365723 0.45938113331794739 0.16200391948223114
0.76112651824951172 0.47053393721580505 0.1681210845708847
0.89205396175384521 0.48410710692405701 0.16977584362030029
0.057761441916227341 0.54188722372055054 0.13666622340679169
0.22199751436710358 0.55680626630783081 0.14935147762298584
0.37305453419685364 0.57216590642929077 0.16124372184276581
0.51352483034133911 0.58614563941955566 0.171886146068573
0.64899277687072754 0.59938526153564453 0.18014027178287506
0.7831299901008606 0.61419403553009033 0.18379686772823334
0.91629582643508911 0.63051950931549072 0.18283188343048096
0.063869893550872803 0.67846643924713135 0.14684121310710907
0.22938883304595947 0.69457101821899414 0.16176696121692657
0.38186052441596985 0.71184390783309937 0.17637763917446136
0.52465862035751343 0.72894179821014404 0.18864086270332336
0.66403234004974365 0.74610990285873413 0.1952977329492569
0.80192786455154419 0.763985276222229 0.19548679888248444
0.93706977367401123 0.78121507167816162 0.19245842099189758
0.063034102320671082 0.81989061832427979 0.15834175050258636
0.23062442243099213 0.83755260705947876 0.1750764399766922
0.38575458526611328 0.85664379596710205 0.19064411520957947
0.5320051908493042 0.876179039478302 0.20299342274665833
0.67472487688064575 0.89589434862136841 0.20820111036300659
0.81521916389465332 0.91548579931259155 0.20661450922489166
0.95163482427597046 0.93299698829650879 0.20216532051563263
0.047701098024845123 0.044768914580345154 0.14091946184635162
0.20957131683826447 0.045058082789182663 0.1532890796661377
0.34112074971199036 0.050119750201702118 0.16271384060382843
0.46024468541145325 0.053061794489622116 0.17310424149036407
0.58026546239852905 0.052555441856384277 0.18730445206165314
0.70187830924987793 0.052339650690555573 0.20006123185157776
0.82538694143295288 0.050966855138540268 0.2085166871547699
0.049966849386692047 0.17697720229625702 0.16099759936332703
0.21233068406581879 0.18042513728141785 0.17326065897941589
0.34908226132392883 0.1877056360244751 0.18459847569465637
0.47278562188148499 0.19355277717113495 0.19422504305839539
0.59664261341094971 0.19574521481990814 0.20832829177379608
0.72160375118255615 0.19869334995746613 0.22216677665710449
0.84808653593063354 0.201346755027771 0.2326062023639679
0.049153886735439301 0.29666891694068909 0.18445548415184021
0.21077099442481995 0.30661559104919434 0.19677989184856415
0.35742345452308655 0.31625157594680786 0.21218656003475189
0.48984488844871521 0.32405155897140503 0.22337284684181213
0.61579203605651855 0.33134201169013977 0.23424486815929413
0.7428290843963623 0.33894500136375427 0.24693931639194489
0.87178546190261841 0.34652313590049744 0.25694102048873901
0.051279779523611069 0.4172370433807373 0.20925119519233704
0.21585908532142639 0.43078458309173584 0.22256962954998016
0.36673387885093689 0.44385543465614319 0.23704652488231659
0.50389587879180908 0.4551788866519928 0.24980387091636658
0.634468674659729 0.46575918793678284 0.26291951537132263
0.76473462581634521 0.47772988677024841 0.27531754970550537
0.89596128463745117 0.49024730920791626 0.28343695402145386
0.060780365020036697 0.54774218797683716 0.23098298907279968
0.22707182168960571 0.56244629621505737 0.24586206674575806
0.37852156162261963 0.57760399580001831 0.26152300834655762
0.51788187026977539 0.59140497446060181 0.27742412686347961
0.65227103233337402 0.60534822940826416 0.29261493682861328
0.78596645593643188 0.62091875076293945 0.30429422855377197
0.91901159286499023 0.63678669929504395 0.31024467945098877
0.069340363144874573 0.68586313724517822 0.25185504555702209
0.23707976937294006 0.70191097259521484 0.26869463920593262
0.38914021849632263 0.7182544469833374 0.28708088397979736
0.53070521354675293 0.73462909460067749 0.30547970533370972
0.6679573655128479 0.75174164772033691 0.32100537419319153
0.80399829149246216 0.7700730562210083 0.33141815662384033
0.93869811296463013 0.78727644681930542 0.33547842502593994
0.069322071969509125 0.82857835292816162 0.27330741286277771
0.23834465444087982 0.845633864402771 0.29246801137924194
0.39357215166091919 0.86384260654449463 0.31204569339752197
0.53858709335327148 0.88254022598266602 0.33045011758804321
0.67924028635025024 0.90196722745895386 0.34501522779464722
0.81733876466751099 0.92174851894378662 0.35427215695381165
0.95262241363525391 0.93908500671386719 0.35656607151031494
0.048141509294509888 0.047391358762979507 0.19152799248695374
0.20941437780857086 0.0497562475502491 0.20876669883728027
0.34355533123016357 0.054443929344415665 0.22331303358078003
0.46479198336601257 0.057709712535142899 0.23831981420516968
0.58538532257080078 0.057778019458055496 0.25601616501808167
0.70780718326568604 0.056198015809059143 0.27316319942474365
0.83165043592453003 0.054411765187978745 0.28671655058860779
0.054212022572755814 0.17783257365226746 0.22053046524524689
0.21918785572052002 0.18184342980384827 0.23807589709758759
0.35442134737968445 0.19030886888504028 0.25353872776031494
0.47892862558364868 0.19725888967514038 0.26854974031448364
0.60191947221755981 0.20062243938446045 0.28574332594871521
0.72701799869537354 0.2029091864824295 0.30370739102363586
0.85367178916931152 0.20468465983867645 0.31886756420135498
0.051998168230056763 0.29958269000053406 0.25300291180610657
0.21520717442035675 0.30890801548957825 0.26854085922241211
0.36333045363426208 0.31851494312286377 0.28930956125259399
0.49466961622238159 0.32820791006088257 0.30465736985206604
0.61984628438949585 0.33636340498924255 0.31993478536605835
0.74714118242263794 0.34426400065422058 0.3374885618686676
0.87644416093826294 0.3509138822555542 0.35291588306427002
0.053799886256456375 0.42269495129585266 0.28729456663131714
0.22017379105091095 0.43495336174964905 0.30400502681732178
0.37164431810379028 0.44791674613952637 0.32276692986488342
0.50704878568649292 0.45989301800727844 0.33796176314353943
0.63733834028244019 0.47060957551002502 0.35725009441375732
0.76792067289352417 0.48367485404014587 0.37575995922088623
0.89930099248886108 0.49564969539642334 0.39030569791793823
0.063543729484081268 0.55432689189910889 0.31993368268013
0.232028529047966 0.56858819723129272 0.33717334270477295
0.38328811526298523 0.58296495676040649 0.35608166456222534
0.52142506837844849 0.59597563743591309 0.37664687633514404
0.65512305498123169 0.60981148481369019 0.39823153614997864
0.78833574056625366 0.62655270099639893 0.41759434342384338
0.92126113176345825 0.64220726490020752 0.43009144067764282
0.07240518182516098 0.69373214244842529 0.35238122940063477
0.24307189881801605 0.70955026149749756 0.37075948715209961
0.39468687772750854 0.72479617595672607 0.39273917675018311
0.53508913516998291 0.74020588397979736 0.41608840227127075
0.67121803760528564 0.75699388980865479 0.4393877387046814
0.80594241619110107 0.77555257081985474 0.45843386650085449
0.93962907791137695 0.7924913763999939 0.46881887316703796
0.071517869830131531 0.83719110488891602 0.38489946722984314
0.24264389276504517 0.8538324236869812 0.40584444999694824
0.39840412139892578 0.87112212181091309 0.42856007814407349
0.54315489530563354 0.88884240388870239 0.45210358500480652
0.68246400356292725 0.90774792432785034 0.47418835759162903
0.81888711452484131 0.92708224058151245 0.49228149652481079
0.95268440246582031 0.94427013397216797 0.50110536813735962
0.050159186124801636 0.047863051295280457 0.24099321663379669
0.20798926055431366 0.052666142582893372 0.26305601000785828
0.34320318698883057 0.057287853211164474 0.284324049949646
0.46780240535736084 0.059926468878984451 0.3049396276473999
0.58983021974563599 0.05900777131319046 0.32567369937896729
0.71237379312515259 0.057570978999137878 0.34555616974830627
0.83607733249664307 0.054361980408430099 0.36279195547103882
0.055143948644399643 0.17938321828842163 0.2782575786113739
0.21824721992015839 0.18513165414333344 0.301565021276474
0.35590165853500366 0.19315597414970398 0.32332077622413635
0.48263639211654663 0.19921340048313141 0.34298622608184814
0.60677695274353027 0.20243668556213379 0.36306712031364441
0.73188996315002441 0.20426706969738007 0.38402935862541199
0.85840463638305664 0.20492233335971832 0.40282991528511047
0.052879482507705688 0.30222964286804199 0.32152774930000305
0.22056065499782562 0.31121623516082764 0.34380581974983215
0.36661902070045471 0.32194375991821289 0.36699333786964417
0.49716761708259583 0.33178836107254028 0.38500666618347168
0.62373495101928711 0.33912914991378784 0.40490967035293579
0.75164657831192017 0.34682407975196838 0.42660385370254517
0.88074368238449097 0.35307875275611877 0.44601064920425415
0.053351636976003647 0.42593160271644592 0.36490693688392639
0.22382649779319763 0.43862476944923401 0.38531750440597534
0.37473568320274353 0.4526393711566925 0.40649539232254028
0.50924515724182129 0.46347811818122864 0.42615801095962524
0.64022815227508545 0.47286459803581238 0.45041921734809875
0.7714684009552002 0.48694115877151489 0.47408223152160645
0.90298330783843994 0.49875810742378235 0.49323892593383789
0.063623659312725067 0.55940705537796021 0.40711098909378052
0.23426394164562225 0.57320302724838257 0.42693349719047546
0.38603612780570984 0.58773261308670044 0.44885304570198059
0.52360075712203979 0.59971386194229126 0.47314286231994629
0.65736538171768188 0.61262285709381104 0.50040662288665771
0.79104149341583252 0.6306195855140686 0.52572178840637207
0.92400485277175903 0.64582151174545288 0.54290235042572021
0.071745641529560089 0.7002255916595459 0.45100128650665283
0.24291537702083588 0.71494650840759277 0.47207945585250854
0.39649161696434021 0.73024201393127441 0.49623396992683411
0.53741586208343506 0.74577677249908447 0.52314311265945435
0.67363083362579346 0.76241862773895264 0.55137759447097778
0.80856329202651978 0.78007978200912476 0.57599693536758423
0.94186681509017944 0.79580318927764893 0.59001302719116211
0.069460459053516388 0.84465682506561279 0.49399694800376892
0.24181193113327026 0.86059767007827759 0.51713472604751587
0.3985600471496582 0.87733405828475952 0.54205787181854248
0.54510033130645752 0.89497876167297363 0.56875526905059814
0.68459045886993408 0.91325390338897705 0.59562903642654419
0.82084506750106812 0.93112242221832275 0.61716949939727783
0.95421367883682251 0.94675880670547485 0.62781995534896851
0.052916627377271652 0.046584155410528183 0.29403367638587952
0.20667077600955963 0.052599634975194931 0.32004746794700623
0.34065070748329163 0.057406645268201828 0.34711208939552307
0.4680732786655426 0.058759786188602448 0.37293720245361328
0.59221786260604858 0.057483464479446411 0.39726957678794861
0.71510475873947144 0.054377209395170212 0.41957616806030273
0.83803552389144897 0.050207819789648056 0.43915283679962158
0.057731270790100098 0.18012003600597382 0.34007862210273743
0.21714098751544952 0.18704305589199066 0.36630097031593323
0.35335689783096313 0.19558790326118469 0.39228889346122742
0.48363408446311951 0.20023652911186218 0.41727808117866516
0.6102217435836792 0.20223987102508545 0.44188010692596436
0.73582190275192261 0.20318011939525604 0.46563291549682617
0.86162638664245605 0.20307996869087219 0.48654505610466003
0.052757352590560913 0.30736428499221802 0.39070010185241699
0.22268833220005035 0.31516772508621216 0.41677024960517883
0.36695346236228943 0.32606852054595947 0.4410260021686554
0.49876779317855835 0.33479124307632446 0.46504706144332886
0.62750804424285889 0.34101331233978271 0.49090889096260071
0.75597542524337769 0.3474639356136322 0.51644527912139893
0.88447636365890503 0.35201570391654968 0.53822314739227295
0.053826276212930679 0.43230399489402771 0.44105422496795654
0.22745347023010254 0.4437376856803894 0.46435642242431641
0.37744596600532532 0.45710450410842896 0.48895132541656494
0.51198405027389526 0.46819224953651428 0.51478284597396851
0.64372700452804565 0.47839003801345825 0.54375600814819336
0.77562040090560913 0.49025627970695496 0.57195752859115601
0.90660029649734497 0.49996471405029297 0.59367591142654419
0.065391257405281067 0.56585431098937988 0.49169453978538513
0.23790456354618073 0.57827484607696533 0.51449251174926758
0.38916519284248352 0.5922359824180603 0.54180169105529785
0.52589660882949829 0.60697287321090698 0.56991052627563477
0.65953010320663452 0.62255215644836426 0.60018801689147949
0.79477888345718384 0.63599652051925659 0.63119280338287354
0.92701327800750732 0.64777088165283203 0.65040290355682373
0.069734744727611542 0.70672941207885742 0.54721605777740479
0.24270834028720856 0.72030943632125854 0.57070130109786987
0.39733093976974487 0.73566961288452148 0.59823000431060791
0.53867417573928833 0.75289487838745117 0.62843579053878784
0.67593634128570557 0.76990795135498047 0.6606934666633606
0.81183147430419922 0.78465414047241211 0.68857622146606445
0.94398647546768188 0.79722410440444946 0.70293450355529785
0.063387252390384674 0.8516228199005127 0.60086685419082642
0.23756726086139679 0.86663693189620972 0.62535965442657471
0.39728191494941711 0.88306105136871338 0.65196889638900757
0.54441118240356445 0.90067845582962036 0.68143695592880249
0.6853257417678833 0.91816431283950806 0.71100229024887085
0.82211828231811523 0.93400782346725464 0.73375964164733887
0.95463556051254272 0.94742172956466675 0.74410879611968994
0.052424024790525436 0.041303433477878571 0.3544195294380188
0.2058059424161911 0.046482834964990616 0.38421928882598877
0.33984324336051941 0.051436897367238998 0.41524264216423035
0.46768805384635925 0.052795484662055969 0.44490057229995728
0.59258711338043213 0.05150916799902916 0.47229871153831482
0.71532517671585083 0.048185639083385468 0.49658256769180298
0.83750826120376587 0.043471034616231918 0.5176163911819458
0.058891654014587402 0.17746157944202423 0.40669262409210205
0.21915394067764282 0.18295525014400482 0.43545711040496826
0.35521396994590759 0.19182129204273224 0.46536675095558167
0.48542019724845886 0.19650492072105408 0.4949793815612793
0.61247879266738892 0.19867824018001556 0.52324819564819336
0.73796820640563965 0.19889295101165771 0.54904419183731079
0.86275756359100342 0.19776692986488342 0.57146620750427246
0.053025338798761368 0.31273603439331055 0.46190628409385681
0.22340944409370422 0.31745335459709167 0.49009770154953003
0.36883455514907837 0.32610994577407837 0.51977419853210449
0.50191819667816162 0.33429530262947083 0.54961776733398438
0.63114684820175171 0.34094390273094177 0.57929736375808716
0.75918692350387573 0.34598729014396667 0.60692691802978516
0.8863639235496521 0.34887734055519104 0.62968569993972778
0.057226561009883881 0.44178381562232971 0.51767969131469727
0.23027065396308899 0.44945850968360901 0.54453760385513306
0.38088327646255493 0.45930546522140503 0.57623934745788574
0.51670974493026733 0.47078150510787964 0.60832935571670532
0.64824408292770386 0.48264461755752563 0.63973689079284668
0.77924364805221558 0.49200513958930969 0.66912382841110229
0.90841948986053467 0.4982931911945343 0.69085001945495605
0.067311473190784454 0.57386022806167603 0.57544761896133423
0.24091255664825439 0.58418458700180054 0.60151523351669312
0.39152947068214417 0.59651303291320801 0.63616949319839478
0.52964431047439575 0.61184632778167725 0.67056918144226074
0.66409409046173096 0.628154456615448 0.70425873994827271
0.79805546998977661 0.63882416486740112 0.73463529348373413
0.92813718318939209 0.64749181270599365 0.75250732898712158
0.065413683652877808 0.71369647979736328 0.64072889089584351
0.24003089964389801 0.72608911991119385 0.66666686534881592
0.39546281099319458 0.74073576927185059 0.6985856294631958
0.53900498151779175 0.75769132375717163 0.73322910070419312
0.67817533016204834 0.77380883693695068 0.76931536197662354
0.81329083442687988 0.78620177507400513 0.79650342464447021
0.94318556785583496 0.79674917459487915 0.80858045816421509
0.053041256964206696 0.85790896415710449 0.70305359363555908
0.22945460677146912 0.87216097116470337 0.72849351167678833
0.390970379114151 0.88785868883132935 0.75694656372070312
0.5406196117401123 0.90463244915008545 0.78870660066604614
0.6830141544342041 0.92065286636352539 0.8200182318687439
0.81992626190185547 0.93457931280136108 0.84245461225509644
0.95114684104919434 0.9460030198097229 0.85225099325180054
