assets/lut/creative tensiongreen 02.cube
# Created by: G'MIC (https://gmic.eu)
TITLE "tensiongreen_2"
# LUT size
LUT_3D_SIZE 7
# Data domain
DOMAIN_MIN 0.0 0.0 0.0
DOMAIN_MAX 1.0 1.0 1.0
# LUT data points
5.834242983837612e-05 0.061149954795837402 0.090623699128627777
0.069139309227466583 0.067391969263553619 0.073490291833877563
0.18734784424304962 0.075396083295345306 0.032457523047924042
0.3037884533405304 0.068147800862789154 0.0045793722383677959
0.43749120831489563 0.075262896716594696 0.0012198654003441334
0.59908157587051392 0.078292801976203918 0.00070847157621756196
0.78683614730834961 0.074440330266952515 0
0.00013068703992757946 0.14007215201854706 0.11536917835474014
0.073574721813201904 0.14788620173931122 0.038070857524871826
0.20001843571662903 0.15857084095478058 0.013917002826929092
0.30053314566612244 0.18736670911312103 0.00069922651164233685
0.42573365569114685 0.22747144103050232 0
0.57172739505767822 0.2667793333530426 0
0.76612657308578491 0.28666186332702637 0
0.0012807808816432953 0.2653869092464447 0.14143072068691254
0.056519810110330582 0.28235453367233276 0.055223755538463593
0.23047316074371338 0.29734370112419128 0.02896403893828392
0.35984101891517639 0.32126715779304504 0.018178213387727737
0.49948352575302124 0.34522998332977295 0.0031287549063563347
0.6464536190032959 0.38294798135757446 0.00016255097580142319
0.81960821151733398 0.41625592112541199 0
0.068193428218364716 0.42484071850776672 0.18414205312728882
0.13337701559066772 0.43157970905303955 0.11740021407604218
0.30818352103233337 0.44158929586410522 0.05556938424706459
0.44417259097099304 0.46543291211128235 0.067187078297138214
0.58444184064865112 0.48238489031791687 0.052399221807718277
0.75008511543273926 0.5143435001373291 0.015839654952287674
0.90105646848678589 0.54020243883132935 0.00050416833255439997
0.31186953186988831 0.60774648189544678 0.29478800296783447
0.34889641404151917 0.61528587341308594 0.24429737031459808
0.46056631207466125 0.62437433004379272 0.18430629372596741
0.58897465467453003 0.62994575500488281 0.17565959692001343
0.69902694225311279 0.64234000444412231 0.19088509678840637
0.83361136913299561 0.65269368886947632 0.1756809800863266
0.96010005474090576 0.6590074896812439 0.087416268885135651
0.51379203796386719 0.76663517951965332 0.40462753176689148
0.52231347560882568 0.77205795049667358 0.36158570647239685
0.58568787574768066 0.77826809883117676 0.30397337675094604
0.70109671354293823 0.77322381734848022 0.25960436463356018
0.80702638626098633 0.77114397287368774 0.26881051063537598
0.90665602684020996 0.78102707862854004 0.28137025237083435
0.99262917041778564 0.78134381771087646 0.27515566349029541
0.63929080963134766 0.88159334659576416 0.48051869869232178
0.64190936088562012 0.89408600330352783 0.4480988085269928
0.69651651382446289 0.89873558282852173 0.39870485663414001
0.79209411144256592 0.89314866065979004 0.34877857565879822
0.89504992961883545 0.88038676977157593 0.31863293051719666
0.97282862663269043 0.87923651933670044 0.32545715570449829
0.99804282188415527 0.8735884428024292 0.33545076847076416
0 0.081538379192352295 0.10796839743852615
0.013263867236673832 0.096396714448928833 0.1126447468996048
0.088560648262500763 0.13153016567230225 0.12884345650672913
0.20648859441280365 0.16714049875736237 0.12634865939617157
0.3750801682472229 0.19220267236232758 0.089432701468467712
0.56629544496536255 0.18759287893772125 0.051626093685626984
0.76294028759002686 0.1805015355348587 0.066741049289703369
0 0.15000484883785248 0.14576014876365662
0.013773346319794655 0.15992563962936401 0.14026935398578644
0.14781905710697174 0.18058639764785767 0.11090362817049026
0.26122546195983887 0.21214625239372253 0.093044862151145935
0.41251298785209656 0.2408970445394516 0.058183483779430389
0.5940062403678894 0.25825986266136169 0.039394527673721313
0.81885397434234619 0.22594715654850006 0.021991774439811707
0.0092945024371147156 0.27275377511978149 0.21247740089893341
0.025609992444515228 0.28184270858764648 0.18537375330924988
0.18751490116119385 0.30941227078437805 0.12012094259262085
0.3475668728351593 0.32203772664070129 0.075073599815368652
0.49318015575408936 0.35430687665939331 0.037298195064067841
0.63011258840560913 0.3993867039680481 0.040720097720623016
0.80736219882965088 0.43824586272239685 0.023640457540750504
0.10560934245586395 0.42275848984718323 0.29143562912940979
0.12212300300598145 0.43056493997573853 0.2515769898891449
0.24698945879936218 0.4525240957736969 0.16451385617256165
0.42198541760444641 0.47397956252098083 0.15603217482566833
0.58436548709869385 0.4943898618221283 0.14358438551425934
0.74662083387374878 0.51374775171279907 0.045458357781171799
0.89258038997650146 0.5457613468170166 0.013839107938110828
0.34267130494117737 0.60825031995773315 0.38648539781570435
0.35886278748512268 0.61686533689498901 0.35550826787948608
0.42823970317840576 0.63247585296630859 0.27667123079299927
0.56532847881317139 0.63498741388320923 0.23914915323257446
0.69160491228103638 0.65008217096328735 0.25404831767082214
0.82281458377838135 0.65889221429824829 0.24072344601154327
0.9598459005355835 0.66725140810012817 0.13591483235359192
0.51931405067443848 0.76434904336929321 0.47515314817428589
0.5303223729133606 0.76890677213668823 0.45565864443778992
0.56754976511001587 0.77993977069854736 0.38883766531944275
0.67376470565795898 0.77899408340454102 0.32610556483268738
0.79705369472503662 0.78063952922821045 0.31587153673171997
0.89237356185913086 0.78351676464080811 0.32822570204734802
0.98680931329727173 0.78511172533035278 0.31805238127708435
0.65852928161621094 0.88877207040786743 0.55890899896621704
0.66719603538513184 0.89577239751815796 0.52769690752029419
0.68499493598937988 0.9020620584487915 0.46058574318885803
0.76610058546066284 0.89789998531341553 0.40510642528533936
0.87598598003387451 0.88775360584259033 0.36234369874000549
0.96169382333755493 0.88470673561096191 0.36483973264694214
0.99763137102127075 0.8819587230682373 0.36399403214454651
0 0.10394245386123657 0.13215124607086182
0.002676286967471242 0.11676394939422607 0.13820698857307434
0.065530650317668915 0.15079475939273834 0.16164582967758179
0.15518642961978912 0.2001713365316391 0.18355928361415863
0.26159453392028809 0.27431067824363708 0.1976945549249649
0.42071107029914856 0.33389315009117126 0.21507167816162109
0.65596598386764526 0.37084981799125671 0.22404617071151733
0 0.16077917814254761 0.16632920503616333
0.0089734094217419624 0.17517676949501038 0.17290431261062622
0.082640595734119415 0.20216900110244751 0.18117721378803253
0.18069000542163849 0.25038078427314758 0.19554923474788666
0.30676114559173584 0.31183838844299316 0.21195340156555176
0.47378528118133545 0.36340183019638062 0.22105993330478668
0.71616387367248535 0.38639914989471436 0.21133890748023987
0.015779098495841026 0.2783869206905365 0.24393297731876373
0.045991037040948868 0.29120460152626038 0.24698969721794128
0.12949842214584351 0.32053953409194946 0.24448591470718384
0.28802210092544556 0.34635403752326965 0.21513527631759644
0.43651086091995239 0.38627862930297852 0.22345726191997528
0.59023678302764893 0.43073031306266785 0.22807030379772186
0.79653799533843994 0.45237380266189575 0.22053658962249756
0.1454484760761261 0.4306064248085022 0.33727040886878967
0.18509434163570404 0.44183743000030518 0.33593651652336121
0.24852509796619415 0.46116328239440918 0.31640395522117615
0.38816133141517639 0.4890628457069397 0.26305517554283142
0.5641014575958252 0.50266486406326294 0.24563731253147125
0.72146463394165039 0.53234392404556274 0.21729728579521179
0.8608284592628479 0.56337940692901611 0.20821961760520935
0.37897613644599915 0.60634028911590576 0.46779143810272217
0.39209845662117004 0.60952115058898926 0.4644923210144043
0.42920669913291931 0.62918490171432495 0.42393952608108521
0.52646654844284058 0.64947617053985596 0.34528127312660217
0.66386109590530396 0.65798759460449219 0.33638471364974976
0.8010743260383606 0.66882562637329102 0.32644408941268921
0.95523238182067871 0.67776495218276978 0.25221970677375793
0.55267202854156494 0.75489073991775513 0.56755244731903076
0.55884623527526855 0.75724446773529053 0.55643659830093384
0.57730609178543091 0.77183800935745239 0.51648259162902832
0.63342911005020142 0.78799796104431152 0.44359269738197327
0.76840531826019287 0.78541362285614014 0.3960559070110321
0.87574559450149536 0.78810036182403564 0.39762645959854126
0.97687643766403198 0.7915726900100708 0.38687264919281006
0.68272954225540161 0.88452112674713135 0.64021247625350952
0.6895936131477356 0.89153033494949341 0.62728548049926758
0.7037084698677063 0.89449870586395264 0.58013445138931274
0.74242997169494629 0.90093111991882324 0.50368756055831909
0.83770579099655151 0.90240585803985596 0.44263404607772827
0.95181810855865479 0.89101487398147583 0.4286629855632782
0.99770724773406982 0.88773965835571289 0.43129679560661316
0 0.12363497912883759 0.15499548614025116
0.00023247214267030358 0.14003825187683105 0.16190421581268311
0.035350456833839417 0.17391707003116608 0.18560291826725006
0.1471220999956131 0.21815110743045807 0.21833908557891846
0.2581811249256134 0.29076549410820007 0.25326666235923767
0.37482088804244995 0.37419077754020691 0.27827557921409607
0.52735871076583862 0.46513825654983521 0.33604055643081665
0.00025211408501490951 0.17277422547340393 0.18141104280948639
0.0093247061595320702 0.18808037042617798 0.1923716813325882
0.085938684642314911 0.22245971858501434 0.21242767572402954
0.17949202656745911 0.2688744068145752 0.23868891596794128
0.28854081034660339 0.33481875061988831 0.26350229978561401
0.41125616431236267 0.40924111008644104 0.29609808325767517
0.57219970226287842 0.48750984668731689 0.35074275732040405
0.025421576574444771 0.29026418924331665 0.27210035920143127
0.052084978669881821 0.30525341629981995 0.27964144945144653
0.11856018006801605 0.3332420289516449 0.29088437557220459
0.23739640414714813 0.3741028904914856 0.29822441935539246
0.36562913656234741 0.42557758092880249 0.31045612692832947
0.49866822361946106 0.48186716437339783 0.34615007042884827
0.68700361251831055 0.53399455547332764 0.37488794326782227
0.16236752271652222 0.43747743964195251 0.37027803063392639
0.1997082531452179 0.44780197739601135 0.37084850668907166
0.27078968286514282 0.47643992304801941 0.3885161280632019
0.34716939926147461 0.50125986337661743 0.38774892687797546
0.5049748420715332 0.52997386455535889 0.36331087350845337
0.66278684139251709 0.56495195627212524 0.38209575414657593
0.80861419439315796 0.59624427556991577 0.38596993684768677
0.39564809203147888 0.61484557390213013 0.49981647729873657
0.41260203719139099 0.61916589736938477 0.50374168157577515
0.45235729217529297 0.62815839052200317 0.5045088529586792
0.50537359714508057 0.65330463647842407 0.48590400815010071
0.63626587390899658 0.67197072505950928 0.42850250005722046
0.78935837745666504 0.6802138090133667 0.41515028476715088
0.92680644989013672 0.69282263517379761 0.37765929102897644
0.57197660207748413 0.75887382030487061 0.60547256469726562
0.58016526699066162 0.7624584436416626 0.60785114765167236
0.60832595825195312 0.77069723606109619 0.60168391466140747
0.63448017835617065 0.78696298599243164 0.57174599170684814
0.73123717308044434 0.80076742172241211 0.4912056028842926
0.85035628080368042 0.80177420377731323 0.47571936249732971
0.97743421792984009 0.80404925346374512 0.4611034095287323
0.70212471485137939 0.87531810998916626 0.68492227792739868
0.71751242876052856 0.88473725318908691 0.69797629117965698
0.73116064071655273 0.88756471872329712 0.68387120962142944
0.7370837926864624 0.88468855619430542 0.62707895040512085
0.80137306451797485 0.91121780872344971 0.55545681715011597
0.92068022489547729 0.89941895008087158 0.50659042596817017
0.99467605352401733 0.89544713497161865 0.49873679876327515
0 0.15474393963813782 0.18342427909374237
0 0.16852179169654846 0.1932680755853653
0.018978359177708626 0.20306913554668427 0.2118133157491684
0.1254848837852478 0.24992862343788147 0.25017154216766357
0.26117515563964844 0.31166467070579529 0.30269262194633484
0.38401591777801514 0.38885068893432617 0.34398338198661804
0.51731133460998535 0.47985181212425232 0.40103057026863098
0.0032939536031335592 0.1993691474199295 0.21012318134307861
0.017351217567920685 0.21614329516887665 0.22083759307861328
0.086233921349048615 0.25207704305648804 0.24542085826396942
0.17625857889652252 0.28919994831085205 0.27461332082748413
0.29450568556785583 0.35269883275032043 0.31863129138946533
0.41816848516464233 0.42574852705001831 0.3562486469745636
0.54976671934127808 0.5087505578994751 0.41490000486373901
0.057607419788837433 0.31058990955352783 0.29471054673194885
0.090531155467033386 0.32417243719100952 0.3032551109790802
0.15483947098255157 0.35228055715560913 0.32278266549110413
0.25030738115310669 0.39258906245231628 0.34722438454627991
0.37003353238105774 0.44474303722381592 0.37068638205528259
0.49285176396369934 0.50542533397674561 0.40580287575721741
0.62229812145233154 0.57289677858352661 0.44740685820579529
0.19897732138633728 0.4598882794380188 0.41470876336097717
0.2346278578042984 0.47000277042388916 0.42005926370620728
0.28333744406700134 0.48637628555297852 0.42791682481765747
0.35078287124633789 0.51471108198165894 0.44161221385002136
0.46610045433044434 0.5551607608795166 0.44979462027549744
0.59195852279663086 0.60228508710861206 0.46264764666557312
0.71653240919113159 0.64694160223007202 0.49221771955490112
0.41705778241157532 0.62364411354064941 0.53201711177825928
0.43785771727561951 0.62974399328231812 0.53567051887512207
0.47770661115646362 0.64085197448730469 0.53959578275680542
0.52857965230941772 0.66020268201828003 0.54498481750488281
0.60339933633804321 0.68623977899551392 0.54222714900970459
0.74129396677017212 0.70673847198486328 0.5273556113243103
0.86621516942977905 0.7274661660194397 0.5330500602722168
0.57698899507522583 0.76423996686935425 0.64726358652114868
0.58873987197875977 0.76693278551101685 0.64388394355773926
0.62172281742095947 0.77392077445983887 0.64321964979171753
0.65756791830062866 0.78696733713150024 0.65028619766235352
0.70817768573760986 0.80927497148513794 0.62517380714416504
0.82726001739501953 0.8172491192817688 0.56576311588287354
0.965251624584198 0.81372535228729248 0.54690593481063843
0.7192731499671936 0.88335144519805908 0.74068653583526611
0.72843003273010254 0.88507503271102905 0.73972624540328979
0.74592572450637817 0.88443577289581299 0.73273628950119019
0.77091085910797119 0.88916653394699097 0.72672909498214722
0.80082792043685913 0.90688484907150269 0.68927395343780518
0.87843364477157593 0.9145781397819519 0.60331845283508301
0.97395771741867065 0.89164841175079346 0.5832984447479248
0 0.18830075860023499 0.21400867402553558
0.00058040244039148092 0.1994815468788147 0.22664362192153931
0.026652781292796135 0.2335650771856308 0.24846266210079193
0.10142816603183746 0.28413650393486023 0.28261926770210266
0.25321817398071289 0.34025317430496216 0.34428602457046509
0.3910452127456665 0.41222724318504333 0.39333343505859375
0.52966547012329102 0.49479630589485168 0.4682944118976593
0.0089997388422489166 0.23306509852409363 0.24303571879863739
0.019007408991456032 0.24377109110355377 0.25081142783164978
0.072156272828578949 0.2787013053894043 0.27541947364807129
0.15938667953014374 0.32248029112815857 0.30995038151741028
0.29343864321708679 0.3772331178188324 0.36336174607276917
0.42773392796516418 0.44368138909339905 0.41221314668655396
0.56115478277206421 0.52381497621536255 0.47696435451507568
0.10764182358980179 0.33924934267997742 0.32093140482902527
0.13529828190803528 0.3486475944519043 0.32814911007881165
0.20025373995304108 0.37697917222976685 0.34879690408706665
0.27491289377212524 0.41395619511604309 0.37709185481071472
0.37640577554702759 0.46018707752227783 0.41800779104232788
0.50495362281799316 0.52079492807388306 0.46137675642967224
0.6307339072227478 0.5863221287727356 0.5056731104850769
0.25515243411064148 0.47813048958778381 0.44104611873626709
0.26809558272361755 0.47943469882011414 0.44106894731521606
0.31773939728736877 0.50085216760635376 0.45673561096191406
0.38914239406585693 0.5332149863243103 0.47747310996055603
0.48268520832061768 0.57206887006759644 0.5003894567489624
0.60382211208343506 0.61397916078567505 0.51926058530807495
0.70539861917495728 0.65997707843780518 0.54711407423019409
0.44727325439453125 0.63368088006973267 0.56576287746429443
0.45854485034942627 0.6370885968208313 0.56924927234649658
0.49304676055908203 0.65313911437988281 0.57622343301773071
0.5422285795211792 0.67035055160522461 0.58281791210174561
0.60355371236801147 0.69559603929519653 0.60029971599578857
0.69292604923248291 0.72556883096694946 0.60513007640838623
0.80121022462844849 0.75977450609207153 0.61830258369445801
0.59314465522766113 0.77039808034896851 0.67394506931304932
0.61042577028274536 0.7750963568687439 0.67388904094696045
0.63273924589157104 0.78056079149246216 0.67663127183914185
0.66966068744659424 0.79341477155685425 0.68460887670516968
0.72286736965179443 0.81279999017715454 0.69433581829071045
0.78971141576766968 0.83285874128341675 0.68300926685333252
0.91179162263870239 0.83875662088394165 0.66020536422729492
0.73042958974838257 0.88462990522384644 0.76706254482269287
0.73954468965530396 0.88643825054168701 0.76649695634841919
0.76195091009140015 0.89111196994781494 0.76562726497650146
0.78567665815353394 0.89348524808883667 0.75959116220474243
0.81750315427780151 0.90174633264541626 0.75361877679824829
0.85934048891067505 0.91594862937927246 0.733070969581604
0.97144490480422974 0.91181856393814087 0.6784476637840271
0 0.22220990061759949 0.2422730028629303
0.0026810141280293465 0.24398136138916016 0.26445013284683228
0.035674691200256348 0.28424310684204102 0.29545456171035767
0.10356692224740982 0.32081317901611328 0.32831612229347229
0.24496722221374512 0.37323424220085144 0.37651839852333069
0.38361427187919617 0.44356119632720947 0.44229826331138611
0.52482694387435913 0.51626074314117432 0.51461160182952881
0.023028504103422165 0.27293464541435242 0.27557936310768127
0.037966784089803696 0.28777894377708435 0.29026320576667786
0.096407704055309296 0.32109743356704712 0.32315108180046082
0.18279187381267548 0.36585855484008789 0.35793390870094299
0.29375040531158447 0.41192367672920227 0.39967173337936401
0.4255005419254303 0.47561490535736084 0.46497264504432678
0.5630946159362793 0.54832398891448975 0.53519415855407715
0.14149335026741028 0.36829009652137756 0.35975682735443115
0.16613359749317169 0.37729343771934509 0.36443546414375305
0.22494196891784668 0.40786567330360413 0.38448056578636169
0.2962501049041748 0.44394207000732422 0.41495344042778015
0.39357855916023254 0.48799845576286316 0.45321217179298401
0.50710821151733398 0.54303568601608276 0.50794428586959839
0.63313192129135132 0.60162436962127686 0.56380528211593628
0.29857441782951355 0.49579468369483948 0.45902296900749207
0.32331374287605286 0.50712424516677856 0.47015506029129028
0.36532846093177795 0.52430909872055054 0.48248863220214844
0.42977061867713928 0.55451899766921997 0.50223463773727417
0.51757746934890747 0.59036058187484741 0.5316309928894043
0.6122138500213623 0.63339006900787354 0.57035338878631592
0.71721631288528442 0.67971336841583252 0.61301398277282715
0.47965511679649353 0.6466909646987915 0.59155690670013428
0.48991668224334717 0.65223115682601929 0.59514600038528442
0.5215030312538147 0.66468769311904907 0.60418564081192017
0.56701123714447021 0.68297719955444336 0.61399084329605103
0.63040965795516968 0.71320611238479614 0.63822281360626221
0.70453286170959473 0.74078285694122314 0.65519618988037109
0.80504328012466431 0.7725832462310791 0.67305207252502441
0.61295050382614136 0.77528911828994751 0.70709490776062012
0.62078297138214111 0.77826011180877686 0.70809268951416016
0.65015631914138794 0.78693318367004395 0.71235674619674683
0.69367527961730957 0.80358302593231201 0.72030329704284668
0.73582345247268677 0.82052707672119141 0.7250361442565918
0.7896156907081604 0.83583253622055054 0.73378449678421021
0.86728709936141968 0.85470247268676758 0.73504114151000977
0.73658734560012817 0.88669013977050781 0.78057575225830078
0.7488938570022583 0.88636195659637451 0.79033732414245605
0.77118867635726929 0.89006328582763672 0.78619265556335449
0.77291738986968994 0.874908447265625 0.76748812198638916
0.82822316884994507 0.90305536985397339 0.78535771369934082
0.86856240034103394 0.91480374336242676 0.78896713256835938
0.95346701145172119 0.92062699794769287 0.79890930652618408
