assets/lut/creative crispwinter.cube
# Created by: G'MIC (https://gmic.eu)
TITLE "crispwinter"
# LUT size
LUT_3D_SIZE 13
# Data domain
DOMAIN_MIN 0.0 0.0 0.0
DOMAIN_MAX 1.0 1.0 1.0
# LUT data points
0.032310217618942261 0.051146712154150009 0.078156940639019012
0.10656297206878662 0.04963061586022377 0.076618477702140808
0.19923809170722961 0.046078953891992569 0.073479339480400085
0.29987424612045288 0.04598013311624527 0.07051723450422287
0.39808499813079834 0.046993345022201538 0.068971820175647736
0.49159839749336243 0.043346062302589417 0.068623453378677368
0.5819898247718811 0.038824163377285004 0.067969150841236115
0.66925561428070068 0.038677830249071121 0.065890908241271973
0.7541537880897522 0.043908737599849701 0.06312541663646698
0.83657032251358032 0.048295009881258011 0.062110330909490585
0.91529941558837891 0.050371941179037094 0.06227194145321846
0.98466968536376953 0.049775682389736176 0.063611291348934174
1 0.046724177896976471 0.064877316355705261
0.026024432852864265 0.15285776555538177 0.077233210206031799
0.097393378615379333 0.14949694275856018 0.074216611683368683
0.19161504507064819 0.14260309934616089 0.069471381604671478
0.29282015562057495 0.14019151031970978 0.066061191260814667
0.3899838924407959 0.13975530862808228 0.064945325255393982
0.48448321223258972 0.13595925271511078 0.064845800399780273
0.57581961154937744 0.12885124981403351 0.064864605665206909
0.66413658857345581 0.1257302314043045 0.064467966556549072
0.74975937604904175 0.13129855692386627 0.063218601047992706
0.83295369148254395 0.13829274475574493 0.061863288283348083
0.9127470850944519 0.14257274568080902 0.059694625437259674
0.98359251022338867 0.14399679005146027 0.060127947479486465
1 0.14266541600227356 0.063008449971675873
0.02265382744371891 0.25959378480911255 0.074761472642421722
0.092599578201770782 0.256490558385849 0.071747556328773499
0.18249216675758362 0.25017434358596802 0.067227788269519806
0.28171196579933167 0.24586500227451324 0.063421942293643951
0.38006329536437988 0.24301642179489136 0.06188558042049408
0.47571560740470886 0.23799674212932587 0.060981106013059616
0.56833350658416748 0.23124420642852783 0.060590870678424835
0.65788012742996216 0.2272837907075882 0.061446484178304672
0.74459141492843628 0.2312946617603302 0.061835166066884995
0.82901746034622192 0.23715999722480774 0.059855472296476364
0.90990304946899414 0.2409302294254303 0.05546010285615921
0.98251426219940186 0.24248813092708588 0.054825339466333389
1 0.24152664840221405 0.058944970369338989
0.020161991938948631 0.37032604217529297 0.071548253297805786
0.087145037949085236 0.36909395456314087 0.068850435316562653
0.17217588424682617 0.36488056182861328 0.064864754676818848
0.27022823691368103 0.35907402634620667 0.060576077550649643
0.36984845995903015 0.35382926464080811 0.05771159753203392
0.46674028038978577 0.34867009520530701 0.056100912392139435
0.56041944026947021 0.34449416399002075 0.055101118981838226
0.65083342790603638 0.34235718846321106 0.055647112429141998
0.73867541551589966 0.3429168164730072 0.057763971388339996
0.82473289966583252 0.34425920248031616 0.054725602269172668
0.90785419940948486 0.34481024742126465 0.047838442027568817
0.98226445913314819 0.34471678733825684 0.047407802194356918
1 0.34335517883300781 0.054475028067827225
0.02058042585849762 0.48032292723655701 0.066533319652080536
0.08597603440284729 0.47987851500511169 0.065277427434921265
0.16788001358509064 0.47649547457695007 0.061783555895090103
0.26337900757789612 0.47086331248283386 0.056913740932941437
0.36206439137458801 0.46532878279685974 0.0538497194647789
0.45889928936958313 0.46069657802581787 0.051332034170627594
0.55283421277999878 0.457378089427948 0.049146749079227448
0.64355987310409546 0.45550501346588135 0.048237506300210953
0.73232316970825195 0.45388874411582947 0.048291433602571487
0.81953060626983643 0.45229706168174744 0.045000247657299042
0.90466189384460449 0.4503684937953949 0.039910230785608292
0.98146027326583862 0.44850212335586548 0.041862249374389648
1 0.44654339551925659 0.052098531275987625
0.024235161021351814 0.58854591846466064 0.061624117195606232
0.089812487363815308 0.5869871973991394 0.06222781166434288
0.16856947541236877 0.58236485719680786 0.060343049466609955
0.25957372784614563 0.57738828659057617 0.055914457887411118
0.35610082745552063 0.57377219200134277 0.051458157598972321
0.45218652486801147 0.57024335861206055 0.047539938241243362
0.54600906372070312 0.56660592555999756 0.043641183525323868
0.63684964179992676 0.56356263160705566 0.040508463978767395
0.72530972957611084 0.56114763021469116 0.038560725748538971
0.81326502561569214 0.55832105875015259 0.036299418658018112
0.9003327488899231 0.55470514297485352 0.035894639790058136
0.97923976182937622 0.5514029860496521 0.042024768888950348
1 0.54963082075119019 0.052884537726640701
0.028024576604366302 0.69835734367370605 0.060031410306692123
0.092875540256500244 0.69518738985061646 0.061699032783508301
0.16850602626800537 0.68813705444335938 0.061663489788770676
0.25575980544090271 0.68249553442001343 0.057749159634113312
0.3499792218208313 0.68142294883728027 0.051715042442083359
0.44571256637573242 0.67881929874420166 0.045350946485996246
0.53967583179473877 0.67375141382217407 0.03910992294549942
0.6304701566696167 0.66879981756210327 0.033965092152357101
0.7185700535774231 0.66544544696807861 0.030770141631364822
0.80637705326080322 0.66204416751861572 0.029972944408655167
0.8947252631187439 0.65740483999252319 0.033062070608139038
0.97657924890518188 0.65319180488586426 0.042505525052547455
1 0.65236502885818481 0.053772330284118652
0.028523404151201248 0.80984872579574585 0.062758728861808777
0.093220382928848267 0.80522298812866211 0.061899386346340179
0.16714516282081604 0.79736876487731934 0.059820540249347687
0.25236707925796509 0.79243564605712891 0.055461343377828598
0.34497430920600891 0.79154980182647705 0.050057429820299149
0.44006121158599854 0.78812867403030396 0.044173866510391235
0.53371703624725342 0.78039354085922241 0.036330953240394592
0.62436091899871826 0.77185046672821045 0.028802549466490746
0.71248829364776611 0.76640164852142334 0.024629764258861542
0.79986518621444702 0.76305979490280151 0.024618141353130341
0.8871273398399353 0.75907051563262939 0.028686478734016418
0.96884822845458984 0.75605535507202148 0.038457982242107391
1 0.75702303647994995 0.050918083637952805
0.026871280744671822 0.91145247220993042 0.06246967613697052
0.092093445360660553 0.90672224760055542 0.058277562260627747
0.16606372594833374 0.90015637874603271 0.052040174603462219
0.25010618567466736 0.89673227071762085 0.04680296778678894
0.34103220701217651 0.89637374877929688 0.045017629861831665
0.43515962362289429 0.89261716604232788 0.044618971645832062
0.52819371223449707 0.8825078010559082 0.03778800368309021
0.61862212419509888 0.86923426389694214 0.027173075824975967
0.70645523071289062 0.86105966567993164 0.021413138136267662
0.79238659143447876 0.857491135597229 0.020975284278392792
0.87562769651412964 0.85644912719726562 0.023702329024672508
0.95197045803070068 0.85774445533752441 0.032076608389616013
0.99837023019790649 0.86069786548614502 0.045909509062767029
0.02622375451028347 0.98437607288360596 0.053874325007200241
0.090774744749069214 0.98168128728866577 0.047337431460618973
0.16424031555652618 0.97893679141998291 0.040244545787572861
0.24714826047420502 0.97875487804412842 0.035663306713104248
0.33732178807258606 0.97923934459686279 0.037232730537652969
0.43047443032264709 0.97701394557952881 0.043238800019025803
0.52320146560668945 0.96828299760818481 0.041273452341556549
0.61302334070205688 0.95191162824630737 0.028380794450640678
0.70004731416702271 0.94057899713516235 0.020155215635895729
0.78408956527709961 0.93603235483169556 0.017715902999043465
0.8632931113243103 0.93700581789016724 0.018904967233538628
0.93477857112884521 0.94257980585098267 0.025649739429354668
0.99169683456420898 0.94728511571884155 0.037569593638181686
0.026908889412879944 1 0.035787157714366913
0.089131496846675873 1 0.032706599682569504
0.16096101701259613 1 0.028452973812818527
0.24302124977111816 1 0.025651624426245689
0.33239376544952393 1 0.027980221435427666
0.4252130389213562 1 0.033490438014268875
0.51724785566329956 0.99994254112243652 0.032620988786220551
0.60708248615264893 0.99722743034362793 0.022631356492638588
0.69391566514968872 0.99128991365432739 0.014982425607740879
0.77716237306594849 0.98767763376235962 0.011741653084754944
0.85523724555969238 0.98850983381271362 0.011352659203112125
0.92648327350616455 0.99247574806213379 0.014160455204546452
0.98781883716583252 0.99460291862487793 0.019828017801046371
0.025007285177707672 1 0.020333563908934593
0.086329758167266846 1 0.020243611186742783
0.15686285495758057 1 0.019325107336044312
0.23795190453529358 1 0.01836242713034153
0.32682538032531738 1 0.018651191145181656
0.41904786229133606 1 0.019051704555749893
0.51115065813064575 1 0.015961680561304092
0.60110414028167725 1 0.010352130979299545
0.68857693672180176 1 0.0064318790100514889
0.77294814586639404 1 0.0045493482612073421
0.85285675525665283 1 0.0036267896648496389
0.92724025249481201 1 0.003653417807072401
0.98948508501052856 1 0.0052109062671661377
0.020752625539898872 1 0.011227820999920368
0.081911928951740265 1 0.012013663537800312
0.1524684727191925 1 0.012177860364317894
0.23313918709754944 1 0.011526534333825111
0.3212735652923584 1 0.010503865778446198
0.41325181722640991 1 0.0083032194525003433
0.50518596172332764 1 0.0049316557124257088
0.59580475091934204 1 0.0021299475338310003
0.68413078784942627 1 0.00089524214854463935
0.77018922567367554 1 0.00040067784721031785
0.85305869579315186 1 0.00010555491462582722
0.93073910474777222 1 0
0.99240869283676147 1 0.00014002183161210269
0.033914215862751007 0.047949384897947311 0.22421202063560486
0.1052098423242569 0.046522162854671478 0.22066482901573181
0.19713231921195984 0.043023787438869476 0.21521143615245819
0.29862895607948303 0.042326759546995163 0.21037881076335907
0.39770033955574036 0.043430987745523453 0.20706979930400848
0.49204939603805542 0.041443169116973877 0.20453065633773804
0.58291786909103394 0.038459718227386475 0.20173834264278412
0.67087113857269287 0.03826281800866127 0.19737584888935089
0.75673180818557739 0.041716571897268295 0.19273988902568817
0.84015452861785889 0.045302491635084152 0.18937253952026367
0.91915363073348999 0.047216903418302536 0.18807525932788849
0.98645025491714478 0.047160997986793518 0.1887076199054718
1 0.04432302713394165 0.19062487781047821
0.029749762266874313 0.14900194108486176 0.21985957026481628
0.096493646502494812 0.14643484354019165 0.21467114984989166
0.18956537544727325 0.14024506509304047 0.20792384445667267
0.29184785485267639 0.13747912645339966 0.20298309624195099
0.39004892110824585 0.13844238221645355 0.19988435506820679
0.48467397689819336 0.135506272315979 0.19733831286430359
0.57585310935974121 0.13056705892086029 0.19447867572307587
0.66405457258224487 0.12743853032588959 0.19130462408065796
0.75011682510375977 0.12922365963459015 0.18785554170608521
0.83450257778167725 0.13360907137393951 0.18410325050354004
0.91458266973495483 0.13763871788978577 0.18137681484222412
0.98446691036224365 0.13944189250469208 0.18169054388999939
1 0.13804419338703156 0.18530283868312836
0.027307294309139252 0.25599312782287598 0.21354719996452332
0.09540104866027832 0.25310605764389038 0.20798909664154053
0.183775395154953 0.24793185293674469 0.20150177180767059
0.28277182579040527 0.24473258852958679 0.19669976830482483
0.38098719716072083 0.24331007897853851 0.1932220458984375
0.47640854120254517 0.23972213268280029 0.1895783543586731
0.56815922260284424 0.23488889634609222 0.18566778302192688
0.65681087970733643 0.2312706857919693 0.18254309892654419
0.74349427223205566 0.23021547496318817 0.18030618131160736
0.82870131731033325 0.23223331570625305 0.17610271275043488
0.91053557395935059 0.23515141010284424 0.17142356932163239
0.98257970809936523 0.23691765964031219 0.17155314981937408
1 0.23617689311504364 0.17750869691371918
0.025019058957695961 0.36718612909317017 0.20570094883441925
0.093040570616722107 0.36553895473480225 0.20057807862758636
0.17749589681625366 0.3626648485660553 0.19477254152297974
0.2739308774471283 0.35881140828132629 0.18950203061103821
0.37219434976577759 0.35545790195465088 0.18552085757255554
0.46831431984901428 0.35128018260002136 0.18125851452350616
0.56061559915542603 0.34811827540397644 0.17588379979133606
0.64991885423660278 0.3461061418056488 0.17152096331119537
0.73731398582458496 0.34199482202529907 0.16988754272460938
0.82362532615661621 0.34001895785331726 0.16473287343978882
0.90749067068099976 0.33988809585571289 0.15761218965053558
0.98189085721969604 0.3398902416229248 0.15871754288673401
1 0.33853524923324585 0.16903677582740784
0.025351446121931076 0.47806119918823242 0.19732365012168884
0.092222966253757477 0.47706535458564758 0.19279782474040985
0.17432305216789246 0.47514182329177856 0.18663939833641052
0.26877585053443909 0.4720274806022644 0.18003794550895691
0.366056889295578 0.46741309762001038 0.17624945938587189
0.46139994263648987 0.46265760064125061 0.17254556715488434
0.55352139472961426 0.45961272716522217 0.16714426875114441
0.64302784204483032 0.45712006092071533 0.16209468245506287
0.73070579767227173 0.45319926738739014 0.15864419937133789
0.81799274682998657 0.44953492283821106 0.15249302983283997
0.90391749143600464 0.44696813821792603 0.14520314335823059
0.98082703351974487 0.44498685002326965 0.14863553643226624
1 0.44296547770500183 0.16240990161895752
0.028400765731930733 0.58736270666122437 0.19017523527145386
0.093917414546012878 0.58532422780990601 0.18696622550487518
0.1732219010591507 0.58265560865402222 0.18119466304779053
0.26469030976295471 0.57955163717269897 0.17375905811786652
0.35990673303604126 0.57554596662521362 0.16894036531448364
0.45485976338386536 0.57039940357208252 0.16450892388820648
0.54724657535552979 0.56567215919494629 0.15845414996147156
0.636524498462677 0.56233847141265869 0.15237163007259369
0.72368961572647095 0.55951189994812012 0.14736285805702209
0.81104844808578491 0.5562431812286377 0.1421806663274765
0.89882296323776245 0.5523415207862854 0.1391107589006424
0.97892653942108154 0.54875236749649048 0.14500004053115845
1 0.54676830768585205 0.15809915959835052
0.030944615602493286 0.69666481018066406 0.18636161088943481
0.094629339873790741 0.69341766834259033 0.18416565656661987
0.17042133212089539 0.68847787380218506 0.17952968180179596
0.2578982412815094 0.68493646383285522 0.1725856214761734
0.35214084386825562 0.68234628438949585 0.16501946747303009
0.44781452417373657 0.67743408679962158 0.15763625502586365
0.54130071401596069 0.67029851675033569 0.14889653027057648
0.63065147399902344 0.66523176431655884 0.14106942713260651
0.7172396183013916 0.66287219524383545 0.13561007380485535
0.80374211072921753 0.66038221120834351 0.13177528977394104
0.89312708377838135 0.65543925762176514 0.13164679706096649
0.97626447677612305 0.65054810047149658 0.13822712004184723
1 0.64954859018325806 0.15105034410953522
0.030996927991509438 0.80512446165084839 0.1849425882101059
0.093024417757987976 0.80113726854324341 0.1814870685338974
0.1662457287311554 0.79556894302368164 0.17580841481685638
0.25145784020423889 0.79265540838241577 0.16769294440746307
0.34472483396530151 0.79125881195068359 0.15960495173931122
0.44054773449897766 0.7862856388092041 0.15142686665058136
0.53455567359924316 0.77649545669555664 0.14073440432548523
0.62478005886077881 0.76753038167953491 0.13022726774215698
0.71201705932617188 0.76439577341079712 0.12498631328344345
0.7992483377456665 0.76223218441009521 0.12251195311546326
0.88813132047653198 0.75707638263702393 0.12147599458694458
0.97150015830993652 0.75182771682739258 0.12484235316514969
1 0.75269550085067749 0.13860280811786652
0.029763121157884598 0.90200912952423096 0.1804773211479187
0.090654738247394562 0.89916050434112549 0.17425581812858582
0.16240717470645905 0.89581328630447388 0.16517437994480133
0.24633292853832245 0.89593684673309326 0.15542642772197723
0.33871334791183472 0.89618813991546631 0.1494353711605072
0.43387410044670105 0.89140152931213379 0.14611981809139252
0.52781480550765991 0.87947267293930054 0.13670235872268677
0.61877447366714478 0.8660004734992981 0.12331008911132812
0.7069893479347229 0.86088728904724121 0.11878449469804764
0.79416340589523315 0.85935127735137939 0.11690349131822586
0.87957751750946045 0.85580968856811523 0.1140788197517395
0.95871323347091675 0.85313338041305542 0.11444498598575592
0.99951612949371338 0.8558928370475769 0.12813788652420044
0.027647025883197784 0.9709479808807373 0.16790321469306946
0.087303578853607178 0.97209519147872925 0.16071984171867371
0.15800581872463226 0.97348564863204956 0.14992953836917877
0.24144336581230164 0.97752875089645386 0.13900485634803772
0.33350196480751038 0.97928452491760254 0.1368735134601593
0.42815050482749939 0.97592127323150635 0.14136141538619995
0.52172660827636719 0.96629589796066284 0.13747137784957886
0.61264795064926147 0.95216405391693115 0.12534125149250031
0.7010728120803833 0.94399136304855347 0.11771509796380997
0.78651762008666992 0.94114381074905396 0.11382283270359039
0.86759263277053833 0.94043260812759399 0.11049867421388626
0.94073975086212158 0.94284641742706299 0.11180397123098373
0.99464637041091919 0.94666510820388794 0.12245365232229233
0.026193192228674889 0.99857038259506226 0.14726285636425018
0.082932323217391968 0.99964529275894165 0.14359518885612488
0.15178725123405457 0.99995005130767822 0.13613209128379822
0.23487310111522675 1 0.12813876569271088
0.32722988724708557 1 0.12785366177558899
0.42213889956474304 1 0.13305084407329559
0.51583129167556763 0.99984139204025269 0.13118019700050354
0.60665512084960938 0.99760210514068604 0.12090907245874405
0.69483417272567749 0.9935612678527832 0.11149420589208603
0.77931886911392212 0.99127578735351562 0.1055174320936203
0.85889220237731934 0.99165821075439453 0.10103882104158401
0.93084728717803955 0.99448543787002563 0.10114844888448715
0.99012583494186401 0.99624872207641602 0.1078144758939743
0.021458540111780167 1 0.12723447382450104
0.076123543083667755 1 0.12807683646678925
0.14422912895679474 1 0.12580282986164093
0.22718031704425812 1 0.12196715176105499
0.31991675496101379 1 0.12019023299217224
0.41546925902366638 1 0.11897560209035873
0.50953322649002075 1 0.1120360866189003
0.60073184967041016 1 0.10113617777824402
0.6890864372253418 1 0.093679703772068024
0.77475875616073608 1 0.088787972927093506
0.85706478357315063 1 0.08289443701505661
0.93264156579971313 1 0.079378359019756317
0.99233001470565796 1 0.083276219666004181
0.014263676479458809 1 0.11402272433042526
0.068819068372249603 1 0.11612360179424286
0.13769181072711945 1 0.11612094193696976
0.22087249159812927 1 0.11331748217344284
0.3133942186832428 1 0.10884202271699905
0.40895241498947144 1 0.10147863626480103
0.50323593616485596 1 0.089238107204437256
0.59498500823974609 0.99989324808120728 0.076870545744895935
0.68449974060058594 0.99970126152038574 0.071818120777606964
0.77200019359588623 0.99970126152038574 0.068152546882629395
0.8573373556137085 0.99966919422149658 0.061718255281448364
0.93821722269058228 0.99965971708297729 0.0550803542137146
0.99556487798690796 1 0.057303067296743393
0.037932422012090683 0.046518422663211823 0.37124913930892944
0.11053168773651123 0.043757107108831406 0.36639967560768127
0.1990237683057785 0.040756583213806152 0.35955241322517395
0.29692196846008301 0.039185781031847 0.35361725091934204
0.39528319239616394 0.0395953468978405 0.34917899966239929
0.49065539240837097 0.038645606487989426 0.34568509459495544
0.58246415853500366 0.036322485655546188 0.34154880046844482
0.67130851745605469 0.034612152725458145 0.33621221780776978
0.75865823030471802 0.035582851618528366 0.32985401153564453
0.84387940168380737 0.038944918662309647 0.32373771071434021
0.92336255311965942 0.042280636727809906 0.31928834319114685
0.98801976442337036 0.042836535722017288 0.31833851337432861
1 0.039989233016967773 0.31986773014068604
0.033485982567071915 0.1479739248752594 0.36399519443511963
0.10276049375534058 0.14463405311107635 0.35739681124687195
0.19037307798862457 0.14022436738014221 0.34974560141563416
0.28881397843360901 0.13763405382633209 0.34369140863418579
0.38739806413650513 0.13672615587711334 0.33954209089279175
0.4827587902545929 0.13455592095851898 0.33559080958366394
0.57403862476348877 0.13000932335853577 0.33136066794395447
0.66218024492263794 0.12495625764131546 0.32679489254951477
0.74881988763809204 0.12235194444656372 0.32158446311950684
0.83486485481262207 0.12524965405464172 0.31548774242401123
0.91579973697662354 0.13013143837451935 0.31066635251045227
0.98454326391220093 0.13221214711666107 0.30974557995796204
1 0.13098092377185822 0.31270426511764526
0.030725531280040741 0.25514286756515503 0.35379999876022339
0.099289551377296448 0.25193324685096741 0.34701120853424072
0.18419307470321655 0.24804642796516418 0.34024912118911743
0.28084075450897217 0.2463674396276474 0.33526250720024109
0.37903979420661926 0.24401582777500153 0.33090853691101074
0.47463312745094299 0.24032033979892731 0.32551294565200806
0.56591629981994629 0.23519024252891541 0.31974697113037109
0.65374231338500977 0.22891309857368469 0.31457427144050598
0.74034136533737183 0.22366495430469513 0.31005942821502686
0.82684099674224854 0.2238517701625824 0.30397632718086243
0.90950155258178711 0.22718262672424316 0.29884931445121765
0.98120510578155518 0.2289271354675293 0.29865539073944092
1 0.22818385064601898 0.30371922254562378
0.028356036171317101 0.36606630682945251 0.34262874722480774
0.096674181520938873 0.36368602514266968 0.33623602986335754
0.17961284518241882 0.36223605275154114 0.33022934198379517
0.27401483058929443 0.36030557751655579 0.3263910710811615
0.37180021405220032 0.35716813802719116 0.3221944272518158
0.46748343110084534 0.35237953066825867 0.31565603613853455
0.55876243114471436 0.34811636805534363 0.3082033097743988
0.64678531885147095 0.34337589144706726 0.30161562561988831
0.73374944925308228 0.33682540059089661 0.29676929116249084
0.82088059186935425 0.33350434899330139 0.29078090190887451
0.90506941080093384 0.33331891894340515 0.28497719764709473
0.97947520017623901 0.33333924412727356 0.28628107905387878
1 0.3316628634929657 0.29463309049606323
0.028613565489649773 0.47676998376846313 0.33196181058883667
0.095950379967689514 0.47538501024246216 0.32600629329681396
0.17655609548091888 0.4736115038394928 0.31962704658508301
0.26927980780601501 0.47210288047790527 0.31433987617492676
0.36638647317886353 0.46814033389091492 0.31053897738456726
0.46135833859443665 0.46308448910713196 0.30519780516624451
0.55247384309768677 0.459229975938797 0.29806381464004517
0.64035296440124512 0.45521676540374756 0.29093459248542786
0.72753512859344482 0.44973418116569519 0.28507930040359497
0.81509411334991455 0.44539797306060791 0.27877813577651978
0.90129846334457397 0.44286340475082397 0.27346807718276978
0.97855514287948608 0.44095256924629211 0.27681469917297363
1 0.43842878937721252 0.28698885440826416
0.030830264091491699 0.58624833822250366 0.32313188910484314
0.094800405204296112 0.58371293544769287 0.31788864731788635
0.17346303164958954 0.5813559889793396 0.31144225597381592
0.26421782374382019 0.57898443937301636 0.30451253056526184
0.36001735925674438 0.57518273591995239 0.29924517869949341
0.45496103167533875 0.56999272108078003 0.2941194474697113
0.54641467332839966 0.56499010324478149 0.28736329078674316
0.63468998670578003 0.56094354391098022 0.28042373061180115
0.72140622138977051 0.5573011040687561 0.27430880069732666
0.80875051021575928 0.5537601113319397 0.26906764507293701
0.89653241634368896 0.5499647855758667 0.26550024747848511
0.97677826881408691 0.54645490646362305 0.26908671855926514
1 0.54384595155715942 0.27877423167228699
0.031137922778725624 0.6944504976272583 0.31716945767402649
0.093305625021457672 0.69051826000213623 0.31305050849914551
