assets/lut/creative latesunset.cube
# Created by: G'MIC (https://gmic.eu)
TITLE "latesunset"
# LUT size
LUT_3D_SIZE 7
# Data domain
DOMAIN_MIN 0.0 0.0 0.0
DOMAIN_MAX 1.0 1.0 1.0
# LUT data points
0.01308415737003088 0.0080825053155422211 0.021689590066671371
0.10028695315122604 0.0092759821563959122 0.054644893854856491
0.17187857627868652 0.012122779153287411 0.13209888339042664
0.25194945931434631 0.00023579316621180624 0.16095201671123505
0.33453339338302612 7.62939453125e-05 0.17107480764389038
0.42779138684272766 0.017984950914978981 0.18135169148445129
0.53971278667449951 0.070283912122249603 0.19278246164321899
0.05186869204044342 0.076001137495040894 0.12164315581321716
0.11670524626970291 0.068913750350475311 0.1406233012676239
0.1957831084728241 0.058376610279083252 0.15880885720252991
0.27184221148490906 0.052115421742200851 0.16810862720012665
0.35195308923721313 0.053147334605455399 0.17603595554828644
0.44475740194320679 0.075639612972736359 0.18944776058197021
0.56249582767486572 0.12179179489612579 0.2018912136554718
0.1430673748254776 0.14071275293827057 0.17776751518249512
0.17463527619838715 0.13956637680530548 0.17820183932781219
0.23311798274517059 0.1345827579498291 0.17971982061862946
0.29956060647964478 0.13525049388408661 0.18491251766681671
0.38443461060523987 0.14232057332992554 0.18973170220851898
0.48582664132118225 0.16413915157318115 0.19799180328845978
0.6158936619758606 0.20841088891029358 0.20660609006881714
0.22292186319828033 0.22419032454490662 0.19832964241504669
0.25030553340911865 0.22454485297203064 0.19918055832386017
0.30350849032402039 0.22893707454204559 0.19959025084972382
0.37554621696472168 0.23682141304016113 0.2043093740940094
0.46317270398139954 0.25540181994438171 0.21017087996006012
0.57142919301986694 0.28498086333274841 0.21404366195201874
0.71534448862075806 0.33656340837478638 0.19725479185581207
0.37188628315925598 0.35615378618240356 0.22140206396579742
0.39971446990966797 0.36184465885162354 0.22044865787029266
0.44359320402145386 0.36637628078460693 0.21638989448547363
0.52018201351165771 0.38479417562484741 0.20883400738239288
0.61475300788879395 0.40790632367134094 0.18588179349899292
0.74432623386383057 0.45190489292144775 0.13473653793334961
0.87871062755584717 0.52090281248092651 0.11334228515625
0.62742245197296143 0.57041186094284058 0.12597706913948059
0.64902925491333008 0.57881772518157959 0.12389474362134933
0.67966580390930176 0.58694648742675781 0.13996438682079315
0.74913400411605835 0.60970497131347656 0.12090953439474106
0.8301200270652771 0.64700549840927124 0.15981921553611755
0.91206270456314087 0.7006688117980957 0.23184074461460114
0.99009221792221069 0.76367312669754028 0.34957396984100342
0.78076183795928955 0.85856533050537109 0.37956753373146057
0.78992623090744019 0.86091822385787964 0.38854876160621643
0.81306028366088867 0.86916631460189819 0.41095095872879028
0.85387551784515381 0.89535737037658691 0.46457776427268982
0.9033740758895874 0.91977828741073608 0.51563572883605957
0.96358031034469604 0.94704002141952515 0.5694923996925354
0.99894851446151733 0.9732358455657959 0.62396931648254395
0.018271457403898239 0.0080866198986768723 0.09944567084312439
0.094481676816940308 0.007253729272633791 0.12477882206439972
0.16144189238548279 0.01348413247615099 0.18266771733760834
0.24682149291038513 0.00076549756340682507 0.209822878241539
0.3298991322517395 0.00032599954283796251 0.21875979006290436
0.4234108030796051 0.012859060429036617 0.22637750208377838
0.53479123115539551 0.06106426939368248 0.23512977361679077
0.044724050909280777 0.074532076716423035 0.17445193231105804
0.10364729911088943 0.071647405624389648 0.19436325132846832
0.18709848821163177 0.059753254055976868 0.21498197317123413
0.26441147923469543 0.053647913038730621 0.21773134171962738
0.34480008482933044 0.056856118142604828 0.22129462659358978
0.43818050622940063 0.075376160442829132 0.22869130969047546
0.55378788709640503 0.11831028014421463 0.23708608746528625
0.13265876471996307 0.14224638044834137 0.21494348347187042
0.16824868321418762 0.13975247740745544 0.21747782826423645
0.22776035964488983 0.13590458035469055 0.22132137417793274
0.29422464966773987 0.13600039482116699 0.22531647980213165
0.37990930676460266 0.1443183422088623 0.22704428434371948
0.48316836357116699 0.16908921301364899 0.23290587961673737
0.60865861177444458 0.21238528192043304 0.24087738990783691
0.22121486067771912 0.22771729528903961 0.2289029061794281
0.24540314078330994 0.22673465311527252 0.22802393138408661
0.29686063528060913 0.22977188229560852 0.23214052617549896
0.37247022986412048 0.23690712451934814 0.23360583186149597
0.45918983221054077 0.25536668300628662 0.23812007904052734
0.58027356863021851 0.29035711288452148 0.24207238852977753
0.72003191709518433 0.33860102295875549 0.22641947865486145
0.37177357077598572 0.35985824465751648 0.24525028467178345
0.39769390225410461 0.36389341950416565 0.2395826131105423
0.44818723201751709 0.37085446715354919 0.23686155676841736
0.51997154951095581 0.38593265414237976 0.24079355597496033
0.62392842769622803 0.41333603858947754 0.22029787302017212
0.75173705816268921 0.45843425393104553 0.17467479407787323
0.88283729553222656 0.52319121360778809 0.16327062249183655
0.62969517707824707 0.57773089408874512 0.16406053304672241
0.64813321828842163 0.5794910192489624 0.15604442358016968
0.69671022891998291 0.59284073114395142 0.16050697863101959
0.75470209121704102 0.61431407928466797 0.16592220962047577
0.82840383052825928 0.64439326524734497 0.19198867678642273
0.91345727443695068 0.70653587579727173 0.27379202842712402
0.987415611743927 0.76855933666229248 0.38327181339263916
0.77973705530166626 0.86426889896392822 0.4138340950012207
0.78835892677307129 0.86551225185394287 0.41988763213157654
0.81829577684402466 0.87519264221191406 0.44442147016525269
0.85327506065368652 0.89442288875579834 0.48706910014152527
0.90014970302581787 0.92212200164794922 0.53808397054672241
0.96361416578292847 0.94508707523345947 0.58483779430389404
1 0.97713249921798706 0.65375208854675293
0.05114370584487915 0.0079289153218269348 0.17159004509449005
0.085685566067695618 0.015152172185480595 0.20596101880073547
0.1573793888092041 0.011600390076637268 0.25452461838722229
0.24150058627128601 0.0025660945102572441 0.27466562390327454
0.32557547092437744 0.0028282464481890202 0.27599084377288818
0.42298519611358643 0.017984367907047272 0.28104889392852783
0.53830444812774658 0.066542863845825195 0.28879824280738831
0.027366414666175842 0.073522590100765228 0.2471010833978653
0.095157057046890259 0.068916112184524536 0.25372317433357239
0.177808478474617 0.061705630272626877 0.26873433589935303
0.25515663623809814 0.058034799993038177 0.27507653832435608
0.33742982149124146 0.061896082013845444 0.27770397067070007
0.43442562222480774 0.079386629164218903 0.28216344118118286
0.55442649126052856 0.12157526612281799 0.28787004947662354
0.12775023281574249 0.13779740035533905 0.26940679550170898
0.1612357497215271 0.13991907238960266 0.27353107929229736
0.21893250942230225 0.14007733762264252 0.27592521905899048
0.29042112827301025 0.13914461433887482 0.275858074426651
0.3749869167804718 0.14593350887298584 0.27980142831802368
0.47939112782478333 0.1683800220489502 0.28701668977737427
0.61171454191207886 0.21155150234699249 0.29384595155715942
0.22331817448139191 0.2256438285112381 0.28116884827613831
0.24789649248123169 0.2260134220123291 0.28142130374908447
0.29993224143981934 0.23264043033123016 0.28856188058853149
0.37262985110282898 0.23964887857437134 0.28125280141830444
0.46041810512542725 0.25660550594329834 0.29045206308364868
0.58089613914489746 0.29173362255096436 0.29316812753677368
0.73269015550613403 0.34694191813468933 0.27576857805252075
0.3769107460975647 0.36130258440971375 0.29236441850662231
0.40033575892448425 0.36801761388778687 0.29310756921768188
0.44617477059364319 0.37174898386001587 0.29311853647232056
0.51729094982147217 0.38412368297576904 0.2878246009349823
0.62360692024230957 0.41481095552444458 0.26927939057350159
0.75665163993835449 0.46087130904197693 0.23747305572032928
0.89342617988586426 0.52866595983505249 0.22616298496723175
0.6360744833946228 0.57813006639480591 0.22738415002822876
0.65252965688705444 0.58020764589309692 0.22112555801868439
0.69329345226287842 0.59308230876922607 0.22317688167095184
0.7578544020652771 0.61186009645462036 0.22567710280418396
0.8289831280708313 0.64624333381652832 0.25848817825317383
0.91355711221694946 0.70090866088867188 0.32767680287361145
0.98862999677658081 0.77194309234619141 0.441802978515625
0.77830600738525391 0.85993009805679321 0.44694289565086365
0.78626167774200439 0.86840856075286865 0.46387186646461487
0.81359750032424927 0.8845212459564209 0.49718880653381348
0.85447180271148682 0.89922899007797241 0.5340956449508667
0.89930635690689087 0.92517894506454468 0.58672642707824707
0.95979136228561401 0.95102208852767944 0.63282316923141479
0.99998277425765991 0.97676658630371094 0.68582147359848022
0.033389519900083542 0.021509282290935516 0.26716351509094238
0.070095077157020569 0.022719888016581535 0.28942364454269409
0.14923150837421417 0.0086010051891207695 0.31780126690864563
0.24055632948875427 0.0024183085188269615 0.32940661907196045
0.32532703876495361 0.0096732340753078461 0.32777929306030273
0.42742195725440979 0.033139202743768692 0.33453533053398132
0.55014985799789429 0.083478279411792755 0.34645286202430725
0.048863355070352554 0.070207469165325165 0.31294840574264526
0.096470490097999573 0.066054217517375946 0.3214867115020752
0.17562440037727356 0.061095219105482101 0.32586884498596191
0.25741910934448242 0.060883242636919022 0.32865133881568909
0.34072235226631165 0.069353006780147552 0.33094918727874756
0.44306185841560364 0.090305671095848083 0.33723390102386475
0.5679551362991333 0.13500447571277618 0.34746807813644409
0.1243639662861824 0.13969205319881439 0.33010566234588623
0.15609094500541687 0.13849660754203796 0.33135160803794861
0.21833352744579315 0.13952153921127319 0.33010613918304443
0.29490882158279419 0.14268539845943451 0.32932955026626587
0.38378530740737915 0.15348407626152039 0.33394104242324829
0.49350422620773315 0.17868606746196747 0.34023475646972656
0.62481391429901123 0.22153213620185852 0.35270735621452332
0.23027579486370087 0.22941084206104279 0.33448991179466248
0.25006633996963501 0.22661507129669189 0.33671367168426514
0.30303382873535156 0.2341887354850769 0.33930787444114685
0.37710195779800415 0.24481220543384552 0.34066733717918396
0.46948763728141785 0.26341819763183594 0.34668561816215515
0.58326864242553711 0.2949816882610321 0.35275334119796753
0.7380484938621521 0.34949022531509399 0.33198374509811401
0.3932320773601532 0.36628192663192749 0.34478861093521118
0.41043561697006226 0.36684337258338928 0.34418380260467529
0.45597615838050842 0.37504872679710388 0.3443622887134552
0.52815240621566772 0.39144614338874817 0.34164395928382874
0.63975787162780762 0.42170748114585876 0.31509658694267273
0.76695984601974487 0.47072213888168335 0.29409366846084595
0.90257185697555542 0.53886502981185913 0.30031180381774902
0.65470349788665771 0.58418941497802734 0.28762704133987427
0.66868722438812256 0.5892065167427063 0.28701856732368469
0.70535957813262939 0.6018790602684021 0.28311249613761902
0.7645493745803833 0.62352091073989868 0.30025202035903931
0.84003859758377075 0.65861493349075317 0.33700793981552124
0.91854214668273926 0.71636760234832764 0.41202911734580994
0.98653334379196167 0.77958202362060547 0.50934106111526489
0.78163808584213257 0.8695865273475647 0.52780932188034058
0.79214769601821899 0.87626117467880249 0.53640913963317871
0.81394481658935547 0.88992661237716675 0.55780428647994995
0.8479001522064209 0.90541046857833862 0.59829789400100708
0.89583933353424072 0.92303621768951416 0.63983649015426636
0.95309489965438843 0.95269167423248291 0.68933886289596558
0.9979587197303772 0.97226077318191528 0.73121428489685059
0.015777302905917168 0.023969806730747223 0.35456675291061401
0.069800600409507751 0.019052676856517792 0.36409085988998413
0.15053649246692657 0.010045504197478294 0.37668848037719727
0.24210864305496216 0.0031442230101674795 0.38306877017021179
0.32867264747619629 0.0082804514095187187 0.38269481062889099
0.43197408318519592 0.034327533096075058 0.38798856735229492
0.55767488479614258 0.089596137404441833 0.39955803751945496
0.054511681199073792 0.065807312726974487 0.38190677762031555
0.10353052616119385 0.06618867814540863 0.38271889090538025
0.17434881627559662 0.066805191338062286 0.3856513500213623
0.25577673316001892 0.065241917967796326 0.38703721761703491
0.34407916665077209 0.071267984807491302 0.38669300079345703
0.45065823197364807 0.09343351423740387 0.39233988523483276
0.58118522167205811 0.14383043348789215 0.40391054749488831
0.13769839704036713 0.14239908754825592 0.38688194751739502
0.16905239224433899 0.13983073830604553 0.3874238133430481
0.22496940195560455 0.14253504574298859 0.38725489377975464
0.29667279124259949 0.14780403673648834 0.38727930188179016
0.38995188474655151 0.16046138107776642 0.39011707901954651
0.50343847274780273 0.18596583604812622 0.39860796928405762
0.63715624809265137 0.23047131299972534 0.41032075881958008
0.24887323379516602 0.23084594309329987 0.39486947655677795
0.27154678106307983 0.23301307857036591 0.3917965292930603
0.31977087259292603 0.2387535572052002 0.39182201027870178
0.3840448260307312 0.24811899662017822 0.39278924465179443
0.47967612743377686 0.268890380859375 0.40587422251701355
0.60037016868591309 0.30169850587844849 0.40142571926116943
0.75080949068069458 0.35545909404754639 0.38050681352615356
0.4116455614566803 0.36850285530090332 0.39546588063240051
0.43775635957717896 0.37567669153213501 0.39800792932510376
0.4853401780128479 0.38307711482048035 0.39247173070907593
0.55348551273345947 0.4022471010684967 0.39109909534454346
0.66044998168945312 0.42974767088890076 0.37435272336006165
0.78399521112442017 0.47747236490249634 0.35450109839439392
0.91560864448547363 0.54974937438964844 0.37522587180137634
0.67371797561645508 0.59213334321975708 0.35305395722389221
0.68926584720611572 0.5963636040687561 0.35431733727455139
0.72959619760513306 0.60621988773345947 0.35400810837745667
0.77755433320999146 0.63264727592468262 0.37784531712532043
0.84996169805526733 0.66996514797210693 0.41475778818130493
0.92516100406646729 0.7296898365020752 0.49138027429580688
0.99077051877975464 0.79192125797271729 0.58809328079223633
0.78602582216262817 0.880451500415802 0.60628122091293335
0.79963052272796631 0.88349676132202148 0.60893416404724121
0.81947576999664307 0.89257901906967163 0.63215017318725586
0.84717106819152832 0.91127651929855347 0.6722070574760437
0.8951219916343689 0.92712002992630005 0.70363533496856689
0.95423012971878052 0.95971179008483887 0.75429916381835938
1 0.97981232404708862 0.8013303279876709
0.046446364372968674 0.011695996858179569 0.42414051294326782
0.097350023686885834 0.0071037742309272289 0.42765843868255615
0.16944678127765656 0.008662145584821701 0.43488472700119019
0.25074252486228943 0.0059276656247675419 0.43904927372932434
0.33665114641189575 0.0073650283738970757 0.43968644738197327
0.44204434752464294 0.037084214389324188 0.44241708517074585
0.57032734155654907 0.10093019902706146 0.45219007134437561
0.085730761289596558 0.061966031789779663 0.43714746832847595
0.12853194773197174 0.058762583881616592 0.43727990984916687
0.1891714483499527 0.064706973731517792 0.44117721915245056
0.26410189270973206 0.066440790891647339 0.44336134195327759
0.35228198766708374 0.071869805455207825 0.44385281205177307
0.46410435438156128 0.097564220428466797 0.44588309526443481
0.5981137752532959 0.15505607426166534 0.45612075924873352
0.1592535525560379 0.14249157905578613 0.44120612740516663
0.19106659293174744 0.14184080064296722 0.44257178902626038
0.24212266504764557 0.14411775767803192 0.44478234648704529
0.30944693088531494 0.15058170258998871 0.44507843255996704
0.40177765488624573 0.16591133177280426 0.44952607154846191
0.52410328388214111 0.19549137353897095 0.45278775691986084
0.66237396001815796 0.24314911663532257 0.4622015655040741
0.26971679925918579 0.2357717752456665 0.45070809125900269
0.29657912254333496 0.24129359424114227 0.45230838656425476
0.34795889258384705 0.24817898869514465 0.45020484924316406
0.40850934386253357 0.25590527057647705 0.45426318049430847
0.50172817707061768 0.27683377265930176 0.45797216892242432
0.62507766485214233 0.31411629915237427 0.45710188150405884
0.78160536289215088 0.37065556645393372 0.43146982789039612
0.44407656788825989 0.37576144933700562 0.45769336819648743
0.46480822563171387 0.38169628381729126 0.46053275465965271
0.50515776872634888 0.39019733667373657 0.46008586883544922
0.58808320760726929 0.41267076134681702 0.4443354606628418
0.68625366687774658 0.4455505907535553 0.42640429735183716
0.80743837356567383 0.4916592538356781 0.415262371301651
0.93602186441421509 0.56522202491760254 0.44606506824493408
0.70137137174606323 0.60123908519744873 0.41873949766159058
0.7178911566734314 0.60626906156539917 0.41684335470199585
0.75457859039306641 0.6216728687286377 0.42410466074943542
0.80848747491836548 0.64947086572647095 0.45221483707427979
0.86747169494628906 0.68949985504150391 0.49870708584785461
0.9326484203338623 0.73663038015365601 0.57068729400634766
0.99315255880355835 0.80643224716186523 0.67400479316711426
0.79580879211425781 0.88531506061553955 0.6834985613822937
0.81027424335479736 0.8914833664894104 0.69596272706985474
0.82522273063659668 0.902840256690979 0.71671086549758911
0.85775160789489746 0.91981655359268188 0.74559777975082397
0.89836204051971436 0.94086349010467529 0.78510326147079468
0.95453864336013794 0.96410918235778809 0.82087087631225586
0.99998170137405396 0.98554491996765137 0.88341373205184937
0.091831400990486145 0.010287655517458916 0.48982056975364685
0.13241128623485565 0.0047146067954599857 0.4889468252658844
0.19571496546268463 0.0099571673199534416 0.49301698803901672
0.27003148198127747 0.011379421688616276 0.49640336632728577
0.35492774844169617 0.015347798354923725 0.4984247088432312
0.46260005235671997 0.053552590310573578 0.5018431544303894
0.59169429540634155 0.1269814670085907 0.51207232475280762
0.12537096440792084 0.067010186612606049 0.49527886509895325
0.15818832814693451 0.059324450790882111 0.49406233429908752
0.21411126852035522 0.065260611474514008 0.49718818068504333
0.28584480285644531 0.071238420903682709 0.49904203414916992
0.37375453114509583 0.079572118818759918 0.50169134140014648
0.48507386445999146 0.11187916249036789 0.50536227226257324
0.61942535638809204 0.17606373131275177 0.51469576358795166
0.19031544029712677 0.14715069532394409 0.50038200616836548
0.21886801719665527 0.14549925923347473 0.50240671634674072
0.26642686128616333 0.14753206074237823 0.504569411277771
0.33498293161392212 0.15718114376068115 0.50262558460235596
0.42755007743835449 0.17297466099262238 0.50651872158050537
0.54337155818939209 0.20370630919933319 0.51493138074874878
0.68505698442459106 0.25998428463935852 0.51757818460464478
0.30215418338775635 0.24247030913829803 0.50975608825683594
0.3257233202457428 0.24791593849658966 0.51734989881515503
0.3683929443359375 0.25504931807518005 0.51839321851730347
0.43550407886505127 0.26731112599372864 0.51496642827987671
0.53637278079986572 0.29069218039512634 0.50919944047927856
0.6626935601234436 0.32991129159927368 0.51127982139587402
0.81796371936798096 0.39188721776008606 0.49451202154159546
0.49336439371109009 0.39115011692047119 0.50959914922714233
0.50552237033843994 0.39274531602859497 0.51614534854888916
0.55446237325668335 0.40679925680160522 0.49816271662712097
0.62153011560440063 0.42568814754486084 0.49333548545837402
0.72237485647201538 0.45833370089530945 0.47382211685180664
0.84695029258728027 0.51078289747238159 0.47580310702323914
0.959075927734375 0.5854758620262146 0.52455705404281616
0.74191963672637939 0.62008661031723022 0.49482092261314392
0.74633175134658813 0.61647003889083862 0.50016558170318604
0.78213232755661011 0.63846707344055176 0.50699186325073242
0.82732027769088745 0.66171813011169434 0.52736914157867432
0.87680625915527344 0.70026546716690063 0.57852405309677124
0.94010215997695923 0.75650244951248169 0.65722757577896118
0.99417698383331299 0.82399082183837891 0.7627747654914856
0.81086844205856323 0.89678603410720825 0.7651219367980957
0.81811809539794922 0.90416646003723145 0.78206157684326172
0.83560800552368164 0.91939073801040649 0.80372524261474609
0.8639761209487915 0.92760586738586426 0.82369458675384521
0.90321105718612671 0.94996309280395508 0.865944504737854
0.95499587059020996 0.96875005960464478 0.89560234546661377
0.99673229455947876 0.98535346984863281 0.95230966806411743
