assets/lut/creative crispwinter.cube
# Created by: G'MIC (https://gmic.eu)
TITLE "crispwinter"
# LUT size
LUT_3D_SIZE 5
# Data domain
DOMAIN_MIN 0.0 0.0 0.0
DOMAIN_MAX 1.0 1.0 1.0
# LUT data points
0.032310217618942261 0.051146712154150009 0.078156940639019012
0.29987424612045288 0.04598013311624527 0.07051723450422287
0.5819898247718811 0.038824163377285004 0.067969150841236115
0.83657032251358032 0.048295009881258011 0.062110330909490585
1 0.046724177896976471 0.064877316355705261
0.020161991938948631 0.37032604217529297 0.071548253297805786
0.27022823691368103 0.35907402634620667 0.060576077550649643
0.56041944026947021 0.34449416399002075 0.055101118981838226
0.82473289966583252 0.34425920248031616 0.054725602269172668
1 0.34335517883300781 0.054475028067827225
0.028024576604366302 0.69835734367370605 0.060031410306692123
0.25575980544090271 0.68249553442001343 0.057749159634113312
0.53967583179473877 0.67375141382217407 0.03910992294549942
0.80637705326080322 0.66204416751861572 0.029972944408655167
1 0.65236502885818481 0.053772330284118652
0.02622375451028347 0.98437607288360596 0.053874325007200241
0.24714826047420502 0.97875487804412842 0.035663306713104248
0.52320146560668945 0.96828299760818481 0.041273452341556549
0.78408956527709961 0.93603235483169556 0.017715902999043465
0.99169683456420898 0.94728511571884155 0.037569593638181686
0.020752625539898872 1 0.011227820999920368
0.23313918709754944 1 0.011526534333825111
0.50518596172332764 1 0.0049316557124257088
0.77018922567367554 1 0.00040067784721031785
0.99240869283676147 1 0.00014002183161210269
0.040127623826265335 0.046525813639163971 0.51694798469543457
0.29620480537414551 0.036252189427614212 0.49564927816390991
0.58136427402496338 0.034037824720144272 0.4849335253238678
0.84811806678771973 0.033774912357330322 0.46205389499664307
1 0.034548666328191757 0.45213299989700317
0.027905019000172615 0.36673644185066223 0.48013120889663696
0.27078449726104736 0.35899770259857178 0.46408948302268982
0.55629968643188477 0.34544378519058228 0.44668129086494446
0.81877517700195312 0.32779398560523987 0.42871478199958801
1 0.32319796085357666 0.42691338062286377
0.030029894784092903 0.6916922926902771 0.44958490133285522
0.25038561224937439 0.68036937713623047 0.43400943279266357
0.53828638792037964 0.66825014352798462 0.41379126906394958
0.80329674482345581 0.65834766626358032 0.4008382260799408
1 0.64543437957763672 0.39871048927307129
0.022100111469626427 0.9640159010887146 0.42244243621826172
0.22367013990879059 0.95852369070053101 0.39870116114616394
0.51801073551177979 0.96806144714355469 0.39373612403869629
0.78832346200942993 0.96082466840744019 0.37936729192733765
0.9963495135307312 0.94465672969818115 0.35885995626449585
0.00025042364723049104 0.99986273050308228 0.38552647829055786
0.19393916428089142 0.99899828433990479 0.37901952862739563
0.50081461668014526 0.99735826253890991 0.35531893372535706
0.76638281345367432 0.99762600660324097 0.34549912810325623
0.99630630016326904 1 0.3212716281414032
0.035766106098890305 0.050708949565887451 0.90652734041213989
0.29123219847679138 0.035533949732780457 0.87767875194549561
0.57422196865081787 0.039146512746810913 0.887961745262146
0.84259814023971558 0.030735285952687263 0.86138015985488892
0.9965934157371521 0.025358311831951141 0.85150915384292603
0.015878669917583466 0.3704981803894043 0.86388224363327026
0.25821959972381592 0.35348823666572571 0.85176670551300049
0.55295372009277344 0.34295317530632019 0.84475165605545044
0.82335418462753296 0.3272477388381958 0.82822567224502563
1 0.3077857494354248 0.80379313230514526
0.015813834965229034 0.68505501747131348 0.83980607986450195
0.23596839606761932 0.67642152309417725 0.82770061492919922
0.53596621751785278 0.66384565830230713 0.81582486629486084
0.80396664142608643 0.65606081485748291 0.8093143105506897
0.99997955560684204 0.64405602216720581 0.79513615369796753
0.010031501762568951 0.98146086931228638 0.81123906373977661
0.21487724781036377 0.96970230340957642 0.80332094430923462
0.51643478870391846 0.96095174551010132 0.79085355997085571
0.7836005687713623 0.95584976673126221 0.77254557609558105
0.99930238723754883 0.93528276681900024 0.76525962352752686
1.4002182979311328e-05 0.99687665700912476 0.78984290361404419
0.20433145761489868 0.99741524457931519 0.77506309747695923
0.49935069680213928 0.99888855218887329 0.76426613330841064
0.76547348499298096 0.99920344352722168 0.75719314813613892
0.99555009603500366 0.99874937534332275 0.73824584484100342
0.028353000059723854 0.038485761731863022 1
0.28026944398880005 0.031879886984825134 1
0.56749337911605835 0.034274201840162277 1
0.84138292074203491 0.03176594153046608 1
1 0.042713750153779984 1
0.010008149780333042 0.35989207029342651 1
0.25605234503746033 0.34824725985527039 0.99998944997787476
0.54771673679351807 0.3374885618686676 1
0.818867027759552 0.32245263457298279 1
1 0.31993266940116882 0.99993175268173218
0.0073235603049397469 0.67988759279251099 1
0.24054758250713348 0.6704179048538208 1
0.53453612327575684 0.65862768888473511 1
0.7965729832649231 0.64561665058135986 1
0.9947858452796936 0.63522350788116455 1
0.0064112492837011814 0.9700055718421936 1
0.21625471115112305 0.96709883213043213 1
0.51302570104598999 0.95951348543167114 1
0.77897608280181885 0.9501531720161438 0.99998587369918823
0.9948962926864624 0.9389113187789917 0.99997502565383911
0.027411367744207382 1 1
0.21855223178863525 1 1
0.49417167901992798 1 1
0.76071584224700928 0.99984753131866455 1
0.99229532480239868 0.99966084957122803 1
0.028994422405958176 0.025295078754425049 1
0.27936947345733643 0.022633271291851997 1
0.56486290693283081 0.023079441860318184 1
0.84181207418441772 0.017005201429128647 1
1 0.011748429387807846 0.99745333194732666
0.0086090089753270149 0.35179755091667175 1
0.2478015124797821 0.34179747104644775 0.98651504516601562
0.54012161493301392 0.33445942401885986 0.99976623058319092
0.81935513019561768 0.32075148820877075 0.99999475479125977
1 0.30960249900817871 0.99976915121078491
0.0037574917078018188 0.68010354042053223 0.99886709451675415
0.23342005908489227 0.66708505153656006 0.98724126815795898
0.52484285831451416 0.65297228097915649 0.99742180109024048
0.79515409469604492 0.63999885320663452 0.99934399127960205
0.99959373474121094 0.63115859031677246 1
0.0078467577695846558 0.97193849086761475 0.99873632192611694
0.20793455839157104 0.961101233959198 0.99790668487548828
0.50866740942001343 0.95395070314407349 0.99844980239868164
0.7731698751449585 0.93855577707290649 0.99842190742492676
0.99462997913360596 0.93192452192306519 1
0.037218384444713593 1 1
0.22368815541267395 1 1
0.49280834197998047 1 1
0.76016473770141602 1 1
0.99539315700531006 0.99873906373977661 1
