assets/lut/creative futuristicbleak 01.cube
# Created by: G'MIC (https://gmic.eu)
TITLE "futuristicbleak_1"
# LUT size
LUT_3D_SIZE 5
# Data domain
DOMAIN_MIN 0.0 0.0 0.0
DOMAIN_MAX 1.0 1.0 1.0
# LUT data points
0.072319164872169495 0.082180172204971313 0.10647563636302948
0.21851329505443573 0.13518159091472626 0.14773324131965637
0.3877595067024231 0.20925936102867126 0.19102761149406433
0.55656832456588745 0.28767693042755127 0.24259327352046967
0.74161076545715332 0.36898452043533325 0.29102665185928345
0.18884214758872986 0.27064019441604614 0.2082756906747818
0.27057704329490662 0.29271042346954346 0.21787470579147339
0.41970542073249817 0.32032003998756409 0.21867367625236511
0.5998835563659668 0.36506855487823486 0.24536745250225067
0.77081644535064697 0.42900305986404419 0.30292150378227234
0.33440476655960083 0.45596039295196533 0.32184359431266785
0.38393962383270264 0.46624761819839478 0.31559500098228455
0.48585626482963562 0.4879859983921051 0.3328360915184021
0.63669854402542114 0.52163267135620117 0.33404973149299622
0.82486867904663086 0.5456889271736145 0.33335044980049133
0.5240287184715271 0.64506083726882935 0.42960003018379211
0.54807490110397339 0.65236592292785645 0.42818161845207214
0.61887615919113159 0.6649472713470459 0.43222871422767639
0.71999961137771606 0.68541830778121948 0.45766890048980713
0.84179788827896118 0.71828025579452515 0.46737802028656006
0.68787723779678345 0.83065813779830933 0.55746257305145264
0.70762258768081665 0.83924037218093872 0.5570831298828125
0.7542148232460022 0.84653043746948242 0.55371582508087158
0.83145987987518311 0.86082309484481812 0.56882733106613159
0.94303637742996216 0.89041262865066528 0.60525709390640259
0.090258628129959106 0.10241395235061646 0.17485730350017548
0.19330357015132904 0.16571295261383057 0.22191579639911652
0.32057088613510132 0.2501693069934845 0.28367680311203003
0.49354666471481323 0.3257998526096344 0.34501886367797852
0.69480514526367188 0.39606869220733643 0.38933473825454712
0.19252859055995941 0.27489984035491943 0.26906457543373108
0.26102524995803833 0.29775604605674744 0.2923189103603363
0.38932532072067261 0.33367025852203369 0.32418429851531982
0.55415946245193481 0.38453224301338196 0.36418893933296204
0.74576961994171143 0.44211894273757935 0.40050342679023743
0.3449823260307312 0.45821171998977661 0.37385872006416321
0.38911464810371399 0.47009819746017456 0.37975451350212097
0.48195883631706238 0.48731544613838196 0.38524332642555237
0.64009809494018555 0.51947540044784546 0.38991078734397888
0.810585618019104 0.54929500818252563 0.40645033121109009
0.53401225805282593 0.64764684438705444 0.48027852177619934
0.55676811933517456 0.65298736095428467 0.48117661476135254
0.61765778064727783 0.66884887218475342 0.48016178607940674
0.71946966648101807 0.68685430288314819 0.4984951913356781
0.85070145130157471 0.71709859371185303 0.50584226846694946
0.68694287538528442 0.83204746246337891 0.59017771482467651
0.70842629671096802 0.8380170464515686 0.59518653154373169
0.75719988346099854 0.84775692224502563 0.59234559535980225
0.8334842324256897 0.86417722702026367 0.59962660074234009
0.9400026798248291 0.89351606369018555 0.63964951038360596
0.14875869452953339 0.14926353096961975 0.26227888464927673
0.21152105927467346 0.19571337103843689 0.29591688513755798
0.32890981435775757 0.27027025818824768 0.35280272364616394
0.46690014004707336 0.35958972573280334 0.4125635027885437
0.62313073873519897 0.44341352581977844 0.46524339914321899
0.21709059178829193 0.28913334012031555 0.34250661730766296
0.27011430263519287 0.31274083256721497 0.35861831903457642
0.37187409400939941 0.35157990455627441 0.39162099361419678
0.50612372159957886 0.42043840885162354 0.43903514742851257
0.6739993691444397 0.48972856998443604 0.49228093028068542
0.36447402834892273 0.46540609002113342 0.43048816919326782
0.40305909514427185 0.47464603185653687 0.44088783860206604
0.48180603981018066 0.49517607688903809 0.4598669707775116
0.61939764022827148 0.5316169261932373 0.49183633923530579
0.76627439260482788 0.57299149036407471 0.532470703125
0.54136389493942261 0.64662915468215942 0.53646910190582275
0.56845271587371826 0.65232318639755249 0.54432088136672974
0.62424159049987793 0.6689600944519043 0.55596154928207397
0.71889668703079224 0.693328857421875 0.5658411979675293
0.86071288585662842 0.71837073564529419 0.56650030612945557
0.7040402889251709 0.83193176984786987 0.65105175971984863
0.72345292568206787 0.83367681503295898 0.65491294860839844
0.76324170827865601 0.84978300333023071 0.65977853536605835
0.83684056997299194 0.86993241310119629 0.66404509544372559
0.93649983406066895 0.8937448263168335 0.69861716032028198
0.20734621584415436 0.20410402119159698 0.35631182789802551
0.25447741150856018 0.23647172749042511 0.379107266664505
0.35130614042282104 0.29683268070220947 0.42555534839630127
0.48189139366149902 0.37678647041320801 0.4808536171913147
0.62992465496063232 0.46272575855255127 0.53077375888824463
0.26130038499832153 0.31400907039642334 0.41794469952583313
0.30681750178337097 0.33751922845840454 0.43359321355819702
0.38986903429031372 0.37690627574920654 0.46387171745300293
0.52074116468429565 0.43726173043251038 0.50524401664733887
0.66374939680099487 0.51114994287490845 0.55290013551712036
0.39282846450805664 0.47714406251907349 0.50487536191940308
0.42586207389831543 0.48286491632461548 0.51238441467285156
0.49789083003997803 0.51248550415039062 0.5298006534576416
0.609352707862854 0.55140483379364014 0.56341302394866943
0.72649252414703369 0.60176992416381836 0.60053855180740356
0.56143462657928467 0.65136981010437012 0.59315770864486694
0.590709388256073 0.66172653436660767 0.59955430030822754
0.64166831970214844 0.6757887601852417 0.61390912532806396
0.72020858526229858 0.70074164867401123 0.64280080795288086
0.84241950511932373 0.73500519990921021 0.67649334669113159
0.72263503074645996 0.83657503128051758 0.71044081449508667
0.73963469266891479 0.83724403381347656 0.71310305595397949
0.77932822704315186 0.85039514303207397 0.72541797161102295
0.84484982490539551 0.86610269546508789 0.73975175619125366
0.94080573320388794 0.90438967943191528 0.77960848808288574
0.26422992348670959 0.25788521766662598 0.44619655609130859
0.30462592840194702 0.28251552581787109 0.4688510000705719
0.38354194164276123 0.33328887820243835 0.5043795108795166
0.50693798065185547 0.40202906727790833 0.5543023943901062
0.64941185712814331 0.48757091164588928 0.60529851913452148
0.31516903638839722 0.34583160281181335 0.49808445572853088
0.35344722867012024 0.36663633584976196 0.51180452108383179
0.43034771084785461 0.40075194835662842 0.54031169414520264
0.54407656192779541 0.46026131510734558 0.57822930812835693
0.68383705615997314 0.53233402967453003 0.62642133235931396
0.43254280090332031 0.49389898777008057 0.57436954975128174
0.46083959937095642 0.5038151741027832 0.58328914642333984
0.52540236711502075 0.52831059694290161 0.59953218698501587
0.62489324808120728 0.56878596544265747 0.63385021686553955
0.73858165740966797 0.61770129203796387 0.67236787080764771
0.58537930250167847 0.66434168815612793 0.66683804988861084
0.61051070690155029 0.67117756605148315 0.67374724149703979
0.65585988759994507 0.68387329578399658 0.68731141090393066
0.72490614652633667 0.71359914541244507 0.70939445495605469
0.82796245813369751 0.74763137102127075 0.73997926712036133
0.74146139621734619 0.84301865100860596 0.76914912462234497
0.75705289840698242 0.84602218866348267 0.76325458288192749
0.79485869407653809 0.85443586111068726 0.77999746799468994
0.85992562770843506 0.87368679046630859 0.80168622732162476
0.93669801950454712 0.91276645660400391 0.87060737609863281
