assets/lut/creative tealorange 02.cube
# Created by: G'MIC (https://gmic.eu)
TITLE "tealorange_2"
# LUT size
LUT_3D_SIZE 7
# Data domain
DOMAIN_MIN 0.0 0.0 0.0
DOMAIN_MAX 1.0 1.0 1.0
# LUT data points
0.021236315369606018 0.052700821310281754 0.070613712072372437
0.13411930203437805 0.05193125456571579 0.046354763209819794
0.22831203043460846 0.052514437586069107 0.031123815104365349
0.32684659957885742 0.04430205374956131 0.01292075403034687
0.43314006924629211 0.043844662606716156 0.015246701426804066
0.55515462160110474 0.039344802498817444 0.0029834224842488766
0.68007898330688477 0.048880364745855331 0.0059874588623642921
0.019363269209861755 0.1409933865070343 0.071642674505710602
0.14286564290523529 0.14406971633434296 0.027205852791666985
0.23541301488876343 0.16515013575553894 0.010164642706513405
0.32197427749633789 0.18694141507148743 0.0012794494396075606
0.4321323037147522 0.22098024189472198 0.0019603953696787357
0.55233049392700195 0.24725493788719177 0.0049558305181562901
0.69932669401168823 0.26886320114135742 0.00045952890650369227
0.0052706100977957249 0.24591805040836334 0.086501054465770721
0.16146029531955719 0.25423398613929749 0.041272629052400589
0.30454531311988831 0.28162708878517151 0.0360092893242836
0.40363818407058716 0.30424067378044128 0.017817748710513115
0.50753045082092285 0.34470432996749878 0.0087877614423632622
0.62308222055435181 0.38547736406326294 0.0060272067785263062
0.74608081579208374 0.42100805044174194 0.0019694310612976551
0.0037950403057038784 0.3666439950466156 0.13095743954181671
0.18909403681755066 0.38673952221870422 0.063731536269187927
0.37691399455070496 0.40482088923454285 0.05591931939125061
0.50187855958938599 0.4246724545955658 0.054014451801776886
0.62351268529891968 0.4545457661151886 0.032136324793100357
0.74158602952957153 0.49715900421142578 0.019113607704639435
0.84583324193954468 0.52821004390716553 0.0071496251039206982
0.029219742864370346 0.51623344421386719 0.19192062318325043
0.24792875349521637 0.53935176134109497 0.097226433455944061
0.47084924578666687 0.55441159009933472 0.070264630019664764
0.61004233360290527 0.57423907518386841 0.080171726644039154
0.74004203081130981 0.59200656414031982 0.083710417151451111
0.85242146253585815 0.6110120415687561 0.071755938231945038
0.95548826456069946 0.63833868503570557 0.025634016841650009
0.19612707197666168 0.66752636432647705 0.24777738749980927
0.33947011828422546 0.6926954984664917 0.14418689906597137
0.547066330909729 0.70584827661514282 0.10740628838539124
0.69455522298812866 0.71033221483230591 0.095280319452285767
0.8182176947593689 0.72618979215621948 0.097859792411327362
0.92897903919219971 0.73436766862869263 0.090048924088478088
0.99504894018173218 0.74361276626586914 0.079758919775485992
0.33370944857597351 0.81010180711746216 0.31145581603050232
0.40525603294372559 0.84027522802352905 0.19122561812400818
0.58568263053894043 0.85112911462783813 0.14898155629634857
0.74859422445297241 0.84916341304779053 0.10709577053785324
0.88215982913970947 0.85289007425308228 0.085053309798240662
0.97239691019058228 0.85025256872177124 0.062116332352161407
1 0.85488355159759521 0.049283433705568314
0.00357667519710958 0.064228609204292297 0.10669627785682678
0.094388894736766815 0.063051126897335052 0.13383388519287109
0.20073087513446808 0.069395683705806732 0.14950869977474213
0.30244806408882141 0.067721575498580933 0.13882295787334442
0.42068082094192505 0.06525731086730957 0.1253398209810257
0.54179590940475464 0.061667364090681076 0.11468502879142761
0.6713988184928894 0.048735134303569794 0.098838552832603455
0.0054245744831860065 0.14344938099384308 0.12793949246406555
0.12509730458259583 0.15366217494010925 0.095382079482078552
0.23117262125015259 0.1702449768781662 0.084732130169868469
0.3432765007019043 0.18250013887882233 0.077090546488761902
0.46861380338668823 0.19601978361606598 0.052278093993663788
0.59952592849731445 0.21328233182430267 0.047258384525775909
0.75125229358673096 0.21049687266349792 0.029425647109746933
0.0062438216991722584 0.25023186206817627 0.18101334571838379
0.14144521951675415 0.26656800508499146 0.12230296432971954
0.29645100235939026 0.28839913010597229 0.11987442523241043
0.3927043080329895 0.31654784083366394 0.1035691499710083
0.50555765628814697 0.35374471545219421 0.090147636830806732
0.62951171398162842 0.38819772005081177 0.089879952371120453
0.77045321464538574 0.41083279252052307 0.059661597013473511
0.0038782604970037937 0.37279239296913147 0.23713237047195435
0.13639618456363678 0.39897018671035767 0.16468711197376251
0.36896026134490967 0.41649496555328369 0.15544621646404266
0.49373987317085266 0.43810158967971802 0.16300505399703979
0.6171460747718811 0.46836274862289429 0.14824074506759644
0.72719472646713257 0.50680923461914062 0.12112318724393845
0.8384777307510376 0.54372894763946533 0.095582239329814911
0.063652202486991882 0.51952189207077026 0.30717995762825012
0.23391389846801758 0.54645466804504395 0.23548762500286102
0.4467659592628479 0.56714695692062378 0.19724620878696442
0.60183912515640259 0.58609259128570557 0.20562788844108582
0.7323119044303894 0.60437321662902832 0.21211813390254974
0.84886568784713745 0.62387764453887939 0.19290921092033386
0.94869709014892578 0.65114444494247437 0.1578967422246933
0.2182961106300354 0.67240011692047119 0.38015133142471313
0.35008883476257324 0.69761174917221069 0.31074008345603943
0.51062130928039551 0.71832418441772461 0.24457311630249023
0.67560607194900513 0.72234547138214111 0.23258896172046661
0.81227493286132812 0.73572129011154175 0.23702758550643921
0.92789500951766968 0.74765455722808838 0.24821843206882477
0.99334359169006348 0.75618875026702881 0.22556488215923309
0.35100388526916504 0.81240379810333252 0.44160181283950806
0.43763402104377747 0.83859378099441528 0.38096597790718079
0.55023539066314697 0.86157357692718506 0.28441205620765686
0.71352875232696533 0.85980510711669922 0.25691449642181396
0.86847126483917236 0.86165022850036621 0.24133704602718353
0.96958667039871216 0.86147260665893555 0.23586738109588623
0.9999396800994873 0.86190861463546753 0.23115809261798859
5.5290671298280358e-05 0.080845974385738373 0.13063538074493408
0.044344060122966766 0.08271171897649765 0.18365082144737244
0.15068943798542023 0.093812085688114166 0.24322196841239929
0.25302654504776001 0.1056247353553772 0.27509817481040955
0.37732124328613281 0.11781018972396851 0.28307566046714783
0.50058287382125854 0.12910515069961548 0.29818257689476013
0.63418459892272949 0.1437191367149353 0.30110806226730347
0.0016973158344626427 0.15060502290725708 0.15457722544670105
0.10471715033054352 0.15885312855243683 0.16426588594913483
0.22249741852283478 0.17367939651012421 0.1930457204580307
0.33035871386528015 0.19498530030250549 0.20752792060375214
0.45573073625564575 0.21763934195041656 0.22592663764953613
0.5876196026802063 0.2315908819437027 0.23705962300300598
0.73267698287963867 0.2450934499502182 0.23987576365470886
0.0027830235194414854 0.25586888194084167 0.22980841994285583
0.11741650104522705 0.27637699246406555 0.20591416954994202
0.28016602993011475 0.29740434885025024 0.19502951204776764
0.38763949275016785 0.32606297731399536 0.19384369254112244
0.52797961235046387 0.34962177276611328 0.18437895178794861
0.67352449893951416 0.36833781003952026 0.17493182420730591
0.82092708349227905 0.38093340396881104 0.16537104547023773
0.0069723539054393768 0.37704715132713318 0.30356815457344055
0.13812226057052612 0.40209290385246277 0.28094443678855896
0.3508676290512085 0.42601504921913147 0.23960162699222565
0.48345133662223816 0.44898718595504761 0.24723443388938904
0.60481882095336914 0.48331660032272339 0.24832969903945923
0.72191005945205688 0.51994150876998901 0.24883741140365601
0.83645427227020264 0.54292339086532593 0.24259462952613831
0.054054588079452515 0.526619553565979 0.39557561278343201
0.24659685790538788 0.55391895771026611 0.36408019065856934
0.42455366253852844 0.58020216226577759 0.30134689807891846
0.58883655071258545 0.59521478414535522 0.30069509148597717
0.71801602840423584 0.61311393976211548 0.31167864799499512
0.83503401279449463 0.63919860124588013 0.30894026160240173
0.93241190910339355 0.66813766956329346 0.29759940505027771
0.21312364935874939 0.67509990930557251 0.47925218939781189
0.35878464579582214 0.70370054244995117 0.45397365093231201
0.49727508425712585 0.72724974155426025 0.37710648775100708
0.65382671356201172 0.74000990390777588 0.34165295958518982
0.79933470487594604 0.74750775098800659 0.34833800792694092
0.91498774290084839 0.7583116888999939 0.35739246010780334
0.99113613367080688 0.7702324390411377 0.35385659337043762
0.34585234522819519 0.82191210985183716 0.55689078569412231
0.45350006222724915 0.84264945983886719 0.51973813772201538
0.55877977609634399 0.86331027746200562 0.44247519969940186
0.66928422451019287 0.88001346588134766 0.37834176421165466
0.84513229131698608 0.87090402841567993 0.36518639326095581
0.95531445741653442 0.86766332387924194 0.36385810375213623
0.999278724193573 0.86719018220901489 0.35971900820732117
0 0.091376282274723053 0.15336026251316071
0.014823449775576591 0.098349899053573608 0.19862581789493561
0.11200369894504547 0.10709477216005325 0.27723336219787598
0.21400615572929382 0.12711116671562195 0.34375578165054321
0.32010230422019958 0.15277427434921265 0.39268574118614197
0.44766345620155334 0.17758606374263763 0.4270361065864563
0.5828971266746521 0.21189507842063904 0.45419716835021973
0.0004905551322735846 0.15769864618778229 0.17332935333251953
0.065756872296333313 0.17323662340641022 0.19841882586479187
0.17803126573562622 0.18802624940872192 0.26775813102722168
0.28165552020072937 0.21444851160049438 0.32810834050178528
0.40305858850479126 0.24378086626529694 0.37290826439857483
0.5415647029876709 0.27247029542922974 0.40604960918426514
0.6860232949256897 0.29564329981803894 0.43822914361953735
0.0020089989993721247 0.25734919309616089 0.25406894087791443
0.11549374461174011 0.28465819358825684 0.25414919853210449
0.27071240544319153 0.30556800961494446 0.26647436618804932
0.38408640027046204 0.33213767409324646 0.29260823130607605
0.51793336868286133 0.3557780385017395 0.31887680292129517
0.66088026762008667 0.38023200631141663 0.34232041239738464
0.80403071641921997 0.40420684218406677 0.37845155596733093
0.0132191376760602 0.38392236828804016 0.3489500880241394
0.16013051569461823 0.41606694459915161 0.35044604539871216
0.33770167827606201 0.43894127011299133 0.32221955060958862
0.47313690185546875 0.46063464879989624 0.32132798433303833
0.60194259881973267 0.49452692270278931 0.33043098449707031
0.74131697416305542 0.51652824878692627 0.32743814587593079
0.8849567174911499 0.53057253360748291 0.32806524634361267
0.062826551496982574 0.53465062379837036 0.44576311111450195
0.24370186030864716 0.55858147144317627 0.44631171226501465
0.41729572415351868 0.58725571632385254 0.41174009442329407
0.57263422012329102 0.60717988014221191 0.38632631301879883
0.71619635820388794 0.62987297773361206 0.40268513560295105
0.82365125417709351 0.65528470277786255 0.40504011511802673
0.92456835508346558 0.68342024087905884 0.40288043022155762
0.21046540141105652 0.68550699949264526 0.54215294122695923
0.36399424076080322 0.70829463005065918 0.53989112377166748
0.49620035290718079 0.7307857871055603 0.50067698955535889
0.63089430332183838 0.75225281715393066 0.45313706994056702
0.78568017482757568 0.75957727432250977 0.4460548460483551
0.90096402168273926 0.77369970083236694 0.45587462186813354
0.98783916234970093 0.78305280208587646 0.44746571779251099
0.35876742005348206 0.83081823587417603 0.63159871101379395
0.44684049487113953 0.8442542552947998 0.62521499395370483
0.56816989183425903 0.86731809377670288 0.5898740291595459
0.6682928204536438 0.8840489387512207 0.52367568016052246
0.81328678131103516 0.88630050420761108 0.47515109181404114
0.94560998678207397 0.87856137752532959 0.46625253558158875
0.99795567989349365 0.88126426935195923 0.46106931567192078
0 0.10045205056667328 0.18192306160926819
0.003677173750475049 0.11305584013462067 0.22089555859565735
0.073866330087184906 0.12145549058914185 0.28788059949874878
0.18184465169906616 0.14792239665985107 0.36971390247344971
0.28698131442070007 0.17631204426288605 0.45158436894416809
0.39987146854400635 0.2100258469581604 0.52337992191314697
0.53825592994689941 0.24800996482372284 0.58367758989334106
1.4361213288793806e-05 0.16449801623821259 0.18762795627117157
0.020512554794549942 0.18849934637546539 0.22663620114326477
0.13950082659721375 0.20405492186546326 0.29817596077919006
0.25430524349212646 0.23835501074790955 0.38570699095726013
0.3613731861114502 0.26344063878059387 0.46592077612876892
0.48664587736129761 0.30017778277397156 0.53913015127182007
0.62773090600967407 0.33406311273574829 0.59059852361679077
0.0026329788379371166 0.26603454351425171 0.2645571231842041
0.10045426338911057 0.29643747210502625 0.28553682565689087
0.23550021648406982 0.31970095634460449 0.32729145884513855
0.3545430600643158 0.34836077690124512 0.39805340766906738
0.47296634316444397 0.37808728218078613 0.47603172063827515
0.60724771022796631 0.41313743591308594 0.5306057333946228
0.75162321329116821 0.4415222704410553 0.57799321413040161
0.015646526589989662 0.39325577020645142 0.38310468196868896
0.16132377088069916 0.41689595580101013 0.38772493600845337
0.33085891604423523 0.44587108492851257 0.39614042639732361
0.46893608570098877 0.47266805171966553 0.40979501605033875
0.59521538019180298 0.49889752268791199 0.45572832226753235
0.73230671882629395 0.52559280395507812 0.4948597252368927
0.87343049049377441 0.54650706052780151 0.52986544370651245
0.080464519560337067 0.54296970367431641 0.49393638968467712
0.26196777820587158 0.56980633735656738 0.50124531984329224
0.42452463507652283 0.59831911325454712 0.50885343551635742
0.55868685245513916 0.61643195152282715 0.48523181676864624
0.69946587085723877 0.64065217971801758 0.48723158240318298
0.815204918384552 0.67054289579391479 0.4991605281829834
0.93809729814529419 0.68418335914611816 0.49674654006958008
0.23700423538684845 0.69169539213180542 0.59067976474761963
0.37114641070365906 0.71638315916061401 0.60299915075302124
0.50688433647155762 0.73670560121536255 0.59789592027664185
0.62016457319259644 0.75853753089904785 0.57769572734832764
0.7741774320602417 0.77652162313461304 0.54382085800170898
0.89171063899993896 0.78426194190979004 0.55099338293075562
0.97762054204940796 0.79652285575866699 0.54932093620300293
0.36192089319229126 0.84167826175689697 0.69373315572738647
0.4574849009513855 0.85287797451019287 0.6988070011138916
0.57408303022384644 0.87084084749221802 0.6886214017868042
0.67481440305709839 0.88370132446289062 0.66910946369171143
0.7871626615524292 0.89697253704071045 0.60231482982635498
0.92680627107620239 0.8894268274307251 0.56745356321334839
0.99675297737121582 0.88666653633117676 0.57051736116409302
0 0.10913103818893433 0.20851442217826843
0 0.12941549718379974 0.24396294355392456
0.042087540030479431 0.14015692472457886 0.3044726550579071
0.14239637553691864 0.16509415209293365 0.38192149996757507
0.26146766543388367 0.19677652418613434 0.47625246644020081
0.37678524851799011 0.23071087896823883 0.56767672300338745
0.50854194164276123 0.27209720015525818 0.65684187412261963
0.00010935465252259746 0.17540077865123749 0.20369461178779602
0.0044251536019146442 0.20372697710990906 0.25633785128593445
0.071325905621051788 0.23060522973537445 0.31980550289154053
0.21432900428771973 0.2529296875 0.40238684415817261
0.32870420813560486 0.27982905507087708 0.49801725149154663
0.45734730362892151 0.32234525680541992 0.59847182035446167
0.58780258893966675 0.3597673773765564 0.68647092580795288
0.0092410817742347717 0.27727589011192322 0.28047192096710205
0.054941482841968536 0.30586272478103638 0.31079661846160889
0.14160117506980896 0.34366631507873535 0.36476179957389832
0.31122851371765137 0.3639889657497406 0.43380159139633179
0.44442403316497803 0.4002622663974762 0.53825777769088745
0.57148140668869019 0.43427789211273193 0.62782180309295654
0.70557886362075806 0.46974021196365356 0.71117651462554932
0.038432102650403976 0.40184894204139709 0.38652631640434265
0.18470323085784912 0.42551830410957336 0.40013197064399719
0.31806990504264832 0.4599163830280304 0.43048426508903503
0.43284571170806885 0.48533645272254944 0.47379055619239807
0.5665162205696106 0.52061372995376587 0.55905687808990479
0.69032889604568481 0.5513458251953125 0.64310675859451294
0.81332069635391235 0.57972472906112671 0.71047860383987427
0.10575410723686218 0.55185854434967041 0.53658926486968994
0.29160735011100769 0.57747071981430054 0.54343140125274658
0.44243925809860229 0.60254389047622681 0.54882580041885376
0.56277501583099365 0.62557023763656616 0.55590379238128662
0.69159328937530518 0.65297681093215942 0.58425188064575195
0.80734694004058838 0.67601382732391357 0.62981778383255005
0.91461670398712158 0.69123035669326782 0.67368400096893311
0.25798189640045166 0.70291233062744141 0.64696979522705078
0.38813593983650208 0.72192668914794922 0.65897637605667114
0.51878660917282104 0.74415916204452515 0.66508448123931885
0.62945222854614258 0.76505053043365479 0.66921401023864746
0.75205439329147339 0.78383827209472656 0.65848326683044434
0.88014483451843262 0.79672670364379883 0.64930146932601929
0.97600364685058594 0.80920541286468506 0.65073877573013306
0.37861064076423645 0.84869962930679321 0.75195193290710449
0.47163659334182739 0.86026507616043091 0.75941157341003418
0.58358275890350342 0.87871742248535156 0.75829946994781494
0.68388855457305908 0.88926464319229126 0.75579380989074707
0.79126137495040894 0.90138381719589233 0.73562288284301758
0.89962494373321533 0.90234255790710449 0.67448997497558594
0.98953652381896973 0.89208865165710449 0.66735851764678955
0 0.12318269163370132 0.23605082929134369
0 0.14134573936462402 0.27197912335395813
0.0062927394174039364 0.15540556609630585 0.3180372416973114
0.092380806803703308 0.18182207643985748 0.39447799324989319
0.22736524045467377 0.21718607842922211 0.48816654086112976
0.35331916809082031 0.25802206993103027 0.5881962776184082
0.48774653673171997 0.29398712515830994 0.69433474540710449
0 0.1905769407749176 0.22805055975914001
0 0.21769881248474121 0.29410365223884583
0.01067645475268364 0.25229629874229431 0.34768009185791016
0.16191819310188293 0.27597230672836304 0.41982164978981018
0.30054906010627747 0.30517905950546265 0.52018946409225464
0.42875409126281738 0.34642437100410461 0.62271523475646973
0.57076317071914673 0.38825270533561707 0.72911280393600464
0.010866262018680573 0.29075503349304199 0.3138262927532196
0.033611655235290527 0.32218474149703979 0.32728826999664307
0.06036071851849556 0.36823934316635132 0.40279272198677063
0.23296412825584412 0.39205238223075867 0.4640192985534668
0.40443181991577148 0.42232030630111694 0.55801105499267578
0.53344470262527466 0.46012142300605774 0.65970242023468018
0.67564511299133301 0.49897527694702148 0.76647722721099854
0.088366895914077759 0.41017204523086548 0.38428154587745667
0.19369131326675415 0.43581211566925049 0.41972208023071289
0.26235511898994446 0.47475066781044006 0.45447736978530884
0.35554522275924683 0.51482349634170532 0.51680737733840942
0.52165466547012329 0.54524093866348267 0.60183990001678467
0.65533071756362915 0.57779395580291748 0.69961583614349365
0.77597957849502563 0.59853202104568481 0.78958147764205933
0.19748252630233765 0.55669528245925903 0.51918786764144897
0.34171825647354126 0.58745467662811279 0.54303193092346191
0.46423262357711792 0.6166616678237915 0.57532835006713867
0.55177557468414307 0.64567244052886963 0.60184699296951294
0.64927399158477783 0.68045800924301147 0.6496652364730835
0.75787174701690674 0.70275223255157471 0.73058909177780151
0.8697628378868103 0.72088503837585449 0.82018804550170898
0.29016190767288208 0.70870053768157959 0.68454760313034058
0.42088958621025085 0.73060756921768188 0.69290322065353394
0.5409395694732666 0.75433623790740967 0.7032431960105896
0.65614145994186401 0.7728114128112793 0.70782870054244995
0.76028907299041748 0.78998017311096191 0.71901017427444458
0.86383175849914551 0.80724990367889404 0.74677711725234985
0.96227055788040161 0.81737828254699707 0.78742861747741699
0.38664722442626953 0.85331356525421143 0.79416346549987793
0.48002186417579651 0.86501443386077881 0.81820505857467651
0.59119951725006104 0.88023895025253296 0.82247048616409302
0.6880180835723877 0.88664150238037109 0.81431859731674194
0.79255932569503784 0.89997208118438721 0.81187921762466431
0.89231365919113159 0.90321093797683716 0.78998643159866333
0.99239712953567505 0.90245765447616577 0.77064555883407593
