assets/lut/creative foggynight.cube
# Created by: G'MIC (https://gmic.eu)
TITLE "foggynight"
# LUT size
LUT_3D_SIZE 13
# Data domain
DOMAIN_MIN 0.0 0.0 0.0
DOMAIN_MAX 1.0 1.0 1.0
# LUT data points
0.1062353104352951 0.14299887418746948 0.20665723085403442
0.12662756443023682 0.13796882331371307 0.20319405198097229
0.15592627227306366 0.13642583787441254 0.20137745141983032
0.1838507205247879 0.13527597486972809 0.19445641338825226
0.20817685127258301 0.1370745450258255 0.18816785514354706
0.22913160920143127 0.13939236104488373 0.1838240921497345
0.24996699392795563 0.14233611524105072 0.1797243058681488
0.27319067716598511 0.14742130041122437 0.17985187470912933
0.29749956727027893 0.15451809763908386 0.18236027657985687
0.32399550080299377 0.16477642953395844 0.18585334718227386
0.35396343469619751 0.17802029848098755 0.1909060925245285
0.3891260027885437 0.1918870210647583 0.20199590921401978
0.424763023853302 0.21365930140018463 0.21035456657409668
0.09904894232749939 0.15404978394508362 0.19520606100559235
0.12194032967090607 0.1517917662858963 0.19131465256214142
0.15309980511665344 0.14823374152183533 0.18900766968727112
0.18134300410747528 0.14707279205322266 0.18571911752223969
0.20599856972694397 0.14752507209777832 0.18327030539512634
0.22728298604488373 0.14859248697757721 0.18208223581314087
0.24711211025714874 0.14839489758014679 0.18054187297821045
0.27244076132774353 0.15594987571239471 0.18162155151367188
0.29810827970504761 0.16240163147449493 0.18559823930263519
0.32524830102920532 0.17183771729469299 0.18900351226329803
0.35592478513717651 0.18584659695625305 0.19356755912303925
0.39241671562194824 0.20163621008396149 0.20563881099224091
0.42982238531112671 0.22048857808113098 0.21501354873180389
0.097079858183860779 0.16903336346149445 0.18605393171310425
0.11480104178190231 0.17055381834506989 0.17820446193218231
0.14426875114440918 0.16551639139652252 0.17267708480358124
0.17649400234222412 0.16337625682353973 0.17210239171981812
0.20151673257350922 0.1633782684803009 0.17470112442970276
0.22315996885299683 0.16062889993190765 0.17836123704910278
0.24739973247051239 0.16578182578086853 0.17911972105503082
0.27423208951950073 0.17041133344173431 0.1815783828496933
0.29982197284698486 0.17910780012607574 0.18608522415161133
0.32752186059951782 0.18932957947254181 0.19100981950759888
0.36043193936347961 0.20218434929847717 0.19880807399749756
0.39879289269447327 0.21868263185024261 0.21090814471244812
0.43614688515663147 0.23855194449424744 0.2241416871547699
0.10247388482093811 0.19188015162944794 0.18158113956451416
0.1145101934671402 0.19118745625019073 0.17429092526435852
0.13777808845043182 0.18814685940742493 0.16602107882499695
0.17198571562767029 0.18523231148719788 0.16341501474380493
0.19766595959663391 0.18384720385074615 0.1661628931760788
0.22346730530261993 0.18326541781425476 0.17168188095092773
0.24816690385341644 0.18587979674339294 0.17595250904560089
0.27610161900520325 0.19154119491577148 0.18210649490356445
0.30403754115104675 0.1993730217218399 0.18957267701625824
0.33337661623954773 0.21216709911823273 0.1958342045545578
0.36772575974464417 0.22531543672084808 0.20533707737922668
0.40940365195274353 0.24419514834880829 0.21948148310184479
0.44810298085212708 0.26446935534477234 0.23625640571117401
0.1123025044798851 0.21474702656269073 0.18355576694011688
0.12271349877119064 0.21281595528125763 0.17610083520412445
0.13766145706176758 0.21137146651744843 0.16736410558223724
0.16931803524494171 0.21177650988101959 0.16522566974163055
0.19960859417915344 0.20867539942264557 0.1665893942117691
0.22746625542640686 0.20890741050243378 0.1684565544128418
0.25661149621009827 0.21239137649536133 0.17523530125617981
0.28499224781990051 0.21729907393455505 0.18409205973148346
0.31391966342926025 0.22341802716255188 0.19599741697311401
0.34643280506134033 0.23716703057289124 0.20662884414196014
0.38066580891609192 0.25191465020179749 0.21728159487247467
0.42571914196014404 0.2747669517993927 0.23443742096424103
0.46954771876335144 0.29680916666984558 0.25129562616348267
0.12352138012647629 0.23869013786315918 0.18743288516998291
0.1326863169670105 0.23885719478130341 0.18180699646472931
0.14640362560749054 0.24040845036506653 0.17597591876983643
0.17112313210964203 0.24013635516166687 0.16894079744815826
0.20714452862739563 0.24209743738174438 0.17281383275985718
0.23888009786605835 0.24344578385353088 0.175424724817276
0.26685768365859985 0.24416352808475494 0.17804393172264099
0.29643690586090088 0.25023803114891052 0.18557269871234894
0.33265963196754456 0.25930607318878174 0.19968537986278534
0.36792656779289246 0.27287262678146362 0.21686087548732758
0.40207424759864807 0.28739279508590698 0.23090016841888428
0.44796806573867798 0.3101077675819397 0.25019767880439758
0.49170354008674622 0.33273530006408691 0.26634830236434937
0.1473831981420517 0.2724049985408783 0.20224246382713318
0.15392060577869415 0.27494966983795166 0.19737285375595093
0.16450245678424835 0.27473187446594238 0.19021110236644745
0.18743449449539185 0.27630364894866943 0.1834101527929306
0.22010727226734161 0.27933207154273987 0.18318192660808563
0.2534230649471283 0.28336670994758606 0.18705308437347412
0.28354242444038391 0.28675496578216553 0.19079999625682831
0.31861820816993713 0.29291865229606628 0.19707724452018738
0.35770851373672485 0.30326706171035767 0.21236319839954376
0.39475467801094055 0.31518268585205078 0.23038068413734436
0.43278875946998596 0.33058363199234009 0.24650129675865173
0.48114478588104248 0.35538566112518311 0.26787155866622925
0.5237002968788147 0.37849760055541992 0.28778091073036194
0.18032296001911163 0.31647884845733643 0.22216428816318512
0.1894705593585968 0.32137823104858398 0.21828858554363251
0.20145717263221741 0.3228544294834137 0.21243433654308319
0.21856115758419037 0.32466217875480652 0.20676900446414948
0.24510087072849274 0.32710176706314087 0.20402449369430542
0.27791190147399902 0.33419445157051086 0.20716710388660431
0.31169050931930542 0.34164220094680786 0.21247231960296631
0.35180515050888062 0.35059180855751038 0.22154612839221954
0.39266261458396912 0.36000072956085205 0.23492680490016937
0.43500396609306335 0.37700900435447693 0.25008556246757507
0.4757780134677887 0.39306348562240601 0.26756945252418518
0.52868103981018066 0.41755107045173645 0.29243510961532593
0.58092689514160156 0.44325396418571472 0.3188968300819397
0.23010888695716858 0.37750184535980225 0.25457984209060669
0.23841889202594757 0.38179302215576172 0.25186681747436523
0.25140637159347534 0.38517463207244873 0.24810966849327087
0.26287376880645752 0.38713321089744568 0.24236592650413513
0.28629481792449951 0.39109814167022705 0.239675372838974
0.31889417767524719 0.39826098084449768 0.2405657023191452
0.35353705286979675 0.40754720568656921 0.24554666876792908
0.39376023411750793 0.41905009746551514 0.25577470660209656
0.43705710768699646 0.43199142813682556 0.26738765835762024
0.48428499698638916 0.44919145107269287 0.27869650721549988
0.52979159355163574 0.46835422515869141 0.2952120304107666
0.58856493234634399 0.49504050612449646 0.32453557848930359
0.64842128753662109 0.52580809593200684 0.35415500402450562
0.29417094588279724 0.45173698663711548 0.2946479320526123
0.3010440468788147 0.45480072498321533 0.29485324025154114
0.31085509061813354 0.45817834138870239 0.29073700308799744
0.32405993342399597 0.46091395616531372 0.28552079200744629
0.34721949696540833 0.46694934368133545 0.28366309404373169
0.37542629241943359 0.47667935490608215 0.28404346108436584
0.41061201691627502 0.48893535137176514 0.2901148796081543
0.44992095232009888 0.50068581104278564 0.29949304461479187
0.49659237265586853 0.51489847898483276 0.30993431806564331
0.54983812570571899 0.53356480598449707 0.32375290989875793
0.60199201107025146 0.55734288692474365 0.34175506234169006
0.6646227240562439 0.58692526817321777 0.36969277262687683
0.72907048463821411 0.61971074342727661 0.40127360820770264
0.37398374080657959 0.54378068447113037 0.34564197063446045
0.38015028834342957 0.54638659954071045 0.34877592325210571
0.38975322246551514 0.54866743087768555 0.34514573216438293
0.4052271842956543 0.55401545763015747 0.34191909432411194
0.42721998691558838 0.56420022249221802 0.3411070704460144
0.45248466730117798 0.57646661996841431 0.34010416269302368
0.48750871419906616 0.59053820371627808 0.34524661302566528
0.52889001369476318 0.60328984260559082 0.35548228025436401
0.57861191034317017 0.62245386838912964 0.36998528242111206
0.63824963569641113 0.64845871925354004 0.39024326205253601
0.6930268406867981 0.67025315761566162 0.40655648708343506
0.75525480508804321 0.69796019792556763 0.42972370982170105
0.82277947664260864 0.73495227098464966 0.46224892139434814
0.48946353793144226 0.67171329259872437 0.42621991038322449
0.49475175142288208 0.67445772886276245 0.42784765362739563
0.5057443380355835 0.67873775959014893 0.42600598931312561
0.52257233858108521 0.68714839220046997 0.42463874816894531
0.5378757119178772 0.69364726543426514 0.41979441046714783
0.56326442956924438 0.70769429206848145 0.41968527436256409
0.60664916038513184 0.73189359903335571 0.43254423141479492
0.64560031890869141 0.74537175893783569 0.44105231761932373
0.69393044710159302 0.76348239183425903 0.45520418882369995
0.75078284740447998 0.78860032558441162 0.47474163770675659
0.80142891407012939 0.80873662233352661 0.48776209354400635
0.86033129692077637 0.83110558986663818 0.50614982843399048
0.92472529411315918 0.85891890525817871 0.53122210502624512
0.62462741136550903 0.81961911916732788 0.51959693431854248
0.62661486864089966 0.81908255815505981 0.51803708076477051
0.63565468788146973 0.82316404581069946 0.5170828104019165
0.65309131145477295 0.83604139089584351 0.51835757493972778
0.67021220922470093 0.842803955078125 0.51523810625076294
0.69063323736190796 0.85327208042144775 0.51293247938156128
0.72411119937896729 0.87077206373214722 0.51924145221710205
0.76549416780471802 0.88824087381362915 0.52889561653137207
0.81225073337554932 0.90197992324829102 0.54085022211074829
0.85638886690139771 0.91688728332519531 0.55277484655380249
0.89641314744949341 0.93061184883117676 0.56140601634979248
0.94140851497650146 0.94165664911270142 0.57017344236373901
0.96605592966079712 0.93099093437194824 0.57087427377700806
0.094295039772987366 0.14246931672096252 0.22998465597629547
0.11858624964952469 0.13844799995422363 0.22599659860134125
0.14951956272125244 0.13588559627532959 0.21991416811943054
0.176815465092659 0.13638649880886078 0.21451251208782196
0.20181311666965485 0.13854432106018066 0.20988312363624573
0.22461521625518799 0.14111912250518799 0.20574647188186646
0.24686029553413391 0.14393565058708191 0.2013094574213028
0.27057212591171265 0.14810016751289368 0.19853779673576355
0.2950950562953949 0.15580937266349792 0.2014177143573761
0.32191735506057739 0.16499070823192596 0.20346406102180481
0.3516387939453125 0.17867662012577057 0.20521533489227295
0.38631448149681091 0.19421602785587311 0.21564950048923492
0.42269435524940491 0.21439515054225922 0.22439803183078766
0.092223301529884338 0.1542351245880127 0.21702319383621216
0.11429036408662796 0.15175248682498932 0.21520431339740753
0.14388623833656311 0.1493496298789978 0.21097807586193085
0.17312942445278168 0.14681717753410339 0.20734883844852448
0.19913959503173828 0.1470801830291748 0.20600582659244537
0.22239543497562408 0.14843554794788361 0.20354467630386353
0.24518917500972748 0.15103311836719513 0.20094971358776093
0.26975175738334656 0.15712630748748779 0.19994425773620605
0.29535850882530212 0.16421766579151154 0.20315304398536682
0.32242858409881592 0.17255692183971405 0.20420590043067932
0.35335004329681396 0.18473376333713531 0.20818211138248444
0.39031606912612915 0.20244130492210388 0.2186974436044693
0.42706248164176941 0.22292375564575195 0.22873598337173462
0.093382276594638824 0.16865180432796478 0.20903888344764709
0.10970792919397354 0.16826640069484711 0.2042788565158844
0.1383577287197113 0.16609962284564972 0.1986929178237915
0.17005364596843719 0.16285607218742371 0.19785980880260468
0.19505366683006287 0.16196376085281372 0.20016102492809296
0.22026154398918152 0.16350987553596497 0.20043653249740601
0.24471990764141083 0.16541662812232971 0.19905473291873932
0.26993033289909363 0.17016863822937012 0.20047129690647125
0.29692640900611877 0.17803218960762024 0.20409601926803589
0.32528501749038696 0.18721385300159454 0.20793922245502472
0.35752835869789124 0.19926516711711884 0.21441467106342316
0.39700031280517578 0.21765586733818054 0.22532397508621216
0.43534576892852783 0.24033008515834808 0.2374487966299057
0.09872996062040329 0.18922394514083862 0.20493164658546448
0.1129516139626503 0.19078068435192108 0.19899608194828033
0.13287337124347687 0.18834307789802551 0.19012795388698578
0.1659834235906601 0.18563249707221985 0.18609406054019928
0.19523230195045471 0.18346944451332092 0.18906873464584351
0.22029739618301392 0.18451347947120667 0.19334529340267181
0.24447989463806152 0.18701884150505066 0.1956811398267746
0.27123725414276123 0.19315144419670105 0.19927218556404114
0.30154317617416382 0.19978430867195129 0.20623475313186646
0.33175528049468994 0.21093942224979401 0.21248281002044678
0.36490017175674438 0.22416701912879944 0.22077475488185883
0.40643942356109619 0.24324187636375427 0.23351107537746429
0.44774797558784485 0.26438555121421814 0.24869336187839508
0.10950707644224167 0.21181091666221619 0.20379802584648132
0.12145213782787323 0.21277213096618652 0.19875910878181458
0.13642528653144836 0.21246790885925293 0.19073225557804108
0.16464738547801971 0.21189591288566589 0.18492530286312103
0.19667264819145203 0.20860596001148224 0.18461708724498749
0.22461645305156708 0.20981511473655701 0.18479441106319427
0.25275957584381104 0.21265606582164764 0.19222232699394226
0.28255075216293335 0.21782894432544708 0.20086945593357086
0.31334689259529114 0.22615838050842285 0.21012155711650848
0.34521204233169556 0.23878879845142365 0.21936985850334167
0.37791630625724792 0.25220540165901184 0.22894324362277985
0.42111420631408691 0.27257904410362244 0.24578195810317993
0.46571835875511169 0.29666447639465332 0.26252651214599609
0.12227308750152588 0.23824360966682434 0.20785941183567047
0.13210850954055786 0.23950636386871338 0.20294801890850067
0.14411750435829163 0.2387075275182724 0.19476599991321564
0.16971340775489807 0.24049696326255798 0.18917861580848694
0.20173315703868866 0.24179853498935699 0.18776476383209229
0.23519587516784668 0.24370436370372772 0.19050519168376923
0.26406633853912354 0.24481579661369324 0.19323654472827911
0.2943633496761322 0.24986879527568817 0.20089404284954071
0.33024251461029053 0.26017013192176819 0.21411046385765076
0.36508575081825256 0.27189630270004272 0.22789934277534485
0.40019798278808594 0.28771919012069702 0.24288724362850189
0.44367215037345886 0.30812394618988037 0.26139897108078003
0.48795738816261292 0.33284518122673035 0.27616098523139954
0.14816789329051971 0.27523130178451538 0.2215353399515152
0.15373058617115021 0.27488905191421509 0.21593278646469116
0.16460876166820526 0.27468818426132202 0.20849448442459106
0.18816542625427246 0.27800688147544861 0.203365758061409
0.21544916927814484 0.27847924828529358 0.19790402054786682
0.24992626905441284 0.28325778245925903 0.20124278962612152
0.28292971849441528 0.28723648190498352 0.20495596528053284
0.31914746761322021 0.29287976026535034 0.21026891469955444
0.35671097040176392 0.30362915992736816 0.22456227242946625
0.39314404129981995 0.31586456298828125 0.23985488712787628
0.4315340518951416 0.33127084374427795 0.25912171602249146
0.48009482026100159 0.35654938220977783 0.28016236424446106
0.52703845500946045 0.38155123591423035 0.30042868852615356
0.18106001615524292 0.32001146674156189 0.23973315954208374
0.18825100362300873 0.32168549299240112 0.23604235053062439
0.19952015578746796 0.32205486297607422 0.23056031763553619
0.21606825292110443 0.32444688677787781 0.2245623916387558
0.2407543957233429 0.32900801301002502 0.21972164511680603
0.27620214223861694 0.33701124787330627 0.22258263826370239
0.31373894214630127 0.34382683038711548 0.22729232907295227
0.35226738452911377 0.34993147850036621 0.23246243596076965
0.39239180088043213 0.35883679986000061 0.24460060894489288
0.43503525853157043 0.37686914205551147 0.26255175471305847
0.47765910625457764 0.39474964141845703 0.2803066074848175
0.52975094318389893 0.41878995299339294 0.30280297994613647
0.58254802227020264 0.44576248526573181 0.32688716053962708
0.22699405252933502 0.37612423300743103 0.26833140850067139
0.23451410233974457 0.37882193922996521 0.26616233587265015
0.24948735535144806 0.38347232341766357 0.26319897174835205
0.2669064998626709 0.38923105597496033 0.25770777463912964
0.28682735562324524 0.39326143264770508 0.25263562798500061
0.31624042987823486 0.40128573775291443 0.25134995579719543
0.35164961218833923 0.4094998836517334 0.25520786643028259
0.39453330636024475 0.41861569881439209 0.26198717951774597
0.43969079852104187 0.43140381574630737 0.27407321333885193
0.48473218083381653 0.44799068570137024 0.28934821486473083
0.52974951267242432 0.46793925762176514 0.30711054801940918
0.58839595317840576 0.49489614367485046 0.33447781205177307
0.64898920059204102 0.52584612369537354 0.36329671740531921
0.29151394963264465 0.44890615344047546 0.30532392859458923
0.29890555143356323 0.4522460401058197 0.30566084384918213
0.31163394451141357 0.45735085010528564 0.3032076358795166
0.32668983936309814 0.46291142702102661 0.29712298512458801
0.34952050447463989 0.46892064809799194 0.29579156637191772
0.37729877233505249 0.47898212075233459 0.29641753435134888
0.41161882877349854 0.49077388644218445 0.30101749300956726
0.45321840047836304 0.5017428994178772 0.30838969349861145
0.50162810087203979 0.51904726028442383 0.32098045945167542
0.55053234100341797 0.53675663471221924 0.33632412552833557
0.60046237707138062 0.55780744552612305 0.35384306311607361
0.66281032562255859 0.58697628974914551 0.37985330820083618
0.7283521294593811 0.62150377035140991 0.41092362999916077
0.37453377246856689 0.54162824153900146 0.35754376649856567
0.38150563836097717 0.54494863748550415 0.35897120833396912
0.39350304007530212 0.55013924837112427 0.35733678936958313
0.40801516175270081 0.55570405721664429 0.35366222262382507
0.42885911464691162 0.56453460454940796 0.35325118899345398
0.45529276132583618 0.5755804181098938 0.35227516293525696
0.49015825986862183 0.59019976854324341 0.35560479760169983
0.53161817789077759 0.60397452116012573 0.36608114838600159
0.58132129907608032 0.62618458271026611 0.38071858882904053
0.63245958089828491 0.644847571849823 0.3967534601688385
0.68930888175964355 0.66716843843460083 0.41470110416412354
0.75556254386901855 0.69962084293365479 0.43997335433959961
0.82564651966094971 0.74012273550033569 0.47287499904632568
0.49212989211082458 0.67167526483535767 0.43732056021690369
0.4949038028717041 0.6701507568359375 0.43634769320487976
0.51162105798721313 0.68200457096099854 0.43959322571754456
0.52622860670089722 0.68934684991836548 0.43692848086357117
0.54234731197357178 0.6964036226272583 0.43377667665481567
0.5695422887802124 0.70935732126235962 0.43270906805992126
0.60346829891204834 0.72661757469177246 0.4362550675868988
0.64656054973602295 0.74522006511688232 0.44958317279815674
0.69297164678573608 0.76423412561416626 0.46250036358833313
0.74390560388565063 0.78246349096298218 0.47797787189483643
0.79745417833328247 0.80261939764022827 0.49462944269180298
0.86031407117843628 0.82985764741897583 0.51639425754547119
0.92642819881439209 0.86152976751327515 0.5416596531867981
0.62740170955657959 0.82027977705001831 0.52868121862411499
0.63344639539718628 0.820365309715271 0.53021979331970215
0.64016115665435791 0.82514244318008423 0.52918273210525513
0.65333575010299683 0.83278405666351318 0.52689957618713379
0.6731029748916626 0.84440100193023682 0.52689051628112793
0.69672119617462158 0.85696369409561157 0.52698582410812378
0.72682410478591919 0.87097960710525513 0.52874845266342163
0.76508921384811401 0.8865010142326355 0.53768289089202881
0.81261175870895386 0.90490543842315674 0.54986953735351562
0.85661762952804565 0.91657465696334839 0.55953198671340942
0.89256477355957031 0.92403018474578857 0.56721723079681396
0.94146150350570679 0.93989592790603638 0.57981938123703003
0.97759115695953369 0.94378852844238281 0.58558595180511475
0.085824154317378998 0.13964287936687469 0.26135009527206421
0.11368586122989655 0.13709694147109985 0.25372990965843201
0.14572983980178833 0.13496915996074677 0.24397836625576019
0.17172780632972717 0.13552801311016083 0.23728007078170776
0.19574105739593506 0.13829901814460754 0.23265010118484497
0.21865874528884888 0.14359946548938751 0.22884282469749451
0.24076509475708008 0.14764472842216492 0.22642914950847626
0.26304647326469421 0.15124213695526123 0.22505846619606018
0.28782263398170471 0.15752135217189789 0.22607523202896118
0.31599122285842896 0.16707199811935425 0.22668488323688507
0.34688079357147217 0.18062527477741241 0.22843968868255615
0.38292238116264343 0.195558100938797 0.23611469566822052
0.41658499836921692 0.21272522211074829 0.2421083003282547
0.079918071627616882 0.15279430150985718 0.24842031300067902
0.10443694144487381 0.15049086511135101 0.24340358376502991
0.13546831905841827 0.14770892262458801 0.23815435171127319
0.16512086987495422 0.14638535678386688 0.23263601958751678
0.19192852079868317 0.14872696995735168 0.2294280081987381
0.21663494408130646 0.15001063048839569 0.22770661115646362
0.24029707908630371 0.15428777039051056 0.22537083923816681
0.26349556446075439 0.15885797142982483 0.22471363842487335
0.28916922211647034 0.16510611772537231 0.22583389282226562
0.3175567090511322 0.17404817044734955 0.2265850156545639
0.3492591381072998 0.18768754601478577 0.23116055130958557
0.38712212443351746 0.20569226145744324 0.23973082005977631
0.42403122782707214 0.2250654399394989 0.24796129763126373
0.089720979332923889 0.1684156209230423 0.23135663568973541
0.10304487496614456 0.16775530576705933 0.23264926671981812
0.13012060523033142 0.16507367789745331 0.22814065217971802
0.16153259575366974 0.16402073204517365 0.22571063041687012
0.18788391351699829 0.16492302715778351 0.22564652562141418
0.21329633891582489 0.16389000415802002 0.22609139978885651
0.23872332274913788 0.16589587926864624 0.22406242787837982
0.26408800482749939 0.17130354046821594 0.22366055846214294
0.29138815402984619 0.17951689660549164 0.22688686847686768
0.32196700572967529 0.18768805265426636 0.2296612411737442
0.35360348224639893 0.20035049319267273 0.23706039786338806
0.39440149068832397 0.22080712020397186 0.24777288734912872
0.43281126022338867 0.24272723495960236 0.25691235065460205
0.098309986293315887 0.19018536806106567 0.2269224226474762
0.11198490858078003 0.18802629411220551 0.22654587030410767
0.13203412294387817 0.18724201619625092 0.21966998279094696
0.15959134697914124 0.18393902480602264 0.21528515219688416
0.18924763798713684 0.18369872868061066 0.21772754192352295
0.21509943902492523 0.18541201949119568 0.21999247372150421
0.23868347704410553 0.18808288872241974 0.22138711810112
0.26571381092071533 0.19446955621242523 0.22275274991989136
0.29776766896247864 0.20207174122333527 0.2299552708864212
0.32968473434448242 0.21146328747272491 0.23612260818481445
0.3626042902469635 0.22392222285270691 0.24261525273323059
0.40432485938072205 0.24322161078453064 0.25371894240379333
0.44738173484802246 0.26476457715034485 0.26683861017227173
0.10754596441984177 0.21033044159412384 0.22553889453411102
0.11965339630842209 0.21040870249271393 0.22415542602539062
0.13654361665248871 0.21059808135032654 0.21997083723545074
0.16126157343387604 0.21017181873321533 0.21393756568431854
0.19343750178813934 0.20867671072483063 0.21156889200210571
0.21989157795906067 0.2099473625421524 0.2111460268497467
0.2461937814950943 0.21201226115226746 0.21646510064601898
0.27716884016990662 0.21862363815307617 0.22431100904941559
0.31036078929901123 0.22847877442836761 0.23396559059619904
