assets/lut/creative dropblues.cube
# Created by: G'MIC (https://gmic.eu)
TITLE "dropblues"
# LUT size
LUT_3D_SIZE 13
# Data domain
DOMAIN_MIN 0.0 0.0 0.0
DOMAIN_MAX 1.0 1.0 1.0
# LUT data points
0.076655171811580658 0.081798046827316284 0.073143929243087769
0.12194987386465073 0.086434289813041687 0.078646957874298096
0.19087839126586914 0.088380374014377594 0.083712212741374969
0.27577167749404907 0.085729129612445831 0.077945545315742493
0.35662722587585449 0.080273360013961792 0.068497873842716217
0.43351039290428162 0.073342673480510712 0.059190668165683746
0.50381463766098022 0.072536513209342957 0.057471916079521179
0.58050072193145752 0.054179713129997253 0.055316686630249023
0.65598922967910767 0.046801682561635971 0.051902022212743759
0.72693943977355957 0.049387373030185699 0.051132950931787491
0.8003469705581665 0.037216439843177795 0.049213677644729614
0.87947666645050049 0.031295433640480042 0.047215241938829422
0.95296543836593628 0.025958102196455002 0.045264687389135361
0.067696332931518555 0.13734455406665802 0.06727416068315506
0.13304866850376129 0.13681197166442871 0.065530337393283844
0.20627589523792267 0.13438016176223755 0.064058579504489899
0.28994929790496826 0.13310575485229492 0.065502077341079712
0.36531919240951538 0.13121795654296875 0.059205029159784317
0.43816119432449341 0.12436149269342422 0.050101950764656067
0.50739449262619019 0.1178760901093483 0.052140269428491592
0.5770450234413147 0.11957790702581406 0.056898586452007294
0.65473562479019165 0.11019241064786911 0.050236720591783524
0.72804778814315796 0.10290150344371796 0.048661205917596817
0.79943978786468506 0.098443426191806793 0.049149725586175919
0.87607425451278687 0.090324312448501587 0.045624691992998123
0.9506450891494751 0.078161232173442841 0.046528387814760208
0.057338055223226547 0.20838730037212372 0.056431233882904053
0.13125424087047577 0.21208100020885468 0.055439505726099014
0.2103687971830368 0.20935702323913574 0.053543660789728165
0.29097259044647217 0.20966048538684845 0.052717633545398712
0.36238458752632141 0.20742441713809967 0.049616001546382904
0.43594610691070557 0.1996777206659317 0.048987086862325668
0.50613176822662354 0.19312009215354919 0.046212438493967056
0.57851088047027588 0.18957068026065826 0.041076645255088806
0.65487039089202881 0.18982064723968506 0.040335293859243393
0.7279505729675293 0.18883787095546722 0.045073252171278
0.79860150814056396 0.18559738993644714 0.046543285250663757
0.87453395128250122 0.17861874401569366 0.044208154082298279
0.94859766960144043 0.16707791388034821 0.047719977796077728
0.064408019185066223 0.28322789072990417 0.051116973161697388
0.12545475363731384 0.2858893871307373 0.048332784324884415
0.20704104006290436 0.28466275334358215 0.047294586896896362
0.28999477624893188 0.28510281443595886 0.052946995943784714
0.36169436573982239 0.28403118252754211 0.051593240350484848
0.42990332841873169 0.28059601783752441 0.042376499623060226
0.49998196959495544 0.27686670422554016 0.041898824274539948
0.57602852582931519 0.27428326010704041 0.036406543105840683
0.65141147375106812 0.27466702461242676 0.036140277981758118
0.72661978006362915 0.27316007018089294 0.043652091175317764
0.79867255687713623 0.27167859673500061 0.043128535151481628
0.87471902370452881 0.26752403378486633 0.038228098303079605
0.94762504100799561 0.25894224643707275 0.036276709288358688
0.065605312585830688 0.35550695657730103 0.043564170598983765
0.12065556645393372 0.3554268479347229 0.040888633579015732
0.20264703035354614 0.3565763533115387 0.041810519993305206
0.28680852055549622 0.35586816072463989 0.045137874782085419
0.3615419864654541 0.35547927021980286 0.048171501606702805
0.43071204423904419 0.35419338941574097 0.042787395417690277
0.50166398286819458 0.35305950045585632 0.050525233149528503
0.5765918493270874 0.35086435079574585 0.038490176200866699
0.64792299270629883 0.35063734650611877 0.034147810190916061
0.72090476751327515 0.34852606058120728 0.037796109914779663
0.79560333490371704 0.3451714813709259 0.036160711199045181
0.87205678224563599 0.34211528301239014 0.031284302473068237
0.94470387697219849 0.33501088619232178 0.025628872215747833
0.050661452114582062 0.42612239718437195 0.039955664426088333
0.12118367105722427 0.42760118842124939 0.03943774476647377
0.19996310770511627 0.42736160755157471 0.04024028405547142
0.28155031800270081 0.42754641175270081 0.039931025356054306
0.35816013813018799 0.42550939321517944 0.037186909466981888
0.43272271752357483 0.42448222637176514 0.0399283766746521
0.50489920377731323 0.42326948046684265 0.044590026140213013
0.5759156346321106 0.42205283045768738 0.038320548832416534
0.64724892377853394 0.42147186398506165 0.030994879081845284
0.71914297342300415 0.41995918750762939 0.029209630563855171
0.79508006572723389 0.41517573595046997 0.028218662366271019
0.86656248569488525 0.41536068916320801 0.025410087779164314
0.93888992071151733 0.41110599040985107 0.021537031978368759
0.045301459729671478 0.50095874071121216 0.039809733629226685
0.11865265667438507 0.49945488572120667 0.038605336099863052
0.19872863590717316 0.49574795365333557 0.036834627389907837
0.28027477860450745 0.49782779812812805 0.037605345249176025
0.3591039776802063 0.4971865713596344 0.036207340657711029
0.43260538578033447 0.49574607610702515 0.034922178834676743
0.50438576936721802 0.49334800243377686 0.032694123685359955
0.57550549507141113 0.49260160326957703 0.028355123475193977
0.6467859148979187 0.49215191602706909 0.028697682544589043
0.7188231348991394 0.49078583717346191 0.028386792168021202
0.79177337884902954 0.49036478996276855 0.025904711335897446
0.86757814884185791 0.49037390947341919 0.02202974259853363
0.94098997116088867 0.48499825596809387 0.023571942001581192
0.041296057403087616 0.57437121868133545 0.032628018409013748
0.11759296804666519 0.57200914621353149 0.034955296665430069
0.19870147109031677 0.57091021537780762 0.033121399581432343
0.28065448999404907 0.5692945122718811 0.032072044909000397
0.35870063304901123 0.56824904680252075 0.031630989164113998
0.4309353232383728 0.56797438859939575 0.031232945621013641
0.50187128782272339 0.56821876764297485 0.027955671772360802
0.57712692022323608 0.56929486989974976 0.023096377030014992
0.64669108390808105 0.56447809934616089 0.027081133797764778
0.71955060958862305 0.561725914478302 0.029528914019465446
0.79028713703155518 0.56623142957687378 0.021842567250132561
0.86763215065002441 0.56554728746414185 0.016968745738267899
0.93994760513305664 0.55913424491882324 0.015402461402118206
0.047997448593378067 0.64647805690765381 0.025947811082005501
0.12351548671722412 0.64442873001098633 0.025910232216119766
0.20396357774734497 0.64359664916992188 0.022980993613600731
0.28235501050949097 0.64406931400299072 0.025835314765572548
0.35777229070663452 0.64402920007705688 0.027142394334077835
0.42959174513816833 0.64250361919403076 0.026797888800501823
0.50165814161300659 0.64100950956344604 0.023536890745162964
0.57623982429504395 0.6417381763458252 0.016274711117148399
0.64621186256408691 0.63609498739242554 0.030870744958519936
0.71745049953460693 0.63511830568313599 0.03643156960606575
0.78886139392852783 0.63727658987045288 0.024210792034864426
0.86442077159881592 0.63721054792404175 0.019421402364969254
0.93313038349151611 0.63437074422836304 0.020003315061330795
0.059979680925607681 0.71737748384475708 0.020521664991974831
0.13298249244689941 0.71682393550872803 0.020303808152675629
0.2104077935218811 0.71740478277206421 0.016590805724263191
0.28601741790771484 0.71712136268615723 0.020747466012835503
0.35772249102592468 0.71673709154129028 0.023980308324098587
0.42656752467155457 0.71597456932067871 0.021524032577872276
0.4965568482875824 0.71492147445678711 0.017122127115726471
0.5744316577911377 0.71151447296142578 0.015372751280665398
0.64780378341674805 0.70823198556900024 0.024118579924106598
0.71992599964141846 0.70600444078445435 0.027449963614344597
0.79217880964279175 0.7073168158531189 0.019899599254131317
0.86690175533294678 0.70774805545806885 0.019783513620495796
0.93417489528656006 0.70959824323654175 0.019572583958506584
0.063100211322307587 0.78943628072738647 0.013523999601602554
0.13117119669914246 0.78905987739562988 0.017749307677149773
0.2050824761390686 0.79029178619384766 0.017790745943784714
0.28334227204322815 0.78890770673751831 0.020230012014508247
0.35643675923347473 0.78989541530609131 0.021896392107009888
0.42596632242202759 0.78905022144317627 0.018643757328391075
0.49701845645904541 0.78778117895126343 0.014878770336508751
0.57490402460098267 0.78389978408813477 0.013727106153964996
0.65057992935180664 0.78297245502471924 0.012475241906940937
0.72201502323150635 0.77946978807449341 0.014840070158243179
0.79677313566207886 0.77984046936035156 0.011630922555923462
0.87209922075271606 0.77844369411468506 0.013246932998299599
0.94063204526901245 0.78291052579879761 0.010358354076743126
0.053850643336772919 0.8676149845123291 0.010257855989038944
0.11371202766895294 0.86872947216033936 0.013431818224489689
0.19310778379440308 0.86774671077728271 0.015173804014921188
0.27432772517204285 0.86555391550064087 0.019408013671636581
0.35085940361022949 0.86605751514434814 0.01560821570456028
0.42369979619979858 0.86718618869781494 0.01528167724609375
0.49803057312965393 0.86507827043533325 0.013707149773836136
0.57383674383163452 0.86191660165786743 0.011187310330569744
0.6485821008682251 0.86146742105484009 0.01010742224752903
0.72075355052947998 0.86094719171524048 0.010603631846606731
0.79103773832321167 0.86013936996459961 0.010224585421383381
0.8708491325378418 0.85507750511169434 0.0082751400768756866
0.94611543416976929 0.85530436038970947 0.004552758764475584
0.044863756746053696 0.93796658515930176 0.0081482529640197754
0.094794750213623047 0.93831562995910645 0.0064438763074576855
0.18182264268398285 0.93733894824981689 0.0092272590845823288
0.26621907949447632 0.93187761306762695 0.016011271625757217
0.34287062287330627 0.93106013536453247 0.0094573823735117912
0.41751325130462646 0.93532127141952515 0.0087760323658585548
0.49558231234550476 0.93345361948013306 0.0086619509384036064
0.5726935863494873 0.93066167831420898 0.0087025957182049751
0.64981371164321899 0.93275684118270874 0.007448921911418438
0.72094893455505371 0.93520337343215942 0.0058929743245244026
0.78954827785491943 0.93471300601959229 0.0078390231356024742
0.86652243137359619 0.93220347166061401 0.0034679786767810583
0.94139653444290161 0.92548054456710815 0.0036335366312414408
0.084265105426311493 0.088428601622581482 0.099350780248641968
0.11091100424528122 0.095648519694805145 0.10742522776126862
0.15832608938217163 0.1104072704911232 0.12328013777732849
0.22721724212169647 0.12410520762205124 0.13865821063518524
0.30572623014450073 0.12689585983753204 0.1435859203338623
0.3894011378288269 0.12432046234607697 0.1433597207069397
0.46418887376785278 0.11478256434202194 0.14131319522857666
0.54285126924514771 0.10299525409936905 0.13647457957267761
0.63002634048461914 0.088878154754638672 0.13297358155250549
0.71302574872970581 0.075271204113960266 0.12924005091190338
0.7911231517791748 0.065677568316459656 0.1260686069726944
0.87334221601486206 0.055109195411205292 0.12205103039741516
0.94673317670822144 0.038949389010667801 0.11851298063993454
0.08542817085981369 0.13454098999500275 0.11529840528964996
0.13012693822383881 0.13657684624195099 0.12103298306465149
0.18762104213237762 0.14079840481281281 0.12883666157722473
0.26125702261924744 0.14871065318584442 0.13568092882633209
0.33485081791877747 0.1504281759262085 0.13696193695068359
0.41448399424552917 0.14757157862186432 0.13374407589435577
0.48341849446296692 0.14158882200717926 0.13165582716464996
0.55919104814529419 0.13922335207462311 0.13119019567966461
0.64410305023193359 0.1298554390668869 0.12642882764339447
0.72111761569976807 0.11991572380065918 0.12261093407869339
0.79518240690231323 0.10757835209369659 0.1226649135351181
0.87505733966827393 0.094719648361206055 0.12169475108385086
0.94698798656463623 0.085648797452449799 0.1187853068113327
0.068628720939159393 0.20985110104084015 0.1244063600897789
0.13022898137569427 0.20999689400196075 0.12380032986402512
0.20585434138774872 0.2025119811296463 0.12289675325155258
0.28466874361038208 0.2032303512096405 0.1243385449051857
0.35557442903518677 0.20315663516521454 0.12523028254508972
0.4274236261844635 0.20076581835746765 0.12318354845046997
0.49742364883422852 0.1990688145160675 0.12135561555624008
0.57528984546661377 0.19560211896896362 0.118874192237854
0.65116435289382935 0.19540013372898102 0.11669223010540009
0.72409898042678833 0.19412344694137573 0.11207377165555954
0.79503649473190308 0.19032938778400421 0.11650953441858292
0.87366694211959839 0.18259969353675842 0.11843951046466827
0.94882011413574219 0.16760468482971191 0.11497808992862701
0.068938508629798889 0.28809189796447754 0.12110976874828339
0.12316793948411942 0.28797787427902222 0.11967720836400986
0.20430757105350494 0.28290009498596191 0.1191990002989769
0.28719016909599304 0.28000465035438538 0.11860048025846481
0.36034679412841797 0.27932465076446533 0.11724268645048141
0.42909061908721924 0.28015664219856262 0.11387346684932709
0.4984038770198822 0.27839800715446472 0.11315322667360306
0.57413959503173828 0.27663004398345947 0.11041344702243805
0.65104526281356812 0.27441442012786865 0.10769239068031311
0.72422128915786743 0.27440431714057922 0.10357946902513504
0.79372084140777588 0.2760280966758728 0.11415916681289673
0.8725968599319458 0.27081191539764404 0.11532697826623917
0.9480588436126709 0.25972098112106323 0.10552269220352173
0.065432623028755188 0.3584650456905365 0.1110895648598671
0.1158922091126442 0.35724934935569763 0.11034803092479706
0.19765393435955048 0.35836860537528992 0.11367981880903244
0.28140190243721008 0.35553887486457825 0.11385961621999741
0.36008265614509583 0.35308042168617249 0.11315101385116577
0.43013149499893188 0.35384681820869446 0.11227776110172272
0.4984402060508728 0.35224497318267822 0.10898967087268829
0.57499045133590698 0.35153773427009583 0.10385975241661072
0.64841955900192261 0.35002028942108154 0.099671952426433563
0.72148728370666504 0.34898975491523743 0.096368573606014252
0.79508548974990845 0.34662795066833496 0.10330916941165924
0.87204521894454956 0.34451472759246826 0.10263776779174805
0.94621628522872925 0.33699595928192139 0.094667144119739532
0.046130385249853134 0.42734488844871521 0.10199061036109924
0.11454614251852036 0.4290560781955719 0.10463421046733856
0.19390462338924408 0.42965948581695557 0.10799035429954529
0.27774202823638916 0.42825645208358765 0.10816574096679688
0.35706362128257751 0.42608699202537537 0.10725773870944977
0.4320158064365387 0.42413181066513062 0.10623592138290405
0.50308984518051147 0.42406448721885681 0.10445064306259155
0.57579147815704346 0.42395883798599243 0.10125116258859634
0.64806830883026123 0.42288416624069214 0.095233410596847534
0.72036844491958618 0.42059451341629028 0.087955370545387268
0.79530078172683716 0.41556724905967712 0.093916602432727814
0.87055879831314087 0.41585513949394226 0.09046250581741333
0.94369202852249146 0.41200608015060425 0.086195357143878937
0.041603535413742065 0.50105369091033936 0.098770990967750549
0.11572618782520294 0.50131791830062866 0.10162592679262161
0.19543485343456268 0.4992901086807251 0.10217877477407455
0.2770017683506012 0.49855107069015503 0.10300933569669724
0.35657992959022522 0.49751192331314087 0.105757936835289
0.43068575859069824 0.49550512433052063 0.099787183105945587
0.50194054841995239 0.49618443846702576 0.096154339611530304
0.57586711645126343 0.49662095308303833 0.090482495725154877
0.64707201719284058 0.49483010172843933 0.091714821755886078
0.71816855669021606 0.49304050207138062 0.088698126375675201
0.79165804386138916 0.49033430218696594 0.087422735989093781
0.86932504177093506 0.49055224657058716 0.084631361067295074
0.94496613740921021 0.48549744486808777 0.087959364056587219
0.036277756094932556 0.57627475261688232 0.093957580626010895
0.11321598291397095 0.57381075620651245 0.095387645065784454
0.19567671418190002 0.57052183151245117 0.095854274928569794
0.27789995074272156 0.56901079416275024 0.096114829182624817
0.35557064414024353 0.56881183385848999 0.10057269781827927
0.42721155285835266 0.56840968132019043 0.092397920787334442
0.49776053428649902 0.57004767656326294 0.085352100431919098
0.57603198289871216 0.56921595335006714 0.080442480742931366
0.64740639925003052 0.56756973266601562 0.084116704761981964
0.71853083372116089 0.56932693719863892 0.087464272975921631
0.78937292098999023 0.56670796871185303 0.079174458980560303
0.86634039878845215 0.56574290990829468 0.073926068842411041
0.9388352632522583 0.56133145093917847 0.071969814598560333
0.037757843732833862 0.64867544174194336 0.086517110466957092
0.11027366667985916 0.64659535884857178 0.085127890110015869
0.19705615937709808 0.64450323581695557 0.080882623791694641
0.27902233600616455 0.64214247465133667 0.082717776298522949
0.35341343283653259 0.64134377241134644 0.086918756365776062
0.42566904425621033 0.64020055532455444 0.082439512014389038
0.49653768539428711 0.64199388027191162 0.082402125000953674
0.57058495283126831 0.64218580722808838 0.080828860402107239
0.65045428276062012 0.63697028160095215 0.078132390975952148
0.71930921077728271 0.63865143060684204 0.086309380829334259
0.788482666015625 0.6390717625617981 0.082522466778755188
0.86469560861587524 0.63705730438232422 0.075149357318878174
0.93844151496887207 0.63530343770980835 0.068572834134101868
0.048758145421743393 0.71921777725219727 0.077016375958919525
0.10744786262512207 0.71734297275543213 0.076704703271389008
0.19205333292484283 0.71652877330780029 0.070528499782085419
0.27796778082847595 0.71436804533004761 0.076040081679821014
0.35133051872253418 0.71319246292114258 0.079052269458770752
0.42256686091423035 0.71283257007598877 0.074519678950309753
0.49469199776649475 0.71386516094207764 0.072770632803440094
0.57063639163970947 0.71098726987838745 0.07835870236158371
0.64854264259338379 0.70706784725189209 0.077050887048244476
0.72118961811065674 0.70540642738342285 0.083518549799919128
0.79239571094512939 0.70691066980361938 0.087676405906677246
0.86828333139419556 0.7069275975227356 0.079908289015293121
0.93875426054000854 0.7077476978302002 0.067903466522693634
0.050448697060346603 0.78993642330169678 0.065199621021747589
0.103640116751194 0.78897738456726074 0.069035306572914124
0.18549728393554688 0.78844171762466431 0.069192595779895782
0.27390578389167786 0.78682935237884521 0.075382828712463379
0.34890058636665344 0.78645819425582886 0.076312363147735596
0.42067965865135193 0.7858206033706665 0.069615922868251801
0.49345302581787109 0.78571200370788574 0.067055843770503998
0.57117241621017456 0.78272181749343872 0.073120281100273132
0.64804482460021973 0.78205525875091553 0.077149137854576111
0.72167319059371948 0.77957409620285034 0.081416234374046326
0.79477512836456299 0.77940899133682251 0.080723315477371216
0.87206971645355225 0.7797858715057373 0.072882995009422302
0.94087702035903931 0.78230780363082886 0.058946061879396439
0.046304963529109955 0.8677520751953125 0.054796226322650909
0.090628787875175476 0.86869043111801147 0.058182869106531143
0.17650282382965088 0.86703544855117798 0.060842059552669525
0.26743444800376892 0.86466014385223389 0.066721267998218536
0.34406057000160217 0.86381322145462036 0.057907223701477051
0.42009475827217102 0.86348044872283936 0.055852208286523819
0.49377548694610596 0.8634909987449646 0.058112993836402893
0.57066082954406738 0.862923264503479 0.057664908468723297
0.64871561527252197 0.86309725046157837 0.058961667120456696
0.72164958715438843 0.86156255006790161 0.061263740062713623
0.79127997159957886 0.85968834161758423 0.056329615414142609
0.86990290880203247 0.85607647895812988 0.052624482661485672
0.94237810373306274 0.85504138469696045 0.039134964346885681
0.042513873428106308 0.93752360343933105 0.046638906002044678
0.075794562697410583 0.9392322301864624 0.046718448400497437
0.16787219047546387 0.93892168998718262 0.04762331023812294
0.2598135769367218 0.93439412117004395 0.054718002676963806
0.33665156364440918 0.932911217212677 0.038858510553836823
0.41659456491470337 0.93250852823257446 0.037366919219493866
0.49157443642616272 0.93452173471450806 0.038687177002429962
0.5698401927947998 0.93638306856155396 0.038109440356492996
0.65135163068771362 0.9357340931892395 0.040431376546621323
0.72286838293075562 0.93469530344009399 0.039029467850923538
0.79026013612747192 0.93308353424072266 0.034883059561252594
0.86791211366653442 0.93078446388244629 0.037876233458518982
0.9401898980140686 0.92828524112701416 0.036143403500318527
0.090238146483898163 0.094148240983486176 0.12037347257137299
0.11387737840414047 0.10393012315034866 0.13185381889343262
0.15348392724990845 0.12249380350112915 0.15107080340385437
0.19995778799057007 0.14850635826587677 0.17265395820140839
0.24963435530662537 0.16919796168804169 0.19316607713699341
0.31586703658103943 0.18493546545505524 0.21037273108959198
0.39067614078521729 0.18919706344604492 0.21937768161296844
0.47246125340461731 0.19124928116798401 0.22805322706699371
0.56392115354537964 0.18837295472621918 0.23034922778606415
0.65696555376052856 0.17914555966854095 0.22795771062374115
0.7406386137008667 0.16645920276641846 0.22503672540187836
0.83038794994354248 0.15417250990867615 0.2211836576461792
0.91377979516983032 0.12053327262401581 0.20917096734046936
0.11354441940784454 0.1328510046005249 0.14666208624839783
0.13731366395950317 0.1420726478099823 0.15561352670192719
0.17515335977077484 0.15581429004669189 0.17034409940242767
0.22055068612098694 0.17482024431228638 0.18684293329715729
0.27734878659248352 0.18829643726348877 0.20330663025379181
0.34401881694793701 0.19895720481872559 0.21646299958229065
0.41607344150543213 0.20303885638713837 0.22198192775249481
0.49560296535491943 0.20648427307605743 0.22832141816616058
0.58979040384292603 0.20189522206783295 0.22617669403553009
0.66920465230941772 0.19276057183742523 0.22469773888587952
0.74959760904312134 0.18552666902542114 0.22273799777030945
0.83773660659790039 0.17561338841915131 0.22176206111907959
0.92469757795333862 0.14675354957580566 0.20743745565414429
0.11543030291795731 0.20012515783309937 0.18038806319236755
0.15202967822551727 0.20452298223972321 0.18601569533348083
0.20093317329883575 0.20705345273017883 0.19217871129512787
0.26347914338111877 0.21610452234745026 0.20149968564510345
0.32345917820930481 0.2218858003616333 0.20743149518966675
0.38775527477264404 0.22610779106616974 0.2126791924238205
0.45713648200035095 0.23005446791648865 0.21602107584476471
0.53270232677459717 0.23446312546730042 0.22147452831268311
0.61809730529785156 0.23163524270057678 0.2192595899105072
0.69512039422988892 0.22284762561321259 0.21394333243370056
0.77183979749679565 0.22196292877197266 0.21400092542171478
0.85399514436721802 0.21446166932582855 0.21240542829036713
0.9382474422454834 0.1859210878610611 0.19840101897716522
0.07150847464799881 0.28591296076774597 0.20015569031238556
0.13348621129989624 0.28621304035186768 0.20025365054607391
0.2044929563999176 0.28490725159645081 0.20139732956886292
0.28260600566864014 0.28199824690818787 0.20159588754177094
0.35296890139579773 0.2809472382068634 0.19834314286708832
0.42139115929603577 0.28189334273338318 0.2010931670665741
0.49139636754989624 0.28195267915725708 0.20249685645103455
0.5672728419303894 0.28208494186401367 0.20370519161224365
0.6403471827507019 0.28243431448936462 0.20281600952148438
0.71707350015640259 0.27823850512504578 0.19795882701873779
0.78691214323043823 0.28174653649330139 0.20594258606433868
0.86555296182632446 0.27786555886268616 0.20508600771427155
0.9440009593963623 0.26198789477348328 0.19453509151935577
0.068214341998100281 0.35881990194320679 0.19462338089942932
0.11693362146615982 0.35832592844963074 0.1953088641166687
0.1920982301235199 0.35695689916610718 0.19710554182529449
