assets/lut/creative colornegative.cube
# Created by: G'MIC (https://gmic.eu)
TITLE "colornegative"
# LUT size
LUT_3D_SIZE 13
# Data domain
DOMAIN_MIN 0.0 0.0 0.0
DOMAIN_MAX 1.0 1.0 1.0
# LUT data points
0.93270611763000488 0.79819333553314209 0.69007539749145508
0.82564353942871094 0.80697226524353027 0.69681739807128906
0.71538442373275757 0.81299513578414917 0.70062029361724854
0.60079061985015869 0.81250941753387451 0.70233714580535889
0.48735722899436951 0.81098896265029907 0.70513612031936646
0.3804880678653717 0.81288325786590576 0.71067488193511963
0.28561842441558838 0.814491868019104 0.71597790718078613
0.20602165162563324 0.81389385461807251 0.71788686513900757
0.14135785400867462 0.81108987331390381 0.71409285068511963
0.086684301495552063 0.80646097660064697 0.70448261499404907
0.04074714332818985 0.80210304260253906 0.69333076477050781
0.0060524884611368179 0.8002362847328186 0.68552583456039429
0 0.80411839485168457 0.68340229988098145
0.93831276893615723 0.64639568328857422 0.70242172479629517
0.83316045999526978 0.65484619140625 0.71259361505508423
0.72549617290496826 0.65947520732879639 0.71929031610488892
0.6145053505897522 0.65744990110397339 0.7233009934425354
0.50709736347198486 0.6560739278793335 0.72653573751449585
0.40800786018371582 0.66170912981033325 0.73058205842971802
0.31915101408958435 0.66709822416305542 0.7344774603843689
0.24240405857563019 0.669464111328125 0.73595643043518066
0.17738296091556549 0.66942435503005981 0.73249316215515137
0.11615824699401855 0.66612476110458374 0.72452372312545776
0.059780523180961609 0.66231268644332886 0.71567046642303467
0.013741452246904373 0.66140377521514893 0.71026289463043213
0 0.6644359827041626 0.71043515205383301
0.94202840328216553 0.50345683097839355 0.70798546075820923
0.83793133497238159 0.51051110029220581 0.71871644258499146
0.73201602697372437 0.51399481296539307 0.72752708196640015
0.62563759088516235 0.51113647222518921 0.73445981740951538
0.52471518516540527 0.51144200563430786 0.73937052488327026
0.43439647555351257 0.52203536033630371 0.74218165874481201
0.35167047381401062 0.5307387113571167 0.74447077512741089
0.2772769033908844 0.53496742248535156 0.74516648054122925
0.21052250266075134 0.53679734468460083 0.74213731288909912
0.14615391194820404 0.53611713647842407 0.7361750602722168
0.082264512777328491 0.53428727388381958 0.72978717088699341
0.025892654433846474 0.53254026174545288 0.72756034135818481
0.00051030179020017385 0.53679025173187256 0.73127710819244385
0.94588965177536011 0.37500837445259094 0.71027499437332153
0.84265685081481934 0.38285577297210693 0.71947693824768066
0.73829293251037598 0.3877713680267334 0.72915875911712646
0.63561528921127319 0.38921922445297241 0.73733675479888916
0.53972649574279785 0.39336177706718445 0.74318790435791016
0.45396065711975098 0.40442720055580139 0.74647176265716553
0.37504240870475769 0.41286638379096985 0.74787968397140503
0.3023325502872467 0.41673117876052856 0.74862170219421387
0.23555773496627808 0.4198710024356842 0.74668765068054199
0.17178937792778015 0.42147797346115112 0.7419160008430481
0.10720796883106232 0.42223793268203735 0.7372930645942688
0.046551991254091263 0.42228487133979797 0.73733651638031006
0.0058683059178292751 0.42740058898925781 0.74257898330688477
0.94935476779937744 0.26041474938392639 0.71371382474899292
0.84687995910644531 0.27235746383666992 0.72026735544204712
0.74373805522918701 0.28304934501647949 0.72842109203338623
0.6437566876411438 0.29236406087875366 0.73609870672225952
0.55028879642486572 0.30212432146072388 0.74240267276763916
0.4656299352645874 0.31196844577789307 0.7468101978302002
0.38823410868644714 0.31801518797874451 0.74920201301574707
0.31649938225746155 0.32062521576881409 0.7502371072769165
0.25032094120979309 0.32244676351547241 0.74906367063522339
0.18863607943058014 0.32546955347061157 0.74523508548736572
0.12745247781276703 0.32886147499084473 0.74124854803085327
0.068475283682346344 0.33244657516479492 0.74029195308685303
0.018661258742213249 0.34028816223144531 0.74379944801330566
0.95002323389053345 0.15707264840602875 0.72107881307601929
0.84851187467575073 0.17548775672912598 0.72468364238739014
0.74678695201873779 0.1951974630355835 0.72956675291061401
0.64810258150100708 0.21344555914402008 0.73531204462051392
0.5556139349937439 0.22933325171470642 0.74170291423797607
0.47111475467681885 0.24038270115852356 0.74677503108978271
0.39458072185516357 0.24514877796173096 0.74997240304946899
0.32378965616226196 0.24589258432388306 0.7514001727104187
0.25813734531402588 0.24636794626712799 0.75116324424743652
0.19847865402698517 0.24979105591773987 0.74765217304229736
0.1409553587436676 0.25516980886459351 0.74293410778045654
0.085004158318042755 0.2612718939781189 0.73991185426712036
0.03339836373925209 0.27094799280166626 0.74129593372344971
0.9491201639175415 0.072328530251979828 0.72826981544494629
0.84805989265441895 0.096365027129650116 0.72941058874130249
0.7477266788482666 0.12365029752254486 0.73162931203842163
0.64993172883987427 0.1485915333032608 0.7353789210319519
0.55804628133773804 0.16957792639732361 0.74083048105239868
0.4741491973400116 0.18298840522766113 0.7462117075920105
0.39856874942779541 0.18841896951198578 0.7497754693031311
0.32926520705223083 0.18984436988830566 0.7517399787902832
0.26562803983688354 0.19097509980201721 0.7517322301864624
0.20689001679420471 0.19429358839988708 0.74875730276107788
0.15111979842185974 0.19942827522754669 0.74385964870452881
0.096941299736499786 0.20607462525367737 0.73931211233139038
0.04524371400475502 0.21604081988334656 0.73892062902450562
0.94915610551834106 0.020771684125065804 0.72843432426452637
0.84801656007766724 0.04354408010840416 0.7293819785118103
0.74835431575775146 0.071187965571880341 0.73129868507385254
0.65147238969802856 0.097213149070739746 0.73430591821670532
0.55990219116210938 0.11905333399772644 0.73885583877563477
0.47684499621391296 0.13413269817829132 0.74379384517669678
0.40217262506484985 0.14252132177352905 0.74800390005111694
0.33489277958869934 0.14703315496444702 0.75108224153518677
0.27306997776031494 0.15050256252288818 0.75144028663635254
0.21531771123409271 0.15385861694812775 0.74907344579696655
0.16002474725246429 0.15786953270435333 0.74366134405136108
0.10652585327625275 0.16352309286594391 0.73869442939758301
0.05491962656378746 0.17271953821182251 0.73821097612380981
0.95049208402633667 0.0013204537099227309 0.72282743453979492
0.84916281700134277 0.015180684626102448 0.72467297315597534
0.7488853931427002 0.03726857528090477 0.72755914926528931
0.65224224328994751 0.059459403157234192 0.73137098550796509
0.56144893169403076 0.078965969383716583 0.73595160245895386
0.4786282479763031 0.094082176685333252 0.74077552556991577
0.40524548292160034 0.10480769723653793 0.74533557891845703
0.33948057889938354 0.11243496835231781 0.74896907806396484
0.2795383632183075 0.11846298724412918 0.75042831897735596
0.22265514731407166 0.12247572094202042 0.74809956550598145
0.16767434775829315 0.12545455992221832 0.74228620529174805
0.11433002352714539 0.12997575104236603 0.73736453056335449
0.062675073742866516 0.13779035210609436 0.73665940761566162
0.95147347450256348 0 0.71733981370925903
0.84989887475967407 0.0038693596143275499 0.71902585029602051
0.74902945756912231 0.017842087894678116 0.72313487529754639
0.65226715803146362 0.03346029669046402 0.72815912961959839
0.56200218200683594 0.048894621431827545 0.73329830169677734
0.48062688112258911 0.062337838113307953 0.73819148540496826
0.40666091442108154 0.073601998388767242 0.74244827032089233
0.34194037318229675 0.082678012549877167 0.74542611837387085
0.28309080004692078 0.090177692472934723 0.74663913249969482
0.22768756747245789 0.095013275742530823 0.74413043260574341
0.17339238524436951 0.097949430346488953 0.73884159326553345
0.12052401155233383 0.10201197862625122 0.73479515314102173
0.069132618606090546 0.10903598368167877 0.73540514707565308
0.95060360431671143 0 0.71658492088317871
0.84873491525650024 0.00069662358146160841 0.71709579229354858
0.74865889549255371 0.0073072095401585102 0.72108733654022217
0.65202778577804565 0.016493853181600571 0.72641003131866455
0.56092602014541626 0.026730690151453018 0.7324184775352478
0.47918695211410522 0.037291865795850754 0.73761576414108276
0.40720352530479431 0.04732658714056015 0.74054533243179321
0.34383505582809448 0.056281533092260361 0.74188029766082764
0.2858741283416748 0.063913963735103607 0.7408444881439209
0.23050741851329803 0.069204576313495636 0.73821312189102173
0.17741215229034424 0.073102407157421112 0.73455172777175903
0.12549695372581482 0.07766183465719223 0.73267465829849243
0.074626058340072632 0.084554381668567657 0.73574703931808472
0.94823640584945679 0 0.72174960374832153
0.84687310457229614 0 0.7208704948425293
0.74697089195251465 0.0012469871435314417 0.7231324315071106
0.65062779188156128 0.0048840539529919624 0.72795379161834717
0.56042152643203735 0.010378998704254627 0.73452192544937134
0.47800686955451965 0.017335569486021996 0.74023115634918213
0.40749767422676086 0.025453425943851471 0.74171429872512817
0.34417137503623962 0.033396687358617783 0.74001508951187134
0.28689569234848022 0.040509797632694244 0.73757559061050415
0.23317284882068634 0.045988358557224274 0.73467332124710083
0.18084202706813812 0.050819441676139832 0.73222112655639648
0.1299435943365097 0.056142620742321014 0.73338240385055542
0.079562179744243622 0.062901563942432404 0.73950427770614624
0.94736963510513306 0 0.7325127124786377
0.84627115726470947 0 0.72939664125442505
0.74812519550323486 0 0.72994762659072876
0.65246975421905518 0 0.73385459184646606
0.56232506036758423 0.0004855286970268935 0.74033820629119873
0.48050782084465027 0.0025721231941133738 0.74613320827484131
0.40975064039230347 0.0072626001201570034 0.74612826108932495
0.34730422496795654 0.01373602170497179 0.74270248413085938
0.29036417603492737 0.020176906138658524 0.73903197050094604
0.23649895191192627 0.025558186694979668 0.73639613389968872
0.18466059863567352 0.030529741197824478 0.73612511157989502
0.13404619693756104 0.036702100187540054 0.73997491598129272
0.084236547350883484 0.043558862060308456 0.74941682815551758
0.9339364767074585 0.79560106992721558 0.49344944953918457
0.82651525735855103 0.80429321527481079 0.50452816486358643
0.71639662981033325 0.8106309175491333 0.51026654243469238
0.60321122407913208 0.81262838840484619 0.51192015409469604
0.49064403772354126 0.81277722120285034 0.51301050186157227
0.3822573721408844 0.81443542242050171 0.51795244216918945
0.28112038969993591 0.81719487905502319 0.52909165620803833
0.1917882114648819 0.81714344024658203 0.54164475202560425
0.12241367995738983 0.81427884101867676 0.54483234882354736
0.070837654173374176 0.8094978928565979 0.53753912448883057
0.030970718711614609 0.80489563941955566 0.52683967351913452
0.0039150761440396309 0.802898108959198 0.51882034540176392
0 0.8053206205368042 0.51776725053787231
0.93961066007614136 0.64206457138061523 0.51965469121932983
0.83513051271438599 0.6516764760017395 0.53193777799606323
0.72790056467056274 0.65833902359008789 0.5384635329246521
0.61916571855545044 0.65930122137069702 0.5421828031539917
0.51335310935974121 0.66109901666641235 0.54463618993759155
0.41311466693878174 0.66664129495620728 0.54910653829574585
0.31899592280387878 0.6710401177406311 0.55728662014007568
0.23430438339710236 0.67254865169525146 0.56546586751937866
0.16356152296066284 0.67174744606018066 0.5683179497718811
0.10316736251115799 0.66889035701751709 0.56351500749588013
0.050410564988851547 0.66546005010604858 0.55536800622940063
0.0092330034822225571 0.66381955146789551 0.55038213729858398
0 0.66672080755233765 0.55167406797409058
0.94315123558044434 0.49912506341934204 0.53396123647689819
0.84036475419998169 0.50933432579040527 0.54587572813034058
0.73573911190032959 0.51564031839370728 0.5552978515625
0.63177037239074707 0.51707988977432251 0.56246811151504517
0.53361546993255615 0.52093744277954102 0.56686341762542725
0.44309097528457642 0.53049308061599731 0.57038694620132446
0.35658279061317444 0.53577685356140137 0.57552838325500488
0.27696508169174194 0.53777891397476196 0.58039361238479614
0.2059563547372818 0.53936344385147095 0.5818864107131958
0.14125415682792664 0.53990262746810913 0.57842963933944702
0.076492846012115479 0.5384247899055481 0.57228285074234009
0.016371633857488632 0.53735291957855225 0.56934309005737305
0 0.54049360752105713 0.57436841726303101
0.94811528921127319 0.37471660971641541 0.54069244861602783
0.84573900699615479 0.38581499457359314 0.55105197429656982
0.74257242679595947 0.39284589886665344 0.56193810701370239
0.64195382595062256 0.39675354957580566 0.57108461856842041
0.54844200611114502 0.40318456292152405 0.57691365480422974
0.46331033110618591 0.41261979937553406 0.58038908243179321
0.38289269804954529 0.41742169857025146 0.58393704891204834
0.30785664916038513 0.41962239146232605 0.58736723661422729
0.23945245146751404 0.42336970567703247 0.58849090337753296
0.17646995186805725 0.42650043964385986 0.58536750078201294
0.10946281254291534 0.4277113676071167 0.58059549331665039
0.039985507726669312 0.42761924862861633 0.57975298166275024
0.0024113224353641272 0.43170833587646484 0.5858997106552124
0.95261591672897339 0.2658132016658783 0.54686659574508667
0.85064023733139038 0.28001397848129272 0.5549008846282959
0.7479216456413269 0.2906196117401123 0.56471282243728638
0.64908963441848755 0.30020177364349365 0.5724567174911499
0.55703914165496826 0.30966749787330627 0.5789678692817688
0.47337132692337036 0.31821545958518982 0.58415603637695312
0.39638131856918335 0.32246872782707214 0.5881238579750061
0.32499903440475464 0.3246559202671051 0.59153646230697632
0.25907790660858154 0.32780054211616516 0.59273236989974976
0.19760167598724365 0.33161523938179016 0.5902295708656311
0.13356547057628632 0.33446827530860901 0.5862501859664917
0.06836826354265213 0.33690640330314636 0.58533382415771484
0.016181901097297668 0.3429110050201416 0.58927947282791138
0.95298737287521362 0.16582804918289185 0.5573851466178894
0.85162860155105591 0.18528574705123901 0.56283456087112427
0.75016659498214722 0.20370101928710938 0.56884968280792236
0.65229666233062744 0.22111652791500092 0.57404893636703491
0.56084835529327393 0.23547481000423431 0.58020436763763428
0.47754251956939697 0.24533279240131378 0.58639085292816162
0.40196472406387329 0.24979734420776367 0.59139633178710938
0.33241462707519531 0.25145849585533142 0.59513336420059204
0.26800626516342163 0.25320082902908325 0.5967678427696228
0.20728720724582672 0.25634130835533142 0.59474575519561768
0.14714284241199493 0.26019108295440674 0.59041309356689453
0.087475091218948364 0.26450654864311218 0.58705294132232666
0.033761836588382721 0.27201071381568909 0.58862292766571045
0.95142441987991333 0.081863150000572205 0.56735014915466309
0.8505018949508667 0.10563574731349945 0.57113122940063477
0.74979007244110107 0.13177366554737091 0.57422375679016113
0.65264391899108887 0.15550549328327179 0.57739114761352539
0.56181985139846802 0.17463026940822601 0.58218050003051758
0.47914063930511475 0.18697249889373779 0.58780431747436523
0.40447524189949036 0.19288212060928345 0.59338849782943726
0.33656904101371765 0.1952662318944931 0.59763133525848389
0.27358630299568176 0.19698204100131989 0.59940868616104126
0.21430191397666931 0.19958870112895966 0.59782862663269043
0.15655894577503204 0.20336887240409851 0.59336572885513306
0.10021407157182693 0.20821435749530792 0.5889090895652771
0.04709937795996666 0.2160145491361618 0.58885568380355835
0.95113366842269897 0.027441540732979774 0.56990879774093628
0.84999686479568481 0.050252921879291534 0.57382500171661377
0.74940210580825806 0.077231280505657196 0.57703971862792969
0.65259468555450439 0.10280423611402512 0.57936137914657593
0.56222397089004517 0.12376846373081207 0.58300256729125977
0.4802226722240448 0.13824142515659332 0.58781921863555908
0.40641048550605774 0.1465575248003006 0.59358757734298706
0.33987024426460266 0.1513470858335495 0.59840303659439087
0.27856913208961487 0.15464901924133301 0.60076367855072021
0.22053831815719604 0.15738265216350555 0.59966975450515747
0.16434760391712189 0.16036771237850189 0.59482640027999878
0.10979489982128143 0.16466887295246124 0.59024763107299805
0.057094454765319824 0.17225435376167297 0.58987724781036377
0.9522705078125 0.0033455344382673502 0.56639444828033447
0.8510061502456665 0.019499117508530617 0.57096689939498901
0.74989277124404907 0.041089944541454315 0.57527774572372437
0.65272772312164307 0.063083335757255554 0.57872563600540161
0.56249302625656128 0.082571998238563538 0.58244830369949341
0.48109245300292969 0.097679346799850464 0.5869063138961792
0.40774333477020264 0.10827665030956268 0.59203487634658813
0.3425077497959137 0.11560826003551483 0.59695994853973389
0.28250584006309509 0.12069791555404663 0.59978955984115601
0.22588656842708588 0.12418831884860992 0.5987706184387207
0.17083622515201569 0.1268066018819809 0.59428507089614868
0.11705151945352554 0.13050287961959839 0.58981633186340332
0.064867891371250153 0.13685823976993561 0.58984774351119995
0.95372503995895386 3.8775277062086388e-05 0.56146419048309326
0.85165774822235107 0.0068450928665697575 0.56571918725967407
0.75025391578674316 0.020283060148358345 0.57155156135559082
0.65265774726867676 0.035903211683034897 0.57645171880722046
0.56240242719650269 0.051331374794244766 0.58079391717910767
0.48112744092941284 0.064975187182426453 0.58524519205093384
0.40846213698387146 0.076169632375240326 0.58992201089859009
0.3441348671913147 0.085036754608154297 0.59389013051986694
0.28562274575233459 0.091578498482704163 0.59606689214706421
0.22959008812904358 0.095825016498565674 0.59473460912704468
0.17554460465908051 0.098750665783882141 0.59060543775558472
0.12265998870134354 0.10235366970300674 0.58703696727752686
0.07088024914264679 0.10838449746370316 0.58818697929382324
0.95246303081512451 0 0.5610201358795166
0.85070168972015381 0.0030600004829466343 0.56378823518753052
0.7492595911026001 0.0095788696780800819 0.56898540258407593
0.65231829881668091 0.018289947882294655 0.57407420873641968
0.56194090843200684 0.02874278649687767 0.57946574687957764
0.4810352623462677 0.039420481771230698 0.58446884155273438
0.40852397680282593 0.049649767577648163 0.58807981014251709
0.34448441863059998 0.058546882122755051 0.59023773670196533
0.28642386198043823 0.065563023090362549 0.59058010578155518
0.23198573291301727 0.070464581251144409 0.58867377042770386
0.17900992929935455 0.074186600744724274 0.58517229557037354
0.12687104940414429 0.078312881290912628 0.58283728361129761
0.07576606422662735 0.084180854260921478 0.58585953712463379
0.94939404726028442 0.00054028083104640245 0.56626659631729126
0.84775209426879883 0.0019471860723569989 0.56692326068878174
0.74834257364273071 0.0036083594895899296 0.56988388299942017
0.65198463201522827 0.0068714665248990059 0.57421350479125977
0.56157320737838745 0.01233907975256443 0.57994723320007324
0.48078030347824097 0.019582470878958702 0.58560085296630859
0.40880802273750305 0.027742767706513405 0.58842712640762329
0.34533539414405823 0.035764746367931366 0.58816069364547729
0.28818735480308533 0.042579561471939087 0.58638370037078857
0.23407182097434998 0.047940917313098907 0.58425134420394897
0.18166272342205048 0.052361328154802322 0.58140546083450317
0.13046486675739288 0.057012341916561127 0.58052921295166016
0.079902127385139465 0.063515879213809967 0.58581799268722534
0.94754445552825928 0.0019003774505108595 0.57651698589324951
0.84625637531280518 0.00050132599426433444 0.57527339458465576
0.74853235483169556 3.9493338590546045e-06 0.57608914375305176
0.65277016162872314 0.00024880800629034638 0.57924282550811768
0.5634160041809082 0.0013549954164773226 0.58496874570846558
0.48248296976089478 0.0041765100322663784 0.59073346853256226
0.41115763783454895 0.0097079109400510788 0.59251630306243896
0.34824034571647644 0.016291031613945961 0.59098631143569946
0.29082959890365601 0.022371478378772736 0.5879979133605957
0.23686504364013672 0.027861710637807846 0.58575314283370972
0.18483105301856995 0.032782446593046188 0.58414393663406372
0.13388809561729431 0.037843111902475357 0.58533024787902832
0.083698049187660217 0.044560763984918594 0.59302914142608643
0.93484729528427124 0.79608088731765747 0.2984735369682312
0.82708269357681274 0.80246531963348389 0.31744641065597534
0.71760958433151245 0.80761432647705078 0.32802268862724304
0.60708773136138916 0.81025904417037964 0.33041989803314209
0.49778696894645691 0.8129342794418335 0.32767802476882935
0.39049440622329712 0.81562918424606323 0.32831716537475586
0.28557601571083069 0.81857931613922119 0.34076985716819763
0.18781207501888275 0.81953394412994385 0.36258924007415771
0.11261680722236633 0.81715720891952515 0.37536907196044922
0.061644908040761948 0.81246417760848999 0.37537404894828796
0.027436843141913414 0.80854374170303345 0.36798050999641418
0.006715826690196991 0.80731296539306641 0.36054793000221252
9.6220130217261612e-05 0.80960178375244141 0.36036792397499084
0.94201290607452393 0.64143234491348267 0.34780529141426086
0.83676320314407349 0.65007656812667847 0.36267942190170288
0.72995489835739136 0.65705257654190063 0.36927518248558044
0.62389177083969116 0.6613273024559021 0.37301284074783325
0.52081745862960815 0.66549217700958252 0.37367159128189087
0.42117372155189514 0.67079538106918335 0.37729108333587646
0.32377547025680542 0.67443537712097168 0.38685688376426697
0.23249875009059906 0.67547404766082764 0.3991418182849884
0.15427917242050171 0.67441856861114502 0.40928775072097778
0.092991665005683899 0.67182368040084839 0.41253823041915894
0.047084074467420578 0.66912025213241577 0.40870678424835205
0.01527137029916048 0.66815340518951416 0.40554821491241455
0.0010361316381022334 0.67085784673690796 0.40922600030899048
0.94523388147354126 0.49840381741523743 0.37703892588615417
0.84223735332489014 0.5091206431388855 0.38970842957496643
0.73860687017440796 0.51793330907821655 0.39910885691642761
0.63709741830825806 0.523517906665802 0.40643081068992615
0.54083728790283203 0.53005719184875488 0.41016581654548645
0.44982555508613586 0.53749245405197144 0.41447210311889648
0.36130973696708679 0.54098451137542725 0.42089009284973145
0.2774442732334137 0.54211199283599854 0.42744386196136475
0.20114366710186005 0.54314923286437988 0.43349912762641907
0.13516321778297424 0.54355150461196899 0.43590453267097473
0.076193399727344513 0.54275929927825928 0.4340893030166626
0.024876613169908524 0.54247349500656128 0.43376156687736511
0.0010465285740792751 0.54566776752471924 0.43966123461723328
0.94901013374328613 0.3751865029335022 0.38870531320571899
0.8468325138092041 0.38795548677444458 0.40132376551628113
0.74493789672851562 0.39766961336135864 0.41430959105491638
0.64620202779769897 0.40510764718055725 0.42395296692848206
0.55423897504806519 0.41329801082611084 0.42884927988052368
0.46905821561813354 0.42091450095176697 0.43208754062652588
0.38801828026771545 0.42406752705574036 0.4364321231842041
0.31131628155708313 0.42582046985626221 0.44185230135917664
0.24057437479496002 0.42942094802856445 0.44621679186820984
0.17684376239776611 0.43244898319244385 0.44693216681480408
0.11259195953607559 0.43391355872154236 0.4451562762260437
0.047235000878572464 0.43424618244171143 0.44596356153488159
0.005162601824849844 0.43759235739707947 0.45201811194419861
0.95233839750289917 0.26865977048873901 0.39865791797637939
0.85081034898757935 0.28433999419212341 0.4099176824092865
0.74919372797012329 0.29718771576881409 0.42146760225296021
0.6517404317855835 0.30830058455467224 0.42954295873641968
0.56119024753570557 0.31821528077125549 0.43548551201820374
0.47853955626487732 0.32601708173751831 0.43961873650550842
0.4020652174949646 0.33004391193389893 0.44421654939651489
0.33089876174926758 0.33263906836509705 0.44948476552963257
0.26449999213218689 0.33619827032089233 0.45346570014953613
0.20201364159584045 0.33983546495437622 0.45378196239471436
