assets/lut/creative tensiongreen 04.cube
# Created by: G'MIC (https://gmic.eu)
TITLE "tensiongreen_4"
# LUT size
LUT_3D_SIZE 7
# Data domain
DOMAIN_MIN 0.0 0.0 0.0
DOMAIN_MAX 1.0 1.0 1.0
# LUT data points
0.072010025382041931 0.079787984490394592 0.080251432955265045
0.10630661994218826 0.09633839875459671 0.093499518930912018
0.1628185510635376 0.11589469015598297 0.10785462707281113
0.21668322384357452 0.13345873355865479 0.1202738881111145
0.29962626099586487 0.16308790445327759 0.142324298620224
0.3837566077709198 0.17768062651157379 0.16133673489093781
0.46729305386543274 0.19567815959453583 0.18329815566539764
0.090997911989688873 0.11265116930007935 0.098150677978992462
0.11800915747880936 0.12632820010185242 0.097399614751338959
0.175639808177948 0.14967954158782959 0.11296109855175018
0.24001190066337585 0.17281845211982727 0.12934374809265137
0.32914081215858459 0.20875619351863861 0.15511511266231537
0.41876929998397827 0.24100878834724426 0.17829659581184387
0.5297582745552063 0.27160298824310303 0.20691227912902832
0.12840643525123596 0.18411816656589508 0.12753111124038696
0.14673274755477905 0.19168868660926819 0.12090231478214264
0.19860610365867615 0.21788854897022247 0.1360393762588501
0.26088005304336548 0.24750453233718872 0.14892417192459106
0.36225655674934387 0.28440719842910767 0.17441751062870026
0.47263413667678833 0.31827512383460999 0.20224092900753021
0.59858244657516479 0.3507494330406189 0.23023572564125061
0.18710440397262573 0.2694646418094635 0.17709551751613617
0.19991639256477356 0.27423754334449768 0.16689060628414154
0.24523274600505829 0.29620131850242615 0.16867370903491974
0.29984369874000549 0.32963737845420837 0.18697331845760345
0.40036526322364807 0.3796268105506897 0.21485382318496704
0.50969761610031128 0.41594141721725464 0.22743518650531769
0.65425676107406616 0.4574611485004425 0.26075318455696106
0.29970380663871765 0.41993415355682373 0.27484756708145142
0.30860188603401184 0.4188118577003479 0.26134690642356873
0.33599212765693665 0.43092703819274902 0.25125047564506531
0.39826923608779907 0.46557894349098206 0.27195066213607788
0.49542492628097534 0.51966273784637451 0.30947390198707581
0.59900826215744019 0.5643390417098999 0.33492061495780945
0.7283363938331604 0.6077767014503479 0.34001463651657104
0.43519994616508484 0.58851766586303711 0.39354628324508667
0.4444831907749176 0.59636753797531128 0.39300793409347534
0.46404749155044556 0.60016489028930664 0.37058645486831665
0.52279812097549438 0.62860572338104248 0.37447646260261536
0.61480450630187988 0.6846623420715332 0.41609424352645874
0.72510063648223877 0.74367696046829224 0.46204444766044617
0.85765522718429565 0.80587232112884521 0.50550347566604614
0.60426121950149536 0.80024319887161255 0.54323285818099976
0.61221319437026978 0.80252939462661743 0.53828591108322144
0.63151246309280396 0.81090599298477173 0.52634501457214355
0.67525666952133179 0.8263479471206665 0.51565378904342651
0.76023381948471069 0.87177199125289917 0.53438395261764526
0.86807137727737427 0.92828220129013062 0.58281248807907104
0.96957427263259888 0.9751659631729126 0.61934572458267212
0.077384695410728455 0.088638663291931152 0.095158778131008148
0.10524541884660721 0.10765225440263748 0.11123661696910858
0.14543852210044861 0.13722324371337891 0.13505765795707703
0.20939870178699493 0.17174944281578064 0.16127909719944
0.30532044172286987 0.21282783150672913 0.19694693386554718
0.41003608703613281 0.24971248209476471 0.22980794310569763
0.53536272048950195 0.26800042390823364 0.2653718888759613
0.1016525998711586 0.1242697611451149 0.11697693169116974
0.12439120560884476 0.1387757807970047 0.12835286557674408
0.17424997687339783 0.16663400828838348 0.14639273285865784
0.24402667582035065 0.20185056328773499 0.1731092780828476
0.33885201811790466 0.24089489877223969 0.20444120466709137
0.44127127528190613 0.2821381688117981 0.23875990509986877
0.57069224119186401 0.30860626697540283 0.2785181999206543
0.15005677938461304 0.2018500417470932 0.15859462320804596
0.16023959219455719 0.20957702398300171 0.15849132835865021
0.21097837388515472 0.23702961206436157 0.17352040112018585
0.27618309855461121 0.26450413465499878 0.18450468778610229
0.37813648581504822 0.30104982852935791 0.20646369457244873
0.48304188251495361 0.33964017033576965 0.23693884909152985
0.62583059072494507 0.39828863739967346 0.29796597361564636
0.21512311697006226 0.29582744836807251 0.21878284215927124
0.22222648561000824 0.30154168605804443 0.21523873507976532
0.26437285542488098 0.32477673888206482 0.22091372311115265
0.32374444603919983 0.3579505980014801 0.23847553133964539
0.4169982373714447 0.39526811242103577 0.25158879160881042
0.52734428644180298 0.4300059974193573 0.25958222150802612
0.66328591108322144 0.46975633502006531 0.28213536739349365
0.32613265514373779 0.44211679697036743 0.3211962878704071
0.335409015417099 0.44866073131561279 0.31593707203865051
0.35541766881942749 0.45466712117195129 0.29906490445137024
0.41465780138969421 0.48508733510971069 0.3122478723526001
0.5107458233833313 0.53853565454483032 0.35062223672866821
0.62433040142059326 0.59337830543518066 0.38427647948265076
0.7568356990814209 0.63372969627380371 0.39298072457313538
0.45260527729988098 0.60936158895492554 0.43541842699050903
0.4639589786529541 0.616912841796875 0.43304142355918884
0.48857122659683228 0.62971878051757812 0.4256453812122345
0.53809440135955811 0.65074616670608521 0.4187626838684082
0.62691742181777954 0.70067238807678223 0.45286956429481506
0.73794549703598022 0.7615354061126709 0.49968692660331726
0.8694959282875061 0.82505893707275391 0.5449378490447998
0.62591058015823364 0.8164251446723938 0.58323228359222412
0.63111990690231323 0.82422953844070435 0.57859474420547485
0.65320205688476562 0.83361411094665527 0.56838786602020264
0.68976140022277832 0.84930586814880371 0.55521494150161743
0.76962971687316895 0.88711893558502197 0.57010519504547119
0.8789941668510437 0.94356268644332886 0.61525446176528931
0.97961884737014771 0.98573523759841919 0.65871500968933105
0.090071976184844971 0.10146898776292801 0.11182720959186554
0.11401129513978958 0.11869951337575912 0.12765328586101532
0.14984293282032013 0.14817015826702118 0.15241414308547974
0.20496030151844025 0.19748128950595856 0.18878878653049469
0.27522888779640198 0.25595897436141968 0.23262795805931091
0.38838034868240356 0.31933817267417908 0.29168832302093506
0.54032635688781738 0.38759756088256836 0.36413142085075378
0.11364211887121201 0.13955003023147583 0.13833124935626984
0.13348069787025452 0.15535515546798706 0.15112863481044769
0.17364074289798737 0.18621625006198883 0.17542146146297455
0.2290804535150528 0.23201943933963776 0.20919360220432281
0.3063778281211853 0.28478699922561646 0.25306007266044617
0.42411300539970398 0.34560954570770264 0.31031224131584167
0.57826972007751465 0.40854743123054504 0.37889823317527771
0.16588267683982849 0.21796435117721558 0.18620304763317108
0.18046654760837555 0.22907879948616028 0.19440378248691559
0.22491134703159332 0.25769606232643127 0.22010588645935059
0.28640362620353699 0.29271653294563293 0.24456015229225159
0.38712871074676514 0.34295058250427246 0.29386109113693237
0.50488275289535522 0.39547717571258545 0.34309926629066467
0.6563146710395813 0.45703375339508057 0.40721434354782104
0.24406477808952332 0.32176017761230469 0.26102918386459351
0.26012453436851501 0.33165529370307922 0.27166962623596191
0.29192003607749939 0.35690343379974365 0.284476637840271
0.34633368253707886 0.38885611295700073 0.29667359590530396
0.45271852612495422 0.43427816033363342 0.32824453711509705
0.58046525716781616 0.48205843567848206 0.36781990528106689
0.73605251312255859 0.54466277360916138 0.42987546324729919
0.36924007534980774 0.47815525531768799 0.37855547666549683
0.37958964705467224 0.48454558849334717 0.38301149010658264
0.39629453420639038 0.49695014953613281 0.38277968764305115
0.43492108583450317 0.51510250568389893 0.37832826375961304
0.53427731990814209 0.5729709267616272 0.41998600959777832
0.64874714612960815 0.622264564037323 0.45032361149787903
0.80172306299209595 0.67109119892120361 0.47566574811935425
0.51082742214202881 0.65364307165145874 0.51637309789657593
0.51378196477890015 0.65602397918701172 0.51035970449447632
0.53256314992904663 0.67056953907012939 0.50624114274978638
0.56925922632217407 0.68950128555297852 0.49901691079139709
0.64418798685073853 0.72825521230697632 0.51653528213500977
0.75829118490219116 0.79093587398529053 0.56431293487548828
0.89641380310058594 0.85175353288650513 0.60726183652877808
0.68427520990371704 0.87044030427932739 0.67793560028076172
0.68083852529525757 0.86818587779998779 0.66622447967529297
0.69679039716720581 0.87705153226852417 0.65779250860214233
0.72566419839859009 0.88960367441177368 0.64415138959884644
0.78036385774612427 0.90899044275283813 0.63135385513305664
0.89499801397323608 0.97009760141372681 0.67282593250274658
0.9963308572769165 0.99711310863494873 0.73771673440933228
0.11502154171466827 0.12324351817369461 0.14251706004142761
0.13102315366268158 0.13617527484893799 0.15520192682743073
0.16507145762443542 0.16624504327774048 0.17988790571689606
0.22546374797821045 0.21933041512966156 0.22165882587432861
0.2888544499874115 0.27535054087638855 0.26368191838264465
0.36301478743553162 0.33926421403884888 0.31281515955924988
0.485635906457901 0.42363962531089783 0.39210817217826843
0.13427895307540894 0.15709559619426727 0.16726104915142059
0.15015563368797302 0.17422690987586975 0.17982019484043121
0.18999484181404114 0.20715722441673279 0.20641954243183136
0.24566242098808289 0.24906478822231293 0.24158383905887604
0.30887439846992493 0.30465540289878845 0.28153041005134583
0.38779753446578979 0.36556535959243774 0.33349764347076416
0.52002418041229248 0.45216408371925354 0.41499009728431702
0.18209359049797058 0.23704266548156738 0.21771825850009918
0.19794221222400665 0.25071793794631958 0.228314608335495
0.23590418696403503 0.27730154991149902 0.25106602907180786
0.28769189119338989 0.31259950995445251 0.28268960118293762
0.35379472374916077 0.36351162195205688 0.32472541928291321
0.45909538865089417 0.43494603037834167 0.387338787317276
0.60994613170623779 0.51907622814178467 0.46984264254570007
0.26245060563087463 0.33749818801879883 0.28643688559532166
0.28368782997131348 0.35790574550628662 0.30647960305213928
0.31801879405975342 0.38412377238273621 0.32966235280036926
0.3593786358833313 0.4124239981174469 0.35114476084709167
0.45569434762001038 0.46791526675224304 0.39596369862556458
0.58368158340454102 0.53128647804260254 0.4607236385345459
0.73886239528656006 0.60337883234024048 0.53083783388137817
0.38616794347763062 0.49406957626342773 0.40852344036102295
0.39868703484535217 0.50384652614593506 0.41646608710289001
0.43041208386421204 0.52546137571334839 0.43658626079559326
0.46718046069145203 0.55397003889083862 0.45497065782546997
0.56422853469848633 0.6082531213760376 0.49029535055160522
0.67860585451126099 0.65544170141220093 0.52213472127914429
0.84753924608230591 0.71498346328735352 0.57223963737487793
0.54670077562332153 0.68398851156234741 0.56627804040908813
0.55687302350997925 0.69021451473236084 0.57282960414886475
0.58835631608963013 0.71171718835830688 0.59124922752380371
0.61957114934921265 0.73409104347229004 0.59772235155105591
0.67634445428848267 0.77254295349121094 0.6003296971321106
0.7783626914024353 0.82279282808303833 0.63525605201721191
0.92761039733886719 0.88466018438339233 0.68062758445739746
0.73866528272628784 0.91001486778259277 0.75437229871749878
0.74906438589096069 0.91729068756103516 0.76008135080337524
0.76370024681091309 0.92769187688827515 0.76220345497131348
0.77938103675842285 0.94241428375244141 0.75333333015441895
0.82396864891052246 0.95940721035003662 0.7390817403793335
0.92313879728317261 0.98903065919876099 0.76202619075775146
0.99732184410095215 0.99873745441436768 0.8199579119682312
0.13993999361991882 0.1468362957239151 0.17853718996047974
0.15304560959339142 0.15974129736423492 0.18774446845054626
0.1919461190700531 0.19627770781517029 0.21806339919567108
0.24572201073169708 0.2403222918510437 0.25393402576446533
0.31249082088470459 0.29915675520896912 0.3002265989780426
0.38687154650688171 0.36102128028869629 0.35157445073127747
0.49537950754165649 0.44977679848670959 0.4257475733757019
0.16138532757759094 0.18734928965568542 0.20497827231884003
0.17500157654285431 0.20065696537494659 0.21593514084815979
0.21004460752010345 0.22862936556339264 0.23894444108009338
0.26771631836891174 0.27423131465911865 0.27748975157737732
0.3296256959438324 0.32658016681671143 0.31878408789634705
0.40894386172294617 0.38743063807487488 0.37215110659599304
0.51941126585006714 0.47863960266113281 0.44764044880867004
0.20564815402030945 0.2629234790802002 0.25469532608985901
0.21994036436080933 0.27530908584594727 0.2649320662021637
0.25543534755706787 0.29745572805404663 0.28603196144104004
0.30843916535377502 0.33477094769477844 0.31816887855529785
0.37432628870010376 0.3874981701374054 0.36310970783233643
0.46440550684928894 0.46219384670257568 0.42342793941497803
0.57683515548706055 0.54750519990921021 0.5034947395324707
0.28010877966880798 0.36143845319747925 0.32573229074478149
0.30144089460372925 0.37714698910713196 0.33898231387138367
0.33211454749107361 0.40196353197097778 0.36019963026046753
0.37244555354118347 0.43456241488456726 0.38777759671211243
0.45316779613494873 0.49120792746543884 0.4406922459602356
0.54886448383331299 0.56191986799240112 0.50413030385971069
0.66650688648223877 0.63984489440917969 0.58476293087005615
0.41166254878044128 0.51833951473236084 0.44568917155265808
0.42358160018920898 0.52811974287033081 0.45501640439033508
0.45608144998550415 0.54795229434967041 0.4763946533203125
0.50421452522277832 0.58387678861618042 0.51206678152084351
0.57835745811462402 0.6348610520362854 0.56046921014785767
0.69188785552978516 0.70192509889602661 0.62083858251571655
0.85414546728134155 0.78353893756866455 0.70750910043716431
0.56699341535568237 0.70467627048492432 0.6070672869682312
0.58476895093917847 0.71721392869949341 0.6181790828704834
0.61973530054092407 0.74039185047149658 0.64120626449584961
0.66526222229003906 0.77379655838012695 0.67213761806488037
0.71695512533187866 0.8151816725730896 0.69903624057769775
0.81114941835403442 0.86844408512115479 0.72990500926971436
0.96832168102264404 0.93326801061630249 0.78233170509338379
0.76108443737030029 0.93306100368499756 0.7942846417427063
0.77813625335693359 0.94473546743392944 0.80751568078994751
0.80337578058242798 0.9592289924621582 0.82152295112609863
0.8423958420753479 0.98068034648895264 0.84818053245544434
0.88383775949478149 0.99365496635437012 0.86202651262283325
0.95466071367263794 0.99788796901702881 0.8626866340637207
0.99888986349105835 0.99874788522720337 0.92421650886535645
0.16716571152210236 0.17649677395820618 0.21503382921218872
0.18289311230182648 0.19062680006027222 0.22726953029632568
0.22057005763053894 0.22451113164424896 0.25479975342750549
0.26895302534103394 0.26916259527206421 0.2892005443572998
0.33659049868583679 0.32311958074569702 0.33891823887825012
0.4142291247844696 0.38731837272644043 0.39397919178009033
0.526958167552948 0.47972998023033142 0.47694051265716553
0.18856851756572723 0.2160021960735321 0.24052837491035461
0.20270393788814545 0.22933322191238403 0.25155740976333618
0.24019922316074371 0.25841596722602844 0.27608984708786011
0.29189178347587585 0.30279150605201721 0.3139205276966095
0.35639801621437073 0.35289350152015686 0.35803484916687012
0.44090661406517029 0.41963943839073181 0.41949379444122314
0.55387836694717407 0.51383006572723389 0.50421690940856934
0.23301590979099274 0.28985655307769775 0.29245752096176147
0.25255927443504333 0.30384624004364014 0.30485701560974121
0.28558310866355896 0.32614520192146301 0.32665625214576721
0.33290967345237732 0.3611430823802948 0.35741448402404785
0.40093892812728882 0.4187295138835907 0.40934711694717407
0.49873623251914978 0.49524158239364624 0.47904542088508606
0.60839498043060303 0.57998311519622803 0.56065100431442261
0.3101864755153656 0.39213871955871582 0.37015277147293091
0.32598245143890381 0.4050711989402771 0.3806937038898468
0.36148744821548462 0.43404623866081238 0.4083898663520813
0.40508478879928589 0.46896237134933472 0.43980410695075989
0.47927209734916687 0.52387994527816772 0.49358683824539185
0.5845104455947876 0.59779828786849976 0.56631731986999512
0.6835668683052063 0.67154383659362793 0.63539814949035645
0.44172108173370361 0.55087077617645264 0.50112038850784302
0.45316314697265625 0.55978542566299438 0.51102125644683838
0.48533231019973755 0.58239638805389404 0.53156030178070068
0.52917921543121338 0.61511111259460449 0.56394368410110474
0.60282176733016968 0.66471892595291138 0.61457377672195435
0.68782562017440796 0.72758489847183228 0.6731189489364624
0.79447752237319946 0.80633449554443359 0.74450099468231201
0.60283631086349487 0.73763847351074219 0.65699940919876099
0.61310619115829468 0.74127978086471558 0.6583627462387085
0.64678788185119629 0.76766371726989746 0.6829102635383606
0.68912065029144287 0.80022150278091431 0.71459591388702393
0.75176537036895752 0.8479313850402832 0.75788253545761108
0.83450281620025635 0.90521037578582764 0.81377720832824707
0.96446597576141357 0.97016745805740356 0.88351571559906006
0.78931421041488647 0.96086329221725464 0.84662729501724243
0.80150473117828369 0.96690660715103149 0.85312819480895996
0.83012533187866211 0.97969484329223633 0.87367171049118042
0.87474310398101807 0.99352419376373291 0.90818697214126587
0.9469611644744873 0.99683767557144165 0.95494318008422852
0.99074071645736694 0.99985533952713013 0.98179644346237183
0.9999271035194397 1 0.99646168947219849
0.20450033247470856 0.21578449010848999 0.26163017749786377
0.22194552421569824 0.23047028481960297 0.27419587969779968
0.25634536147117615 0.26322734355926514 0.29757767915725708
0.30065780878067017 0.29989001154899597 0.33123272657394409
0.36530527472496033 0.35518166422843933 0.38128846883773804
0.45348510146141052 0.42142754793167114 0.45020350813865662
0.56057864427566528 0.51217019557952881 0.5316241979598999
0.22487154603004456 0.25162175297737122 0.28383544087409973
0.24152405560016632 0.26397663354873657 0.29581394791603088
0.2758801281452179 0.29200738668441772 0.31989753246307373
0.32015925645828247 0.32844114303588867 0.35190123319625854
0.38182353973388672 0.38036146759986877 0.40167489647865295
0.48039451241493225 0.45620918273925781 0.48056042194366455
0.59521079063415527 0.55281525850296021 0.56958311796188354
0.2714180052280426 0.32060360908508301 0.33694750070571899
0.29058307409286499 0.33505699038505554 0.35270613431930542
0.32050484418869019 0.35675963759422302 0.37350785732269287
0.36585605144500732 0.39389222860336304 0.40699264407157898
0.43479368090629578 0.45203858613967896 0.4629284143447876
0.5392383337020874 0.53063434362411499 0.54029220342636108
0.64328384399414062 0.61478143930435181 0.62167817354202271
0.35055139660835266 0.43283149600028992 0.43006300926208496
0.36214205622673035 0.44161027669906616 0.43865829706192017
0.3953719437122345 0.46724686026573181 0.46296149492263794
0.44473913311958313 0.50790631771087646 0.50274491310119629
0.51997077465057373 0.56250405311584473 0.55374336242675781
0.61472582817077637 0.6302865743637085 0.62226063013076782
0.71259045600891113 0.70057052373886108 0.6908075213432312
0.47364833950996399 0.58495652675628662 0.5633242130279541
0.48602834343910217 0.59519290924072266 0.57011216878890991
0.51870995759963989 0.61751580238342285 0.59264177083969116
0.56246447563171387 0.64825832843780518 0.62286525964736938
0.63545358180999756 0.7018890380859375 0.67372149229049683
0.72193169593811035 0.76367533206939697 0.73437130451202393
0.83782291412353516 0.84741693735122681 0.81243288516998291
0.63420248031616211 0.7730603814125061 0.7179267406463623
0.64794528484344482 0.7816278338432312 0.72507518529891968
0.67639285326004028 0.801502525806427 0.7361447811126709
0.72429800033569336 0.83736985921859741 0.77486127614974976
0.78164184093475342 0.88062942028045654 0.81987559795379639
0.86592704057693481 0.94202762842178345 0.88342422246932983
0.97334271669387817 0.98946958780288696 0.96226733922958374
0.81859356164932251 0.98034095764160156 0.8925701379776001
0.84347248077392578 0.98979336023330688 0.91909676790237427
0.86942785978317261 0.99421012401580811 0.93828994035720825
0.90639716386795044 0.99602609872817993 0.95886099338531494
0.97113394737243652 0.99864107370376587 0.98699295520782471
0.99566316604614258 1 0.99927055835723877
0.99963593482971191 1 0.99925500154495239
