assets/lut/creative foggynight.cube
# Created by: G'MIC (https://gmic.eu)
TITLE "foggynight"
# LUT size
LUT_3D_SIZE 5
# Data domain
DOMAIN_MIN 0.0 0.0 0.0
DOMAIN_MAX 1.0 1.0 1.0
# LUT data points
0.1062353104352951 0.14299887418746948 0.20665723085403442
0.1838507205247879 0.13527597486972809 0.19445641338825226
0.24996699392795563 0.14233611524105072 0.1797243058681488
0.32399550080299377 0.16477642953395844 0.18585334718227386
0.424763023853302 0.21365930140018463 0.21035456657409668
0.10247388482093811 0.19188015162944794 0.18158113956451416
0.17198571562767029 0.18523231148719788 0.16341501474380493
0.24816690385341644 0.18587979674339294 0.17595250904560089
0.33337661623954773 0.21216709911823273 0.1958342045545578
0.44810298085212708 0.26446935534477234 0.23625640571117401
0.1473831981420517 0.2724049985408783 0.20224246382713318
0.18743449449539185 0.27630364894866943 0.1834101527929306
0.28354242444038391 0.28675496578216553 0.19079999625682831
0.39475467801094055 0.31518268585205078 0.23038068413734436
0.5237002968788147 0.37849760055541992 0.28778091073036194
0.29417094588279724 0.45173698663711548 0.2946479320526123
0.32405993342399597 0.46091395616531372 0.28552079200744629
0.41061201691627502 0.48893535137176514 0.2901148796081543
0.54983812570571899 0.53356480598449707 0.32375290989875793
0.72907048463821411 0.61971074342727661 0.40127360820770264
0.62462741136550903 0.81961911916732788 0.51959693431854248
0.65309131145477295 0.83604139089584351 0.51835757493972778
0.72411119937896729 0.87077206373214722 0.51924145221710205
0.85638886690139771 0.91688728332519531 0.55277484655380249
0.96605592966079712 0.93099093437194824 0.57087427377700806
0.088187485933303833 0.13638733327388763 0.29209744930267334
0.16610060632228851 0.13545089960098267 0.26307937502861023
0.23475804924964905 0.14834876358509064 0.2499387264251709
0.30839154124259949 0.16943849623203278 0.25160297751426697
0.41161289811134338 0.21486108005046844 0.26742514967918396
0.095461949706077576 0.1898108571767807 0.246450275182724
0.1546538919210434 0.18417426943778992 0.24510814249515533
0.2305639386177063 0.18954521417617798 0.24917009472846985
0.3248603343963623 0.21405325829982758 0.26159051060676575
0.44672113656997681 0.26555055379867554 0.28914490342140198
0.15004096925258636 0.26914003491401672 0.26748943328857422
0.1931239515542984 0.27570268511772156 0.26239237189292908
0.27416542172431946 0.28636768460273743 0.25451749563217163
0.38524109125137329 0.31770294904708862 0.28883174061775208
0.52044767141342163 0.38397356867790222 0.34427860379219055
0.30596831440925598 0.44884517788887024 0.35531282424926758
0.33319661021232605 0.45977357029914856 0.35079595446586609
0.4073951244354248 0.4901270866394043 0.34525206685066223
0.54989272356033325 0.53709268569946289 0.37786969542503357
0.72428500652313232 0.62443399429321289 0.45113632082939148
0.63775146007537842 0.819815993309021 0.57366883754730225
0.66639024019241333 0.8352959156036377 0.57392233610153198
0.73342627286911011 0.87154257297515869 0.57608723640441895
0.85050064325332642 0.91827404499053955 0.59835964441299438
0.97941535711288452 0.94658005237579346 0.62524616718292236
0.092154711484909058 0.13173523545265198 0.36607316136360168
0.15776154398918152 0.13606905937194824 0.34515392780303955
0.22580540180206299 0.15169732272624969 0.31218728423118591
0.30194947123527527 0.17784044146537781 0.31512314081192017
0.41274508833885193 0.22902128100395203 0.33956369757652283
0.061000838875770569 0.18827584385871887 0.32893046736717224
0.13445545732975006 0.18601019680500031 0.32758989930152893
0.22831396758556366 0.19425533711910248 0.31280514597892761
0.31739932298660278 0.22186103463172913 0.32284083962440491
0.44017022848129272 0.27824267745018005 0.36155274510383606
0.15278814733028412 0.26949205994606018 0.31975245475769043
0.1913396418094635 0.27626064419746399 0.32585605978965759
0.26895898580551147 0.29244199395179749 0.34092807769775391
0.37940883636474609 0.32589218020439148 0.36840429902076721
0.52210265398025513 0.39894008636474609 0.42076635360717773
0.31857678294181824 0.45542609691619873 0.42165085673332214
0.34818786382675171 0.46275490522384644 0.42701607942581177
0.41877326369285583 0.49103167653083801 0.44067525863647461
0.54744285345077515 0.54711693525314331 0.46517038345336914
0.72463053464889526 0.6394646167755127 0.54299616813659668
0.66320031881332397 0.81669265031814575 0.64821475744247437
0.6973540186882019 0.83678656816482544 0.66621142625808716
0.75541597604751587 0.87345510721206665 0.67588192224502563
0.85263609886169434 0.92081862688064575 0.67842298746109009
0.97616469860076904 0.94865274429321289 0.69683706760406494
0.096434079110622406 0.13205075263977051 0.43571874499320984
0.14974527060985565 0.13386112451553345 0.42424681782722473
0.22727945446968079 0.14987371861934662 0.39377769827842712
0.30589622259140015 0.18189823627471924 0.38271623849868774
0.41394272446632385 0.23943182826042175 0.40590804815292358
0.060933429747819901 0.18758228421211243 0.41559836268424988
0.13185766339302063 0.18945762515068054 0.4119114875793457
0.22899866104125977 0.1958625465631485 0.40173447132110596
0.32328969240188599 0.22939956188201904 0.39552929997444153
0.44393172860145569 0.29149040579795837 0.42917963862419128
0.14072899520397186 0.27926519513130188 0.40164849162101746
0.18077294528484344 0.28430905938148499 0.41145104169845581
0.26578214764595032 0.29964849352836609 0.42936620116233826
0.38865667581558228 0.33931329846382141 0.44481721520423889
0.52412652969360352 0.4111945629119873 0.48886460065841675
0.3380582332611084 0.46559628844261169 0.48343127965927124
0.37090572714805603 0.47683477401733398 0.49272415041923523
0.44027057290077209 0.50506269931793213 0.51971125602722168
0.55849039554595947 0.56044334173202515 0.56489640474319458
0.73208814859390259 0.65675812959671021 0.64082014560699463
0.6918448805809021 0.84222316741943359 0.73267769813537598
0.71564352512359619 0.85252481698989868 0.74229848384857178
0.7807660698890686 0.88167679309844971 0.76344782114028931
0.87204766273498535 0.92663043737411499 0.79410874843597412
0.97053968906402588 0.9523923397064209 0.79504102468490601
0.09519735723733902 0.13592994213104248 0.5036017894744873
0.14580211043357849 0.13892951607704163 0.49966523051261902
0.22745098173618317 0.15381629765033722 0.48374363780021667
0.31845617294311523 0.19014056026935577 0.46861985325813293
0.42865756154060364 0.26287874579429626 0.48454058170318604
0.081574477255344391 0.18741445243358612 0.49172958731651306
0.13976728916168213 0.18971870839595795 0.49362275004386902
0.2338973730802536 0.20475295186042786 0.49339419603347778
0.33895745873451233 0.23629610240459442 0.48804605007171631
0.46060937643051147 0.30973389744758606 0.50802487134933472
0.14270308613777161 0.2908165454864502 0.50583541393280029
0.18561981618404388 0.29808497428894043 0.5145258903503418
0.28441974520683289 0.31226101517677307 0.52376949787139893
0.41071903705596924 0.35569247603416443 0.5457991361618042
0.55438929796218872 0.4351295530796051 0.57692325115203857
0.36092653870582581 0.48934721946716309 0.57136160135269165
0.39028042554855347 0.49752384424209595 0.58290815353393555
0.45783817768096924 0.52950370311737061 0.61875933408737183
0.58222812414169312 0.58623409271240234 0.66963011026382446
0.74503374099731445 0.67246383428573608 0.72038352489471436
0.72384160757064819 0.86263585090637207 0.80247598886489868
0.74790990352630615 0.87134033441543579 0.81151741743087769
0.80705147981643677 0.90191149711608887 0.83656191825866699
0.88761359453201294 0.93335938453674316 0.86857306957244873
0.97018659114837646 0.95486050844192505 0.88600307703018188
