assets/lut/creative tealmagentagold.cube
# Created by: G'MIC (https://gmic.eu)
TITLE "tealmagentagold"
# LUT size
LUT_3D_SIZE 13
# Data domain
DOMAIN_MIN 0.0 0.0 0.0
DOMAIN_MAX 1.0 1.0 1.0
# LUT data points
0.025429071858525276 0.081065744161605835 0.059833258390426636
0.1128283366560936 0.096237987279891968 0.072125561535358429
0.22766697406768799 0.10644417256116867 0.089927911758422852
0.32921233773231506 0.11879890412092209 0.095242522656917572
0.42304530739784241 0.12734770774841309 0.093516208231449127
0.51398223638534546 0.12741811573505402 0.091742798686027527
0.60291010141372681 0.11999688297510147 0.091383211314678192
0.68910878896713257 0.10345052182674408 0.093925461173057556
0.77307766675949097 0.083101995289325714 0.097177959978580475
0.85437518358230591 0.063038572669029236 0.099023334681987762
0.92933154106140137 0.044395625591278076 0.097795389592647552
0.98909521102905273 0.028865395113825798 0.091780476272106171
1 0.018178123980760574 0.081213980913162231
0.06019408255815506 0.1787181943655014 0.085355587303638458
0.13970957696437836 0.18093062937259674 0.087793640792369843
0.24163922667503357 0.18384973704814911 0.09239514172077179
0.34053847193717957 0.18586292862892151 0.097931206226348877
0.43060261011123657 0.18702410161495209 0.099726341664791107
0.51810896396636963 0.18615837395191193 0.09824950248003006
0.60484915971755981 0.17921788990497589 0.09755484014749527
0.69027471542358398 0.16503959894180298 0.098711885511875153
0.77442950010299683 0.14796538650989532 0.10011803358793259
0.85586869716644287 0.13192392885684967 0.10043241083621979
0.93126046657562256 0.11715837568044662 0.097586750984191895
0.99027556180953979 0.10405716300010681 0.09083111584186554
1 0.092370815575122833 0.08105023205280304
0.1045648455619812 0.26314377784729004 0.098791249096393585
0.17737597227096558 0.26324748992919922 0.098028160631656647
0.26718372106552124 0.2606254518032074 0.09646904468536377
0.35794186592102051 0.25650399923324585 0.098431728780269623
0.44227531552314758 0.25344046950340271 0.10065478086471558
0.52508443593978882 0.24978689849376678 0.10029811412096024
0.60921198129653931 0.24127055704593658 0.10050912201404572
0.69233483076095581 0.22829854488372803 0.10134283453226089
0.77532309293746948 0.21434949338436127 0.10175006091594696
0.85790151357650757 0.20207494497299194 0.10064773261547089
0.93299198150634766 0.19068199396133423 0.09737066924571991
0.99029940366744995 0.1802741140127182 0.090198412537574768
1 0.17112471163272858 0.080246895551681519
0.15598213672637939 0.34080713987350464 0.10646574944257736
0.21914644539356232 0.34077554941177368 0.10686522722244263
0.29520383477210999 0.33612987399101257 0.10539965331554413
0.37818562984466553 0.32892683148384094 0.10352028906345367
0.46002238988876343 0.32267159223556519 0.10202100872993469
0.53939235210418701 0.31683990359306335 0.10175476223230362
0.6199493408203125 0.30744260549545288 0.10288398712873459
0.69931185245513916 0.2965424656867981 0.10261842608451843
0.77936279773712158 0.28569269180297852 0.10134667903184891
0.86023157835006714 0.27539119124412537 0.10058924555778503
0.93503642082214355 0.26575282216072083 0.099673174321651459
0.98995333909988403 0.25724038481712341 0.093415774405002594
1 0.25018355250358582 0.081244461238384247
0.20753867924213409 0.4147372841835022 0.11020325124263763
0.2593817412853241 0.41455528140068054 0.11292602121829987
0.321827232837677 0.41019454598426819 0.11236084252595901
0.39789503812789917 0.40174701809883118 0.10898088663816452
0.47867131233215332 0.3927551805973053 0.10591987520456314
0.55733591318130493 0.38420611619949341 0.10601809620857239
0.63433635234832764 0.37608292698860168 0.1065426841378212
0.7091403603553772 0.36772561073303223 0.10376163572072983
0.78419637680053711 0.35932725667953491 0.09896908700466156
0.86168164014816284 0.35058271884918213 0.097664624452590942
0.93700122833251953 0.34141549468040466 0.10113517940044403
0.98863816261291504 0.33413797616958618 0.096599951386451721
1 0.32966381311416626 0.080765910446643829
0.2520478367805481 0.48545292019844055 0.11118534952402115
0.29402574896812439 0.48460564017295837 0.11595092713832855
0.34700226783752441 0.48032447695732117 0.11591597646474838
0.41526508331298828 0.47339537739753723 0.11212481558322906
0.49242201447486877 0.46518081426620483 0.10900231450796127
0.57115727663040161 0.45613542199134827 0.1098749190568924
0.6465994119644165 0.44777125120162964 0.11028604209423065
0.71930110454559326 0.43947386741638184 0.10449086874723434
0.7899327278137207 0.43234738707542419 0.095714524388313293
0.86251366138458252 0.42477911710739136 0.091367371380329132
0.93549817800521851 0.41591256856918335 0.095149949193000793
0.98403960466384888 0.41004076600074768 0.090979330241680145
0.99964886903762817 0.40856549143791199 0.073841318488121033
0.28111380338668823 0.55319970846176147 0.10892137885093689
0.31641748547554016 0.55193740129470825 0.11552727222442627
0.36326569318771362 0.54808354377746582 0.11573871970176697
0.42692303657531738 0.54253625869750977 0.11214855313301086
0.5014197826385498 0.53555315732955933 0.10970979928970337
0.57814359664916992 0.5280907154083252 0.11022593080997467
0.65316116809844971 0.5201534628868103 0.10906526446342468
0.72594857215881348 0.51125043630599976 0.10184349864721298
0.79672002792358398 0.50391256809234619 0.092618890106678009
0.8682091236114502 0.49728173017501831 0.08750578761100769
0.93685883283615112 0.48975446820259094 0.087165474891662598
0.98329806327819824 0.48627451062202454 0.079430297017097473
0.99982839822769165 0.48647072911262512 0.060656409710645676
0.29564106464385986 0.62047797441482544 0.1004691943526268
0.32677918672561646 0.61863875389099121 0.10854744911193848
0.37069043517112732 0.61549836397171021 0.10804887861013412
0.43156459927558899 0.61101514101028442 0.1038130521774292
0.50395756959915161 0.60488873720169067 0.10124809294939041
0.57812619209289551 0.59874516725540161 0.099439717829227448
0.6494286060333252 0.5927131175994873 0.095310330390930176
0.72157275676727295 0.58552736043930054 0.088931336998939514
0.79465925693511963 0.57910341024398804 0.082839623093605042
0.86824303865432739 0.57319134473800659 0.079917117953300476
0.93579816818237305 0.56722873449325562 0.077115215361118317
0.98228371143341064 0.56524026393890381 0.064884796738624573
0.99997758865356445 0.56733399629592896 0.042522162199020386
0.30296370387077332 0.68953263759613037 0.080353155732154846
0.33216822147369385 0.68800896406173706 0.087125785648822784
0.37286457419395447 0.68543756008148193 0.086306385695934296
0.42901614308357239 0.68183541297912598 0.082308255136013031
0.4961860179901123 0.67718863487243652 0.078939802944660187
0.56547385454177856 0.67265510559082031 0.075258620083332062
0.63338714838027954 0.66897124052047729 0.069942072033882141
0.70418792963027954 0.66475379467010498 0.064743846654891968
0.77912181615829468 0.65982627868652344 0.062220301479101181
0.85784912109375 0.65391021966934204 0.06407967209815979
0.92943388223648071 0.64851868152618408 0.06377226859331131
0.97827595472335815 0.64751189947128296 0.049437057226896286
0.99918276071548462 0.65018749237060547 0.022778589278459549
0.30157434940338135 0.76090759038925171 0.048429228365421295
0.33037984371185303 0.76016926765441895 0.051132816821336746
0.36765739321708679 0.75824695825576782 0.050039716064929962
0.41830563545227051 0.75573289394378662 0.047133456915616989
0.47950229048728943 0.75282555818557739 0.044591162353754044
0.54460960626602173 0.7493775486946106 0.041411995887756348
0.61146742105484009 0.74797230958938599 0.037790514528751373
0.68164491653442383 0.745033860206604 0.035005576908588409
0.7581055760383606 0.74179071187973022 0.035456206649541855
0.84144604206085205 0.73612290620803833 0.041488334536552429
0.91938871145248413 0.73074877262115479 0.046558305621147156
0.97447538375854492 0.72966670989990234 0.03613695502281189
0.99853354692459106 0.73218786716461182 0.010222640819847584
0.28461304306983948 0.83296501636505127 0.015403597615659237
0.31474825739860535 0.83354145288467407 0.014381512999534607
0.35164716839790344 0.83281600475311279 0.012867527082562447
0.39976063370704651 0.83070170879364014 0.012098873034119606
0.45769059658050537 0.8290666937828064 0.011901077814400196
0.52144527435302734 0.82649123668670654 0.011489658616483212
0.58895331621170044 0.82637208700180054 0.011357355862855911
0.66118806600570679 0.82286900281906128 0.011526145040988922
0.73923957347869873 0.82087957859039307 0.013134212233126163
0.8230164647102356 0.81638383865356445 0.016814243048429489
0.90311580896377563 0.81170642375946045 0.020703738555312157
0.96604198217391968 0.81033504009246826 0.017737893387675285
0.99818861484527588 0.81045758724212646 0.0045062494464218616
0.2550017237663269 0.90536236763000488 0.00077622354729101062
0.28780388832092285 0.90671217441558838 0.00047840792103670537
0.3263745903968811 0.907062828540802 0.00025275736697949469
0.37538865208625793 0.90626311302185059 0.00025275736697949469
0.43336167931556702 0.90414124727249146 0.00029422534862533212
0.49763143062591553 0.90347278118133545 0.00051682413322851062
0.56668716669082642 0.901283860206604 0.0006103515625
0.64036482572555542 0.8997349739074707 0.00099982472602277994
0.71913963556289673 0.89718377590179443 0.0015062518650665879
0.80078744888305664 0.89384657144546509 0.0018468670314177871
0.87888950109481812 0.89044380187988281 0.001595231587998569
0.94481170177459717 0.88797968626022339 0.0010590945603325963
0.99113482236862183 0.88676440715789795 0.0001761043822625652
0.22100192308425903 0.97593390941619873 0
0.25684550404548645 0.9777151346206665 0
0.29817140102386475 0.97843074798583984 0
0.34905970096588135 0.97830969095230103 0
0.40836140513420105 0.97753095626831055 0
0.47382345795631409 0.97583329677581787 0
0.54404288530349731 0.97528928518295288 0
0.6183934211730957 0.97371023893356323 0
0.69608789682388306 0.97209680080413818 0
0.77494651079177856 0.96953141689300537 0
0.85040408372879028 0.96682089567184448 0
0.91714054346084595 0.96443802118301392 0
0.97247999906539917 0.96181297302246094 0
0.020802935585379601 0.085250034928321838 0.14054490625858307
0.1174975261092186 0.099024452269077301 0.1490035206079483
0.23264437913894653 0.11257557570934296 0.16125264763832092
0.33432912826538086 0.12447477132081985 0.1666424423456192
0.42659732699394226 0.12996168434619904 0.16814263164997101
0.51662415266036987 0.12923511862754822 0.1679752916097641
0.60550928115844727 0.12252604216337204 0.16769586503505707
0.69137114286422729 0.10728941112756729 0.16930605471134186
0.77490061521530151 0.087628759443759918 0.17099553346633911
0.85513132810592651 0.067447096109390259 0.17139704525470734
0.9288591742515564 0.048807647079229355 0.16899731755256653
0.98882460594177246 0.032650396227836609 0.16305574774742126
1 0.020870821550488472 0.15409262478351593
0.052495516836643219 0.18021690845489502 0.16384483873844147
0.14296965301036835 0.18203236162662506 0.16402803361415863
0.24405588209629059 0.1860073059797287 0.16626420617103577
0.34194275736808777 0.1872747540473938 0.17098182439804077
0.43109101057052612 0.18559591472148895 0.17443113029003143
0.51840865612030029 0.18456877768039703 0.17390984296798706
0.60584336519241333 0.18011677265167236 0.17232181131839752
0.69100105762481689 0.16804982721805573 0.17165473103523254
0.77475690841674805 0.15218818187713623 0.17213653028011322
0.85515385866165161 0.13583986461162567 0.1708562970161438
0.92991656064987183 0.12077166885137558 0.16635425388813019
0.98899620771408081 0.10740070790052414 0.15952096879482269
1 0.095868445932865143 0.15131267905235291
0.098760806024074554 0.26462608575820923 0.17645181715488434
0.17633208632469177 0.26386892795562744 0.17380575835704803
0.26564750075340271 0.26082491874694824 0.172137051820755
0.35703554749488831 0.25601115822792053 0.17351610958576202
0.44169282913208008 0.25192669034004211 0.17479486763477325
0.52440011501312256 0.24863311648368835 0.1743856817483902
0.60875731706619263 0.2419438362121582 0.17465868592262268
0.69208961725234985 0.23133088648319244 0.17292606830596924
0.77493470907211304 0.21865519881248474 0.17169976234436035
0.85543537139892578 0.20581106841564178 0.16870622336864471
0.92972195148468018 0.1937059611082077 0.16298183798789978
0.98815429210662842 0.18298715353012085 0.1552465558052063
1 0.17392437160015106 0.14791405200958252
0.15379701554775238 0.34166547656059265 0.18168285489082336
0.21859355270862579 0.34097656607627869 0.1802394837141037
0.29608926177024841 0.33615705370903015 0.17792621254920959
0.38013729453086853 0.32874438166618347 0.17546127736568451
0.46209189295768738 0.32176181674003601 0.17467200756072998
0.53982186317443848 0.3169502317905426 0.17390534281730652
0.61889618635177612 0.30899187922477722 0.17353178560733795
0.69773387908935547 0.29944178462028503 0.17197155952453613
0.77717190980911255 0.28927785158157349 0.16929762065410614
0.85633975267410278 0.27848738431930542 0.16628813743591309
0.92931258678436279 0.26806551218032837 0.16236455738544464
0.98536771535873413 0.25945526361465454 0.15576149523258209
1 0.25263315439224243 0.14680479466915131
0.20920459926128387 0.41491910815238953 0.18284755945205688
0.26131612062454224 0.41471138596534729 0.18376317620277405
0.32534769177436829 0.41042891144752502 0.18138749897480011
0.40166276693344116 0.40224584937095642 0.17701785266399384
0.48170334100723267 0.39345923066139221 0.17375592887401581
0.55830579996109009 0.38604095578193665 0.17381282150745392
0.63336086273193359 0.37806779146194458 0.17367677390575409
0.7079998254776001 0.36976537108421326 0.17100560665130615
0.78240787982940674 0.36156705021858215 0.16560746729373932
0.85860055685043335 0.35238045454025269 0.16204097867012024
0.92963391542434692 0.34278073906898499 0.16167479753494263
0.98067080974578857 0.33571887016296387 0.157305046916008
0.99982315301895142 0.33144482970237732 0.14567053318023682
0.25555592775344849 0.48456013202667236 0.18140104413032532
0.29618933796882629 0.48473396897315979 0.18365368247032166
0.34863162040710449 0.4815514087677002 0.1819518655538559
0.4158424437046051 0.47551766037940979 0.17693239450454712
0.4921991229057312 0.46823909878730774 0.1719391942024231
0.57001733779907227 0.45857146382331848 0.17328037321567535
0.64680784940719604 0.44810056686401367 0.17517063021659851
0.72057288885116577 0.43915411829948425 0.17127948999404907
0.79110985994338989 0.43198329210281372 0.16278833150863647
0.86233752965927124 0.42476511001586914 0.15686525404453278
0.93237686157226562 0.4159151017665863 0.15799173712730408
0.97841238975524902 0.41020315885543823 0.15361003577709198
0.99822086095809937 0.40906861424446106 0.13953813910484314
0.28573194146156311 0.55258500576019287 0.17695921659469604
0.31804290413856506 0.5523030161857605 0.18018227815628052
0.36202442646026611 0.54956459999084473 0.17893961071968079
0.42435792088508606 0.54470145702362061 0.17536318302154541
0.49890428781509399 0.53776401281356812 0.17274601757526398
0.5771176815032959 0.52858704328536987 0.17341837286949158
0.65454113483428955 0.51790255308151245 0.17389184236526489
0.73102980852127075 0.50708776712417603 0.17005437612533569
0.80179828405380249 0.50049889087677002 0.16166828572750092
0.87102764844894409 0.49565112590789795 0.15487554669380188
0.9389299750328064 0.48860377073287964 0.15304814279079437
0.98354971408843994 0.48627451062202454 0.14552593231201172
0.99942910671234131 0.48750495910644531 0.12862148880958557
0.30149650573730469 0.62049567699432373 0.1671774685382843
0.32906758785247803 0.61955535411834717 0.17105551064014435
0.36837002635002136 0.6170162558555603 0.17013885080814362
0.42737448215484619 0.61275041103363037 0.16772618889808655
0.49939814209938049 0.60652738809585571 0.1660531610250473
0.57482761144638062 0.59912741184234619 0.16479377448558807
0.64958137273788452 0.59016072750091553 0.16252736747264862
0.72652751207351685 0.58038085699081421 0.15894533693790436
0.80036324262619019 0.57436585426330566 0.15363767743110657
0.87153762578964233 0.57093650102615356 0.14890670776367188
0.93824821710586548 0.56626433134078979 0.14467044174671173
0.98414021730422974 0.56508004665374756 0.13243438303470612
0.99998742341995239 0.56832963228225708 0.11145825684070587
0.30774664878845215 0.68985021114349365 0.14883805811405182
0.33406370878219604 0.68918341398239136 0.15247862040996552
0.37058985233306885 0.68669939041137695 0.15185683965682983
0.42481088638305664 0.68340718746185303 0.14977464079856873
0.49117365479469299 0.67850679159164429 0.14748656749725342
0.5610276460647583 0.67336678504943848 0.14433297514915466
0.63074523210525513 0.66782993078231812 0.1397564709186554
0.70483100414276123 0.66164612770080566 0.13624188303947449
0.78304374217987061 0.65605658292770386 0.1349407285451889
0.86063659191131592 0.65159505605697632 0.13486230373382568
0.93112277984619141 0.64761579036712646 0.13163807988166809
0.97900760173797607 0.64756768941879272 0.11615005135536194
0.99916172027587891 0.65129226446151733 0.089936137199401855
0.30298566818237305 0.76142400503158569 0.12109078466892242
0.32961750030517578 0.76130181550979614 0.12281262129545212
0.36483281850814819 0.75979101657867432 0.12177062779664993
0.41445168852806091 0.75720775127410889 0.12055759876966476
0.474863201379776 0.75367546081542969 0.11815637350082397
0.54016947746276855 0.75008726119995117 0.1149907261133194
0.60792511701583862 0.74725008010864258 0.11112812906503677
0.68071281909942627 0.74353599548339844 0.10936611145734787
0.76044094562530518 0.7390214204788208 0.11056549847126007
0.84284931421279907 0.73419302701950073 0.11345371603965759
0.91892260313034058 0.73005545139312744 0.11277773976325989
0.9716869592666626 0.73016542196273804 0.097947888076305389
0.99772202968597412 0.73320204019546509 0.070507019758224487
0.28283816576004028 0.83391940593719482 0.086767129600048065
0.31128504872322083 0.8346254825592041 0.08437761664390564
0.34671205282211304 0.83426415920257568 0.081788904964923859
0.39481920003890991 0.8324158787727356 0.081556610763072968
0.45295488834381104 0.83034056425094604 0.081089884042739868
0.51695173978805542 0.82696694135665894 0.080082371830940247
0.58520972728729248 0.82581788301467896 0.079910099506378174
0.65870243310928345 0.82248067855834961 0.081491120159626007
0.73838788270950317 0.81954187154769897 0.084095537662506104
0.82128763198852539 0.81556791067123413 0.085311010479927063
0.89927393198013306 0.81206709146499634 0.083334125578403473
0.96024829149246216 0.8108101487159729 0.07418881356716156
0.99635273218154907 0.81080955266952515 0.055663600564002991
0.25040239095687866 0.90646255016326904 0.0481693334877491
0.28099000453948975 0.90833884477615356 0.041920486837625504
0.31853049993515015 0.90845298767089844 0.037308413535356522
0.36808097362518311 0.90759748220443726 0.038619875907897949
0.4272923469543457 0.90580481290817261 0.041168916970491409
0.49238914251327515 0.90367859601974487 0.042892605066299438
0.56203240156173706 0.90155607461929321 0.046167619526386261
0.63651692867279053 0.89975011348724365 0.051596250385046005
0.71543186902999878 0.897064208984375 0.054881691932678223
0.79669171571731567 0.89446806907653809 0.051107503473758698
0.87411606311798096 0.89186334609985352 0.042160391807556152
0.93995171785354614 0.88980066776275635 0.036089476197957993
0.98884975910186768 0.88799017667770386 0.030215544626116753
0.21424281597137451 0.97728437185287476 0.017781516537070274
0.24758836627006531 0.97913146018981934 0.012762301601469517
0.28813499212265015 0.97984522581100464 0.0094339707866311073
0.34029212594032288 0.9793211817741394 0.010574639774858952
0.40105575323104858 0.97845602035522461 0.012612047605216503
0.4675789475440979 0.97678995132446289 0.014601344242691994
0.53841036558151245 0.97536766529083252 0.018040360882878304
0.61331337690353394 0.97399085760116577 0.023749437183141708
0.69139355421066284 0.97224187850952148 0.026499923318624496
0.77010369300842285 0.97050672769546509 0.020071500912308693
0.8455689549446106 0.96887850761413574 0.0096808793023228645
0.91334527730941772 0.96602219343185425 0.0065043279901146889
0.97077256441116333 0.96474349498748779 0.0083239683881402016
0.01737346313893795 0.098894692957401276 0.22881162166595459
0.12200688570737839 0.10716106742620468 0.2366773784160614
0.24051238596439362 0.11470963805913925 0.24554862082004547
0.33862701058387756 0.12290568649768829 0.24931332468986511
0.42973488569259644 0.12627111375331879 0.25029537081718445
0.51906532049179077 0.12534938752651215 0.24999597668647766
0.60703587532043457 0.11886344105005264 0.24876230955123901
0.69204890727996826 0.10574038326740265 0.24860218167304993
0.77489829063415527 0.088082514703273773 0.24817532300949097
0.85427039861679077 0.068682022392749786 0.2476060688495636
0.9262765645980835 0.050642531365156174 0.24308572709560394
0.98711740970611572 0.034426026046276093 0.23717273771762848
1 0.022705841809511185 0.22870498895645142
0.049821920692920685 0.17954893410205841 0.24666029214859009
0.15061315894126892 0.18160682916641235 0.24875280261039734
0.24899742007255554 0.18455950915813446 0.25240138173103333
0.34382203221321106 0.1858658492565155 0.25484943389892578
0.43315580487251282 0.18389810621738434 0.25559380650520325
0.52072840929031372 0.18154455721378326 0.25452014803886414
0.60740268230438232 0.17660565674304962 0.25249645113945007
0.69194436073303223 0.16692520678043365 0.25054085254669189
0.77459287643432617 0.15290422737598419 0.24840052425861359
0.85438823699951172 0.13722267746925354 0.2460981160402298
0.92654603719711304 0.12196216732263565 0.24077394604682922
0.98687452077865601 0.10881724953651428 0.23357556760311127
1 0.097235254943370819 0.22551056742668152
0.098451904952526093 0.26122933626174927 0.25530177354812622
0.18019621074199677 0.26068654656410217 0.25484535098075867
0.26673626899719238 0.25916442275047302 0.25545972585678101
0.35599368810653687 0.25588613748550415 0.25580909848213196
0.44302695989608765 0.25014904141426086 0.25557699799537659
0.52746880054473877 0.24406029284000397 0.25450977683067322
0.61062437295913696 0.23870363831520081 0.25248491764068604
0.69271385669708252 0.23096278309822083 0.24960482120513916
0.7741512656211853 0.22008165717124939 0.24710638821125031
0.8535315990447998 0.20710614323616028 0.24310383200645447
0.9257514476776123 0.19465155899524689 0.23669900000095367
0.98503965139389038 0.18410123884677887 0.22882439196109772
1 0.17492689192295074 0.22145891189575195
0.1557767242193222 0.3389228880405426 0.25628134608268738
0.22111371159553528 0.33828124403953552 0.25593104958534241
0.29756692051887512 0.33504092693328857 0.25586396455764771
0.37964636087417603 0.32995259761810303 0.25400814414024353
0.46335297822952271 0.32018682360649109 0.25379189848899841
0.54210186004638672 0.31269904971122742 0.25255471467971802
0.61988121271133423 0.30694124102592468 0.24986103177070618
0.697742760181427 0.29992976784706116 0.24705705046653748
0.77651655673980713 0.29072949290275574 0.2433103621006012
0.85477858781814575 0.27942767739295959 0.23918578028678894
0.92552554607391357 0.26844865083694458 0.23402340710163116
0.98217415809631348 0.25995275378227234 0.22676330804824829
1 0.25315433740615845 0.21864092350006104
0.2137041836977005 0.41186445951461792 0.25563797354698181
0.26423525810241699 0.41277676820755005 0.25609806180000305
0.32768440246582031 0.40987709164619446 0.25562465190887451
0.40320074558258057 0.40285548567771912 0.25189822912216187
0.48306620121002197 0.39260745048522949 0.24987202882766724
0.55922603607177734 0.38449239730834961 0.2491033524274826
0.6331787109375 0.37759548425674438 0.24752531945705414
0.70757114887237549 0.37079834938049316 0.24394272267818451
0.7823978066444397 0.36297512054443359 0.23908239603042603
0.85868692398071289 0.35258695483207703 0.23480227589607239
0.92788136005401611 0.34262922406196594 0.23147161304950714
0.9797443151473999 0.33561348915100098 0.22560583055019379
0.99997377395629883 0.33165115118026733 0.21605494618415833
