assets/lut/creative futuristicbleak 04.cube
# Created by: G'MIC (https://gmic.eu)
TITLE "futuristicbleak_4"
# LUT size
LUT_3D_SIZE 13
# Data domain
DOMAIN_MIN 0.0 0.0 0.0
DOMAIN_MAX 1.0 1.0 1.0
# LUT data points
0.1001313328742981 0.10173536092042923 0.10479617863893509
0.11098682135343552 0.10837311297655106 0.1126604899764061
0.12606543302536011 0.11883433908224106 0.12223569303750992
0.15521590411663055 0.1372079998254776 0.13931375741958618
0.18464106321334839 0.15371735394001007 0.15382671356201172
0.21458293497562408 0.17369765043258667 0.17126251757144928
0.2453954666852951 0.19706536829471588 0.19104327261447906
0.28111112117767334 0.22149583697319031 0.21410274505615234
0.3258289098739624 0.25293236970901489 0.24096366763114929
0.37091627717018127 0.28328213095664978 0.26688659191131592
0.41866818070411682 0.31552794575691223 0.29423898458480835
0.47016692161560059 0.34834456443786621 0.32240849733352661
0.51938354969024658 0.3796115517616272 0.35122749209403992
0.11370266228914261 0.11979258060455322 0.11892426759004593
0.12328778207302094 0.12519659101963043 0.12393198907375336
0.13940629363059998 0.13509441912174225 0.13152419030666351
0.16653013229370117 0.15012817084789276 0.14652423560619354
0.19610503315925598 0.1665947437286377 0.16138748824596405
0.22633685171604156 0.18821737170219421 0.17916646599769592
0.25431516766548157 0.21019966900348663 0.19762052595615387
0.28757917881011963 0.23423054814338684 0.21912036836147308
0.33192801475524902 0.26379597187042236 0.24526378512382507
0.37976419925689697 0.29447421431541443 0.27325451374053955
0.42643806338310242 0.32433456182479858 0.2998695969581604
0.4758145809173584 0.35498520731925964 0.32607996463775635
0.52283680438995361 0.38356867432594299 0.35121151804924011
0.13814602792263031 0.15118543803691864 0.14448393881320953
0.14575996994972229 0.15531252324581146 0.14771616458892822
0.1620299220085144 0.1653454601764679 0.1534745842218399
0.1863858699798584 0.18093766272068024 0.1654181033372879
0.21264748275279999 0.19503091275691986 0.17741285264492035
0.24049355089664459 0.21074998378753662 0.19024933874607086
0.27022156119346619 0.23039194941520691 0.20733310282230377
0.30457499623298645 0.25387662649154663 0.2292976975440979
0.34834891557693481 0.28016677498817444 0.25432434678077698
0.39581820368766785 0.31077325344085693 0.28249362111091614
0.4415382444858551 0.34060531854629517 0.30677744746208191
0.49121463298797607 0.37152352929115295 0.33404618501663208
0.53240048885345459 0.39611929655075073 0.35722589492797852
0.17424222826957703 0.19846640527248383 0.17953774333000183
0.18176218867301941 0.20133543014526367 0.18322135508060455
0.19605199992656708 0.21000385284423828 0.18904560804367065
0.21922594308853149 0.22513692080974579 0.20094409584999084
0.23953740298748016 0.238414466381073 0.21130283176898956
0.26345112919807434 0.25001749396324158 0.22004806995391846
0.29087573289871216 0.26315373182296753 0.23049409687519073
0.32674267888069153 0.28283911943435669 0.24674966931343079
0.37218910455703735 0.30731558799743652 0.26849862933158875
0.41637131571769714 0.3333638608455658 0.29117479920387268
0.46041491627693176 0.36040687561035156 0.3140721321105957
0.50789189338684082 0.38864767551422119 0.34070864319801331
0.56123310327529907 0.4180566668510437 0.37069708108901978
0.21451278030872345 0.2425558865070343 0.21783250570297241
0.22070720791816711 0.24609559774398804 0.22088724374771118
0.23314392566680908 0.25396466255187988 0.22681351006031036
0.25158417224884033 0.26465946435928345 0.23485583066940308
0.27146905660629272 0.27756762504577637 0.24652893841266632
0.29126805067062378 0.29018902778625488 0.2549489438533783
0.31674009561538696 0.30341258645057678 0.26363831758499146
0.35096350312232971 0.31914487481117249 0.27544909715652466
0.39716169238090515 0.34216594696044922 0.29386010766029358
0.44200614094734192 0.3638664186000824 0.31105703115463257
0.48493993282318115 0.38528931140899658 0.3291589617729187
0.53521251678466797 0.41364061832427979 0.35481530427932739
0.59247595071792603 0.44516530632972717 0.38501065969467163
0.25649282336235046 0.28697770833969116 0.25665283203125
0.2629147469997406 0.29036524891853333 0.25975179672241211
0.27226921916007996 0.29679590463638306 0.26359277963638306
0.28973162174224854 0.30703499913215637 0.27164337038993835
0.30669435858726501 0.31699907779693604 0.28028887510299683
0.3281046450138092 0.33197230100631714 0.29182615876197815
0.35147580504417419 0.34640276432037354 0.3018629252910614
0.38174569606781006 0.36175882816314697 0.31212666630744934
0.42542952299118042 0.38139039278030396 0.32781791687011719
0.46935030817985535 0.40389952063560486 0.34369927644729614
0.51204270124435425 0.42485219240188599 0.3586219847202301
0.56596070528030396 0.45452424883842468 0.38277259469032288
0.62354260683059692 0.48518198728561401 0.4092104434967041
0.30111402273178101 0.33575791120529175 0.2963569164276123
0.3068397045135498 0.33843153715133667 0.29904571175575256
0.31558918952941895 0.34383133053779602 0.3012365996837616
0.32843589782714844 0.35305303335189819 0.30580359697341919
0.34479901194572449 0.36331605911254883 0.31332123279571533
0.36866173148155212 0.37772771716117859 0.32619449496269226
0.39438113570213318 0.39318549633026123 0.34008496999740601
0.42926323413848877 0.41553929448127747 0.35720738768577576
0.46592497825622559 0.43527990579605103 0.37108632922172546
0.50591182708740234 0.45837479829788208 0.38518083095550537
0.54511302709579468 0.47824275493621826 0.39812657237052917
0.59568434953689575 0.50387132167816162 0.41723206639289856
0.65623652935028076 0.53250807523727417 0.44108247756958008
0.3548092246055603 0.39808887243270874 0.34028169512748718
0.36200028657913208 0.40328231453895569 0.34371101856231689
0.37109547853469849 0.409871906042099 0.34692880511283875
0.38443973660469055 0.41838017106056213 0.35276037454605103
0.39980104565620422 0.42751830816268921 0.36002874374389648
0.42463767528533936 0.44413650035858154 0.3728434145450592
0.45171743631362915 0.45875972509384155 0.38675311207771301
0.48852705955505371 0.4810035228729248 0.40598133206367493
0.52022713422775269 0.50150805711746216 0.42207962274551392
0.55137276649475098 0.51945465803146362 0.43440228700637817
0.58621621131896973 0.53730016946792603 0.44614514708518982
0.63560795783996582 0.56421506404876709 0.46340566873550415
0.69304436445236206 0.59078472852706909 0.48309993743896484
0.41866549849510193 0.47126385569572449 0.39303582906723022
0.42586082220077515 0.47354698181152344 0.39462429285049438
0.43524181842803955 0.47836780548095703 0.39820221066474915
0.44670829176902771 0.48421990871429443 0.4024377167224884
0.46447294950485229 0.49468177556991577 0.4105822741985321
0.48591470718383789 0.50944614410400391 0.42156285047531128
0.5105750560760498 0.52318644523620605 0.43431141972541809
0.53683847188949585 0.54190301895141602 0.44862034916877747
0.56908929347991943 0.56084376573562622 0.46542835235595703
0.60050117969512939 0.58070182800292969 0.48179429769515991
0.63307583332061768 0.59993767738342285 0.49676203727722168
0.6810564398765564 0.62402135133743286 0.51398134231567383
0.73454326391220093 0.6501585841178894 0.53239899873733521
0.48476803302764893 0.5393749475479126 0.44484251737594604
0.49139297008514404 0.54299616813659668 0.44835060834884644
0.50071358680725098 0.54656606912612915 0.45263156294822693
0.50745111703872681 0.55155521631240845 0.45451155304908752
0.52205002307891846 0.55956113338470459 0.4603036642074585
0.54126828908920288 0.57045340538024902 0.46876204013824463
0.56672650575637817 0.58519750833511353 0.48096618056297302
0.592917799949646 0.60246533155441284 0.49532806873321533
0.62234467267990112 0.62049674987792969 0.5116957426071167
0.65627551078796387 0.64053714275360107 0.53077971935272217
0.69063419103622437 0.66314971446990967 0.55058044195175171
0.73451542854309082 0.68703573942184448 0.56924384832382202
0.78224313259124756 0.71354985237121582 0.58791249990463257
0.55608069896697998 0.61109000444412231 0.50476819276809692
0.56017696857452393 0.61423242092132568 0.50727498531341553
0.56730020046234131 0.61852079629898071 0.50974851846694946
0.57505232095718384 0.62309902906417847 0.51240575313568115
0.58712857961654663 0.63028502464294434 0.51726716756820679
0.60333210229873657 0.64019221067428589 0.52385926246643066
0.62717485427856445 0.65538889169692993 0.53417211771011353
0.65359491109848022 0.67087680101394653 0.54868602752685547
0.68102240562438965 0.68809324502944946 0.56498032808303833
0.71953117847442627 0.71313744783401489 0.58807879686355591
0.75933033227920532 0.73683381080627441 0.61128795146942139
0.80129480361938477 0.76352638006210327 0.63343179225921631
0.83970379829406738 0.78772133588790894 0.65147733688354492
0.6381148099899292 0.70182216167449951 0.57866406440734863
0.64075791835784912 0.70407640933990479 0.57938408851623535
0.64560937881469727 0.7068781852722168 0.58106452226638794
0.65540337562561035 0.71224987506866455 0.58474081754684448
0.66156315803527832 0.71487677097320557 0.58554583787918091
0.6768537163734436 0.72684311866760254 0.59277677536010742
0.7000281810760498 0.74428081512451172 0.60417723655700684
0.72245365381240845 0.75755876302719116 0.61528652906417847
0.75693285465240479 0.77880752086639404 0.63532650470733643
0.79890942573547363 0.80547183752059937 0.66075009107589722
0.83612930774688721 0.82695484161376953 0.68135946989059448
0.87700188159942627 0.85162806510925293 0.70392292737960815
0.92208081483840942 0.88129580020904541 0.72961181402206421
0.71342766284942627 0.79251110553741455 0.6515345573425293
0.7174837589263916 0.7960541844367981 0.65343213081359863
0.71996694803237915 0.79807752370834351 0.65328943729400635
0.73304718732833862 0.80600887537002563 0.6591765284538269
0.74484354257583618 0.81286287307739258 0.66339230537414551
0.75750714540481567 0.82043510675430298 0.66837823390960693
0.77852767705917358 0.83390039205551147 0.67846232652664185
0.80591487884521484 0.84999197721481323 0.68965786695480347
0.84176921844482422 0.87135189771652222 0.70957493782043457
0.87578117847442627 0.89216899871826172 0.72945111989974976
0.90977609157562256 0.91255486011505127 0.74754267930984497
0.94850534200668335 0.93583959341049194 0.76852595806121826
0.98191046714782715 0.96475112438201904 0.79984235763549805
0.1023341491818428 0.10454490780830383 0.10942114889621735
0.11169587820768356 0.11116262525320053 0.11592471599578857
0.12757086753845215 0.12256531417369843 0.1274963915348053
0.15273647010326385 0.14084862172603607 0.14522513747215271
0.18344219028949738 0.15985476970672607 0.16499830782413483
0.21512667834758759 0.18243160843849182 0.18716223537921906
0.24824801087379456 0.20742376148700714 0.2085837721824646
0.28501132130622864 0.23256123065948486 0.23244409263134003
0.32868316769599915 0.26104950904846191 0.25874203443527222
0.37622734904289246 0.29096907377243042 0.28627103567123413
0.42525732517242432 0.3231188952922821 0.3128017783164978
0.47640717029571533 0.35495340824127197 0.33862811326980591
0.52330142259597778 0.38352864980697632 0.36199542880058289
0.11680441349744797 0.12345308810472488 0.12501396238803864
0.12519064545631409 0.12765146791934967 0.12982514500617981
0.14203250408172607 0.13815833628177643 0.13935866951942444
0.16652493178844452 0.15431973338127136 0.15605197846889496
0.19721229374408722 0.1739874929189682 0.1756092756986618
0.22882615029811859 0.19706140458583832 0.19655255973339081
0.25970363616943359 0.22014307975769043 0.2169344425201416
0.29403069615364075 0.24431051313877106 0.23777784407138824
0.33663833141326904 0.27027478814125061 0.26268726587295532
0.38436195254325867 0.30065193772315979 0.29040193557739258
0.43314975500106812 0.33101522922515869 0.3170836865901947
0.47885802388191223 0.35857903957366943 0.34064593911170959
0.52485644817352295 0.3864227831363678 0.36304345726966858
0.13913524150848389 0.15277083218097687 0.15033309161663055
0.14617428183555603 0.15801544487476349 0.15385036170482635
0.16505934298038483 0.16962088644504547 0.16265848278999329
0.19048206508159637 0.18555675446987152 0.17634160816669464
0.21657258272171021 0.2017502635717392 0.19050250947475433
0.24634411931037903 0.21997800469398499 0.20833751559257507
0.27630129456520081 0.24049389362335205 0.22688457369804382
0.30829125642776489 0.26257175207138062 0.24831186234951019
0.35257011651992798 0.28750136494636536 0.27226036787033081
0.3988611102104187 0.31743431091308594 0.29914999008178711
0.44538411498069763 0.34667402505874634 0.32207390666007996
0.49387022852897644 0.37630370259284973 0.34888005256652832
0.54245811700820923 0.40529373288154602 0.37517046928405762
0.17652745544910431 0.20130352675914764 0.18835492432117462
0.18363326787948608 0.20429962873458862 0.19182135164737701
0.19970570504665375 0.21358340978622437 0.19885626435279846
0.22327698767185211 0.23012448847293854 0.21192428469657898
0.24336354434490204 0.2426929771900177 0.22108228504657745
0.26835158467292786 0.25409427285194397 0.23066100478172302
0.29481372237205505 0.26896798610687256 0.24227593839168549
0.32941865921020508 0.28842636942863464 0.26121187210083008
0.37689399719238281 0.31452667713165283 0.28663215041160583
0.42148160934448242 0.34091305732727051 0.31135573983192444
0.46543386578559875 0.36810868978500366 0.33365508913993835
0.51249229907989502 0.39784166216850281 0.35880747437477112
0.5654836893081665 0.4272674024105072 0.38854879140853882
0.21896882355213165 0.24645449221134186 0.2278561145067215
0.22362174093723297 0.24955800175666809 0.22933681309223175
0.23624403774738312 0.25664162635803223 0.23509635031223297
0.2528083324432373 0.26776129007339478 0.24274621903896332
0.27197402715682983 0.2800782322883606 0.25249519944190979
0.29509198665618896 0.29377630352973938 0.26286914944648743
0.31991606950759888 0.30764016509056091 0.27314227819442749
0.3547612726688385 0.32444238662719727 0.28642511367797852
0.40373235940933228 0.34668990969657898 0.30654439330101013
0.44704937934875488 0.36973446607589722 0.32573246955871582
0.48915693163871765 0.39227300882339478 0.34602385759353638
0.53878289461135864 0.42280533909797668 0.37228807806968689
0.59255439043045044 0.45310428738594055 0.40102863311767578
0.25962600111961365 0.29086175560951233 0.26497921347618103
0.26676788926124573 0.29456853866577148 0.26847851276397705
0.27733388543128967 0.30071479082107544 0.27289119362831116
0.29153457283973694 0.31009271740913391 0.27785912156105042
0.30873852968215942 0.31984695792198181 0.28603729605674744
0.32839679718017578 0.33219936490058899 0.29693669080734253
0.34954714775085449 0.34597432613372803 0.30658933520317078
0.38407295942306519 0.36489501595497131 0.32023966312408447
0.43156790733337402 0.38675028085708618 0.33809977769851685
0.47565880417823792 0.40930771827697754 0.35433971881866455
0.51812565326690674 0.43023315072059631 0.36977079510688782
0.56988698244094849 0.45989957451820374 0.39338654279708862
0.62442219257354736 0.48909217119216919 0.41850438714027405
0.30450919270515442 0.33992859721183777 0.30334413051605225
0.30870667099952698 0.34039664268493652 0.30543452501296997
0.31900221109390259 0.34639820456504822 0.30964210629463196
0.33316794037818909 0.35756537318229675 0.31543388962745667
0.34723865985870361 0.36548155546188354 0.32012075185775757
0.36881783604621887 0.37893760204315186 0.33077096939086914
0.39483299851417542 0.39475223422050476 0.34388643503189087
0.43003007769584656 0.41762632131576538 0.36193427443504333
0.46871662139892578 0.43951505422592163 0.37820693850517273
0.50968879461288452 0.46144378185272217 0.39344519376754761
0.55095928907394409 0.48285713791847229 0.40751999616622925
0.60086667537689209 0.50819164514541626 0.42435076832771301
0.65945112705230713 0.53589212894439697 0.44749945402145386
0.35829654335975647 0.40086790919303894 0.34714639186859131
0.36356985569000244 0.40479159355163574 0.34992477297782898
0.37379786372184753 0.41291773319244385 0.35428124666213989
0.38696020841598511 0.42134067416191101 0.36016342043876648
0.40328693389892578 0.4327966570854187 0.36783626675605774
0.42657887935638428 0.44613489508628845 0.37811762094497681
0.45422282814979553 0.46027651429176331 0.39180111885070801
0.48914104700088501 0.48231109976768494 0.41124209761619568
0.52111649513244629 0.50284820795059204 0.42671537399291992
0.55281728506088257 0.52062106132507324 0.43973559141159058
0.58948022127151489 0.54002946615219116 0.45189377665519714
0.639995276927948 0.5668339729309082 0.46953719854354858
0.69614332914352417 0.59289902448654175 0.48927894234657288
0.42230877280235291 0.47337886691093445 0.39778628945350647
0.42685285210609436 0.47529226541519165 0.39963766932487488
0.43639245629310608 0.4806312620639801 0.40386956930160522
0.44946229457855225 0.48750749230384827 0.40970048308372498
0.46558001637458801 0.4978674054145813 0.4166572093963623
0.48626488447189331 0.51170963048934937 0.42676842212677002
0.51070326566696167 0.52555269002914429 0.43905872106552124
0.54069894552230835 0.54422438144683838 0.4554407000541687
0.57209789752960205 0.56169164180755615 0.47172170877456665
0.602120041847229 0.5823599100112915 0.4870699942111969
0.63494539260864258 0.60158181190490723 0.50105196237564087
0.68429350852966309 0.62653899192810059 0.5191161036491394
0.7334093451499939 0.65072685480117798 0.53721284866333008
0.48678410053253174 0.54172927141189575 0.45022815465927124
0.49175521731376648 0.54382497072219849 0.45325207710266113
0.5020453929901123 0.54958087205886841 0.45747023820877075
0.51230227947235107 0.55597013235092163 0.46137502789497375
0.52637571096420288 0.56425827741622925 0.46773374080657959
0.54446923732757568 0.5763360857963562 0.47564637660980225
0.5672910213470459 0.5902448296546936 0.48661994934082031
0.59523886442184448 0.6065298318862915 0.50229525566101074
0.62568163871765137 0.62323689460754395 0.51826119422912598
0.65758043527603149 0.64317935705184937 0.53610223531723022
0.69356632232666016 0.66516464948654175 0.55681222677230835
0.73400324583053589 0.68758183717727661 0.57331949472427368
0.78348249197006226 0.7146308422088623 0.59270691871643066
0.55672675371170044 0.61394119262695312 0.51019680500030518
0.56082552671432495 0.61549866199493408 0.51335221529006958
0.56932824850082397 0.62021529674530029 0.51614272594451904
0.58061021566390991 0.62768959999084473 0.52126336097717285
0.59289216995239258 0.6347503662109375 0.52683162689208984
0.60840082168579102 0.6446271538734436 0.53246450424194336
0.62834101915359497 0.6573137640953064 0.54051321744918823
0.65362584590911865 0.67188000679016113 0.55510985851287842
0.68313229084014893 0.69120466709136963 0.57154643535614014
0.71836692094802856 0.7146645188331604 0.59214490652084351
0.76054126024246216 0.7381402850151062 0.61706537008285522
0.79933029413223267 0.76284551620483398 0.63654744625091553
0.84193211793899536 0.79144495725631714 0.65647238492965698
0.63901859521865845 0.70627570152282715 0.5852285623550415
0.64192855358123779 0.70729398727416992 0.5862804651260376
0.64929300546646118 0.71111130714416504 0.58894991874694824
0.66065680980682373 0.71688610315322876 0.59343874454498291
0.6724010705947876 0.72512900829315186 0.59914219379425049
0.68190592527389526 0.73204714059829712 0.60091817378997803
0.69686782360076904 0.74279266595840454 0.60619914531707764
0.72409850358963013 0.75821506977081299 0.62090247869491577
0.76189261674880981 0.78258055448532104 0.64320653676986694
0.79889196157455444 0.80617505311965942 0.66394519805908203
0.8358234167098999 0.82714110612869263 0.68422043323516846
0.87891173362731934 0.85358107089996338 0.70928710699081421
0.92229044437408447 0.88400310277938843 0.73474287986755371
0.71641397476196289 0.79762494564056396 0.65844821929931641
0.72010427713394165 0.79937839508056641 0.65799593925476074
0.72606062889099121 0.80361157655715942 0.66024202108383179
0.73673206567764282 0.80918556451797485 0.66432845592498779
0.74870753288269043 0.81632786989212036 0.66969472169876099
0.76226317882537842 0.82417070865631104 0.67512404918670654
0.78025263547897339 0.83526605367660522 0.68122339248657227
0.80666518211364746 0.85081130266189575 0.69441002607345581
0.84301739931106567 0.87334263324737549 0.71475523710250854
0.87903159856796265 0.8947635293006897 0.73442226648330688
0.91157466173171997 0.91284102201461792 0.74932968616485596
0.95031583309173584 0.93824833631515503 0.77372580766677856
0.98676306009292603 0.97132843732833862 0.80874615907669067
0.10579181462526321 0.10914143919944763 0.11555904150009155
0.11457362771034241 0.11568117141723633 0.12262347340583801
0.13000676035881042 0.1276974231004715 0.13435696065425873
0.1529877632856369 0.14611069858074188 0.15383198857307434
0.18368825316429138 0.16775920987129211 0.17764197289943695
0.2141462117433548 0.192454993724823 0.2010287344455719
0.24648894369602203 0.2192169576883316 0.22629895806312561
0.28452762961387634 0.24362345039844513 0.25018221139907837
0.32363086938858032 0.27050051093101501 0.27426061034202576
0.37073782086372375 0.30042707920074463 0.30223047733306885
0.42326211929321289 0.33272716403007507 0.33111783862113953
0.47728154063224792 0.36624521017074585 0.36001378297805786
0.52453750371932983 0.39367073774337769 0.3829045295715332
0.12075912207365036 0.12717382609844208 0.13253536820411682
0.12976425886154175 0.13366734981536865 0.13969723880290985
0.14501726627349854 0.14432460069656372 0.15094582736492157
0.16796702146530151 0.16206592321395874 0.16953994333744049
0.19749327003955841 0.18276415765285492 0.19092166423797607
0.22870296239852905 0.20742064714431763 0.21306630969047546
0.25895753502845764 0.23129874467849731 0.23533374071121216
0.29413184523582458 0.25503525137901306 0.25762149691581726
0.33448907732963562 0.28078025579452515 0.28151538968086243
0.38246524333953857 0.31079491972923279 0.30848431587219238
0.4351518452167511 0.34250861406326294 0.33764776587486267
0.48508897423744202 0.3732483983039856 0.36528828740119934
0.53016918897628784 0.39798545837402344 0.38505810499191284
0.14431582391262054 0.16012300550937653 0.16010962426662445
0.15068674087524414 0.16518551111221313 0.16478338837623596
0.1693086177110672 0.17762464284896851 0.17848142981529236
0.19444331526756287 0.1934257298707962 0.19462178647518158
0.22067750990390778 0.2115149199962616 0.21154215931892395
0.25060662627220154 0.23261727392673492 0.23211556673049927
0.27723890542984009 0.2503410279750824 0.24929147958755493
0.30995720624923706 0.27302363514900208 0.26990920305252075
0.35277670621871948 0.29894134402275085 0.29308873414993286
0.40068891644477844 0.3257928192615509 0.31859782338142395
0.44971221685409546 0.35694822669029236 0.3456282913684845
0.49902686476707458 0.38695135712623596 0.37100645899772644
0.55051440000534058 0.41435140371322632 0.3961983323097229
0.18130278587341309 0.20756596326828003 0.19994270801544189
0.18739791214466095 0.20993714034557343 0.20350664854049683
0.20093074440956116 0.21879330277442932 0.21186089515686035
0.22611212730407715 0.23522543907165527 0.22656671702861786
0.24961860477924347 0.24739384651184082 0.236776202917099
0.27435103058815002 0.26178324222564697 0.2495993971824646
0.30081412196159363 0.27673992514610291 0.26313689351081848
0.336589515209198 0.29825487732887268 0.28452226519584656
0.37994638085365295 0.32506760954856873 0.30925822257995605
0.42488923668861389 0.35044193267822266 0.33355593681335449
0.4708361029624939 0.37816375494003296 0.35705995559692383
0.51690685749053955 0.40644067525863647 0.37984412908554077
0.57307332754135132 0.43642401695251465 0.40902739763259888
0.2231004387140274 0.25158601999282837 0.23818621039390564
0.22746415436267853 0.25367850065231323 0.24018950760364532
0.23998664319515228 0.26109284162521362 0.24730527400970459
0.25890088081359863 0.27311041951179504 0.25854527950286865
0.27785125374794006 0.28520801663398743 0.26716858148574829
0.29840376973152161 0.29797500371932983 0.27459284663200378
0.32558807730674744 0.31313112378120422 0.28745219111442566
0.36452007293701172 0.33099943399429321 0.30342257022857666
0.40957644581794739 0.35352692008018494 0.32464280724525452
