assets/lut/creative tealorange 01.cube
# Created by: G'MIC (https://gmic.eu)
TITLE "tealorange_1"
# LUT size
LUT_3D_SIZE 5
# Data domain
DOMAIN_MIN 0.0 0.0 0.0
DOMAIN_MAX 1.0 1.0 1.0
# LUT data points
0.0087196500971913338 0.015967665240168571 0.075059182941913605
0.17914867401123047 0.0057116192765533924 0.027798986062407494
0.38957026600837708 0.0093064550310373306 0.0041363583877682686
0.6615409255027771 0.036191754043102264 0.0073915068060159683
0.97097700834274292 0.094895638525485992 0
4.7392004489665851e-05 0.20022663474082947 0.054014783352613449
0.19098640978336334 0.20073235034942627 0.0079191019758582115
0.39116117358207703 0.24607440829277039 0.00068779737921431661
0.65027594566345215 0.32345417141914368 0
0.96628093719482422 0.37283837795257568 0
0.010420750826597214 0.48419195413589478 0.14091247320175171
0.27453440427780151 0.49153915047645569 0.023647578433156013
0.5757293701171875 0.50213420391082764 0.013506362214684486
0.82315987348556519 0.53933429718017578 0.0063634235411882401
0.98881036043167114 0.59125763177871704 0
0.28750190138816833 0.8017498254776001 0.26446473598480225
0.41274797916412354 0.80923342704772949 0.099431402981281281
0.71684569120407104 0.78608661890029907 0.031395856291055679
0.9419705867767334 0.77455949783325195 0.023300126194953918
0.99993163347244263 0.76240187883377075 0.0084831835702061653
0.43006196618080139 0.99078989028930664 0.32225450873374939
0.46923479437828064 0.99297314882278442 0.1263897716999054
0.72601103782653809 0.97461557388305664 0.016537848860025406
0.9590904712677002 0.94993031024932861 0.0019210067111998796
1 0.92633974552154541 0.0039215688593685627
0 0.05262114480137825 0.2139367014169693
0.019681937992572784 0.080046050250530243 0.24188435077667236
0.23399434983730316 0.10537350177764893 0.36903250217437744
0.57383120059967041 0.12755654752254486 0.3843226432800293
0.95826226472854614 0.1125471219420433 0.32666271924972534
0 0.20508180558681488 0.2160983681678772
0.11701272428035736 0.21983239054679871 0.21184401214122772
0.36862552165985107 0.24689573049545288 0.24318136274814606
0.69175177812576294 0.2751915454864502 0.22110322117805481
0.98663443326950073 0.28816264867782593 0.16829246282577515
0.011010891757905483 0.48602968454360962 0.38297250866889954
0.21068710088729858 0.49899542331695557 0.32003122568130493
0.53926163911819458 0.51355016231536865 0.25596567988395691
0.78683722019195557 0.55581361055374146 0.20067211985588074
0.99055278301239014 0.59432381391525269 0.1425112783908844
0.29181602597236633 0.79354500770568848 0.50366610288619995
0.41310033202171326 0.80121004581451416 0.43764078617095947
0.66301363706588745 0.80108237266540527 0.29460883140563965
0.93003326654434204 0.78100126981735229 0.27505618333816528
0.9998965859413147 0.7761797308921814 0.16760566830635071
0.4437471330165863 0.98444646596908569 0.5441405177116394
0.51672273874282837 0.98680853843688965 0.47947439551353455
0.66887128353118896 0.98881453275680542 0.26754915714263916
0.95484703779220581 0.95234793424606323 0.18507997691631317
1 0.92425668239593506 0.11206173151731491
0 0.11292654275894165 0.35427501797676086
0.00054936128435656428 0.16144880652427673 0.37138095498085022
0.079619385302066803 0.2002665102481842 0.45590046048164368
0.41824352741241455 0.26631742715835571 0.66249763965606689
0.78259563446044922 0.34995806217193604 0.8192715048789978
0 0.24243876338005066 0.2800605297088623
0.0022882050834596157 0.278352290391922 0.3427397608757019
0.19282317161560059 0.31593158841133118 0.4559902548789978
0.53746122121810913 0.37350854277610779 0.65083736181259155
0.88535463809967041 0.43032917380332947 0.7708430290222168
0.066076911985874176 0.49239891767501831 0.46544113755226135
0.25192779302597046 0.50853484869003296 0.47653353214263916
0.48264312744140625 0.53416818380355835 0.49037536978721619
0.77233904600143433 0.56403899192810059 0.54337316751480103
0.98643571138381958 0.57423847913742065 0.53874170780181885
0.29803839325904846 0.79830008745193481 0.69215309619903564
0.42760485410690308 0.8016851544380188 0.67381542921066284
0.62532788515090942 0.80649822950363159 0.60002148151397705
0.90086013078689575 0.79660701751708984 0.50950318574905396
0.99925416707992554 0.80397671461105347 0.45418667793273926
0.42626646161079407 0.98670125007629395 0.76391845941543579
0.52041947841644287 0.98433429002761841 0.7333298921585083
0.67017149925231934 0.97432011365890503 0.62041240930557251
0.89377248287200928 0.97707962989807129 0.45926523208618164
0.99945557117462158 0.93100041151046753 0.40539482235908508
0 0.18819904327392578 0.52147376537322998
0 0.23195371031761169 0.54393684864044189
0.00076379213714972138 0.29950129985809326 0.57517451047897339
0.26446953415870667 0.36471807956695557 0.73239880800247192
0.6808050274848938 0.44329151511192322 0.95348060131072998
0 0.31123179197311401 0.4542773962020874
0 0.3595026433467865 0.52340978384017944
0.0093691656365990639 0.41584956645965576 0.60395073890686035
0.39701011776924133 0.455741286277771 0.73901116847991943
0.76804614067077637 0.52040255069732666 0.96008199453353882
0.033700097352266312 0.53938955068588257 0.56284028291702271
0.086983084678649902 0.56078541278839111 0.55934226512908936
0.19892747700214386 0.61112254858016968 0.63234061002731323
0.62587779760360718 0.63085198402404785 0.75599467754364014
0.90304797887802124 0.65228641033172607 0.94275534152984619
0.42522594332695007 0.80062079429626465 0.74280506372451782
0.50847947597503662 0.80450153350830078 0.74699312448501587
0.66003501415252686 0.80915367603302002 0.74989336729049683
0.8511282205581665 0.81915020942687988 0.75008326768875122
0.99766772985458374 0.81001830101013184 0.77745020389556885
0.4490777850151062 0.98923319578170776 0.90923422574996948
0.53182142972946167 0.99011766910552979 0.89520794153213501
0.67976635694503784 0.98657786846160889 0.85629212856292725
0.85806405544281006 0.9796491265296936 0.76365166902542114
0.99920904636383057 0.94719356298446655 0.65486055612564087
0 0.2785947322845459 0.67388653755187988
0 0.33413600921630859 0.73778808116912842
0 0.40147256851196289 0.76462471485137939
0.0371512770652771 0.48396709561347961 0.83706271648406982
0.5837557315826416 0.54001414775848389 0.99205225706100464
0 0.40730094909667969 0.66261357069015503
0 0.4379630982875824 0.71427947282791138
2.3696002244832925e-05 0.50742697715759277 0.80154311656951904
0.065628662705421448 0.56707382202148438 0.85323292016983032
0.64300316572189331 0.59299933910369873 0.98333734273910522
0.00020769904949702322 0.61176574230194092 0.64566987752914429
0.0048332815058529377 0.63566321134567261 0.68429076671600342
0.011489733122289181 0.68623447418212891 0.79102009534835815
0.18001337349414825 0.73576062917709351 0.89811819791793823
0.77231234312057495 0.72493958473205566 0.98478013277053833
0.35162070393562317 0.82666611671447754 0.84274864196777344
0.42280253767967224 0.83294755220413208 0.84028732776641846
0.52607512474060059 0.85194063186645508 0.82540076971054077
0.63213008642196655 0.88333910703659058 0.87373930215835571
0.92019093036651611 0.86587023735046387 0.96120774745941162
0.57484573125839233 0.98427212238311768 0.9200628399848938
0.63566213846206665 0.9835587739944458 0.91303706169128418
0.73938494920730591 0.98416262865066528 0.91429430246353149
0.88013887405395508 0.97430038452148438 0.89912617206573486
0.99553000926971436 0.95297986268997192 0.87101304531097412
