assets/lut/creative futuristicbleak 01.cube
# Created by: G'MIC (https://gmic.eu)
TITLE "futuristicbleak_1"
# LUT size
LUT_3D_SIZE 7
# Data domain
DOMAIN_MIN 0.0 0.0 0.0
DOMAIN_MAX 1.0 1.0 1.0
# LUT data points
0.072319164872169495 0.082180172204971313 0.10647563636302948
0.15422803163528442 0.1079886183142662 0.12719513475894928
0.27567312121391296 0.16054466366767883 0.16097632050514221
0.3877595067024231 0.20925936102867126 0.19102761149406433
0.50092810392379761 0.2616998553276062 0.22412148118019104
0.61415946483612061 0.31362244486808777 0.25697940587997437
0.74161076545715332 0.36898452043533325 0.29102665185928345
0.13480466604232788 0.19522595405578613 0.16581648588180542
0.19729605317115784 0.2140367329120636 0.17102983593940735
0.30271509289741516 0.23531371355056763 0.17570188641548157
0.41088047623634338 0.26699733734130859 0.19515816867351532
0.51959729194641113 0.30616921186447144 0.22723166644573212
0.6321750283241272 0.35377147793769836 0.26242378354072571
0.75292891263961792 0.40119245648384094 0.29882150888442993
0.23487362265586853 0.33484837412834167 0.24716490507125854
0.26890683174133301 0.33937922120094299 0.24393624067306519
0.33679258823394775 0.36032050848007202 0.26024192571640015
0.42548054456710815 0.37714612483978271 0.25847592949867249
0.55165475606918335 0.4002285897731781 0.25737076997756958
0.67725390195846558 0.42478829622268677 0.2685987651348114
0.79900318384170532 0.45854043960571289 0.297249436378479
0.33440476655960083 0.45596039295196533 0.32184359431266785
0.36078277230262756 0.45986974239349365 0.31398266553878784
0.41517651081085205 0.47352242469787598 0.32073849439620972
0.48585626482963562 0.4879859983921051 0.3328360915184021
0.57948774099349976 0.50923115015029907 0.33386033773422241
0.69570809602737427 0.53206628561019897 0.33346515893936157
0.82486867904663086 0.5456889271736145 0.33335044980049133
0.46880143880844116 0.58300292491912842 0.38938802480697632
0.48479154706001282 0.58930182456970215 0.38873058557510376
0.52028113603591919 0.59669554233551025 0.39066088199615479
0.57660824060440063 0.60676825046539307 0.39815309643745422
0.64738154411315918 0.62131553888320923 0.41458958387374878
0.72551578283309937 0.64449805021286011 0.42444831132888794
0.83345133066177368 0.66214144229888916 0.4219571053981781
0.58164846897125244 0.70424920320510864 0.47044432163238525
0.5895887017250061 0.71177172660827637 0.4747772216796875
0.6180986762046814 0.71769678592681885 0.46930655837059021
0.66350871324539185 0.72518670558929443 0.46941769123077393
0.72047287225723267 0.73510140180587769 0.48205292224884033
0.78728324174880981 0.75086337327957153 0.49882680177688599
0.86209964752197266 0.77213591337203979 0.51363396644592285
0.68787723779678345 0.83065813779830933 0.55746257305145264
0.70003610849380493 0.83655804395675659 0.55796355009078979
0.71928447484970093 0.84177112579345703 0.55568021535873413
0.7542148232460022 0.84653043746948242 0.55371582508087158
0.80601620674133301 0.8572317361831665 0.5624040961265564
0.86258363723754883 0.86932778358459473 0.57821357250213623
0.94303637742996216 0.89041262865066528 0.60525709390640259
0.076226867735385895 0.090508870780467987 0.14425469934940338
0.1427762359380722 0.12680017948150635 0.17207248508930206
0.23521357774734497 0.18468421697616577 0.21510826051235199
0.34143230319023132 0.23629815876483917 0.25912445783615112
0.4592781662940979 0.28491166234016418 0.29615506529808044
0.58418631553649902 0.33055728673934937 0.32560005784034729
0.71854895353317261 0.37859198451042175 0.34871017932891846
0.14254970848560333 0.20220676064491272 0.20538580417633057
0.18924351036548615 0.21805240213871002 0.22298687696456909
0.28054431080818176 0.24674980342388153 0.24561262130737305
0.37859717011451721 0.28091347217559814 0.2730349600315094
0.49312344193458557 0.31934091448783875 0.30022773146629333
0.61574035882949829 0.35933491587638855 0.32878017425537109
0.74080067873001099 0.40206840634346008 0.35021314024925232
0.23845364153385162 0.33694303035736084 0.28707599639892578
0.26586872339248657 0.34129452705383301 0.29138264060020447
0.3329131007194519 0.3598136305809021 0.29779627919197083
0.42484006285667419 0.37741637229919434 0.29746213555335999
0.54630893468856812 0.40257608890533447 0.3111724853515625
0.66043895483016968 0.43122380971908569 0.32948639988899231
0.77601855993270874 0.46939411759376526 0.36902111768722534
0.34179744124412537 0.457903653383255 0.35355433821678162
0.36227980256080627 0.46167927980422974 0.35139799118041992
0.41569676995277405 0.47770765423774719 0.35585004091262817
0.4850362241268158 0.49019700288772583 0.36392882466316223
0.57936513423919678 0.51226431131362915 0.36584395170211792
0.69708067178726196 0.5296027660369873 0.36398512125015259
0.81752508878707886 0.54668724536895752 0.36984285712242126
0.4710267186164856 0.58591729402542114 0.42096522450447083
0.48250794410705566 0.58782470226287842 0.4191683828830719
0.52293556928634644 0.59851109981536865 0.41720810532569885
0.57610094547271729 0.60950624942779541 0.42816430330276489
0.64622491598129272 0.62202674150466919 0.43958815932273865
0.72413396835327148 0.64556717872619629 0.44827231764793396
0.83458644151687622 0.65885519981384277 0.44405186176300049
0.5821717381477356 0.71258413791656494 0.4988238513469696
0.59062314033508301 0.71264296770095825 0.49877449870109558
0.622974693775177 0.71488332748413086 0.49437588453292847
0.66168642044067383 0.7250601053237915 0.49488040804862976
0.71980208158493042 0.73588013648986816 0.506103515625
0.7871323823928833 0.75288248062133789 0.52125507593154907
0.86485958099365234 0.77140825986862183 0.53106743097305298
0.68382048606872559 0.83477258682250977 0.57523483037948608
0.70152968168258667 0.83859550952911377 0.57656031847000122
0.72211843729019165 0.8393254280090332 0.57218283414840698
0.75471222400665283 0.84823369979858398 0.57600963115692139
0.80427879095077515 0.85770249366760254 0.58052533864974976
0.86657345294952393 0.87070351839065552 0.59314501285552979
0.94178622961044312 0.89321637153625488 0.62257790565490723
0.10853718966245651 0.11824712157249451 0.20583292841911316
0.15662786364555359 0.15005066990852356 0.22700716555118561
0.24016915261745453 0.20191629230976105 0.26737353205680847
0.32024925947189331 0.25759980082511902 0.30648598074913025
0.41729000210762024 0.31731352210044861 0.34788355231285095
0.53200137615203857 0.36642396450042725 0.39039486646652222
0.66817361116409302 0.41622859239578247 0.42221722006797791
0.15944749116897583 0.220013827085495 0.26136258244514465
0.19613294303417206 0.23270604014396667 0.27339255809783936
0.26838725805282593 0.26367378234863281 0.29994586110115051
0.34486857056617737 0.30580279231071472 0.33011171221733093
0.44478532671928406 0.34978106617927551 0.36737066507339478
0.56117111444473267 0.39310473203659058 0.40116369724273682
0.69868344068527222 0.43811959028244019 0.43276989459991455
0.24779018759727478 0.33846253156661987 0.32305064797401428
0.27087199687957764 0.34525629878044128 0.33204591274261475
0.32667443156242371 0.3643706738948822 0.35080340504646301
0.41070377826690674 0.38485383987426758 0.36723577976226807
0.5162729024887085 0.41530308127403259 0.39421027898788452
0.6267848014831543 0.44766104221343994 0.41826158761978149
0.74605554342269897 0.48352757096290588 0.44320151209831238
0.34878188371658325 0.45817399024963379 0.39519485831260681
0.37373599410057068 0.46405446529388428 0.40061584115028381
0.41516891121864319 0.47547221183776855 0.40799435973167419
0.48266142606735229 0.48991137742996216 0.40955841541290283
0.58369028568267822 0.50842964649200439 0.4129737913608551
0.69118201732635498 0.53156483173370361 0.42843142151832581
0.80186629295349121 0.55681955814361572 0.45194327831268311
0.48272693157196045 0.58550512790679932 0.46578565239906311
0.49433848261833191 0.58646094799041748 0.46653658151626587
0.52922642230987549 0.59878695011138916 0.47087928652763367
0.5761185884475708 0.60989123582839966 0.47298887372016907
0.64238864183425903 0.62542331218719482 0.48161369562149048
0.72536027431488037 0.64589023590087891 0.48687466979026794
0.8432270884513855 0.65643137693405151 0.48411852121353149
0.58618712425231934 0.70706009864807129 0.53564167022705078
0.59609639644622803 0.70635306835174561 0.53775191307067871
0.62520527839660645 0.71647721529006958 0.53906506299972534
0.66676586866378784 0.72696775197982788 0.53861862421035767
0.71933037042617798 0.73897141218185425 0.54370498657226562
0.78992867469787598 0.75453132390975952 0.56194221973419189
0.86698204278945923 0.77331191301345825 0.56700795888900757
0.68993175029754639 0.82829135656356812 0.60902601480484009
0.70145666599273682 0.83416354656219482 0.61469346284866333
0.72568953037261963 0.83870738744735718 0.61564391851425171
0.75916051864624023 0.84743016958236694 0.61188596487045288
0.80439108610153198 0.85880869626998901 0.61323803663253784
0.86565428972244263 0.87064534425735474 0.62708085775375366
0.93990612030029297 0.89285552501678467 0.65399181842803955
0.14875869452953339 0.14926353096961975 0.26227888464927673
0.18046452105045319 0.17356735467910767 0.27968496084213257
0.25127363204956055 0.21984027326107025 0.31514525413513184
0.32890981435775757 0.27027025818824768 0.35280272364616394
0.4212200939655304 0.32990771532058716 0.394990473985672
0.51160901784896851 0.3869960606098175 0.42550823092460632
0.62313073873519897 0.44341352581977844 0.46524339914321899
0.18327786028385162 0.2350572794675827 0.31150004267692566
0.21570517122745514 0.25092160701751709 0.32405993342399597
0.27293530106544495 0.27767181396484375 0.34337779879570007
0.35196056962013245 0.31307372450828552 0.3738480806350708
0.43859666585922241 0.36162665486335754 0.40882343053817749
0.53424733877182007 0.41746422648429871 0.44289571046829224
0.64770627021789551 0.46781298518180847 0.47807052731513977
0.25901150703430176 0.3462253212928772 0.37107747793197632
0.28551256656646729 0.35465309023857117 0.3822689950466156
0.33079057931900024 0.3754807710647583 0.39492455124855042
0.40026882290840149 0.40031227469444275 0.41524982452392578
0.48826593160629272 0.4363156259059906 0.43959483504295349
0.58524614572525024 0.47444882988929749 0.46810039877891541
0.70254707336425781 0.51410126686096191 0.50573301315307617
0.36447402834892273 0.46540609002113342 0.43048816919326782
0.38414484262466431 0.46919211745262146 0.43851551413536072
0.42553049325942993 0.48131644725799561 0.44571191072463989
0.48180603981018066 0.49517607688903809 0.4598669707775116
0.57169502973556519 0.5194936990737915 0.47662341594696045
0.66616791486740112 0.54398494958877563 0.50422424077987671
0.76627439260482788 0.57299149036407471 0.532470703125
0.48860034346580505 0.58766961097717285 0.50325989723205566
0.50265514850616455 0.59136480093002319 0.50386732816696167
0.53765279054641724 0.60009825229644775 0.51462030410766602
0.57984465360641479 0.61122208833694458 0.52247321605682373
0.64861881732940674 0.63078755140304565 0.53073185682296753
0.73335939645767212 0.64860421419143677 0.53609418869018555
0.84447246789932251 0.66248273849487305 0.5422130823135376
0.59359478950500488 0.70798879861831665 0.57095944881439209
0.60560792684555054 0.70720744132995605 0.57626283168792725
0.63597613573074341 0.71485811471939087 0.5827639102935791
0.67175650596618652 0.72669941186904907 0.5896601676940918
0.7210688591003418 0.74029827117919922 0.59115362167358398
0.78882139921188354 0.75872123241424561 0.60372352600097656
0.87022548913955688 0.77431124448776245 0.60622769594192505
0.7040402889251709 0.83193176984786987 0.65105175971984863
0.71395885944366455 0.83325052261352539 0.65391439199447632
0.73444283008575439 0.83657824993133545 0.6570744514465332
0.76324170827865601 0.84978300333023071 0.65977853536605835
0.80841696262359619 0.86384427547454834 0.6629406213760376
0.86725115776062012 0.87473595142364502 0.66973602771759033
0.93649983406066895 0.8937448263168335 0.69861716032028198
0.18571542203426361 0.18659727275371552 0.32468950748443604
0.21348817646503448 0.2050459235906601 0.3406251072883606
0.27100071310997009 0.24394893646240234 0.36780062317848206
0.34045702219009399 0.28638723492622375 0.40100312232971191
0.42998874187469482 0.3422398567199707 0.44168707728385925
0.52277064323425293 0.39832684397697449 0.47299307584762573
0.62453734874725342 0.45694303512573242 0.50856810808181763
0.21822977066040039 0.25614282488822937 0.36511409282684326
0.24099697172641754 0.26805475354194641 0.37304824590682983
0.29622262716293335 0.29936486482620239 0.39701065421104431
0.36454415321350098 0.33253711462020874 0.42428192496299744
0.44914495944976807 0.37774252891540527 0.45407852530479431
0.5426439642906189 0.42744842171669006 0.48748168349266052
0.64288413524627686 0.48281100392341614 0.52022933959960938
0.28287783265113831 0.36015671491622925 0.42389413714408875
0.29931402206420898 0.36843755841255188 0.4303971529006958
0.35149165987968445 0.387096107006073 0.44406414031982422
0.40903586149215698 0.41192638874053955 0.46016553044319153
0.49788731336593628 0.4437522292137146 0.48562580347061157
0.58513259887695312 0.48770052194595337 0.51042819023132324
0.67950880527496338 0.53477084636688232 0.54471290111541748
0.38112637400627136 0.47089517116546631 0.48156514763832092
0.397268146276474 0.47626698017120361 0.48336046934127808
0.44157439470291138 0.48576337099075317 0.49296051263809204
0.49134758114814758 0.50830990076065063 0.50705415010452271
0.5629534125328064 0.53242295980453491 0.52690726518630981
0.64489597082138062 0.5658494234085083 0.5517926812171936
0.72665131092071533 0.59854573011398315 0.58118355274200439
0.50166100263595581 0.59018987417221069 0.54196536540985107
0.5182807445526123 0.59834867715835571 0.54186838865280151
0.5496293306350708 0.60422426462173462 0.55304831266403198
0.58730733394622803 0.61630004644393921 0.5663335919380188
0.64540630578994751 0.6366545557975769 0.58202314376831055
0.72604513168334961 0.6552547812461853 0.60267037153244019
0.81602442264556885 0.67819881439208984 0.62779158353805542
0.60466939210891724 0.70980745553970337 0.61064016819000244
0.62068372964859009 0.71268802881240845 0.61632335186004639
0.64483839273452759 0.71831691265106201 0.62235891819000244
0.67973661422729492 0.72786283493041992 0.63163977861404419
0.72867947816848755 0.74316513538360596 0.64335447549819946
0.78811866044998169 0.76026415824890137 0.64887100458145142
0.87863034009933472 0.77867347002029419 0.66116905212402344
0.7161935567855835 0.83352029323577881 0.6892198920249939
0.72763007879257202 0.83673101663589478 0.69242256879806519
0.74314510822296143 0.8363347053527832 0.6940915584564209
0.77137595415115356 0.84645211696624756 0.70271670818328857
0.81555080413818359 0.86202657222747803 0.71211230754852295
0.87012302875518799 0.87306684255599976 0.71530377864837646
0.94052433967590332 0.90122020244598389 0.75160610675811768
0.22808550298213959 0.22213712334632874 0.38830775022506714
0.24995312094688416 0.23615112900733948 0.39725080132484436
0.29651784896850586 0.26846832036972046 0.42187345027923584
0.36469727754592896 0.31118828058242798 0.45267820358276367
0.44434854388237 0.3559410572052002 0.48483586311340332
0.53500336408615112 0.41355732083320618 0.51859891414642334
0.63422578573226929 0.46858850121498108 0.55422252416610718
0.25218769907951355 0.27721339464187622 0.4183783233165741
0.2778046727180481 0.29538410902023315 0.42872881889343262
0.32326188683509827 0.31630131602287292 0.44859251379966736
0.38395410776138306 0.35405614972114563 0.47318446636199951
0.46396344900131226 0.39135840535163879 0.50125813484191895
0.55675613880157471 0.43669050931930542 0.53213906288146973
0.65340352058410645 0.49475148320198059 0.56619083881378174
0.31246703863143921 0.37499415874481201 0.47281241416931152
0.33431738615036011 0.38671538233757019 0.47840738296508789
0.37430146336555481 0.40207359194755554 0.49261155724525452
0.43180200457572937 0.42649891972541809 0.50763791799545288
0.50831836462020874 0.45956847071647644 0.53431957960128784
0.59877800941467285 0.49859821796417236 0.5591161847114563
0.68843191862106323 0.5408395528793335 0.59049481153488159
0.40833714604377747 0.48150694370269775 0.52701312303543091
0.42159956693649292 0.48358768224716187 0.53084558248519897
0.45885497331619263 0.49840658903121948 0.54157549142837524
0.50483256578445435 0.51720064878463745 0.55315369367599487
0.57129311561584473 0.54510200023651123 0.57304412126541138
0.65201961994171143 0.57230418920516968 0.59880709648132324
0.7306402325630188 0.60906463861465454 0.62354916334152222
0.5203622579574585 0.60016340017318726 0.58753645420074463
0.53266686201095581 0.60389822721481323 0.59287154674530029
0.55737888813018799 0.61157506704330444 0.59745192527770996
0.59948146343231201 0.62321370840072632 0.61043226718902588
0.6489795446395874 0.64642488956451416 0.6299821138381958
0.71587693691253662 0.66616809368133545 0.64826327562332153
0.78944391012191772 0.69310444593429565 0.66911137104034424
0.6231224536895752 0.71598082780838013 0.64649295806884766
0.63338804244995117 0.71829783916473389 0.64997416734695435
0.65768718719482422 0.72383582592010498 0.65833753347396851
0.69263744354248047 0.73226821422576904 0.66797232627868652
0.73707312345504761 0.7468838095664978 0.6802334189414978
0.79152476787567139 0.76580506563186646 0.70172333717346191
0.87085539102554321 0.78902721405029297 0.72771990299224854
0.72694295644760132 0.83800983428955078 0.72999823093414307
0.73673653602600098 0.84046554565429688 0.73194724321365356
0.75553911924362183 0.84149694442749023 0.73489284515380859
0.78604841232299805 0.85284483432769775 0.74632030725479126
0.82526224851608276 0.86231642961502075 0.7586250901222229
0.87181437015533447 0.87704068422317505 0.77189570665359497
0.94116735458374023 0.90722441673278809 0.81080394983291626
0.26422992348670959 0.25788521766662598 0.44619655609130859
0.28548035025596619 0.2703193724155426 0.45720607042312622
0.32847887277603149 0.29870462417602539 0.48127371072769165
0.38354194164276123 0.33328887820243835 0.5043795108795166
0.46428003907203674 0.38025778532028198 0.53918921947479248
0.55240041017532349 0.42635887861251831 0.56821334362030029
0.64941185712814331 0.48757091164588928 0.60529851913452148
0.2888798713684082 0.30433553457260132 0.4739997386932373
0.3109900951385498 0.3169495165348053 0.48336848616600037
0.35123357176780701 0.33798134326934814 0.4999595582485199
0.40490153431892395 0.36634227633476257 0.51979613304138184
0.48361176252365112 0.41110751032829285 0.55286091566085815
0.57626265287399292 0.45067372918128967 0.5803106427192688
0.67055469751358032 0.50934147834777832 0.61598360538482666
0.34687906503677368 0.39580851793289185 0.52224767208099365
0.36343592405319214 0.40015348792076111 0.52972269058227539
0.40372884273529053 0.41765022277832031 0.54232579469680786
0.45482811331748962 0.43921777606010437 0.55605781078338623
0.53156167268753052 0.47470247745513916 0.58054918050765991
0.61657047271728516 0.51057988405227661 0.60820996761322021
0.69884485006332397 0.55814588069915771 0.64101237058639526
0.43254280090332031 0.49389898777008057 0.57436954975128174
0.4439893364906311 0.49651023745536804 0.5779956579208374
0.47912251949310303 0.51151418685913086 0.58890247344970703
0.52540236711502075 0.52831059694290161 0.59953218698501587
0.59041738510131836 0.5545918345451355 0.6223875880241394
0.66052651405334473 0.58380454778671265 0.6467401385307312
0.73858165740966797 0.61770129203796387 0.67236787080764771
0.53804880380630493 0.60718590021133423 0.63816285133361816
0.55193668603897095 0.61028903722763062 0.63964498043060303
0.57798010110855103 0.6200864315032959 0.64877885580062866
0.61461114883422852 0.6339295506477356 0.66072815656661987
0.6570095419883728 0.65363651514053345 0.6719440221786499
0.72387588024139404 0.67838114500045776 0.69517272710800171
0.79316705465316772 0.70000714063644409 0.71362572908401489
0.63839012384414673 0.7234346866607666 0.70050996541976929
0.64613395929336548 0.72527879476547241 0.70127129554748535
0.67184960842132568 0.73151588439941406 0.70778089761734009
0.69971305131912231 0.73796999454498291 0.71518576145172119
0.74689775705337524 0.75603711605072021 0.73240000009536743
0.7949337363243103 0.77606004476547241 0.74746519327163696
0.86231422424316406 0.79610854387283325 0.76738280057907104
0.74146139621734619 0.84301865100860596 0.76914912462234497
0.75276452302932739 0.84671968221664429 0.76911681890487671
0.76552951335906982 0.84766870737075806 0.76822632551193237
0.79485869407653809 0.85443586111068726 0.77999746799468994
0.8377528190612793 0.8653862476348877 0.79269945621490479
0.88299483060836792 0.88177978992462158 0.81298160552978516
0.93669801950454712 0.91276645660400391 0.87060737609863281
