assets/lut/creative bleachbypass 03.cube
# Created by: G'MIC (https://gmic.eu)
TITLE "bleachbypass_3"
# LUT size
LUT_3D_SIZE 13
# Data domain
DOMAIN_MIN 0.0 0.0 0.0
DOMAIN_MAX 1.0 1.0 1.0
# LUT data points
0.10317638516426086 0.10098371654748917 0.098069705069065094
0.11928889155387878 0.10277090966701508 0.099020294845104218
0.15172703564167023 0.11078353226184845 0.10763033479452133
0.18629744648933411 0.11953325569629669 0.11727327853441238
0.22239531576633453 0.12979559600353241 0.12782967090606689
0.26307174563407898 0.14141713082790375 0.13977499306201935
0.30099856853485107 0.15095262229442596 0.1494450718164444
0.3434564471244812 0.16151086986064911 0.15809513628482819
0.39798110723495483 0.17556728422641754 0.17222078144550323
0.44900846481323242 0.18831124901771545 0.18512147665023804
0.49538573622703552 0.19756306707859039 0.19551312923431396
0.51141703128814697 0.20009346306324005 0.19829167425632477
0.51296758651733398 0.19934865832328796 0.19706554710865021
0.11881514638662338 0.12000802904367447 0.11173107475042343
0.12553891539573669 0.12001000344753265 0.10512988269329071
0.15862305462360382 0.12977093458175659 0.11230389773845673
0.19644138216972351 0.14278846979141235 0.12347941845655441
0.23092472553253174 0.15367186069488525 0.1326889842748642
0.27044928073883057 0.16399721801280975 0.14314852654933929
0.31413641571998596 0.1767057478427887 0.15508751571178436
0.35818332433700562 0.18769532442092896 0.16518256068229675
0.40887823700904846 0.20085443556308746 0.17836673557758331
0.46197789907455444 0.21479469537734985 0.19228404760360718
0.50960314273834229 0.22645185887813568 0.20129390060901642
0.52874141931533813 0.22845840454101562 0.20278351008892059
0.53113740682601929 0.22790327668190002 0.20166110992431641
0.14138913154602051 0.14606310427188873 0.13193133473396301
0.14152529835700989 0.14757788181304932 0.11929671466350555
0.16881266236305237 0.15749643743038177 0.12098906189203262
0.20695501565933228 0.17308944463729858 0.13307195901870728
0.23839521408081055 0.18385441601276398 0.13895915448665619
0.27995592355728149 0.19455444812774658 0.14962172508239746
0.32569268345832825 0.2051515132188797 0.16201668977737427
0.37155437469482422 0.21887531876564026 0.17207027971744537
0.42285880446434021 0.23092144727706909 0.18498930335044861
0.47652620077133179 0.24802382290363312 0.20068815350532532
0.5260738730430603 0.26413002610206604 0.21013860404491425
0.5527350902557373 0.26871147751808167 0.21193602681159973
0.55810171365737915 0.27233538031578064 0.2162921279668808
0.16703684628009796 0.17810212075710297 0.15294045209884644
0.17519615590572357 0.18553294241428375 0.1484997421503067
0.18521523475646973 0.19470544159412384 0.13590480387210846
0.21803697943687439 0.20858769118785858 0.14184166491031647
0.25072705745697021 0.21999256312847137 0.14979089796543121
0.29334220290184021 0.2348080575466156 0.16061718761920929
0.33904701471328735 0.24790766835212708 0.17250756919384003
0.38614076375961304 0.26125600934028625 0.18177326023578644
0.43944844603538513 0.27639651298522949 0.19477048516273499
0.49594771862030029 0.29377123713493347 0.21050044894218445
0.5490562915802002 0.30917772650718689 0.22160796821117401
0.57995277643203735 0.31695982813835144 0.22666290402412415
0.58326655626296997 0.31685304641723633 0.22831737995147705
0.19004987180233002 0.20607993006706238 0.17120048403739929
0.20689606666564941 0.21819432079792023 0.1766701340675354
0.20723891258239746 0.22606489062309265 0.15764419734477997
0.22890648245811462 0.23798595368862152 0.15024368464946747
0.26152104139328003 0.25208181142807007 0.15702240169048309
0.3056618869304657 0.2686801552772522 0.16901569068431854
0.35164070129394531 0.28393968939781189 0.18105176091194153
0.39965331554412842 0.29935184121131897 0.19209355115890503
0.45342454314231873 0.31718277931213379 0.20471307635307312
0.5130043625831604 0.33600464463233948 0.22032538056373596
0.56768679618835449 0.35188016295433044 0.23169858753681183
0.60262149572372437 0.36023783683776855 0.2388298511505127
0.60869431495666504 0.36071160435676575 0.23856568336486816
0.21279273927211761 0.23451873660087585 0.19049423933029175
0.23324786126613617 0.24707783758640289 0.20039105415344238
0.23580357432365417 0.25720101594924927 0.1854117214679718
0.24334248900413513 0.26833990216255188 0.16452108323574066
0.27220651507377625 0.28434431552886963 0.16460572183132172
0.31500303745269775 0.2996983528137207 0.17556336522102356
0.3629910945892334 0.31629016995429993 0.18872009217739105
0.41284030675888062 0.33516374230384827 0.2007652074098587
0.46704831719398499 0.35547438263893127 0.21493712067604065
0.52825647592544556 0.37717142701148987 0.23342151939868927
0.58377665281295776 0.39233249425888062 0.24201264977455139
0.6241106390953064 0.40272676944732666 0.24715138971805573
0.6355854868888855 0.40561902523040771 0.25095322728157043
0.23461535573005676 0.26152649521827698 0.20980396866798401
0.25787806510925293 0.27556881308555603 0.22318239510059357
0.26746177673339844 0.28909161686897278 0.21588434278964996
0.27101421356201172 0.30459809303283691 0.19167248904705048
0.28772547841072083 0.32208046317100525 0.1787162572145462
0.32734769582748413 0.34205633401870728 0.18667237460613251
0.37799671292304993 0.36196208000183105 0.20162470638751984
0.4295671284198761 0.38164797425270081 0.21373274922370911
0.48367130756378174 0.40091654658317566 0.22557799518108368
0.5455213189125061 0.42339980602264404 0.24419325590133667
0.60237294435501099 0.44012439250946045 0.25451460480690002
0.64693129062652588 0.45255988836288452 0.26161602139472961
0.66321331262588501 0.45853117108345032 0.26627868413925171
0.25844380259513855 0.290964275598526 0.2328266054391861
0.28322950005531311 0.30709832906723022 0.24686811864376068
0.30145236849784851 0.32427322864532471 0.24949739873409271
0.3057313859462738 0.34543704986572266 0.22671535611152649
0.31207174062728882 0.36644601821899414 0.20274169743061066
0.34224352240562439 0.38657969236373901 0.19880253076553345
0.39331334829330444 0.40782296657562256 0.21172204613685608
0.44582861661911011 0.42848798632621765 0.22377493977546692
0.49893257021903992 0.44983699917793274 0.23566034436225891
0.56401294469833374 0.47528520226478577 0.25439047813415527
0.6253170371055603 0.49609321355819702 0.26882883906364441
0.67480850219726562 0.51000285148620605 0.27961355447769165
0.6928786039352417 0.51461797952651978 0.28269997239112854
0.28270635008811951 0.32532414793968201 0.25580084323883057
0.30965134501457214 0.3440500795841217 0.27133888006210327
0.33637127280235291 0.36586368083953857 0.2843373715877533
0.34274590015411377 0.38646888732910156 0.26470696926116943
0.34374448657035828 0.40553829073905945 0.23458819091320038
0.36070671677589417 0.4257165789604187 0.21549393236637115
0.40574941039085388 0.45165577530860901 0.22123286128044128
0.46081474423408508 0.47461619973182678 0.23229129612445831
0.5133368968963623 0.49550405144691467 0.24462451040744781
0.57599741220474243 0.51951467990875244 0.26142269372940063
0.64285987615585327 0.54484570026397705 0.27964848279953003
0.6991388201713562 0.56486707925796509 0.29371383786201477
0.72372877597808838 0.57243841886520386 0.29857459664344788
0.30970212817192078 0.36495333909988403 0.28028300404548645
0.33655247092247009 0.38439461588859558 0.29625141620635986
0.36728963255882263 0.40634322166442871 0.31214973330497742
0.38307273387908936 0.42667260766029358 0.30475699901580811
0.38257908821105957 0.44607058167457581 0.27176448702812195
0.39089563488960266 0.46615132689476013 0.24338744580745697
0.42478504776954651 0.49531757831573486 0.23544304072856903
0.47574493288993835 0.52310997247695923 0.24475489556789398
0.53052377700805664 0.54363864660263062 0.25529572367668152
0.59051406383514404 0.56752896308898926 0.26999127864837646
0.65802001953125 0.59444278478622437 0.29043135046958923
0.72030162811279297 0.61839455366134644 0.30582234263420105
0.74921786785125732 0.62753850221633911 0.31143847107887268
0.33650210499763489 0.40388709306716919 0.30472639203071594
0.3633018434047699 0.42279800772666931 0.32021275162696838
0.39782792329788208 0.44583374261856079 0.33912792801856995
0.42641878128051758 0.4696553647518158 0.3471015989780426
0.42522865533828735 0.48808720707893372 0.31297391653060913
0.43023890256881714 0.51164776086807251 0.28019663691520691
0.45298805832862854 0.54330134391784668 0.26067104935646057
0.49634894728660583 0.57751226425170898 0.25848078727722168
0.54868525266647339 0.60061007738113403 0.26905572414398193
0.61012035608291626 0.62678861618041992 0.28493174910545349
0.67905443906784058 0.65734577178955078 0.30598989129066467
0.74322634935379028 0.68072158098220825 0.32111912965774536
0.77824044227600098 0.69308829307556152 0.32831913232803345
0.36651560664176941 0.44573518633842468 0.33133736252784729
0.39307832717895508 0.46411335468292236 0.3464806079864502
0.43155050277709961 0.48773643374443054 0.36773243546485901
0.46623235940933228 0.51246851682662964 0.38197493553161621
0.4743511974811554 0.53435111045837402 0.36158722639083862
0.4767412543296814 0.56089580059051514 0.32610863447189331
0.48992878198623657 0.5938141942024231 0.29651179909706116
0.52216774225234985 0.62918317317962646 0.28007540106773376
0.57005470991134644 0.65974003076553345 0.28651526570320129
0.62906181812286377 0.68843448162078857 0.29904666543006897
0.69674772024154663 0.71895468235015869 0.31791931390762329
0.76327109336853027 0.74473196268081665 0.33278387784957886
0.80347847938537598 0.75944298505783081 0.34056973457336426
0.39603018760681152 0.48469501733779907 0.35643509030342102
0.42627286911010742 0.50365734100341797 0.37418290972709656
0.46528869867324829 0.52875524759292603 0.39517766237258911
0.50390374660491943 0.55555820465087891 0.41384357213973999
0.52179193496704102 0.57891106605529785 0.40849891304969788
0.52462553977966309 0.60860240459442139 0.37381109595298767
0.53111857175827026 0.64188653230667114 0.3375106155872345
0.55206125974655151 0.67776870727539062 0.30800837278366089
0.5909307599067688 0.71362543106079102 0.30365827679634094
0.64602071046829224 0.74285918474197388 0.31063452363014221
0.71415030956268311 0.77433913946151733 0.32765057682991028
0.77970117330551147 0.80130046606063843 0.34190195798873901
0.81453460454940796 0.81459337472915649 0.34902933239936829
0.11136371642351151 0.10812745988368988 0.11591572314500809
0.13081406056880951 0.11291922628879547 0.11992768198251724
0.16102240979671478 0.12144452333450317 0.12778027355670929
0.19691842794418335 0.12974290549755096 0.13930748403072357
0.23120321333408356 0.13694889843463898 0.14933684468269348
0.27353659272193909 0.14774139225482941 0.16202235221862793
0.3152942955493927 0.15875409543514252 0.17525921761989594
0.36006772518157959 0.16937904059886932 0.18727308511734009
0.41457352042198181 0.1817910373210907 0.19906549155712128
0.46569329500198364 0.19488754868507385 0.21116258203983307
0.51333415508270264 0.20501857995986938 0.22193285822868347
0.52972817420959473 0.20798811316490173 0.2247186154127121
0.5306398868560791 0.20670402050018311 0.22355957329273224
0.12114651501178741 0.12587180733680725 0.12541884183883667
0.13639846444129944 0.12957826256752014 0.12627024948596954
0.16864193975925446 0.13874101638793945 0.13418309390544891
0.20611192286014557 0.15016523003578186 0.14519229531288147
0.24202890694141388 0.16084520518779755 0.15485216677188873
0.28368842601776123 0.17244338989257812 0.16735793650150299
0.32830226421356201 0.1853879988193512 0.18196216225624084
0.37340086698532104 0.19638572633266449 0.19275322556495667
0.4248068630695343 0.20885218679904938 0.20411530137062073
0.47849723696708679 0.22301273047924042 0.21696071326732635
0.52677184343338013 0.23546770215034485 0.2275330126285553
0.54885196685791016 0.24000963568687439 0.23237833380699158
0.55160856246948242 0.24138759076595306 0.23331891000270844
0.14458608627319336 0.15242227911949158 0.14234006404876709
0.16071672737598419 0.16001218557357788 0.14497441053390503
0.17965781688690186 0.16766093671321869 0.14388552308082581
0.21511374413967133 0.17808280885219574 0.15224200487136841
0.25138700008392334 0.19057691097259521 0.16182076930999756
0.29388630390167236 0.20413704216480255 0.17375704646110535
0.33881261944770813 0.21470852196216583 0.18700903654098511
0.38373032212257385 0.22528228163719177 0.19773852825164795
0.4379982054233551 0.2395351380109787 0.20951232314109802
0.49323076009750366 0.2559724748134613 0.22480745613574982
0.54447102546691895 0.2729681134223938 0.23650655150413513
0.57322263717651367 0.28092315793037415 0.24251958727836609
0.57712453603744507 0.28507822751998901 0.24528859555721283
0.17023326456546783 0.18393582105636597 0.16222542524337769
0.19147668778896332 0.19631402194499969 0.17099310457706451
0.19912020862102509 0.20519572496414185 0.16218893229961395
0.22815302014350891 0.21664927899837494 0.16402818262577057
0.26323407888412476 0.2292349636554718 0.1726812869310379
0.30671113729476929 0.24500894546508789 0.18449242413043976
0.35329043865203857 0.2569786012172699 0.19716657698154449
0.40032005310058594 0.2692415714263916 0.20749177038669586
0.45355552434921265 0.28547248244285583 0.22027735412120819
0.51069545745849609 0.30147296190261841 0.23516836762428284
0.56306642293930054 0.31751981377601624 0.2469048798084259
0.59705764055252075 0.32678079605102539 0.25338038802146912
0.60055124759674072 0.32726693153381348 0.25422033667564392
0.19618511199951172 0.21186567842960358 0.18322449922561646
0.21908119320869446 0.22642029821872711 0.19498781859874725
0.22873477637767792 0.2387828528881073 0.18976776301860809
0.24275636672973633 0.25053209066390991 0.17702826857566833
0.27321609854698181 0.26312214136123657 0.18057912588119507
0.31819313764572144 0.27993732690811157 0.19284406304359436
0.36575579643249512 0.29516205191612244 0.20532611012458801
0.41511139273643494 0.31021234393119812 0.21634645760059357
0.46775913238525391 0.32741829752922058 0.22862529754638672
0.52807819843292236 0.3445344865322113 0.24386440217494965
0.58142048120498657 0.36042463779449463 0.25462383031845093
0.61833727359771729 0.37037307024002075 0.26276376843452454
0.62453174591064453 0.37102720141410828 0.2633514404296875
0.22037525475025177 0.2418602854013443 0.20499011874198914
0.24380595982074738 0.2561093270778656 0.21742036938667297
0.25914168357849121 0.26957446336746216 0.21748299896717072
0.26350852847099304 0.28188943862915039 0.19740153849124908
0.28428119421005249 0.29577583074569702 0.18984095752239227
0.32740607857704163 0.31289145350456238 0.1996789276599884
0.37615123391151428 0.32785895466804504 0.21197463572025299
0.42633989453315735 0.34653663635253906 0.22458741068840027
0.47917252779006958 0.36374127864837646 0.23687472939491272
0.53823274374008179 0.38226690888404846 0.25072404742240906
0.5962834358215332 0.40042403340339661 0.2623327374458313
0.63687926530838013 0.41139969229698181 0.26959928870201111
0.64951413869857788 0.41470745205879211 0.27306464314460754
0.24454770982265472 0.27072626352310181 0.22643962502479553
0.26787719130516052 0.28545093536376953 0.23935142159461975
0.28792849183082581 0.30013605952262878 0.24487239122390747
0.29287874698638916 0.31549173593521118 0.22698000073432922
0.30227497220039368 0.3327794075012207 0.20829878747463226
0.33664527535438538 0.35140767693519592 0.20865757763385773
0.3899114727973938 0.37233415246009827 0.22368155419826508
0.44099712371826172 0.39090582728385925 0.23587249219417572
0.49522638320922852 0.40937703847885132 0.2471906840801239
0.55413174629211426 0.42799234390258789 0.260703444480896
0.61193197965621948 0.44658061861991882 0.27300092577934265
0.66003721952438354 0.46051958203315735 0.28231871128082275
0.67565047740936279 0.46467968821525574 0.28495946526527405
0.26804333925247192 0.30018836259841919 0.24837647378444672
0.29298710823059082 0.31625688076019287 0.26221796870231628
0.31892240047454834 0.33526897430419922 0.27529504895210266
0.33002594113349915 0.35578286647796631 0.26412275433540344
0.33322077989578247 0.37753096222877502 0.24004188179969788
0.35383269190788269 0.39632758498191833 0.22513602674007416
0.40238827466964722 0.41627347469329834 0.23287035524845123
0.45535379648208618 0.4369809627532959 0.24560773372650146
0.51017391681671143 0.45930540561676025 0.25753891468048096
0.57035607099533081 0.47985103726387024 0.2717646062374115
0.63135743141174316 0.49950686097145081 0.28550779819488525
0.68463945388793945 0.51942390203475952 0.29793041944503784
0.70390331745147705 0.52169251441955566 0.29928439855575562
0.29126998782157898 0.33355209231376648 0.27101099491119385
0.31863501667976379 0.3524341881275177 0.28556963801383972
0.34706911444664001 0.37379437685012817 0.30100858211517334
0.36668172478675842 0.39565074443817139 0.30201375484466553
0.37095272541046143 0.41815096139907837 0.27798900008201599
0.38302475214004517 0.4395785927772522 0.25254347920417786
0.41673237085342407 0.46032655239105225 0.24397367238998413
0.47095438838005066 0.48460406064987183 0.25499379634857178
0.52409845590591431 0.50610172748565674 0.26570823788642883
0.58531546592712402 0.52869713306427002 0.28151226043701172
0.65000784397125244 0.5506516695022583 0.29704961180686951
0.70698696374893188 0.57113075256347656 0.31084352731704712
0.73210138082504272 0.57920098304748535 0.31565693020820618
0.31869196891784668 0.37380042672157288 0.29566237330436707
0.34452983736991882 0.39283275604248047 0.31033691763877869
0.37579807639122009 0.41413244605064392 0.3264974057674408
0.40608114004135132 0.43729725480079651 0.33792024850845337
0.41560956835746765 0.45904666185379028 0.3191063404083252
0.41899371147155762 0.48028296232223511 0.28629773855209351
0.43969175219535828 0.50544333457946777 0.26465734839439392
0.48649674654006958 0.5317569375038147 0.26657870411872864
0.5398070216178894 0.55411559343338013 0.27595317363739014
0.59966975450515747 0.57670938968658447 0.28908109664916992
0.66705864667892456 0.6011996865272522 0.30605277419090271
0.72871094942092896 0.6236153244972229 0.31886011362075806
0.75598829984664917 0.63342845439910889 0.32479345798492432
0.34633153676986694 0.41369402408599854 0.32071155309677124
0.37244611978530884 0.43240278959274292 0.33587825298309326
0.40533486008644104 0.4545215368270874 0.35339990258216858
0.44124126434326172 0.47859993577003479 0.37041595578193665
0.4610716700553894 0.50151604413986206 0.3632996678352356
0.46252310276031494 0.52522706985473633 0.32848864793777466
0.47294628620147705 0.55351084470748901 0.29844632744789124
0.50767225027084351 0.58520758152008057 0.28350144624710083
0.55692785978317261 0.60866302251815796 0.28669014573097229
0.61636132001876831 0.63344943523406982 0.30058223009109497
0.68382436037063599 0.66100859642028809 0.32085475325584412
0.74925035238265991 0.68575531244277954 0.33539804816246033
0.78141140937805176 0.6968197226524353 0.34121426939964294
0.3768250048160553 0.45656445622444153 0.34849515557289124
0.40458172559738159 0.47575667500495911 0.36417070031166077
0.4402821958065033 0.49860581755638123 0.38328105211257935
0.47850197553634644 0.52230656147003174 0.40208590030670166
0.50422608852386475 0.54453533887863159 0.40512281656265259
0.50993502140045166 0.57226741313934326 0.37686502933502197
0.51629143953323364 0.60577791929244995 0.34529405832290649
0.53882831335067749 0.6383633017539978 0.3151080310344696
0.57699775695800781 0.66628468036651611 0.30289995670318604
0.63497167825698853 0.69488346576690674 0.31301674246788025
0.70121645927429199 0.72389644384384155 0.33153614401817322
0.76594144105911255 0.74750691652297974 0.34479895234107971
0.80849391222000122 0.7610621452331543 0.35057008266448975
0.40455916523933411 0.49511510133743286 0.37352031469345093
0.43509697914123535 0.51572555303573608 0.39114898443222046
0.47386565804481506 0.53966301679611206 0.41087079048156738
0.51460486650466919 0.56545448303222656 0.43227323889732361
0.54639667272567749 0.58846640586853027 0.44487813115119934
0.55713433027267456 0.61899542808532715 0.42500743269920349
0.56286942958831787 0.65580964088439941 0.39394831657409668
0.57747727632522583 0.68987894058227539 0.35575035214424133
0.60547900199890137 0.72088706493377686 0.33015137910842896
0.65304726362228394 0.74924784898757935 0.32372042536735535
0.71645402908325195 0.77733021974563599 0.33734747767448425
0.78246939182281494 0.80415636301040649 0.35156849026679993
0.83561408519744873 0.8255615234375 0.36137601733207703
0.12014200538396835 0.11788883805274963 0.14113686978816986
0.14042146503925323 0.12303768843412399 0.1433655172586441
0.17247427999973297 0.13415804505348206 0.15049497783184052
0.20853781700134277 0.14613191783428192 0.16544467210769653
0.23993328213691711 0.15277256071567535 0.17804785072803497
0.28183203935623169 0.16246052086353302 0.19370962679386139
0.32586869597434998 0.17203536629676819 0.20881244540214539
0.37423741817474365 0.18096964061260223 0.22132144868373871
0.43191024661064148 0.19418041408061981 0.2346053272485733
0.48341307044029236 0.20675896108150482 0.24905619025230408
0.53400146961212158 0.21568483114242554 0.26050344109535217
0.55200880765914917 0.21911458671092987 0.26310330629348755
0.55334460735321045 0.21778927743434906 0.26077073812484741
0.12717926502227783 0.13734929263591766 0.15063142776489258
0.14831224083900452 0.14430528879165649 0.15589611232280731
0.18047000467777252 0.15213809907436371 0.16115903854370117
0.21754349768161774 0.16389888525009155 0.17352397739887238
0.25333112478256226 0.17224738001823425 0.18471342325210571
0.29535353183746338 0.18341167271137238 0.19989444315433502
0.34166544675827026 0.19637170433998108 0.21423666179180145
0.38988572359085083 0.20788902044296265 0.22570252418518066
0.44434651732444763 0.22105911374092102 0.24052394926548004
0.49921005964279175 0.23599442839622498 0.25599610805511475
0.5496336817741394 0.24742148816585541 0.26725730299949646
0.57471936941146851 0.25324097275733948 0.27221670746803284
0.57645010948181152 0.25566112995147705 0.27318674325942993
0.14095224440097809 0.16508869826793671 0.16317977011203766
0.16684530675411224 0.1749597042798996 0.17342676222324371
0.19378672540187836 0.18259736895561218 0.17476969957351685
0.22856606543064117 0.19232533872127533 0.18424117565155029
0.26463508605957031 0.2026432603597641 0.19505713880062103
0.30819413065910339 0.21350102126598358 0.20662564039230347
0.35538855195045471 0.22714564204216003 0.22066193819046021
0.40444666147232056 0.24082469940185547 0.23298963904380798
0.45813509821891785 0.25414630770683289 0.24493066966533661
0.51598089933395386 0.27261388301849365 0.2629445493221283
0.56992053985595703 0.28752344846725464 0.27543225884437561
0.5993306040763855 0.29537412524223328 0.28442317247390747
0.60301584005355835 0.29999655485153198 0.28680691123008728
0.16792808473110199 0.1969086229801178 0.18173739314079285
0.19796881079673767 0.20807598531246185 0.193417027592659
0.22054706513881683 0.21890410780906677 0.19668310880661011
0.24232161045074463 0.22915428876876831 0.19542126357555389
0.27678713202476501 0.24080343544483185 0.20426255464553833
0.323527991771698 0.25675606727600098 0.21754221618175507
0.3693561851978302 0.26992207765579224 0.22832638025283813
0.41898858547210693 0.28368991613388062 0.24197570979595184
0.47523713111877441 0.29992124438285828 0.2560420036315918
0.53481060266494751 0.31843286752700806 0.27279224991798401
0.59018063545227051 0.33296114206314087 0.28575366735458374
0.62407571077346802 0.34187427163124084 0.29483532905578613
0.62768650054931641 0.34403058886528015 0.29697677493095398
0.19385302066802979 0.22267253696918488 0.19915951788425446
0.22674332559108734 0.23658347129821777 0.21346047520637512
0.24949926137924194 0.25090503692626953 0.22141292691230774
0.25804707407951355 0.2621614933013916 0.20830680429935455
0.28691962361335754 0.27476048469543457 0.21122820675373077
0.33373981714248657 0.29300194978713989 0.22634938359260559
0.38245680928230286 0.30913388729095459 0.23927074670791626
0.43336817622184753 0.3236655592918396 0.25187486410140991
0.48826518654823303 0.34146261215209961 0.26433977484703064
