assets/lut/creative smokey.cube
# Created by: G'MIC (https://gmic.eu)
TITLE "smokey"
# LUT size
LUT_3D_SIZE 5
# Data domain
DOMAIN_MIN 0.0 0.0 0.0
DOMAIN_MAX 1.0 1.0 1.0
# LUT data points
0.048929519951343536 0.044245835393667221 0.022800849750638008
0.26811444759368896 0.046702634543180466 0.020854935050010681
0.4507300853729248 0.041740328073501587 0.02560272254049778
0.62811523675918579 0.042111340910196304 0.029122011736035347
0.80808711051940918 0.043247014284133911 0.03049926832318306
0.057450074702501297 0.22941301763057709 0.02406584843993187
0.28103718161582947 0.24177813529968262 0.031039249151945114
0.47473976016044617 0.24946855008602142 0.034920006990432739
0.65849399566650391 0.26053676009178162 0.031172150745987892
0.84697335958480835 0.26600101590156555 0.038813572376966476
0.052818626165390015 0.41087543964385986 0.03113822266459465
0.2879885733127594 0.42992150783538818 0.042441979050636292
0.49564012885093689 0.44721069931983948 0.047619406133890152
0.6911894679069519 0.4615580141544342 0.049697156995534897
0.88660347461700439 0.47960445284843445 0.047800160944461823
0.055696688592433929 0.60546332597732544 0.034739043563604355
0.29643213748931885 0.62912857532501221 0.050836585462093353
0.5136944055557251 0.65315788984298706 0.060024455189704895
0.72051697969436646 0.67605787515640259 0.058664135634899139
0.92253386974334717 0.70006102323532104 0.049049735069274902
0.053228940814733505 0.81283056735992432 0.03879648819565773
0.29932093620300293 0.84085088968276978 0.058939434587955475
0.52403879165649414 0.87070900201797485 0.069661371409893036
0.73941588401794434 0.90006530284881592 0.062991723418235779
0.94703471660614014 0.92668843269348145 0.04650522768497467
0.049811076372861862 0.042064428329467773 0.11374820023775101
0.27740389108657837 0.045754525810480118 0.12804563343524933
0.45890295505523682 0.049103934317827225 0.14107820391654968
0.63819390535354614 0.049057845026254654 0.15760107338428497
0.82158523797988892 0.050462730228900909 0.16754324734210968
0.049805287271738052 0.2362184077501297 0.13837139308452606
0.28192535042762756 0.24762263894081116 0.15518046915531158
0.47989419102668762 0.25564849376678467 0.17043733596801758
0.66666251420974731 0.26390102505683899 0.18338406085968018
0.85697227716445923 0.27219071984291077 0.19679410755634308
0.050372552126646042 0.4141901433467865 0.16877003014087677
0.29108119010925293 0.43541362881660461 0.18664014339447021
0.5019683837890625 0.45232477784156799 0.20373617112636566
0.69782733917236328 0.46792164444923401 0.21877679228782654
0.89409089088439941 0.48715737462043762 0.22773261368274689
0.063588209450244904 0.61248767375946045 0.19223114848136902
0.30702120065689087 0.63611131906509399 0.21474593877792358
0.5221216082572937 0.65945243835449219 0.23716920614242554
0.7266961932182312 0.68318653106689453 0.2524721622467041
0.92854189872741699 0.70863610506057739 0.25652989745140076
0.06658732146024704 0.82417649030685425 0.21655732393264771
0.31387275457382202 0.85072332620620728 0.24333727359771729
0.53542119264602661 0.87932604551315308 0.26747593283653259
0.74713432788848877 0.90885144472122192 0.27999585866928101
0.95236510038375854 0.9360470175743103 0.28017148375511169
0.048141509294509888 0.047391358762979507 0.19152799248695374
0.27909088134765625 0.051859252154827118 0.21625643968582153
0.46479198336601257 0.057709712535142899 0.23831981420516968
0.64636135101318359 0.057282764464616776 0.26489424705505371
0.83165043592453003 0.054411765187978745 0.28671655058860779
0.053927537053823471 0.23928438127040863 0.23643332719802856
0.28881058096885681 0.25070467591285706 0.26066923141479492
0.48695293068885803 0.26313760876655579 0.28658625483512878
0.67357802391052246 0.27153518795967102 0.31130146980285645
0.86500149965286255 0.27809193730354309 0.33551305532455444
0.053799886256456375 0.42269495129585266 0.28729456663131714
0.2980022132396698 0.4415130615234375 0.31350919604301453
0.50704878568649292 0.45989301800727844 0.33796176314353943
0.70247089862823486 0.47688844799995422 0.36709371209144592
0.89930099248886108 0.49564969539642334 0.39030569791793823
0.06882089376449585 0.62331783771514893 0.33604955673217773
0.31609490513801575 0.64591491222381592 0.36347776651382446
0.52875059843063354 0.66722840070724487 0.39643469452857971
0.73062121868133545 0.69140708446502686 0.4295993447303772
0.93112510442733765 0.71688640117645264 0.45000770688056946
0.071517869830131531 0.83719110488891602 0.38489946722984314
0.32145655155181885 0.86243957281112671 0.41697454452514648
0.54315489530563354 0.88884240388870239 0.45210358500480652
0.7509424090385437 0.9176059365272522 0.48394426703453064
0.95268440246582031 0.94427013397216797 0.50110536813735962
0.051410481333732605 0.047605760395526886 0.26686790585517883
0.27628791332244873 0.056006219238042831 0.30322468280792236
0.46816742420196533 0.059915386140346527 0.33861362934112549
0.65261363983154297 0.057986944913864136 0.37196177244186401
0.83748513460159302 0.052465029060840607 0.40091007947921753
0.054753053933382034 0.24270007014274597 0.33208954334259033
0.29279211163520813 0.2551206648349762 0.3693738579750061
0.49076187610626221 0.26721587777137756 0.40212678909301758
0.68047916889190674 0.27413532137870789 0.43616890907287598
0.87150859832763672 0.2787591814994812 0.46799597144126892
0.052872244268655777 0.42813313007354736 0.40331801772117615
0.30342260003089905 0.44808182120323181 0.43631058931350708
0.51008236408233643 0.46606647968292236 0.46964490413665771
0.70763957500457764 0.48168927431106567 0.51036065816879272
0.90485495328903198 0.49934595823287964 0.54362434148788452
0.068571440875530243 0.63234645128250122 0.47429272532463074
0.31898891925811768 0.65320611000061035 0.50816726684570312
0.53167629241943359 0.67552000284194946 0.54849684238433838
0.73452633619308472 0.69943928718566895 0.59342086315155029
0.9349326491355896 0.72159492969512939 0.62320107221603394
0.066798955202102661 0.84824687242507935 0.54782217741012573
0.32104074954986572 0.87186247110366821 0.58419406414031982
0.54498660564422607 0.89795976877212524 0.62571722269058228
0.75388312339782715 0.92441987991333008 0.66642296314239502
0.95478743314743042 0.9473956823348999 0.68701004981994629
0.052424024790525436 0.041303433477878571 0.3544195294380188
0.27416950464248657 0.049346443265676498 0.39993178844451904
0.46768805384635925 0.052795484662055969 0.44490057229995728
0.65414506196975708 0.05006740614771843 0.48488032817840576
0.83750826120376587 0.043471034616231918 0.5176163911819458
0.056248415261507034 0.24532201886177063 0.43423211574554443
0.29396376013755798 0.25492763519287109 0.47741883993148804
0.49385040998458862 0.26585802435874939 0.52179062366485596
0.68553930521011353 0.27175682783126831 0.56439089775085449
0.87471222877502441 0.27412235736846924 0.60011845827102661
0.057226561009883881 0.44178381562232971 0.51767969131469727
0.30804917216300964 0.45415946841239929 0.5601082444190979
0.51670974493026733 0.47078150510787964 0.60832935571670532
0.71386218070983887 0.48748946189880371 0.65510684251785278
0.90841948986053467 0.4982931911945343 0.69085001945495605
0.068336278200149536 0.64298748970031738 0.60739731788635254
0.321024090051651 0.66091656684875488 0.64996087551116943
0.53505122661590576 0.6845862865447998 0.70210510492324829
0.73981183767318726 0.70696842670440674 0.75452780723571777
0.93639278411865234 0.72203594446182251 0.78180277347564697
0.053041256964206696 0.85790896415710449 0.70305359363555908
0.31200328469276428 0.87987655401229858 0.74227845668792725
0.5406196117401123 0.90463244915008545 0.78870660066604614
0.75229877233505249 0.92782270908355713 0.83293998241424561
0.95114684104919434 0.9460030198097229 0.85225099325180054
