assets/lut/creative tealmagentagold.cube
# Created by: G'MIC (https://gmic.eu)
TITLE "tealmagentagold"
# LUT size
LUT_3D_SIZE 7
# Data domain
DOMAIN_MIN 0.0 0.0 0.0
DOMAIN_MAX 1.0 1.0 1.0
# LUT data points
0.025429071858525276 0.081065744161605835 0.059833258390426636
0.22766697406768799 0.10644417256116867 0.089927911758422852
0.42304530739784241 0.12734770774841309 0.093516208231449127
0.60291010141372681 0.11999688297510147 0.091383211314678192
0.77307766675949097 0.083101995289325714 0.097177959978580475
0.92933154106140137 0.044395625591278076 0.097795389592647552
1 0.018178123980760574 0.081213980913162231
0.1045648455619812 0.26314377784729004 0.098791249096393585
0.26718372106552124 0.2606254518032074 0.09646904468536377
0.44227531552314758 0.25344046950340271 0.10065478086471558
0.60921198129653931 0.24127055704593658 0.10050912201404572
0.77532309293746948 0.21434949338436127 0.10175006091594696
0.93299198150634766 0.19068199396133423 0.09737066924571991
1 0.17112471163272858 0.080246895551681519
0.20753867924213409 0.4147372841835022 0.11020325124263763
0.321827232837677 0.41019454598426819 0.11236084252595901
0.47867131233215332 0.3927551805973053 0.10591987520456314
0.63433635234832764 0.37608292698860168 0.1065426841378212
0.78419637680053711 0.35932725667953491 0.09896908700466156
0.93700122833251953 0.34141549468040466 0.10113517940044403
1 0.32966381311416626 0.080765910446643829
0.28111380338668823 0.55319970846176147 0.10892137885093689
0.36326569318771362 0.54808354377746582 0.11573871970176697
0.5014197826385498 0.53555315732955933 0.10970979928970337
0.65316116809844971 0.5201534628868103 0.10906526446342468
0.79672002792358398 0.50391256809234619 0.092618890106678009
0.93685883283615112 0.48975446820259094 0.087165474891662598
0.99982839822769165 0.48647072911262512 0.060656409710645676
0.30296370387077332 0.68953263759613037 0.080353155732154846
0.37286457419395447 0.68543756008148193 0.086306385695934296
0.4961860179901123 0.67718863487243652 0.078939802944660187
0.63338714838027954 0.66897124052047729 0.069942072033882141
0.77912181615829468 0.65982627868652344 0.062220301479101181
0.92943388223648071 0.64851868152618408 0.06377226859331131
0.99918276071548462 0.65018749237060547 0.022778589278459549
0.28461304306983948 0.83296501636505127 0.015403597615659237
0.35164716839790344 0.83281600475311279 0.012867527082562447
0.45769059658050537 0.8290666937828064 0.011901077814400196
0.58895331621170044 0.82637208700180054 0.011357355862855911
0.73923957347869873 0.82087957859039307 0.013134212233126163
0.90311580896377563 0.81170642375946045 0.020703738555312157
0.99818861484527588 0.81045758724212646 0.0045062494464218616
0.22100192308425903 0.97593390941619873 0
0.29817140102386475 0.97843074798583984 0
0.40836140513420105 0.97753095626831055 0
0.54404288530349731 0.97528928518295288 0
0.69608789682388306 0.97209680080413818 0
0.85040408372879028 0.96682089567184448 0
0.97247999906539917 0.96181297302246094 0
0.01737346313893795 0.098894692957401276 0.22881162166595459
0.24051238596439362 0.11470963805913925 0.24554862082004547
0.42973488569259644 0.12627111375331879 0.25029537081718445
0.60703587532043457 0.11886344105005264 0.24876230955123901
0.77489829063415527 0.088082514703273773 0.24817532300949097
0.9262765645980835 0.050642531365156174 0.24308572709560394
1 0.022705841809511185 0.22870498895645142
0.098451904952526093 0.26122933626174927 0.25530177354812622
0.26673626899719238 0.25916442275047302 0.25545972585678101
0.44302695989608765 0.25014904141426086 0.25557699799537659
0.61062437295913696 0.23870363831520081 0.25248491764068604
0.7741512656211853 0.22008165717124939 0.24710638821125031
0.9257514476776123 0.19465155899524689 0.23669900000095367
1 0.17492689192295074 0.22145891189575195
0.2137041836977005 0.41186445951461792 0.25563797354698181
0.32768440246582031 0.40987709164619446 0.25562465190887451
0.48306620121002197 0.39260745048522949 0.24987202882766724
0.6331787109375 0.37759548425674438 0.24752531945705414
0.7823978066444397 0.36297512054443359 0.23908239603042603
0.92788136005401611 0.34262922406196594 0.23147161304950714
0.99997377395629883 0.33165115118026733 0.21605494618415833
0.29250612854957581 0.54985976219177246 0.24486519396305084
0.36282402276992798 0.5496143102645874 0.24516887962818146
0.49759185314178467 0.5376470685005188 0.24183079600334167
0.65459966659545898 0.51672452688217163 0.24309010803699493
0.80467671155929565 0.49987232685089111 0.23415608704090118
0.93996220827102661 0.4904462993144989 0.22299449145793915
0.99997919797897339 0.48870822787284851 0.20127415657043457
0.31433546543121338 0.68898135423660278 0.21687498688697815
0.37223830819129944 0.68722712993621826 0.21966110169887543
0.48908859491348267 0.6794930100440979 0.21854637563228607
0.6302526593208313 0.66722410917282104 0.21244566142559052
0.78516525030136108 0.65438967943191528 0.20893183350563049
0.92817175388336182 0.64931869506835938 0.20267973840236664
0.99990522861480713 0.65129387378692627 0.17134681344032288
0.28257182240486145 0.83350706100463867 0.16725540161132812
0.34621050953865051 0.83432537317276001 0.16808396577835083
0.45257946848869324 0.83046859502792358 0.16618549823760986
0.58537405729293823 0.82475036382675171 0.16240416467189789
0.73761403560638428 0.81853646039962769 0.16659300029277802
0.89556664228439331 0.81292462348937988 0.15907217562198639
0.99754828214645386 0.81078433990478516 0.13904109597206116
0.20747201144695282 0.9774964451789856 0.10472641140222549
0.28320205211639404 0.98015600442886353 0.093395814299583435
0.39788049459457397 0.97852301597595215 0.095350034534931183
0.53584688901901245 0.97535598278045654 0.10222765058279037
0.68735945224761963 0.97224265336990356 0.12036971747875214
0.84051120281219482 0.96932542324066162 0.085576482117176056
0.9704781174659729 0.96548599004745483 0.086448535323143005
0.073119863867759705 0.10205771028995514 0.40976071357727051
0.24467566609382629 0.11612845212221146 0.41676604747772217
0.4313957691192627 0.12698417901992798 0.41844549775123596
0.6096498966217041 0.11585907638072968 0.41513893008232117
0.77401959896087646 0.083527781069278717 0.40939822793006897
0.92108410596847534 0.04688262939453125 0.40072235465049744
1 0.022283097729086876 0.38507327437400818
0.13363935053348541 0.25540748238563538 0.41562536358833313
0.27317327260971069 0.25570091605186462 0.41596487164497375
0.44613450765609741 0.25003263354301453 0.41688883304595947
0.61267739534378052 0.23667611181735992 0.41353800892829895
0.77352994680404663 0.21658140420913696 0.40757951140403748
0.91993468999862671 0.19090896844863892 0.40035578608512878
1 0.17411515116691589 0.38100042939186096
0.23158685863018036 0.40751445293426514 0.4082036018371582
0.33349138498306274 0.40342113375663757 0.40996000170707703
0.48284602165222168 0.38957828283309937 0.40603220462799072
0.63203072547912598 0.37573614716529846 0.40213879942893982
0.78466761112213135 0.3585205078125 0.39489945769309998
0.92683041095733643 0.34005126357078552 0.38695874810218811
1 0.33160138130187988 0.371175616979599
0.30478012561798096 0.54630964994430542 0.39375096559524536
0.37627941370010376 0.54299658536911011 0.39439582824707031
0.50583130121231079 0.53058487176895142 0.39577516913414001
0.65737712383270264 0.5141451358795166 0.3925071656703949
0.8049243688583374 0.50083136558532715 0.38170957565307617
0.94287443161010742 0.4903876781463623 0.37509056925773621
1 0.49152904748916626 0.35843372344970703
0.32826155424118042 0.68528223037719727 0.36571654677391052
0.38776591420173645 0.68500471115112305 0.36873999238014221
0.50062680244445801 0.67751932144165039 0.36829653382301331
0.64032071828842163 0.66636115312576294 0.36357623338699341
0.79304271936416626 0.65293002128601074 0.36076906323432922
0.92793720960617065 0.65011078119277954 0.35627445578575134
0.99977397918701172 0.65267139673233032 0.33941888809204102
0.28575700521469116 0.83139228820800781 0.3355594277381897
0.3539106547832489 0.83409303426742554 0.34413176774978638
0.46551668643951416 0.82943791151046753 0.33811458945274353
0.59813386201858521 0.82276684045791626 0.32977724075317383
0.73874133825302124 0.82037240266799927 0.33189153671264648
0.89269506931304932 0.81501203775405884 0.32878565788269043
0.99985367059707642 0.80718076229095459 0.32233953475952148
0.19819749891757965 0.97610020637512207 0.30024701356887817
0.28361630439758301 0.97865849733352661 0.29695010185241699
0.40323489904403687 0.9773329496383667 0.28890150785446167
0.54123634099960327 0.97472649812698364 0.28910908102989197
0.68624860048294067 0.97297507524490356 0.30283358693122864
0.83798068761825562 0.97208172082901001 0.30032020807266235
0.9763457179069519 0.96549254655838013 0.29692795872688293
0.13599187135696411 0.11723817139863968 0.58513432741165161
0.262571781873703 0.12047436088323593 0.58823531866073608
0.43626731634140015 0.12989947199821472 0.58642303943634033
0.61142367124557495 0.11622312664985657 0.57905840873718262
0.77174800634384155 0.076956339180469513 0.56918078660964966
0.92018812894821167 0.039994601160287857 0.55802798271179199
1 0.020624138414859772 0.5432732105255127
0.19286133348941803 0.25215980410575867 0.58226495981216431
0.29355010390281677 0.24893809854984283 0.58164423704147339
0.44932052493095398 0.24864187836647034 0.58042913675308228
0.61309581995010376 0.23613762855529785 0.57367938756942749
0.77008724212646484 0.21099793910980225 0.56423425674438477
0.91743379831314087 0.18683826923370361 0.55490976572036743
1 0.17251957952976227 0.53928226232528687
0.27241861820220947 0.39818316698074341 0.56951308250427246
0.35141530632972717 0.39119544625282288 0.56878411769866943
0.48913311958312988 0.38242194056510925 0.56930756568908691
0.63715606927871704 0.36839354038238525 0.56196361780166626
0.78149867057800293 0.35366335511207581 0.54935050010681152
0.91791719198226929 0.33993682265281677 0.53797179460525513
1 0.33227726817131042 0.52671355009078979
0.32463100552558899 0.53977084159851074 0.55445241928100586
0.39378413558006287 0.53489881753921509 0.54914546012878418
0.52059131860733032 0.52287065982818604 0.54988306760787964
0.66634255647659302 0.50604474544525146 0.54340696334838867
0.80330497026443481 0.49850213527679443 0.52955025434494019
0.92684423923492432 0.49383324384689331 0.51977735757827759
0.99970471858978271 0.4946918785572052 0.51076418161392212
0.33982193470001221 0.68027210235595703 0.52477335929870605
0.40384459495544434 0.68084555864334106 0.51805299520492554
0.51690566539764404 0.67383641004562378 0.51519250869750977
0.65070897340774536 0.66243189573287964 0.51027178764343262
0.79508882761001587 0.65422534942626953 0.50844764709472656
0.92124611139297485 0.65097296237945557 0.50085902214050293
0.99893885850906372 0.65352994203567505 0.48933500051498413
0.29898607730865479 0.83052152395248413 0.49271246790885925
0.3671744167804718 0.83083969354629517 0.49186521768569946
0.4804019033908844 0.82658940553665161 0.4873843789100647
0.61159497499465942 0.82254904508590698 0.48335954546928406
0.74727743864059448 0.82100671529769897 0.4843083918094635
0.8914000391960144 0.81545400619506836 0.47541460394859314
0.99958550930023193 0.80674272775650024 0.46657410264015198
0.22114261984825134 0.97595357894897461 0.46362629532814026
0.29982450604438782 0.97631776332855225 0.46078881621360779
0.41640013456344604 0.97482681274414062 0.45364463329315186
0.55454343557357788 0.97204315662384033 0.45090919733047485
0.69882071018218994 0.97025775909423828 0.45480111241340637
0.8441932201385498 0.97034788131713867 0.45417791604995728
0.98148542642593384 0.96262800693511963 0.44786331057548523
0.18813090026378632 0.1268334686756134 0.75582951307296753
0.29540979862213135 0.12476743757724762 0.75846976041793823
0.44848507642745972 0.12320244312286377 0.75424653291702271
0.61195832490921021 0.10490761697292328 0.74090367555618286
0.77140837907791138 0.069417648017406464 0.72606945037841797
0.92487287521362305 0.037881560623645782 0.71512740850448608
1 0.021148217841982841 0.70024508237838745
0.23712486028671265 0.25124964118003845 0.74912536144256592
0.31910437345504761 0.24469242990016937 0.74784201383590698
0.46094813942909241 0.2416398823261261 0.74584579467773438
0.61441659927368164 0.22819514572620392 0.7323186993598938
0.7684166431427002 0.2044677734375 0.71752870082855225
0.92269885540008545 0.1851264089345932 0.70790165662765503
1 0.17374745011329651 0.69495898485183716
0.31179350614547729 0.39012366533279419 0.73182159662246704
0.38213154673576355 0.38479998707771301 0.73079043626785278
0.50711154937744141 0.37349247932434082 0.729777991771698
0.63923346996307373 0.3638424277305603 0.72010183334350586
0.77950006723403931 0.3517492413520813 0.70607298612594604
0.92571592330932617 0.33859241008758545 0.69439458847045898
1 0.33252134919166565 0.68281501531600952
0.36327317357063293 0.53405779600143433 0.70998436212539673
0.42717304825782776 0.52923250198364258 0.70735812187194824
0.54081213474273682 0.51632863283157349 0.70771437883377075
0.66931432485580444 0.50655698776245117 0.70092308521270752
0.80101746320724487 0.49852409958839417 0.68860137462615967
0.92980599403381348 0.49242091178894043 0.67585992813110352
1 0.49364557862281799 0.66477221250534058
0.37097269296646118 0.67387354373931885 0.68183189630508423
0.42864209413528442 0.67512422800064087 0.67595988512039185
0.53431934118270874 0.66875714063644409 0.6743544340133667
0.66541832685470581 0.6616242527961731 0.66999226808547974
0.80060440301895142 0.65266269445419312 0.66393232345581055
0.92759215831756592 0.6451646089553833 0.6522068977355957
1 0.6526830792427063 0.63949477672576904
0.33883154392242432 0.83039069175720215 0.64059734344482422
0.39432826638221741 0.82633191347122192 0.64002662897109985
0.49172410368919373 0.82506358623504639 0.63584214448928833
0.61907118558883667 0.82201027870178223 0.63299262523651123
0.75795513391494751 0.81674522161483765 0.63031256198883057
0.90088510513305664 0.80826830863952637 0.62273102998733521
0.9984813928604126 0.81082051992416382 0.61084723472595215
0.26900017261505127 0.97593951225280762 0.60655635595321655
0.33601424098014832 0.97322201728820801 0.60415732860565186
0.43679928779602051 0.97229504585266113 0.60147327184677124
0.56696122884750366 0.97048205137252808 0.59995347261428833
0.71044743061065674 0.96599447727203369 0.5982358455657959
0.85109841823577881 0.96605366468429565 0.59427636861801147
0.98544549942016602 0.95824283361434937 0.58754086494445801
0.22001528739929199 0.11223501712083817 0.91456300020217896
0.32762566208839417 0.11602769792079926 0.92045599222183228
0.4703681468963623 0.11474715918302536 0.914154052734375
0.6183885931968689 0.094854973256587982 0.8933597207069397
0.76966643333435059 0.065502017736434937 0.87605416774749756
0.9176943302154541 0.040342189371585846 0.86613243818283081
1 0.025723999366164207 0.8512643575668335
0.26498502492904663 0.24061305820941925 0.90704572200775146
0.35030803084373474 0.24059288203716278 0.91020208597183228
0.48313906788825989 0.23624029755592346 0.90666919946670532
0.62238609790802002 0.22158680856227875 0.88010329008102417
0.77153337001800537 0.20228549838066101 0.86479902267456055
0.92223149538040161 0.18717408180236816 0.85884279012680054
1 0.17780923843383789 0.84758496284484863
0.34471544623374939 0.37886485457420349 0.88674634695053101
0.40367749333381653 0.38118621706962585 0.88447248935699463
0.5175366997718811 0.37100896239280701 0.88277995586395264
0.64415603876113892 0.35959804058074951 0.86587065458297729
0.78534764051437378 0.34853830933570862 0.85611855983734131
0.93350207805633545 0.33825120329856873 0.85053986310958862
1 0.33339017629623413 0.8394349217414856
0.41256406903266907 0.52050936222076416 0.86834990978240967
0.45953381061553955 0.51869863271713257 0.86861670017242432
0.55609714984893799 0.51030898094177246 0.86429822444915771
0.67571127414703369 0.50289511680603027 0.853962242603302
0.80509102344512939 0.49728792905807495 0.84534180164337158
0.93772166967391968 0.49332919716835022 0.837807297706604
1 0.49248805642127991 0.82410013675689697
0.40448394417762756 0.67203730344772339 0.8365059494972229
0.452543705701828 0.66915279626846313 0.83924704790115356
0.55059242248535156 0.6628119945526123 0.83674150705337524
0.675639808177948 0.65403276681900024 0.82909417152404785
0.80429857969284058 0.65015393495559692 0.81865471601486206
0.92923134565353394 0.6506582498550415 0.80920004844665527
1 0.65350508689880371 0.79530078172683716
0.3693402111530304 0.82644730806350708 0.80083078145980835
0.41529923677444458 0.82254904508590698 0.7973405122756958
0.50417125225067139 0.82254904508590698 0.79471385478973389
0.62738656997680664 0.8179362416267395 0.78877967596054077
0.77013754844665527 0.8108896017074585 0.7787165641784668
0.90505337715148926 0.81127983331680298 0.76878100633621216
0.99845212697982788 0.81026947498321533 0.75722450017929077
0.30831140279769897 0.97260838747024536 0.75630319118499756
0.36893326044082642 0.96996039152145386 0.75204020738601685
0.45663967728614807 0.97210651636123657 0.75212472677230835
0.57659482955932617 0.97221136093139648 0.75176078081130981
0.71534734964370728 0.96911764144897461 0.74583262205123901
0.8570106029510498 0.96676337718963623 0.73815101385116577
0.98805457353591919 0.95665520429611206 0.72736239433288574
0.24670714139938354 0.091108612716197968 1
0.35219967365264893 0.099175408482551575 1
0.48223823308944702 0.098169468343257904 1
0.61781400442123413 0.082661166787147522 0.99984580278396606
0.75705009698867798 0.061755295842885971 0.99731218814849854
0.88981837034225464 0.044462211430072784 0.994254469871521
0.99424105882644653 0.030969478189945221 0.98779797554016113
0.29045680165290833 0.22595678269863129 1
0.37495231628417969 0.23143084347248077 1
0.49517923593521118 0.22797513008117676 0.99998563528060913
0.62346071004867554 0.21371921896934509 0.99462956190109253
0.76614153385162354 0.20074033737182617 0.99198955297470093
0.9046090841293335 0.19049941003322601 0.99203985929489136
0.99963361024856567 0.18181714415550232 0.98696881532669067
0.36436712741851807 0.36497819423675537 0.99812626838684082
0.41533255577087402 0.36982458829879761 0.99398094415664673
0.52024847269058228 0.3673592209815979 0.99425786733627319
0.64505231380462646 0.35519865155220032 0.9871981143951416
0.78410130739212036 0.34547671675682068 0.98807448148727417
0.92122882604598999 0.33955675363540649 0.98992908000946045
1 0.33474600315093994 0.98459899425506592
0.44327443838119507 0.50720202922821045 0.99331367015838623
0.48431104421615601 0.50462818145751953 0.99492347240447998
0.56428080797195435 0.5058823823928833 0.99110490083694458
0.67820388078689575 0.5007205605506897 0.98694497346878052
0.80505001544952393 0.4948669970035553 0.98645567893981934
0.9323311448097229 0.49257543683052063 0.98703515529632568
1 0.4902941882610321 0.9773184061050415
0.45197668671607971 0.66174662113189697 0.9810405969619751
0.48518189787864685 0.66003185510635376 0.98642903566360474
0.56728976964950562 0.65745443105697632 0.98509389162063599
0.68112677335739136 0.65314364433288574 0.97907036542892456
0.80484473705291748 0.65028750896453857 0.97328585386276245
0.92699664831161499 0.65031415224075317 0.96917015314102173
1 0.6497873067855835 0.95240557193756104
0.39684712886810303 0.81898391246795654 0.95372778177261353
0.43899324536323547 0.8222578763961792 0.95274561643600464
0.51986491680145264 0.8227354884147644 0.9556584358215332
0.63675898313522339 0.81868398189544678 0.95026099681854248
0.77347242832183838 0.81103515625 0.94031137228012085
0.90312319993972778 0.81012016534805298 0.92932355403900146
0.99870997667312622 0.80614686012268066 0.91223478317260742
0.33663347363471985 0.96686232089996338 0.90725111961364746
0.39531883597373962 0.97034794092178345 0.90771108865737915
0.47628006339073181 0.974051833152771 0.90980488061904907
0.58926665782928467 0.97326803207397461 0.90779751539230347
0.72333270311355591 0.9685857892036438 0.89886015653610229
0.8620491623878479 0.96209263801574707 0.88588559627532959
0.98856145143508911 0.95395737886428833 0.87193310260772705
