assets/lut/creative dropblues.cube
# Created by: G'MIC (https://gmic.eu)
TITLE "dropblues"
# LUT size
LUT_3D_SIZE 5
# Data domain
DOMAIN_MIN 0.0 0.0 0.0
DOMAIN_MAX 1.0 1.0 1.0
# LUT data points
0.076655171811580658 0.081798046827316284 0.073143929243087769
0.27577167749404907 0.085729129612445831 0.077945545315742493
0.50381463766098022 0.072536513209342957 0.057471916079521179
0.72693943977355957 0.049387373030185699 0.051132950931787491
0.95296543836593628 0.025958102196455002 0.045264687389135361
0.064408019185066223 0.28322789072990417 0.051116973161697388
0.28999477624893188 0.28510281443595886 0.052946995943784714
0.49998196959495544 0.27686670422554016 0.041898824274539948
0.72661978006362915 0.27316007018089294 0.043652091175317764
0.94762504100799561 0.25894224643707275 0.036276709288358688
0.045301459729671478 0.50095874071121216 0.039809733629226685
0.28027477860450745 0.49782779812812805 0.037605345249176025
0.50438576936721802 0.49334800243377686 0.032694123685359955
0.7188231348991394 0.49078583717346191 0.028386792168021202
0.94098997116088867 0.48499825596809387 0.023571942001581192
0.059979680925607681 0.71737748384475708 0.020521664991974831
0.28601741790771484 0.71712136268615723 0.020747466012835503
0.4965568482875824 0.71492147445678711 0.017122127115726471
0.71992599964141846 0.70600444078445435 0.027449963614344597
0.93417489528656006 0.70959824323654175 0.019572583958506584
0.044863756746053696 0.93796658515930176 0.0081482529640197754
0.26621907949447632 0.93187761306762695 0.016011271625757217
0.49558231234550476 0.93345361948013306 0.0086619509384036064
0.72094893455505371 0.93520337343215942 0.0058929743245244026
0.94139653444290161 0.92548054456710815 0.0036335366312414408
0.10481106489896774 0.10202693194150925 0.14688989520072937
0.20376263558864594 0.15808491408824921 0.19868706166744232
0.33260181546211243 0.23611851036548615 0.2661530077457428
0.57174277305603027 0.26754122972488403 0.31256192922592163
0.8384355902671814 0.24156436324119568 0.3133147656917572
0.13911724090576172 0.27554279565811157 0.25565209984779358
0.27967911958694458 0.28596684336662292 0.27085983753204346
0.44924446940422058 0.30344754457473755 0.29253345727920532
0.67378759384155273 0.31438073515892029 0.30225580930709839
0.90749508142471313 0.30201363563537598 0.29374119639396667
0.03649432584643364 0.49923339486122131 0.26804092526435852
0.27546864748001099 0.49799764156341553 0.26432961225509644
0.50082308053970337 0.49398529529571533 0.26475584506988525
0.71927326917648315 0.49068087339401245 0.26060312986373901
0.94298487901687622 0.48811179399490356 0.25903418660163879
0.037676297128200531 0.71989166736602783 0.25197035074234009
0.25176441669464111 0.71188527345657349 0.25460648536682129
0.49772953987121582 0.71225899457931519 0.25030189752578735
0.72176456451416016 0.7116539478302002 0.25463458895683289
0.94039130210876465 0.70753771066665649 0.24814687669277191
0.0063537745736539364 0.94093883037567139 0.24631431698799133
0.21837913990020752 0.92714035511016846 0.23986931145191193
0.48783349990844727 0.93681478500366211 0.23642200231552124
0.71458852291107178 0.93246448040008545 0.23902292549610138
0.93642866611480713 0.9139094352722168 0.23526038229465485
0.16385142505168915 0.14399521052837372 0.22867660224437714
0.22721834480762482 0.18702705204486847 0.26742467284202576
0.3392939567565918 0.26186093688011169 0.33460497856140137
0.46777313947677612 0.35767215490341187 0.41255265474319458
0.61806493997573853 0.44215908646583557 0.4902205765247345
0.25506347417831421 0.27705591917037964 0.32106360793113708
0.29975363612174988 0.30227178335189819 0.34267815947532654
0.39189353585243225 0.34752979874610901 0.39037096500396729
0.50908058881759644 0.41752564907073975 0.45215210318565369
0.69359356164932251 0.47283050417900085 0.51912051439285278
0.23519320785999298 0.47570264339447021 0.44925087690353394
0.34577500820159912 0.47906267642974854 0.45996442437171936
0.48859268426895142 0.49349257349967957 0.48008492588996887
0.6561279296875 0.51409423351287842 0.50227528810501099
0.86969929933547974 0.53010493516921997 0.51743358373641968
0.048069704324007034 0.71539855003356934 0.48635059595108032
0.25093057751655579 0.70922046899795532 0.48255342245101929
0.49169319868087769 0.71096616983413696 0.48536166548728943
0.71706736087799072 0.71223253011703491 0.48383140563964844
0.94195115566253662 0.71104651689529419 0.48094204068183899
0.0047305687330663204 0.93198609352111816 0.47856923937797546
0.22705483436584473 0.93356120586395264 0.4777989387512207
0.47928115725517273 0.93221396207809448 0.48175838589668274
0.71974164247512817 0.93619340658187866 0.47529709339141846
0.91424095630645752 0.92263913154602051 0.47544202208518982
0.22897432744503021 0.19706496596336365 0.31900444626808167
0.27503961324691772 0.23130844533443451 0.34778538346290588
0.36713597178459167 0.294107586145401 0.4024568498134613
0.48633736371994019 0.37595885992050171 0.47606512904167175
0.61656302213668823 0.47128206491470337 0.55717343091964722
0.29379189014434814 0.30517292022705078 0.39419266581535339
0.33636265993118286 0.32679456472396851 0.41572505235671997
0.40957602858543396 0.37008559703826904 0.45550161600112915
0.52299982309341431 0.43657514452934265 0.51639097929000854
0.64562851190567017 0.5177617073059082 0.58833450078964233
0.41867831349372864 0.46900102496147156 0.51583516597747803
0.44842860102653503 0.48139935731887817 0.52562326192855835
0.5064394474029541 0.51185733079910278 0.55369323492050171
0.59871000051498413 0.55494815111160278 0.59708064794540405
0.70983850955963135 0.6151612401008606 0.65560722351074219
0.35606911778450012 0.6896941065788269 0.666789710521698
0.44237282872200012 0.69240212440490723 0.6686825156211853
0.56179666519165039 0.70049071311950684 0.67866343259811401
0.71105712652206421 0.71549320220947266 0.70354634523391724
0.88088458776473999 0.73837697505950928 0.72781294584274292
0.025041153654456139 0.93507164716720581 0.70482438802719116
0.22101029753684998 0.93190270662307739 0.70274704694747925
0.47960913181304932 0.93988531827926636 0.70648449659347534
0.70881026983261108 0.93094825744628906 0.70407760143280029
0.93120181560516357 0.93098747730255127 0.70499593019485474
0.28527256846427917 0.24874822795391083 0.39870074391365051
0.32699573040008545 0.27725297212600708 0.42672929167747498
0.40256515145301819 0.33461099863052368 0.47963148355484009
0.51193970441818237 0.40497148036956787 0.54323118925094604
0.63254469633102417 0.49389755725860596 0.62073057889938354
0.34532111883163452 0.33745196461677551 0.46798616647720337
0.38202181458473206 0.36011156439781189 0.49036768078804016
0.44766315817832947 0.40050294995307922 0.52583354711532593
0.54331594705581665 0.46159994602203369 0.58502376079559326
0.6592177152633667 0.5366213321685791 0.65149044990539551
0.45058479905128479 0.48777711391448975 0.57519370317459106
0.47873115539550781 0.50038295984268188 0.59130901098251343
0.53211414813995361 0.52838230133056641 0.61735278367996216
0.6136709451675415 0.57561516761779785 0.66320711374282837
0.72479450702667236 0.63525551557540894 0.7226218581199646
0.59512096643447876 0.66917794942855835 0.7138134241104126
0.61438041925430298 0.67472702264785767 0.72027546167373657
0.65665018558502197 0.69333446025848389 0.73768478631973267
0.71976327896118164 0.72704672813415527 0.76818180084228516
0.81448227167129517 0.77063083648681641 0.81689625978469849
0.48622423410415649 0.89854621887207031 0.88172018527984619
0.55427283048629761 0.89151132106781006 0.87365067005157471
0.64741706848144531 0.89014774560928345 0.8679196834564209
0.7831801176071167 0.92145854234695435 0.90250289440155029
0.9230847954750061 0.9227413535118103 0.90065079927444458
