assets/lut/creative futuristicbleak 02.cube
# Created by: G'MIC (https://gmic.eu)
TITLE "futuristicbleak_2"
# LUT size
LUT_3D_SIZE 7
# Data domain
DOMAIN_MIN 0.0 0.0 0.0
DOMAIN_MAX 1.0 1.0 1.0
# LUT data points
0.010012084618210793 0.086609348654747009 0.10988284647464752
0.058715507388114929 0.10351327806711197 0.13029859960079193
0.16771715879440308 0.14431387186050415 0.15630654990673065
0.26263278722763062 0.19438141584396362 0.18122746050357819
0.37864580750465393 0.25544348359107971 0.19898712635040283
0.52855771780014038 0.32165718078613281 0.20330633223056793
0.70238000154495239 0.38484233617782593 0.20263898372650146
0.028123714029788971 0.1701456606388092 0.16069813072681427
0.098828382790088654 0.18553005158901215 0.15812014043331146
0.19865283370018005 0.21056830883026123 0.15259213745594025
0.29473116993904114 0.2590198814868927 0.16729392111301422
0.41405388712882996 0.3101230263710022 0.18485710024833679
0.55485379695892334 0.36517244577407837 0.20470556616783142
0.70803868770599365 0.42662486433982849 0.22831675410270691
0.12593366205692291 0.30323362350463867 0.24955745041370392
0.17617174983024597 0.31010037660598755 0.23610681295394897
0.2633092999458313 0.33579185605049133 0.24197325110435486
0.360728919506073 0.36283615231513977 0.24117021262645721
0.48477756977081299 0.4075809121131897 0.22973138093948364
0.60642737150192261 0.4549044668674469 0.23417308926582336
0.74834948778152466 0.50997710227966309 0.26506951451301575
0.29077771306037903 0.44350001215934753 0.34463098645210266
0.32780936360359192 0.44957131147384644 0.32466226816177368
0.4071926474571228 0.47206059098243713 0.31959766149520874
0.48248252272605896 0.4900396466255188 0.33165726065635681
0.58492249250411987 0.52424639463424683 0.335600346326828
0.69983506202697754 0.55543071031570435 0.31825157999992371
0.81720614433288574 0.59571927785873413 0.31426253914833069
0.49964874982833862 0.59820115566253662 0.40601703524589539
0.52684241533279419 0.59958738088607788 0.40018585324287415
0.58171290159225464 0.61072659492492676 0.39989319443702698
0.63951897621154785 0.62346714735031128 0.40712514519691467
0.71631819009780884 0.64603906869888306 0.4254097044467926
0.79695522785186768 0.66665536165237427 0.43451908230781555
0.88555997610092163 0.69227892160415649 0.41288277506828308
0.65829825401306152 0.72485774755477905 0.48569485545158386
0.67851459980010986 0.72959047555923462 0.48391541838645935
0.7247193455696106 0.73355644941329956 0.47883260250091553
0.771148681640625 0.74272280931472778 0.48015114665031433
0.82633256912231445 0.74854081869125366 0.49219229817390442
0.88325482606887817 0.76417315006256104 0.50224596261978149
0.95173114538192749 0.77946233749389648 0.50619137287139893
0.79661720991134644 0.84326374530792236 0.55164253711700439
0.81042975187301636 0.84485101699829102 0.54912000894546509
0.84149312973022461 0.84351998567581177 0.54669332504272461
0.87576782703399658 0.84158337116241455 0.53923743963241577
0.92371469736099243 0.8451765775680542 0.54043734073638916
0.9646340012550354 0.85100531578063965 0.54907840490341187
0.99582022428512573 0.86281049251556396 0.57066792249679565
0.0026126187294721603 0.10111294686794281 0.12401224672794342
0.02432352676987648 0.12277515232563019 0.14680697023868561
0.10355706512928009 0.17017519474029541 0.19184271991252899
0.2054436206817627 0.22191597521305084 0.24246831238269806
0.33511441946029663 0.27950009703636169 0.29573339223861694
0.48142701387405396 0.34132713079452515 0.32071790099143982
0.65880554914474487 0.40611490607261658 0.33530601859092712
0.030245477333664894 0.17539069056510925 0.17600201070308685
0.080937676131725311 0.19303923845291138 0.19169554114341736
0.16670627892017365 0.22290709614753723 0.21728822588920593
0.26393383741378784 0.2625332772731781 0.25443845987319946
0.38136014342308044 0.31858798861503601 0.28918826580047607
0.52903276681900024 0.37525480985641479 0.31065699458122253
0.70467501878738403 0.43293169140815735 0.30802685022354126
0.13102069497108459 0.30359867215156555 0.27116194367408752
0.171213299036026 0.31466683745384216 0.27099135518074036
0.25198552012443542 0.33880868554115295 0.27656704187393188
0.35156345367431641 0.36604925990104675 0.27382957935333252
0.47468268871307373 0.41335764527320862 0.2833918035030365
0.60779619216918945 0.45763856172561646 0.2938893735408783
0.75380301475524902 0.50838232040405273 0.31496360898017883
0.28999850153923035 0.44470277428627014 0.37407761812210083
0.31597334146499634 0.45062348246574402 0.36674734950065613
0.38643530011177063 0.4687347412109375 0.34713470935821533
0.47184810042381287 0.49108690023422241 0.35458832979202271
0.57847750186920166 0.52258628606796265 0.35704576969146729
0.70016282796859741 0.56136196851730347 0.34622311592102051
0.81272196769714355 0.59935528039932251 0.35000708699226379
0.49337148666381836 0.59169644117355347 0.44122815132141113
0.51651692390441895 0.59991127252578735 0.42999812960624695
0.57170432806015015 0.61293143033981323 0.42328730225563049
0.63392770290374756 0.62286734580993652 0.42584362626075745
0.713459312915802 0.64923584461212158 0.44637665152549744
0.79247766733169556 0.67028629779815674 0.45263749361038208
0.88601404428482056 0.69500839710235596 0.43379074335098267
0.6449047327041626 0.72795027494430542 0.50617903470993042
0.66394519805908203 0.73135256767272949 0.50224798917770386
0.72274267673492432 0.73396891355514526 0.49788805842399597
0.77014636993408203 0.74301755428314209 0.49733337759971619
0.82480818033218384 0.75282186269760132 0.50601029396057129
0.88446176052093506 0.76505517959594727 0.51872366666793823
0.95449000597000122 0.7824748158454895 0.52101993560791016
0.78141099214553833 0.84597378969192505 0.56971102952957153
0.80160415172576904 0.84564435482025146 0.56685358285903931
0.84155255556106567 0.84234929084777832 0.56100183725357056
0.87557685375213623 0.84594309329986572 0.55659902095794678
0.92035740613937378 0.84554988145828247 0.55756694078445435
0.96417629718780518 0.85009282827377319 0.56095713376998901
0.9954870343208313 0.86577063798904419 0.58549529314041138
0 0.12180304527282715 0.15162928402423859
0.0044380933977663517 0.14624388515949249 0.170528843998909
0.066959783434867859 0.19361965358257294 0.21487148106098175
0.17501689493656158 0.2462993860244751 0.26311671733856201
0.28484892845153809 0.30954992771148682 0.33028200268745422
0.41875258088111877 0.38053318858146667 0.40491154789924622
0.60201221704483032 0.44247108697891235 0.45126402378082275
0.023781241849064827 0.19309546053409576 0.19922639429569244
0.044986322522163391 0.21299725770950317 0.2155681699514389
0.11693969368934631 0.24483607709407806 0.24380074441432953
0.21933723986148834 0.29082658886909485 0.28935953974723816
0.33206456899642944 0.3468206524848938 0.35277554392814636
0.46841606497764587 0.40858897566795349 0.41270208358764648
0.64873450994491577 0.46902570128440857 0.45228150486946106
0.15173521637916565 0.31432759761810303 0.29216876626014709
0.17813131213188171 0.32592019438743591 0.29771861433982849
0.24001818895339966 0.34984242916107178 0.31887641549110413
0.32925865054130554 0.37740719318389893 0.34341192245483398
0.45055922865867615 0.42616745829582214 0.38116443157196045
0.57493460178375244 0.47095558047294617 0.41827812790870667
0.73229366540908813 0.51794874668121338 0.43075799942016602
0.30581891536712646 0.4520532488822937 0.39814427495002747
0.32626134157180786 0.45690888166427612 0.39817258715629578
0.37899839878082275 0.47091600298881531 0.40316376090049744
0.46922853589057922 0.49615520238876343 0.40019777417182922
0.57339948415756226 0.52999746799468994 0.4028685986995697
0.69018185138702393 0.56711286306381226 0.41207841038703918
0.81106996536254883 0.6002383828163147 0.4191584587097168
0.50198066234588623 0.59353965520858765 0.48543697595596313
0.5220944881439209 0.60148537158966064 0.48457780480384827
0.56358551979064941 0.61541283130645752 0.47199442982673645
0.62809127569198608 0.63105368614196777 0.46749770641326904
0.70275843143463135 0.65460044145584106 0.48018321394920349
0.78218036890029907 0.67585623264312744 0.48383897542953491
0.88273477554321289 0.6976238489151001 0.46440169215202332
0.65617460012435913 0.72652685642242432 0.55689406394958496
0.67282307147979736 0.72947007417678833 0.54811245203018188
0.70945757627487183 0.73694628477096558 0.53796303272247314
0.7634550929069519 0.74556273221969604 0.53451943397521973
0.81562095880508423 0.75640767812728882 0.54011809825897217
0.87840533256530762 0.76922917366027832 0.55109870433807373
0.95052587985992432 0.78438395261764526 0.54770159721374512
0.78074926137924194 0.84115928411483765 0.60773676633834839
0.79156434535980225 0.84654951095581055 0.60808366537094116
0.82441103458404541 0.84232407808303833 0.59727519750595093
0.86811161041259766 0.84724521636962891 0.59052073955535889
0.91567867994308472 0.85022133588790894 0.58491146564483643
0.96319043636322021 0.85666489601135254 0.59173691272735596
0.99429583549499512 0.86586540937423706 0.60737228393554688
0 0.15466806292533875 0.18557524681091309
0.0015509661752730608 0.1755179762840271 0.20324629545211792
0.042446285486221313 0.21633030474185944 0.24096861481666565
0.1406884640455246 0.26374778151512146 0.28797972202301025
0.27042356133460999 0.32568058371543884 0.35616424679756165
0.40094605088233948 0.40172454714775085 0.42053711414337158
0.54822325706481934 0.47072809934616089 0.49132436513900757
0.017961688339710236 0.22046801447868347 0.22751979529857635
0.037634443491697311 0.23530286550521851 0.24045884609222412
0.089207425713539124 0.27085697650909424 0.27062186598777771
0.20189577341079712 0.30945387482643127 0.3183315098285675
0.31989675760269165 0.3647768497467041 0.37469956278800964
0.44700184464454651 0.43506056070327759 0.43548139929771423
0.5996895432472229 0.49723780155181885 0.49987155199050903
0.14595572650432587 0.32636284828186035 0.31017822027206421
0.1714446097612381 0.33792465925216675 0.32050260901451111
0.23061908781528473 0.3675701916217804 0.34573394060134888
0.3083837628364563 0.39513909816741943 0.37569814920425415
0.42670583724975586 0.44469472765922546 0.4143269956111908
0.54134482145309448 0.49608075618743896 0.4693983793258667
0.6806102991104126 0.55040401220321655 0.52392995357513428
0.32512807846069336 0.4624372124671936 0.41605928540229797
0.34350565075874329 0.46550679206848145 0.41728726029396057
0.39421308040618896 0.48138728737831116 0.4297880232334137
0.46281257271766663 0.50465130805969238 0.44597122073173523
0.562785804271698 0.54031616449356079 0.46564981341362
0.66387009620666504 0.57548028230667114 0.49729374051094055
0.77529042959213257 0.61555498838424683 0.52930611371994019
0.51442581415176392 0.60276585817337036 0.52092128992080688
0.53143775463104248 0.60820466279983521 0.5201728343963623
0.5729910135269165 0.61953604221343994 0.5196845531463623
0.62954169511795044 0.63411140441894531 0.51480883359909058
0.69862514734268188 0.65512228012084961 0.51531541347503662
0.77901118993759155 0.67999136447906494 0.51801270246505737
0.87938493490219116 0.70243805646896362 0.5115121603012085
0.66708934307098389 0.73163312673568726 0.60574781894683838
0.68300056457519531 0.73345625400543213 0.60105586051940918
0.71398746967315674 0.73953855037689209 0.58428633213043213
0.75335800647735596 0.7490851879119873 0.58197230100631714
0.81076598167419434 0.76010823249816895 0.58156657218933105
0.87359637022018433 0.77540051937103271 0.58780193328857422
0.94770336151123047 0.78745603561401367 0.5763322114944458
0.78397011756896973 0.83766251802444458 0.65350127220153809
0.80053389072418213 0.83988720178604126 0.64919322729110718
0.82279902696609497 0.8436008095741272 0.64145088195800781
0.85847204923629761 0.84914207458496094 0.63411659002304077
0.90482026338577271 0.85400700569152832 0.62798053026199341
0.959381103515625 0.86089003086090088 0.63143211603164673
0.9923255443572998 0.86981946229934692 0.64375036954879761
0.00087998335948213935 0.19088251888751984 0.22623388469219208
0.0053748036734759808 0.2092663049697876 0.24143373966217041
0.023628953844308853 0.24751392006874084 0.27587035298347473
0.085596434772014618 0.29493403434753418 0.32345694303512573
0.24312445521354675 0.34978684782981873 0.38593032956123352
0.39216753840446472 0.42161047458648682 0.45676976442337036
0.54151368141174316 0.49481165409088135 0.52941316366195679
0.013607040047645569 0.24795190989971161 0.26375851035118103
0.028856359422206879 0.26431125402450562 0.27513033151626587
0.081906594336032867 0.29939174652099609 0.30557596683502197
0.16889326274394989 0.33875086903572083 0.34972169995307922
0.30188652873039246 0.38551408052444458 0.40549978613853455
0.43691349029541016 0.45373347401618958 0.47360917925834656
0.5882270336151123 0.52001035213470459 0.53843176364898682
0.14351432025432587 0.35027584433555603 0.34325805306434631
0.17124110460281372 0.36418479681015015 0.35296979546546936
0.22357107698917389 0.38978934288024902 0.37299543619155884
0.2988218367099762 0.42151403427124023 0.40263530611991882
0.41709429025650024 0.46080806851387024 0.44982287287712097
0.5338590145111084 0.51452964544296265 0.50552606582641602
0.65676063299179077 0.56984537839889526 0.56035083532333374
0.34286719560623169 0.47128048539161682 0.43506446480751038
0.36544051766395569 0.48291227221488953 0.44306334853172302
0.40721198916435242 0.49456009268760681 0.45607319474220276
0.47035306692123413 0.52132123708724976 0.47965866327285767
0.55857712030410767 0.55581456422805786 0.50836199522018433
0.64391118288040161 0.59387290477752686 0.54239928722381592
0.74117362499237061 0.63955432176589966 0.58585315942764282
0.53423947095870972 0.61006265878677368 0.53700876235961914
0.54968583583831787 0.61673945188522339 0.54290556907653809
0.58581596612930298 0.62796539068222046 0.55237048864364624
0.6291651725769043 0.64183509349822998 0.55431681871414185
0.69520741701126099 0.6648673415184021 0.56300479173660278
0.77128082513809204 0.69211792945861816 0.58831262588500977
0.85486000776290894 0.71820145845413208 0.61089825630187988
0.67733865976333618 0.731514573097229 0.63390564918518066
0.68702638149261475 0.7349124550819397 0.6335635781288147
0.71359676122665405 0.74435395002365112 0.62830835580825806
0.75468343496322632 0.75364059209823608 0.62638527154922485
0.81229609251022339 0.76789110898971558 0.63123631477355957
0.87035918235778809 0.78189951181411743 0.62847644090652466
0.94437313079833984 0.79545426368713379 0.61894005537033081
0.79939800500869751 0.84199810028076172 0.69785362482070923
0.81326204538345337 0.84441477060317993 0.69212615489959717
0.83085459470748901 0.84887713193893433 0.68913251161575317
0.86060655117034912 0.85229945182800293 0.67560797929763794
0.90230864286422729 0.85947191715240479 0.6744687557220459
0.95687812566757202 0.86578583717346191 0.67602825164794922
0.99050390720367432 0.87490701675415039 0.68148636817932129
0 0.23130059242248535 0.26997101306915283
0.00087986368453130126 0.24684582650661469 0.28414648771286011
0.0061252969317138195 0.28298696875572205 0.31463766098022461
0.055180508643388748 0.32936367392539978 0.35836091637611389
0.21457590162754059 0.38361793756484985 0.41602122783660889
0.39751431345939636 0.44474375247955322 0.48318064212799072
0.54786229133605957 0.52066332101821899 0.57404845952987671
0.015918657183647156 0.28460171818733215 0.2989133894443512
0.023777307942509651 0.29627150297164917 0.31123292446136475
0.057121485471725464 0.32750201225280762 0.34085932374000549
0.1325671523809433 0.3683592677116394 0.3812403678894043
0.26914858818054199 0.41912400722503662 0.43681997060775757
0.43786042928695679 0.47433501482009888 0.50270003080368042
0.587177574634552 0.54723715782165527 0.5905042290687561
0.13893495500087738 0.37816587090492249 0.36931198835372925
0.16744905710220337 0.3889334499835968 0.3821207582950592
0.21630261838436127 0.41353780031204224 0.40262794494628906
0.29521206021308899 0.44953492283821106 0.43514657020568848
0.40810471773147583 0.48612198233604431 0.48235017061233521
0.52989619970321655 0.53431731462478638 0.5433996319770813
0.65421050786972046 0.59048324823379517 0.60879433155059814
0.35790503025054932 0.49213925004005432 0.4590645432472229
0.37289115786552429 0.49915170669555664 0.46514353156089783
0.41188079118728638 0.51745796203613281 0.48091980814933777
0.47060942649841309 0.54246807098388672 0.50429129600524902
0.55177479982376099 0.57180881500244141 0.5388219952583313
0.64358365535736084 0.60776376724243164 0.58455920219421387
0.74504804611206055 0.6536678671836853 0.63427090644836426
0.56470304727554321 0.62294405698776245 0.55921202898025513
0.57511287927627563 0.6272883415222168 0.56485342979431152
0.60107660293579102 0.63716846704483032 0.57358139753341675
0.64273089170455933 0.65410757064819336 0.59063088893890381
0.69521552324295044 0.67732149362564087 0.6103023886680603
0.76639187335968018 0.70389622449874878 0.64242780208587646
0.83948665857315063 0.73040598630905151 0.66142469644546509
0.69215089082717896 0.73998558521270752 0.6530463695526123
0.70496493577957153 0.74449104070663452 0.65474146604537964
0.72933804988861084 0.7500300407409668 0.65775603055953979
0.76349282264709473 0.75809931755065918 0.65930348634719849
0.81340456008911133 0.77224647998809814 0.66400188207626343
0.8674435019493103 0.78849327564239502 0.67502659559249878
0.92729765176773071 0.80777454376220703 0.68295228481292725
0.80703985691070557 0.84252864122390747 0.7301337718963623
0.81610786914825439 0.84752112627029419 0.73057597875595093
0.83672559261322021 0.8493836522102356 0.72391927242279053
0.8612704873085022 0.85341870784759521 0.71523147821426392
0.90223795175552368 0.85758876800537109 0.71221613883972168
0.94973337650299072 0.86924058198928833 0.71816825866699219
0.99041843414306641 0.88270479440689087 0.73316621780395508
0 0.27581572532653809 0.31288516521453857
0.0018441593274474144 0.29395163059234619 0.32922810316085815
0.016538850963115692 0.32386976480484009 0.35962307453155518
0.068452231585979462 0.36667707562446594 0.40020063519477844
0.2006911039352417 0.42446503043174744 0.45819377899169922
0.39974820613861084 0.47513964772224426 0.51779210567474365
0.55611491203308105 0.54743784666061401 0.60309141874313354
0.0096671013161540031 0.3171173632144928 0.33704468607902527
0.023207556456327438 0.33184811472892761 0.34706923365592957
0.049394629895687103 0.35990944504737854 0.37644311785697937
0.12747474014759064 0.40103459358215332 0.42149832844734192
0.26008385419845581 0.45232465863227844 0.47229194641113281
0.44138416647911072 0.50096553564071655 0.53566896915435791
0.58659356832504272 0.56652975082397461 0.61699539422988892
0.13032682240009308 0.40781959891319275 0.39702081680297852
0.16059421002864838 0.41993820667266846 0.41185823082923889
0.21570709347724915 0.44425240159034729 0.44037380814552307
0.28640377521514893 0.4756866991519928 0.4707179069519043
0.39141401648521423 0.514923095703125 0.51488626003265381
0.53115594387054443 0.55805987119674683 0.57418590784072876
0.65140366554260254 0.61021667718887329 0.64569860696792603
0.35413059592247009 0.50951862335205078 0.4793069064617157
0.37754389643669128 0.52444708347320557 0.49196746945381165
0.42096367478370667 0.54553681612014771 0.5135037899017334
0.48208677768707275 0.57444632053375244 0.53863215446472168
0.55413645505905151 0.59872692823410034 0.57157951593399048
0.63660198450088501 0.62969869375228882 0.61810141801834106
0.73170572519302368 0.67015522718429565 0.68008875846862793
0.5664246678352356 0.63629031181335449 0.58269840478897095
0.57975083589553833 0.64060068130493164 0.5857921838760376
0.6089625358581543 0.6581958532333374 0.60204577445983887
0.64266073703765869 0.67362856864929199 0.61799222230911255
0.6905825138092041 0.6923406720161438 0.63949763774871826
0.76266491413116455 0.71964573860168457 0.67620235681533813
0.83268600702285767 0.74346750974655151 0.71312028169631958
0.71343076229095459 0.74734699726104736 0.67485028505325317
0.71880900859832764 0.74722456932067871 0.67235779762268066
0.74308872222900391 0.7564389705657959 0.6831132173538208
0.77266556024551392 0.76656824350357056 0.69361495971679688
0.8145032525062561 0.77812868356704712 0.69864815473556519
0.86238819360733032 0.7967105507850647 0.71508455276489258
0.91821002960205078 0.81223517656326294 0.72699767351150513
0.82599234580993652 0.84923797845840454 0.75512713193893433
0.83208268880844116 0.84989017248153687 0.75457930564880371
0.84336107969284058 0.84835243225097656 0.74265033006668091
0.87546050548553467 0.85777956247329712 0.7527472972869873
0.91538327932357788 0.86344242095947266 0.74677246809005737
0.95386451482772827 0.87073045969009399 0.7484886646270752
0.98529917001724243 0.89077609777450562 0.79212206602096558
