assets/lut/creative nightfromday.cube
# Created by: G'MIC (https://gmic.eu)
TITLE "nightfromday"
# LUT size
LUT_3D_SIZE 5
# Data domain
DOMAIN_MIN 0.0 0.0 0.0
DOMAIN_MAX 1.0 1.0 1.0
# LUT data points
0.0045942417345941067 0.0078979488462209702 0.022284310311079025
0.11054027825593948 0.012875067070126534 0.046213291585445404
0.19294127821922302 0.036406572908163071 0.053166992962360382
0.27854439616203308 0.047417271882295609 0.085134319961071014
0.37003996968269348 0.070082403719425201 0.11004389077425003
0.0057886010035872459 0.10768832266330719 0.064457044005393982
0.098583728075027466 0.10360196977853775 0.066835798323154449
0.18581344187259674 0.10144776105880737 0.078552067279815674
0.27695807814598083 0.10538904368877411 0.097721993923187256
0.36783388257026672 0.125565305352211 0.12188433110713959
0.005796095822006464 0.19239489734172821 0.11073756217956543
0.089583031833171844 0.19017866253852844 0.11556372791528702
0.18323551118373871 0.1911439448595047 0.12217438966035843
0.2753882110118866 0.19796137511730194 0.13872277736663818
0.38037946820259094 0.21164306998252869 0.16082048416137695
0.018854657188057899 0.29514944553375244 0.17842715978622437
0.098498158156871796 0.29577586054801941 0.17830944061279297
0.19022007286548615 0.30061832070350647 0.18799515068531036
0.29515671730041504 0.30673781037330627 0.20005075633525848
0.40438386797904968 0.32364752888679504 0.2248912900686264
0.081209145486354828 0.43109047412872314 0.27414694428443909
0.15357120335102081 0.42980900406837463 0.26749804615974426
0.2340279221534729 0.43312793970108032 0.28053018450737
0.32939633727073669 0.44716379046440125 0.29510942101478577
0.45083653926849365 0.46714261174201965 0.33020061254501343
0.00049921672325581312 0.0081480285152792931 0.15260414779186249
0.083343207836151123 0.020210565999150276 0.162096306681633
0.17910186946392059 0.044824786484241486 0.16746371984481812
0.26717141270637512 0.055296581238508224 0.1794944703578949
0.36328321695327759 0.070328809320926666 0.18858818709850311
0 0.10585657507181168 0.16009162366390228
0.068045295774936676 0.10464116930961609 0.16653472185134888
0.17068150639533997 0.10598864406347275 0.17553249001502991
0.26607930660247803 0.11234606802463531 0.1915101557970047
0.36226436495780945 0.12358380854129791 0.20435260236263275
0 0.19509030878543854 0.19002459943294525
0.051275815814733505 0.19230218231678009 0.19301852583885193
0.17092446982860565 0.19433718919754028 0.19618843495845795
0.26642963290214539 0.20061890780925751 0.20664717257022858
0.37262693047523499 0.21210996806621552 0.22813534736633301
0 0.29620099067687988 0.23399026691913605
0.057463686913251877 0.29836142063140869 0.23858009278774261
0.1835615485906601 0.30130758881568909 0.24421748518943787
0.28689441084861755 0.31030747294425964 0.26084315776824951
0.39086425304412842 0.31907665729522705 0.27758964896202087
0.029856618493795395 0.43137320876121521 0.31532126665115356
0.10911311954259872 0.43441706895828247 0.32542389631271362
0.21477991342544556 0.43830209970474243 0.32768720388412476
0.32427769899368286 0.44732403755187988 0.34306204319000244
0.44545352458953857 0.46651682257652283 0.37216019630432129
0 0.018747935071587563 0.27394434809684753
0.022797722369432449 0.033764932304620743 0.27180331945419312
0.1530841737985611 0.047964073717594147 0.27862685918807983
0.25082135200500488 0.063341386616230011 0.28456968069076538
0.34403470158576965 0.078124776482582092 0.30251076817512512
0 0.10824086517095566 0.27843138575553894
0.0074692373163998127 0.11051288992166519 0.27889320254325867
0.14377874135971069 0.10848080366849899 0.28480586409568787
0.24607096612453461 0.11435974389314651 0.29206684231758118
0.34604817628860474 0.12590740621089935 0.31317579746246338
0 0.19591741263866425 0.28977110981941223
0.0056452285498380661 0.19574898481369019 0.2898709774017334
0.13113707304000854 0.1961757093667984 0.30011680722236633
0.24351999163627625 0.20436607301235199 0.31527182459831238
0.35717576742172241 0.21799950301647186 0.33240804076194763
0 0.29891955852508545 0.3329308032989502
0.0025849286466836929 0.30012497305870056 0.33289596438407898
0.13460098206996918 0.30450880527496338 0.34027853608131409
0.26187834143638611 0.30871620774269104 0.35273498296737671
0.37706324458122253 0.32512158155441284 0.3729364275932312
0.0011431226739659905 0.43590018153190613 0.4048125147819519
0.037518102675676346 0.43855783343315125 0.40857282280921936
0.17309202253818512 0.44289201498031616 0.41825169324874878
0.3038848340511322 0.45183068513870239 0.43235200643539429
0.42288997769355774 0.46891722083091736 0.45195809006690979
0 0.049352772533893585 0.38496726751327515
0.0093857711181044579 0.050121232867240906 0.38689953088760376
0.096498884260654449 0.059233900159597397 0.38988539576530457
0.22333618998527527 0.070249162614345551 0.39640742540359497
0.32359480857849121 0.09075406938791275 0.41133639216423035
0.0010113136377185583 0.11604776978492737 0.39293619990348816
8.8860006144386716e-06 0.1135859340429306 0.39760497212409973
0.056132670491933823 0.11782624572515488 0.39570114016532898
0.22262154519557953 0.11934081465005875 0.40265190601348877
0.32329076528549194 0.13753250241279602 0.42042627930641174
0 0.20005834102630615 0.40483593940734863
8.0781825317899347e-07 0.19503624737262726 0.4078616201877594
0.045831058174371719 0.20184612274169922 0.41264587640762329
0.21348965167999268 0.20662364363670349 0.42306762933731079
0.33876660466194153 0.22056648135185242 0.44568827748298645
0 0.30398756265640259 0.43841969966888428
0 0.30374157428741455 0.44016137719154358
0.05725528672337532 0.3046104907989502 0.44792324304580688
0.22307895123958588 0.31493648886680603 0.46426954865455627
0.35285037755966187 0.33119219541549683 0.48905470967292786
0 0.43755248188972473 0.50986552238464355
0.0038782157935202122 0.43956643342971802 0.5164218544960022
0.099695585668087006 0.44572567939758301 0.52544707059860229
0.2676694393157959 0.45561566948890686 0.53764361143112183
0.40049064159393311 0.4741331934928894 0.56280064582824707
0 0.065080516040325165 0.50127238035202026
8.1679398135747761e-05 0.073918931186199188 0.50367623567581177
0.018767323344945908 0.082539528608322144 0.50938421487808228
0.14501005411148071 0.090794675052165985 0.51690161228179932
0.29677248001098633 0.10850445926189423 0.52771764993667603
0 0.12066435068845749 0.50773590803146362
0 0.12428638339042664 0.508506178855896
0.00064721202943474054 0.12818680703639984 0.51086944341659546
0.15111164748668671 0.12875181436538696 0.51859927177429199
0.30205085873603821 0.14698031544685364 0.53679931163787842
0 0.20203506946563721 0.52567428350448608
0.00062944000819697976 0.20786701142787933 0.52564990520477295
0.0044914544560015202 0.206925168633461 0.52651482820510864
0.14801684021949768 0.2167438268661499 0.54009097814559937
0.30483177304267883 0.22480246424674988 0.55995815992355347
0 0.30790850520133972 0.56049716472625732
0 0.30724391341209412 0.55647522211074829
0.00026056627393700182 0.31225335597991943 0.56778490543365479
0.16327962279319763 0.32507699728012085 0.57996624708175659
0.32083892822265625 0.33653542399406433 0.60122168064117432
0 0.44494575262069702 0.62044376134872437
0.0017324261134490371 0.44246849417686462 0.62295103073120117
0.012321082875132561 0.45301249623298645 0.63781213760375977
0.20686264336109161 0.4656200110912323 0.65061265230178833
0.37339234352111816 0.48305296897888184 0.68211036920547485
