assets/lut/creative bleachbypass 04.cube
# Created by: G'MIC (https://gmic.eu)
TITLE "bleachbypass_4"
# LUT size
LUT_3D_SIZE 13
# Data domain
DOMAIN_MIN 0.0 0.0 0.0
DOMAIN_MAX 1.0 1.0 1.0
# LUT data points
0.10755886137485504 0.10243973135948181 0.10447489470243454
0.12610787153244019 0.11027774959802628 0.11270361393690109
0.15134187042713165 0.12053776532411575 0.12090767920017242
0.17910589277744293 0.12874314188957214 0.13063181936740875
0.20840205252170563 0.13706742227077484 0.14141073822975159
0.24074152112007141 0.14705316722393036 0.15308263897895813
0.27611455321311951 0.15945813059806824 0.1654449999332428
0.31290170550346375 0.1729942262172699 0.17894642055034637
0.34995853900909424 0.18684202432632446 0.19419929385185242
0.38658404350280762 0.20151625573635101 0.20968274772167206
0.42672532796859741 0.21556538343429565 0.22311000525951385
0.47076362371444702 0.22829869389533997 0.23553234338760376
0.51609241962432861 0.24073991179466248 0.24851983785629272
0.11737741529941559 0.11998720467090607 0.11228160560131073
0.13985241949558258 0.13063344359397888 0.12252547591924667
0.16694232821464539 0.14166668057441711 0.13367302715778351
0.1950085461139679 0.15252068638801575 0.14402821660041809
0.22473688423633575 0.16301307082176208 0.15501415729522705
0.25814083218574524 0.17427204549312592 0.16745521128177643
0.29536953568458557 0.18806435167789459 0.18053768575191498
0.33450841903686523 0.20228578150272369 0.19462285935878754
0.37303066253662109 0.21711014211177826 0.20936326682567596
0.41171148419380188 0.23419308662414551 0.22305269539356232
0.45364400744438171 0.25109678506851196 0.2359212338924408
0.49887046217918396 0.26646894216537476 0.24947983026504517
0.54536491632461548 0.28092527389526367 0.26478558778762817
0.1269410103559494 0.14188016951084137 0.12218008935451508
0.15283307433128357 0.15505623817443848 0.1341044157743454
0.1821092963218689 0.16822996735572815 0.1474834680557251
0.21137680113315582 0.18158546090126038 0.15812221169471741
0.24223661422729492 0.1944972425699234 0.16934195160865784
0.27685517072677612 0.20754331350326538 0.18216873705387115
0.3160516619682312 0.22311925888061523 0.19516770541667938
0.35656934976577759 0.23904584348201752 0.2090831995010376
0.39667278528213501 0.25442403554916382 0.22317783534526825
0.43751311302185059 0.27159294486045837 0.23615628480911255
0.48126250505447388 0.2896064817905426 0.24854832887649536
0.52798104286193848 0.30707433819770813 0.26336461305618286
0.57566326856613159 0.32311666011810303 0.28138116002082825
0.13687819242477417 0.17109954357147217 0.13370534777641296
0.16556376218795776 0.18736691772937775 0.14619624614715576
0.19784148037433624 0.2040385901927948 0.16140605509281158
0.22913852334022522 0.21803951263427734 0.17405225336551666
0.26076379418373108 0.23150846362113953 0.18567590415477753
0.2966606616973877 0.24636854231357574 0.19785934686660767
0.33742111921310425 0.26315858960151672 0.21045583486557007
0.38007631897926331 0.28063935041427612 0.22370511293411255
0.42145943641662598 0.2960665225982666 0.23794786632061005
0.46375402808189392 0.31216353178024292 0.25158193707466125
0.50922495126724243 0.32983690500259399 0.26462337374687195
0.55757147073745728 0.34802046418190002 0.2814900279045105
0.60641956329345703 0.36640438437461853 0.2998661994934082
0.15034365653991699 0.20231766998767853 0.14888659119606018
0.18146583437919617 0.22095327079296112 0.16191375255584717
0.2153557687997818 0.24007430672645569 0.17709004878997803
0.24767915904521942 0.25502365827560425 0.19020560383796692
0.27974241971969604 0.26955720782279968 0.20224352180957794
0.31709146499633789 0.28559499979019165 0.21439202129840851
0.36009243130683899 0.30271300673484802 0.22717735171318054
0.40402296185493469 0.32116878032684326 0.24090501666069031
0.44666934013366699 0.33801773190498352 0.25532352924346924
0.49071487784385681 0.35396766662597656 0.26935401558876038
0.53807204961776733 0.37160769104957581 0.28445956110954285
0.58757489919662476 0.39095267653465271 0.30126556754112244
0.63724356889724731 0.41059750318527222 0.32025590538978577
0.16616299748420715 0.23494677245616913 0.16541785001754761
0.19916702806949615 0.25401857495307922 0.17805159091949463
0.23322980105876923 0.27346041798591614 0.19147750735282898
0.26691663265228271 0.28978529572486877 0.20471557974815369
0.30125996470451355 0.30646246671676636 0.21799443662166595
0.34059491753578186 0.32465982437133789 0.23158568143844604
0.38457328081130981 0.34376129508018494 0.24570228159427643
0.42895340919494629 0.36408841609954834 0.26007288694381714
0.47315704822540283 0.38281625509262085 0.27448832988739014
0.51886451244354248 0.39971679449081421 0.28914067149162292
0.56778478622436523 0.41836732625961304 0.3048713207244873
0.61811929941177368 0.4391082227230072 0.32189673185348511
0.66828268766403198 0.45933288335800171 0.34086912870407104
0.18232466280460358 0.27239999175071716 0.17999109625816345
0.21727092564105988 0.29253691434860229 0.19242918491363525
0.25250878930091858 0.31250485777854919 0.20472730696201324
0.28748852014541626 0.32956758141517639 0.21879099309444427
0.32412701845169067 0.34775400161743164 0.23389092087745667
0.36522901058197021 0.36933720111846924 0.24983251094818115
0.41019207239151001 0.39182263612747192 0.26561012864112854
0.45542871952056885 0.41381683945655823 0.28044554591178894
0.50137364864349365 0.43373551964759827 0.29522025585174561
0.54935383796691895 0.45259445905685425 0.31035926938056946
0.59919852018356323 0.47312676906585693 0.32585257291793823
0.64937442541122437 0.4938601553440094 0.34177130460739136
0.69953227043151855 0.51541948318481445 0.35970309376716614
0.19835382699966431 0.3140265941619873 0.19294123351573944
0.23536477982997894 0.33659166097640991 0.20607011020183563
0.27212986350059509 0.35879629850387573 0.21867024898529053
0.30866861343383789 0.37733015418052673 0.2335619181394577
0.34689301252365112 0.39624851942062378 0.25117430090904236
0.38971588015556335 0.41957151889801025 0.26947996020317078
0.43619590997695923 0.4447178840637207 0.2857796847820282
0.4829917848110199 0.46781489253044128 0.30199596285820007
0.53048944473266602 0.4884885847568512 0.31707432866096497
0.58061808347702026 0.50791323184967041 0.33262217044830322
0.63198006153106689 0.53027701377868652 0.34809643030166626
0.68300735950469971 0.55211168527603149 0.36313310265541077
0.7333495020866394 0.57383185625076294 0.3803618848323822
0.21450859308242798 0.35700643062591553 0.20635171234607697
0.25369730591773987 0.38169828057289124 0.22139686346054077
0.29111278057098389 0.40545225143432617 0.23572950065135956
0.32855391502380371 0.42549318075180054 0.25120776891708374
0.36865141987800598 0.44586905837059021 0.2703431248664856
0.41410467028617859 0.47091838717460632 0.28961277008056641
0.46262818574905396 0.49784725904464722 0.30642127990722656
0.51117527484893799 0.52238959074020386 0.32356908917427063
0.56127512454986572 0.54465913772583008 0.33950525522232056
0.61245441436767578 0.56583118438720703 0.35561475157737732
0.6654476523399353 0.58838915824890137 0.37148481607437134
0.71856689453125 0.61081624031066895 0.38741216063499451
0.76971721649169922 0.63304686546325684 0.40480723977088928
0.23168620467185974 0.40180647373199463 0.22120600938796997
0.27276277542114258 0.42881861329078674 0.23958508670330048
0.31196773052215576 0.453420490026474 0.2558118999004364
0.34942561388015747 0.47467309236526489 0.27233600616455078
0.39149421453475952 0.49724626541137695 0.29023683071136475
0.43987828493118286 0.52497190237045288 0.30951574444770813
0.4907461404800415 0.55374222993850708 0.32850527763366699
0.54118531942367554 0.57960331439971924 0.34571412205696106
0.59177815914154053 0.60314202308654785 0.36239337921142578
0.64406365156173706 0.62584376335144043 0.37894609570503235
0.69800955057144165 0.64977163076400757 0.39562514424324036
0.75224214792251587 0.67391949892044067 0.412506103515625
0.80380845069885254 0.69641703367233276 0.43064689636230469
0.2504410445690155 0.45289909839630127 0.23968799412250519
0.2936156690120697 0.48158144950866699 0.25953769683837891
0.3339042067527771 0.50736397504806519 0.27773922681808472
0.37405994534492493 0.53046280145645142 0.2949981689453125
0.41819539666175842 0.55549758672714233 0.31310084462165833
0.46833184361457825 0.58486425876617432 0.33269479870796204
0.52030819654464722 0.61430817842483521 0.35167655348777771
0.57121372222900391 0.64074528217315674 0.3688758909702301
0.62228906154632568 0.66506797075271606 0.38552522659301758
0.67516070604324341 0.68947011232376099 0.402395099401474
0.72916615009307861 0.71497875452041626 0.41972678899765015
0.78308224678039551 0.74046450853347778 0.43758955597877502
0.83375364542007446 0.76279014348983765 0.45670881867408752
0.27050888538360596 0.50868475437164307 0.25973561406135559
0.31483149528503418 0.5386509895324707 0.28027626872062683
0.35742953419685364 0.56560701131820679 0.29945853352546692
0.40059429407119751 0.59117096662521362 0.31791669130325317
0.44675725698471069 0.61813229322433472 0.33665293455123901
0.49722954630851746 0.64746111631393433 0.35614380240440369
0.54905658960342407 0.67653292417526245 0.37488403916358948
0.60009670257568359 0.70302820205688477 0.39225482940673828
0.65164011716842651 0.72815185785293579 0.40891924500465393
0.70472121238708496 0.75375628471374512 0.42604920268058777
0.75872123241424561 0.77989733219146729 0.44375962018966675
0.81163209676742554 0.80480474233627319 0.46245434880256653
0.86118972301483154 0.82582545280456543 0.48162591457366943
0.28918415307998657 0.56475430727005005 0.27954387664794922
0.33507287502288818 0.59513360261917114 0.30050072073936462
0.38028517365455627 0.6237061619758606 0.32063749432563782
0.42583546042442322 0.65184980630874634 0.34001010656356812
0.47365060448646545 0.67969495058059692 0.35945063829421997
0.5240209698677063 0.70849943161010742 0.37878009676933289
0.57561522722244263 0.73693960905075073 0.39763623476028442
0.6271173357963562 0.76341730356216431 0.41540524363517761
0.6789669394493103 0.78916400671005249 0.43248260021209717
0.73210752010345459 0.81528002023696899 0.44991898536682129
0.78551918268203735 0.84110844135284424 0.46817183494567871
0.83708053827285767 0.86465227603912354 0.48694160580635071
0.88452392816543579 0.88385766744613647 0.50632435083389282
0.11234482377767563 0.10738147050142288 0.12186973541975021
0.13424128293991089 0.11540968716144562 0.1334657222032547
0.16221311688423157 0.12796857953071594 0.14439937472343445
0.1912408322095871 0.138872891664505 0.15610761940479279
0.22163484990596771 0.14874504506587982 0.16888202726840973
0.25497382879257202 0.15977251529693604 0.1819448322057724
0.29218658804893494 0.17301680147647858 0.19492363929748535
0.33190286159515381 0.18739013373851776 0.20865312218666077
0.37025302648544312 0.20089408755302429 0.224623903632164
0.40800192952156067 0.21411268413066864 0.24147786200046539
0.44949993491172791 0.22756205499172211 0.25709515810012817
0.49441435933113098 0.24045461416244507 0.272012859582901
0.54067224264144897 0.25350576639175415 0.28698915243148804
0.12373648583889008 0.1287132203578949 0.13056086003780365
0.14824973046779633 0.13835538923740387 0.14383749663829803
0.17791333794593811 0.15130092203617096 0.15740016102790833
0.20773309469223022 0.16437983512878418 0.16941119730472565
0.23898838460445404 0.17586097121238708 0.18259644508361816
0.27355417609214783 0.18795785307884216 0.19671618938446045
0.31186378002166748 0.20214341580867767 0.21104080975055695
0.35159879922866821 0.2168697714805603 0.22589129209518433
0.39119628071784973 0.23168247938156128 0.24164195358753204
0.43189674615859985 0.2476169615983963 0.25716587901115417
0.47562313079833984 0.26386845111846924 0.27211159467697144
0.52230775356292725 0.27905604243278503 0.28810220956802368
0.57028532028198242 0.29413369297981262 0.30501219630241394
0.13513505458831787 0.15335695445537567 0.14490555226802826
0.1623043566942215 0.16583387553691864 0.15768668055534363
0.19408625364303589 0.18051782250404358 0.17252549529075623
0.22549167275428772 0.19580818712711334 0.18461272120475769
0.25794145464897156 0.20805425941944122 0.19786098599433899
0.29348951578140259 0.2216123640537262 0.21235965192317963
0.33272382616996765 0.23770207166671753 0.22694960236549377
0.37407195568084717 0.25412112474441528 0.24228034913539886
0.41464012861251831 0.26974391937255859 0.25816825032234192
0.45654153823852539 0.28637251257896423 0.2727658748626709
0.50231838226318359 0.30390292406082153 0.28702369332313538
0.55130577087402344 0.32136064767837524 0.30367544293403625
0.60082328319549561 0.33859431743621826 0.32276460528373718
0.14634396135807037 0.18509781360626221 0.15924499928951263
0.17519031465053558 0.1996869295835495 0.17152391374111176
0.21025350689888 0.21694765985012054 0.1884833425283432
0.24460592865943909 0.2318854033946991 0.20297659933567047
0.27771565318107605 0.24459993839263916 0.21590857207775116
0.31299367547035217 0.26001501083374023 0.22939994931221008
0.35520127415657043 0.27756664156913757 0.24381557106971741
0.39804825186729431 0.29633161425590515 0.25899147987365723
0.43899422883987427 0.31233686208724976 0.27535361051559448
0.48230680823326111 0.32798966765403748 0.29085162281990051
0.53027766942977905 0.34565037488937378 0.30530035495758057
0.58104711771011353 0.36493960022926331 0.32240396738052368
0.63197439908981323 0.38460865616798401 0.3421894907951355
0.16034267842769623 0.21709097921848297 0.17567738890647888
0.19151799380779266 0.23291695117950439 0.18874743580818176
0.22712282836437225 0.25132876634597778 0.20551663637161255
0.26215669512748718 0.26804304122924805 0.22067666053771973
0.29545548558235168 0.28316760063171387 0.23374532163143158
0.33346161246299744 0.29921180009841919 0.24717456102371216
0.37821462750434875 0.31631195545196533 0.26249304413795471
0.42236685752868652 0.3365444540977478 0.27805858850479126
0.46460729837417603 0.35431236028671265 0.2945002019405365
0.5092739462852478 0.37010672688484192 0.31058281660079956
0.55923938751220703 0.38772326707839966 0.32650655508041382
0.61147850751876831 0.40882712602615356 0.34446266293525696
0.66304033994674683 0.43071374297142029 0.36403173208236694
0.17703792452812195 0.25052061676979065 0.19363804161548615
0.21007250249385834 0.26660233736038208 0.20659081637859344
0.24549359083175659 0.28545752167701721 0.22204826772212982
0.28095099329948425 0.30422985553741455 0.23746161162853241
0.3159477710723877 0.32175156474113464 0.25169622898101807
0.35681331157684326 0.33879250288009644 0.26632937788963318
0.4030633270740509 0.35658100247383118 0.28196212649345398
0.44761949777603149 0.37911686301231384 0.29820477962493896
0.49140584468841553 0.39930546283721924 0.31464210152626038
0.53842401504516602 0.41647672653198242 0.33113229274749756
0.59011423587799072 0.43575111031532288 0.34868964552879333
0.64294004440307617 0.45833340287208557 0.36682265996932983
0.69455242156982422 0.48083752393722534 0.38579580187797546
0.1944582462310791 0.29028317332267761 0.21095627546310425
0.22982746362686157 0.3081146776676178 0.22402447462081909
0.26598635315895081 0.32741430401802063 0.23825830221176147
0.30211594700813293 0.34631258249282837 0.25395038723945618
0.33921796083450317 0.36558288335800171 0.2703738808631897
0.3816368579864502 0.38585487008094788 0.28621837496757507
0.42797178030014038 0.40670371055603027 0.30298653244972229
0.47342297434806824 0.42987862229347229 0.31930387020111084
0.51930767297744751 0.45160064101219177 0.3356536328792572
0.56972527503967285 0.47169110178947449 0.35338601469993591
0.62284809350967407 0.49319469928741455 0.37162792682647705
0.67552876472473145 0.51560342311859131 0.38934135437011719
0.72682654857635498 0.53753572702407837 0.40751492977142334
0.21173569560050964 0.33500790596008301 0.22745378315448761
0.24965332448482513 0.35538759827613831 0.24131950736045837
0.28748288750648499 0.37625446915626526 0.25523832440376282
0.32443848252296448 0.39556920528411865 0.27070584893226624
0.36332109570503235 0.41555428504943848 0.28964459896087646
0.40677717328071594 0.43792650103569031 0.30710089206695557
0.45373737812042236 0.46115905046463013 0.32428270578384399
0.50116139650344849 0.48468387126922607 0.3412202000617981
0.54952222108840942 0.50732964277267456 0.35841292142868042
0.6017652153968811 0.52902430295944214 0.37688186764717102
0.65607994794845581 0.55215984582901001 0.39525759220123291
0.70937824249267578 0.57532346248626709 0.41250795125961304
0.76109480857849121 0.59713029861450195 0.43048885464668274
0.22926443815231323 0.37979713082313538 0.24384100735187531
0.26919394731521606 0.40274861454963684 0.25933730602264404
0.30846479535102844 0.42517814040184021 0.2746737003326416
0.34712898731231689 0.44549226760864258 0.2910175621509552
0.38780954480171204 0.46629655361175537 0.30912783741950989
0.43317541480064392 0.49019554257392883 0.32824534177780151
0.48197561502456665 0.51564639806747437 0.34641113877296448
0.5303528904914856 0.54038596153259277 0.36398559808731079
0.5805286169052124 0.56311619281768799 0.38183313608169556
0.63338083028793335 0.58557981252670288 0.40059846639633179
0.68872863054275513 0.60991716384887695 0.4192851185798645
0.74393022060394287 0.63497656583786011 0.43701693415641785
0.79694992303848267 0.65857279300689697 0.45570635795593262
0.24762991070747375 0.42580962181091309 0.26134797930717468
0.28983375430107117 0.4520573616027832 0.27964681386947632
0.33007454872131348 0.47573310136795044 0.29730015993118286
0.3699345588684082 0.49698281288146973 0.31411820650100708
0.41321823000907898 0.52002859115600586 0.33191516995429993
0.461171954870224 0.54619628190994263 0.35064733028411865
0.51153385639190674 0.57369869947433472 0.36957678198814392
0.56134647130966187 0.59950333833694458 0.38771423697471619
0.61166667938232422 0.62297552824020386 0.40556293725967407
0.66532522439956665 0.64605182409286499 0.42449197173118591
0.72127223014831543 0.67167091369628906 0.44355571269989014
0.77793878316879272 0.69955903291702271 0.4623660147190094
0.83193111419677734 0.72450214624404907 0.48210412263870239
0.26809298992156982 0.47855871915817261 0.28139549493789673
0.3126082718372345 0.50787574052810669 0.30230215191841125
0.35403281450271606 0.53306758403778076 0.32093870639801025
0.39545509219169617 0.55591654777526855 0.33815398812294006
0.44070693850517273 0.58083909749984741 0.3562825620174408
0.49114444851875305 0.60936325788497925 0.37581601738929749
0.54279673099517822 0.63826638460159302 0.39509820938110352
0.59274685382843018 0.66367089748382568 0.41265982389450073
0.64354181289672852 0.68768787384033203 0.43004021048545837
0.69746166467666626 0.71252602338790894 0.44845029711723328
0.75416344404220581 0.740062415599823 0.46787390112876892
0.81085753440856934 0.76883798837661743 0.48767474293708801
0.8642805814743042 0.79297363758087158 0.50862288475036621
0.28856751322746277 0.53599774837493896 0.3025037944316864
0.33456018567085266 0.56712073087692261 0.32435429096221924
0.37817808985710144 0.59404450654983521 0.34379345178604126
0.42153716087341309 0.61901617050170898 0.36192908883094788
0.46881312131881714 0.64563173055648804 0.38105270266532898
0.52003484964370728 0.67481750249862671 0.40096813440322876
0.57223409414291382 0.70357859134674072 0.42031159996986389
0.62264102697372437 0.72897636890411377 0.43770062923431396
0.67417252063751221 0.75398242473602295 0.45488029718399048
0.72892683744430542 0.78052741289138794 0.47312071919441223
0.7857019305229187 0.8088148832321167 0.4924507737159729
0.84157150983810425 0.83622044324874878 0.51308327913284302
0.89303839206695557 0.85823047161102295 0.53432953357696533
0.30802008509635925 0.5928196907043457 0.32307285070419312
0.35500168800354004 0.62431579828262329 0.3452974259853363
0.40066966414451599 0.65381920337677002 0.36547169089317322
0.44677519798278809 0.6810537576675415 0.38500654697418213
0.49534454941749573 0.70890218019485474 0.40492567420005798
0.54648184776306152 0.73735207319259644 0.42491906881332397
0.59854668378829956 0.76531046628952026 0.44430121779441833
0.65009963512420654 0.791614830493927 0.46236124634742737
0.7028191089630127 0.81763225793838501 0.48001813888549805
0.75794321298599243 0.84532874822616577 0.4983515739440918
0.81410801410675049 0.87329727411270142 0.51790928840637207
0.86811357736587524 0.89835256338119507 0.53842860460281372
0.9166872501373291 0.91789186000823975 0.55943983793258667
0.11928868293762207 0.11548804491758347 0.14517705142498016
0.14461988210678101 0.12551099061965942 0.15871140360832214
0.17404292523860931 0.13629744946956635 0.17240780591964722
0.20422175526618958 0.14792169630527496 0.18544095754623413
0.23512066900730133 0.15942828357219696 0.19906851649284363
0.26880043745040894 0.17148709297180176 0.21327352523803711
0.3069109320640564 0.18439126014709473 0.22726236283779144
0.34718683362007141 0.19774326682090759 0.24178270995616913
0.38752281665802002 0.2108614444732666 0.25803697109222412
0.42879945039749146 0.22450864315032959 0.27509656548500061
0.47220709919929504 0.23828783631324768 0.2922089695930481
0.51845574378967285 0.25139644742012024 0.30890768766403198
0.56534886360168457 0.26536959409713745 0.32579728960990906
0.13138696551322937 0.13773617148399353 0.15718303620815277
0.15779471397399902 0.14969025552272797 0.17146416008472443
0.19031618535518646 0.16191038489341736 0.18731623888015747
0.22249835729598999 0.17560550570487976 0.20100826025009155
0.25440883636474609 0.18818730115890503 0.21474692225456238
0.28873929381370544 0.2010498046875 0.2293512225151062
0.32717797160148621 0.21465945243835449 0.24434569478034973
0.36784914135932922 0.22821088135242462 0.2598755955696106
0.40912345051765442 0.24243789911270142 0.27677264809608459
0.45180121064186096 0.25887978076934814 0.2932373583316803
0.49765282869338989 0.27497753500938416 0.30931970477104187
0.54606819152832031 0.28979194164276123 0.32792761921882629
0.59528225660324097 0.30551740527153015 0.34671071171760559
0.14583849906921387 0.16587217152118683 0.17451086640357971
0.17444385588169098 0.1789817214012146 0.18858352303504944
0.20925351977348328 0.19553646445274353 0.20550580322742462
0.24297723174095154 0.21034064888954163 0.21916861832141876
0.27562490105628967 0.22255361080169678 0.23218043148517609
0.31041780114173889 0.23597635328769684 0.24620871245861053
0.34943744540214539 0.25129511952400208 0.2617000937461853
0.39052647352218628 0.26669934391975403 0.27811616659164429
0.43195396661758423 0.28250578045845032 0.29552030563354492
0.47580018639564514 0.29960933327674866 0.31165283918380737
0.52395117282867432 0.31681519746780396 0.32779043912887573
0.57500648498535156 0.33391547203063965 0.34651166200637817
0.62595599889755249 0.35200434923171997 0.3657284677028656
0.15927217900753021 0.2009626030921936 0.19130392372608185
0.18952652812004089 0.21418191492557526 0.20532543957233429
0.22660224139690399 0.23346741497516632 0.22325804829597473
0.26244693994522095 0.24851210415363312 0.23814432322978973
0.29560402035713196 0.2604471743106842 0.25061413645744324
0.33172926306724548 0.27517408132553101 0.26426056027412415
0.37257534265518188 0.2916196882724762 0.28061434626579285
0.41500255465507507 0.30966326594352722 0.29720368981361389
0.45624884963035583 0.32726079225540161 0.31592008471488953
0.50091314315795898 0.3437996506690979 0.33211570978164673
0.55157744884490967 0.36065179109573364 0.34801223874092102
0.60482227802276611 0.38003522157669067 0.36640304327011108
0.65747970342636108 0.40130400657653809 0.38672685623168945
0.17307694256305695 0.23348011076450348 0.20720343291759491
0.20527897775173187 0.24758516252040863 0.22162701189517975
0.24243089556694031 0.26603564620018005 0.23932361602783203
0.27865990996360779 0.2836233377456665 0.2556518018245697
0.31223383545875549 0.29998600482940674 0.26883998513221741
0.35084661841392517 0.31522199511528015 0.28315567970275879
0.39667937159538269 0.33168298006057739 0.30111506581306458
0.44099125266075134 0.35176882147789001 0.31877237558364868
0.4827004075050354 0.37121161818504333 0.33629024028778076
