assets/lut/creative tensiongreen 02.cube
# Created by: G'MIC (https://gmic.eu)
TITLE "tensiongreen_2"
# LUT size
LUT_3D_SIZE 13
# Data domain
DOMAIN_MIN 0.0 0.0 0.0
DOMAIN_MAX 1.0 1.0 1.0
# LUT data points
5.834242983837612e-05 0.061149954795837402 0.090623699128627777
0.01004658080637455 0.064603634178638458 0.08267790824174881
0.069139309227466583 0.067391969263553619 0.073490291833877563
0.13461363315582275 0.073271825909614563 0.051634546369314194
0.18734784424304962 0.075396083295345306 0.032457523047924042
0.24398134648799896 0.070800602436065674 0.015688937157392502
0.3037884533405304 0.068147800862789154 0.0045793722383677959
0.37249886989593506 0.05890260636806488 0.00040624281973578036
0.43749120831489563 0.075262896716594696 0.0012198654003441334
0.51237475872039795 0.081680238246917725 0.00026254093972966075
0.59908157587051392 0.078292801976203918 0.00070847157621756196
0.69518554210662842 0.059743978083133698 0.0012154672294855118
0.78683614730834961 0.074440330266952515 0
0.0002053653442999348 0.09766387939453125 0.10053404420614243
0.017153346911072731 0.09700552374124527 0.072634004056453705
0.08464464545249939 0.097983025014400482 0.035179018974304199
0.14280590415000916 0.10258375853300095 0.01798044890165329
0.18705159425735474 0.11084476858377457 0.0095061957836151123
0.24039803445339203 0.11626540869474411 0.0041841245256364346
0.29472273588180542 0.12917794287204742 0.00063875981140881777
0.35466614365577698 0.14311663806438446 4.487879323278321e-06
0.41963955760002136 0.16354691982269287 1.4361213516167481e-06
0.49167713522911072 0.17925699055194855 0
0.57914119958877563 0.17757920920848846 0
0.67760258913040161 0.168939009308815 0
0.78027588129043579 0.17917291820049286 0
0.00013068703992757946 0.14007215201854706 0.11536917835474014
0.012735688127577305 0.14159379899501801 0.078565873205661774
0.073574721813201904 0.14788620173931122 0.038070857524871826
0.14825835824012756 0.15166528522968292 0.02101542241871357
0.20001843571662903 0.15857084095478058 0.013917002826929092
0.25152868032455444 0.17037016153335571 0.0054536256939172745
0.30053314566612244 0.18736670911312103 0.00069922651164233685
0.35908839106559753 0.20714373886585236 0
0.42573365569114685 0.22747144103050232 0
0.4956718385219574 0.24967879056930542 0
0.57172739505767822 0.2667793333530426 0
0.66271370649337769 0.27793338894844055 0
0.76612657308578491 0.28666186332702637 0
0 0.19842211902141571 0.12631684541702271
0.0038192151114344597 0.20399901270866394 0.087144739925861359
0.051589068025350571 0.21260564029216766 0.044403389096260071
0.13874331116676331 0.21950845420360565 0.031935688108205795
0.21076375246047974 0.22715635597705841 0.022949233651161194
0.27232187986373901 0.23887157440185547 0.014240354299545288
0.33030453324317932 0.24867978692054749 0.0051097944378852844
0.39357644319534302 0.2654876708984375 0.0019575231708586216
0.45876750349998474 0.28499597311019897 0.00019534242164809257
0.5296817421913147 0.30611208081245422 0
0.60188126564025879 0.32714569568634033 0
0.68164324760437012 0.34748247265815735 0
0.77609634399414062 0.36386731266975403 0
0.0012807808816432953 0.2653869092464447 0.14143072068691254
0.0089952507987618446 0.27365729212760925 0.10424792766571045
0.056519810110330582 0.28235453367233276 0.055223755538463593
0.14968869090080261 0.28713822364807129 0.032922931015491486
0.23047316074371338 0.29734370112419128 0.02896403893828392
0.29082229733467102 0.30955183506011963 0.026661816984415054
0.35984101891517639 0.32126715779304504 0.018178213387727737
0.4316980242729187 0.32879099249839783 0.008486354723572731
0.49948352575302124 0.34522998332977295 0.0031287549063563347
0.57044845819473267 0.36547970771789551 0.001257787924259901
0.6464536190032959 0.38294798135757446 0.00016255097580142319
0.73240607976913452 0.40060549974441528 0
0.81960821151733398 0.41625592112541199 0
0.016344437375664711 0.34478631615638733 0.15519396960735321
0.027448810636997223 0.35117009282112122 0.12871570885181427
0.07236587256193161 0.35360711812973022 0.079775728285312653
0.17508554458618164 0.35888117551803589 0.044589336961507797
0.26391547918319702 0.36677977442741394 0.036435399204492569
0.32783952355384827 0.37977299094200134 0.036528538912534714
0.38784536719322205 0.39256736636161804 0.034917734563350677
0.46628165245056152 0.39895933866500854 0.026160744950175285
0.54376053810119629 0.40900611877441406 0.013212151825428009
0.61985957622528076 0.42813014984130859 0.0079844454303383827
0.69718748331069946 0.4476134181022644 0.0047115250490605831
0.78181803226470947 0.46633896231651306 0.00057643814943730831
0.86066907644271851 0.48120948672294617 0
0.068193428218364716 0.42484071850776672 0.18414205312728882
0.078703142702579498 0.42927610874176025 0.15583536028862
0.13337701559066772 0.43157970905303955 0.11740021407604218
0.22442467510700226 0.43859392404556274 0.077723480761051178
0.30818352103233337 0.44158929586410522 0.05556938424706459
0.37511146068572998 0.44710454344749451 0.055533166974782944
0.44417259097099304 0.46543291211128235 0.067187078297138214
0.50920438766479492 0.47186970710754395 0.060521367937326431
0.58444184064865112 0.48238489031791687 0.052399221807718277
0.67102569341659546 0.49731048941612244 0.033396255224943161
0.75008511543273926 0.5143435001373291 0.015839654952287674
0.82919883728027344 0.52942806482315063 0.0047384076751768589
0.90105646848678589 0.54020243883132935 0.00050416833255439997
0.17753565311431885 0.51116943359375 0.233030766248703
0.19473159313201904 0.51735013723373413 0.21540431678295135
0.23170098662376404 0.52229464054107666 0.17960186302661896
0.30288898944854736 0.53210699558258057 0.13592356443405151
0.3753146231174469 0.53399819135665894 0.10847581177949905
0.4505215585231781 0.53804689645767212 0.10853227972984314
0.51454454660415649 0.54918098449707031 0.11794794350862503
0.57527786493301392 0.56260138750076294 0.13101886212825775
0.64218986034393311 0.56830698251724243 0.13143239915370941
0.72044509649276733 0.572254478931427 0.10145190358161926
0.79772019386291504 0.58227825164794922 0.066147595643997192
0.87558943033218384 0.59259611368179321 0.021995425224304199
0.93780690431594849 0.59808945655822754 0.011557799763977528
0.31186953186988831 0.60774648189544678 0.29478800296783447
0.32586154341697693 0.61258202791213989 0.27980008721351624
0.34889641404151917 0.61528587341308594 0.24429737031459808
0.39629670977592468 0.62120038270950317 0.20879589021205902
0.46056631207466125 0.62437433004379272 0.18430629372596741
0.52800017595291138 0.62723594903945923 0.17517845332622528
0.58897465467453003 0.62994575500488281 0.17565959692001343
0.64574331045150757 0.63645148277282715 0.18295633792877197
0.69902694225311279 0.64234000444412231 0.19088509678840637
0.76082378625869751 0.64975154399871826 0.19479620456695557
0.83361136913299561 0.65269368886947632 0.1756809800863266
0.90751779079437256 0.65582728385925293 0.12641383707523346
0.96010005474090576 0.6590074896812439 0.087416268885135651
0.4224725067615509 0.69277828931808472 0.35253798961639404
0.42992213368415833 0.69656872749328613 0.3439849317073822
0.44907096028327942 0.70228534936904907 0.30779612064361572
0.48297742009162903 0.70396804809570312 0.27394008636474609
0.53359860181808472 0.70452260971069336 0.24982920289039612
0.59100455045700073 0.70266109704971313 0.22555500268936157
0.6481705904006958 0.70228469371795654 0.21789731085300446
0.70332241058349609 0.70337796211242676 0.22416388988494873
0.75438588857650757 0.70768851041793823 0.23228487372398376
0.80775296688079834 0.71428424119949341 0.23924528062343597
0.86932694911956787 0.72055667638778687 0.24411249160766602
0.94018703699111938 0.72254037857055664 0.23480015993118286
0.98258256912231445 0.72218996286392212 0.19558323919773102
0.51379203796386719 0.76663517951965332 0.40462753176689148
0.5156787633895874 0.76962000131607056 0.39265173673629761
0.52231347560882568 0.77205795049667358 0.36158570647239685
0.54348546266555786 0.77557522058486938 0.32924425601959229
0.58568787574768066 0.77826809883117676 0.30397337675094604
0.64208424091339111 0.77428996562957764 0.27531301975250244
0.70109671354293823 0.77322381734848022 0.25960436463356018
0.75757718086242676 0.77116173505783081 0.26418870687484741
0.80702638626098633 0.77114397287368774 0.26881051063537598
0.85519242286682129 0.77609097957611084 0.27443760633468628
0.90665602684020996 0.78102707862854004 0.28137025237083435
0.95901316404342651 0.7815365195274353 0.28848525881767273
0.99262917041778564 0.78134381771087646 0.27515566349029541
0.58960753679275513 0.83293354511260986 0.4474121630191803
0.58884686231613159 0.83633911609649658 0.43416479229927063
0.590831458568573 0.8410906195640564 0.41038286685943604
0.60388100147247314 0.84532696008682251 0.38218408823013306
0.64257568120956421 0.84281134605407715 0.35327601432800293
0.69069653749465942 0.8429340124130249 0.32840672135353088
0.74646276235580444 0.84010088443756104 0.30717593431472778
0.80469882488250732 0.83445316553115845 0.29640012979507446
0.85637027025222778 0.8301195502281189 0.2953832745552063
0.89928072690963745 0.83050835132598877 0.30088192224502563
0.94220584630966187 0.83198034763336182 0.30623552203178406
0.97713351249694824 0.83153468370437622 0.31242364645004272
0.99332880973815918 0.83075809478759766 0.31440645456314087
0.63929080963134766 0.88159334659576416 0.48051869869232178
0.64332854747772217 0.89125251770019531 0.47399622201919556
0.64190936088562012 0.89408600330352783 0.4480988085269928
0.65504539012908936 0.89629733562469482 0.41808748245239258
0.69651651382446289 0.89873558282852173 0.39870485663414001
0.73917245864868164 0.89893680810928345 0.37767645716667175
0.79209411144256592 0.89314866065979004 0.34877857565879822
0.84940069913864136 0.88875764608383179 0.32537242770195007
0.89504992961883545 0.88038676977157593 0.31863293051719666
0.93358373641967773 0.8785819411277771 0.32197102904319763
0.97282862663269043 0.87923651933670044 0.32545715570449829
0.99282228946685791 0.87438088655471802 0.33002111315727234
0.99804282188415527 0.8735884428024292 0.33545076847076416
0 0.071591243147850037 0.10106926411390305
0.0033302456140518188 0.076804414391517639 0.10059935599565506
0.027518432587385178 0.085685417056083679 0.10339527577161789
0.081046432256698608 0.095621056854724884 0.1048387736082077
0.14258250594139099 0.10541003197431564 0.091757334768772125
0.20489758253097534 0.11255062371492386 0.075746797025203705
0.26934245228767395 0.1148819699883461 0.059509724378585815
0.35260111093521118 0.10867784917354584 0.033341143280267715
0.43207427859306335 0.11284429579973221 0.024628987535834312
0.517669677734375 0.098519347608089447 0.012003984302282333
0.60811865329742432 0.073355734348297119 0.009432818740606308
0.70445621013641357 0.060747139155864716 0.0099967503920197487
0.80080676078796387 0.060509789735078812 0.01071579847484827
0 0.10233860462903976 0.11000517010688782
0.0058188643306493759 0.10387552529573441 0.10570237040519714
0.045315820723772049 0.10697183012962341 0.093668915331363678
0.10751471668481827 0.11428843438625336 0.078711099922657013
0.15871110558509827 0.12667648494243622 0.063122078776359558
0.21700432896614075 0.13412661850452423 0.044731229543685913
0.28146836161613464 0.1408906877040863 0.035491794347763062
0.36043655872344971 0.14202387630939484 0.017158672213554382
0.43234020471572876 0.15719136595726013 0.0078981881961226463
0.51077336072921753 0.16154868900775909 0.003499004989862442
0.59813082218170166 0.15254063904285431 0.0025932460557669401
0.69999951124191284 0.14014299213886261 0.0028178496286273003
0.80248481035232544 0.12825828790664673 0.0024610331747680902
0 0.14369690418243408 0.13528747856616974
0.0048295264132320881 0.1468835175037384 0.1251261830329895
0.047445513308048248 0.15262919664382935 0.090742535889148712
0.12760473787784576 0.15478572249412537 0.05610840767621994
0.18614710867404938 0.16519023478031158 0.041350569576025009
0.24094696342945099 0.17773666977882385 0.026019541546702385
0.29167822003364563 0.19114625453948975 0.016365500167012215
0.35536375641822815 0.21116705238819122 0.0070397472009062767
0.42074382305145264 0.23041039705276489 0.0042058606632053852
0.49448364973068237 0.2466885894536972 0.003878170857205987
0.58118897676467896 0.25955870747566223 0.0026562409475445747
0.68196874856948853 0.25782033801078796 0.00060020893579348922
0.79364472627639771 0.25379005074501038 0.00014810000720899552
0 0.20258258283138275 0.16177257895469666
0.0016491609858348966 0.20716221630573273 0.14567694067955017
0.036491513252258301 0.21629399061203003 0.099265143275260925
0.11971201002597809 0.22253847122192383 0.067628733813762665
0.2011297196149826 0.23132309317588806 0.05105571448802948
0.27024507522583008 0.24022045731544495 0.027802485972642899
0.32945659756660461 0.25053226947784424 0.011447053402662277
0.38999614119529724 0.27006411552429199 0.0054849213920533657
0.45214831829071045 0.291717529296875 0.002890478353947401
0.51853734254837036 0.3138694167137146 0.0053660375997424126
0.59632188081741333 0.3386114239692688 0.0061386106535792351
0.68011069297790527 0.35578331351280212 0.0030391020700335503
0.78004342317581177 0.36595794558525085 0.00059778551803901792
0.0050630159676074982 0.26790782809257507 0.1851237416267395
0.0080925291404128075 0.27391678094863892 0.1641743928194046
0.03476245328783989 0.28354844450950623 0.11174953728914261
0.12267818301916122 0.29362577199935913 0.076441854238510132
0.21667514741420746 0.3035273551940918 0.063909001648426056
0.28329002857208252 0.31076055765151978 0.051351733505725861
0.35651391744613647 0.31844955682754517 0.029742909595370293
0.43301284313201904 0.32801434397697449 0.012286735698580742
0.50055289268493652 0.34594649076461792 0.0050584683194756508
0.56892913579940796 0.36722368001937866 0.0033494539093226194
0.6421966552734375 0.38710895180702209 0.0048378738574683666
0.7248988151550293 0.4122825562953949 0.0024978339206427336
0.81295573711395264 0.42889690399169922 0.00065822229953482747
0.026993053033947945 0.34538078308105469 0.21136826276779175
0.033060319721698761 0.35128659009933472 0.18574514985084534
0.055681850761175156 0.35872220993041992 0.13379907608032227
0.14345122873783112 0.36444321274757385 0.090633079409599304
0.24316279590129852 0.37141954898834229 0.071784615516662598
0.31646457314491272 0.38137900829315186 0.068937934935092926
0.38567212224006653 0.39458072185516357 0.062937960028648376
0.46373578906059265 0.40212139487266541 0.048221588134765625
0.54536932706832886 0.4100290834903717 0.020463712513446808
0.6206367015838623 0.4280986487865448 0.0097549734637141228
0.69612985849380493 0.44722893834114075 0.0063929986208677292
0.77968084812164307 0.46933785080909729 0.0029340856708586216
0.85814094543457031 0.48400440812110901 0.00050953886238858104
0.077426806092262268 0.42297518253326416 0.24193906784057617
0.079951509833335876 0.42513152956962585 0.2189493328332901
0.11233031004667282 0.43425649404525757 0.17186141014099121
0.19270195066928864 0.44323354959487915 0.12863022089004517
0.28399538993835449 0.4473230242729187 0.1014188751578331
0.3650844395160675 0.45283734798431396 0.096702694892883301
0.43446797132492065 0.46944382786750793 0.10414481163024902
0.50333178043365479 0.47867313027381897 0.10405472666025162
0.58496516942977905 0.48829025030136108 0.089523389935493469
0.67091518640518188 0.49977788329124451 0.050939194858074188
0.75005275011062622 0.51245355606079102 0.01452108658850193
0.82657992839813232 0.52780187129974365 0.0061724493280053139
0.89837527275085449 0.53906857967376709 0.0012318779481574893
0.20098878443241119 0.51586306095123291 0.2857145369052887
0.19797372817993164 0.51470673084259033 0.26251554489135742
0.22015301883220673 0.51866996288299561 0.2187453955411911
0.28271234035491943 0.53296029567718506 0.18306605517864227
0.3583015501499176 0.540069580078125 0.15486519038677216
0.43879514932632446 0.54295647144317627 0.14661224186420441
0.5097426176071167 0.55590975284576416 0.15487244725227356
0.57290828227996826 0.56623691320419312 0.16570796072483063
0.64178913831710815 0.57396966218948364 0.16641221940517426
0.71651637554168701 0.57887059450149536 0.14367187023162842
0.79247015714645386 0.58182460069656372 0.090367935597896576
0.86929672956466675 0.59009796380996704 0.037790559232234955
0.9381028413772583 0.59871757030487061 0.010189954191446304
0.3250306248664856 0.61068844795227051 0.33384793996810913
0.33264487981796265 0.61304306983947754 0.31768319010734558
0.35114321112632751 0.61629432439804077 0.28893229365348816
0.39009416103363037 0.62536191940307617 0.24907340109348297
0.44678068161010742 0.6275133490562439 0.21655525267124176
0.51521807909011841 0.62960362434387207 0.20064443349838257
0.58098393678665161 0.63150626420974731 0.20117573440074921
0.64189594984054565 0.63965660333633423 0.20911349356174469
0.69786286354064941 0.64570170640945435 0.21392066776752472
0.75641971826553345 0.65216124057769775 0.21693599224090576
0.82962590456008911 0.65440565347671509 0.20006200671195984
0.90521711111068726 0.65784794092178345 0.15302015841007233
0.96626269817352295 0.66249972581863403 0.081618137657642365
0.4247385561466217 0.69221776723861694 0.38329523801803589
0.4323146641254425 0.69327372312545776 0.3750864565372467
0.44925853610038757 0.69886237382888794 0.3493918776512146
0.47559699416160583 0.70579701662063599 0.31168577075004578
0.5207323431968689 0.70690679550170898 0.27938297390937805
0.58013951778411865 0.70603328943252563 0.25052726268768311
0.63965952396392822 0.70450878143310547 0.2401527464389801
0.7000163197517395 0.70743334293365479 0.24601909518241882
0.75473296642303467 0.71363538503646851 0.25275737047195435
0.80416965484619141 0.71835422515869141 0.25782841444015503
0.86624491214752197 0.72226935625076294 0.26162815093994141
0.93438166379928589 0.7241671085357666 0.25069823861122131
0.97940742969512939 0.72348994016647339 0.21067935228347778
0.5150986909866333 0.76488935947418213 0.43738278746604919
0.52145355939865112 0.76780635118484497 0.42849981784820557
0.52773523330688477 0.77050721645355225 0.40128129720687866
0.54130250215530396 0.7758018970489502 0.36617952585220337
0.574443519115448 0.78077024221420288 0.33571663498878479
0.63270604610443115 0.77760034799575806 0.3008384108543396
0.69186228513717651 0.77593481540679932 0.2834225594997406
0.75103288888931274 0.77455157041549683 0.28391408920288086
0.8052552342414856 0.77654927968978882 0.28586071729660034
0.85371702909469604 0.77990913391113281 0.29104188084602356
0.90224003791809082 0.78390246629714966 0.29710328578948975
0.95130652189254761 0.78465187549591064 0.30254945158958435
0.98935920000076294 0.78339177370071411 0.29348498582839966
0.59447789192199707 0.83429992198944092 0.48287186026573181
0.59367740154266357 0.83314031362533569 0.47486773133277893
0.59695720672607422 0.83788621425628662 0.44944122433662415
0.60577541589736938 0.84341716766357422 0.41411343216896057
0.63484251499176025 0.84386426210403442 0.37971571087837219
0.68564713001251221 0.84398478269577026 0.35001078248023987
0.74243175983428955 0.84203517436981201 0.32899999618530273
0.80239689350128174 0.83876717090606689 0.31508949398994446
0.85385161638259888 0.83611917495727539 0.31247293949127197
0.89670997858047485 0.83534872531890869 0.31565070152282715
0.93509751558303833 0.83488303422927856 0.32041147351264954
0.97509175539016724 0.83430474996566772 0.32639023661613464
0.99534440040588379 0.83333897590637207 0.32647711038589478
0.6541980504989624 0.89194899797439575 0.50886267423629761
0.65182900428771973 0.88946676254272461 0.50146454572677612
0.65362894535064697 0.89352589845657349 0.47872555255889893
0.66212630271911621 0.90082287788391113 0.44786974787712097
0.69069892168045044 0.90038692951202393 0.42064124345779419
0.73410630226135254 0.89751732349395752 0.39442574977874756
0.78688186407089233 0.89410734176635742 0.36947125196456909
0.84196072816848755 0.88475334644317627 0.3411916196346283
0.89252656698226929 0.8844912052154541 0.33343935012817383
0.9353826642036438 0.88428968191146851 0.33606135845184326
0.96695578098297119 0.88002628087997437 0.33929818868637085
0.99007004499435425 0.87851095199584961 0.34241607785224915
0.99860620498657227 0.87784707546234131 0.34328469634056091
0 0.081538379192352295 0.10796839743852615
0.00082732556620612741 0.087368085980415344 0.10892871022224426
0.013263867236673832 0.096396714448928833 0.1126447468996048
0.041501212865114212 0.11131314933300018 0.12016627192497253
0.088560648262500763 0.13153016567230225 0.12884345650672913
0.14530856907367706 0.14885906875133514 0.12992697954177856
0.20648859441280365 0.16714049875736237 0.12634865939617157
0.28581851720809937 0.18348194658756256 0.11222076416015625
0.3750801682472229 0.19220267236232758 0.089432701468467712
0.46890270709991455 0.19725446403026581 0.061212889850139618
0.56629544496536255 0.18759287893772125 0.051626093685626984
0.66947335004806519 0.18285547196865082 0.052162710577249527
0.76294028759002686 0.1805015355348587 0.066741049289703369
0 0.10520158708095551 0.11705692112445831
0.0015503678005188704 0.10940272361040115 0.11772666126489639
0.015982817858457565 0.11717255413532257 0.12014172226190567
0.052027024328708649 0.13092900812625885 0.12403525412082672
0.10567193478345871 0.14799550175666809 0.12668295204639435
0.16529415547847748 0.16410033404827118 0.11875170469284058
0.22423665225505829 0.18127882480621338 0.11320329457521439
0.30517071485519409 0.19531659781932831 0.094540677964687347
0.39320686459541321 0.20401500165462494 0.070946395397186279
0.48340815305709839 0.21104635298252106 0.050216436386108398
0.58532208204269409 0.20471745729446411 0.0347457155585289
0.68717926740646362 0.19855387508869171 0.034858912229537964
0.79326713085174561 0.17284122109413147 0.045603524893522263
0 0.15000484883785248 0.14576014876365662
0.00035680134897120297 0.15441548824310303 0.14623846113681793
0.013773346319794655 0.15992563962936401 0.14026935398578644
0.075881585478782654 0.167326420545578 0.12540806829929352
0.14781905710697174 0.18058639764785767 0.11090362817049026
0.20399016141891479 0.19594079256057739 0.10233866423368454
0.26122546195983887 0.21214625239372253 0.093044862151145935
0.33546727895736694 0.22650967538356781 0.075021229684352875
0.41251298785209656 0.2408970445394516 0.058183483779430389
0.49772772192955017 0.25194719433784485 0.044205114245414734
0.5940062403678894 0.25825986266136169 0.039394527673721313
0.70439696311950684 0.24297545850276947 0.021200770512223244
0.81885397434234619 0.22594715654850006 0.021991774439811707
0.00063575297826901078 0.20850847661495209 0.17821322381496429
0.001768269226886332 0.21367989480495453 0.17436915636062622
0.016311481595039368 0.21584586799144745 0.15602563321590424
0.085927955806255341 0.22706423699855804 0.12537544965744019
0.17931932210922241 0.23710162937641144 0.10409664362668991
0.25406104326248169 0.24552948772907257 0.08682231605052948
0.31322818994522095 0.26029926538467407 0.071705237030982971
0.37468588352203369 0.27938303351402283 0.052309732884168625
0.43995264172554016 0.30192169547080994 0.049070589244365692
0.51069551706314087 0.32124504446983337 0.042825765907764435
0.5959852933883667 0.33834180235862732 0.051417019218206406
0.69293451309204102 0.34576472640037537 0.03376707062125206
0.80589908361434937 0.3470534086227417 0.016715643927454948
0.0092945024371147156 0.27275377511978149 0.21247740089893341
0.014696577563881874 0.2779642641544342 0.2060544490814209
0.025609992444515228 0.28184270858764648 0.18537375330924988
0.091695137321949005 0.29571488499641418 0.14274679124355316
0.18751490116119385 0.30941227078437805 0.12012094259262085
0.27209776639938354 0.31587305665016174 0.10139615088701248
0.3475668728351593 0.32203772664070129 0.075073599815368652
0.42743298411369324 0.33547094464302063 0.046369783580303192
0.49318015575408936 0.35430687665939331 0.037298195064067841
0.55793887376785278 0.37609359622001648 0.032289125025272369
0.63011258840560913 0.3993867039680481 0.040720097720623016
