assets/lut/creative crispwinter.cube
# Created by: G'MIC (https://gmic.eu)
TITLE "crispwinter"
# LUT size
LUT_3D_SIZE 7
# Data domain
DOMAIN_MIN 0.0 0.0 0.0
DOMAIN_MAX 1.0 1.0 1.0
# LUT data points
0.032310217618942261 0.051146712154150009 0.078156940639019012
0.19923809170722961 0.046078953891992569 0.073479339480400085
0.39808499813079834 0.046993345022201538 0.068971820175647736
0.5819898247718811 0.038824163377285004 0.067969150841236115
0.7541537880897522 0.043908737599849701 0.06312541663646698
0.91529941558837891 0.050371941179037094 0.06227194145321846
1 0.046724177896976471 0.064877316355705261
0.02265382744371891 0.25959378480911255 0.074761472642421722
0.18249216675758362 0.25017434358596802 0.067227788269519806
0.38006329536437988 0.24301642179489136 0.06188558042049408
0.56833350658416748 0.23124420642852783 0.060590870678424835
0.74459141492843628 0.2312946617603302 0.061835166066884995
0.90990304946899414 0.2409302294254303 0.05546010285615921
1 0.24152664840221405 0.058944970369338989
0.02058042585849762 0.48032292723655701 0.066533319652080536
0.16788001358509064 0.47649547457695007 0.061783555895090103
0.36206439137458801 0.46532878279685974 0.0538497194647789
0.55283421277999878 0.457378089427948 0.049146749079227448
0.73232316970825195 0.45388874411582947 0.048291433602571487
0.90466189384460449 0.4503684937953949 0.039910230785608292
1 0.44654339551925659 0.052098531275987625
0.028024576604366302 0.69835734367370605 0.060031410306692123
0.16850602626800537 0.68813705444335938 0.061663489788770676
0.3499792218208313 0.68142294883728027 0.051715042442083359
0.53967583179473877 0.67375141382217407 0.03910992294549942
0.7185700535774231 0.66544544696807861 0.030770141631364822
0.8947252631187439 0.65740483999252319 0.033062070608139038
1 0.65236502885818481 0.053772330284118652
0.026871280744671822 0.91145247220993042 0.06246967613697052
0.16606372594833374 0.90015637874603271 0.052040174603462219
0.34103220701217651 0.89637374877929688 0.045017629861831665
0.52819371223449707 0.8825078010559082 0.03778800368309021
0.70645523071289062 0.86105966567993164 0.021413138136267662
0.87562769651412964 0.85644912719726562 0.023702329024672508
0.99837023019790649 0.86069786548614502 0.045909509062767029
0.026908889412879944 1 0.035787157714366913
0.16096101701259613 1 0.028452973812818527
0.33239376544952393 1 0.027980221435427666
0.51724785566329956 0.99994254112243652 0.032620988786220551
0.69391566514968872 0.99128991365432739 0.014982425607740879
0.85523724555969238 0.98850983381271362 0.011352659203112125
0.98781883716583252 0.99460291862487793 0.019828017801046371
0.020752625539898872 1 0.011227820999920368
0.1524684727191925 1 0.012177860364317894
0.3212735652923584 1 0.010503865778446198
0.50518596172332764 1 0.0049316557124257088
0.68413078784942627 1 0.00089524214854463935
0.85305869579315186 1 0.00010555491462582722
0.99240869283676147 1 0.00014002183161210269
0.037932422012090683 0.046518422663211823 0.37124913930892944
0.1990237683057785 0.040756583213806152 0.35955241322517395
0.39528319239616394 0.0395953468978405 0.34917899966239929
0.58246415853500366 0.036322485655546188 0.34154880046844482
0.75865823030471802 0.035582851618528366 0.32985401153564453
0.92336255311965942 0.042280636727809906 0.31928834319114685
1 0.039989233016967773 0.31986773014068604
0.030725531280040741 0.25514286756515503 0.35379999876022339
0.18419307470321655 0.24804642796516418 0.34024912118911743
0.37903979420661926 0.24401582777500153 0.33090853691101074
0.56591629981994629 0.23519024252891541 0.31974697113037109
0.74034136533737183 0.22366495430469513 0.31005942821502686
0.90950155258178711 0.22718262672424316 0.29884931445121765
1 0.22818385064601898 0.30371922254562378
0.028613565489649773 0.47676998376846313 0.33196181058883667
0.17655609548091888 0.4736115038394928 0.31962704658508301
0.36638647317886353 0.46814033389091492 0.31053897738456726
0.55247384309768677 0.459229975938797 0.29806381464004517
0.72753512859344482 0.44973418116569519 0.28507930040359497
0.90129846334457397 0.44286340475082397 0.27346807718276978
1 0.43842878937721252 0.28698885440826416
0.031137922778725624 0.6944504976272583 0.31716945767402649
0.16804814338684082 0.68617719411849976 0.30739352107048035
0.3512704074382782 0.68113285303115845 0.29119387269020081
0.54045683145523071 0.66872191429138184 0.27529460191726685
0.71597635746002197 0.66152167320251465 0.262399822473526
0.89214944839477539 0.65409362316131592 0.25470682978630066
1 0.64713150262832642 0.26616355776786804
0.029494207352399826 0.89373821020126343 0.3042965829372406
0.15521332621574402 0.88769984245300293 0.28989234566688538
0.33433794975280762 0.89109122753143311 0.26994389295578003
0.52617591619491577 0.88046693801879883 0.25848791003227234
0.70715951919555664 0.86654585599899292 0.24470491707324982
0.88151711225509644 0.85892271995544434 0.23213385045528412
0.99975872039794922 0.85305988788604736 0.23467303812503815
0.020382212474942207 0.99385881423950195 0.27234885096549988
0.13816523551940918 0.9986501932144165 0.26096639037132263
0.32098981738090515 0.99991625547409058 0.24874632060527802
0.51379513740539551 0.99998652935028076 0.25095421075820923
0.69430416822433472 0.99770087003707886 0.23736296594142914
0.86015594005584717 0.99576777219772339 0.2232433557510376
0.99067097902297974 0.99780559539794922 0.21778872609138489
0.0051723555661737919 1 0.24551302194595337
0.11767848581075668 1 0.2468990683555603
0.30555066466331482 1 0.23637166619300842
0.50158381462097168 0.99940723180770874 0.21513840556144714
0.68277549743652344 0.99778902530670166 0.20079983770847321
0.85661512613296509 0.99784135818481445 0.19249977171421051
0.99667751789093018 0.99993932247161865 0.18086521327495575
0.040120277553796768 0.047656100243330002 0.658133864402771
0.20269182324409485 0.036362472921609879 0.64044046401977539
0.39226058125495911 0.033757302910089493 0.63000887632369995
0.58006465435028076 0.033730048686265945 0.62756752967834473
0.76266288757324219 0.029752649366855621 0.61285531520843506
0.93152439594268799 0.037882860749959946 0.58987385034561157
1 0.029096744954586029 0.58634930849075317
0.026478637009859085 0.25859490036964417 0.63033366203308105
0.1797400563955307 0.2455727756023407 0.61086034774780273
0.3744475245475769 0.23829898238182068 0.60165596008300781
0.56185334920883179 0.23160514235496521 0.59693026542663574
0.73767071962356567 0.2154633104801178 0.58884143829345703
0.90957707166671753 0.21514628827571869 0.57328850030899048
1 0.20586162805557251 0.56672954559326172
0.02490946464240551 0.47759944200515747 0.60210692882537842
0.16526138782501221 0.47088149189949036 0.59060734510421753
0.36124002933502197 0.46321457624435425 0.58338397741317749
0.54866379499435425 0.45646139979362488 0.57421070337295532
0.7229200005531311 0.44588145613670349 0.56260019540786743
0.90126991271972656 0.43789476156234741 0.55472368001937866
1 0.42738017439842224 0.55091565847396851
0.026418544352054596 0.68873918056488037 0.58140110969543457
0.15294128656387329 0.68165838718414307 0.5741233229637146
0.3447539210319519 0.67642992734909058 0.56152057647705078
0.53661471605300903 0.66670769453048706 0.55323320627212524
0.71446305513381958 0.65939110517501831 0.5457567572593689
0.89302510023117065 0.65401911735534668 0.54071164131164551
1 0.64466005563735962 0.53555631637573242
0.023146491497755051 0.89615076780319214 0.56478738784790039
0.13623398542404175 0.88332527875900269 0.55620414018630981
0.32541888952255249 0.88007438182830811 0.54268443584442139
0.52385866641998291 0.87180250883102417 0.53644442558288574
0.7066078782081604 0.86761003732681274 0.52846109867095947
0.88160848617553711 0.8633233904838562 0.51884955167770386
0.99984151124954224 0.84986025094985962 0.5140533447265625
0.0063284779898822308 0.99993836879730225 0.54614394903182983
0.11361450701951981 0.99734246730804443 0.53417390584945679
0.3127167820930481 0.99527961015701294 0.526356041431427
0.51312589645385742 0.99874067306518555 0.52193892002105713
0.69273418188095093 0.99942868947982788 0.51289629936218262
0.86270153522491455 0.99789911508560181 0.50053542852401733
0.99556887149810791 0.992046058177948 0.48700010776519775
0 0.99943763017654419 0.5250430703163147
0.088343828916549683 0.9962470531463623 0.52088207006454468
0.29955267906188965 0.99379438161849976 0.50951045751571655
0.50080794095993042 0.99653178453445435 0.49719181656837463
0.67896562814712524 0.99889206886291504 0.4904225766658783
0.85175848007202148 0.99867719411849976 0.48550286889076233
0.99694579839706421 1 0.46606868505477905
0.035766106098890305 0.050708949565887451 0.90652734041213989
0.19879314303398132 0.037589024752378464 0.88344413042068481
0.38597738742828369 0.038782380521297455 0.88138371706008911
0.57422196865081787 0.039146512746810913 0.887961745262146
0.75730931758880615 0.029083237051963806 0.87235146760940552
0.91413247585296631 0.034544222056865692 0.85334748029708862
0.9965934157371521 0.025358311831951141 0.85150915384292603
0.019347516819834709 0.26129233837127686 0.8758920431137085
0.17153444886207581 0.24607005715370178 0.859111487865448
0.36874541640281677 0.23801031708717346 0.85300302505493164
0.558441162109375 0.23205102980136871 0.85784542560577393
0.73734462261199951 0.21507473289966583 0.85342633724212646
0.91147053241729736 0.21430468559265137 0.83432424068450928
0.99826645851135254 0.19263081252574921 0.81445378065109253
0.016678694635629654 0.47826921939849854 0.85552322864532471
0.15381132066249847 0.47046652436256409 0.85559988021850586
0.35620328783988953 0.46104416251182556 0.84504830837249756
0.54774528741836548 0.45382052659988403 0.83876138925552368
0.7233729362487793 0.44553050398826599 0.82099634408950806
0.90798008441925049 0.43910947442054749 0.81214898824691772
1 0.42410287261009216 0.79711258411407471
0.015813834965229034 0.68505501747131348 0.83980607986450195
0.13670331239700317 0.67991310358047485 0.83200681209564209
0.34333840012550354 0.67227590084075928 0.82168275117874146
0.53596621751785278 0.66384565830230713 0.81582486629486084
0.71303254365921021 0.6583552360534668 0.80654436349868774
0.89182275533676147 0.6525530219078064 0.80682092905044556
0.99997955560684204 0.64405602216720581 0.79513615369796753
0.013000831939280033 0.89779609441757202 0.82417136430740356
0.12025938183069229 0.88909393548965454 0.81766891479492188
0.3267383873462677 0.88248938322067261 0.80877828598022461
0.52234268188476562 0.87254321575164795 0.80039685964584351
0.70250773429870605 0.86741167306900024 0.78987318277359009
0.88006138801574707 0.85623383522033691 0.7863767147064209
0.99997740983963013 0.84635931253433228 0.78210008144378662
0.0033890369813889265 1 0.80586439371109009
0.11096359044313431 1 0.79373127222061157
0.31483185291290283 0.99990952014923096 0.78848230838775635
0.51071047782897949 0.99937558174133301 0.78321295976638794
0.68897563219070435 0.99971526861190796 0.76898503303527832
0.86336684226989746 0.99773871898651123 0.75985056161880493
0.99680095911026001 0.99159824848175049 0.75309234857559204
1.4002182979311328e-05 0.99687665700912476 0.78984290361404419
0.10312481969594955 0.99585968255996704 0.77773690223693848
0.3087623119354248 0.99868077039718628 0.77082115411758423
0.49935069680213928 0.99888855218887329 0.76426613330841064
0.67720878124237061 0.99915444850921631 0.76106029748916626
0.85304743051528931 0.99920111894607544 0.74966233968734741
0.99555009603500366 0.99874937534332275 0.73824584484100342
0.030396316200494766 0.044992513954639435 1
0.19204384088516235 0.036157764494419098 0.99982506036758423
0.37775179743766785 0.040583726018667221 0.99999427795410156
0.56819945573806763 0.038169696927070618 1
0.75197815895080566 0.027743799611926079 0.99996733665466309
0.90834563970565796 0.037745904177427292 0.99789190292358398
0.99726122617721558 0.041982598602771759 0.99958670139312744
0.015759501606225967 0.25488609075546265 0.99974602460861206
0.16976509988307953 0.24238297343254089 0.99700278043746948
0.36278712749481201 0.23941485583782196 0.99725008010864258
0.55380117893218994 0.22922210395336151 0.99981451034545898
0.73492789268493652 0.20882058143615723 0.99960553646087646
0.9042733907699585 0.21591809391975403 0.99423718452453613
0.99959385395050049 0.21444530785083771 0.98341137170791626
0.011155147105455399 0.47295907139778137 0.99902594089508057
0.15639752149581909 0.46687352657318115 0.99997007846832275
0.35658749938011169 0.45939356088638306 0.99702739715576172
0.54567688703536987 0.44935044646263123 0.99876624345779419
0.72317910194396973 0.43975123763084412 0.98781681060791016
0.89660364389419556 0.43321052193641663 0.98923224210739136
0.99986821413040161 0.42505589127540588 0.97726935148239136
0.011138856410980225 0.68040996789932251 0.99907875061035156
0.13996776938438416 0.67372363805770874 0.99684113264083862
0.34530335664749146 0.6663438081741333 0.99272388219833374
0.53532487154006958 0.65952372550964355 0.99184674024581909
0.7106214165687561 0.65388005971908569 0.98975712060928345
0.87855815887451172 0.64412117004394531 0.99604052305221558
0.99449032545089722 0.6370130181312561 0.99138337373733521
0.0089363846927881241 0.88202738761901855 0.99861866235733032
0.11824680119752884 0.87690770626068115 0.99832844734191895
0.3330024778842926 0.86888468265533447 0.99690264463424683
0.52046376466751099 0.86388695240020752 0.99513131380081177
0.70000016689300537 0.85731154680252075 0.99422609806060791
0.87327879667282104 0.84440505504608154 0.98988884687423706
0.99507826566696167 0.84201443195343018 0.98802131414413452
0.0088445628061890602 0.99860531091690063 0.99512040615081787
0.10951521992683411 0.99996107816696167 0.98653745651245117
0.31790560483932495 0.99922001361846924 0.98591077327728271
0.50567501783370972 0.9983784556388855 0.98731327056884766
0.68342894315719604 0.99934834241867065 0.97843790054321289
0.86223715543746948 0.99843567609786987 0.97309386730194092
0.99580645561218262 0.9958503246307373 0.97528010606765747
0.016473732888698578 0.99970734119415283 0.99369770288467407
0.12754446268081665 0.99978339672088623 0.98523390293121338
0.31092008948326111 0.99996733665466309 0.97873657941818237
0.49560472369194031 1 0.97114378213882446
0.6742095947265625 0.99871456623077393 0.97912907600402832
0.84958469867706299 0.99837827682495117 0.96877104043960571
0.99082702398300171 0.99874019622802734 0.9699552059173584
0.027127478271722794 0.033052392303943634 1
0.18795676529407501 0.026252252981066704 1
0.37342247366905212 0.029890023171901703 1
0.5674515962600708 0.030727026984095573 1
0.75655615329742432 0.027978261932730675 1
0.92763781547546387 0.03433908149600029 1
1 0.03527030348777771 1
0.012242410331964493 0.24441541731357574 1
0.16398109495639801 0.23058658838272095 0.99765390157699585
0.35645791888237 0.23246034979820251 0.99999099969863892
0.55153357982635498 0.22857163846492767 1
0.73916155099868774 0.21920806169509888 1
0.9099496603012085 0.21791057288646698 1
1 0.21816025674343109 1
0.0052634146995842457 0.4683692455291748 1
0.14664779603481293 0.46161556243896484 0.99850237369537354
0.34861165285110474 0.45474827289581299 0.99814200401306152
0.54068541526794434 0.44635874032974243 1
0.72267168760299683 0.43728730082511902 1
0.8939325213432312 0.42908596992492676 1
0.99996697902679443 0.4244040846824646 1
0.0042721019126474857 0.68003517389297485 1
0.13795982301235199 0.67303633689880371 0.99997955560684204
0.34323173761367798 0.66565507650375366 0.9999992847442627
0.53282815217971802 0.65698957443237305 1
0.70953279733657837 0.64754372835159302 1
0.87902915477752686 0.63805878162384033 1
0.99716037511825562 0.63429290056228638 1
0.0036519519053399563 0.88456833362579346 0.99959307909011841
0.12074811011552811 0.87934869527816772 0.99994468688964844
0.33369234204292297 0.87374567985534668 1
0.52183085680007935 0.86506062746047974 1
0.69631755352020264 0.85131740570068359 0.99999690055847168
0.87381434440612793 0.84544885158538818 1
0.99653202295303345 0.84077364206314087 1
0.014538110233843327 1 1
0.11477752029895782 1 1
0.31504529714584351 1 1
0.50441402196884155 0.99978888034820557 1
0.67951178550720215 0.99850642681121826 1
0.85704928636550903 0.99811166524887085 0.99998301267623901
0.99746692180633545 0.99566161632537842 0.99941760301589966
0.032649453729391098 1 1
0.14068819582462311 1 1
0.31022918224334717 1 1
0.49315869808197021 1 1
0.67047357559204102 1 1
0.84442341327667236 0.99995070695877075 1
0.99240195751190186 0.99918121099472046 1
0.028994422405958176 0.025295078754425049 1
0.18991492688655853 0.022610025480389595 1
0.37305238842964172 0.023212268948554993 1
0.56486290693283081 0.023079441860318184 1
0.75322145223617554 0.019565433263778687 1
0.92311334609985352 0.013949839398264885 1
1 0.011748429387807846 0.99745333194732666
0.013481155037879944 0.23925644159317017 1
0.16593870520591736 0.2318865954875946 0.99759751558303833
0.35341894626617432 0.22926886379718781 0.99859458208084106
0.54770827293395996 0.22610363364219666 1
0.73738646507263184 0.2174370139837265 1
0.91064828634262085 0.20598581433296204 0.9999961256980896
1 0.20096689462661743 1
0.0056371050886809826 0.46412897109985352 1
0.14675986766815186 0.45752930641174316 0.98599851131439209
0.33936753869056702 0.44946259260177612 0.98618298768997192
0.53358006477355957 0.4431854784488678 0.99765110015869141
0.71989703178405762 0.43603995442390442 0.99957680702209473
0.8978126049041748 0.425750732421875 0.99919331073760986
1 0.419045090675354 0.99970906972885132
0.0037574917078018188 0.68010354042053223 0.99886709451675415
0.13714152574539185 0.67229336500167847 0.98703831434249878
0.33395600318908691 0.66158092021942139 0.99101853370666504
0.52484285831451416 0.65297228097915649 0.99742180109024048
0.70554232597351074 0.64495187997817993 0.99848812818527222
0.88121527433395386 0.63626772165298462 1
0.99959373474121094 0.63115859031677246 1
0.0034983616787940264 0.88291901350021362 0.99625605344772339
0.11896782368421555 0.87554633617401123 0.99295270442962646
0.32527551054954529 0.86425495147705078 0.99717706441879272
0.5156206488609314 0.8586956262588501 0.99781990051269531
0.69126105308532715 0.84595555067062378 0.99478524923324585
0.86905908584594727 0.84048688411712646 1
0.99702125787734985 0.83402222394943237 1
0.017712373286485672 1 1
0.11477560549974442 1 1
0.30777996778488159 0.99995917081832886 1
0.5010141134262085 0.99963140487670898 1
0.67887198925018311 0.99661314487457275 1
0.85726946592330933 0.99770015478134155 0.99986892938613892
0.99420791864395142 0.99570655822753906 0.99991166591644287
0.037218384444713593 1 1
0.14747855067253113 1 1
0.31051915884017944 1 1
0.49280834197998047 1 1
0.67158418893814087 1 1
0.84800136089324951 1 1
0.99539315700531006 0.99873906373977661 1
