assets/lut/creative bleachbypass 02.cube
# Created by: G'MIC (https://gmic.eu)
TITLE "bleachbypass_2"
# LUT size
LUT_3D_SIZE 5
# Data domain
DOMAIN_MIN 0.0 0.0 0.0
DOMAIN_MAX 1.0 1.0 1.0
# LUT data points
0.082958295941352844 0.081898212432861328 0.083044834434986115
0.14826148748397827 0.1060895100235939 0.10401850938796997
0.24744908511638641 0.13700427114963531 0.13639119267463684
0.36634311079978943 0.16862346231937408 0.16672752797603607
0.51480770111083984 0.20709845423698425 0.20690630376338959
0.10165680199861526 0.14553242921829224 0.1023203507065773
0.18659718334674835 0.18874861299991608 0.13462339341640472
0.29582029581069946 0.22864468395709991 0.1648775041103363
0.42684495449066162 0.27705800533294678 0.20276166498661041
0.58898037672042847 0.32927191257476807 0.24433910846710205
0.13309553265571594 0.24227724969387054 0.13272233307361603
0.22642381489276886 0.2933942973613739 0.1646040678024292
0.34953206777572632 0.34793275594711304 0.20196764171123505
0.49842935800552368 0.41208896040916443 0.24322938919067383
0.67286139726638794 0.47336074709892273 0.28814706206321716
0.16839087009429932 0.37121239304542542 0.16864931583404541
0.27509850263595581 0.42599368095397949 0.20390231907367706
0.40887308120727539 0.49879544973373413 0.24267357587814331
0.57338935136795044 0.57271605730056763 0.28636544942855835
0.76036864519119263 0.64910006523132324 0.33535757660865784
0.20615485310554504 0.51304095983505249 0.2059067040681839
0.32305747270584106 0.5855870246887207 0.24060709774494171
0.47843441367149353 0.67480266094207764 0.29089266061782837
0.66120654344558716 0.76506054401397705 0.33643984794616699
0.8540949821472168 0.85372781753540039 0.38434579968452454
0.10651244968175888 0.10618947446346283 0.15099969506263733
0.18486441671848297 0.13220229744911194 0.18603339791297913
0.291839599609375 0.16202612221240997 0.22497053444385529
0.43024811148643494 0.20048519968986511 0.27242353558540344
0.59103721380233765 0.2464413195848465 0.32818129658699036
0.13263364136219025 0.18682467937469482 0.18639545142650604
0.22954551875591278 0.2299731969833374 0.22947336733341217
0.34563729166984558 0.27271384000778198 0.27298092842102051
0.49462735652923584 0.320261150598526 0.3195686936378479
0.66947448253631592 0.37894439697265625 0.37710797786712646
0.16536854207515717 0.29246670007705688 0.22874836623668671
0.27136710286140442 0.34548211097717285 0.27231186628341675
0.40645959973335266 0.40665560960769653 0.32273498177528381
0.56597030162811279 0.47033447027206421 0.37433835864067078
0.75577729940414429 0.53633564710617065 0.4305555522441864
0.20571577548980713 0.43597963452339172 0.27749988436698914
0.32398340106010437 0.49253442883491516 0.32405751943588257
0.47295531630516052 0.56788790225982666 0.37570422887802124
0.64742767810821533 0.64439201354980469 0.43338823318481445
0.84677469730377197 0.72285419702529907 0.49211081862449646
0.2470719963312149 0.59455114603042603 0.33134052157402039
0.37831676006317139 0.6719743013381958 0.37864750623703003
0.54293853044509888 0.75870400667190552 0.43621808290481567
0.7337336540222168 0.85154980421066284 0.4945162832736969
0.94669973850250244 0.94459640979766846 0.55609679222106934
0.13153837621212006 0.13258036971092224 0.24733784794807434
0.2264854907989502 0.16455252468585968 0.29233792424201965
0.34756031632423401 0.19809624552726746 0.3465026319026947
0.49574106931686401 0.24245557188987732 0.40840691328048706
0.67176800966262817 0.2893543541431427 0.47848659753799438
0.16304853558540344 0.22841452062129974 0.29229632019996643
0.272440105676651 0.27192384004592896 0.34706345200538635
0.4077627956867218 0.32376417517662048 0.40511202812194824
0.57164520025253296 0.37801861763000488 0.4717172384262085
0.75860905647277832 0.43651887774467468 0.54331845045089722
0.20300699770450592 0.34999600052833557 0.34746351838111877
0.32413843274116516 0.40612843632698059 0.40411388874053955
0.46461963653564453 0.46587392687797546 0.46561577916145325
0.64185649156570435 0.53484219312667847 0.53512823581695557
0.84484046697616577 0.60735154151916504 0.60527342557907104
0.24251528084278107 0.49610522389411926 0.41364407539367676
0.3760620653629303 0.56551861763000488 0.4734155535697937
0.53913241624832153 0.64359718561172485 0.53584486246109009
0.72390478849411011 0.72079026699066162 0.60566693544387817
0.93624413013458252 0.80810105800628662 0.67968285083770752
0.28960853815078735 0.67525750398635864 0.48096030950546265
0.43542498350143433 0.75666904449462891 0.54163146018981934
0.60938555002212524 0.8426520824432373 0.60834890604019165
0.81303101778030396 0.93738895654678345 0.67898660898208618
0.99733632802963257 0.99903792142868042 0.75834512710571289
0.16450239717960358 0.16781404614448547 0.36656582355499268
0.27707633376121521 0.20469261705875397 0.4303954541683197
0.41086539626121521 0.24195849895477295 0.5017743706703186
0.57084810733795166 0.28898546099662781 0.57538396120071411
0.75874704122543335 0.3321666419506073 0.65198397636413574
0.20162886381149292 0.27660080790519714 0.42746564745903015
0.32195860147476196 0.32417392730712891 0.4968971312046051
0.47192606329917908 0.37621638178825378 0.56976783275604248
0.64485412836074829 0.43324819207191467 0.64560782909393311
0.84447294473648071 0.48823529481887817 0.7252432107925415
0.24196802079677582 0.41042640805244446 0.49750509858131409
0.37759596109390259 0.47208687663078308 0.56768399477005005
0.53458738327026367 0.5347028374671936 0.64348071813583374
0.7231629490852356 0.60579061508178711 0.72484052181243896
0.93695789575576782 0.67939507961273193 0.80671960115432739
0.28784725069999695 0.57254254817962646 0.57291221618652344
0.43268013000488281 0.64402729272842407 0.64537060260772705
0.60693049430847168 0.72145122289657593 0.72141307592391968
0.80394214391708374 0.80309796333312988 0.80462902784347534
0.99802744388580322 0.89575916528701782 0.89654546976089478
0.33321660757064819 0.76338863372802734 0.65184867382049561
0.48828136920928955 0.8463054895401001 0.72437494993209839
0.67967379093170166 0.93933069705963135 0.8097083568572998
0.89339745044708252 0.99880683422088623 0.89396864175796509
1 1 0.97757112979888916
0.20773942768573761 0.20619744062423706 0.51447343826293945
0.32673075795173645 0.24601742625236511 0.59314078092575073
0.47031247615814209 0.2840765118598938 0.67382502555847168
0.64855968952178955 0.33265787363052368 0.75969630479812622
0.8516269326210022 0.38276821374893188 0.8516269326210022
0.24589698016643524 0.32870945334434509 0.59254688024520874
0.37681591510772705 0.37821969389915466 0.66890650987625122
0.53930801153182983 0.43533769249916077 0.75670033693313599
0.72423875331878662 0.48850306868553162 0.84532743692398071
0.93094450235366821 0.54978764057159424 0.9342769980430603
0.28906801342964172 0.47582834959030151 0.67453974485397339
0.43130254745483398 0.53933966159820557 0.75745958089828491
0.60319900512695312 0.60853952169418335 0.84797960519790649
0.80683267116546631 0.68192332983016968 0.94507628679275513
0.99763786792755127 0.75430941581726074 0.99900645017623901
0.33517807722091675 0.65192872285842896 0.76331824064254761
0.49055874347686768 0.72438210248947144 0.84601873159408569
0.67913836240768433 0.8092573881149292 0.93632304668426514
0.89777529239654541 0.89602339267730713 0.99735456705093384
0.99998480081558228 0.97529560327529907 0.99996328353881836
0.38376608490943909 0.85295087099075317 0.85294860601425171
0.55781000852584839 0.94109195470809937 0.93835479021072388
0.76312440633773804 0.9968758225440979 0.99632799625396729
0.97774916887283325 0.99984443187713623 0.99996381998062134
0.99949514865875244 0.99935245513916016 0.99882924556732178
