assets/lut/creative candlelight.cube
# Created by: G'MIC (https://gmic.eu)
TITLE "candlelight"
# LUT size
LUT_3D_SIZE 5
# Data domain
DOMAIN_MIN 0.0 0.0 0.0
DOMAIN_MAX 1.0 1.0 1.0
# LUT data points
0.072633795440196991 0.057425361126661301 0.045770756900310516
0.22355075180530548 0.12332934141159058 0.10553790628910065
0.389352947473526 0.18632455170154572 0.17288748919963837
0.67351305484771729 0.32723808288574219 0.30860266089439392
0.93304616212844849 0.4578711986541748 0.43520256876945496
0.1584320068359375 0.18816520273685455 0.1068757027387619
0.24494285881519318 0.20316678285598755 0.12331589311361313
0.40107613801956177 0.2519879937171936 0.18552452325820923
0.67802363634109497 0.36612635850906372 0.31494143605232239
0.94411647319793701 0.48935195803642273 0.44499239325523376
0.24407118558883667 0.33622613549232483 0.17094847559928894
0.30934032797813416 0.34314084053039551 0.17879292368888855
0.4336429238319397 0.36556354165077209 0.21392554044723511
0.69266432523727417 0.44286787509918213 0.32911491394042969
0.94747388362884521 0.54545336961746216 0.45100438594818115
0.43099814653396606 0.59874463081359863 0.309062659740448
0.47414252161979675 0.61160910129547119 0.32137051224708557
0.54188752174377441 0.60716694593429565 0.32432925701141357
0.73960459232330322 0.64155375957489014 0.37923559546470642
0.97741568088531494 0.70752066373825073 0.48481282591819763
0.64614582061767578 0.89625680446624756 0.46999648213386536
0.66446518898010254 0.8962932825088501 0.47081789374351501
0.72026771306991577 0.90911620855331421 0.48395392298698425
0.85746568441390991 0.92021399736404419 0.50847387313842773
0.99358546733856201 0.93250882625579834 0.65543848276138306
0.1092962846159935 0.086900465190410614 0.099468275904655457
0.22268247604370117 0.12270304560661316 0.13673177361488342
0.38594311475753784 0.18924129009246826 0.19817177951335907
0.67864996194839478 0.3313690721988678 0.32728481292724609
0.93618804216384888 0.45542663335800171 0.44799086451530457
0.15962009131908417 0.18182827532291412 0.13389591872692108
0.23228771984577179 0.19395358860492706 0.15334457159042358
0.39343458414077759 0.2602476179599762 0.21873418986797333
0.67432266473770142 0.37363046407699585 0.33500072360038757
0.94181150197982788 0.49140745401382446 0.45585960149765015
0.25097101926803589 0.33292537927627563 0.19859419763088226
0.30496478080749512 0.32570585608482361 0.20781511068344116
0.41996723413467407 0.35317429900169373 0.23929664492607117
0.68805760145187378 0.44847980141639709 0.34981343150138855
0.94371688365936279 0.54712557792663574 0.46089541912078857
0.43687543272972107 0.60188072919845581 0.3269229531288147
0.47266706824302673 0.59476965665817261 0.33396589756011963
0.54738283157348633 0.60613322257995605 0.34630006551742554
0.73498642444610596 0.63303995132446289 0.3888542652130127
0.97731733322143555 0.70883506536483765 0.49937218427658081
0.65209496021270752 0.90183824300765991 0.48082980513572693
0.67412012815475464 0.90019404888153076 0.48701107501983643
0.72356963157653809 0.90171653032302856 0.49341902136802673
0.86599260568618774 0.92364233732223511 0.52241271734237671
0.99237906932830811 0.92840421199798584 0.65553867816925049
0.14655499160289764 0.11112532019615173 0.18183942139148712
0.23290054500102997 0.12457834929227829 0.19579233229160309
0.39867150783538818 0.1916825920343399 0.24774783849716187
0.6822701096534729 0.32985579967498779 0.35857179760932922
0.93494236469268799 0.45425215363502502 0.47093385457992554
0.17501932382583618 0.19487263262271881 0.19468972086906433
0.24290232360363007 0.20088343322277069 0.19473972916603088
0.38888585567474365 0.26791328191757202 0.2597542405128479
0.67474538087844849 0.38985469937324524 0.3749966025352478
0.94321346282958984 0.50098448991775513 0.48558688163757324
0.25347501039505005 0.33414638042449951 0.24232259392738342
0.31032150983810425 0.31368783116340637 0.24536986649036407
0.40467536449432373 0.34292376041412354 0.27526956796646118
0.68193197250366211 0.45854222774505615 0.39202761650085449
0.95406544208526611 0.56837397813796997 0.50497746467590332
0.4373532235622406 0.59857475757598877 0.35344797372817993
0.482288658618927 0.5880131721496582 0.36928549408912659
0.54571151733398438 0.58879196643829346 0.3792041540145874
0.73233991861343384 0.635783851146698 0.43197581171989441
0.97638112306594849 0.72094964981079102 0.53648209571838379
0.65103268623352051 0.89665305614471436 0.49808698892593384
0.68427914381027222 0.89825618267059326 0.51317328214645386
0.74145352840423584 0.90676194429397583 0.53116476535797119
0.86726218461990356 0.91707080602645874 0.54578006267547607
0.99051022529602051 0.93089514970779419 0.69673901796340942
0.24903857707977295 0.18023522198200226 0.35665765404701233
0.30846315622329712 0.18990921974182129 0.36169272661209106
0.42223268747329712 0.21333026885986328 0.37750759720802307
0.6834186315536499 0.32268276810646057 0.45216447114944458
0.94816058874130249 0.45928213000297546 0.55471396446228027
0.2709706723690033 0.25013899803161621 0.36348044872283936
0.33838817477226257 0.27446874976158142 0.35829982161521912
0.42189928889274597 0.28767144680023193 0.37428691983222961
0.68203872442245483 0.38687193393707275 0.45815590023994446
0.9450916051864624 0.50211673974990845 0.55250388383865356
0.30477896332740784 0.35059568285942078 0.37617164850234985
0.35935133695602417 0.34993651509284973 0.36435705423355103
0.43724405765533447 0.36695447564125061 0.37254530191421509
0.6806265115737915 0.4712335467338562 0.47317072749137878
0.9582476019859314 0.59433448314666748 0.59305685758590698
0.44470998644828796 0.59835231304168701 0.4447358250617981
0.48797312378883362 0.58624905347824097 0.44405126571655273
0.55921179056167603 0.57391011714935303 0.45777255296707153
0.71330201625823975 0.61751806735992432 0.51190203428268433
0.97753024101257324 0.74246740341186523 0.63892573118209839
0.65229398012161255 0.89584660530090332 0.56963574886322021
0.69289588928222656 0.90533906221389771 0.59607589244842529
0.76050651073455811 0.90801113843917847 0.62414491176605225
0.88870704174041748 0.91877728700637817 0.65719705820083618
0.98535400629043579 0.93834465742111206 0.77832764387130737
0.48065724968910217 0.35211765766143799 0.70326590538024902
0.51213747262954712 0.3619396984577179 0.70674377679824829
0.58694165945053101 0.37395426630973816 0.72320735454559326
0.75284665822982788 0.39520886540412903 0.73929250240325928
0.96255433559417725 0.45578643679618835 0.77847057580947876
0.4938930869102478 0.38960075378417969 0.71627253293991089
0.54623913764953613 0.42163103818893433 0.72292017936706543
0.60794728994369507 0.43060874938964844 0.72836196422576904
0.76263988018035889 0.44790726900100708 0.74289053678512573
0.9687122106552124 0.50671815872192383 0.78844469785690308
0.50535732507705688 0.45567992329597473 0.71373075246810913
0.56923145055770874 0.4925723671913147 0.72623616456985474
0.65470558404922485 0.52999585866928101 0.74149137735366821
0.78138571977615356 0.54088830947875977 0.74704807996749878
0.96726393699645996 0.58333456516265869 0.78992921113967896
0.56572425365447998 0.63802248239517212 0.74560630321502686
0.60813337564468384 0.65254932641983032 0.75418037176132202
0.69139230251312256 0.67788523435592651 0.76354902982711792
0.83675456047058105 0.72536873817443848 0.78094851970672607
0.97400116920471191 0.77952563762664795 0.83571344614028931
0.67183643579483032 0.89061141014099121 0.79394328594207764
0.70759040117263794 0.89756500720977783 0.80497986078262329
0.77339428663253784 0.90285134315490723 0.81851553916931152
0.91812765598297119 0.91629451513290405 0.84001600742340088
0.97562950849533081 0.94777703285217285 0.92627137899398804
