assets/lut/creative bleachbypass 04.cube
# Created by: G'MIC (https://gmic.eu)
TITLE "bleachbypass_4"
# LUT size
LUT_3D_SIZE 5
# Data domain
DOMAIN_MIN 0.0 0.0 0.0
DOMAIN_MAX 1.0 1.0 1.0
# LUT data points
0.10755886137485504 0.10243973135948181 0.10447489470243454
0.17910589277744293 0.12874314188957214 0.13063181936740875
0.27611455321311951 0.15945813059806824 0.1654449999332428
0.38658404350280762 0.20151625573635101 0.20968274772167206
0.51609241962432861 0.24073991179466248 0.24851983785629272
0.13687819242477417 0.17109954357147217 0.13370534777641296
0.22913852334022522 0.21803951263427734 0.17405225336551666
0.33742111921310425 0.26315858960151672 0.21045583486557007
0.46375402808189392 0.31216353178024292 0.25158193707466125
0.60641956329345703 0.36640438437461853 0.2998661994934082
0.18232466280460358 0.27239999175071716 0.17999109625816345
0.28748852014541626 0.32956758141517639 0.21879099309444427
0.41019207239151001 0.39182263612747192 0.26561012864112854
0.54935383796691895 0.45259445905685425 0.31035926938056946
0.69953227043151855 0.51541948318481445 0.35970309376716614
0.23168620467185974 0.40180647373199463 0.22120600938796997
0.34942561388015747 0.47467309236526489 0.27233600616455078
0.4907461404800415 0.55374222993850708 0.32850527763366699
0.64406365156173706 0.62584376335144043 0.37894609570503235
0.80380845069885254 0.69641703367233276 0.43064689636230469
0.28918415307998657 0.56475430727005005 0.27954387664794922
0.42583546042442322 0.65184980630874634 0.34001010656356812
0.57561522722244263 0.73693960905075073 0.39763623476028442
0.73210752010345459 0.81528002023696899 0.44991898536682129
0.88452392816543579 0.88385766744613647 0.50632435083389282
0.12861323356628418 0.12536124885082245 0.17291267216205597
0.21727468073368073 0.15778188407421112 0.21520139276981354
0.32151782512664795 0.19469174742698669 0.26123082637786865
0.44872710108757019 0.23529022932052612 0.31040510535240173
0.58953124284744263 0.27839240431785583 0.36372250318527222
0.17060698568820953 0.21342813968658447 0.2221120297908783
0.27885633707046509 0.26261100172996521 0.27311968803405762
0.39075827598571777 0.30629891157150269 0.31714516878128052
0.52228140830993652 0.35974311828613281 0.37160205841064453
0.68175309896469116 0.41547510027885437 0.4304901659488678
0.2207745760679245 0.32386103272438049 0.2761719822883606
0.33457207679748535 0.38093987107276917 0.32870453596115112
0.46664136648178101 0.44623786211013794 0.3823699951171875
0.61349481344223022 0.51196080446243286 0.4407162070274353
0.78056132793426514 0.57993215322494507 0.50442111492156982
0.27283975481987 0.46783685684204102 0.33716249465942383
0.40485069155693054 0.53779023885726929 0.39782029390335083
0.54968875646591187 0.61135149002075195 0.45383086800575256
0.70674151182174683 0.68981814384460449 0.51390504837036133
0.88988411426544189 0.77453136444091797 0.58572614192962646
0.33924859762191772 0.64388340711593628 0.40971830487251282
0.48295670747756958 0.73517298698425293 0.47579109668731689
0.63934111595153809 0.8185734748840332 0.54003047943115234
0.81256139278411865 0.90678054094314575 0.60144990682601929
0.97905021905899048 0.98026329278945923 0.66971743106842041
0.16250407695770264 0.15610297024250031 0.25750133395195007
0.2616678774356842 0.19140039384365082 0.31077390909194946
0.37864938378334045 0.23005843162536621 0.37128779292106628
0.50934314727783203 0.27594098448753357 0.42953526973724365
0.66142010688781738 0.32243397831916809 0.49008452892303467
0.20377399027347565 0.25201937556266785 0.31456702947616577
0.31927868723869324 0.30316844582557678 0.37837967276573181
0.44898492097854614 0.35514175891876221 0.43936777114868164
0.59307289123535156 0.40958178043365479 0.50251036882400513
0.75787520408630371 0.46627792716026306 0.57354748249053955
0.25700786709785461 0.37090203166007996 0.38511097431182861
0.38392835855484009 0.43817239999771118 0.45160037279129028
0.52946484088897705 0.50398522615432739 0.519550621509552
0.68163186311721802 0.56924629211425781 0.58547461032867432
0.85809981822967529 0.6456073522567749 0.65775972604751587
0.31414195895195007 0.52554476261138916 0.46087646484375
0.45573267340660095 0.60838496685028076 0.534343421459198
0.6133841872215271 0.68405246734619141 0.60641372203826904
0.78201353549957275 0.76161521673202515 0.67700910568237305
0.96977382898330688 0.85132324695587158 0.75519067049026489
0.38571012020111084 0.71751463413238525 0.54860609769821167
0.5383535623550415 0.80858176946640015 0.62620288133621216
0.70496636629104614 0.89952987432479858 0.69919204711914062
0.89407587051391602 0.98458600044250488 0.77855801582336426
1 1 0.85816526412963867
0.19264565408229828 0.18278758227825165 0.36394825577735901
0.30813181400299072 0.22745770215988159 0.43162068724632263
0.4378851056098938 0.27659699320793152 0.50490748882293701
0.57221800088882446 0.31734541058540344 0.57069450616836548
0.73420161008834839 0.36620265245437622 0.63944292068481445
0.24123577773571014 0.29158931970596313 0.43547847867012024
0.36558568477630615 0.34801959991455078 0.50126761198043823
0.50805509090423584 0.40643668174743652 0.5802956223487854
0.66004759073257446 0.46434605121612549 0.65390175580978394
0.83829343318939209 0.52531200647354126 0.7379755973815918
0.29803758859634399 0.42846158146858215 0.51604253053665161
0.43630334734916687 0.4962315559387207 0.58956950902938843
0.58720630407333374 0.56188768148422241 0.66407901048660278
0.7563244104385376 0.63455939292907715 0.74856007099151611
0.93910753726959229 0.7108839750289917 0.82853668928146362
0.36095240712165833 0.59440642595291138 0.60590696334838867
0.51121401786804199 0.67298811674118042 0.68457555770874023
0.67965781688690186 0.75404578447341919 0.76579838991165161
0.85838615894317627 0.84104245901107788 0.85338872671127319
0.9999854564666748 0.92929279804229736 0.94159591197967529
0.43068549036979675 0.79090696573257446 0.6975935697555542
0.59382611513137817 0.88364511728286743 0.79104197025299072
0.77804625034332275 0.97694665193557739 0.87772935628890991
0.96977096796035767 0.99996447563171387 0.96426689624786377
0.99852985143661499 1 0.99980878829956055
0.23375731706619263 0.21627254784107208 0.49218767881393433
0.35842543840408325 0.27422580122947693 0.56923758983612061
0.4846520721912384 0.30781769752502441 0.64412921667098999
0.63436770439147949 0.35597866773605347 0.72115224599838257
0.79287683963775635 0.41018515825271606 0.78906381130218506
0.28497806191444397 0.33899393677711487 0.57348549365997314
0.42274457216262817 0.40395769476890564 0.65708595514297485
0.57225817441940308 0.45928025245666504 0.74249422550201416
0.73030692338943481 0.51462787389755249 0.82397902011871338
0.91018205881118774 0.58196550607681274 0.90706151723861694
0.34518325328826904 0.48750832676887512 0.66750860214233398
0.49546191096305847 0.55856382846832275 0.75467836856842041
0.65280020236968994 0.62774157524108887 0.84298580884933472
0.82779502868652344 0.69855564832687378 0.93053752183914185
0.99504709243774414 0.7732168436050415 0.99382776021957397
0.407096266746521 0.65883022546768188 0.76636463403701782
0.57222771644592285 0.74582207202911377 0.86045145988464355
0.75104832649230957 0.830474853515625 0.95446085929870605
0.9443555474281311 0.92175543308258057 0.99768859148025513
0.99975878000259399 0.98977106809616089 0.99962341785430908
0.48407730460166931 0.8548891544342041 0.85417157411575317
0.65791136026382446 0.96054261922836304 0.95629012584686279
0.8512037992477417 0.99998706579208374 1
0.99995958805084229 0.99827229976654053 0.99685579538345337
0.99895572662353516 1 1
