assets/lut/creative anime.cube
# Created by: G'MIC (https://gmic.eu)
TITLE "anime"
# LUT size
LUT_3D_SIZE 5
# Data domain
DOMAIN_MIN 0.0 0.0 0.0
DOMAIN_MAX 1.0 1.0 1.0
# LUT data points
0.0775742307305336 0.034832194447517395 0.0053431643173098564
0.24687348306179047 0.088066607713699341 0.01126397866755724
0.41087689995765686 0.17542797327041626 0.041257116943597794
0.58831369876861572 0.28021013736724854 0.10541471838951111
0.78392273187637329 0.39794832468032837 0.1903776228427887
0.011776614002883434 0.27831247448921204 0.00041170307667925954
0.29453405737876892 0.25625711679458618 0.083735659718513489
0.4334753155708313 0.31894385814666748 0.13988536596298218
0.59776937961578369 0.3982536792755127 0.20354332029819489
0.77906328439712524 0.48817780613899231 0.27284693717956543
0.0060274163261055946 0.53841322660446167 0
0.29719722270965576 0.50039201974868774 0.05968334898352623
0.52227365970611572 0.50587159395217896 0.25198748707771301
0.66798979043960571 0.56331789493560791 0.30557727813720703
0.82124489545822144 0.63525652885437012 0.36567854881286621
0.00050362979527562857 0.81048369407653809 0
0.10081634670495987 0.78857594728469849 0.0051489886827766895
0.59984976053237915 0.74815702438354492 0.33707964420318604
0.78024929761886597 0.76237380504608154 0.42943468689918518
0.91699570417404175 0.79860502481460571 0.46442818641662598
0 0.99292111396789551 0
0.024850359186530113 0.98921740055084229 0
0.51307713985443115 0.98252010345458984 0.096204943954944611
0.85925376415252686 0.96523457765579224 0.53490209579467773
0.9883275032043457 0.97438764572143555 0.55796933174133301
0.1136922612786293 0.03594556450843811 0.22869683802127838
0.25812825560569763 0.076190635561943054 0.13787312805652618
0.40840515494346619 0.1668618768453598 0.15929627418518066
0.59293341636657715 0.27867814898490906 0.21305149793624878
0.7870524525642395 0.39058297872543335 0.27065500617027283
0.03769257664680481 0.28363537788391113 0.19040510058403015
0.27860638499259949 0.26539671421051025 0.20803928375244141
0.4469248354434967 0.31061089038848877 0.24830402433872223
0.62088644504547119 0.38356518745422363 0.28248980641365051
0.81325966119766235 0.46983218193054199 0.32364490628242493
0 0.55833017826080322 0.021674033254384995
0.08606034517288208 0.53938496112823486 0.053715799003839493
0.51541721820831299 0.50565612316131592 0.34847742319107056
0.66526848077774048 0.56736427545547485 0.40358716249465942
0.82601034641265869 0.63018476963043213 0.45003268122673035
0 0.8211473822593689 0.014071356505155563
0.039077818393707275 0.81784862279891968 0.0067383111454546452
0.52641302347183228 0.76743859052658081 0.30584430694580078
0.77562099695205688 0.7660524845123291 0.50490367412567139
0.91153591871261597 0.80301058292388916 0.54196339845657349
0 0.99484467506408691 0.0010520486393943429
0.0030298419296741486 0.99392390251159668 0.0010538138449192047
0.339957594871521 0.98888033628463745 0.053795356303453445
0.8397289514541626 0.95800644159317017 0.5647243857383728
0.98752987384796143 0.97538882493972778 0.61630046367645264
0.1258300244808197 0.038700327277183533 0.44683361053466797
0.30658450722694397 0.039290513843297958 0.39043888449668884
0.43609130382537842 0.17200800776481628 0.29522350430488586
0.60070109367370605 0.28503265976905823 0.33932298421859741
0.78432822227478027 0.39555758237838745 0.39915531873703003
0.044370777904987335 0.28062912821769714 0.46632948517799377
0.28139922022819519 0.27838444709777832 0.45892065763473511
0.46435275673866272 0.30765146017074585 0.37633731961250305
0.62623685598373413 0.38643953204154968 0.39573046565055847
0.80966222286224365 0.47548457980155945 0.44137817621231079
0.082197271287441254 0.53897833824157715 0.4364495575428009
0.14724747836589813 0.53543585538864136 0.44807294011116028
0.49392196536064148 0.51891523599624634 0.47516357898712158
0.68070155382156372 0.56646275520324707 0.51408785581588745
0.86710453033447266 0.62123823165893555 0.53434276580810547
0 0.83157408237457275 0.34013471007347107
0.00028692506020888686 0.84035599231719971 0.25782924890518188
0.17805682122707367 0.8212159276008606 0.2934449315071106
0.76805406808853149 0.77092844247817993 0.62192761898040771
0.90128135681152344 0.80711215734481812 0.65831488370895386
0 0.99465596675872803 0.2778116762638092
0 0.99732887744903564 0.17522767186164856
0.057138331234455109 0.99534511566162109 0.060205809772014618
0.76883232593536377 0.97887974977493286 0.55803292989730835
0.97863161563873291 0.96769267320632935 0.71716761589050293
0.089602001011371613 0.058056730777025223 0.6771886944770813
0.30573615431785583 0.053185824304819107 0.64408081769943237
0.50340354442596436 0.11999110877513885 0.56615495681762695
0.62922930717468262 0.29077267646789551 0.47995254397392273
0.80059230327606201 0.40883967280387878 0.52193546295166016
0.0094367982819676399 0.28233975172042847 0.70798969268798828
0.25207239389419556 0.28462326526641846 0.70454424619674683
0.50097864866256714 0.30170348286628723 0.65200459957122803
0.6551443338394165 0.39053112268447876 0.54132604598999023
0.82249146699905396 0.48602044582366943 0.56755071878433228
0.02041524276137352 0.53847318887710571 0.73794233798980713
0.1646425724029541 0.5320855975151062 0.74069452285766602
0.49019688367843628 0.53207558393478394 0.73372673988342285
0.70228248834609985 0.56241285800933838 0.64757078886032104
0.86797595024108887 0.62683945894241333 0.65810537338256836
0.078328691422939301 0.81776928901672363 0.71037858724594116
0.12495926767587662 0.81584161520004272 0.71729940176010132
0.30185097455978394 0.80688393115997314 0.73116046190261841
0.74707543849945068 0.78439974784851074 0.76015090942382812
0.92489081621170044 0.80925637483596802 0.77790927886962891
0.00022403492766898125 0.99518144130706787 0.67057156562805176
1.5617819371982478e-05 0.99852973222732544 0.64511090517044067
0.0053100138902664185 0.99818605184555054 0.54379749298095703
0.43876779079437256 0.99479889869689941 0.55989187955856323
0.98135095834732056 0.97810781002044678 0.84656637907028198
0.027970407158136368 0.10224972665309906 0.89822006225585938
0.27170237898826599 0.094471320509910583 0.89265990257263184
0.51638215780258179 0.12567520141601562 0.84775239229202271
0.70026701688766479 0.261118084192276 0.73754554986953735
0.83223903179168701 0.42368599772453308 0.67244589328765869
0.00053304038010537624 0.29896083474159241 0.95458036661148071
0.15973260998725891 0.31033492088317871 0.95599466562271118
0.48615261912345886 0.31522157788276672 0.91488653421401978
0.72092562913894653 0.36531969904899597 0.82206100225448608
0.85162085294723511 0.49719682335853577 0.71753394603729248
4.0929458918981254e-05 0.53501921892166138 0.96956604719161987
0.11039889603853226 0.53883904218673706 0.97470885515213013
0.44909107685089111 0.54220575094223022 0.97576051950454712
0.73728567361831665 0.55375516414642334 0.93601590394973755
0.88889533281326294 0.62891441583633423 0.7951238751411438
0.072043508291244507 0.79879093170166016 0.95839595794677734
0.090348862111568451 0.79408317804336548 0.95908141136169434
0.39279529452323914 0.79697656631469727 0.98130804300308228
0.7319599986076355 0.78929775953292847 0.98446452617645264
0.9352373480796814 0.80461341142654419 0.90624988079071045
0.0097495280206203461 0.99534362554550171 0.95276975631713867
0.020192299038171768 0.99363076686859131 0.95425575971603394
0.13550275564193726 0.99224358797073364 0.95621901750564575
0.5634082555770874 0.98779845237731934 0.96060657501220703
0.97224217653274536 0.98366671800613403 0.97524291276931763
