assets/lut/creative tensiongreen 01.cube
# Created by: G'MIC (https://gmic.eu)
TITLE "tensiongreen_1"
# LUT size
LUT_3D_SIZE 5
# Data domain
DOMAIN_MIN 0.0 0.0 0.0
DOMAIN_MAX 1.0 1.0 1.0
# LUT data points
0.0055803935974836349 0.049866933375597 0.052505388855934143
0.21108445525169373 0.070182055234909058 0.039210658520460129
0.42696431279182434 0.073528289794921875 0.01691780798137188
0.65443402528762817 0.095034807920455933 0.016699053347110748
0.89764297008514404 0.046362094581127167 0.018512336537241936
0.056691486388444901 0.24572959542274475 0.066738083958625793
0.19588343799114227 0.26472300291061401 0.020945305004715919
0.42239877581596375 0.27059221267700195 0.0023999682161957026
0.67378038167953491 0.2630094587802887 0.0025044758804142475
0.90840244293212891 0.26220139861106873 0.0035511690657585859
0.1706654280424118 0.46113544702529907 0.11654015630483627
0.24288247525691986 0.46759968996047974 0.04462471604347229
0.403585284948349 0.48910290002822876 0.049600981175899506
0.64081615209579468 0.49952533841133118 0.020289253443479538
0.92507541179656982 0.47653797268867493 0.0029378104954957962
0.34186181426048279 0.67820960283279419 0.25319972634315491
0.38588148355484009 0.68450820446014404 0.21038976311683655
0.50663822889328003 0.70250821113586426 0.17714408040046692
0.66997933387756348 0.71829146146774292 0.19911451637744904
0.89405494928359985 0.72474479675292969 0.17151987552642822
0.52178359031677246 0.89441978931427002 0.41099950671195984
0.54641866683959961 0.90331041812896729 0.37548023462295532
0.62906986474990845 0.9113839864730835 0.31655421853065491
0.77107155323028564 0.92450964450836182 0.31554549932479858
0.93488669395446777 0.94068223237991333 0.34110242128372192
0.013299396261572838 0.074857346713542938 0.13659584522247314
0.12863481044769287 0.13080941140651703 0.15337516367435455
0.25810956954956055 0.21781019866466522 0.17665980756282806
0.5041426420211792 0.27476054430007935 0.20477049052715302
0.78562617301940918 0.27931836247444153 0.2329820841550827
0.09273674339056015 0.25099462270736694 0.17283584177494049
0.17046521604061127 0.27111855149269104 0.17445476353168488
0.35236558318138123 0.30258360505104065 0.1797366589307785
0.59622335433959961 0.32424834370613098 0.19570574164390564
0.85554009675979614 0.32610434293746948 0.22269752621650696
0.21119064092636108 0.45364293456077576 0.24775013327598572
0.25447145104408264 0.46963369846343994 0.2281949371099472
0.38948711752891541 0.49355289340019226 0.19926673173904419
0.64282292127609253 0.5004802942276001 0.16487665474414825
0.91044771671295166 0.49342828989028931 0.16570200026035309
0.37437409162521362 0.67383509874343872 0.37226885557174683
0.39715331792831421 0.68510347604751587 0.34923878312110901
0.48675549030303955 0.70259279012680054 0.29181590676307678
0.66019755601882935 0.71980106830596924 0.30114668607711792
0.88866829872131348 0.72882068157196045 0.27982985973358154
0.5378650426864624 0.89259111881256104 0.49735993146896362
0.56218558549880981 0.89967215061187744 0.48030373454093933
0.62421756982803345 0.91185152530670166 0.42987552285194397
0.75677430629730225 0.92710888385772705 0.39647316932678223
0.92338234186172485 0.94056349992752075 0.4239218533039093
0.072479367256164551 0.11823675036430359 0.21169710159301758
0.14558888971805573 0.16404813528060913 0.22630095481872559
0.26492792367935181 0.24249148368835449 0.25170829892158508
0.40257683396339417 0.34731689095497131 0.29060402512550354
0.57868868112564087 0.44275224208831787 0.35762333869934082
0.11723531037569046 0.26482158899307251 0.24918855726718903
0.17898325622081757 0.29532569646835327 0.25867524743080139
0.2968502938747406 0.34565180540084839 0.28045928478240967
0.43355342745780945 0.41651114821434021 0.31850451231002808
0.64729923009872437 0.47968998551368713 0.38748383522033691
0.23610039055347443 0.4638155996799469 0.31347036361694336
0.28356713056564331 0.48051145672798157 0.32908311486244202
0.37203800678253174 0.51070833206176758 0.34900182485580444
0.57183647155761719 0.53089761734008789 0.37576213479042053
0.8123706579208374 0.54958289861679077 0.41618311405181885
0.40970805287361145 0.67292201519012451 0.45798754692077637
0.44105646014213562 0.68197536468505859 0.46852713823318481
0.50000834465026855 0.7015189528465271 0.46434065699577332
0.64117681980133057 0.72945374250411987 0.44388732314109802
0.89053726196289062 0.73304200172424316 0.41877618432044983
0.58724308013916016 0.8817628026008606 0.61454451084136963
0.604572594165802 0.88810229301452637 0.61657929420471191
0.63789659738540649 0.90917634963989258 0.59133350849151611
0.74508839845657349 0.9341435432434082 0.53789263963699341
0.90990418195724487 0.95092171430587769 0.5454401969909668
0.13264985382556915 0.17087055742740631 0.29336088895797729
0.18545611202716827 0.20657877624034882 0.30463278293609619
0.28608864545822144 0.27658584713935852 0.33441835641860962
0.42068037390708923 0.36503955721855164 0.37448346614837646
0.56434953212738037 0.46518483757972717 0.43907099962234497
0.161863774061203 0.2956031858921051 0.33096686005592346
0.21541042625904083 0.31835648417472839 0.34099212288856506
0.31183645129203796 0.36772409081459045 0.36425969004631042
0.44491425156593323 0.43532657623291016 0.40745687484741211
0.59599548578262329 0.52258557081222534 0.47066560387611389
0.25930899381637573 0.47919246554374695 0.40467450022697449
0.29845127463340759 0.49530580639839172 0.41773909330368042
0.37598344683647156 0.52448135614395142 0.44409525394439697
0.5127331018447876 0.5700221061706543 0.47968479990959167
0.65740048885345459 0.62784302234649658 0.53591680526733398
0.43111088871955872 0.68168699741363525 0.52632778882980347
0.46347865462303162 0.68827015161514282 0.53294360637664795
0.52228331565856934 0.70856326818466187 0.5529826283454895
0.6228298544883728 0.74245560169219971 0.59141659736633301
0.81595808267593384 0.76802903413772583 0.62517648935317993
0.6057855486869812 0.88975900411605835 0.68789291381835938
0.62509959936141968 0.89308297634124756 0.69213628768920898
0.67779743671417236 0.90474295616149902 0.70334088802337646
0.7474139928817749 0.93009287118911743 0.70899313688278198
0.89816957712173462 0.9571535587310791 0.69688063859939575
0.19539079070091248 0.2280760258436203 0.37983506917953491
0.23937368392944336 0.25917455554008484 0.39479023218154907
0.31733861565589905 0.31493997573852539 0.42145818471908569
0.44459328055381775 0.39407065510749817 0.46118390560150146
0.58748000860214233 0.4883882999420166 0.53580302000045776
0.22593565285205841 0.33170783519744873 0.41524419188499451
0.26677000522613525 0.35371172428131104 0.42677590250968933
0.34702059626579285 0.39508223533630371 0.45122268795967102
0.46781393885612488 0.46083888411521912 0.49457550048828125
0.61720073223114014 0.54331821203231812 0.56497156620025635
0.29486826062202454 0.50381255149841309 0.49284610152244568
0.33146798610687256 0.51367878913879395 0.50624954700469971
0.4120936393737793 0.54293054342269897 0.53236848115921021
0.52812892198562622 0.58750700950622559 0.57258743047714233
0.66650933027267456 0.64242124557495117 0.6227409839630127
0.45223036408424377 0.69553416967391968 0.62355124950408936
0.47974619269371033 0.70253771543502808 0.62692552804946899
0.54187077283859253 0.72294652462005615 0.64716982841491699
0.62949377298355103 0.75613731145858765 0.68169909715652466
0.74920523166656494 0.79335832595825195 0.72202545404434204
0.62924963235855103 0.89921236038208008 0.75451570749282837
0.65210312604904175 0.90370529890060425 0.76436012983322144
0.6986767053604126 0.91833740472793579 0.77796542644500732
0.76881670951843262 0.93857818841934204 0.80485314130783081
0.9054332971572876 0.96994388103485107 0.88184165954589844
