assets/lut/creative bleachbypass 03.cube
# Created by: G'MIC (https://gmic.eu)
TITLE "bleachbypass_3"
# LUT size
LUT_3D_SIZE 5
# Data domain
DOMAIN_MIN 0.0 0.0 0.0
DOMAIN_MAX 1.0 1.0 1.0
# LUT data points
0.10317638516426086 0.10098371654748917 0.098069705069065094
0.18629744648933411 0.11953325569629669 0.11727327853441238
0.30099856853485107 0.15095262229442596 0.1494450718164444
0.44900846481323242 0.18831124901771545 0.18512147665023804
0.51296758651733398 0.19934865832328796 0.19706554710865021
0.16703684628009796 0.17810212075710297 0.15294045209884644
0.21803697943687439 0.20858769118785858 0.14184166491031647
0.33904701471328735 0.24790766835212708 0.17250756919384003
0.49594771862030029 0.29377123713493347 0.21050044894218445
0.58326655626296997 0.31685304641723633 0.22831737995147705
0.23461535573005676 0.26152649521827698 0.20980396866798401
0.27101421356201172 0.30459809303283691 0.19167248904705048
0.37799671292304993 0.36196208000183105 0.20162470638751984
0.5455213189125061 0.42339980602264404 0.24419325590133667
0.66321331262588501 0.45853117108345032 0.26627868413925171
0.30970212817192078 0.36495333909988403 0.28028300404548645
0.38307273387908936 0.42667260766029358 0.30475699901580811
0.42478504776954651 0.49531757831573486 0.23544304072856903
0.59051406383514404 0.56752896308898926 0.26999127864837646
0.74921786785125732 0.62753850221633911 0.31143847107887268
0.39603018760681152 0.48469501733779907 0.35643509030342102
0.50390374660491943 0.55555820465087891 0.41384357213973999
0.53111857175827026 0.64188653230667114 0.3375106155872345
0.64602071046829224 0.74285918474197388 0.31063452363014221
0.81453460454940796 0.81459337472915649 0.34902933239936829
0.13016442954540253 0.12865252792835236 0.1722269207239151
0.22162443399429321 0.15829256176948547 0.19212473928928375
0.33412313461303711 0.18868432939052582 0.24112243950366974
0.4923783540725708 0.22026097774505615 0.29087674617767334
0.58379733562469482 0.23563958704471588 0.31045550107955933
0.16417773067951202 0.2121095210313797 0.20831900835037231
0.26356601715087891 0.24965690076351166 0.23941051959991455
0.39131012558937073 0.28791719675064087 0.27367156744003296
0.55903559923171997 0.33593088388442993 0.31972786784172058
0.65504348278045654 0.35869523882865906 0.34441527724266052
0.24393095076084137 0.2908027172088623 0.25653237104415894
0.33849936723709106 0.3388361930847168 0.30048665404319763
0.42603778839111328 0.40742823481559753 0.30527499318122864
0.60234856605529785 0.46687489748001099 0.34942322969436646
0.72854083776473999 0.50095051527023315 0.37715771794319153
0.33726894855499268 0.39632537961006165 0.33115881681442261
0.43485432863235474 0.45862480998039246 0.38326707482337952
0.50283235311508179 0.53959792852401733 0.378368079662323
0.64497089385986328 0.62092775106430054 0.38362103700637817
0.81356102228164673 0.68112432956695557 0.42353132367134094
0.42688474059104919 0.52050107717514038 0.41259491443634033
0.5395505428314209 0.59029275178909302 0.47062268853187561
0.63469642400741577 0.66904807090759277 0.50945758819580078
0.70298862457275391 0.79743057489395142 0.4287312924861908
0.89037972688674927 0.87767583131790161 0.46396562457084656
0.15741607546806335 0.15510883927345276 0.25477012991905212
0.25868919491767883 0.18779133260250092 0.29449692368507385
0.37368631362915039 0.22518929839134216 0.31614267826080322
0.50938934087753296 0.26752325892448425 0.37295055389404297
0.66563254594802856 0.30300819873809814 0.44405266642570496
0.19077382981777191 0.25046122074127197 0.30460894107818604
0.30090069770812988 0.29361090064048767 0.35365277528762817
0.44092661142349243 0.3405299186706543 0.37446865439414978
0.59312224388122559 0.38633096218109131 0.44803732633590698
0.74245476722717285 0.42094850540161133 0.50444924831390381
0.22514602541923523 0.35435125231742859 0.34782186150550842
0.34719020128250122 0.40429785847663879 0.39905768632888794
0.48400735855102539 0.45592838525772095 0.43916827440261841
0.6775171160697937 0.52641063928604126 0.50360727310180664
0.81509411334991455 0.56718331575393677 0.54388493299484253
0.31054806709289551 0.45962482690811157 0.39401015639305115
0.4553149938583374 0.50246137380599976 0.44594982266426086
0.57802951335906982 0.56170797348022461 0.5007479190826416
0.71806728839874268 0.69118022918701172 0.54868161678314209
0.89776778221130371 0.75275182723999023 0.5952717661857605
0.4294966459274292 0.57165080308914185 0.46994629502296448
0.57591956853866577 0.62750840187072754 0.53668320178985596
0.69279450178146362 0.70225834846496582 0.60401743650436401
0.79911613464355469 0.83990049362182617 0.62391692399978638
0.97707629203796387 0.96373987197875977 0.65091878175735474
0.19392828643321991 0.19206245243549347 0.37243831157684326
0.30214771628379822 0.22546595335006714 0.42940285801887512
0.42161458730697632 0.25918573141098022 0.43685787916183472
0.56802713871002197 0.30448004603385925 0.47798347473144531
0.7235724925994873 0.35251227021217346 0.53990435600280762
0.22814534604549408 0.2953527569770813 0.42687252163887024
0.34530699253082275 0.34024357795715332 0.4893348217010498
0.47973206639289856 0.38703176379203796 0.53417646884918213
0.65633344650268555 0.4439941942691803 0.55448466539382935
0.81305134296417236 0.49545580148696899 0.62246644496917725
0.2670653760433197 0.4138009250164032 0.48645263910293579
0.39302530884742737 0.46743348240852356 0.5494534969329834
0.53461951017379761 0.52579301595687866 0.61290478706359863
0.74372321367263794 0.5909426212310791 0.63184261322021484
0.90214645862579346 0.6473003625869751 0.7218281626701355
0.30545869469642639 0.55004370212554932 0.54788672924041748
0.44723230600357056 0.61935245990753174 0.61373805999755859
0.59815710783004761 0.67859238386154175 0.67394155263900757
0.79784137010574341 0.75805217027664185 0.73419106006622314
0.98770177364349365 0.83740842342376709 0.80589699745178223
0.38606101274490356 0.68883109092712402 0.60118383169174194
0.55475354194641113 0.74049526453018188 0.65602588653564453
0.7251095175743103 0.77616357803344727 0.70084470510482788
0.88032722473144531 0.83548432588577271 0.76128339767456055
0.99925833940505981 0.99774825572967529 0.87848478555679321
0.23227895796298981 0.23010998964309692 0.51063805818557739
0.35440525412559509 0.26626059412956238 0.58287686109542847
0.47979938983917236 0.30435413122177124 0.6410554051399231
0.62361878156661987 0.34037986397743225 0.60541385412216187
0.79080146551132202 0.38943788409233093 0.66334700584411621
0.26770666241645813 0.34095034003257751 0.57558721303939819
0.40293172001838684 0.393898606300354 0.65450900793075562
0.53906691074371338 0.44168946146965027 0.72217351198196411
0.71227669715881348 0.4910004734992981 0.72387397289276123
0.87697434425354004 0.53956633806228638 0.74608159065246582
0.30742174386978149 0.4713624119758606 0.64696478843688965
0.44966268539428711 0.52972865104675293 0.72264957427978516
0.59795701503753662 0.58942431211471558 0.79617595672607422
0.77817249298095703 0.64968413114547729 0.85055279731750488
0.95982730388641357 0.70081025362014771 0.82756137847900391
0.35324880480766296 0.62490075826644897 0.72494816780090332
0.50186508893966675 0.69243854284286499 0.79917186498641968
0.6635817289352417 0.76223540306091309 0.87541353702545166
0.84343606233596802 0.83416825532913208 0.95520633459091187
0.99983823299407959 0.88644063472747803 0.91809958219528198
0.39840686321258545 0.805450439453125 0.80311137437820435
0.56461471319198608 0.8882785439491272 0.88399422168731689
0.73025649785995483 0.95934939384460449 0.95810544490814209
0.92411106824874878 0.99515551328659058 0.98789018392562866
1 0.99613219499588013 0.9855009913444519
