assets/lut/creative softwarming.cube
# Created by: G'MIC (https://gmic.eu)
TITLE "softwarming"
# LUT size
LUT_3D_SIZE 13
# Data domain
DOMAIN_MIN 0.0 0.0 0.0
DOMAIN_MAX 1.0 1.0 1.0
# LUT data points
0.10679607093334198 0.079034529626369476 0.09511808305978775
0.1748187243938446 0.082614198327064514 0.099807813763618469
0.24125216901302338 0.085135728120803833 0.10367943346500397
0.30647733807563782 0.08749312162399292 0.10732810944318771
0.37071850895881653 0.089779794216156006 0.11069171130657196
0.43401926755905151 0.092278905212879181 0.1144668310880661
0.49672180414199829 0.095152430236339569 0.11851051449775696
0.55889767408370972 0.098312616348266602 0.12268060445785522
0.6205061674118042 0.10170364379882812 0.12680655717849731
0.68179690837860107 0.10525818169116974 0.13062892854213715
0.74271440505981445 0.10877839475870132 0.13381282985210419
0.8033939003944397 0.11188238114118576 0.13568226993083954
0.8637542724609375 0.11390605568885803 0.13577951490879059
0.11409192532300949 0.14362452924251556 0.10260766744613647
0.18215599656105042 0.14718903601169586 0.10702649503946304
0.24862931668758392 0.14990873634815216 0.11046317964792252
0.31377941370010376 0.1523699015378952 0.11362727731466293
0.37786775827407837 0.15445972979068756 0.116843082010746
0.44119065999984741 0.1571820080280304 0.12042528390884399
0.5037466287612915 0.16019771993160248 0.12450805306434631
0.56570076942443848 0.16366985440254211 0.12880824506282806
0.62720191478729248 0.16734598577022552 0.13312478363513947
0.68837255239486694 0.17130871117115021 0.13707102835178375
0.74923467636108398 0.17509777843952179 0.14034849405288696
0.80987721681594849 0.17854160070419312 0.14234977960586548
0.87011224031448364 0.18115045130252838 0.14261932671070099
0.12071140110492706 0.20747864246368408 0.10923062264919281
0.18875397741794586 0.21096524596214294 0.11320624500513077
0.25521752238273621 0.21408998966217041 0.11634011566638947
0.32031705975532532 0.21631249785423279 0.11919624358415604
0.38435691595077515 0.21882228553295135 0.12218101322650909
0.44759032130241394 0.22134965658187866 0.12557262182235718
0.51001638174057007 0.22451099753379822 0.12958149611949921
0.57184785604476929 0.22836446762084961 0.13415493071079254
0.63315731287002563 0.23249645531177521 0.13857316970825195
0.69427961111068726 0.23664408922195435 0.14251981675624847
0.7550237774848938 0.24069903790950775 0.14570158720016479
0.81551510095596313 0.24437390267848969 0.14769724011421204
0.87597483396530151 0.24718695878982544 0.14802123606204987
0.12752319872379303 0.27195921540260315 0.11563487350940704
0.19533176720142365 0.27529200911521912 0.11923535168170929
0.26171541213989258 0.27821770310401917 0.1221034899353981
0.32661676406860352 0.28076842427253723 0.12465685606002808
0.39069932699203491 0.28295066952705383 0.127412348985672
0.4536994993686676 0.28538402915000916 0.13055329024791718
0.51594537496566772 0.28890147805213928 0.13455827534198761
0.57764822244644165 0.29304838180541992 0.13908328115940094
0.6388363242149353 0.29740792512893677 0.14345970749855042
0.6996694803237915 0.30188214778900146 0.14735403656959534
0.76040685176849365 0.30608785152435303 0.15047746896743774
0.82092761993408203 0.3099709153175354 0.15224014222621918
0.88120794296264648 0.31319388747215271 0.15257969498634338
0.13485193252563477 0.33735254406929016 0.12223407626152039
0.20234407484531403 0.34055009484291077 0.12564396858215332
0.2685050368309021 0.34331682324409485 0.12829446792602539
0.33328965306282043 0.34570953249931335 0.13064894080162048
0.39699989557266235 0.34782642126083374 0.13306951522827148
0.45975086092948914 0.35034647583961487 0.13601131737232208
0.52186042070388794 0.35395216941833496 0.13990932703018188
0.58336198329925537 0.35828444361686707 0.1441332995891571
0.64443600177764893 0.36278477311134338 0.14842376112937927
0.70513421297073364 0.36731112003326416 0.15208083391189575
0.76550114154815674 0.37172743678092957 0.15492717921733856
0.82606756687164307 0.37578046321868896 0.15664613246917725
0.88634943962097168 0.37922182679176331 0.15685169398784637
0.14243930578231812 0.40336275100708008 0.12927556037902832
0.20972414314746857 0.4064585268497467 0.13257849216461182
0.27557277679443359 0.40932652354240417 0.13521304726600647
0.34023073315620422 0.41172018647193909 0.1373634934425354
0.40361124277114868 0.41400977969169617 0.13967265188694
0.4661591649055481 0.41678804159164429 0.14250627160072327
0.52791982889175415 0.42034319043159485 0.14597074687480927
0.58920073509216309 0.42453876137733459 0.14974917471408844
0.64988988637924194 0.42891016602516174 0.15353575348854065
0.7104717493057251 0.43343913555145264 0.1568136066198349
0.77077734470367432 0.43785876035690308 0.15926587581634521
0.83103018999099731 0.44185751676559448 0.16067056357860565
0.8915368914604187 0.44552314281463623 0.16068923473358154
0.15020053088665009 0.47015172243118286 0.13666670024394989
0.21722692251205444 0.47336035966873169 0.14009468257427216
0.28280428051948547 0.47602429986000061 0.14268490672111511
0.34716856479644775 0.47876274585723877 0.14480404555797577
0.41041696071624756 0.48130118846893311 0.14707949757575989
0.47269532084465027 0.48427015542984009 0.14956019818782806
0.53413867950439453 0.48764115571975708 0.15254133939743042
0.59520560503005981 0.49170628190040588 0.15576919913291931
0.65576159954071045 0.49596989154815674 0.15889804065227509
0.71587508916854858 0.50039798021316528 0.16168224811553955
0.77617436647415161 0.50455832481384277 0.1636127382516861
0.83625876903533936 0.50870603322982788 0.16468098759651184
0.89655083417892456 0.51256126165390015 0.16443829238414764
0.15786297619342804 0.53766375780105591 0.14434178173542023
0.22472989559173584 0.54087400436401367 0.14780710637569427
0.29021236300468445 0.54364103078842163 0.150445356965065
0.35424774885177612 0.54656684398651123 0.15259522199630737
0.41726487874984741 0.54929304122924805 0.15467925369739532
0.4792487621307373 0.55242955684661865 0.15681877732276917
0.54056227207183838 0.55582082271575928 0.15923918783664703
0.60136973857879639 0.55965042114257812 0.16184549033641815
0.66156989336013794 0.56370538473129272 0.16426935791969299
0.72176235914230347 0.56804561614990234 0.16639386117458344
0.78158265352249146 0.57210659980773926 0.16788628697395325
0.84179675579071045 0.57619220018386841 0.16837850213050842
0.90191179513931274 0.58008033037185669 0.16795319318771362
0.16512654721736908 0.60563158988952637 0.1518179178237915
0.2320350855588913 0.60879248380661011 0.15551912784576416
0.29736524820327759 0.61191797256469727 0.15828749537467957
0.36128240823745728 0.61484885215759277 0.16030491888523102
0.42402690649032593 0.61788249015808105 0.16209763288497925
0.48592951893806458 0.62104654312133789 0.16392482817173004
0.54701560735702515 0.62450724840164185 0.16571509838104248
0.60753941535949707 0.62819278240203857 0.16774789988994598
0.66778981685638428 0.63222247362136841 0.16956593096256256
0.72749745845794678 0.63625240325927734 0.17097413539886475
0.78755372762680054 0.64035451412200928 0.17183001339435577
0.84731197357177734 0.64431929588317871 0.17194747924804688
0.90760934352874756 0.64807337522506714 0.17091812193393707
0.17199704051017761 0.67407160997390747 0.15898950397968292
0.23879685997962952 0.67740291357040405 0.16283288598060608
0.30400800704956055 0.68052440881729126 0.16550128161907196
0.36792677640914917 0.68366575241088867 0.16750606894493103
0.43056389689445496 0.68690407276153564 0.16906404495239258
0.49222725629806519 0.6901746392250061 0.17044641077518463
0.55321305990219116 0.69369429349899292 0.17184878885746002
0.61376512050628662 0.69740140438079834 0.17316639423370361
0.67359709739685059 0.70124655961990356 0.17435620725154877
0.73360437154769897 0.70515561103820801 0.1751381903886795
0.7932426929473877 0.70907366275787354 0.1754678338766098
0.85325914621353149 0.71300047636032104 0.17491979897022247
0.91304755210876465 0.71668088436126709 0.17339842021465302
0.17801855504512787 0.74282568693161011 0.16538666188716888
0.24492943286895752 0.74626821279525757 0.16936966776847839
0.31014233827590942 0.74964487552642822 0.17201891541481018
0.37388759851455688 0.75292915105819702 0.17383857071399689
0.4364963173866272 0.75629955530166626 0.17517474293708801
0.49817043542861938 0.75964605808258057 0.17623578011989594
0.55923736095428467 0.76323020458221436 0.17714682221412659
0.61951565742492676 0.76687115430831909 0.17791351675987244
0.67961800098419189 0.77064043283462524 0.17850083112716675
0.73922240734100342 0.77451378107070923 0.178707554936409
0.79924947023391724 0.77834624052047729 0.17832541465759277
0.85888117551803589 0.78210538625717163 0.17718523740768433
0.91884809732437134 0.78567743301391602 0.17542323470115662
0.1830279678106308 0.81188821792602539 0.17060402035713196
0.24999542534351349 0.81551039218902588 0.17470212280750275
0.31525519490242004 0.81903195381164551 0.17731857299804688
0.3790646493434906 0.82251459360122681 0.17893701791763306
0.44171011447906494 0.82595479488372803 0.18009461462497711
0.50340366363525391 0.82954186201095581 0.18090552091598511
0.56452816724777222 0.83307814598083496 0.18146322667598724
0.62494975328445435 0.83675158023834229 0.18175378441810608
0.68492496013641357 0.84048295021057129 0.18182125687599182
0.74495041370391846 0.844227135181427 0.18139360845088959
0.80452638864517212 0.84793245792388916 0.18047630786895752
0.86430299282073975 0.85156792402267456 0.17911645770072937
0.92397969961166382 0.85504889488220215 0.17641837894916534
0.18641023337841034 0.88125467300415039 0.17398528754711151
0.25373026728630066 0.88505178689956665 0.1780620664358139
0.31907486915588379 0.8887367844581604 0.18084786832332611
0.38304334878921509 0.89232361316680908 0.18250831961631775
0.44582927227020264 0.89590781927108765 0.18370369076728821
0.50764703750610352 0.89949101209640503 0.18412984907627106
0.56899428367614746 0.90317201614379883 0.18430176377296448
0.62956321239471436 0.90681082010269165 0.18433715403079987
0.68973797559738159 0.91050422191619873 0.18405905365943909
0.74970555305480957 0.91420525312423706 0.183244988322258
0.80941081047058105 0.91784811019897461 0.18172532320022583
0.86909788846969604 0.92129123210906982 0.17988310754299164
0.92857950925827026 0.92466068267822266 0.17682461440563202
0.10801675915718079 0.078274913132190704 0.15982052683830261
0.17631269991397858 0.082259476184844971 0.1643817126750946
0.24292737245559692 0.085420437157154083 0.16813071072101593
0.3084321916103363 0.088312827050685883 0.17152372002601624
0.37272104620933533 0.091006547212600708 0.17496900260448456
0.43620944023132324 0.09363517165184021 0.17879973351955414
0.49886766076087952 0.096549347043037415 0.18281814455986023
0.56088173389434814 0.099693581461906433 0.1870267391204834
0.62235289812088013 0.10304921120405197 0.19141386449337006
0.68359768390655518 0.10643192380666733 0.19533230364322662
0.74457663297653198 0.10973259061574936 0.19861014187335968
0.80513715744018555 0.11284638941287994 0.20067134499549866
0.86544489860534668 0.11468005925416946 0.20103228092193604
0.11510945111513138 0.14248782396316528 0.1670084148645401
0.18295662105083466 0.14657022058963776 0.17096957564353943
0.24995796382427216 0.14990173280239105 0.17425848543643951
0.31527256965637207 0.15292221307754517 0.17735640704631805
0.37958744168281555 0.15566644072532654 0.18047457933425903
0.44294586777687073 0.15834283828735352 0.18425650894641876
0.50544565916061401 0.16146177053451538 0.18852986395359039
0.5673099160194397 0.16477480530738831 0.19272854924201965
0.6287650465965271 0.16842427849769592 0.19729070365428925
0.6897997260093689 0.17212925851345062 0.20144134759902954
0.75052803754806519 0.17593228816986084 0.20474621653556824
0.81118237972259521 0.17896834015846252 0.20709607005119324
0.87171179056167603 0.18161776661872864 0.20753294229507446
0.12164176255464554 0.206475630402565 0.17333103716373444
0.18955112993717194 0.21052175760269165 0.17688043415546417
0.25631079077720642 0.21416972577571869 0.17967240512371063
0.32176828384399414 0.21712286770343781 0.18242484331130981
0.38587909936904907 0.21978682279586792 0.18545348942279816
0.44911614060401917 0.2226434201002121 0.18902517855167389
0.5114096999168396 0.2257838249206543 0.19344457983970642
0.57317107915878296 0.22934935986995697 0.19760029017925262
0.6343877911567688 0.23324523866176605 0.20218613743782043
0.69529026746749878 0.23722697794437408 0.20661540329456329
0.75608283281326294 0.24109175801277161 0.21005816757678986
0.81656146049499512 0.24466048181056976 0.21238532662391663
0.87703824043273926 0.24770309031009674 0.21326662600040436
0.12870579957962036 0.27131521701812744 0.17957155406475067
0.19640274345874786 0.27510464191436768 0.18270143866539001
0.26295334100723267 0.27863135933876038 0.18515978753566742
0.32818281650543213 0.28157469630241394 0.18757891654968262
0.39208611845970154 0.28423073887825012 0.19035567343235016
0.45499905943870544 0.28691932559013367 0.19377285242080688
0.51719671487808228 0.2901531457901001 0.1981988251209259
0.57875293493270874 0.29397642612457275 0.20229670405387878
0.63986450433731079 0.29808685183525085 0.20701952278614044
0.70051860809326172 0.30227309465408325 0.21131744980812073
0.76110529899597168 0.30640894174575806 0.21465244889259338
0.82174968719482422 0.31026706099510193 0.21693459153175354
0.88212662935256958 0.31351456046104431 0.21790520846843719
0.13662008941173553 0.33723023533821106 0.18616768717765808
0.20388178527355194 0.34063506126403809 0.18895423412322998
0.26992160081863403 0.34402939677238464 0.19113144278526306
0.33467268943786621 0.34678885340690613 0.19331887364387512
0.39840400218963623 0.34926754236221313 0.19596908986568451
0.46108242869377136 0.35193037986755371 0.19919782876968384
0.52299588918685913 0.35528856515884399 0.20324739813804626
0.58428299427032471 0.35918757319450378 0.20780786871910095
0.64517694711685181 0.36341407895088196 0.21189646422863007
0.70575147867202759 0.36754760146141052 0.21604341268539429
0.76604115962982178 0.37203198671340942 0.21922300755977631
0.82664793729782104 0.3758942186832428 0.22131937742233276
0.88718724250793457 0.37953281402587891 0.22218342125415802
0.14469656348228455 0.40379855036735535 0.19312289357185364
0.21163797378540039 0.40709742903709412 0.19596336781978607
0.27720403671264648 0.41011705994606018 0.19809916615486145
0.34168410301208496 0.41286993026733398 0.20017655193805695
0.40501800179481506 0.41538259387016296 0.20254197716712952
0.46736004948616028 0.41809943318367004 0.20556335151195526
0.52907693386077881 0.4214642345905304 0.20923185348510742
0.59016001224517822 0.42530342936515808 0.21324871480464935
0.65064430236816406 0.42947638034820557 0.21725326776504517
0.71097344160079956 0.43376511335372925 0.22084005177021027
0.77129447460174561 0.43806296586990356 0.22375872731208801
0.83152788877487183 0.44202187657356262 0.22561392188072205
0.89215165376663208 0.44584673643112183 0.22627845406532288
0.15283702313899994 0.47103327512741089 0.20073398947715759
0.21953533589839935 0.4740520715713501 0.2036156952381134
0.28483480215072632 0.47714844346046448 0.20581381022930145
0.34895241260528564 0.47980561852455139 0.20781965553760529
0.41197898983955383 0.48244217038154602 0.21007981896400452
0.47402939200401306 0.48532459139823914 0.21272782981395721
0.53539049625396729 0.48872235417366028 0.21591541171073914
0.59601175785064697 0.49239429831504822 0.21931944787502289
0.65651816129684448 0.49646952748298645 0.2227364182472229
0.71652889251708984 0.50068205595016479 0.22585940361022949
0.776558518409729 0.50473564863204956 0.22833172976970673
0.83668637275695801 0.50886279344558716 0.22994036972522736
0.89721894264221191 0.51284462213516235 0.23016907274723053
0.16092576086521149 0.53872215747833252 0.20861108601093292
0.22751088440418243 0.54172301292419434 0.21155568957328796
0.29246377944946289 0.54480326175689697 0.21395500004291534
0.3562895655632019 0.54752570390701294 0.21597221493721008
0.41899091005325317 0.55044543743133545 0.21796829998493195
0.48086234927177429 0.55335956811904907 0.22028179466724396
0.54187154769897461 0.5566936731338501 0.22282533347606659
0.60242950916290283 0.56036293506622314 0.22566775977611542
0.66249710321426392 0.56430548429489136 0.22840404510498047
0.72238576412200928 0.56833076477050781 0.23096576333045959
0.78218358755111694 0.57239633798599243 0.23295101523399353
0.842246413230896 0.5764961838722229 0.23398366570472717
0.90271896123886108 0.58044224977493286 0.23405757546424866
0.16861133277416229 0.60681718587875366 0.21643398702144623
0.23500548303127289 0.61002987623214722 0.21972569823265076
0.29994532465934753 0.61294472217559814 0.22210654616355896
0.36357122659683228 0.61596381664276123 0.22403663396835327
0.42603135108947754 0.61889523267745972 0.22575947642326355
0.48764461278915405 0.62199413776397705 0.22766923904418945
0.54853630065917969 0.62532585859298706 0.22977155447006226
0.60885787010192871 0.62893515825271606 0.23187693953514099
0.66886502504348755 0.63273888826370239 0.23401899635791779
0.72849446535110474 0.63674426078796387 0.23592936992645264
0.7883145809173584 0.64073455333709717 0.2373146116733551
0.84814178943634033 0.64472824335098267 0.23797193169593811
0.90845036506652832 0.64859861135482788 0.23738519847393036
0.17581020295619965 0.67534917593002319 0.22388260066509247
0.24220182001590729 0.67857378721237183 0.22737947106361389
0.30709561705589294 0.68174201250076294 0.22980788350105286
0.37051528692245483 0.68480533361434937 0.23162244260311127
0.43286851048469543 0.68787908554077148 0.233175128698349
0.49425145983695984 0.69108843803405762 0.23467676341533661
0.55501329898834229 0.69455635547637939 0.23618035018444061
0.61524355411529541 0.69811791181564331 0.2377200573682785
0.67525041103363037 0.70190966129302979 0.2392428070306778
0.73480480909347534 0.70581209659576416 0.24048840999603271
0.79455018043518066 0.70973104238510132 0.24115097522735596
0.85440540313720703 0.7135930061340332 0.24121437966823578
0.91456097364425659 0.71737539768218994 0.24029898643493652
0.18220265209674835 0.74420136213302612 0.23062610626220703
0.2487049400806427 0.74762922525405884 0.23423902690410614
0.31352150440216064 0.7508469820022583 0.23680983483791351
0.37697076797485352 0.75406855344772339 0.23846080899238586
0.43917015194892883 0.7573736310005188 0.23972724378108978
0.50054085254669189 0.76064401865005493 0.2409086674451828
0.56124913692474365 0.76413238048553467 0.2419918030500412
0.62164306640625 0.76772123575210571 0.24296535551548004
0.68128460645675659 0.77144593000411987 0.2438523918390274
0.7412143349647522 0.7752375602722168 0.2444760799407959
0.80073624849319458 0.77909785509109497 0.24456320703029633
0.86059659719467163 0.78285199403762817 0.24407018721103668
0.9205014705657959 0.78651756048202515 0.24257531762123108
0.18738067150115967 0.8134041428565979 0.23600883781909943
0.25405776500701904 0.81693291664123535 0.23990203440189362
0.31892156600952148 0.82036334276199341 0.24241167306900024
0.38245317339897156 0.82374715805053711 0.24408109486103058
0.44477346539497375 0.82714289426803589 0.24523814022541046
0.50623750686645508 0.83054149150848389 0.24612224102020264
0.56703478097915649 0.83405762910842896 0.24677243828773499
0.62723237276077271 0.83762496709823608 0.2473675012588501
0.68730741739273071 0.841327965259552 0.24767982959747314
0.746928870677948 0.84506940841674805 0.24770939350128174
0.80681520700454712 0.84880447387695312 0.24731366336345673
0.86628228425979614 0.85247009992599487 0.24619249999523163
0.92620176076889038 0.85604584217071533 0.24428756535053253
0.19109490513801575 0.8828919529914856 0.23974043130874634
0.25804546475410461 0.88656258583068848 0.24390426278114319
0.32326069474220276 0.89012879133224487 0.24650904536247253
0.38685601949691772 0.89371901750564575 0.24822881817817688
0.44945192337036133 0.89717209339141846 0.24930939078330994
0.51105248928070068 0.90068215131759644 0.25000926852226257
0.57197260856628418 0.90423327684402466 0.25049695372581482
0.63234275579452515 0.90786349773406982 0.25075870752334595
0.69245845079421997 0.91148960590362549 0.25055646896362305
0.75232678651809692 0.91516083478927612 0.25006154179573059
0.81207263469696045 0.91879904270172119 0.2491278201341629
0.87166678905487061 0.92238026857376099 0.24741765856742859
0.93137079477310181 0.92577642202377319 0.24534396827220917
0.10855022072792053 0.077032409608364105 0.22292496263980865
0.17688250541687012 0.081517159938812256 0.22732357680797577
0.2439626157283783 0.085399433970451355 0.23098686337471008
0.30958747863769531 0.088765375316143036 0.23438158631324768
0.37418320775032043 0.091860063374042511 0.23793129622936249
0.43761950731277466 0.094760239124298096 0.2417130321264267
0.50030851364135742 0.097656294703483582 0.24575690925121307
0.56232309341430664 0.1006634309887886 0.25009462237358093
0.62373429536819458 0.10380572080612183 0.25434038043022156
0.68472206592559814 0.1070314422249794 0.25818550586700439
0.74551504850387573 0.10997242480516434 0.26138186454772949
0.80631566047668457 0.11288392543792725 0.26359045505523682
0.86647617816925049 0.11488970369100571 0.2642190158367157
0.11518994718790054 0.14106844365596771 0.22982312738895416
0.18354569375514984 0.14566425979137421 0.23354074358940125
0.25047266483306885 0.14991204440593719 0.23666003346443176
0.31637024879455566 0.15359842777252197 0.23968195915222168
0.38075393438339233 0.15660147368907928 0.24302086234092712
0.44402378797531128 0.15951703488826752 0.24677479267120361
0.50655388832092285 0.1624055802822113 0.25102245807647705
0.56832104921340942 0.16568516194820404 0.25532287359237671
0.62961989641189575 0.1690153181552887 0.25992509722709656
0.69063663482666016 0.17238982021808624 0.26400959491729736
0.75129157304763794 0.17586354911327362 0.26738545298576355
0.81177639961242676 0.17882330715656281 0.26981133222579956
0.87252616882324219 0.18151061236858368 0.27087876200675964
0.12162581831216812 0.20517583191394806 0.23599827289581299
0.19002225995063782 0.20992116630077362 0.23913931846618652
0.25692960619926453 0.21428464353084564 0.24172568321228027
0.32259103655815125 0.21796999871730804 0.24438638985157013
0.3868958055973053 0.22103248536586761 0.24750562012195587
0.45003360509872437 0.22384940087795258 0.25131982564926147
0.51234155893325806 0.22693602740764618 0.25565269589424133
0.57398474216461182 0.23024669289588928 0.26011604070663452
0.63505178689956665 0.23378847539424896 0.26476511359214783
0.69579720497131348 0.23730814456939697 0.26892992854118347
0.7565189003944397 0.24094477295875549 0.27250310778617859
0.81709778308868408 0.24438078701496124 0.27502027153968811
0.87752729654312134 0.24741098284721375 0.27628901600837708
0.12934815883636475 0.27073279023170471 0.2420613169670105
0.19700746238231659 0.27505248785018921 0.24472007155418396
0.26355230808258057 0.27922454476356506 0.24682262539863586
0.3288922905921936 0.28279793262481689 0.24919770658016205
0.39286625385284424 0.2857082188129425 0.25224778056144714
0.45592328906059265 0.28852719068527222 0.25595355033874512
0.51797211170196533 0.29153746366500854 0.26020139455795288
0.57938075065612793 0.29490840435028076 0.2647952139377594
0.64040982723236084 0.29861122369766235 0.26945656538009644
0.70072859525680542 0.30249962210655212 0.2736583948135376
0.76131254434585571 0.30624595284461975 0.2772253155708313
0.82204931974411011 0.309764564037323 0.2797485888004303
0.88256889581680298 0.31322327256202698 0.2810823917388916
0.13759712874889374 0.33724322915077209 0.24852780997753143
0.20477356016635895 0.34124159812927246 0.25086641311645508
0.27083510160446167 0.34491753578186035 0.2527434229850769
0.33572709560394287 0.34823596477508545 0.25483357906341553
0.39925426244735718 0.35100206732749939 0.25761669874191284
0.46189543604850769 0.35370036959648132 0.26131510734558105
0.52372843027114868 0.35671541094779968 0.26545119285583496
0.58482968807220459 0.36017060279846191 0.26990506052970886
0.64543461799621582 0.36389443278312683 0.27436316013336182
