assets/lut/creative futuristicbleak 02.cube
# Created by: G'MIC (https://gmic.eu)
TITLE "futuristicbleak_2"
# LUT size
LUT_3D_SIZE 5
# Data domain
DOMAIN_MIN 0.0 0.0 0.0
DOMAIN_MAX 1.0 1.0 1.0
# LUT data points
0.010012084618210793 0.086609348654747009 0.10988284647464752
0.11317051947116852 0.12424838542938232 0.14893637597560883
0.26263278722763062 0.19438141584396362 0.18122746050357819
0.44548618793487549 0.2880728542804718 0.20488123595714569
0.70238000154495239 0.38484233617782593 0.20263898372650146
0.073661834001541138 0.23795498907566071 0.20128746330738068
0.1788007915019989 0.26112821698188782 0.19943250715732574
0.32524067163467407 0.30854755640029907 0.19300352036952972
0.50889205932617188 0.38128834962844849 0.20005649328231812
0.72399425506591797 0.46907511353492737 0.25276926159858704
0.29077771306037903 0.44350001215934753 0.34463098645210266
0.36712491512298584 0.46107620000839233 0.31644442677497864
0.48248252272605896 0.4900396466255188 0.33165726065635681
0.64640408754348755 0.53962236642837524 0.32743912935256958
0.81720614433288574 0.59571927785873413 0.31426253914833069
0.57200604677200317 0.66170275211334229 0.4531702995300293
0.62524223327636719 0.66810953617095947 0.4414207935333252
0.70592314004898071 0.68250745534896851 0.44303923845291138
0.80912309885025024 0.70670914649963379 0.4696401059627533
0.91874438524246216 0.73787492513656616 0.46248272061347961
0.79661720991134644 0.84326374530792236 0.55164253711700439
0.82686543464660645 0.8441433310508728 0.54875439405441284
0.87576782703399658 0.84158337116241455 0.53923743963241577
0.94803255796432495 0.84935289621353149 0.54538905620574951
0.99582022428512573 0.86281049251556396 0.57066792249679565
0.00051443063421174884 0.11086346209049225 0.13788384199142456
0.041689358651638031 0.15720005333423615 0.18184751272201538
0.18425329029560089 0.23820808529853821 0.25063630938529968
0.36758464574813843 0.32931658625602722 0.35030314326286316
0.62275195121765137 0.4228816032409668 0.40807867050170898
0.087335117161273956 0.24245934188365936 0.23127010464668274
0.15728162229061127 0.27119672298431396 0.2530619204044342
0.2868865430355072 0.31888547539710999 0.29928144812583923
0.46813803911209106 0.39699286222457886 0.35834398865699768
0.71784871816635132 0.47745183110237122 0.37486261129379272
0.29595348238945007 0.44611847400665283 0.3868158757686615
0.34879407286643982 0.4616791307926178 0.38346338272094727
0.46659258008003235 0.49159044027328491 0.37495452165603638
0.63924586772918701 0.54551321268081665 0.3765682578086853
0.8100166916847229 0.59804147481918335 0.37984141707420349
0.58300507068634033 0.66207724809646606 0.50294321775436401
0.61433511972427368 0.67156195640563965 0.48736685514450073
0.70050215721130371 0.68823683261871338 0.47948646545410156
0.80038654804229736 0.712116539478302 0.50229173898696899
0.9195551872253418 0.74100393056869507 0.49353870749473572
0.78288406133651733 0.84498435258865356 0.58680707216262817
0.8093687891960144 0.84583854675292969 0.58410847187042236
0.87212175130844116 0.84637308120727539 0.57181394100189209
0.93888813257217407 0.84756773710250854 0.57042920589447021
0.9929918646812439 0.86414670944213867 0.59556823968887329
0 0.15466806292533875 0.18557524681091309
0.012705843895673752 0.19435404241085052 0.22013105452060699
0.1406884640455246 0.26374778151512146 0.28797972202301025
0.33304354548454285 0.36215934157371521 0.38993725180625916
0.54822325706481934 0.47072809934616089 0.49132436513900757
0.067067153751850128 0.27092540264129639 0.26509502530097961
0.12037097662687302 0.29876574873924255 0.28985640406608582
0.24952583014965057 0.35081964731216431 0.34561929106712341
0.43077799677848816 0.43289139866828918 0.4167880117893219
0.64044481515884399 0.52360731363296509 0.51408791542053223
0.32512807846069336 0.4624372124671936 0.41605928540229797
0.36762005090713501 0.47343131899833679 0.42275688052177429
0.46281257271766663 0.50465130805969238 0.44597122073173523
0.61289805173873901 0.5585828423500061 0.48109075427055359
0.77529042959213257 0.61555498838424683 0.52930611371994019
0.60000455379486084 0.66988468170166016 0.56430792808532715
0.6296696662902832 0.6764223575592041 0.55911171436309814
0.69348454475402832 0.69261437654495239 0.54702985286712646
0.79040169715881348 0.72142136096954346 0.55644923448562622
0.92156410217285156 0.74747616052627563 0.53718239068984985
0.78397011756896973 0.83766251802444458 0.65350127220153809
0.80511260032653809 0.83667302131652832 0.64532351493835449
0.85847204923629761 0.84914207458496094 0.63411659002304077
0.93492358922958374 0.85845839977264404 0.62843149900436401
0.9923255443572998 0.86981946229934692 0.64375036954879761
0.00028076171292923391 0.20900009572505951 0.24663861095905304
0.0084826154634356499 0.24480971693992615 0.2778075635433197
0.065158873796463013 0.31172749400138855 0.34106060862541199
0.31784135103225708 0.39617747068405151 0.43037939071655273
0.54246944189071655 0.50566810369491577 0.553852379322052
0.065363042056560516 0.31272956728935242 0.31628856062889099
0.10412482172250748 0.33613699674606323 0.33733659982681274
0.21345454454421997 0.38951805233955383 0.38747107982635498
0.41568168997764587 0.46077734231948853 0.47120669484138489
0.61848467588424683 0.55523854494094849 0.57477623224258423
0.35211777687072754 0.48197644948959351 0.44728833436965942
0.38811114430427551 0.4979977011680603 0.46112862229347229
0.47133070230484009 0.53057456016540527 0.49170613288879395
0.60054910182952881 0.58019709587097168 0.54430085420608521
0.74333101511001587 0.64631646871566772 0.60685056447982788
0.62046557664871216 0.67867189645767212 0.59779316186904907
0.64793527126312256 0.68883150815963745 0.60518920421600342
0.69790631532669067 0.70074796676635742 0.60541719198226929
0.78741085529327393 0.73140650987625122 0.62791329622268677
0.88959217071533203 0.76257431507110596 0.64747124910354614
0.8032073974609375 0.84300744533538818 0.71770864725112915
0.82204556465148926 0.84652251005172729 0.71023690700531006
0.86148929595947266 0.85448408126831055 0.69572967290878296
0.92309314012527466 0.85983574390411377 0.69314777851104736
0.99134325981140137 0.87923705577850342 0.70710164308547974
0 0.27581572532653809 0.31288516521453857
0.0057536554522812366 0.30834206938743591 0.34513422846794128
0.068452231585979462 0.36667707562446594 0.40020063519477844
0.30401784181594849 0.44584453105926514 0.48575547337532043
0.55611491203308105 0.54743784666061401 0.60309141874313354
0.03958587720990181 0.35705259442329407 0.35848274827003479
0.083669774234294891 0.38036283850669861 0.38437739014625549
0.20570461452007294 0.43573343753814697 0.44495686888694763
0.39611554145812988 0.50516992807388306 0.52159583568572998
0.61762851476669312 0.58640372753143311 0.63142800331115723
0.35413059592247009 0.50951862335205078 0.4793069064617157
0.3946283757686615 0.53225362300872803 0.49910750985145569
0.48208677768707275 0.57444632053375244 0.53863215446472168
0.59467291831970215 0.61277735233306885 0.59211194515228271
0.73170572519302368 0.67015522718429565 0.68008875846862793
0.65014922618865967 0.69617223739624023 0.63363492488861084
0.66917085647583008 0.70251506567001343 0.64021939039230347
0.71311694383621216 0.72012591361999512 0.65816712379455566
0.78772157430648804 0.74703633785247803 0.68484210968017578
0.87460297346115112 0.77610522508621216 0.7197766900062561
0.82599234580993652 0.84923797845840454 0.75512713193893433
0.83438003063201904 0.84617942571640015 0.74712926149368286
0.87546050548553467 0.85777956247329712 0.7527472972869873
0.93608516454696655 0.86672723293304443 0.74624884128570557
0.98529917001724243 0.89077609777450562 0.79212206602096558
