assets/lut/creative tealorange 03.cube
# Created by: G'MIC (https://gmic.eu)
TITLE "tealorange_3"
# LUT size
LUT_3D_SIZE 13
# Data domain
DOMAIN_MIN 0.0 0.0 0.0
DOMAIN_MAX 1.0 1.0 1.0
# LUT data points
0.04991580918431282 0.04431668296456337 0.058391213417053223
0.090068519115447998 0.049021940678358078 0.040055397897958755
0.12070134282112122 0.062304180115461349 0.021544482558965683
0.15383529663085938 0.086564697325229645 0.013305814005434513
0.19138398766517639 0.11251308768987656 0.010324739851057529
0.23321855068206787 0.1390935480594635 0.0094066839665174484
0.27974861860275269 0.17575421929359436 0.013855069875717163
0.32934772968292236 0.21411424875259399 0.022676639258861542
0.38759598135948181 0.25781655311584473 0.037521645426750183
0.4556785523891449 0.30301088094711304 0.053199693560600281
0.5301167368888855 0.35062214732170105 0.070115663111209869
0.61768442392349243 0.40281024575233459 0.099936224520206451
0.69971060752868652 0.4504430890083313 0.13006830215454102
0.015606570057570934 0.10099510103464127 0.051993861794471741
0.081409156322479248 0.08947976678609848 0.024164894595742226
0.12750262022018433 0.099524401128292084 0.016935819759964943
0.16246820986270905 0.12057647854089737 0.018795192241668701
0.19725847244262695 0.14441812038421631 0.020917795598506927
0.24094830453395844 0.17044995725154877 0.025687573477625847
0.2834877073764801 0.20171496272087097 0.035792555660009384
0.33768317103385925 0.23930047452449799 0.049816086888313293
0.4036564826965332 0.28147906064987183 0.064952895045280457
0.47116056084632874 0.32493537664413452 0.07975342869758606
0.53941255807876587 0.37091937661170959 0.094024479389190674
0.62492471933364868 0.42009025812149048 0.12284631282091141
0.70456951856613159 0.46372848749160767 0.15224248170852661
0.0087278177961707115 0.16208080947399139 0.071761518716812134
0.079588152468204498 0.14482732117176056 0.037119459360837936
0.14646172523498535 0.14258521795272827 0.031104741618037224
0.18856161832809448 0.16369867324829102 0.042402800172567368
0.22504356503486633 0.18843512237071991 0.049404099583625793
0.26252853870391846 0.21427343785762787 0.057515792548656464
0.30725577473640442 0.24686308205127716 0.074156560003757477
0.35591024160385132 0.27804014086723328 0.08783365786075592
0.42018482089042664 0.31785175204277039 0.10626497119665146
0.49412292242050171 0.36386430263519287 0.12836630642414093
0.56503605842590332 0.40828964114189148 0.14360666275024414
0.64873224496841431 0.45359772443771362 0.16630589962005615
0.72345691919326782 0.49307182431221008 0.18878401815891266
0.0032631070353090763 0.23588889837265015 0.092599190771579742
0.044296637177467346 0.22417598962783813 0.067936643958091736
0.15492062270641327 0.2134566456079483 0.047007199376821518
0.22472725808620453 0.22314848005771637 0.073630571365356445
0.26858645677566528 0.24348834156990051 0.087724901735782623
0.30862987041473389 0.27078372240066528 0.099714808166027069
0.35091319680213928 0.30016735196113586 0.11596072465181351
0.39988145232200623 0.33079949021339417 0.13193570077419281
0.46231549978256226 0.36938831210136414 0.15527267754077911
0.52803933620452881 0.41116225719451904 0.18123650550842285
0.60113614797592163 0.45311248302459717 0.19959433376789093
0.68396866321563721 0.49743193387985229 0.21858134865760803
0.75416356325149536 0.5357324481010437 0.24023698270320892
0.0026034186594188213 0.32150194048881531 0.12299714982509613
0.025745930150151253 0.31077468395233154 0.10036924481391907
0.15409299731254578 0.2949988842010498 0.057304996997117996
0.26071906089782715 0.2971440851688385 0.10703262686729431
0.31532025337219238 0.31352460384368896 0.12962663173675537
0.35946175456047058 0.33022356033325195 0.13955573737621307
0.40687286853790283 0.36006483435630798 0.1610780656337738
0.4578515887260437 0.39141792058944702 0.18109576404094696
0.51883906126022339 0.42585647106170654 0.20038394629955292
0.58106154203414917 0.46253207325935364 0.22213707864284515
0.64694672822952271 0.4996497631072998 0.23870109021663666
0.71878105401992798 0.53802764415740967 0.25774076581001282
0.78468775749206543 0.57516241073608398 0.28500762581825256
0.0069863265380263329 0.41270536184310913 0.15821845829486847
0.014676696620881557 0.40220087766647339 0.14216107130050659
0.11720908433198929 0.38797104358673096 0.077835544943809509
0.29640838503837585 0.38021016120910645 0.10433286428451538
0.37035936117172241 0.39257687330245972 0.17077717185020447
0.42297613620758057 0.41003721952438354 0.19143795967102051
0.46950593590736389 0.43246963620185852 0.2141447514295578
0.51892775297164917 0.45610412955284119 0.23328457772731781
0.58191722631454468 0.48630642890930176 0.24904745817184448
0.64027643203735352 0.51606380939483643 0.26442965865135193
0.70268934965133667 0.55073481798171997 0.28126364946365356
0.76323992013931274 0.58328062295913696 0.29847675561904907
0.82257616519927979 0.6156768798828125 0.32248428463935852
0.028677666559815407 0.51392054557800293 0.18923799693584442
0.027475049719214439 0.50491917133331299 0.18279106914997101
0.098684884607791901 0.49015992879867554 0.12070858478546143
0.31416070461273193 0.47557517886161804 0.089405998587608337
0.42902418971061707 0.47623279690742493 0.19394989311695099
0.49343997240066528 0.49731829762458801 0.24667410552501678
0.5453072190284729 0.51636165380477905 0.26893708109855652
0.59737437963485718 0.52885168790817261 0.28434094786643982
0.65272372961044312 0.54812824726104736 0.29852816462516785
0.70783823728561401 0.57617193460464478 0.31616553664207458
0.76331204175949097 0.60351872444152832 0.32706746459007263
0.82022953033447266 0.63260209560394287 0.33933970332145691
0.87090742588043213 0.66073340177536011 0.35571593046188354
0.10995081067085266 0.62063390016555786 0.22623765468597412
0.11564284563064575 0.61735516786575317 0.22336709499359131
0.12297189980745316 0.60649722814559937 0.19568927586078644
0.31880038976669312 0.59540051221847534 0.10785993933677673
0.48804011940956116 0.58295577764511108 0.18138308823108673
0.57243484258651733 0.58858340978622437 0.29323077201843262
0.62570923566818237 0.59804528951644897 0.32146903872489929
0.67858260869979858 0.60931050777435303 0.33577659726142883
0.72317355871200562 0.61877244710922241 0.3477458655834198
0.77312839031219482 0.6384003758430481 0.36418589949607849
0.82305967807769775 0.66040289402008057 0.37252375483512878
0.87346714735031128 0.68330574035644531 0.38141161203384399
0.91761767864227295 0.70582985877990723 0.39024114608764648
0.23791597783565521 0.72862446308135986 0.2688392698764801
0.24358361959457397 0.72681701183319092 0.26554608345031738
0.2394840270280838 0.7151908278465271 0.24977520108222961
0.32411426305770874 0.70645463466644287 0.18386724591255188
0.49900886416435242 0.68782055377960205 0.15888325870037079
0.61975312232971191 0.67688411474227905 0.2811562716960907
0.68826800584793091 0.67682021856307983 0.35295343399047852
0.74065613746643066 0.68414759635925293 0.3767428994178772
0.78816026449203491 0.69391196966171265 0.39391052722930908
0.83645886182785034 0.707328200340271 0.4068504273891449
0.88191580772399902 0.72153300046920776 0.4168948233127594
0.92695939540863037 0.73728150129318237 0.42485317587852478
0.96060526371002197 0.75030779838562012 0.42161679267883301
0.31238055229187012 0.81395548582077026 0.29944810271263123
0.30896985530853271 0.80571305751800537 0.2866729199886322
0.3106876015663147 0.80198168754577637 0.28271773457527161
0.33991256356239319 0.79805642366409302 0.25039005279541016
0.4740196168422699 0.78709214925765991 0.16560423374176025
0.64150190353393555 0.76606380939483643 0.243599534034729
0.73541909456253052 0.75498771667480469 0.35987195372581482
0.78985679149627686 0.75412178039550781 0.41354042291641235
0.83744186162948608 0.75868421792984009 0.42756593227386475
0.88363379240036011 0.76711148023605347 0.4394834041595459
0.92812466621398926 0.77441579103469849 0.44646793603897095
0.96859896183013916 0.78368234634399414 0.45065122842788696
0.98527246713638306 0.79179763793945312 0.44769501686096191
0.36814618110656738 0.88651400804519653 0.30737662315368652
0.36648440361022949 0.88246810436248779 0.30097675323486328
0.36699679493904114 0.88020676374435425 0.30616486072540283
0.37122234702110291 0.87696129083633423 0.30602201819419861
0.45396614074707031 0.86951029300689697 0.221821129322052
0.63377398252487183 0.84854692220687866 0.19257257878780365
0.74886566400527954 0.82891488075256348 0.31541538238525391
0.83172100782394409 0.81963860988616943 0.42252370715141296
0.88707178831100464 0.81900686025619507 0.45635998249053955
0.9258083701133728 0.82284814119338989 0.4670758843421936
0.96028107404708862 0.82420438528060913 0.46972444653511047
0.98829400539398193 0.82754510641098022 0.46914321184158325
0.99770474433898926 0.83295261859893799 0.47012805938720703
0.40631163120269775 0.93982940912246704 0.31047084927558899
0.40461868047714233 0.93876636028289795 0.31084242463111877
0.40205487608909607 0.93436485528945923 0.31622150540351868
0.40527111291885376 0.9311177134513855 0.30823129415512085
0.43854457139968872 0.93500089645385742 0.25631988048553467
0.58903861045837402 0.92454254627227783 0.14433932304382324
0.74016350507736206 0.90098673105239868 0.22838915884494781
0.85338997840881348 0.88075780868530273 0.38670438528060913
0.91955304145812988 0.87159693241119385 0.46450483798980713
0.95427942276000977 0.86941498517990112 0.48161596059799194
0.97911560535430908 0.86917388439178467 0.48346599936485291
0.9927484393119812 0.86826533079147339 0.482168048620224
0.99857926368713379 0.86798673868179321 0.48249128460884094
0.42326569557189941 0.96903824806213379 0.32793590426445007
0.42111504077911377 0.96672630310058594 0.32694995403289795
0.4225115180015564 0.96821767091751099 0.3289496898651123
0.42600056529045105 0.96902793645858765 0.32237261533737183
0.43556183576583862 0.9670524001121521 0.2919982373714447
0.52334821224212646 0.96626651287078857 0.17319867014884949
0.71264785528182983 0.94946646690368652 0.14719532430171967
0.8477013111114502 0.93153148889541626 0.31459704041481018
0.93492448329925537 0.91348063945770264 0.44942215085029602
0.97680079936981201 0.90682405233383179 0.48875778913497925
0.9939115047454834 0.90529465675354004 0.49204960465431213
0.9967426061630249 0.90130579471588135 0.49091780185699463
0.99980145692825317 0.90011662244796753 0.49002823233604431
0.03250638023018837 0.054461177438497543 0.096931830048561096
0.081548683345317841 0.047120515257120132 0.069561749696731567
0.12330520898103714 0.059001337736845016 0.041218418627977371
0.15285718441009521 0.083215899765491486 0.031253635883331299
0.18960332870483398 0.10890296846628189 0.024612486362457275
0.23404940962791443 0.13559515774250031 0.022740637883543968
0.28752154111862183 0.16985584795475006 0.030357001349329948
0.34008592367172241 0.20519861578941345 0.036686498671770096
0.39573913812637329 0.25043362379074097 0.051015201956033707
0.46051070094108582 0.2985023558139801 0.068599581718444824
0.53404992818832397 0.34836134314537048 0.088931694626808167
0.62386530637741089 0.40074607729911804 0.12059007585048676
0.70559805631637573 0.4471936821937561 0.14840278029441833
0.017934491857886314 0.10189521312713623 0.080928266048431396
0.071635767817497253 0.089659072458744049 0.056384772062301636
0.12180203944444656 0.095437034964561462 0.043326284736394882
0.15666608512401581 0.11751875281333923 0.039491735398769379
0.19488127529621124 0.14209108054637909 0.037461701780557632
0.24333474040031433 0.16541612148284912 0.041544478386640549
0.2943631112575531 0.19710907340049744 0.051847867667675018
0.34736818075180054 0.23264630138874054 0.062977917492389679
0.40973994135856628 0.27574583888053894 0.079214133322238922
0.47566941380500793 0.32155224680900574 0.094018392264842987
0.547829270362854 0.36922568082809448 0.1139666810631752
0.63551580905914307 0.41911423206329346 0.1447511613368988
0.71226531267166138 0.46152839064598083 0.1712678074836731
0.0063477908261120319 0.16305056214332581 0.085593052208423615
0.0360550656914711 0.15488672256469727 0.056462664157152176
0.12698186933994293 0.14656186103820801 0.054423090070486069
0.17670010030269623 0.16509057581424713 0.067335940897464752
0.21835765242576599 0.18830186128616333 0.074547953903675079
0.26403984427452087 0.21722804009914398 0.084980785846710205
0.31094866991043091 0.24562306702136993 0.095639728009700775
0.36275151371955872 0.27356997132301331 0.10482874512672424
0.42594003677368164 0.31824180483818054 0.12459849566221237
0.49516075849533081 0.36003968119621277 0.13625761866569519
0.56887340545654297 0.40306022763252258 0.15459182858467102
0.65473699569702148 0.45149692893028259 0.18387706577777863
0.73243016004562378 0.49299120903015137 0.20765039324760437
0.0045996424742043018 0.24317356944084167 0.099202953279018402
0.019599076360464096 0.23596948385238647 0.073287680745124817
0.12492281198501587 0.2197238951921463 0.065915919840335846
0.21392008662223816 0.22434262931346893 0.10249169915914536
0.26075223088264465 0.24583612382411957 0.11601502448320389
0.30425134301185608 0.27286142110824585 0.12904798984527588
0.34686249494552612 0.30497089028358459 0.14572891592979431
0.40120136737823486 0.33673548698425293 0.16086061298847198
0.46175956726074219 0.37295359373092651 0.17667342722415924
0.52891081571578979 0.41143465042114258 0.19456155598163605
0.60139179229736328 0.4511924684047699 0.21373119950294495
0.68452620506286621 0.49521490931510925 0.23520956933498383
0.75988882780075073 0.53453785181045532 0.25399500131607056
0.002843325724825263 0.33199891448020935 0.12968741357326508
0.010209820233285427 0.32180047035217285 0.11001770943403244
0.08824487030506134 0.30488777160644531 0.071401722729206085
0.24462424218654633 0.29490584135055542 0.11440924555063248
0.30830103158950806 0.31314986944198608 0.1543753445148468
0.35728016495704651 0.33584153652191162 0.17121842503547668
0.40412083268165588 0.36493271589279175 0.19113953411579132
0.45864221453666687 0.39841350913047791 0.21086129546165466
0.51823323965072632 0.43257707357406616 0.22443002462387085
0.58055490255355835 0.4686952531337738 0.24332579970359802
0.64449054002761841 0.50292110443115234 0.26311948895454407
0.7156376838684082 0.53894639015197754 0.27948656678199768
0.7860177755355835 0.57543319463729858 0.30060067772865295
0.0073614530265331268 0.42504838109016418 0.1626880019903183
0.0096474140882492065 0.41598421335220337 0.15535704791545868
0.069791875779628754 0.39826056361198425 0.1064327135682106
0.2586081326007843 0.38333526253700256 0.10238770395517349
0.36138337850570679 0.39244678616523743 0.18562687933444977
0.41715717315673828 0.41114580631256104 0.21572251617908478
0.46688368916511536 0.43117800354957581 0.23550648987293243
0.52430856227874756 0.46257370710372925 0.25594088435173035
0.58225530385971069 0.49393486976623535 0.27043548226356506
0.63960385322570801 0.52376431226730347 0.28700777888298035
0.70046329498291016 0.55587029457092285 0.30707475543022156
0.76124376058578491 0.58767998218536377 0.32177081704139709
0.81434667110443115 0.61548411846160889 0.3380635678768158
0.041728463023900986 0.52674472332000732 0.19400259852409363
0.034893110394477844 0.5170062780380249 0.18908554315567017
0.061771303415298462 0.49887377023696899 0.15753510594367981
0.25782814621925354 0.48499128222465515 0.10261257737874985
0.41284513473510742 0.47854116559028625 0.19471980631351471
0.48205482959747314 0.49085351824760437 0.26110875606536865
0.54222160577774048 0.51376926898956299 0.28565728664398193
0.59650260210037231 0.53064757585525513 0.30202671885490417
0.65223532915115356 0.55521184206008911 0.31956624984741211
0.70721316337585449 0.58195382356643677 0.33762684464454651
0.76214027404785156 0.60971367359161377 0.35156926512718201
0.81806349754333496 0.63764554262161255 0.36282989382743835
0.86509901285171509 0.66251176595687866 0.37470445036888123
0.1346743255853653 0.63370800018310547 0.23152990639209747
0.13611149787902832 0.62581485509872437 0.22764550149440765
0.1339392364025116 0.61241596937179565 0.20799693465232849
0.27910074591636658 0.59983497858047485 0.13598760962486267
0.45864170789718628 0.58669894933700562 0.17029531300067902
0.56141626834869385 0.58888125419616699 0.28980526328086853
0.61991184949874878 0.59862041473388672 0.33454567193984985
0.67064088582992554 0.60635536909103394 0.34884542226791382
0.72344177961349487 0.62311357259750366 0.36517149209976196
0.77295404672622681 0.64207088947296143 0.38089892268180847
0.82226955890655518 0.66409385204315186 0.39233696460723877
0.87381774187088013 0.68863189220428467 0.40172728896141052
0.91765868663787842 0.71018099784851074 0.40955385565757751
0.25462833046913147 0.73790204524993896 0.27081689238548279
0.2473161518573761 0.73038375377655029 0.26893690228462219
0.24262219667434692 0.71883314847946167 0.2589573860168457
0.2971685528755188 0.70965230464935303 0.21150204539299011
0.46383276581764221 0.69645446538925171 0.14730365574359894
0.60640507936477661 0.68308544158935547 0.2715204656124115
0.68419349193572998 0.67851275205612183 0.36759164929389954
0.73859292268753052 0.68563991785049438 0.39298915863037109
0.78994125127792358 0.69627207517623901 0.40846043825149536
0.83211350440979004 0.70721042156219482 0.4208315908908844
0.87842702865600586 0.72157520055770874 0.43126991391181946
0.92470347881317139 0.73919528722763062 0.43853741884231567
0.95353031158447266 0.75057786703109741 0.43683776259422302
0.31542509794235229 0.81443554162979126 0.29486671090126038
0.31819522380828857 0.81623119115829468 0.29935973882675171
0.31582283973693848 0.80724132061004639 0.29078406095504761
0.32731598615646362 0.79955083131790161 0.26938658952713013
0.43198481202125549 0.79396069049835205 0.18097138404846191
0.61658108234405518 0.77287739515304565 0.23674160242080688
0.72296541929244995 0.75664985179901123 0.3595471978187561
0.79158037900924683 0.75670546293258667 0.42669212818145752
0.83710616827011108 0.75991052389144897 0.44124606251716614
0.88159078359603882 0.76817291975021362 0.45262444019317627
0.93049889802932739 0.77689963579177856 0.46050307154655457
0.96806275844573975 0.78618830442428589 0.46388861536979675
0.98490577936172485 0.79230940341949463 0.45978018641471863
0.36899575591087341 0.8865782618522644 0.30543109774589539
0.36948409676551819 0.88582980632781982 0.31015193462371826
0.3695671558380127 0.88391697406768799 0.31006965041160583
0.37361767888069153 0.87864917516708374 0.30161118507385254
0.43044063448905945 0.87387216091156006 0.23753437399864197
0.61073702573776245 0.8543439507484436 0.19386690855026245
0.73750710487365723 0.83265060186386108 0.31257253885269165
0.82713621854782104 0.82202804088592529 0.42370206117630005
0.88352495431900024 0.82036983966827393 0.4665805995464325
0.92146384716033936 0.82219630479812622 0.47725504636764526
0.96313053369522095 0.82644098997116089 0.48257499933242798
0.98723620176315308 0.82861775159835815 0.48287737369537354
0.99557840824127197 0.82989811897277832 0.48222637176513672
0.40611612796783447 0.93919181823730469 0.31026005744934082
0.40256726741790771 0.9365573525428772 0.31432279944419861
0.4048728346824646 0.94071072340011597 0.31832730770111084
0.41017693281173706 0.94023162126541138 0.31239557266235352
0.42946010828018188 0.93963801860809326 0.2790074348449707
0.56764823198318481 0.92835694551467896 0.16872976720333099
0.72687065601348877 0.90455740690231323 0.23222510516643524
0.84652441740036011 0.88415908813476562 0.38708281517028809
0.91568732261657715 0.87297534942626953 0.47249799966812134
0.95240515470504761 0.86981403827667236 0.49321025609970093
0.97863852977752686 0.86962360143661499 0.49567517638206482
0.9930761456489563 0.86892473697662354 0.49399623274803162
0.99859035015106201 0.86750882863998413 0.49823164939880371
0.4203968346118927 0.96386712789535522 0.3245689868927002
0.42339047789573669 0.96930772066116333 0.32884836196899414
0.42320090532302856 0.97049081325531006 0.32912757992744446
0.42536908388137817 0.97110897302627563 0.32403445243835449
0.43213430047035217 0.9711841344833374 0.31271320581436157
0.49782025814056396 0.97048830986022949 0.21287254989147186
0.69835656881332397 0.95017158985137939 0.16447648406028748
0.84365606307983398 0.93173408508300781 0.32010954618453979
0.92736542224884033 0.91077166795730591 0.44824069738388062
0.97349798679351807 0.90685611963272095 0.49877673387527466
0.99128949642181396 0.90620142221450806 0.50089997053146362
0.99817019701004028 0.90330344438552856 0.49999287724494934
0.99996984004974365 0.89871591329574585 0.50076955556869507
0.0086280377581715584 0.079686380922794342 0.14544029533863068
0.042902987450361252 0.06731782853603363 0.14342063665390015
0.10138307511806488 0.064365550875663757 0.10511206835508347
0.14928776025772095 0.079672418534755707 0.08882063627243042
0.18948659300804138 0.10113007575273514 0.08918704092502594
0.23678447306156158 0.13049827516078949 0.094597175717353821
0.2819448709487915 0.16590844094753265 0.084632173180580139
0.34076696634292603 0.20036356151103973 0.080429777503013611
0.40751945972442627 0.24153923988342285 0.083786875009536743
0.47322797775268555 0.28973019123077393 0.098575040698051453
0.54757785797119141 0.33873334527015686 0.11893271654844284
0.63396292924880981 0.38947662711143494 0.14839924871921539
0.7112693190574646 0.43703654408454895 0.17467279732227325
0.010420780628919601 0.11267071962356567 0.13216005265712738
0.052222009748220444 0.1027926579117775 0.12699703872203827
0.10837770253419876 0.099122174084186554 0.10853857547044754
0.15327854454517365 0.11261481791734695 0.091280378401279449
0.19526273012161255 0.13469840586185455 0.094216577708721161
0.24422003328800201 0.16391445696353912 0.1045459657907486
0.29252707958221436 0.19414858520030975 0.10121491551399231
0.34805914759635925 0.22637224197387695 0.096904978156089783
0.41552728414535522 0.26967653632164001 0.11211144179105759
0.48380911350250244 0.31396776437759399 0.12091956287622452
0.55980581045150757 0.36219745874404907 0.13861964643001556
0.64690828323364258 0.41232019662857056 0.16895739734172821
0.72338712215423584 0.45796215534210205 0.19511550664901733
0.0026673858519643545 0.16364111006259918 0.14376401901245117
0.025766124948859215 0.16158208250999451 0.12995211780071259
0.10556335747241974 0.15537600219249725 0.11123149842023849
0.17032240331172943 0.16453433036804199 0.11228317767381668
0.21144740283489227 0.18608449399471283 0.11881353706121445
0.25897809863090515 0.21643678843975067 0.12735961377620697
0.30849137902259827 0.24251872301101685 0.13086743652820587
0.36672449111938477 0.2680363655090332 0.13404512405395508
0.43423601984977722 0.31316971778869629 0.15214349329471588
0.50196033716201782 0.35231161117553711 0.15006694197654724
0.5764811635017395 0.39448270201683044 0.16743370890617371
0.6625206470489502 0.44516775012016296 0.20091316103935242
0.74409252405166626 0.48887914419174194 0.22274182736873627
0.0018541822209954262 0.24347236752510071 0.15031558275222778
0.006268609780818224 0.24076354503631592 0.13841472566127777
0.069383405148983002 0.23070169985294342 0.11020356416702271
0.19350433349609375 0.22946518659591675 0.13482286036014557
0.24802547693252563 0.25011247396469116 0.1554991751909256
0.29445731639862061 0.2773888111114502 0.16885699331760406
0.34262785315513611 0.30585223436355591 0.18052642047405243
0.40292581915855408 0.33510118722915649 0.1901499480009079
0.4674147367477417 0.37317264080047607 0.20566184818744659
0.5387953519821167 0.40906792879104614 0.21073652803897858
0.61012160778045654 0.44745442271232605 0.22701430320739746
0.68835324048995972 0.49061101675033569 0.24945826828479767
0.76853817701339722 0.53047013282775879 0.2686886191368103
0.00045245300862006843 0.33204585313796997 0.14553648233413696
0.0042968001216650009 0.3290790319442749 0.13999941945075989
0.03875134140253067 0.31761178374290466 0.11551506072282791
0.19399610161781311 0.30378049612045288 0.13427603244781494
0.29571223258972168 0.31570082902908325 0.18818531930446625
0.34921553730964661 0.34215074777603149 0.20923706889152527
