assets/lut/creative horrorblue.cube
# Created by: G'MIC (https://gmic.eu)
TITLE "horrorblue"
# LUT size
LUT_3D_SIZE 13
# Data domain
DOMAIN_MIN 0.0 0.0 0.0
DOMAIN_MAX 1.0 1.0 1.0
# LUT data points
0.0028494291473180056 0.076355338096618652 0.1210283488035202
0.030279794707894325 0.069779567420482635 0.11642985790967941
0.11234071105718613 0.059067297726869583 0.10532525926828384
0.19274319708347321 0.041362956166267395 0.085271246731281281
0.26085728406906128 0.023602010682225227 0.064720675349235535
0.32984673976898193 0.010103383101522923 0.047161761671304703
0.40171772241592407 0.010446511209011078 0.044946722686290741
0.4846508800983429 0.017174620181322098 0.056803938001394272
0.57669961452484131 0.017137130722403526 0.067220412194728851
0.67359602451324463 0.011363010853528976 0.081989318132400513
0.78084784746170044 0.0098151415586471558 0.10088468343019485
0.89080929756164551 0.015759561210870743 0.12716175615787506
0.97070467472076416 0.023214077576994896 0.15141254663467407
0.0019717945251613855 0.1074422225356102 0.10963085293769836
0.027472971007227898 0.10079338401556015 0.10372154414653778
0.10901618003845215 0.093591563403606415 0.07987542450428009
0.19122233986854553 0.080214560031890869 0.052723560482263565
0.25838515162467957 0.06785157322883606 0.04054361954331398
0.33162519335746765 0.05197741836309433 0.034562576562166214
0.40432381629943848 0.045639172196388245 0.039228282868862152
0.48940962553024292 0.056861352175474167 0.052451502531766891
0.58053719997406006 0.069759517908096313 0.062403317540884018
0.67825275659561157 0.066064305603504181 0.074660956859588623
0.78144747018814087 0.061423715204000473 0.098460868000984192
0.89202618598937988 0.077752955257892609 0.12603071331977844
0.9664463996887207 0.085147440433502197 0.14582569897174835
0.0016214856877923012 0.15261064469814301 0.11033234000205994
0.024056646972894669 0.14592307806015015 0.104730524122715
0.095128409564495087 0.14567402005195618 0.094412796199321747
0.17664659023284912 0.14168660342693329 0.062815092504024506
0.2533600926399231 0.1385125070810318 0.033771738409996033
0.33426839113235474 0.13149206340312958 0.021156176924705505
0.41695821285247803 0.13067013025283813 0.021470207720994949
0.50425654649734497 0.13520839810371399 0.03057301789522171
0.59738141298294067 0.15010188519954681 0.03771432489156723
0.69841921329498291 0.16129796206951141 0.049514036625623703
0.79292303323745728 0.17495232820510864 0.081042543053627014
0.90024697780609131 0.18588687479496002 0.1106766015291214
0.97785097360610962 0.19256031513214111 0.14111579954624176
0.0011468026787042618 0.21300302445888519 0.12256822735071182
0.022532714530825615 0.21349780261516571 0.12332775443792343
0.097046360373497009 0.21349170804023743 0.11698625981807709
0.17592498660087585 0.21785852313041687 0.11422012746334076
0.25146493315696716 0.22526414692401886 0.10489274561405182
0.3343522846698761 0.2320755273103714 0.073022745549678802
0.42014986276626587 0.23378963768482208 0.038466598838567734
0.52510625123977661 0.23198820650577545 0.019049551337957382
0.62845981121063232 0.24229817092418671 0.019533343613147736
0.73192411661148071 0.24935610592365265 0.021367361769080162
0.82973432540893555 0.26045754551887512 0.038213677704334259
0.92749518156051636 0.28046044707298279 0.074095569550991058
0.9876975417137146 0.29124543070793152 0.099862508475780487
0.0037812027148902416 0.2960764467716217 0.15840485692024231
0.025058642029762268 0.29473230242729187 0.15784753859043121
0.10543154180049896 0.29314777255058289 0.15290318429470062
0.19169363379478455 0.30209082365036011 0.15846318006515503
0.26783084869384766 0.31644028425216675 0.17224001884460449
0.34241321682929993 0.32334968447685242 0.1618095338344574
0.4328213632106781 0.32987341284751892 0.12638434767723083
0.53686469793319702 0.33975806832313538 0.088498614728450775
0.64027398824691772 0.34793654084205627 0.055097781121730804
0.74840152263641357 0.35351094603538513 0.033511128276586533
0.85542577505111694 0.35580718517303467 0.024950290098786354
0.95011460781097412 0.35745567083358765 0.0309015903621912
0.99300003051757812 0.35066556930541992 0.040949549525976181
0.012515737675130367 0.3849647045135498 0.20438234508037567
0.048142947256565094 0.38560006022453308 0.20287472009658813
0.13002654910087585 0.38535362482070923 0.20046406984329224
0.2202792763710022 0.39479967951774597 0.2068188488483429
0.30183088779449463 0.41078671813011169 0.22011889517307281
0.37790969014167786 0.42095500230789185 0.22681817412376404
0.45660489797592163 0.42889955639839172 0.22215613722801208
0.54847580194473267 0.43982353806495667 0.19735398888587952
0.65225446224212646 0.45138978958129883 0.16119837760925293
0.75790309906005859 0.45810580253601074 0.11944358795881271
0.86797195672988892 0.45723584294319153 0.066116511821746826
0.96011906862258911 0.45223954319953918 0.025441816076636314
0.99334877729415894 0.44091299176216125 0.018697237595915794
0.055122628808021545 0.49043595790863037 0.2639223039150238
0.10863526165485382 0.49406424164772034 0.26427179574966431
0.17139641940593719 0.49180948734283447 0.26021543145179749
0.26086512207984924 0.49708041548728943 0.26349976658821106
0.34658840298652649 0.50725215673446655 0.27091720700263977
0.42425328493118286 0.52088451385498047 0.28326529264450073
0.49617454409599304 0.52765423059463501 0.28733232617378235
0.57627993822097778 0.53441166877746582 0.284781813621521
0.67533618211746216 0.54587513208389282 0.26664641499519348
0.77122455835342407 0.55088794231414795 0.2309204488992691
0.86764293909072876 0.54886770248413086 0.17330515384674072
0.95742368698120117 0.54133141040802002 0.10570469498634338
0.99254852533340454 0.53192508220672607 0.05709037184715271
0.12284687906503677 0.60225659608840942 0.33036643266677856
0.17558370530605316 0.60277301073074341 0.32870805263519287
0.24173739552497864 0.60481911897659302 0.32925218343734741
0.32497534155845642 0.60719478130340576 0.32882615923881531
0.40629801154136658 0.61415523290634155 0.32996252179145813
0.47452709078788757 0.61765652894973755 0.33139994740486145
0.54204422235488892 0.6192314624786377 0.335042804479599
0.61853533983230591 0.62184584140777588 0.33867913484573364
0.70318132638931274 0.62960577011108398 0.34062770009040833
0.78610491752624512 0.63526540994644165 0.32910820841789246
0.87739872932434082 0.63054406642913818 0.28550046682357788
0.96203207969665527 0.62501388788223267 0.22449566423892975
0.99702662229537964 0.61068117618560791 0.14522415399551392
0.22082901000976562 0.6932491660118103 0.37632584571838379
0.25812065601348877 0.69442540407180786 0.37816920876502991
0.31866824626922607 0.69606626033782959 0.37886643409729004
0.39326697587966919 0.69674217700958252 0.3766932487487793
0.46497145295143127 0.69724452495574951 0.37160205841064453
0.52765059471130371 0.69917476177215576 0.36854052543640137
0.59114986658096313 0.7013201117515564 0.37160861492156982
0.66314941644668579 0.70373213291168213 0.37804082036018372
0.7379080057144165 0.70473313331604004 0.3847011923789978
0.80955857038497925 0.70511025190353394 0.38461491465568542
0.89236629009246826 0.70118898153305054 0.36471977829933167
0.96838617324829102 0.69456273317337036 0.3175678551197052
0.99618446826934814 0.68563985824584961 0.25947755575180054
0.32545924186706543 0.77234429121017456 0.4137917160987854
0.34857776761054993 0.77393835783004761 0.41876479983329773
0.39727538824081421 0.77283090353012085 0.41759428381919861
0.45820295810699463 0.76957160234451294 0.40991029143333435
0.5216795802116394 0.76788449287414551 0.40219840407371521
0.58493560552597046 0.76636749505996704 0.39839231967926025
0.64592939615249634 0.76869255304336548 0.40157121419906616
0.70902711153030396 0.77017086744308472 0.40533381700515747
0.77668982744216919 0.77053934335708618 0.40843865275382996
0.84380191564559937 0.76466572284698486 0.407358318567276
0.91651630401611328 0.75954794883728027 0.40277302265167236
0.97709691524505615 0.75467991828918457 0.38679090142250061
0.99383032321929932 0.74658644199371338 0.35218039155006409
0.4278528094291687 0.83732682466506958 0.4436170756816864
0.44176807999610901 0.83881694078445435 0.44524046778678894
0.47713151574134827 0.83950656652450562 0.44440516829490662
0.52655434608459473 0.83557224273681641 0.43588089942932129
0.5827484130859375 0.8336067795753479 0.42640388011932373
0.64208984375 0.82955926656723022 0.42172354459762573
0.70034998655319214 0.82816821336746216 0.42295438051223755
0.75967508554458618 0.8265998363494873 0.42377066612243652
0.81927132606506348 0.82263970375061035 0.42349949479103088
0.8829038143157959 0.81661194562911987 0.42175230383872986
0.94312030076980591 0.81260329484939575 0.42339992523193359
0.98608380556106567 0.80790001153945923 0.42462253570556641
0.99582767486572266 0.80067861080169678 0.41194272041320801
0.50777459144592285 0.90092438459396362 0.46596720814704895
0.52015221118927002 0.89999324083328247 0.46585094928741455
0.54761594533920288 0.8997228741645813 0.46343383193016052
0.58788347244262695 0.89591002464294434 0.45662581920623779
0.63974869251251221 0.89104485511779785 0.44690576195716858
0.69229954481124878 0.88764512538909912 0.4401414692401886
0.75012463331222534 0.88496088981628418 0.43824133276939392
0.81090420484542847 0.88270121812820435 0.43791809678077698
0.86339324712753296 0.87584590911865234 0.43638908863067627
0.91640138626098633 0.86939406394958496 0.43446186184883118
0.96369040012359619 0.86544692516326904 0.43851587176322937
0.99367910623550415 0.85995328426361084 0.44276484847068787
0.99955660104751587 0.85205668210983276 0.44464722275733948
0.56635922193527222 0.95585465431213379 0.48190587759017944
0.58060544729232788 0.95302838087081909 0.48045468330383301
0.60801541805267334 0.95286637544631958 0.47834527492523193
0.63858294486999512 0.94811773300170898 0.47344765067100525
0.68177676200866699 0.94189774990081787 0.46488869190216064
0.72852706909179688 0.93959504365921021 0.4563460648059845
0.78097057342529297 0.93451082706451416 0.45182082056999207
0.83865618705749512 0.92980742454528809 0.44740003347396851
0.888652503490448 0.92380642890930176 0.44790595769882202
0.93437767028808594 0.91812425851821899 0.44886672496795654
0.97608339786529541 0.91523110866546631 0.45160701870918274
0.99598050117492676 0.90847235918045044 0.45688274502754211
1 0.89855426549911499 0.45763784646987915
0.00021704880055040121 0.077479571104049683 0.15449035167694092
0.0077992160804569721 0.076317131519317627 0.15289875864982605
0.066710032522678375 0.075163073837757111 0.14970856904983521
0.14353212714195251 0.074260011315345764 0.14502596855163574
0.21368573606014252 0.064405731856822968 0.13550977408885956
0.2888624370098114 0.050678793340921402 0.1262509822845459
0.36831682920455933 0.041398514062166214 0.13034495711326599
0.46443659067153931 0.034159954637289047 0.13636413216590881
0.55904287099838257 0.032733604311943054 0.14753369987010956
0.65781265497207642 0.033840764313936234 0.15871205925941467
0.76759821176528931 0.032730147242546082 0.17306755483150482
0.88115143775939941 0.036459274590015411 0.19568561017513275
0.97026389837265015 0.043506979942321777 0.22034257650375366
0.00017384547390975058 0.10832082480192184 0.14701056480407715
0.0075551201589405537 0.10490791499614716 0.14618799090385437
0.060711462050676346 0.10247020423412323 0.14122952520847321
0.14781458675861359 0.10016205906867981 0.12952353060245514
0.22049678862094879 0.093465141952037811 0.12518294155597687
0.30136922001838684 0.083794854581356049 0.11707410961389542
0.38198694586753845 0.0740952268242836 0.12251398712396622
0.47179189324378967 0.071916885673999786 0.13385052978992462
0.56652307510375977 0.082367867231369019 0.1417851448059082
0.66675692796707153 0.088568039238452911 0.15284566581249237
0.77273821830749512 0.088882818818092346 0.1730353981256485
0.88338190317153931 0.09732075035572052 0.19589631259441376
0.97079813480377197 0.098373815417289734 0.21741065382957458
0.0004642561252694577 0.15045914053916931 0.15312466025352478
0.0059841228649020195 0.14976529777050018 0.14559362828731537
0.057114962488412857 0.15037120878696442 0.13899019360542297
0.14771395921707153 0.14986494183540344 0.11576595157384872
0.22841806709766388 0.15406428277492523 0.10343213379383087
0.31222355365753174 0.15296915173530579 0.0938592329621315
0.39453139901161194 0.14977921545505524 0.10012292116880417
0.4796907901763916 0.15733344852924347 0.11491494625806808
0.57641482353210449 0.17152069509029388 0.1245047003030777
0.6807599663734436 0.18155413866043091 0.13833102583885193
0.78342646360397339 0.18948276340961456 0.16455578804016113
0.89316719770431519 0.20137976109981537 0.19029578566551208
0.97651690244674683 0.19679386913776398 0.21454605460166931
0.00076087500201538205 0.21872074902057648 0.16849783062934875
0.0050023994408547878 0.22023120522499084 0.16494183242321014
0.053577512502670288 0.22241045534610748 0.16215412318706512
0.14417159557342529 0.22343961894512177 0.15618157386779785
0.23425407707691193 0.23418503999710083 0.14255572855472565
0.31948468089103699 0.23876488208770752 0.11642689257860184
0.40672290325164795 0.24228207767009735 0.096161216497421265
0.50644195079803467 0.24945551156997681 0.088256731629371643
0.60637098550796509 0.26274961233139038 0.093202613294124603
0.70695459842681885 0.27891349792480469 0.11082834005355835
0.80868536233901978 0.29198077321052551 0.1322169154882431
0.90841424465179443 0.30744755268096924 0.16887988150119781
0.98036473989486694 0.31373873353004456 0.1991487592458725
0.0028194352053105831 0.29962152242660522 0.19915831089019775
0.012960187159478664 0.30384141206741333 0.19959919154644012
0.047897517681121826 0.30214646458625793 0.19633272290229797
0.15195326507091522 0.30747857689857483 0.1942802220582962
0.24226038157939911 0.31901824474334717 0.20194463431835175
0.32248350977897644 0.3285709023475647 0.19577346742153168
0.41843137145042419 0.33726009726524353 0.16442808508872986
0.52767539024353027 0.34441736340522766 0.12428406625986099
0.63126367330551147 0.35506781935691833 0.10177855938673019
0.73780041933059692 0.36343175172805786 0.090455241501331329
0.84467405080795288 0.3695223331451416 0.092266961932182312
0.9385000467300415 0.37856796383857727 0.11066193133592606
0.98894339799880981 0.38201659917831421 0.13251425325870514
0.0081268008798360825 0.38755020499229431 0.22690117359161377
0.040556244552135468 0.39425113797187805 0.2323932945728302
0.08904285728931427 0.39453163743019104 0.23537646234035492
0.17785489559173584 0.40038219094276428 0.24051359295845032
0.27104777097702026 0.41203984618186951 0.24837994575500488
0.35212868452072144 0.42450705170631409 0.25716188549995422
0.43960332870483398 0.43474400043487549 0.25371307134628296
0.53981775045394897 0.44741946458816528 0.22856831550598145
0.64373171329498291 0.45650741457939148 0.19533200562000275
0.75252515077590942 0.46386739611625671 0.1594911515712738
0.86092829704284668 0.4645920991897583 0.12097974121570587
0.95459967851638794 0.46027806401252747 0.084672160446643829
0.99380826950073242 0.44737818837165833 0.064681917428970337
0.031104922294616699 0.49461755156517029 0.28267139196395874
0.06806742399930954 0.49965998530387878 0.28882145881652832
0.12049439549446106 0.49990639090538025 0.29070770740509033
0.22228573262691498 0.50704210996627808 0.2993156909942627
0.3192293643951416 0.51517719030380249 0.3054867684841156
0.39992964267730713 0.52439796924591064 0.30904713273048401
0.47966122627258301 0.53531074523925781 0.31518134474754333
0.5665736198425293 0.5439942479133606 0.31291720271110535
0.66456329822540283 0.55035769939422607 0.29081821441650391
0.75999081134796143 0.55525308847427368 0.25826296210289001
0.86051696538925171 0.5539710521697998 0.21052993834018707
0.9554135799407959 0.54603707790374756 0.14472195506095886
0.99423378705978394 0.53511971235275269 0.087222829461097717
0.072642520070075989 0.60627532005310059 0.34598761796951294
0.11406909674406052 0.60583287477493286 0.34719166159629822
0.18548490107059479 0.60744011402130127 0.35215863585472107
0.29085344076156616 0.61315363645553589 0.35615271329879761
0.3802131712436676 0.61861258745193481 0.35644993185997009
0.45685875415802002 0.62467831373214722 0.35710689425468445
0.52514529228210449 0.63022685050964355 0.36273044347763062
0.60724258422851562 0.63423901796340942 0.36684906482696533
0.69107329845428467 0.63584262132644653 0.36487710475921631
0.77314448356628418 0.63741707801818848 0.34781327843666077
0.86862862110137939 0.63319569826126099 0.30413612723350525
0.95716428756713867 0.62863403558731079 0.25097200274467468
0.99677205085754395 0.62027591466903687 0.18672451376914978
0.17093706130981445 0.69760072231292725 0.39002305269241333
0.21429462730884552 0.70134454965591431 0.39283135533332825
0.28139328956604004 0.70093929767608643 0.39825311303138733
0.36340871453285217 0.70190083980560303 0.40245515108108521
0.43966764211654663 0.70349889993667603 0.3981814980506897
0.51230674982070923 0.70385921001434326 0.39140775799751282
0.57913535833358765 0.70480775833129883 0.39286476373672485
0.65021061897277832 0.7083592414855957 0.40026769042015076
0.72459656000137329 0.70722568035125732 0.40446579456329346
0.79828882217407227 0.70742011070251465 0.40460532903671265
0.88185244798660278 0.70603549480438232 0.38756391406059265
0.96077907085418701 0.69781160354614258 0.33753865957260132
0.99553978443145752 0.69059371948242188 0.27813282608985901
0.29097560048103333 0.77645599842071533 0.42317289113998413
0.31446430087089539 0.77427071332931519 0.4263530969619751
0.36550238728523254 0.77562707662582397 0.43136578798294067
0.43303832411766052 0.7749512791633606 0.43264961242675781
0.49757009744644165 0.7732088565826416 0.4285922646522522
0.56701451539993286 0.76914232969284058 0.41966903209686279
0.632132887840271 0.77195113897323608 0.41989320516586304
0.69505244493484497 0.77520918846130371 0.42439848184585571
0.76163095235824585 0.77001857757568359 0.42878434062004089
0.83267331123352051 0.7663235068321228 0.42950457334518433
0.90551877021789551 0.7625352144241333 0.42726919054985046
0.97079408168792725 0.75781208276748657 0.40602344274520874
0.99375820159912109 0.75034934282302856 0.36206227540969849
0.39118719100952148 0.84005594253540039 0.45077231526374817
0.41429093480110168 0.84001296758651733 0.45413482189178467
0.45359382033348083 0.84115540981292725 0.45761916041374207
0.50397592782974243 0.83967083692550659 0.45453378558158875
0.56278133392333984 0.83430129289627075 0.44815805554389954
0.6261102557182312 0.83080375194549561 0.44134694337844849
0.6868930459022522 0.8300291895866394 0.44111910462379456
0.7479671835899353 0.82895666360855103 0.44152256846427917
0.80821686983108521 0.824088454246521 0.44241487979888916
0.87289309501647949 0.81933331489562988 0.44248023629188538
0.93652641773223877 0.81656289100646973 0.44499632716178894
0.98297524452209473 0.81180882453918457 0.44278994202613831
0.99569755792617798 0.80360949039459229 0.42425507307052612
0.4807077944278717 0.90206515789031982 0.47416213154792786
0.49908784031867981 0.90179389715194702 0.4750678539276123
0.53036344051361084 0.90138030052185059 0.47540232539176941
0.57213473320007324 0.89896589517593384 0.47470518946647644
0.62456607818603516 0.89325106143951416 0.46675917506217957
0.67995601892471313 0.88968485593795776 0.45835667848587036
0.73899853229522705 0.88500988483428955 0.45495834946632385
0.80231738090515137 0.88337790966033936 0.45454740524291992
0.85468810796737671 0.87774580717086792 0.45448699593544006
0.90966737270355225 0.87247371673583984 0.45370915532112122
0.95992577075958252 0.8681793212890625 0.45461270213127136
0.99165976047515869 0.86271160840988159 0.4557763934135437
0.99919003248214722 0.85568535327911377 0.45416733622550964
0.53863239288330078 0.95634216070175171 0.48999786376953125
0.55664950609207153 0.95296198129653931 0.48868343234062195
0.59283393621444702 0.95446127653121948 0.48911616206169128
0.62450969219207764 0.94904190301895142 0.48766088485717773
0.66719359159469604 0.9432065486907959 0.48143836855888367
0.71518170833587646 0.94019073247909546 0.47353538870811462
0.77088248729705811 0.93607521057128906 0.466583251953125
0.83105099201202393 0.93019747734069824 0.46115779876708984
0.88574844598770142 0.92556291818618774 0.4621235728263855
0.93560576438903809 0.92120188474655151 0.46297594904899597
0.97511070966720581 0.91582024097442627 0.46415835618972778
0.99446296691894531 0.90945756435394287 0.46893018484115601
1 0.90286624431610107 0.47217115759849548
0 0.079205699265003204 0.19650506973266602
0.002361237769946456 0.080367937684059143 0.19546796381473541
0.039636902511119843 0.082321673631668091 0.19178564846515656
0.10227074474096298 0.093376383185386658 0.18974484503269196
0.15905016660690308 0.10329410433769226 0.19446156919002533
0.22142027318477631 0.11195708811283112 0.19811876118183136
0.29510709643363953 0.11792716383934021 0.21333600580692291
0.40046867728233337 0.11883139610290527 0.22613149881362915
0.49703207612037659 0.12180512398481369 0.23602278530597687
0.59871476888656616 0.12631911039352417 0.25091615319252014
0.71803003549575806 0.12458077073097229 0.26570090651512146
0.83860403299331665 0.13551679253578186 0.29039832949638367
0.94517034292221069 0.1457924097776413 0.31463256478309631
0 0.1082506850361824 0.19329312443733215
0.00055573409190401435 0.11002548784017563 0.19289137423038483
0.023196127265691757 0.11410221457481384 0.19324959814548492
0.088895030319690704 0.12145853787660599 0.19276700913906097
0.15833264589309692 0.12801541388034821 0.19783855974674225
0.23546276986598969 0.13337685167789459 0.20247866213321686
0.31738153100013733 0.13678233325481415 0.21179170906543732
0.41433694958686829 0.14108967781066895 0.22669625282287598
0.51214587688446045 0.14905728399753571 0.23539774119853973
0.61606383323669434 0.15842273831367493 0.2503911554813385
0.73046368360519409 0.1624908447265625 0.26801607012748718
0.85705113410949707 0.15033408999443054 0.28490889072418213
0.96130645275115967 0.15476946532726288 0.30851736664772034
0 0.15519331395626068 0.20009154081344604
0.00053163414122536778 0.15578500926494598 0.1976906955242157
0.017964441329240799 0.16015197336673737 0.19788080453872681
0.089663438498973846 0.16401205956935883 0.1942991316318512
0.1753336638212204 0.17111000418663025 0.19312021136283875
0.26037070155143738 0.17875631153583527 0.19994403421878815
0.34414273500442505 0.18609344959259033 0.2123381495475769
0.43484824895858765 0.19650141894817352 0.22838081419467926
0.54000842571258545 0.20474410057067871 0.23626132309436798
0.64811116456985474 0.21260638535022736 0.2493007481098175
0.75694698095321655 0.21987934410572052 0.26577341556549072
0.87209039926528931 0.2330286055803299 0.28296172618865967
0.9725111722946167 0.22888214886188507 0.30709207057952881
3.2312730127159739e-06 0.22285854816436768 0.22212953865528107
0.00087803858332335949 0.22257639467716217 0.21651189029216766
0.017116382718086243 0.22758921980857849 0.21569418907165527
0.086253851652145386 0.23341239988803864 0.21479050815105438
0.19063866138458252 0.24086683988571167 0.2056802362203598
0.28368368744850159 0.24748359620571136 0.19218428432941437
0.37331274151802063 0.25527361035346985 0.19411711394786835
0.46902662515640259 0.26932278275489807 0.2112964391708374
0.57271569967269897 0.28577420115470886 0.22735927999019623
0.67289614677429199 0.30151781439781189 0.23815412819385529
0.78105515241622925 0.31156203150749207 0.25540214776992798
0.89145135879516602 0.32277381420135498 0.27483075857162476
0.97705578804016113 0.32969853281974792 0.30142349004745483
0.00029913210892118514 0.30059888958930969 0.25485852360725403
0.0035495085176080465 0.30626147985458374 0.25606131553649902
0.016056733205914497 0.30858388543128967 0.24948948621749878
0.089989952743053436 0.31565573811531067 0.2514805793762207
0.18810665607452393 0.32397392392158508 0.25324377417564392
0.28945797681808472 0.33174654841423035 0.24126335978507996
0.39108419418334961 0.34271502494812012 0.22018024325370789
