assets/lut/creative softwarming.cube
# Created by: G'MIC (https://gmic.eu)
TITLE "softwarming"
# LUT size
LUT_3D_SIZE 7
# Data domain
DOMAIN_MIN 0.0 0.0 0.0
DOMAIN_MAX 1.0 1.0 1.0
# LUT data points
0.10679607093334198 0.079034529626369476 0.09511808305978775
0.24125216901302338 0.085135728120803833 0.10367943346500397
0.37071850895881653 0.089779794216156006 0.11069171130657196
0.49672180414199829 0.095152430236339569 0.11851051449775696
0.6205061674118042 0.10170364379882812 0.12680655717849731
0.74271440505981445 0.10877839475870132 0.13381282985210419
0.8637542724609375 0.11390605568885803 0.13577951490879059
0.12071140110492706 0.20747864246368408 0.10923062264919281
0.25521752238273621 0.21408998966217041 0.11634011566638947
0.38435691595077515 0.21882228553295135 0.12218101322650909
0.51001638174057007 0.22451099753379822 0.12958149611949921
0.63315731287002563 0.23249645531177521 0.13857316970825195
0.7550237774848938 0.24069903790950775 0.14570158720016479
0.87597483396530151 0.24718695878982544 0.14802123606204987
0.13485193252563477 0.33735254406929016 0.12223407626152039
0.2685050368309021 0.34331682324409485 0.12829446792602539
0.39699989557266235 0.34782642126083374 0.13306951522827148
0.52186042070388794 0.35395216941833496 0.13990932703018188
0.64443600177764893 0.36278477311134338 0.14842376112937927
0.76550114154815674 0.37172743678092957 0.15492717921733856
0.88634943962097168 0.37922182679176331 0.15685169398784637
0.15020053088665009 0.47015172243118286 0.13666670024394989
0.28280428051948547 0.47602429986000061 0.14268490672111511
0.41041696071624756 0.48130118846893311 0.14707949757575989
0.53413867950439453 0.48764115571975708 0.15254133939743042
0.65576159954071045 0.49596989154815674 0.15889804065227509
0.77617436647415161 0.50455832481384277 0.1636127382516861
0.89655083417892456 0.51256126165390015 0.16443829238414764
0.16512654721736908 0.60563158988952637 0.1518179178237915
0.29736524820327759 0.61191797256469727 0.15828749537467957
0.42402690649032593 0.61788249015808105 0.16209763288497925
0.54701560735702515 0.62450724840164185 0.16571509838104248
0.66778981685638428 0.63222247362136841 0.16956593096256256
0.78755372762680054 0.64035451412200928 0.17183001339435577
0.90760934352874756 0.64807337522506714 0.17091812193393707
0.17801855504512787 0.74282568693161011 0.16538666188716888
0.31014233827590942 0.74964487552642822 0.17201891541481018
0.4364963173866272 0.75629955530166626 0.17517474293708801
0.55923736095428467 0.76323020458221436 0.17714682221412659
0.67961800098419189 0.77064043283462524 0.17850083112716675
0.79924947023391724 0.77834624052047729 0.17832541465759277
0.91884809732437134 0.78567743301391602 0.17542323470115662
0.18641023337841034 0.88125467300415039 0.17398528754711151
0.31907486915588379 0.8887367844581604 0.18084786832332611
0.44582927227020264 0.89590781927108765 0.18370369076728821
0.56899428367614746 0.90317201614379883 0.18430176377296448
0.68973797559738159 0.91050422191619873 0.18405905365943909
0.80941081047058105 0.91784811019897461 0.18172532320022583
0.92857950925827026 0.92466068267822266 0.17682461440563202
0.10855022072792053 0.077032409608364105 0.22292496263980865
0.2439626157283783 0.085399433970451355 0.23098686337471008
0.37418320775032043 0.091860063374042511 0.23793129622936249
0.50030851364135742 0.097656294703483582 0.24575690925121307
0.62373429536819458 0.10380572080612183 0.25434038043022156
0.74551504850387573 0.10997242480516434 0.26138186454772949
0.86647617816925049 0.11488970369100571 0.2642190158367157
0.12162581831216812 0.20517583191394806 0.23599827289581299
0.25692960619926453 0.21428464353084564 0.24172568321228027
0.3868958055973053 0.22103248536586761 0.24750562012195587
0.51234155893325806 0.22693602740764618 0.25565269589424133
0.63505178689956665 0.23378847539424896 0.26476511359214783
0.7565189003944397 0.24094477295875549 0.27250310778617859
0.87752729654312134 0.24741098284721375 0.27628901600837708
0.13759712874889374 0.33724322915077209 0.24852780997753143
0.27083510160446167 0.34491753578186035 0.2527434229850769
0.39925426244735718 0.35100206732749939 0.25761669874191284
0.52372843027114868 0.35671541094779968 0.26545119285583496
0.64543461799621582 0.36389443278312683 0.27436316013336182
0.76634114980697632 0.37181317806243896 0.28183326125144958
0.88745534420013428 0.3792060911655426 0.2856159508228302
0.1549740731716156 0.47188881039619446 0.26335769891738892
0.28629186749458313 0.47834113240242004 0.26768457889556885
0.41292569041252136 0.48398318886756897 0.27197572588920593
0.53605848550796509 0.48985600471496582 0.27813762426376343
0.6567683219909668 0.49702569842338562 0.28535604476928711
0.77671855688095093 0.5048406720161438 0.29157707095146179
0.89749443531036377 0.51295953989028931 0.29449966549873352
0.17128531634807587 0.60814327001571655 0.2793424129486084
0.30181354284286499 0.61427110433578491 0.28441503643989563
0.427350252866745 0.62010270357131958 0.2880769670009613
0.54940074682235718 0.62632590532302856 0.29230809211730957
0.66935670375823975 0.63341397047042847 0.29713553190231323
0.7887389063835144 0.64116448163986206 0.30119180679321289
0.90909582376480103 0.64901387691497803 0.30241143703460693
0.18521592020988464 0.74568384885787964 0.29379570484161377
0.31588485836982727 0.75218361616134644 0.29967689514160156
0.44095969200134277 0.75847923755645752 0.30283871293067932
0.56274712085723877 0.76508539915084839 0.30533131957054138
0.68269819021224976 0.77225255966186523 0.30781644582748413
0.80194991827011108 0.77977633476257324 0.30943113565444946
0.92194026708602905 0.78723883628845215 0.30849608778953552
0.19457520544528961 0.884502112865448 0.30357158184051514
0.32621350884437561 0.89158850908279419 0.31025683879852295
0.45198535919189453 0.89840680360794067 0.31333807110786438
0.57419794797897339 0.90530270338058472 0.31486451625823975
0.69455122947692871 0.91250014305114746 0.31551778316497803
0.81400704383850098 0.91968482732772827 0.31484067440032959
0.93352806568145752 0.9267924427986145 0.31193900108337402
0.11080340296030045 0.077147737145423889 0.34677508473396301
0.24604420363903046 0.086261153221130371 0.35428133606910706
0.37635713815689087 0.093574509024620056 0.36116489768028259
0.50235456228256226 0.099403798580169678 0.36886516213417053
0.62543052434921265 0.1047094464302063 0.37690559029579163
0.74674350023269653 0.10996231436729431 0.38338017463684082
0.86797535419464111 0.11443696916103363 0.38685092329978943
0.12489435821771622 0.20690585672855377 0.3591010570526123
0.25912189483642578 0.21624726057052612 0.36407738924026489
0.38866063952445984 0.22350479662418365 0.36990943551063538
0.51383161544799805 0.22907593846321106 0.37795710563659668
0.63597637414932251 0.23450355231761932 0.38655829429626465
0.75678616762161255 0.24001672863960266 0.39381888508796692
0.87791430950164795 0.246127650141716 0.39831376075744629
0.14126724004745483 0.33976772427558899 0.37143579125404358
0.27326187491416931 0.34801262617111206 0.37450170516967773
0.40092569589614868 0.35437780618667603 0.37972825765609741
0.52482479810714722 0.35935136675834656 0.38758423924446106
0.64602160453796387 0.36493709683418274 0.39619314670562744
0.76639401912689209 0.37128791213035583 0.40359199047088623
0.88787925243377686 0.37834790349006653 0.40863874554634094
0.15852552652359009 0.47483852505683899 0.38613799214363098
0.28859922289848328 0.48141247034072876 0.389534592628479
0.41438981890678406 0.48712939023971558 0.39369183778762817
0.53702855110168457 0.49242779612541199 0.40016922354698181
0.65748590230941772 0.49852606654167175 0.40756577253341675
0.77736741304397583 0.50530135631561279 0.41433325409889221
0.89879035949707031 0.51309859752655029 0.41889193654060364
0.17499701678752899 0.61112594604492188 0.40196359157562256
0.3041570782661438 0.6171947717666626 0.40637165307998657
0.4287172257900238 0.62283200025558472 0.41000837087631226
0.55043488740921021 0.62862133979797363 0.41467189788818359
0.67049545049667358 0.63511127233505249 0.42021268606185913
0.79023343324661255 0.64227443933486938 0.42544913291931152
0.91119015216827393 0.65003412961959839 0.42855501174926758
0.18929998576641083 0.74873894453048706 0.41656720638275146
0.31847453117370605 0.75505548715591431 0.42193311452865601
0.44279921054840088 0.76104581356048584 0.42539650201797485
0.56435978412628174 0.76735055446624756 0.42870038747787476
0.68445819616317749 0.77409034967422485 0.43226519227027893
0.80424630641937256 0.78128141164779663 0.43534988164901733
0.9246826171875 0.78878611326217651 0.43640723824501038
0.19938704371452332 0.88769114017486572 0.42718279361724854
0.3298850953578949 0.8944469690322876 0.43368044495582581
0.45489758253097534 0.90097618103027344 0.43750938773155212
0.57680052518844604 0.90754544734954834 0.44002538919448853
0.69718015193939209 0.91453218460083008 0.44198876619338989
0.81702125072479248 0.92160260677337646 0.44305002689361572
0.93698179721832275 0.92861747741699219 0.44184175133705139
0.11567156761884689 0.08109225332736969 0.46923545002937317
0.24991287291049957 0.089213259518146515 0.47631216049194336
0.37931501865386963 0.09574204683303833 0.48295378684997559
0.5046994686126709 0.10109420120716095 0.49010223150253296
0.62729465961456299 0.10616670548915863 0.49738004803657532
0.74853605031967163 0.11091272532939911 0.50355678796768188
0.86940550804138184 0.11544609814882278 0.50747835636138916
0.13128525018692017 0.21246594190597534 0.48141491413116455
0.26369336247444153 0.21990512311458588 0.4863952100276947
0.39175587892532349 0.22596009075641632 0.49195724725723267
0.51608651876449585 0.23093296587467194 0.49903148412704468
0.63761615753173828 0.23573373258113861 0.5067024827003479
0.75788909196853638 0.24058899283409119 0.51343673467636108
0.87929975986480713 0.24646954238414764 0.51846253871917725
0.14666730165481567 0.34471401572227478 0.49366730451583862
0.27715346217155457 0.35125079751014709 0.49718424677848816
0.40352174639701843 0.35667663812637329 0.50186407566070557
0.52669405937194824 0.36143100261688232 0.50868040323257446
0.64794290065765381 0.36655116081237793 0.51643270254135132
0.76817029714584351 0.37207409739494324 0.52361446619033813
0.88970911502838135 0.37902045249938965 0.5294298529624939
0.16251221299171448 0.47884544730186462 0.50752907991409302
0.29117828607559204 0.48467490077018738 0.5109483003616333
0.41594025492668152 0.48972699046134949 0.51477891206741333
0.53824919462203979 0.49483615159988403 0.52084004878997803
0.65927362442016602 0.50048619508743286 0.52795195579528809
0.77992290258407593 0.50701957941055298 0.53506767749786377
0.90163528919219971 0.51453244686126709 0.54075735807418823
0.17791596055030823 0.61459255218505859 0.52249276638031006
0.30557307600975037 0.6202511191368103 0.5264778733253479
0.42926624417304993 0.62554693222045898 0.5302007794380188
0.55122166872024536 0.6311454176902771 0.53492861986160278
0.67216271162033081 0.63731032609939575 0.54071557521820068
0.79288488626480103 0.64433246850967407 0.54671752452850342
0.91452217102050781 0.65186178684234619 0.55160403251647949
0.19177974760532379 0.75194942951202393 0.53651779890060425
0.31971073150634766 0.7580457329750061 0.54162776470184326
0.44329813122749329 0.76377671957015991 0.54547411203384399
0.56495004892349243 0.76985090970993042 0.54933422803878784
0.68585866689682007 0.77641063928604126 0.55369049310684204
0.80665534734725952 0.78346025943756104 0.5580945611000061
0.92773449420928955 0.79058986902236938 0.56117624044418335
0.20232503116130829 0.8907085657119751 0.54766064882278442
0.33144557476043701 0.897247314453125 0.55409032106399536
0.4560006856918335 0.90357643365859985 0.55834347009658813
0.5779535174369812 0.9099956750869751 0.56185662746429443
0.69911473989486694 0.91659432649612427 0.56510466337203979
0.81956726312637329 0.92356312274932861 0.56771159172058105
0.9398311972618103 0.93036448955535889 0.56860703229904175
0.1209232434630394 0.086019702255725861 0.59104669094085693
0.25426521897315979 0.092924021184444427 0.59794777631759644
0.3827032744884491 0.097958885133266449 0.60425150394439697
0.50748342275619507 0.10289127379655838 0.61092269420623779
0.6298673152923584 0.10828796029090881 0.61785352230072021
0.75110900402069092 0.11398530751466751 0.623931884765625
0.87222331762313843 0.11890909820795059 0.62832313776016235
0.13718782365322113 0.2181275337934494 0.60341501235961914
0.26863470673561096 0.22371992468833923 0.60855209827423096
0.39552232623100281 0.22799238562583923 0.61362820863723755
0.51916706562042236 0.2326008528470993 0.62001502513885498
0.64093542098999023 0.23832470178604126 0.62728786468505859
0.76170992851257324 0.24443037807941437 0.63425606489181519
0.88312584161758423 0.25079366564750671 0.63990300893783569
0.15187470614910126 0.34967309236526489 0.61548739671707153
0.28137323260307312 0.35462149977684021 0.61932194232940674
0.40677443146705627 0.35862132906913757 0.62368547916412354
0.52965706586837769 0.36318078637123108 0.62961679697036743
0.65113204717636108 0.36903059482574463 0.63707989454269409
0.7722097635269165 0.37574511766433716 0.64456605911254883
0.89397317171096802 0.38304299116134644 0.65102189779281616
0.16613072156906128 0.48282164335250854 0.62845182418823242
0.29381653666496277 0.48760256171226501 0.63207513093948364
0.4178721010684967 0.49187487363815308 0.63589620590209961
0.54045337438583374 0.496844083070755 0.64135175943374634
0.66209673881530762 0.50300490856170654 0.64839410781860352
0.78371018171310425 0.5101127028465271 0.65598499774932861
0.9057430624961853 0.5177912712097168 0.66256672143936157
0.18028911948204041 0.61804920434951782 0.64217793941497803
0.30662363767623901 0.6232338547706604 0.64622187614440918
0.42963340878486633 0.62814092636108398 0.64994001388549805
0.55216479301452637 0.63353770971298218 0.6548277735710144
0.67431861162185669 0.63999086618423462 0.66093021631240845
0.79618358612060547 0.64710348844528198 0.66789072751998901
0.91815048456192017 0.65452277660369873 0.67399078607559204
0.19341409206390381 0.75499719381332397 0.65555769205093384
0.3199177086353302 0.76078879833221436 0.66062027215957642
0.44269928336143494 0.76640987396240234 0.66469168663024902
0.56511414051055908 0.77232563495635986 0.66918325424194336
0.6874539852142334 0.77892708778381348 0.67428779602050781
0.8090704083442688 0.78582239151000977 0.68005490303039551
0.93071866035461426 0.7928052544593811 0.68470948934555054
0.20417766273021698 0.89325153827667236 0.66671472787857056
0.33239889144897461 0.89985549449920654 0.67320865392684937
0.45606538653373718 0.90602493286132812 0.67815673351287842
0.57837837934494019 0.91233152151107788 0.68274468183517456
0.70002657175064087 0.91889345645904541 0.68708693981170654
0.82112360000610352 0.92548203468322754 0.69112199544906616
0.94209104776382446 0.93206590414047241 0.69356173276901245
0.12402879446744919 0.090278849005699158 0.71241897344589233
0.25689738988876343 0.095669731497764587 0.71926367282867432
0.38480910658836365 0.099329061806201935 0.72540807723999023
0.5094180703163147 0.10397610813379288 0.73186981678009033
0.63208907842636108 0.11045479774475098 0.73869943618774414
0.75359535217285156 0.1176295280456543 0.74506831169128418
0.87441384792327881 0.12325289845466614 0.7494698166847229
0.14083245396614075 0.22253292798995972 0.72509360313415527
0.27205583453178406 0.22665342688560486 0.73024016618728638
0.39847263693809509 0.22928424179553986 0.73508059978485107
0.52205628156661987 0.2336428165435791 0.74131315946578979
0.64428460597991943 0.24085472524166107 0.74874973297119141
0.76559102535247803 0.24889956414699554 0.75606667995452881
0.88703387975692749 0.25591555237770081 0.76190769672393799
0.15507401525974274 0.35352542996406555 0.73694324493408203
0.28449931740760803 0.35705980658531189 0.74116224050521851
0.40971222519874573 0.35953083634376526 0.74520301818847656
0.53272175788879395 0.36414775252342224 0.75113081932067871
0.65482825040817261 0.37164613604545593 0.75881350040435791
0.7765573263168335 0.37996071577072144 0.76681232452392578
0.89836066961288452 0.38772913813591003 0.77355647087097168
0.16836343705654144 0.48598688840866089 0.74931508302688599
0.29598560929298401 0.49001306295394897 0.75333720445632935
0.41999134421348572 0.49342566728591919 0.75730949640274048
0.54291051626205444 0.49844497442245483 0.76311415433883667
0.66548126935958862 0.5055127739906311 0.77032458782196045
0.78770118951797485 0.51357132196426392 0.77827936410903931
0.90970867872238159 0.5214000940322876 0.78522467613220215
0.1817220002412796 0.62069636583328247 0.76206302642822266
0.30746716260910034 0.62567412853240967 0.76645863056182861
0.43013504147529602 0.63024318218231201 0.77067047357559204
0.55367010831832886 0.63572961091995239 0.77621328830718994
0.67684108018875122 0.64246058464050293 0.78297680616378784
0.79932862520217896 0.64994531869888306 0.79037988185882568
0.9213377833366394 0.65720611810684204 0.79700601100921631
0.19465093314647675 0.75729858875274658 0.77460569143295288
0.320208340883255 0.76317077875137329 0.78010064363479614
0.44231078028678894 0.76869732141494751 0.78482520580291748
0.56571978330612183 0.77457094192504883 0.79032808542251587
0.68885236978530884 0.78112280368804932 0.79637795686721802
0.81121921539306641 0.78791862726211548 0.80298757553100586
0.93263620138168335 0.79457294940948486 0.80841243267059326
0.2050982266664505 0.89515590667724609 0.7855151891708374
0.33239889144897461 0.90186166763305664 0.79247748851776123
0.45558366179466248 0.90810000896453857 0.79826575517654419
0.57822436094284058 0.91428041458129883 0.803841233253479
0.70050787925720215 0.92071056365966797 0.80936145782470703
0.82212281227111816 0.92710655927658081 0.81465405225753784
0.94298791885375977 0.93321096897125244 0.81802481412887573
0.12205351144075394 0.091405011713504791 0.83315634727478027
0.25572821497917175 0.096146650612354279 0.84047573804855347
0.38379546999931335 0.098990283906459808 0.8466184139251709
0.50874572992324829 0.10379991680383682 0.85313844680786133
0.63191652297973633 0.11100320518016815 0.86003738641738892
0.75382369756698608 0.11899722367525101 0.86614066362380981
0.87467145919799805 0.12510405480861664 0.87039971351623535
0.13983908295631409 0.22395993769168854 0.84618937969207764
0.2719801664352417 0.22750283777713776 0.85218089818954468
0.39881235361099243 0.22941590845584869 0.85705691576004028
0.52290266752243042 0.23420991003513336 0.86322039365768433
0.64553844928741455 0.24239380657672882 0.87089192867279053
0.76762622594833374 0.25151342153549194 0.87823778390884399
0.88848894834518433 0.25851428508758545 0.88389420509338379
0.15433265268802643 0.3550809919834137 0.85828441381454468
0.28480806946754456 0.35839545726776123 0.863250732421875
0.41077488660812378 0.35997045040130615 0.86761420965194702
0.53442966938018799 0.36477810144424438 0.87357920408248901
0.65715563297271729 0.37367668747901917 0.88179117441177368
0.77930378913879395 0.38291862607002258 0.8897252082824707
0.90068536996841431 0.39069291949272156 0.8961300253868103
0.16747625172138214 0.48767521977424622 0.87045121192932129
0.29652249813079834 0.49176540970802307 0.87542527914047241
0.42143073678016663 0.4947434663772583 0.88000321388244629
0.54499167203903198 0.49997338652610779 0.88603335618972778
0.6679655909538269 0.50778877735137939 0.89375221729278564
0.79029369354248047 0.51627159118652344 0.90174859762191772
0.91199374198913574 0.52402818202972412 0.90826267004013062
0.18041980266571045 0.62242805957794189 0.88267731666564941
0.30809026956558228 0.62744724750518799 0.88815510272979736
0.43189314007759094 0.63197076320648193 0.89324724674224854
0.5554882287979126 0.63756275177001953 0.89945524930953979
0.67871403694152832 0.64448565244674683 0.90671819448471069
0.80116128921508789 0.65201956033706665 0.91429376602172852
0.92296069860458374 0.65921330451965332 0.9204636812210083
0.19299750030040741 0.75871402025222778 0.89440798759460449
0.32011830806732178 0.76474618911743164 0.9008861780166626
0.44331049919128418 0.77034598588943481 0.90661853551864624
0.56660479307174683 0.77630394697189331 0.91306823492050171
0.68965619802474976 0.78277462720870972 0.91995531320571899
0.81195640563964844 0.78940850496292114 0.92689722776412964
0.93313300609588623 0.79583060741424561 0.93209433555603027
0.20284445583820343 0.89610332250595093 0.90453416109085083
0.33087655901908875 0.90302950143814087 0.91253173351287842
0.45450320839881897 0.90949875116348267 0.91935300827026367
0.57734048366546631 0.91577720642089844 0.92577636241912842
0.69978076219558716 0.92197877168655396 0.93220692873001099
0.82128250598907471 0.92803210020065308 0.93803679943084717
0.94197326898574829 0.93374878168106079 0.94168394804000854
