assets/lut/creative bleachbypass 02.cube
# Created by: G'MIC (https://gmic.eu)
TITLE "bleachbypass_2"
# LUT size
LUT_3D_SIZE 7
# Data domain
DOMAIN_MIN 0.0 0.0 0.0
DOMAIN_MAX 1.0 1.0 1.0
# LUT data points
0.082958295941352844 0.081898212432861328 0.083044834434986115
0.12208817154169083 0.09658089280128479 0.095835126936435699
0.17806081473827362 0.11532790213823318 0.11286145448684692
0.24744908511638641 0.13700427114963531 0.13639119267463684
0.32539865374565125 0.15716898441314697 0.15806764364242554
0.41386139392852783 0.1794808954000473 0.17801553010940552
0.51480770111083984 0.20709845423698425 0.20690630376338959
0.092666164040565491 0.11781385540962219 0.093921497464179993
0.1434042900800705 0.14134477078914642 0.11416494101285934
0.20775805413722992 0.16642025113105774 0.13451722264289856
0.27993577718734741 0.19033624231815338 0.15462040901184082
0.36192387342453003 0.22062952816486359 0.17693619430065155
0.45825028419494629 0.24949733912944794 0.20384959876537323
0.56453627347946167 0.28530097007751465 0.23246690630912781
0.1120184063911438 0.17460247874259949 0.11199565231800079
0.16515263915061951 0.20584207773208618 0.13262626528739929
0.23510052263736725 0.23396375775337219 0.15476179122924805
0.31264171004295349 0.26866060495376587 0.17733182013034821
0.40174245834350586 0.30233076214790344 0.2023407369852066
0.50412225723266602 0.33581265807151794 0.22943636775016785
0.61535739898681641 0.37196621298789978 0.25754046440124512
0.13309553265571594 0.24227724969387054 0.13272233307361603
0.19049552083015442 0.27769380807876587 0.15355020761489868
0.26475700736045837 0.30990564823150635 0.17590762674808502
0.34953206777572632 0.34793275594711304 0.20196764171123505
0.44580405950546265 0.38900840282440186 0.22889328002929688
0.55630326271057129 0.43236100673675537 0.25896212458610535
0.67286139726638794 0.47336074709892273 0.28814706206321716
0.15582244098186493 0.32759740948677063 0.15621489286422729
0.21988527476787567 0.36245405673980713 0.17853446304798126
0.2976478636264801 0.40310165286064148 0.20086874067783356
0.38699144124984741 0.44642910361289978 0.22739382088184357
0.48938113451004028 0.49248874187469482 0.25602978467941284
0.60667556524276733 0.54156935214996338 0.28663909435272217
0.73021507263183594 0.58935940265655518 0.31927940249443054
0.18061859905719757 0.41615882515907288 0.18104022741317749
0.25062775611877441 0.45322009921073914 0.20340242981910706
0.33432969450950623 0.50304323434829712 0.23048323392868042
0.43116006255149841 0.55543041229248047 0.25914743542671204
0.54236364364624023 0.60637432336807251 0.28742113709449768
0.66487795114517212 0.66086184978485107 0.31850561499595642
0.79218584299087524 0.71573954820632935 0.35148173570632935
0.20615485310554504 0.51304095983505249 0.2059067040681839
0.27930843830108643 0.55822914838790894 0.22601032257080078
0.37147036194801331 0.61514765024185181 0.25761586427688599
0.47843441367149353 0.67480266094207764 0.29089266061782837
0.59761291742324829 0.73421931266784668 0.32126256823539734
0.72638094425201416 0.79604536294937134 0.3520151674747467
0.8540949821472168 0.85372781753540039 0.38434579968452454
0.095891334116458893 0.097009517252445221 0.12196740508079529
0.1414831280708313 0.11222343891859055 0.14191330969333649
0.20195783674716949 0.1312841922044754 0.16388647258281708
0.2745017409324646 0.1522657573223114 0.19008710980415344
0.36256104707717896 0.17760521173477173 0.21941637992858887
0.45995858311653137 0.20355029404163361 0.24772851169109344
0.56538909673690796 0.23364834487438202 0.28356003761291504
0.11170818656682968 0.13992947340011597 0.1418127566576004
0.16422021389007568 0.1621711254119873 0.16442915797233582
0.23286642134189606 0.19080242514610291 0.18948347866535187
0.30994501709938049 0.21676228940486908 0.21676823496818542
0.40229856967926025 0.24712161719799042 0.2466617226600647
0.50511926412582397 0.27889057993888855 0.27945101261138916
0.61589556932449341 0.31623223423957825 0.31386178731918335
0.13183183968067169 0.20481680333614349 0.16615435481071472
0.18978118896484375 0.23390591144561768 0.19089888036251068
0.2643808126449585 0.26335892081260681 0.2155614048242569
0.34865763783454895 0.29630804061889648 0.24588866531848907
0.44128644466400146 0.33131164312362671 0.2741273045539856
0.55081325769424438 0.37037602066993713 0.30641826987266541
0.66751086711883545 0.40926089882850647 0.34170782566070557
0.15421861410140991 0.27405551075935364 0.19202893972396851
0.21680068969726562 0.30926841497421265 0.21747849881649017
0.29583662748336792 0.34692516922950745 0.24349747598171234
0.38759100437164307 0.38646218180656433 0.27780252695083618
0.48688873648643494 0.42846786975860596 0.30952638387680054
0.60464322566986084 0.47255834937095642 0.34251141548156738
0.72663801908493042 0.5147625207901001 0.3778897225856781
0.18078230321407318 0.36837407946586609 0.22194553911685944
0.24791769683361053 0.40156427025794983 0.24732163548469543
0.33348339796066284 0.44465574622154236 0.2749960720539093
0.42838332056999207 0.48870152235031128 0.30934372544288635
0.53542047739028931 0.53467971086502075 0.34428101778030396
0.65966612100601196 0.58744233846664429 0.38062527775764465
0.78655540943145752 0.6343885064125061 0.41673919558525085
0.20758472383022308 0.46362960338592529 0.25462114810943604
0.27974173426628113 0.50080323219299316 0.27944827079772949
0.37240174412727356 0.55228376388549805 0.31314906477928162
0.47444581985473633 0.60288268327713013 0.34605196118354797
0.58765286207199097 0.6547844409942627 0.38075795769691467
0.71558433771133423 0.71685308218002319 0.41778987646102905
0.85080701112747192 0.77023208141326904 0.45631664991378784
0.23211915791034698 0.56633442640304565 0.28558605909347534
0.30823299288749695 0.61190426349639893 0.30804628133773804
0.40966364741325378 0.6712302565574646 0.34742218255996704
0.52082151174545288 0.72931158542633057 0.3845667839050293
0.64291417598724365 0.78959077596664429 0.42042481899261475
0.77959257364273071 0.85598397254943848 0.4575047492980957
0.91520959138870239 0.91340368986129761 0.49607843160629272
0.11616842448711395 0.11480359733104706 0.18263848125934601
0.16477033495903015 0.13505718111991882 0.20515164732933044
0.23168076574802399 0.15281237661838531 0.23187689483165741
0.30944520235061646 0.17326037585735321 0.26216340065002441
0.40071403980255127 0.1989281177520752 0.2961277961730957
0.50451666116714478 0.2273319810628891 0.33446165919303894
0.61724996566772461 0.25987765192985535 0.37603431940078735
0.13397812843322754 0.16497877240180969 0.20530353486537933
0.1900748610496521 0.19069354236125946 0.23446221649646759
0.2663276195526123 0.21921269595623016 0.2669411301612854
0.34772908687591553 0.24656875431537628 0.29815912246704102
0.44513782858848572 0.27616727352142334 0.33125519752502441
0.55302780866622925 0.30875501036643982 0.37227371335029602
0.67070502042770386 0.34773033857345581 0.4125983715057373
0.1534942090511322 0.23483385145664215 0.23359309136867523
0.21654130518436432 0.26402124762535095 0.26457139849662781
0.29885578155517578 0.29845893383026123 0.29884195327758789
0.38375800848007202 0.33333906531333923 0.33214595913887024
0.48579868674278259 0.36660328507423401 0.36456352472305298
0.60112321376800537 0.40564188361167908 0.40557298064231873
0.72655868530273438 0.44800651073455811 0.44878083467483521
0.17745725810527802 0.3107333779335022 0.26592424511909485
0.24468450248241425 0.34711411595344543 0.29620158672332764
0.33002457022666931 0.38486537337303162 0.32970958948135376
0.4236195981502533 0.42590907216072083 0.36652731895446777
0.53167110681533813 0.46717536449432373 0.40635454654693604
0.65489977598190308 0.51303970813751221 0.44588452577590942
0.78450578451156616 0.55978691577911377 0.48496350646018982
0.20299768447875977 0.4064023494720459 0.29944714903831482
0.27544674277305603 0.4416249692440033 0.33104410767555237
0.36953377723693848 0.48763561248779297 0.36924675107002258
0.4701196551322937 0.534892737865448 0.40706926584243774
0.58295637369155884 0.58170384168624878 0.44578742980957031
0.71087217330932617 0.63302254676818848 0.4866325855255127
0.84363991022109985 0.68284851312637329 0.52659416198730469
0.23227709531784058 0.50909942388534546 0.34000921249389648
0.31135627627372742 0.5492280125617981 0.37216478586196899
0.41331851482391357 0.6065208911895752 0.41290625929832458
0.51715302467346191 0.65789830684661865 0.4448685348033905
0.63246065378189087 0.7072562575340271 0.48593175411224365
0.76975315809249878 0.76793283224105835 0.5295526385307312
0.9110337495803833 0.82397329807281494 0.57057267427444458
0.26188832521438599 0.62168580293655396 0.37952199578285217
0.34841233491897583 0.67201167345046997 0.4121192991733551
0.45360681414604187 0.7325437068939209 0.45364099740982056
0.56466996669769287 0.78784137964248657 0.49054744839668274
0.68784213066101074 0.84617716073989868 0.53109407424926758
0.83215606212615967 0.91598069667816162 0.57424890995025635
0.97482728958129883 0.97398883104324341 0.61935567855834961
0.13153837621212006 0.13258036971092224 0.24733784794807434
0.19080375134944916 0.15385067462921143 0.27647188305854797
0.26398369669914246 0.17595566809177399 0.30837473273277283
0.34756031632423401 0.19809624552726746 0.3465026319026947
0.44268637895584106 0.2264859527349472 0.38668164610862732
0.55316841602325439 0.25804087519645691 0.43177288770675659
0.67176800966262817 0.2893543541431427 0.47848659753799438
0.15229830145835876 0.19122080504894257 0.27624550461769104
0.21611456573009491 0.21505257487297058 0.30974254012107849
0.29756647348403931 0.24623696506023407 0.34607526659965515
0.38821211457252502 0.27699047327041626 0.38587638735771179
0.49192953109741211 0.31091046333312988 0.42807748913764954
0.60741704702377319 0.34899705648422241 0.47677531838417053
0.7287335991859436 0.38454577326774597 0.52156871557235718
0.17517368495464325 0.26734864711761475 0.30988273024559021
0.24574722349643707 0.29932275414466858 0.34690049290657043
0.33205556869506836 0.33255395293235779 0.38362979888916016
0.4256441593170166 0.36853706836700439 0.42484194040298462
0.53585654497146606 0.40574699640274048 0.46759524941444397
0.65813243389129639 0.44826078414916992 0.51842790842056274
0.78757750988006592 0.49058011174201965 0.56521278619766235
0.20300699770450592 0.34999600052833557 0.34746351838111877
0.27998706698417664 0.38672685623168945 0.38429746031761169
0.36716794967651367 0.42311045527458191 0.42427030205726624
0.46461963653564453 0.46587392687797546 0.46561577916145325
0.58133351802825928 0.5123363733291626 0.51165604591369629
0.70806074142456055 0.5572388768196106 0.55957645177841187
0.84484046697616577 0.60735154151916504 0.60527342557907104
0.22951507568359375 0.44544756412506104 0.39020112156867981
0.3110942542552948 0.48651117086410522 0.42915958166122437
0.40740078687667847 0.53480070829391479 0.46998921036720276
0.51508635282516479 0.58233559131622314 0.51434016227722168
0.6323699951171875 0.63337588310241699 0.55914664268493652
0.76376312971115112 0.68205922842025757 0.60612273216247559
0.90528970956802368 0.73761415481567383 0.65347462892532349
0.25752958655357361 0.5533745288848877 0.43612617254257202
0.34492537379264832 0.59993153810501099 0.47465533018112183
0.44886007905006409 0.65506112575531006 0.51710313558578491
0.56099796295166016 0.71025663614273071 0.55637598037719727
0.68358093500137329 0.76346468925476074 0.60406625270843506
0.82562553882598877 0.82541322708129883 0.65473860502243042
0.96425431966781616 0.88659775257110596 0.70521217584609985
0.28960853815078735 0.67525750398635864 0.48096030950546265
0.38292929530143738 0.72760534286499023 0.51976406574249268
0.49172762036323547 0.78587228059768677 0.56387341022491455
0.60938555002212524 0.8426520824432373 0.60834890604019165
0.74013912677764893 0.90534859895706177 0.65426456928253174
0.88768094778060913 0.96827727556228638 0.7047542929649353
0.99733632802963257 0.99903792142868042 0.75834512710571289
0.15185108780860901 0.15573345124721527 0.32344245910644531
0.21940450370311737 0.18015454709529877 0.3605358898639679
0.30265060067176819 0.20351104438304901 0.40199464559555054
0.3904135525226593 0.22657909989356995 0.44790685176849365
0.49016281962394714 0.25682461261749268 0.49411192536354065
0.60584360361099243 0.28827768564224243 0.54164320230484009
0.72872048616409302 0.317577064037323 0.5903741717338562
0.17695622146129608 0.22074100375175476 0.36010456085205078
0.24823504686355591 0.24782265722751617 0.40276831388473511
0.33479255437850952 0.27788630127906799 0.44436848163604736
0.42980757355690002 0.30831459164619446 0.49136275053024292
0.53684705495834351 0.34480243921279907 0.53818094730377197
0.65920984745025635 0.38328778743743896 0.58847534656524658
0.78438401222229004 0.41580063104629517 0.63410305976867676
0.19958364963531494 0.29737240076065063 0.40309008955955505
0.27643659710884094 0.33567437529563904 0.44634163379669189
0.36829599738121033 0.36927345395088196 0.48686692118644714
0.46810775995254517 0.40534546971321106 0.53441596031188965
0.58119505643844604 0.44456407427787781 0.58073073625564575
0.71293771266937256 0.48926055431365967 0.63700199127197266
0.84737879037857056 0.53075069189071655 0.68778127431869507
0.22750505805015564 0.38836267590522766 0.44489878416061401
0.3122938871383667 0.42965185642242432 0.48856896162033081
0.40753632783889771 0.46743318438529968 0.53356754779815674
0.51174038648605347 0.51205706596374512 0.58244806528091431
0.63315266370773315 0.55574238300323486 0.63334077596664429
0.76622480154037476 0.60455745458602905 0.68516010046005249
0.90819120407104492 0.65446996688842773 0.73539638519287109
0.25707957148551941 0.49185317754745483 0.49131548404693604
0.34576016664505005 0.53570294380187988 0.53707551956176758
0.44589966535568237 0.58044290542602539 0.58264344930648804
0.56079608201980591 0.63315391540527344 0.63188040256500244
0.68227845430374146 0.68328303098678589 0.68361181020736694
0.82055968046188354 0.73515397310256958 0.73684823513031006
0.97214812040328979 0.79029959440231323 0.79129457473754883
0.28726142644882202 0.60718435049057007 0.53934311866760254
0.38078412413597107 0.65701287984848022 0.58491313457489014
0.4868207573890686 0.70654964447021484 0.6322670578956604
0.60680156946182251 0.76466375589370728 0.68051034212112427
0.7354317307472229 0.81918948888778687 0.7354317307472229
0.88753843307495117 0.88695210218429565 0.78870874643325806
0.99853193759918213 0.94419604539871216 0.84995734691619873
0.31813445687294006 0.73334813117980957 0.59069371223449707
0.41594859957695007 0.78658205270767212 0.63513195514678955
0.52786374092102051 0.84487795829772949 0.68296009302139282
0.65486246347427368 0.90663063526153564 0.73783159255981445
0.79207664728164673 0.97059565782546997 0.78995883464813232
0.94449633359909058 0.99793720245361328 0.85112690925598145
1 1 0.91132819652557373
0.17851166427135468 0.17940466105937958 0.4132479727268219
0.25205418467521667 0.20476588606834412 0.45890337228775024
0.33762082457542419 0.22878409922122955 0.50763630867004395
0.43054959177970886 0.25638508796691895 0.55793792009353638
0.53635060787200928 0.28913447260856628 0.6090627908706665
0.66042560338973999 0.31848573684692383 0.66353845596313477
0.79052573442459106 0.34800940752029419 0.71822595596313477
0.20347893238067627 0.25084680318832397 0.45611727237701416
0.27975976467132568 0.27828237414360046 0.50456583499908447
0.37280920147895813 0.308269202709198 0.55362999439239502
0.47414565086364746 0.34600859880447388 0.60618019104003906
0.58417493104934692 0.38145872950553894 0.65775096416473389
0.71129190921783447 0.41457369923591614 0.71209847927093506
0.84360533952713013 0.44964060187339783 0.7650446891784668
0.22839419543743134 0.33519813418388367 0.50552332401275635
0.30782008171081543 0.37239748239517212 0.55429601669311523
0.4081246554851532 0.40752053260803223 0.60290217399597168
0.51682454347610474 0.44590812921524048 0.65729773044586182
0.63304281234741211 0.48683446645736694 0.71161502599716187
0.76956403255462646 0.52881968021392822 0.77217960357666016
0.90802484750747681 0.57066565752029419 0.82914847135543823
0.2579745352268219 0.43022936582565308 0.55513185262680054
0.34438708424568176 0.47266358137130737 0.60577869415283203
0.44656434655189514 0.51333200931549072 0.65627682209014893
0.55710881948471069 0.55687731504440308 0.71053671836853027
0.68172788619995117 0.60515868663787842 0.76909428834915161
0.82606703042984009 0.65655326843261719 0.82986897230148315
0.965118408203125 0.70478552579879761 0.88511902093887329
0.28694248199462891 0.53985863924026489 0.60773122310638428
0.37865650653839111 0.58628922700881958 0.65767663717269897
0.48428058624267578 0.63079005479812622 0.70953238010406494
0.60461705923080444 0.68247693777084351 0.76491290330886841
0.73332327604293823 0.73571324348449707 0.82362854480743408
0.88200312852859497 0.79135000705718994 0.88377195596694946
0.99597609043121338 0.84938246011734009 0.93897920846939087
0.31908074021339417 0.66202741861343384 0.66223812103271484
0.41764065623283386 0.71467238664627075 0.71231091022491455
0.52779179811477661 0.76553529500961304 0.76520842313766479
0.65535956621170044 0.82313305139541626 0.82363086938858032
0.78977036476135254 0.8878597617149353 0.88864296674728394
0.95157414674758911 0.94933962821960449 0.94850796461105347
1 0.99090731143951416 0.98821675777435303
0.34889939427375793 0.7934335470199585 0.71853721141815186
0.45089170336723328 0.84680944681167603 0.76965630054473877
0.57228249311447144 0.90822887420654297 0.8230893611907959
0.70781564712524414 0.96900337934494019 0.88433104753494263
0.84917789697647095 0.9984247088432312 0.94856142997741699
0.98932546377182007 1 0.98543179035186768
1 0.99957776069641113 0.99971878528594971
0.20773942768573761 0.20619744062423706 0.51447343826293945
0.28487199544906616 0.23275002837181091 0.5663871169090271
0.37145799398422241 0.257489413022995 0.61961597204208374
0.47031247615814209 0.2840765118598938 0.67382502555847168
0.58497309684753418 0.3167470395565033 0.72990334033966064
0.71634066104888916 0.34872278571128845 0.79126495122909546
0.8516269326210022 0.38276821374893188 0.8516269326210022
0.23331461846828461 0.28239321708679199 0.56573194265365601
0.31466290354728699 0.3110041618347168 0.61666452884674072
0.40795108675956726 0.34427973628044128 0.6698334813117981
0.51410996913909912 0.38033303618431091 0.72716313600540161
0.63140100240707397 0.41469347476959229 0.78334242105484009
0.76483374834060669 0.44966354966163635 0.8443068265914917
0.90166091918945312 0.48833641409873962 0.90305811166763306
0.25969389081001282 0.37645813822746277 0.61966753005981445
0.345846027135849 0.41067579388618469 0.67096459865570068
0.44727849960327148 0.45062956213951111 0.72526520490646362
0.56175917387008667 0.49140450358390808 0.78699171543121338
0.68582165241241455 0.53093677759170532 0.84896731376647949
0.8257642388343811 0.5716899037361145 0.91205912828445435
0.9620022177696228 0.61468756198883057 0.96745043992996216
0.28906801342964172 0.47582834959030151 0.67453974485397339
0.37997975945472717 0.51762986183166504 0.72956514358520508
0.48490884900093079 0.56234288215637207 0.78626304864883423
0.60319900512695312 0.60853952169418335 0.84797960519790649
0.73406410217285156 0.65626984834671021 0.91490083932876587
0.88343781232833862 0.7068028450012207 0.97100025415420532
0.99763786792755127 0.75430941581726074 0.99900645017623901
0.3187372088432312 0.58944010734558105 0.7320970892906189
0.41554886102676392 0.63518363237380981 0.78723001480102539
0.52507656812667847 0.68547701835632324 0.84446167945861816
0.65203547477722168 0.73842370510101318 0.90503764152526855
0.78822082281112671 0.79063814878463745 0.96976858377456665
0.9454001784324646 0.84951174259185791 0.99427503347396851
1 0.90323835611343384 1
0.35168907046318054 0.71903145313262939 0.79464840888977051
0.45647802948951721 0.77079737186431885 0.85011929273605347
0.57194709777832031 0.82535094022750854 0.90757691860198975
0.70664781332015991 0.88480782508850098 0.96852511167526245
0.85065919160842896 0.94364392757415771 0.99780261516571045
0.98614919185638428 0.99170660972595215 0.99971061944961548
0.99847143888473511 1 0.99774229526519775
0.38376608490943909 0.85295087099075317 0.85294860601425171
0.49597340822219849 0.91006606817245483 0.90925091505050659
0.62261587381362915 0.96719753742218018 0.96413612365722656
0.76312440633773804 0.9968758225440979 0.99632799625396729
0.91200989484786987 1 1
0.99985891580581665 0.9995846152305603 0.99804025888442993
0.99949514865875244 0.99935245513916016 0.99882924556732178
