assets/lut/creative tensiongreen 01.cube
# Created by: G'MIC (https://gmic.eu)
TITLE "tensiongreen_1"
# LUT size
LUT_3D_SIZE 7
# Data domain
DOMAIN_MIN 0.0 0.0 0.0
DOMAIN_MAX 1.0 1.0 1.0
# LUT data points
0.0055803935974836349 0.049866933375597 0.052505388855934143
0.12402123957872391 0.065937474370002747 0.048345077782869339
0.28621077537536621 0.071428023278713226 0.028414288535714149
0.42696431279182434 0.073528289794921875 0.01691780798137188
0.57705855369567871 0.091602057218551636 0.016598450019955635
0.73407477140426636 0.089267298579216003 0.011564471758902073
0.89764297008514404 0.046362094581127167 0.018512336537241936
0.033187702298164368 0.17034146189689636 0.06405600905418396
0.1337655633687973 0.18628202378749847 0.026474388316273689
0.28578394651412964 0.18376964330673218 0.0095872916281223297
0.43576356768608093 0.19075115025043488 0.0063598332926630974
0.58919119834899902 0.20015272498130798 0.0053903916850686073
0.73039209842681885 0.21048782765865326 0.0056956270709633827
0.8966439962387085 0.19537501037120819 0.01232172641903162
0.081312753260135651 0.31609892845153809 0.073767945170402527
0.14387179911136627 0.32469430565834045 0.031985115259885788
0.25926125049591064 0.33997887372970581 0.016750065609812737
0.4020218551158905 0.35024121403694153 0.0099260220304131508
0.57830655574798584 0.34626764059066772 0.0014052746118977666
0.75587821006774902 0.32979366183280945 0.00037466309731826186
0.93414705991744995 0.31607109308242798 0.0010140362428501248
0.1706654280424118 0.46113544702529907 0.11654015630483627
0.20682775974273682 0.46353793144226074 0.072047308087348938
0.2929750382900238 0.47470632195472717 0.039303425699472427
0.403585284948349 0.48910290002822876 0.049600981175899506
0.55371320247650146 0.4998106062412262 0.038951441645622253
0.73033571243286133 0.49663776159286499 0.0082351686432957649
0.92507541179656982 0.47653797268867493 0.0029378104954957962
0.28386780619621277 0.60670429468154907 0.2085883617401123
0.30869939923286438 0.61262774467468262 0.17813731729984283
0.37326139211654663 0.61987918615341187 0.13390913605690002
0.47013521194458008 0.63302862644195557 0.13689154386520386
0.58102875947952271 0.64323312044143677 0.14630340039730072
0.72602665424346924 0.65117341279983521 0.1383824497461319
0.89546024799346924 0.65118390321731567 0.081363946199417114
0.40080568194389343 0.74843770265579224 0.30321037769317627
0.42029982805252075 0.75115925073623657 0.28250834345817566
0.46549803018569946 0.76029890775680542 0.2437141090631485
0.54288727045059204 0.77260845899581909 0.21923770010471344
0.64935201406478882 0.77950859069824219 0.22844785451889038
0.76065564155578613 0.79358780384063721 0.24992352724075317
0.89958572387695312 0.794211745262146 0.24738375842571259
0.52178359031677246 0.89441978931427002 0.41099950671195984
0.53244519233703613 0.89769697189331055 0.39262107014656067
0.56826615333557129 0.90542209148406982 0.35669782757759094
0.62906986474990845 0.9113839864730835 0.31655421853065491
0.72137326002120972 0.92075586318969727 0.30995556712150574
0.82293456792831421 0.92940479516983032 0.32188901305198669
0.93488669395446777 0.94068223237991333 0.34110242128372192
0.0042523401789367199 0.063551418483257294 0.10799504071474075
0.079052284359931946 0.098279155790805817 0.11872740834951401
0.17825707793235779 0.15103080868721008 0.1346423476934433
0.31391292810440063 0.18225623667240143 0.1419416069984436
0.49534216523170471 0.19932730495929718 0.14119409024715424
0.66945993900299072 0.19126239418983459 0.140501469373703
0.85689324140548706 0.15450932085514069 0.15202109515666962
0.046510376036167145 0.17579823732376099 0.13261967897415161
0.10961848497390747 0.18901841342449188 0.13308057188987732
0.23453442752361298 0.2077784538269043 0.12419269233942032
0.37372830510139465 0.22721701860427856 0.12702076137065887
0.54187417030334473 0.23720353841781616 0.12142781168222427
0.70409983396530151 0.24236145615577698 0.12911798059940338
0.8798711895942688 0.21748143434524536 0.14110963046550751
0.11753000319004059 0.31784647703170776 0.16426117718219757
0.14722228050231934 0.32573896646499634 0.14718888700008392
0.25198403000831604 0.34413406252861023 0.11931613087654114
0.40017667412757874 0.35119861364364624 0.082345969974994659
0.57105064392089844 0.35452264547348022 0.065941378474235535
0.7338334321975708 0.35235628485679626 0.069650955498218536
0.89759010076522827 0.3543427586555481 0.11163865774869919
0.19558168947696686 0.4533875584602356 0.21108108758926392
0.20980992913246155 0.4621480405330658 0.18665085732936859
0.28826317191123962 0.47745341062545776 0.14451922476291656
0.39552035927772522 0.49090546369552612 0.14005278050899506
0.5537833571434021 0.50085121393203735 0.11299841105937958
0.73388218879699707 0.49575909972190857 0.063236773014068604
0.92037194967269897 0.482585608959198 0.044833838939666748
0.29549169540405273 0.60581833124160767 0.2771642804145813
0.32046458125114441 0.60973268747329712 0.26532909274101257
0.36572527885437012 0.62104922533035278 0.22235773503780365
0.45393311977386475 0.63291913270950317 0.2051955908536911
0.57695215940475464 0.64567053318023682 0.21571294963359833
0.71875059604644775 0.65162080526351929 0.20747140049934387
0.89363431930541992 0.64926445484161377 0.16447630524635315
0.40634050965309143 0.74815136194229126 0.36578422784805298
0.4276731014251709 0.75188708305358887 0.35745897889137268
0.46443691849708557 0.76287257671356201 0.32239422202110291
0.53543758392333984 0.77215898036956787 0.28581315279006958
0.64048534631729126 0.78105074167251587 0.28263649344444275
0.75248885154724121 0.79122447967529297 0.29741081595420837
0.88763749599456787 0.80080783367156982 0.3005622923374176
0.52718096971511841 0.89269226789474487 0.4533940851688385
0.53661340475082397 0.89640611410140991 0.44774577021598816
0.57300156354904175 0.90120500326156616 0.41641959547996521
0.62281960248947144 0.91323560476303101 0.38016098737716675
0.71492069959640503 0.92045676708221436 0.35454836487770081
0.81611508131027222 0.93140441179275513 0.36804422736167908
0.93400090932846069 0.94445276260375977 0.38807255029678345
0.029203586280345917 0.090094819664955139 0.16304944455623627
0.087474733591079712 0.11600776761770248 0.17026479542255402
0.17478804290294647 0.16918177902698517 0.18670335412025452
0.2544519305229187 0.22678564488887787 0.20204931497573853
0.36308568716049194 0.29497429728507996 0.22546699643135071
0.5207219123840332 0.33284133672714233 0.25641393661499023
0.71282303333282471 0.35443270206451416 0.29297938942909241
0.062076807022094727 0.1837107390165329 0.18446798622608185
0.11002326011657715 0.20172345638275146 0.19000917673110962
0.19007302820682526 0.23182162642478943 0.19843032956123352
0.27282732725143433 0.28249943256378174 0.2146001011133194
0.39881658554077148 0.32785531878471375 0.23848135769367218
0.56231093406677246 0.35531902313232422 0.263222336769104
0.75603818893432617 0.36787813901901245 0.29409459233283997
0.13374324142932892 0.32008680701255798 0.21079546213150024
0.16843709349632263 0.33219531178474426 0.21518947184085846
0.23222336173057556 0.35265859961509705 0.22554905712604523
0.34889408946037292 0.36963567137718201 0.22988592088222504
0.50443476438522339 0.38789516687393188 0.24654246866703033
0.662464439868927 0.40122818946838379 0.26626783609390259
0.83604371547698975 0.40940219163894653 0.29155835509300232
0.21899139881134033 0.4555911123752594 0.26829075813293457
0.24398192763328552 0.46325647830963135 0.27271464467048645
0.29392758011817932 0.48075321316719055 0.26851052045822144
0.38225206732749939 0.49555256962776184 0.2514241635799408
0.55050623416900635 0.50181102752685547 0.23927274346351624
0.72250765562057495 0.50558555126190186 0.24362462759017944
0.89270281791687012 0.50721561908721924 0.26766866445541382
0.33607810735702515 0.60330605506896973 0.36242669820785522
0.35143056511878967 0.60577231645584106 0.36496514081954956
0.37978479266166687 0.62276721000671387 0.34679907560348511
0.44805878400802612 0.63546657562255859 0.31264683604240417
0.56481295824050903 0.65034067630767822 0.31319746375083923
0.71073925495147705 0.65795165300369263 0.30504518747329712
0.8984372615814209 0.65278321504592896 0.27185878157615662
0.44978684186935425 0.7411988377571106 0.45853710174560547
0.45821651816368103 0.74584746360778809 0.45347225666046143
0.47624710202217102 0.7591363787651062 0.43048447370529175
0.52808535099029541 0.77252572774887085 0.39670750498771667
0.62921667098999023 0.78297585248947144 0.37037220597267151
0.74032676219940186 0.79538464546203613 0.38307148218154907
0.88308447599411011 0.80461180210113525 0.3804875910282135
0.55934679508209229 0.8886445164680481 0.54707753658294678
0.56252741813659668 0.8915020227432251 0.53419119119644165
0.58073240518569946 0.90107423067092896 0.51398903131484985
0.62430280447006226 0.91170167922973633 0.48303511738777161
0.70045751333236694 0.92515736818313599 0.43812102079391479
0.80701005458831787 0.93546938896179199 0.44472649693489075
0.91878652572631836 0.94161629676818848 0.46293461322784424
0.072479367256164551 0.11823675036430359 0.21169710159301758
0.11376145482063293 0.14348417520523071 0.2215612530708313
0.18354426324367523 0.18799890577793121 0.2328486293554306
0.26492792367935181 0.24249148368835449 0.25170829892158508
0.3566754162311554 0.31110483407974243 0.27703708410263062
0.45141106843948364 0.38040587306022644 0.30680736899375916
0.57868868112564087 0.44275224208831787 0.35762333869934082
0.090686723589897156 0.20154161751270294 0.23145981132984161
0.1259625107049942 0.21855966746807098 0.23837833106517792
0.19801613688468933 0.25224161148071289 0.24958579242229462
0.28092378377914429 0.29753974080085754 0.26762223243713379
0.37138441205024719 0.35486686229705811 0.28933203220367432
0.46901789307594299 0.41167616844177246 0.32087567448616028
0.60851407051086426 0.46124505996704102 0.37259113788604736
0.1496146023273468 0.32994204759597778 0.26657232642173767
0.1837899386882782 0.34678292274475098 0.27231493592262268
0.2343478798866272 0.3683239221572876 0.28267475962638855
0.31431028246879578 0.39630475640296936 0.29670447111129761
0.40803173184394836 0.43407627940177917 0.3236040472984314
0.52609336376190186 0.47292819619178772 0.35785314440727234
0.69608920812606812 0.50233495235443115 0.40502452850341797
0.23610039055347443 0.4638155996799469 0.31347036361694336
0.26161414384841919 0.47272756695747375 0.31971672177314758
0.30743157863616943 0.48822599649429321 0.33833432197570801
0.37203800678253174 0.51070833206176758 0.34900182485580444
0.49871304631233215 0.52368271350860596 0.36148205399513245
0.65243732929229736 0.53806442022323608 0.39107352495193481
0.8123706579208374 0.54958289861679077 0.41618311405181885
0.34962478280067444 0.60396838188171387 0.40719172358512878
0.36510622501373291 0.61064344644546509 0.41441136598587036
0.40458583831787109 0.6180955171585083 0.42238613963127136
0.45468392968177795 0.63736814260482788 0.42320844531059265
0.55788660049438477 0.65687578916549683 0.40849801898002625
0.70955544710159302 0.66256749629974365 0.3996632993221283
0.89133071899414062 0.66026347875595093 0.39607501029968262
0.47109434008598328 0.73870676755905151 0.50956618785858154
0.48525610566139221 0.74463284015655518 0.51599431037902832
0.5101509690284729 0.7531508207321167 0.5187494158744812
0.54524260759353638 0.76938015222549438 0.50618249177932739
0.6204063892364502 0.78909826278686523 0.47678545117378235
0.73005521297454834 0.80260789394378662 0.47734487056732178
0.88195246458053589 0.80767035484313965 0.46706703305244446
0.58724308013916016 0.8817628026008606 0.61454451084136963
0.59855413436889648 0.88368600606918335 0.61589008569717407
0.61451882123947144 0.8941953182220459 0.61494499444961548
0.63789659738540649 0.90917634963989258 0.59133350849151611
0.6991811990737915 0.92489969730377197 0.5543593168258667
0.79569894075393677 0.939983069896698 0.5329708456993103
0.90990418195724487 0.95092171430587769 0.5454401969909668
0.11037813127040863 0.15318237245082855 0.26610484719276428
0.14501948654651642 0.1735105961561203 0.27321347594261169
0.20040610432624817 0.2126929759979248 0.28511568903923035
0.27758675813674927 0.26320841908454895 0.30828177928924561
0.36733314394950867 0.32492950558662415 0.33085119724273682
0.46050876379013062 0.39299136400222778 0.36463364958763123
0.56252318620681763 0.46213814616203308 0.41082596778869629
0.12941543757915497 0.22608545422554016 0.28867152333259583
0.15857309103012085 0.2399991899728775 0.2914644181728363
0.21584156155586243 0.26825436949729919 0.30361220240592957
0.29147392511367798 0.31321117281913757 0.32070526480674744
0.38139230012893677 0.36291873455047607 0.34461849927902222
0.47525304555892944 0.4207802414894104 0.37763553857803345
0.57714587450027466 0.4883151650428772 0.42574009299278259
0.17063207924365997 0.34648245573043823 0.31935209035873413
0.19624030590057373 0.35888001322746277 0.32728150486946106
0.24998049437999725 0.37852585315704346 0.3373793363571167
0.32366183400154114 0.41044434905052185 0.35557204484939575
0.41100570559501648 0.4477100670337677 0.3809359073638916
0.50407212972640991 0.49342659115791321 0.41574558615684509
0.60932803153991699 0.54623901844024658 0.45977449417114258
0.24589107930660248 0.4731299877166748 0.37534132599830627
0.2713736891746521 0.48276573419570923 0.38227921724319458
0.31227141618728638 0.49479889869689941 0.3930223286151886
0.36812469363212585 0.51796621084213257 0.41059625148773193
0.46118837594985962 0.54670906066894531 0.4355931282043457
0.55343514680862427 0.58246356248855591 0.46820339560508728
0.66758501529693604 0.61822992563247681 0.50954878330230713
0.36350998282432556 0.61075210571289062 0.45251014828681946
0.38326224684715271 0.61799454689025879 0.4582526683807373
0.41935798525810242 0.62516796588897705 0.46704414486885071
0.47190648317337036 0.64351511001586914 0.48587134480476379
0.54114633798599243 0.66535598039627075 0.50799506902694702
0.66669636964797974 0.68403220176696777 0.53075182437896729
0.81198412179946899 0.69752371311187744 0.55922234058380127
0.48184454441070557 0.74776303768157959 0.55469685792922974
0.49747499823570251 0.75046706199645996 0.55817300081253052
0.52280783653259277 0.75737595558166504 0.56871181726455688
0.56607282161712646 0.7692757248878479 0.57776868343353271
0.62501621246337891 0.79116684198379517 0.5868569016456604
0.71844345331192017 0.80811703205108643 0.57431387901306152
0.87630689144134521 0.81487160921096802 0.56832295656204224
0.60192608833312988 0.8872382640838623 0.66513717174530029
0.61103975772857666 0.88898873329162598 0.66541475057601929
0.63426017761230469 0.89529377222061157 0.67300242185592651
0.67158180475234985 0.90208393335342407 0.67941594123840332
0.71319615840911865 0.9247359037399292 0.67414438724517822
0.78198397159576416 0.94148540496826172 0.63834840059280396
0.90051925182342529 0.95464396476745605 0.64777618646621704
0.15474529564380646 0.19055318832397461 0.32098487019538879
0.17613512277603149 0.20530915260314941 0.32966110110282898
0.22816808521747589 0.24135857820510864 0.34081819653511047
0.29278388619422913 0.29085460305213928 0.36063820123672485
0.3841288685798645 0.34454828500747681 0.38862806558609009
0.4703599214553833 0.40649470686912537 0.42341813445091248
0.57129329442977905 0.47349268198013306 0.46746513247489929
0.16709567606449127 0.25252354145050049 0.34003636240959167
0.19136615097522736 0.26726365089416504 0.34565675258636475
0.24236176908016205 0.29717805981636047 0.35895219445228577
0.30513986945152283 0.33249533176422119 0.37573066353797913
0.3956305980682373 0.38446572422981262 0.40518587827682495
0.48550480604171753 0.43738076090812683 0.44064581394195557
0.58793848752975464 0.50030827522277832 0.48403245210647583
0.20134654641151428 0.36773666739463806 0.37868472933769226
0.2244841605424881 0.37503355741500854 0.38021022081375122
0.27824556827545166 0.39591369032859802 0.39572292566299438
0.33926424384117126 0.4222949743270874 0.41207718849182129
0.42256271839141846 0.46217805147171021 0.44388684630393982
0.5160401463508606 0.5060533881187439 0.47629693150520325
0.61952406167984009 0.55731105804443359 0.51836949586868286
0.27063196897506714 0.48755577206611633 0.43638840317726135
0.28778928518295288 0.49662381410598755 0.44231387972831726
0.33010682463645935 0.51037192344665527 0.45187494158744812
0.39152339100837708 0.53275680541992188 0.47527462244033813
0.4713364839553833 0.56159812211990356 0.49650344252586365
0.56707227230072021 0.59323912858963013 0.52630531787872314
0.65864545106887817 0.63246268033981323 0.56352001428604126
0.38102841377258301 0.61934244632720947 0.51258176565170288
0.39680930972099304 0.6255112886428833 0.51797628402709961
0.43042713403701782 0.63318336009979248 0.52840816974639893
0.47848036885261536 0.65266019105911255 0.54577958583831787
0.54170912504196167 0.67614704370498657 0.57047092914581299
0.62564516067504883 0.70133966207504272 0.59512436389923096
0.72190874814987183 0.73425638675689697 0.62964355945587158
0.49808475375175476 0.75409799814224243 0.60290956497192383
0.51523745059967041 0.75423282384872437 0.60145610570907593
0.53540241718292236 0.76169866323471069 0.61152428388595581
0.57793122529983521 0.77529525756835938 0.62456983327865601
0.62969613075256348 0.79425019025802612 0.64954882860183716
0.70105177164077759 0.81673884391784668 0.66434323787689209
0.82278281450271606 0.83513164520263672 0.68904602527618408
0.61154043674468994 0.89248377084732056 0.70985311269760132
0.62326085567474365 0.89439761638641357 0.71238094568252563
0.64682239294052124 0.89789319038391113 0.71704292297363281
0.68401807546615601 0.90815496444702148 0.72792595624923706
0.73224031925201416 0.92207080125808716 0.74576842784881592
0.78543543815612793 0.94453966617584229 0.75013118982315063
0.89999794960021973 0.96109658479690552 0.75013744831085205
0.19539079070091248 0.2280760258436203 0.37983506917953491
0.2192426472902298 0.24378392100334167 0.38967317342758179
0.26304107904434204 0.27866539359092712 0.39972802996635437
0.31733861565589905 0.31493997573852539 0.42145818471908569
0.39867278933525085 0.36789891123771667 0.44425946474075317
0.48877006769180298 0.42413294315338135 0.4825626015663147
0.58748000860214233 0.4883882999420166 0.53580302000045776
0.21103432774543762 0.28189957141876221 0.39582118391990662
0.23072409629821777 0.2983853816986084 0.40501374006271362
0.27667474746704102 0.32021719217300415 0.41620740294456482
0.33214476704597473 0.35958117246627808 0.43599995970726013
0.41149657964706421 0.40422198176383972 0.46082723140716553
0.5032392144203186 0.45336788892745972 0.50135546922683716
0.60541629791259766 0.51805371046066284 0.55197769403457642
0.23910030722618103 0.38581562042236328 0.43468308448791504
0.2607477605342865 0.39228487014770508 0.44206812977790833
0.30965146422386169 0.41380631923675537 0.45335036516189575
0.36599838733673096 0.44037738442420959 0.47378915548324585
0.44228681921958923 0.4777006208896637 0.50076359510421753
0.53483057022094727 0.51879608631134033 0.53695356845855713
0.63033145666122437 0.57011312246322632 0.58136874437332153
0.29486826062202454 0.50381255149841309 0.49284610152244568
0.31101787090301514 0.50465840101242065 0.49934089183807373
0.35235542058944702 0.52145135402679443 0.51029956340789795
0.4120936393737793 0.54293054342269897 0.53236848115921021
0.4855964183807373 0.57014220952987671 0.55753940343856812
0.57459914684295654 0.60399091243743896 0.58891081809997559
0.66650933027267456 0.64242124557495117 0.6227409839630127
0.4016384482383728 0.63217270374298096 0.58278369903564453
0.41358101367950439 0.63857394456863403 0.58619058132171631
0.44377624988555908 0.64481228590011597 0.59097039699554443
0.49591851234436035 0.66363537311553955 0.60844320058822632
0.55681031942367554 0.68538892269134521 0.62916696071624756
0.63468605279922485 0.71481704711914062 0.65768826007843018
0.72172260284423828 0.74146091938018799 0.68754738569259644
0.50875729322433472 0.76229000091552734 0.6651192307472229
0.5219728946685791 0.76379770040512085 0.66880792379379272
0.54986697435379028 0.77337121963500977 0.67691636085510254
0.58828592300415039 0.78354716300964355 0.68724989891052246
0.64010190963745117 0.80259412527084351 0.70771151781082153
0.70281755924224854 0.82562935352325439 0.73305970430374146
0.79001122713088989 0.85387164354324341 0.7612650990486145
0.62924963235855103 0.89921236038208008 0.75451570749282837
0.64061903953552246 0.90076720714569092 0.76119571924209595
0.66371428966522217 0.90915411710739136 0.76731282472610474
0.6986767053604126 0.91833740472793579 0.77796542644500732
0.74630057811737061 0.92987477779388428 0.79589164257049561
0.79758661985397339 0.94887596368789673 0.81501460075378418
0.9054332971572876 0.96994388103485107 0.88184165954589844
