assets/lut/creative anime.cube
# Created by: G'MIC (https://gmic.eu)
TITLE "anime"
# LUT size
LUT_3D_SIZE 13
# Data domain
DOMAIN_MIN 0.0 0.0 0.0
DOMAIN_MAX 1.0 1.0 1.0
# LUT data points
0.0775742307305336 0.034832194447517395 0.0053431643173098564
0.13090848922729492 0.041081298142671585 0.0026403539814054966
0.18620386719703674 0.061182793229818344 0.0050532622262835503
0.24687348306179047 0.088066607713699341 0.01126397866755724
0.30077964067459106 0.11193178594112396 0.012717647477984428
0.3549858033657074 0.14266757667064667 0.023542875424027443
0.41087689995765686 0.17542797327041626 0.041257116943597794
0.47200512886047363 0.20892290771007538 0.05921897292137146
0.52998733520507812 0.24336440861225128 0.080286420881748199
0.58831369876861572 0.28021013736724854 0.10541471838951111
0.64946424961090088 0.31821313500404358 0.13126534223556519
0.71818828582763672 0.35943681001663208 0.16068212687969208
0.78392273187637329 0.39794832468032837 0.1903776228427887
0.033852372318506241 0.11210485547780991 0.0027078664861619473
0.12915425002574921 0.097165502607822418 0.0035766002256423235
0.19288869202136993 0.11414393782615662 0.014454620890319347
0.24977110326290131 0.13403819501399994 0.024490909650921822
0.30405551195144653 0.15584301948547363 0.034984856843948364
0.35622242093086243 0.18105006217956543 0.052032873034477234
0.40757918357849121 0.20790301263332367 0.069525308907032013
0.47175818681716919 0.23847673833370209 0.086144901812076569
0.53125876188278198 0.27141106128692627 0.10699298232793808
0.59069961309432983 0.30435001850128174 0.12881064414978027
0.65070599317550659 0.33849242329597473 0.15335479378700256
0.71586877107620239 0.37438526749610901 0.17789798974990845
0.77886033058166504 0.41156142950057983 0.20440241694450378
0.016673741862177849 0.18781578540802002 0.00089850334916263819
0.1160745695233345 0.17185001075267792 0.0057093449868261814
0.21103295683860779 0.17591568827629089 0.03148220106959343
0.26709163188934326 0.19270496070384979 0.052393551915884018
0.31252071261405945 0.21166145801544189 0.068039208650588989
0.36299043893814087 0.23641979694366455 0.08660455048084259
0.41434067487716675 0.26086726784706116 0.10574553161859512
0.47189360857009888 0.28691813349723816 0.12475216388702393
0.53187543153762817 0.31870391964912415 0.14733736217021942
0.59131008386611938 0.34846651554107666 0.16945089399814606
0.65120500326156616 0.37929722666740417 0.19049663841724396
0.71542716026306152 0.40977197885513306 0.20978251099586487
0.77962362766265869 0.4406554102897644 0.2342083603143692
0.011776614002883434 0.27831247448921204 0.00041170307667925954
0.071686133742332458 0.26978173851966858 0.0053472481667995453
0.21329973638057709 0.25356850028038025 0.038602102547883987
0.29453405737876892 0.25625711679458618 0.083735659718513489
0.33832493424415588 0.27300947904586792 0.099873937666416168
0.38231182098388672 0.29229569435119629 0.11716175824403763
0.4334753155708313 0.31894385814666748 0.13988536596298218
0.48543426394462585 0.34513866901397705 0.1592334508895874
0.54080814123153687 0.37195387482643127 0.18070437014102936
0.59776937961578369 0.3982536792755127 0.20354332029819489
0.65499037504196167 0.42663177847862244 0.22496415674686432
0.71482604742050171 0.45934134721755981 0.24913530051708221
0.77906328439712524 0.48817780613899231 0.27284693717956543
0.012471277266740799 0.366485595703125 9.3347889560391195e-06
0.052868533879518509 0.35692688822746277 0.0020895714405924082
0.19850678741931915 0.33720320463180542 0.035383053123950958
0.31589528918266296 0.32858580350875854 0.10747145116329193
0.37012305855751038 0.33788600564002991 0.13557617366313934
0.41348618268966675 0.3529256284236908 0.15107497572898865
0.46060484647750854 0.37659940123558044 0.17336516082286835
0.50907349586486816 0.40180402994155884 0.19562812149524689
0.55896604061126709 0.42531314492225647 0.21280765533447266
0.61184495687484741 0.45040911436080933 0.23371158540248871
0.66630351543426514 0.47643759846687317 0.25616627931594849
0.72482383251190186 0.50715988874435425 0.28138434886932373
0.78520101308822632 0.53534454107284546 0.30565339326858521
0.0125261340290308 0.45297983288764954 0
0.042625352740287781 0.44424194097518921 0.00044823440839536488
0.16306601464748383 0.42629390954971313 0.016706429421901703
0.32018116116523743 0.4101225733757019 0.10033278912305832
0.39713680744171143 0.41151902079582214 0.17357435822486877
0.44718974828720093 0.42190977931022644 0.192966029047966
0.49344804883003235 0.44009804725646973 0.21370778977870941
0.54117661714553833 0.45995688438415527 0.23329630494117737
0.58808594942092896 0.48059386014938354 0.24899190664291382
0.63438242673873901 0.50218790769577026 0.26450282335281372
0.68663972616195679 0.52916133403778076 0.28743657469749451
0.74372756481170654 0.55856150388717651 0.31195366382598877
0.79793649911880493 0.58240717649459839 0.3334898054599762
0.0060274163261055946 0.53841322660446167 0
0.030988221988081932 0.53465801477432251 0.0020024767145514488
0.13909116387367249 0.5203927755355835 0.014033418148756027
0.29719722270965576 0.50039201974868774 0.05968334898352623
0.41257479786872864 0.48951750993728638 0.18835577368736267
0.47464862465858459 0.49755138158798218 0.23770356178283691
0.52227365970611572 0.50587159395217896 0.25198748707771301
0.57337039709091187 0.51926672458648682 0.26805466413497925
0.62225633859634399 0.53985297679901123 0.28604671359062195
0.66798979043960571 0.56331789493560791 0.30557727813720703
0.71643781661987305 0.58753955364227295 0.32497057318687439
0.77118611335754395 0.61342144012451172 0.34582245349884033
0.82124489545822144 0.63525652885437012 0.36567854881286621
0.0028008106164634228 0.63047224283218384 0
0.014341391623020172 0.62724357843399048 0.0013296388788148761
0.090384706854820251 0.61652612686157227 0.0099129322916269302
0.25032472610473633 0.59908318519592285 0.035048138350248337
0.40755096077919006 0.58544242382049561 0.15092796087265015
0.50193208456039429 0.58326542377471924 0.27047425508499146
0.55733764171600342 0.58722066879272461 0.30126720666885376
0.61026018857955933 0.59757030010223389 0.3171977698802948
0.66501754522323608 0.61114752292633057 0.33240088820457458
0.70744454860687256 0.62782269716262817 0.34808444976806641
0.75140237808227539 0.64871078729629517 0.36574223637580872
0.80252367258071899 0.67003446817398071 0.38184228539466858
0.85127902030944824 0.68959689140319824 0.39906114339828491
0.0026250053197145462 0.72186011075973511 0
0.0053706448525190353 0.71786642074584961 0
0.0304731335490942 0.71452212333679199 0.0032283707987517118
0.17118172347545624 0.69796258211135864 0.02246328629553318
0.36999398469924927 0.68146497011184692 0.090952374041080475
0.5059133768081665 0.66904890537261963 0.25189495086669922
0.58411270380020142 0.66778194904327393 0.33865395188331604
0.64056849479675293 0.67378747463226318 0.36245399713516235
0.69675469398498535 0.6860308051109314 0.37638133764266968
0.74853640794754028 0.69534462690353394 0.39039933681488037
0.79041439294815063 0.70866233110427856 0.40286731719970703
0.83769333362579346 0.72602248191833496 0.41659575700759888
0.88037729263305664 0.74201834201812744 0.42947325110435486
0.00050362979527562857 0.81048369407653809 0
0.0023341160267591476 0.80380052328109741 0
0.018085524439811707 0.79895365238189697 1.6156365745700896e-05
0.10081634670495987 0.78857594728469849 0.0051489886827766895
0.30938237905502319 0.7757459282875061 0.041447419673204422
0.48581698536872864 0.75921463966369629 0.19177712500095367
0.59984976053237915 0.74815702438354492 0.33707964420318604
0.66787564754486084 0.74904459714889526 0.39873957633972168
0.72418069839477539 0.75465673208236694 0.41617071628570557
0.78024929761886597 0.76237380504608154 0.42943468689918518
0.82887488603591919 0.7716640830039978 0.44027236104011536
0.8772699236869812 0.78484600782394409 0.45206022262573242
0.91699570417404175 0.79860502481460571 0.46442818641662598
0 0.88836467266082764 0
0.00076108449138700962 0.88438200950622559 0
0.014941870234906673 0.88137578964233398 0
0.09143250435590744 0.87254756689071655 0.004870306234806776
0.25982934236526489 0.86105585098266602 0.021644202992320061
0.44895142316818237 0.84729552268981934 0.10815144330263138
0.59003967046737671 0.83131963014602661 0.28787785768508911
0.69601774215698242 0.82521867752075195 0.41995322704315186
0.75613600015640259 0.82405614852905273 0.45533177256584167
0.80718773603439331 0.82944369316101074 0.46612945199012756
0.85898977518081665 0.83699524402618408 0.47711828351020813
0.90885269641876221 0.84466278553009033 0.48647192120552063
0.95717817544937134 0.85686659812927246 0.49857416749000549
0 0.95654356479644775 0
0.00015402401913888752 0.95767474174499512 0
0.0045226751826703548 0.95626240968704224 0
0.045410469174385071 0.95247048139572144 0.0023379307240247726
0.14444562792778015 0.94265800714492798 0.0087403543293476105
0.38157680630683899 0.93201380968093872 0.042441919445991516
0.55823308229446411 0.91688495874404907 0.19270651042461395
0.6971738338470459 0.90479028224945068 0.38378405570983887
0.78454732894897461 0.89945650100708008 0.48258838057518005
0.8359990119934082 0.90112423896789551 0.50378566980361938
0.88486778736114502 0.90528017282485962 0.51370954513549805
0.93458771705627441 0.90685111284255981 0.52260720729827881
0.98061597347259521 0.91458827257156372 0.53027749061584473
0 0.99292111396789551 0
0 0.99129676818847656 0
0.00074693269561976194 0.99004673957824707 0
0.024850359186530113 0.98921740055084229 0
0.087480224668979645 0.98716068267822266 0.00058599736075848341
0.28069639205932617 0.98604130744934082 0.013595476746559143
0.51307713985443115 0.98252010345458984 0.096204943954944611
0.68247383832931519 0.97742360830307007 0.31848418712615967
0.79489684104919434 0.96529632806777954 0.47442436218261719
0.85925376415252686 0.96523457765579224 0.53490209579467773
0.90271890163421631 0.96856379508972168 0.54497188329696655
0.94847345352172852 0.96932393312454224 0.55054277181625366
0.9883275032043457 0.97438764572143555 0.55796933174133301
0.092021092772483826 0.03850492462515831 0.05992540717124939
0.13551101088523865 0.038175441324710846 0.02786884643137455
0.18861798942089081 0.056551497429609299 0.026870248839259148
0.24470654129981995 0.082337714731693268 0.036164227873086929
0.29821458458900452 0.10904216021299362 0.040712706744670868
0.35402292013168335 0.1392907053232193 0.053167559206485748
0.41112759709358215 0.17181640863418579 0.068897157907485962
0.47285115718841553 0.20427106320858002 0.085005693137645721
0.53415507078170776 0.23773863911628723 0.1023634672164917
0.5922507643699646 0.27652409672737122 0.1266590803861618
0.65656185150146484 0.31610715389251709 0.14906665682792664
0.72529137134552002 0.35760211944580078 0.17855265736579895
0.78762704133987427 0.39480233192443848 0.20305976271629333
0.054518185555934906 0.11323351413011551 0.044424094259738922
0.12814618647098541 0.10011842101812363 0.037323538213968277
0.19641126692295074 0.10813082754611969 0.04637584462761879
0.25290164351463318 0.12744840979576111 0.058267511427402496
0.3079063892364502 0.15161518752574921 0.06619524210691452
0.36291313171386719 0.17503954470157623 0.076994515955448151
0.41932553052902222 0.20257258415222168 0.08961854875087738
0.48092040419578552 0.23242586851119995 0.10374061763286591
0.53921467065811157 0.2640126645565033 0.12378556281328201
0.59857344627380371 0.29806846380233765 0.1460835337638855
0.66132909059524536 0.33387741446495056 0.16901266574859619
0.72629934549331665 0.37285283207893372 0.19530335068702698
0.7860826849937439 0.40740624070167542 0.21481858193874359
0.01716085709631443 0.19567626714706421 0.01880849152803421
0.083979569375514984 0.18370543420314789 0.021251752972602844
0.19983240962028503 0.17352207005023956 0.058905478566884995
0.26908347010612488 0.19042794406414032 0.088388331234455109
0.31791386008262634 0.2086922824382782 0.10185342282056808
0.36977341771125793 0.23001657426357269 0.11388123780488968
0.42288336157798767 0.25314199924468994 0.12889783084392548
0.48005253076553345 0.28134071826934814 0.14613355696201324
0.5426098108291626 0.30981522798538208 0.16404302418231964
0.60274958610534668 0.34040543437004089 0.18413062393665314
0.66183137893676758 0.3744550347328186 0.20543575286865234
0.72722649574279785 0.41062316298484802 0.22968655824661255
0.79153591394424438 0.43978893756866455 0.24746480584144592
0.0075530405156314373 0.28750082850456238 0.0058121024630963802
0.03983389213681221 0.28096887469291687 0.0078906789422035217
0.18318623304367065 0.26078999042510986 0.050926178693771362
0.29069679975509644 0.25749894976615906 0.11468387395143509
0.33969056606292725 0.27507695555686951 0.13520321249961853
0.38258606195449829 0.29392921924591064 0.15083560347557068
0.43097385764122009 0.31703296303749084 0.16954430937767029
0.48558893799781799 0.34223124384880066 0.18733581900596619
0.54657673835754395 0.3702881932258606 0.20868544280529022
0.60624492168426514 0.39669835567474365 0.22642578184604645
0.66478419303894043 0.42536675930023193 0.24752430617809296
0.72619318962097168 0.45570656657218933 0.2679801881313324
0.78948426246643066 0.48196139931678772 0.28595083951950073
0.0060908147133886814 0.37691947817802429 0.001862065983004868
0.029934842139482498 0.36900556087493896 0.0033494688104838133
0.15409286320209503 0.34747716784477234 0.033700335770845413
0.30352586507797241 0.3308139443397522 0.12008806318044662
0.36784988641738892 0.33884599804878235 0.1660696417093277
0.41402345895767212 0.35478490591049194 0.1837986558675766
0.45924419164657593 0.3791387677192688 0.20604294538497925
0.5070120096206665 0.40234127640724182 0.2260381281375885
0.56339925527572632 0.42793488502502441 0.24361355602741241
0.61697256565093994 0.45164188742637634 0.25874245166778564
0.6723484992980957 0.47765254974365234 0.27967724204063416
0.72988075017929077 0.50445127487182617 0.3012230396270752
0.79232925176620483 0.53110039234161377 0.32335472106933594
0.008059108629822731 0.46157273650169373 0.00041904824320226908
0.025288255885243416 0.45515334606170654 0.00090646184980869293
0.12552258372306824 0.43878817558288574 0.018094815313816071
0.28942403197288513 0.41683050990104675 0.091908290982246399
0.38931000232696533 0.41160333156585693 0.18839259445667267
0.44558471441268921 0.42364093661308289 0.22054985165596008
0.49300631880760193 0.44326213002204895 0.24324718117713928
0.54016822576522827 0.46329677104949951 0.26394668221473694
0.59004354476928711 0.48428225517272949 0.27739924192428589
0.63674271106719971 0.50637227296829224 0.28997761011123657
0.68872493505477905 0.53152573108673096 0.31173542141914368
0.74471473693847656 0.55814015865325928 0.33341830968856812
0.79931247234344482 0.58149045705795288 0.35355320572853088
0.0031762516591697931 0.54815137386322021 0
0.01112651452422142 0.5417436957359314 0.00030999278533272445
0.08402550220489502 0.52781909704208374 0.0098922876641154289
0.2448316216468811 0.5081406831741333 0.054432317614555359
0.39445173740386963 0.49283823370933533 0.18213163316249847
0.47078868746757507 0.49669399857521057 0.25581717491149902
0.52243661880493164 0.50834417343139648 0.27777236700057983
0.57294332981109619 0.5235791802406311 0.29343557357788086
0.62125313282012939 0.54141587018966675 0.30867260694503784
0.66753613948822021 0.5649983286857605 0.32707276940345764
0.71731460094451904 0.58988434076309204 0.34835737943649292
0.77047640085220337 0.61377668380737305 0.36723583936691284
0.81713175773620605 0.63233029842376709 0.38404318690299988
0.0019103105878457427 0.63951194286346436 0
0.0053457519970834255 0.63206183910369873 2.1766214558738284e-05
0.039021182805299759 0.61971312761306763 0.0032986211590468884
0.18668538331985474 0.6017841100692749 0.025633106008172035
0.37639907002449036 0.59123754501342773 0.12609818577766418
0.49024578928947449 0.58324652910232544 0.27105754613876343
0.55427271127700806 0.58566999435424805 0.31638690829277039
0.61030632257461548 0.59660071134567261 0.333638995885849
0.65905928611755371 0.60853022336959839 0.34663257002830505
0.70482897758483887 0.62743151187896729 0.36546385288238525
0.75070458650588989 0.64908093214035034 0.38435265421867371
0.80127066373825073 0.6683003306388855 0.40054821968078613
0.84594500064849854 0.68444991111755371 0.41548222303390503
0.00080537982285022736 0.72768878936767578 0
0.0041376003064215183 0.72211974859237671 0
0.023378215730190277 0.71553796529769897 0.0023066801950335503
0.15031136572360992 0.70030230283737183 0.020149799063801765
0.33460760116577148 0.68938714265823364 0.064318910241127014
0.48835989832878113 0.67587625980377197 0.23533833026885986
0.58214730024337769 0.6690782904624939 0.3440740704536438
0.64032423496246338 0.67173796892166138 0.37524157762527466
0.69543087482452393 0.68186300992965698 0.39121010899543762
0.74504846334457397 0.69319814443588257 0.40583705902099609
0.78918707370758057 0.70827829837799072 0.41923719644546509
0.83869028091430664 0.72590512037277222 0.43349280953407288
0.87063878774642944 0.73647946119308472 0.44304382801055908
2.4369182938244194e-05 0.81278330087661743 0
0.0019573136232793331 0.8099977970123291 0
0.014559861272573471 0.80559337139129639 0.00064897723495960236
0.06607712060213089 0.79515451192855835 0.0053116893395781517
0.25877013802528381 0.78248518705368042 0.028728514909744263
0.46512377262115479 0.76562446355819702 0.17536693811416626
0.59322553873062134 0.75212174654006958 0.33524447679519653
0.66875576972961426 0.74786281585693359 0.40948736667633057
0.72460615634918213 0.75405561923980713 0.43209347128868103
0.7770722508430481 0.76122355461120605 0.44459354877471924
0.82795518636703491 0.77184939384460449 0.45543357729911804
0.87541103363037109 0.7838175892829895 0.46633201837539673
0.91045743227005005 0.79466009140014648 0.47642266750335693
0 0.88683277368545532 0
5.5126114602899179e-05 0.89082103967666626 0
0.0089011099189519882 0.89127177000045776 0
0.043138407170772552 0.8803589940071106 0.0017483280971646309
0.20255497097969055 0.86508989334106445 0.019169002771377563
0.42138731479644775 0.85130000114440918 0.096116445958614349
0.57655727863311768 0.83693617582321167 0.27716609835624695
0.69125521183013916 0.82817786931991577 0.42336109280586243
0.75631511211395264 0.82692474126815796 0.47018700838088989
0.80542606115341187 0.83050847053527832 0.48039969801902771
0.85691303014755249 0.83715611696243286 0.490650475025177
0.90803492069244385 0.84504491090774536 0.50026434659957886
0.95578455924987793 0.85602617263793945 0.51101630926132202
0 0.95527189970016479 0
0 0.95940274000167847 0
0.0017329197144135833 0.95841300487518311 0
0.026102133095264435 0.95643508434295654 0.0013576282653957605
0.13288736343383789 0.94483822584152222 0.011002080515027046
0.35264730453491211 0.93385070562362671 0.046432912349700928
0.54183942079544067 0.92079764604568481 0.186746746301651
0.6931806206703186 0.90732228755950928 0.38944432139396667
0.78061395883560181 0.8987661600112915 0.49003240466117859
0.83390355110168457 0.90049147605895996 0.51705676317214966
0.88124710321426392 0.90629827976226807 0.52594107389450073
0.93177378177642822 0.90928643941879272 0.53381180763244629
0.98030441999435425 0.9141051173210144 0.54171383380889893
0 0.99232393503189087 0
0 0.99117517471313477 0
0.0012344808783382177 0.9868013858795166 0
0.013413837179541588 0.98577016592025757 0
0.065688386559486389 0.98976981639862061 0.0014322019414976239
0.23441973328590393 0.98767101764678955 0.016865329816937447
0.48963591456413269 0.98457169532775879 0.092255070805549622
0.66969305276870728 0.97841447591781616 0.31175559759140015
0.79007494449615479 0.97136133909225464 0.4743608832359314
0.85788947343826294 0.96782726049423218 0.5441405177116394
0.90240931510925293 0.96807456016540527 0.5567125678062439
0.94889122247695923 0.97190558910369873 0.56192195415496826
0.98892146348953247 0.97497344017028809 0.56852573156356812
0.10365661978721619 0.039416294544935226 0.14196501672267914
0.15045642852783203 0.037037376314401627 0.1174577921628952
0.19495400786399841 0.051598984748125076 0.084222815930843353
0.24688704311847687 0.079894617199897766 0.080132715404033661
0.29606646299362183 0.10654869675636292 0.088802814483642578
0.35109570622444153 0.13571543991565704 0.10271265357732773
0.40812700986862183 0.16848693788051605 0.11390482634305954
0.46836033463478088 0.20430365204811096 0.12558659911155701
0.53058159351348877 0.24023564159870148 0.14474566280841827
0.59142446517944336 0.27653154730796814 0.16640555858612061
0.65792220830917358 0.31484022736549377 0.18647199869155884
0.73063057661056519 0.35617321729660034 0.21212242543697357
0.7911146879196167 0.38938075304031372 0.2313762754201889
0.088530384004116058 0.11006701737642288 0.13489887118339539
0.14639517664909363 0.10277555882930756 0.12251362204551697
0.20302145183086395 0.10424898564815521 0.1059223860502243
0.25671035051345825 0.12588226795196533 0.10355378687381744
0.30944928526878357 0.14883780479431152 0.11347976326942444
0.35991683602333069 0.1692999005317688 0.12275275588035583
0.41754534840583801 0.19973483681678772 0.13116841018199921
0.47745740413665771 0.23317334055900574 0.14045172929763794
0.53761523962020874 0.26646089553833008 0.16206571459770203
0.60010230541229248 0.29763719439506531 0.17933042347431183
0.66569441556930542 0.33215421438217163 0.1993095725774765
0.73569250106811523 0.37103757262229919 0.22292758524417877
0.79122066497802734 0.40185600519180298 0.23776240646839142
0.039501909166574478 0.19586636126041412 0.10964156687259674
0.10234534740447998 0.18885758519172668 0.1065961942076683
0.19722513854503632 0.17667225003242493 0.11394886672496796
0.27236133813858032 0.18785206973552704 0.13396924734115601
0.32425081729888916 0.20605131983757019 0.14418064057826996
0.37485948204994202 0.22711065411567688 0.15569764375686646
0.42871382832527161 0.24687068164348602 0.16525349020957947
0.48796215653419495 0.2744024395942688 0.17380951344966888
0.54947638511657715 0.30739012360572815 0.19200485944747925
0.60929036140441895 0.33466178178787231 0.20618663728237152
0.67143923044204712 0.36704686284065247 0.22651223838329315
0.73876690864562988 0.40417912602424622 0.24955694377422333
0.80313420295715332 0.43320140242576599 0.26233449578285217
0.0059374044649302959 0.2917076051235199 0.066224150359630585
0.029507281258702278 0.28677517175674438 0.05579560250043869
0.13579024374485016 0.27095827460289001 0.076937638223171234
0.28055569529533386 0.26055872440338135 0.15085986256599426
0.34266611933708191 0.27474799752235413 0.17940555512905121
0.39101886749267578 0.29521965980529785 0.19556209444999695
0.44056671857833862 0.31314745545387268 0.2094346284866333
0.50067794322967529 0.33618733286857605 0.21938504278659821
0.55953747034072876 0.36317595839500427 0.23719009757041931
0.61526131629943848 0.39007771015167236 0.25389763712882996
0.67450046539306641 0.41844785213470459 0.27118122577667236
0.74097704887390137 0.44506636261940002 0.2847881019115448
0.80779051780700684 0.47466689348220825 0.29883363842964172
0.00089081411715596914 0.38062193989753723 0.024723995476961136
0.011808059178292751 0.37597867846488953 0.019460940733551979
0.074476785957813263 0.36116018891334534 0.033970702439546585
0.26301643252372742 0.33820700645446777 0.12868273258209229
0.3619009256362915 0.33918407559394836 0.2032335102558136
0.41372910141944885 0.35497286915779114 0.22129447758197784
0.46033170819282532 0.37941175699234009 0.24475285410881042
0.51160001754760742 0.40322798490524292 0.26648241281509399
0.56737262010574341 0.42634889483451843 0.28338316082954407
0.62362855672836304 0.44789090752601624 0.29674708843231201
0.68218070268630981 0.4718400239944458 0.30970174074172974
0.74412071704864502 0.49631768465042114 0.32415497303009033
0.80817389488220215 0.52401161193847656 0.34096768498420715
0.0019174313638359308 0.46760523319244385 0.008645450696349144
0.0059977960772812366 0.464964359998703 0.0079382956027984619
0.058377794921398163 0.45234623551368713 0.016714686527848244
0.22039929032325745 0.42878451943397522 0.082614883780479431
