assets/lut/editingcorpw Candlelit Cream.cube
LUT_3D_SIZE 6
DOMAIN_MIN 0.0 0.0 0.0
DOMAIN_MAX 1.0 1.0 1.0
0.140261 0.088624 0.133211
0.285478 0.118392 0.142245
0.484523 0.202969 0.160971
0.690437 0.325317 0.189847
0.917028 0.452924 0.220780
1.000000 0.579217 0.303349
0.216294 0.212528 0.144070
0.329231 0.222359 0.160482
0.485650 0.291475 0.197373
0.685416 0.386180 0.218216
0.914319 0.494918 0.242866
1.000000 0.605658 0.321892
0.298143 0.388293 0.163534
0.369127 0.417126 0.173286
0.538475 0.454132 0.233762
0.731678 0.522440 0.287871
0.924014 0.629507 0.329281
1.000000 0.706166 0.413837
0.335130 0.520830 0.151821
0.379188 0.545937 0.155359
0.545264 0.614025 0.180141
0.784419 0.679962 0.291910
0.972552 0.740923 0.433737
1.000000 0.796353 0.525707
0.398059 0.723390 0.000000
0.438310 0.733039 0.000000
0.602196 0.792432 0.000000
0.837241 0.873526 0.190103
1.000000 0.884023 0.481237
1.000000 0.889207 0.704628
0.592401 0.997009 0.000000
0.621039 0.998627 0.000000
0.722609 1.000000 0.000000
0.872569 1.000000 0.225443
1.000000 0.994537 0.493239
1.000000 0.964660 0.784939
0.173739 0.131637 0.240391
0.263495 0.145055 0.251408
0.450913 0.203481 0.271544
0.641465 0.288780 0.279638
0.890526 0.420116 0.297026
1.000000 0.561938 0.353881
0.238693 0.216430 0.253599
0.311028 0.244024 0.266963
0.465453 0.272152 0.277607
0.653701 0.354552 0.289969
0.892980 0.467456 0.309278
1.000000 0.593105 0.370943
0.277505 0.392848 0.262584
0.323890 0.410797 0.258886
0.511624 0.452804 0.303172
0.696373 0.518852 0.345894
0.909530 0.624235 0.382587
1.000000 0.704875 0.457125
0.308125 0.528054 0.220035
0.344933 0.547008 0.220289
0.510815 0.603075 0.246175
0.767494 0.678353 0.348855
0.958588 0.746979 0.481159
1.000000 0.808367 0.572121
0.359270 0.723845 0.039057
0.395993 0.733099 0.028498
0.578609 0.796165 0.115010
0.821395 0.871005 0.263717
0.999723 0.888641 0.528218
1.000000 0.898516 0.738896
0.563073 0.998913 0.000000
0.596544 1.000000 0.000000
0.705248 1.000000 0.000000
0.864158 1.000000 0.278708
1.000000 0.994841 0.529071
1.000000 0.966772 0.803012
0.225974 0.217722 0.422480
0.284525 0.230882 0.425769
0.421326 0.274527 0.445078
0.550597 0.314695 0.436759
0.817983 0.361374 0.480281
1.000000 0.501521 0.503966
0.296478 0.299881 0.437738
0.331833 0.311272 0.448959
0.429241 0.324890 0.447227
0.558201 0.354079 0.445100
0.823317 0.390838 0.477762
1.000000 0.543484 0.513203
0.332966 0.406185 0.440777
0.365504 0.426651 0.455644
0.462123 0.462180 0.466757
0.598256 0.475035 0.471824
0.870476 0.546909 0.496361
1.000000 0.688339 0.574094
0.271648 0.502686 0.409677
0.296535 0.523665 0.421040
0.402865 0.576686 0.429722
0.696394 0.671983 0.497147
0.906751 0.766745 0.613764
1.000000 0.843447 0.701431
0.000000 0.723031 0.304483
0.126827 0.738990 0.307328
0.409589 0.767718 0.309852
0.735710 0.848479 0.412072
0.973698 0.902029 0.666525
1.000000 0.922043 0.823932
0.406543 0.999975 0.000000
0.452532 1.000000 0.000000
0.598558 1.000000 0.101198
0.820411 1.000000 0.395399
0.993894 0.995646 0.636789
1.000000 0.973394 0.857664
0.216978 0.340759 0.681831
0.271681 0.346517 0.679850
0.401856 0.363456 0.669614
0.554469 0.391788 0.667889
0.737307 0.433398 0.679804
0.973565 0.562115 0.745284
0.266097 0.386373 0.668623
0.299466 0.393202 0.678197
0.410664 0.402048 0.669670
0.560354 0.425838 0.672278
0.733720 0.455727 0.674921
0.968363 0.574534 0.736999
0.332894 0.510017 0.679286
0.362754 0.521155 0.690819
0.452495 0.525638 0.685546
0.589092 0.538718 0.687078
0.763660 0.565529 0.702613
0.997939 0.657947 0.749515
0.341066 0.584786 0.642476
0.372193 0.599398 0.655946
0.483527 0.629452 0.673179
0.653073 0.692795 0.711005
0.803833 0.704709 0.711191
1.000000 0.798805 0.762095
0.000000 0.657489 0.565487
0.000000 0.667531 0.570399
0.080834 0.684572 0.561957
0.545640 0.803056 0.615406
0.917663 0.908223 0.795967
0.996852 0.945324 0.901582
0.000000 1.000000 0.369708
0.000000 1.000000 0.355482
0.082560 1.000000 0.400089
0.657535 1.000000 0.480878
0.954682 0.997054 0.762879
1.000000 0.981738 0.920287
0.191373 0.481270 0.908055
0.249218 0.485851 0.908067
0.394735 0.503637 0.908493
0.562945 0.534030 0.909220
0.719178 0.568707 0.906594
0.888786 0.636945 0.925207
0.247421 0.514748 0.907535
0.299666 0.524615 0.912050
0.421659 0.537208 0.910729
0.572373 0.558415 0.907679
0.718023 0.581588 0.900490
0.891708 0.655835 0.925978
0.362908 0.606632 0.905908
0.400978 0.615710 0.910089
0.503036 0.635230 0.912220
0.621939 0.655290 0.913476
0.746408 0.672473 0.909986
0.906463 0.723336 0.929350
0.494555 0.725832 0.906167
0.531996 0.740289 0.913181
0.595922 0.753120 0.915403
0.690848 0.771371 0.914745
0.786848 0.778879 0.910743
0.937845 0.818100 0.931243
0.446921 0.790451 0.894025
0.482983 0.799651 0.899833
0.579285 0.819934 0.906201
0.728256 0.860615 0.916320
0.878318 0.912251 0.929182
0.979578 0.931519 0.936649
0.000000 0.984222 0.924669
0.000000 0.991994 0.927462
0.000000 1.000000 0.910941
0.000000 1.000000 0.833376
0.862090 1.000000 0.864011
0.996185 0.988995 0.970001
0.632288 0.750729 1.000000
0.641315 0.753646 1.000000
0.678614 0.766872 1.000000
0.741775 0.791360 1.000000
0.817929 0.822562 1.000000
0.896086 0.857481 1.000000
0.636897 0.757113 1.000000
0.652462 0.764625 1.000000
0.686350 0.775764 1.000000
0.745008 0.796832 1.000000
0.816584 0.823069 1.000000
0.895713 0.858268 1.000000
0.670137 0.793130 1.000000
0.684208 0.799441 1.000000
0.736760 0.824292 1.000000
0.786901 0.842058 1.000000
0.848577 0.863724 1.000000
0.911888 0.886040 1.000000
0.708870 0.840452 1.000000
0.717695 0.843450 1.000000
0.744442 0.850544 1.000000
0.827342 0.887402 0.999844
0.877359 0.901350 0.998541
0.931127 0.917998 0.997101
0.776718 0.904179 0.998157
0.784451 0.906438 0.997804
0.814658 0.915329 0.996338
0.862130 0.929396 0.994275
0.920253 0.948062 0.993191
0.962469 0.961498 0.992718
0.744472 0.956847 0.996857
0.751357 0.957818 0.996686
0.786654 0.962701 0.995740
0.856040 0.972406 0.993872
0.949645 0.985577 0.991742
0.989685 0.991577 0.991577
