assets/lut/editingcorp valize.cube
# Created by: G'MIC (https://gmic.eu)
TITLE "valize"
# LUT size
LUT_3D_SIZE 5
# Data domain
DOMAIN_MIN 0.0 0.0 0.0
DOMAIN_MAX 1.0 1.0 1.0
# LUT data points
0.044852729886770248 0.036653734743595123 0.040963489562273026
0.33388048410415649 0.070295609533786774 0.060884140431880951
0.61255252361297607 0.14307853579521179 0.1095418706536293
0.92120486497879028 0.21291226148605347 0.15946324169635773
1 0.31511345505714417 0.2293696403503418
0.16603115200996399 0.31394955515861511 0.10060737282037735
0.35564106702804565 0.31214293837547302 0.11052612960338593
0.61724686622619629 0.34748432040214539 0.13574111461639404
0.91094040870666504 0.40618047118186951 0.16867175698280334
0.99993985891342163 0.46191391348838806 0.25337511301040649
0.29540744423866272 0.58807909488677979 0.16009978950023651
0.43639051914215088 0.58672606945037842 0.16129887104034424
0.63347655534744263 0.5857771635055542 0.16583855450153351
0.90169215202331543 0.6210440993309021 0.18536144495010376
0.99926412105560303 0.65534889698028564 0.28782206773757935
0.43178620934486389 0.8497282862663269 0.23482085764408112
0.53063106536865234 0.85145455598831177 0.24553138017654419
0.67880457639694214 0.84911715984344482 0.24901245534420013
0.9118112325668335 0.8511282205581665 0.27898094058036804
1 0.86519813537597656 0.41601914167404175
0.65643256902694702 1 0.58532130718231201
0.68637627363204956 0.99985063076019287 0.58359330892562866
0.77210932970046997 1 0.6114305853843689
0.92070990800857544 1 0.61826479434967041
1 0.99948132038116455 0.63448071479797363
0.086600348353385925 0.063680954277515411 0.26791095733642578
0.32168924808502197 0.10339995473623276 0.27521881461143494
0.59153211116790771 0.14515605568885803 0.28640782833099365
0.89859104156494141 0.19363012909889221 0.31813442707061768
1 0.32673379778862 0.37493395805358887
0.21346995234489441 0.30212649703025818 0.27462226152420044
0.36144515872001648 0.30757978558540344 0.27969953417778015
0.59178322553634644 0.333274245262146 0.29094943404197693
0.88317513465881348 0.38576942682266235 0.31754264235496521
0.99841213226318359 0.47593331336975098 0.39445981383323669
0.29858919978141785 0.58132636547088623 0.30309394001960754
0.43494716286659241 0.57692259550094604 0.3028465211391449
0.62779176235198975 0.57562506198883057 0.29895323514938354
0.89134472608566284 0.61954188346862793 0.32377204298973083
0.99783354997634888 0.65842527151107788 0.43459466099739075
0.44534021615982056 0.84166669845581055 0.37970700860023499
0.54033511877059937 0.84782832860946655 0.38952109217643738
0.68558233976364136 0.84687840938568115 0.39893734455108643
0.91236305236816406 0.84724700450897217 0.42264962196350098
0.99999475479125977 0.86717385053634644 0.54133939743041992
0.6741793155670166 1 0.64668118953704834
0.70392334461212158 1 0.64713037014007568
0.78105521202087402 0.99996232986450195 0.64932370185852051
0.92842632532119751 1 0.67960852384567261
1 0.9996650218963623 0.6901317834854126
0.14665624499320984 0.13273698091506958 0.55656629800796509
0.3528919517993927 0.15006698668003082 0.54582828283309937
0.58876699209213257 0.15655498206615448 0.53169924020767212
0.88903701305389404 0.16099140048027039 0.56140518188476562
1 0.32536327838897705 0.593616783618927
0.23649613559246063 0.33447447419166565 0.5365791916847229
0.39473658800125122 0.33564901351928711 0.53473150730133057
0.60413557291030884 0.32445594668388367 0.53503167629241943
0.88408744335174561 0.35350048542022705 0.55666506290435791
1 0.4817962646484375 0.61979943513870239
0.30606260895729065 0.57517695426940918 0.54010313749313354
0.4495665431022644 0.57873868942260742 0.54354709386825562
0.6403692364692688 0.58104890584945679 0.54459953308105469
0.88427972793579102 0.61451047658920288 0.58025640249252319
1 0.6810765266418457 0.65425336360931396
0.49297013878822327 0.83637946844100952 0.6141243577003479
0.56671583652496338 0.83659833669662476 0.61170345544815063
0.69801396131515503 0.83647722005844116 0.61507827043533325
0.90738999843597412 0.8466600775718689 0.63667988777160645
1 0.88242965936660767 0.71191966533660889
0.72926992177963257 1 0.76756221055984497
0.75562906265258789 1 0.77244287729263306
0.81471329927444458 1 0.77271729707717896
0.92965960502624512 1 0.77576452493667603
1 0.99930417537689209 0.78963685035705566
0.20340639352798462 0.20103743672370911 0.86409968137741089
0.39563658833503723 0.20749376714229584 0.85559749603271484
0.62000787258148193 0.20362931489944458 0.84591943025588989
0.8721926212310791 0.21281187236309052 0.82700252532958984
0.99980628490447998 0.3510342538356781 0.84172022342681885
0.27723968029022217 0.38510406017303467 0.83925420045852661
0.42404484748840332 0.38364169001579285 0.84471672773361206
0.62951046228408813 0.38431128859519958 0.83640038967132568
0.88562589883804321 0.39507842063903809 0.83203655481338501
0.99998718500137329 0.51323205232620239 0.83827835321426392
0.39240780472755432 0.61324405670166016 0.82053738832473755
0.50705164670944214 0.61789655685424805 0.82492399215698242
0.66784030199050903 0.62012594938278198 0.82216358184814453
0.89251452684402466 0.63274002075195312 0.82918596267700195
1 0.69871228933334351 0.85785645246505737
0.52727019786834717 0.84753608703613281 0.83680963516235352
0.60005718469619751 0.85143768787384033 0.83801484107971191
0.72549867630004883 0.84635597467422485 0.83917510509490967
0.90555334091186523 0.85598301887512207 0.85064911842346191
0.99979186058044434 0.90022236108779907 0.89328336715698242
0.7533869743347168 1 0.8990626335144043
0.7864992618560791 0.99825757741928101 0.90715402364730835
0.85872900485992432 0.99999678134918213 0.91492158174514771
0.94944822788238525 0.99848508834838867 0.92226952314376831
1 1 0.93458777666091919
0.37680789828300476 0.37706676125526428 0.99990648031234741
0.48062750697135925 0.37113034725189209 1
0.64614182710647583 0.40140476822853088 1
0.85475718975067139 0.4798281192779541 0.99638545513153076
0.99921786785125732 0.51632052659988403 1
0.45679745078086853 0.5137370228767395 0.99977755546569824
0.54623860120773315 0.52480214834213257 0.99887275695800781
0.67556917667388916 0.54014396667480469 1
0.87034529447555542 0.5788651704788208 0.99975913763046265
1 0.61268776655197144 1
0.61807799339294434 0.70494037866592407 0.99791187047958374
0.65072286128997803 0.70453274250030518 0.99998277425765991
0.7433173656463623 0.71751850843429565 1
0.88891851902008057 0.7285696268081665 0.99988007545471191
0.99589967727661133 0.74590635299682617 0.99975711107254028
0.68836259841918945 0.87410318851470947 0.99901276826858521
0.72267448902130127 0.87570959329605103 0.9976012110710144
0.81388318538665771 0.8904731273651123 1
0.92528373003005981 0.90722125768661499 0.9982714056968689
1 0.92118149995803833 0.99971926212310791
0.80394041538238525 0.99865484237670898 0.99894946813583374
0.81492173671722412 0.99815922975540161 0.997039794921875
0.89444935321807861 0.99958336353302002 0.99993103742599487
0.98989343643188477 1 1
1 1 1
