assets/lut/editingcorp partia.cube
# Created by: G'MIC (https://gmic.eu)
TITLE "partia"
# LUT size
LUT_3D_SIZE 13
# Data domain
DOMAIN_MIN 0.0 0.0 0.0
DOMAIN_MAX 1.0 1.0 1.0
# LUT data points
0.0216203723102808 0.024188591167330742 0.01173216849565506
0.11966528743505478 0.035785000771284103 0.020358949899673462
0.29423654079437256 0.068419665098190308 0.062500178813934326
0.48026373982429504 0.10972359031438828 0.11584373563528061
0.62196880578994751 0.14639097452163696 0.15550819039344788
0.73287785053253174 0.17451877892017365 0.18840254843235016
0.81146645545959473 0.23495548963546753 0.2254088819026947
0.85900628566741943 0.262746661901474 0.25537499785423279
0.89108455181121826 0.26776933670043945 0.27068698406219482
0.91623824834823608 0.2792913019657135 0.27851760387420654
0.93992102146148682 0.29628762602806091 0.28263920545578003
0.96400630474090576 0.29024633765220642 0.28499168157577515
0.98995095491409302 0.27674052119255066 0.28737595677375793
0.018093468621373177 0.089108362793922424 0.016677796840667725
0.082414917647838593 0.093684159219264984 0.022820925340056419
0.22469696402549744 0.11861871182918549 0.048482242971658707
0.41113609075546265 0.1563141793012619 0.093108005821704865
0.57463341951370239 0.19870112836360931 0.13734437525272369
0.70919674634933472 0.22952160239219666 0.17851389944553375
0.80460238456726074 0.26983681321144104 0.21809107065200806
0.85914278030395508 0.29903224110603333 0.25095590949058533
0.89145499467849731 0.31134060025215149 0.27257040143013
0.91611140966415405 0.32251551747322083 0.28329598903656006
0.93970823287963867 0.33336707949638367 0.28810665011405945
0.96384918689727783 0.3326466977596283 0.290973961353302
0.99004453420639038 0.32543256878852844 0.29314443469047546
0.018192606046795845 0.17837163805961609 0.024714406579732895
0.062430690973997116 0.17492517828941345 0.022765828296542168
0.16901023685932159 0.1839144378900528 0.034644827246665955
0.33134537935256958 0.20322869718074799 0.064631126821041107
0.50579768419265747 0.23371060192584991 0.10547813028097153
0.66557222604751587 0.26630648970603943 0.1525917649269104
0.78402578830718994 0.29857158660888672 0.19758307933807373
0.85222244262695312 0.32721292972564697 0.23585040867328644
0.88884401321411133 0.3438073992729187 0.26351249217987061
0.91528815031051636 0.35539832711219788 0.27874428033828735
0.93987667560577393 0.36437541246414185 0.2853647768497467
0.96478962898254395 0.36708337068557739 0.28967589139938354
0.99040913581848145 0.36531582474708557 0.29246756434440613
0.027375195175409317 0.2834109365940094 0.043127231299877167
0.060300417244434357 0.27696952223777771 0.038860846310853958
0.13929292559623718 0.27429527044296265 0.03963349387049675
0.27451956272125244 0.27893719077110291 0.049457039684057236
0.44431698322296143 0.29937836527824402 0.075883142650127411
0.61130011081695557 0.33005431294441223 0.1199021115899086
0.74949079751968384 0.35459965467453003 0.16567070782184601
0.83637887239456177 0.3759799599647522 0.20748385787010193
0.88419258594512939 0.39115124940872192 0.23932419717311859
0.91497880220413208 0.40165528655052185 0.25869309902191162
0.9410017728805542 0.40836337208747864 0.26860183477401733
0.96638387441635132 0.41107386350631714 0.27434679865837097
0.99129700660705566 0.41196882724761963 0.27785265445709229
0.03787638247013092 0.38994115591049194 0.065405644476413727
0.061213698238134384 0.38505139946937561 0.0615207739174366
0.11665109544992447 0.37939465045928955 0.057129144668579102
0.22398120164871216 0.37594693899154663 0.053275015205144882
0.38280752301216125 0.38255909085273743 0.060918338596820831
0.55212616920471191 0.40284335613250732 0.089600458741188049
0.70223551988601685 0.42405584454536438 0.1315314918756485
0.80972224473953247 0.44289281964302063 0.17397797107696533
0.87472724914550781 0.45796462893486023 0.20723491907119751
0.91365903615951538 0.46760827302932739 0.22882662713527679
0.94219869375228882 0.47062203288078308 0.2413029670715332
0.96736854314804077 0.47009354829788208 0.24795588850975037
0.9924318790435791 0.47042551636695862 0.25199487805366516
0.047670267522335052 0.49033668637275696 0.084602639079093933
0.064121812582015991 0.48889178037643433 0.083425350487232208
0.10332143306732178 0.48462557792663574 0.08018791675567627
0.18640115857124329 0.47962287068367004 0.074929885566234589
0.32455694675445557 0.47801297903060913 0.071420766413211823
0.49124810099601746 0.48506182432174683 0.079413875937461853
0.65023857355117798 0.50122779607772827 0.10966908931732178
0.77720880508422852 0.51840841770172119 0.14688824117183685
0.86146289110183716 0.53289574384689331 0.17723853886127472
0.91073769330978394 0.54159307479858398 0.19898520410060883
0.94187450408935547 0.54273694753646851 0.21348835527896881
0.96733349561691284 0.54065251350402832 0.22146187722682953
0.99235641956329346 0.53950399160385132 0.22656191885471344
0.059858899563550949 0.58777093887329102 0.10573744028806686
0.072365447878837585 0.58823990821838379 0.10674731433391571
0.10169114917516708 0.58587461709976196 0.1072269082069397
0.16619937121868134 0.58239316940307617 0.10646770894527435
0.27999550104141235 0.57935982942581177 0.1017148345708847
0.43506205081939697 0.57882297039031982 0.096331097185611725
0.59897518157958984 0.58594363927841187 0.10718148946762085
0.74282056093215942 0.59729474782943726 0.1295737624168396
0.84646368026733398 0.60810196399688721 0.15335835516452789
0.90706270933151245 0.61501598358154297 0.17520672082901001
0.94066041707992554 0.6168525218963623 0.19301322102546692
0.96593743562698364 0.61597096920013428 0.20361596345901489
0.99198675155639648 0.61420518159866333 0.21013878285884857
0.073489710688591003 0.68238675594329834 0.12867738306522369
0.085673265159130096 0.682578444480896 0.13110016286373138
0.10936454683542252 0.6809198260307312 0.13353833556175232
0.16008490324020386 0.67879241704940796 0.13518945872783661
0.25241914391517639 0.6765669584274292 0.13140377402305603
0.38807177543640137 0.67412090301513672 0.12222579121589661
0.54708969593048096 0.67379844188690186 0.11895343661308289
0.70173734426498413 0.67773157358169556 0.12513750791549683
0.82354938983917236 0.68383961915969849 0.14066034555435181
0.8988654613494873 0.68846702575683594 0.16161026060581207
0.94020456075668335 0.69099867343902588 0.18053814768791199
0.96744656562805176 0.691925048828125 0.19342681765556335
0.99259817600250244 0.69006741046905518 0.20152857899665833
0.088109619915485382 0.76944601535797119 0.15111400187015533
0.10220906883478165 0.76827889680862427 0.15368331968784332
0.12347904592752457 0.7653663158416748 0.15593057870864868
0.16370657086372375 0.7637941837310791 0.15696786344051361
0.2356267124414444 0.7641790509223938 0.15514171123504639
0.34583383798599243 0.76372212171554565 0.14863377809524536
0.49012210965156555 0.76173627376556396 0.14106236398220062
0.64736253023147583 0.75984609127044678 0.13801153004169464
0.78434252738952637 0.76155632734298706 0.14451685547828674
0.88096988201141357 0.76211124658584595 0.15890730917453766
0.9379926323890686 0.76384079456329346 0.17486797273159027
0.96969228982925415 0.76594722270965576 0.18830829858779907
0.99367284774780273 0.76582485437393188 0.19843621551990509
0.10221008956432343 0.84202182292938232 0.16984701156616211
0.11933035403490067 0.83880466222763062 0.17193420231342316
0.1396331787109375 0.83454000949859619 0.17282812297344208
0.17108446359634399 0.83392804861068726 0.1737820953130722
0.22321994602680206 0.83759540319442749 0.17525279521942139
0.30735349655151367 0.842751145362854 0.17506800591945648
0.43169119954109192 0.84404176473617554 0.16975612938404083
0.58744460344314575 0.83919364213943481 0.16104170680046082
0.73750680685043335 0.83566510677337646 0.15816020965576172
0.85400092601776123 0.83417463302612305 0.16357223689556122
0.92676311731338501 0.83527612686157227 0.17521658539772034
0.96534198522567749 0.83839565515518188 0.18832269310951233
0.99201607704162598 0.83823686838150024 0.19919976592063904
0.11279419809579849 0.89503461122512817 0.1820237785577774
0.13351309299468994 0.89182758331298828 0.18319705128669739
0.15493690967559814 0.88746976852416992 0.18233196437358856
0.18079721927642822 0.88712608814239502 0.18312962353229523
0.21800117194652557 0.89335149526596069 0.18751563131809235
0.28233733773231506 0.90212017297744751 0.19227336347103119
0.39063069224357605 0.90617555379867554 0.19035886228084564
0.54010874032974243 0.90268814563751221 0.18101711571216583
0.69652366638183594 0.89836490154266357 0.17273940145969391
0.82646268606185913 0.89647442102432251 0.17182111740112305
0.91103887557983398 0.89839005470275879 0.17961800098419189
0.95703917741775513 0.90330022573471069 0.19142335653305054
0.9890931248664856 0.90337496995925903 0.20196770131587982
0.1187724694609642 0.93439579010009766 0.18709155917167664
0.14244848489761353 0.93175363540649414 0.18690039217472076
0.16601993143558502 0.92771732807159424 0.184772789478302
0.19053183495998383 0.92709136009216309 0.18490725755691528
0.21796855330467224 0.93406105041503906 0.19112703204154968
0.26996514201164246 0.9435960054397583 0.19831576943397522
0.36742308735847473 0.94934117794036865 0.19891579449176788
0.50854402780532837 0.94875776767730713 0.19215747714042664
0.66572082042694092 0.94514858722686768 0.18390071392059326
0.80439192056655884 0.94315451383590698 0.18069437146186829
0.89831352233886719 0.94676929712295532 0.18540719151496887
0.95193302631378174 0.95346438884735107 0.19495286047458649
0.98839640617370605 0.95534372329711914 0.20451295375823975
0.11956706643104553 0.96819370985031128 0.18635042011737823
0.14436435699462891 0.96628326177597046 0.18547411262989044
0.16809307038784027 0.96336042881011963 0.18331393599510193
0.1911383718252182 0.96320319175720215 0.18422456085681915
0.21638478338718414 0.96909260749816895 0.19055259227752686
0.2646622359752655 0.97726970911026001 0.19786688685417175
0.35513108968734741 0.98266023397445679 0.19987937808036804
0.48806396126747131 0.98395979404449463 0.19579681754112244
0.64030706882476807 0.98250377178192139 0.18984633684158325
0.77942532300949097 0.98193377256393433 0.18719190359115601
0.88000279664993286 0.98620647192001343 0.19029170274734497
0.94349640607833862 0.99162876605987549 0.19763541221618652
0.98680984973907471 0.99356740713119507 0.20630909502506256
0.020414987578988075 0.022570172324776649 0.074789173901081085
0.11503927409648895 0.024341119453310966 0.072212308645248413
0.2848656177520752 0.036489702761173248 0.10277202725410461
0.47061637043952942 0.068681858479976654 0.15247981250286102
0.61822396516799927 0.094803877174854279 0.18996018171310425
0.73042792081832886 0.12361975014209747 0.2179013192653656
0.81101983785629272 0.20759463310241699 0.25001242756843567
0.8616262674331665 0.24909131228923798 0.27759703993797302
0.89354461431503296 0.26064333319664001 0.29553437232971191
0.91787761449813843 0.26944848895072937 0.30411675572395325
0.94101995229721069 0.28183174133300781 0.30794647336006165
0.96534967422485352 0.28077989816665649 0.31029215455055237
0.99039089679718018 0.27587446570396423 0.31430467963218689
0.0212135910987854 0.090049043297767639 0.072314590215682983
0.082762427628040314 0.091363243758678436 0.071433946490287781
0.22012841701507568 0.11270567774772644 0.091225296258926392
0.40076300501823425 0.15205693244934082 0.13028532266616821
0.56789112091064453 0.19333687424659729 0.1716122031211853
0.7060168981552124 0.23139631748199463 0.2084471583366394
0.80190360546112061 0.27476358413696289 0.24405145645141602
0.85715281963348389 0.29864275455474854 0.27667227387428284
0.89061301946640015 0.31143397092819214 0.29862210154533386
0.91606730222702026 0.32036793231964111 0.30861517786979675
0.93993830680847168 0.32898840308189392 0.31279456615447998
0.96411669254302979 0.33125674724578857 0.31570148468017578
0.98995095491409302 0.32885310053825378 0.31965520977973938
0.021117955446243286 0.18018093705177307 0.071354210376739502
0.063758447766304016 0.17481255531311035 0.069430992007255554
0.16881369054317474 0.1832696944475174 0.078930169343948364
0.3285888135433197 0.20274309813976288 0.10203389078378677
0.50454896688461304 0.23360840976238251 0.13799208402633667
0.66677653789520264 0.26874092221260071 0.18235298991203308
0.7833869457244873 0.30050322413444519 0.22624336183071136
0.84909558296203613 0.32624140381813049 0.26504659652709961
0.88720005750656128 0.34285661578178406 0.29102519154548645
0.91505765914916992 0.35344520211219788 0.3038192093372345
0.93970590829849243 0.36066195368766785 0.31046572327613831
0.96392273902893066 0.36585071682929993 0.31545379757881165
0.98995292186737061 0.3675682544708252 0.32000520825386047
0.027352830395102501 0.28520974516868591 0.082263737916946411
0.059401106089353561 0.27933475375175476 0.080530576407909393
0.13871678709983826 0.27558353543281555 0.080335997045040131
0.2735573947429657 0.28018665313720703 0.085002481937408447
0.44223269820213318 0.30160969495773315 0.10764064639806747
0.61087208986282349 0.33103615045547485 0.1495298445224762
0.74786221981048584 0.35365581512451172 0.19461847841739655
0.83496981859207153 0.37338650226593018 0.23552775382995605
0.88448154926300049 0.38876253366470337 0.26492226123809814
0.91569739580154419 0.39826491475105286 0.28233787417411804
0.94079160690307617 0.4033835232257843 0.29242062568664551
0.96557307243347168 0.40694856643676758 0.30006676912307739
0.9907107949256897 0.40950667858123779 0.30678027868270874
0.036663834005594254 0.39129683375358582 0.098208963871002197
0.05955817922949791 0.38832637667655945 0.097585134208202362
0.1178467869758606 0.38139909505844116 0.092447347939014435
0.22699202597141266 0.37478551268577576 0.083027347922325134
0.38173246383666992 0.38295981287956238 0.088517613708972931
0.55026102066040039 0.40438151359558105 0.11858314275741577
0.70201969146728516 0.4244745671749115 0.16074612736701965
0.81199753284454346 0.44228622317314148 0.20176102221012115
0.8776279091835022 0.45551541447639465 0.23182472586631775
0.9156915545463562 0.46311819553375244 0.25065287947654724
0.9422110915184021 0.46547642350196838 0.26247969269752502
0.96625542640686035 0.46544650197029114 0.2708437442779541
0.99075919389724731 0.46675947308540344 0.27804768085479736
0.047551263123750687 0.49252527952194214 0.11147274076938629
0.062791205942630768 0.4909205436706543 0.11247033625841141
0.10266343504190445 0.4850354790687561 0.10903473198413849
0.18682815134525299 0.47726038098335266 0.10004297643899918
0.32230663299560547 0.47629052400588989 0.095628507435321808
0.48844951391220093 0.48618856072425842 0.10745065659284592
0.65108233690261841 0.50251597166061401 0.13905031979084015
0.78167617321014404 0.51909196376800537 0.17661680281162262
0.86584711074829102 0.5306403636932373 0.20285527408123016
0.91331785917282104 0.53720211982727051 0.22014060616493225
0.94147193431854248 0.53850340843200684 0.23264980316162109
0.9653049111366272 0.53699022531509399 0.24133126437664032
0.99038469791412354 0.53622591495513916 0.24872037768363953
0.060230135917663574 0.59015840291976929 0.12904423475265503
0.070593215525150299 0.59005045890808105 0.13103257119655609
0.097725763916969299 0.58617740869522095 0.13208933174610138
0.15906070172786713 0.58190721273422241 0.13115912675857544
0.2707703709602356 0.57878166437149048 0.12618674337863922
0.42869952321052551 0.57872515916824341 0.12021764367818832
0.59780532121658325 0.5856509804725647 0.13193084299564362
0.74511265754699707 0.59649395942687988 0.15721192955970764
0.84894037246704102 0.60596472024917603 0.17897665500640869
0.90871495008468628 0.61182224750518799 0.19734720885753632
0.93962156772613525 0.61404085159301758 0.2122979462146759
0.9631192684173584 0.61278927326202393 0.22245012223720551
0.98910391330718994 0.61176472902297974 0.23010595142841339
0.074301443994045258 0.6834302544593811 0.15221722424030304
0.084352694451808929 0.68348497152328491 0.15410575270652771
0.10466378927230835 0.68155145645141602 0.15677206218242645
0.15073759853839874 0.67953741550445557 0.15835309028625488
0.24061107635498047 0.67699122428894043 0.15435467660427094
0.37923285365104675 0.67337507009506226 0.14259390532970428
0.54354673624038696 0.67157280445098877 0.1384345144033432
0.70131850242614746 0.67473882436752319 0.14783567190170288
0.82391786575317383 0.68113803863525391 0.16604718565940857
0.90042662620544434 0.68639600276947021 0.18538454174995422
0.93900394439697266 0.68928521871566772 0.20201335847377777
0.9643934965133667 0.68929839134216309 0.2135421484708786
0.98993229866027832 0.6885412335395813 0.22171449661254883
0.089495562016963959 0.76950287818908691 0.17599114775657654
0.10173510015010834 0.76855188608169556 0.1775030642747879
0.11947124451398849 0.76612615585327148 0.17868006229400635
0.15506429970264435 0.76563358306884766 0.18049156665802002
0.2239702045917511 0.7650604248046875 0.17706248164176941
0.33648070693016052 0.76338464021682739 0.1688770204782486
0.48604920506477356 0.75918257236480713 0.15950910747051239
0.64682185649871826 0.75673103332519531 0.15854750573635101
0.78576135635375977 0.75978010892868042 0.16926375031471252
0.88296860456466675 0.76231515407562256 0.18413624167442322
0.93764853477478027 0.76429647207260132 0.19873398542404175
0.96777582168579102 0.76542335748672485 0.21089670062065125
0.99162399768829346 0.76371157169342041 0.22068662941455841
0.10327957570552826 0.84120780229568481 0.19630198180675507
0.11874180287122726 0.8389439582824707 0.19763875007629395
0.13533051311969757 0.83603483438491821 0.19701328873634338
0.16156040132045746 0.83587771654129028 0.19751903414726257
0.21049505472183228 0.83922439813613892 0.19869443774223328
0.29639601707458496 0.84210789203643799 0.19715969264507294
0.42618784308433533 0.84166032075881958 0.19044291973114014
0.58458828926086426 0.83874964714050293 0.18305946886539459
0.73731458187103271 0.8380664587020874 0.18206965923309326
0.85485625267028809 0.83845478296279907 0.18820852041244507
0.92712002992630005 0.83830100297927856 0.20025844871997833
0.96542799472808838 0.83864134550094604 0.21331961452960968
0.99094974994659424 0.83732819557189941 0.22449345886707306
0.11313802748918533 0.89606600999832153 0.2088245302438736
0.13162745535373688 0.89291894435882568 0.20994566380977631
0.14842484891414642 0.88934242725372314 0.20794937014579773
0.16760621964931488 0.88968992233276367 0.208675816655159
0.19938933849334717 0.89534908533096313 0.21375663578510284
0.26284587383270264 0.90258598327636719 0.21826042234897614
0.37514546513557434 0.90597331523895264 0.21561074256896973
0.52952587604522705 0.90380966663360596 0.20608395338058472
0.6917840838432312 0.90258848667144775 0.1974082738161087
0.82541733980178833 0.90260785818099976 0.19617179036140442
0.91209220886230469 0.90324908494949341 0.20541390776634216
0.95933729410171509 0.90414595603942871 0.21800024807453156
0.98927944898605347 0.90358209609985352 0.22924412786960602
0.1176709309220314 0.9372982382774353 0.21170890331268311
0.13804899156093597 0.9338800311088562 0.21207879483699799
0.15540073812007904 0.93010038137435913 0.20998705923557281
0.1706089973449707 0.92987948656082153 0.2117028534412384
0.19016832113265991 0.93593007326126099 0.21937891840934753
0.23679739236831665 0.94427132606506348 0.22787156701087952
0.33550959825515747 0.94938081502914429 0.22848120331764221
0.4865109920501709 0.94986140727996826 0.22016485035419464
0.65527588129043579 0.94915729761123657 0.21027757227420807
0.8014901876449585 0.94880086183547974 0.20686428248882294
0.89993381500244141 0.95115011930465698 0.21209262311458588
0.95478838682174683 0.9556085467338562 0.2222590446472168
0.98951870203018188 0.95678156614303589 0.23267735540866852
0.11696968972682953 0.97128582000732422 0.20846959948539734
0.13801543414592743 0.9682471752166748 0.20816874504089355
0.15500204265117645 0.96492910385131836 0.20745712518692017
0.16795045137405396 0.96458971500396729 0.21056097745895386
0.18303753435611725 0.96949827671051025 0.2192307710647583
0.22179867327213287 0.97667074203491211 0.22848787903785706
0.31175786256790161 0.9820486307144165 0.23071621358394623
0.45820143818855286 0.98426169157028198 0.22470004856586456
0.6268799901008606 0.98409479856491089 0.21656093001365662
0.77747154235839844 0.98476272821426392 0.21342594921588898
0.8838036060333252 0.98837226629257202 0.21703487634658813
0.94783997535705566 0.99256086349487305 0.22502464056015015
0.98869800567626953 0.9953351616859436 0.23479068279266357
0.03105132095515728 0.022065270692110062 0.17838051915168762
0.11363916099071503 0.024019712582230568 0.17679594457149506
0.2651636004447937 0.029363729059696198 0.18995772302150726
0.44743037223815918 0.057042844593524933 0.21881957352161407
0.60577690601348877 0.098964884877204895 0.2492491751909256
0.72266978025436401 0.13594728708267212 0.27305367588996887
0.80459821224212646 0.19636635482311249 0.29490619897842407
0.85907906293869019 0.24533142149448395 0.31749615073204041
0.89290720224380493 0.26723441481590271 0.33350253105163574
0.91775155067443848 0.27509200572967529 0.34048151969909668
0.94145709276199341 0.282266765832901 0.34315535426139832
0.96584486961364746 0.28732720017433167 0.3443484902381897
0.99074286222457886 0.28781703114509583 0.34822523593902588
0.027691172435879707 0.092691235244274139 0.16318048536777496
0.08596116304397583 0.090844444930553436 0.15764804184436798
0.2124006450176239 0.10315282642841339 0.16663680970668793
0.38751429319381714 0.13996110856533051 0.19284443557262421
0.55976349115371704 0.18629457056522369 0.22768561542034149
0.6981738805770874 0.22984153032302856 0.25819411873817444
0.79290097951889038 0.27258580923080444 0.28555482625961304
0.85118478536605835 0.30503234267234802 0.3144913911819458
0.88778018951416016 0.32423219084739685 0.33379769325256348
0.9147612452507019 0.33105364441871643 0.3418012261390686
0.93973618745803833 0.33619210124015808 0.34433180093765259
0.96471107006072998 0.34081104397773743 0.34707802534103394
0.99044203758239746 0.34153485298156738 0.35174483060836792
0.023651108145713806 0.1829519122838974 0.14992533624172211
0.066036432981491089 0.17664165794849396 0.1452765017747879
0.1674664169549942 0.17998853325843811 0.14792463183403015
0.32478642463684082 0.19882529973983765 0.16271713376045227
0.50218230485916138 0.23317836225032806 0.19093534350395203
0.66126734018325806 0.27091971039772034 0.22846516966819763
0.77580803632736206 0.30323490500450134 0.26649743318557739
0.8436274528503418 0.33016267418861389 0.301373690366745
0.88431775569915771 0.3503933846950531 0.32410654425621033
0.91361993551254272 0.36144527792930603 0.33407741785049438
0.9395134449005127 0.3675650954246521 0.33971741795539856
0.96421831846237183 0.37351891398429871 0.34425345063209534
0.99044454097747803 0.37683877348899841 0.35003486275672913
0.026733547449111938 0.28712308406829834 0.14821812510490417
0.05875435471534729 0.28068876266479492 0.14498601853847504
0.1379273384809494 0.27501073479652405 0.14103642106056213
0.27340111136436462 0.27792450785636902 0.13926036655902863
0.44293391704559326 0.29865303635597229 0.15467487275600433
0.61023992300033569 0.32928869128227234 0.19100785255432129
0.74495983123779297 0.35495612025260925 0.23218622803688049
0.83235687017440796 0.37599015235900879 0.26802322268486023
0.88292646408081055 0.39273273944854736 0.29361337423324585
0.91525852680206299 0.40237170457839966 0.30965128540992737
0.94061803817749023 0.40730682015419006 0.3189576268196106
0.96576756238937378 0.41129207611083984 0.32626995444297791
0.99087011814117432 0.41480559110641479 0.33411610126495361
0.035581789910793304 0.39243239164352417 0.15172025561332703
0.059236995875835419 0.38830357789993286 0.14980168640613556
0.11889148503541946 0.37919735908508301 0.14180415868759155
0.23080568015575409 0.37062865495681763 0.12726129591464996
0.3857654333114624 0.37718284130096436 0.12685035169124603
0.55166423320770264 0.40247029066085815 0.15521796047687531
0.70244407653808594 0.42726603150367737 0.19419075548648834
0.81275200843811035 0.44471606612205505 0.23023341596126556
