assets/lut/editingcorp wavefire.cube
# Created by: G'MIC (https://gmic.eu)
TITLE "wavefire"
# LUT size
LUT_3D_SIZE 13
# Data domain
DOMAIN_MIN 0.0 0.0 0.0
DOMAIN_MAX 1.0 1.0 1.0
# LUT data points
0.019273854792118073 0.015800341963768005 0.04201773926615715
0.15278446674346924 0.027020249515771866 0.056043393909931183
0.32411888241767883 0.055141478776931763 0.070809997618198395
0.46028086543083191 0.067220889031887054 0.07101709395647049
0.57127112150192261 0.073924347758293152 0.071155130863189697
0.66728383302688599 0.1071835532784462 0.085699252784252167
0.75631231069564819 0.10423820465803146 0.089581415057182312
0.82750308513641357 0.081958785653114319 0.082874014973640442
0.86644142866134644 0.074866816401481628 0.078077904880046844
0.88639044761657715 0.071329884231090546 0.079384312033653259
0.90492802858352661 0.069150455296039581 0.083512760698795319
0.92570656538009644 0.088762782514095306 0.083326630294322968
0.94739776849746704 0.1031077653169632 0.082691505551338196
0.004390073474496603 0.10822001099586487 0.049831315875053406
0.12389044463634491 0.10587552934885025 0.052222952246665955
0.30236989259719849 0.11537545919418335 0.065743647515773773
0.44079804420471191 0.1329139918088913 0.070928595960140228
0.55314642190933228 0.14063645899295807 0.074487917125225067
0.65339148044586182 0.14939743280410767 0.08402174711227417
0.74933111667633057 0.14515438675880432 0.088373936712741852
0.82750868797302246 0.13272373378276825 0.085228860378265381
0.86689472198486328 0.12872016429901123 0.081070452928543091
0.88414442539215088 0.12587030231952667 0.080573216080665588
0.90254366397857666 0.12430357187986374 0.082486711442470551
0.92421776056289673 0.13087666034698486 0.083212114870548248
0.94738048315048218 0.13180966675281525 0.082603961229324341
0.0055783889256417751 0.23825421929359436 0.074162036180496216
0.092859096825122833 0.22786059975624084 0.072106502950191498
0.27022188901901245 0.21802763640880585 0.070498794317245483
0.42530009150505066 0.21654891967773438 0.074372343719005585
0.53923583030700684 0.21311935782432556 0.078990638256072998
0.64030027389526367 0.20789425075054169 0.083062849938869476
0.73808139562606812 0.19896425306797028 0.087134957313537598
0.82056248188018799 0.18636937439441681 0.087808497250080109
0.86491423845291138 0.17674534022808075 0.086886025965213776
0.88478654623031616 0.1702641099691391 0.084970362484455109
0.90319222211837769 0.16736263036727905 0.084842860698699951
0.92546749114990234 0.16485397517681122 0.086796030402183533
0.9489099383354187 0.1624109148979187 0.085021257400512695
0.024701466783881187 0.35854378342628479 0.099133618175983429
0.080597326159477234 0.34964975714683533 0.097283907234668732
0.22692273557186127 0.33697634935379028 0.086277306079864502
0.39427000284194946 0.32628610730171204 0.08056417852640152
0.5239708423614502 0.31581193208694458 0.08278617262840271
0.62598240375518799 0.30178195238113403 0.084822215139865875
0.7180362343788147 0.28663501143455505 0.08880016952753067
0.80407673120498657 0.26951861381530762 0.090544693171977997
0.86088281869888306 0.25380006432533264 0.089147351682186127
0.88942432403564453 0.24157032370567322 0.086180113255977631
0.90906846523284912 0.23311923444271088 0.087103493511676788
0.93004035949707031 0.22666928172111511 0.089107468724250793
0.95254582166671753 0.22476816177368164 0.086138151586055756
0.05807901918888092 0.46457400918006897 0.11902130395174026
0.082139886915683746 0.45772442221641541 0.11896128952503204
0.17869484424591064 0.44855943322181702 0.11099467426538467
0.34462553262710571 0.43806719779968262 0.095708392560482025
0.49986705183982849 0.42724722623825073 0.089874371886253357
0.60977399349212646 0.41087716817855835 0.092367343604564667
0.69925576448440552 0.39157798886299133 0.097215630114078522
0.78941792249679565 0.37175160646438599 0.097929127514362335
0.85925579071044922 0.35300964117050171 0.093703083693981171
0.89633417129516602 0.33737912774085999 0.088041745126247406
0.9171631932258606 0.32454970479011536 0.089682847261428833
0.93629342317581177 0.3150637149810791 0.092502698302268982
0.957896888256073 0.30983531475067139 0.089657410979270935
0.087274931371212006 0.55520337820053101 0.1333758533000946
0.095972351729869843 0.5511205792427063 0.13468874990940094
0.15444199740886688 0.54452389478683472 0.12886860966682434
0.29090419411659241 0.53685277700424194 0.11378661543130875
0.45327082276344299 0.52984434366226196 0.10488598048686981
0.58239835500717163 0.51591247320175171 0.10400792956352234
0.68145060539245605 0.4958319365978241 0.10482641309499741
0.77775633335113525 0.47500455379486084 0.10239844024181366
0.85775738954544067 0.4552028477191925 0.095606766641139984
0.90316063165664673 0.437691330909729 0.089855358004570007
0.92514669895172119 0.42326471209526062 0.092055030167102814
0.94282060861587524 0.4119962751865387 0.095084637403488159
0.96362626552581787 0.4022095799446106 0.094576679170131683
0.11537860333919525 0.643818199634552 0.14410804212093353
0.12013132125139236 0.63969016075134277 0.14675562083721161
0.14925049245357513 0.63288342952728271 0.14188015460968018
0.243177130818367 0.62700420618057251 0.13107429444789886
0.3917824923992157 0.62349265813827515 0.12016338109970093
0.53549051284790039 0.61328709125518799 0.11164073646068573
0.6551857590675354 0.59533166885375977 0.10477251559495926
0.76299309730529785 0.57546299695968628 0.099245719611644745
0.85466331243515015 0.55295264720916748 0.093223035335540771
0.91080766916275024 0.53140270709991455 0.090124867856502533
0.93342757225036621 0.51569771766662598 0.093147039413452148
0.94950205087661743 0.5036386251449585 0.094259880483150482
0.96977156400680542 0.4900411069393158 0.094343490898609161
0.13563981652259827 0.74136859178543091 0.14819888770580292
0.14230325818061829 0.73504281044006348 0.1540132611989975
0.15609110891819 0.72856330871582031 0.15090520679950714
0.2184721976518631 0.72282111644744873 0.14263679087162018
0.33801344037055969 0.71906435489654541 0.12895870208740234
0.47624513506889343 0.71273899078369141 0.11366213858127594
0.60748553276062012 0.70068454742431641 0.10177937150001526
0.72954976558685303 0.68258064985275269 0.094002112746238708
0.83970773220062256 0.65524846315383911 0.08858799934387207
0.91535717248916626 0.62528777122497559 0.087583012878894806
0.94449365139007568 0.60357886552810669 0.089466869831085205
0.96131539344787598 0.58642709255218506 0.090243920683860779
0.97882181406021118 0.57069754600524902 0.089603319764137268
0.1433713436126709 0.83580243587493896 0.14458951354026794
0.15375813841819763 0.82996600866317749 0.1498747318983078
0.16813012957572937 0.82531130313873291 0.14894148707389832
0.21268172562122345 0.8184506893157959 0.14307007193565369
0.30154085159301758 0.81324923038482666 0.1295236349105835
0.41921406984329224 0.81193852424621582 0.11070848256349564
0.54564446210861206 0.80854219198226929 0.095587804913520813
0.67282307147979736 0.79635035991668701 0.086066871881484985
0.79791039228439331 0.76995706558227539 0.08099713921546936
0.8977777361869812 0.73608815670013428 0.079642519354820251
0.94983857870101929 0.70552688837051392 0.080573663115501404
0.97376525402069092 0.68197822570800781 0.081979073584079742
0.98906868696212769 0.66081172227859497 0.083292089402675629
0.14744633436203003 0.90253418684005737 0.14280851185321808
0.16106931865215302 0.89874601364135742 0.14511856436729431
0.17728795111179352 0.89704936742782593 0.1432337760925293
0.20992670953273773 0.89047515392303467 0.13960129022598267
0.27414432168006897 0.88515704870223999 0.12876221537590027
0.37000066041946411 0.88913935422897339 0.10975084453821182
0.4857061505317688 0.89467865228652954 0.090940199792385101
0.60975009202957153 0.89352655410766602 0.078345969319343567
0.73980563879013062 0.88022869825363159 0.071993105113506317
0.86547279357910156 0.85904830694198608 0.068893581628799438
0.94906741380691528 0.83465629816055298 0.067805901169776917
0.98128867149353027 0.80723381042480469 0.069813087582588196
0.99415957927703857 0.77869081497192383 0.073158025741577148
0.15226402878761292 0.9354669451713562 0.14692842960357666
0.16682484745979309 0.93107104301452637 0.14550584554672241
0.17976197600364685 0.92910933494567871 0.14319257438182831
0.20045621693134308 0.92545062303543091 0.14299438893795013
0.24509346485137939 0.924235999584198 0.13593527674674988
0.32442376017570496 0.9320521354675293 0.11768673360347748
0.4372115433216095 0.94208961725234985 0.093315541744232178
0.56456530094146729 0.9483686089515686 0.075411885976791382
0.6940578818321228 0.95141547918319702 0.067147500813007355
0.83495634794235229 0.94958102703094482 0.061901271343231201
0.94356489181518555 0.9414406418800354 0.057144477963447571
0.98408627510070801 0.92456322908401489 0.056503325700759888
0.99648725986480713 0.89928382635116577 0.061020750552415848
0.15291234850883484 0.9546390175819397 0.14858043193817139
0.16617405414581299 0.94760769605636597 0.14663258194923401
0.1735566258430481 0.94507092237472534 0.14526021480560303
0.18289743363857269 0.9455522894859314 0.14830663800239563
0.20961593091487885 0.94751483201980591 0.14491483569145203
0.27412399649620056 0.95628088712692261 0.12837295234203339
0.38961541652679443 0.96572893857955933 0.097634591162204742
0.52811747789382935 0.97228080034255981 0.074081853032112122
0.65990465879440308 0.98040503263473511 0.067113198339939117
0.79955267906188965 0.98519599437713623 0.062779970467090607
0.92608356475830078 0.98331713676452637 0.054323684424161911
0.98851191997528076 0.98086708784103394 0.050898905843496323
0.99987363815307617 0.97023928165435791 0.054407756775617599
0.14354783296585083 0.97610718011856079 0.13750727474689484
0.15366630256175995 0.97056174278259277 0.13803002238273621
0.15709604322910309 0.96855509281158447 0.13895392417907715
0.15956072509288788 0.96973013877868652 0.1412944495677948
0.17451104521751404 0.97319269180297852 0.13943977653980255
0.22332552075386047 0.9799463152885437 0.12671779096126556
0.33187758922576904 0.98736119270324707 0.096679329872131348
0.47322002053260803 0.99246793985366821 0.070205226540565491
0.60726970434188843 0.99651950597763062 0.063900232315063477
0.74480956792831421 0.99843096733093262 0.061953838914632797
0.88213026523590088 0.99770659208297729 0.053615793585777283
0.96799123287200928 0.998088538646698 0.049004692584276199
0.99719738960266113 0.99742805957794189 0.049332577735185623
0.012447431683540344 0.023149587213993073 0.14644467830657959
0.138904869556427 0.024181202054023743 0.14869284629821777
0.31671926379203796 0.034525450319051743 0.14576937258243561
0.45900925993919373 0.042161710560321808 0.14203797280788422
0.5725710391998291 0.043673660606145859 0.13581883907318115
0.67044597864151001 0.072591789066791534 0.13684195280075073
0.76334542036056519 0.08247482031583786 0.13139361143112183
0.83703446388244629 0.061166170984506607 0.1205701008439064
0.87051045894622803 0.068975858390331268 0.11344161629676819
0.88551944494247437 0.074938274919986725 0.11364545673131943
0.90341019630432129 0.066540196537971497 0.11542411893606186
0.92429786920547485 0.06881452351808548 0.10923578590154648
0.94593608379364014 0.06013113260269165 0.10438411682844162
0.011566820554435253 0.11403968930244446 0.14261041581630707
0.1183636263012886 0.10829659551382065 0.13402330875396729
0.28846034407615662 0.1143118292093277 0.13072589039802551
0.43378344178199768 0.12602664530277252 0.12913820147514343
0.55028915405273438 0.13189101219177246 0.12381646782159805
0.65191292762756348 0.14431342482566833 0.12478738278150558
0.74896907806396484 0.14833882451057434 0.12407877296209335
0.82817369699478149 0.13444682955741882 0.11760813742876053
0.86545175313949585 0.13569554686546326 0.1109493151307106
0.88169652223587036 0.13719780743122101 0.1091449186205864
0.9015839695930481 0.13293036818504333 0.10905220359563828
0.92397654056549072 0.13395282626152039 0.10586173832416534
0.94750547409057617 0.12036837637424469 0.10447302460670471
0.0093904081732034683 0.23440052568912506 0.14190934598445892
0.09189111739397049 0.2242509126663208 0.12998063862323761
0.25955355167388916 0.21696978807449341 0.11637105047702789
0.41639065742492676 0.21438173949718475 0.11661924421787262
0.53497439622879028 0.2109038382768631 0.11195940524339676
0.6368679404258728 0.20552933216094971 0.11157944798469543
0.73604518175125122 0.19991002976894379 0.11413796991109848
0.8209419846534729 0.18979363143444061 0.11170469969511032
0.8640015721321106 0.17960730195045471 0.10963919013738632
0.88312399387359619 0.17394150793552399 0.10718397051095963
0.90254217386245728 0.17220917344093323 0.10668151080608368
0.92556792497634888 0.16801248490810394 0.10757534205913544
0.94937366247177124 0.16209918260574341 0.10490371286869049
0.020216803997755051 0.35283905267715454 0.1405261754989624
0.076192103326320648 0.34492725133895874 0.13413730263710022
0.21859635412693024 0.33532115817070007 0.11788759380578995
0.38732555508613586 0.32541203498840332 0.11058390140533447
0.51932418346405029 0.313966304063797 0.10777924209833145
0.62130182981491089 0.29940694570541382 0.10457147657871246
0.71748876571655273 0.28506696224212646 0.10515434294939041
0.80799573659896851 0.2694585919380188 0.10589918494224548
0.86420345306396484 0.25345942378044128 0.1048194020986557
0.88876080513000488 0.24077014625072479 0.10043195635080338
0.9073142409324646 0.23298065364360809 0.10388805717229843
0.92890816926956177 0.22636523842811584 0.10615232586860657
0.95188790559768677 0.22395531833171844 0.10186390578746796
0.049243569374084473 0.46059092879295349 0.14273905754089355
0.07397046685218811 0.45535373687744141 0.14160482585430145
0.17024257779121399 0.44751042127609253 0.13105116784572601
0.33966603875160217 0.43661013245582581 0.11215821653604507
0.49485459923744202 0.42461243271827698 0.10492351651191711
0.60400485992431641 0.40890288352966309 0.10568433254957199
0.69770640134811401 0.39045417308807373 0.1085863783955574
0.79368990659713745 0.37094536423683167 0.11120376735925674
0.8665471076965332 0.35199350118637085 0.10967383533716202
0.89800906181335449 0.33567008376121521 0.10210938006639481
0.91523975133895874 0.32352930307388306 0.10589426010847092
0.93441218137741089 0.31451785564422607 0.10913904011249542
0.95663470029830933 0.30891048908233643 0.10532663017511368
0.088929735124111176 0.55420458316802979 0.14950630068778992
0.097184695303440094 0.5508042573928833 0.14708378911018372
0.15346744656562805 0.5448760986328125 0.13976046442985535
0.29126197099685669 0.53678011894226074 0.12195591628551483
0.45116105675697327 0.52833980321884155 0.11326535046100616
0.57906782627105713 0.51460546255111694 0.11433941870927811
0.67923927307128906 0.49542415142059326 0.11683209240436554
0.77973693609237671 0.47471481561660767 0.11641108244657516
0.8626207709312439 0.45348954200744629 0.11160414665937424
0.90386855602264404 0.43628969788551331 0.10473065823316574
0.92239731550216675 0.42260077595710754 0.10718834400177002
0.94096332788467407 0.41128039360046387 0.11166852712631226
0.96386981010437012 0.40126636624336243 0.1124546155333519
0.12500831484794617 0.64352631568908691 0.15634916722774506
0.13020093739032745 0.63869500160217285 0.15574067831039429
0.15674439072608948 0.633228600025177 0.15199482440948486
0.24862663447856903 0.62754589319229126 0.14182476699352264
0.3920586109161377 0.62270140647888184 0.13030326366424561
0.53407597541809082 0.61250251531600952 0.12378725409507751
0.65308338403701782 0.59549343585968018 0.12042255699634552
0.7627638578414917 0.57485640048980713 0.11540364474058151
0.85554671287536621 0.55143994092941284 0.10915720462799072
0.90803700685501099 0.53110605478286743 0.10617587715387344
0.92922347784042358 0.51579123735427856 0.10737445205450058
0.94869756698608398 0.50160479545593262 0.10941971093416214
0.97086608409881592 0.48798781633377075 0.11138561367988586
0.14436782896518707 0.73739182949066162 0.1597924530506134
0.15117190778255463 0.73061490058898926 0.16472817957401276
0.16004954278469086 0.72511941194534302 0.16456513106822968
0.21608841419219971 0.71994835138320923 0.1606132984161377
0.33363276720046997 0.71762174367904663 0.144495889544487
0.47313740849494934 0.71230477094650269 0.12890927493572235
0.60548919439315796 0.70035660266876221 0.12070862948894501
0.72932177782058716 0.6818993091583252 0.11294993758201599
0.84050554037094116 0.65341335535049438 0.10751213878393173
0.91348123550415039 0.62444955110549927 0.10631082206964493
0.9427565336227417 0.6046028733253479 0.10599630326032639
0.96139109134674072 0.586181640625 0.1042306199669838
0.97946822643280029 0.56974071264266968 0.10469252616167068
0.14656201004981995 0.82816338539123535 0.15636248886585236
0.15548597276210785 0.82310408353805542 0.16194000840187073
0.16392074525356293 0.81862819194793701 0.16489605605602264
0.2027624249458313 0.81346708536148071 0.16312792897224426
0.29168951511383057 0.81264293193817139 0.14620417356491089
0.41292276978492737 0.81429147720336914 0.12469587475061417
0.54217338562011719 0.81071752309799194 0.11219316720962524
0.67202579975128174 0.79628777503967285 0.10656204074621201
0.79968827962875366 0.76738148927688599 0.10272307693958282
0.90162539482116699 0.73292279243469238 0.10031972825527191
0.95211178064346313 0.70684629678726196 0.098310090601444244
0.97433203458786011 0.68336623907089233 0.097435370087623596
0.98877990245819092 0.66119295358657837 0.098787285387516022
0.14656306803226471 0.8943595290184021 0.15712516009807587
0.15788774192333221 0.89254838228225708 0.16022478044033051
0.17002987861633301 0.8902207612991333 0.16156946122646332
0.19967220723628998 0.88666647672653198 0.15902821719646454
0.26397112011909485 0.88673168420791626 0.14586305618286133
0.36199203133583069 0.89474189281463623 0.12313269823789597
0.48001396656036377 0.89883625507354736 0.10597264766693115
0.60655945539474487 0.89306735992431641 0.098876610398292542
0.73729819059371948 0.87756609916687012 0.093865670263767242
0.86184012889862061 0.85435807704925537 0.089498139917850494
0.94462090730667114 0.83153480291366577 0.087958350777626038
0.97990882396697998 0.8051835298538208 0.089412420988082886
0.99454689025878906 0.77385079860687256 0.092688120901584625
0.15037435293197632 0.92962151765823364 0.16436517238616943
0.16340328752994537 0.92861092090606689 0.16603143513202667
0.17466720938682556 0.92832106351852417 0.16589957475662231
0.19441893696784973 0.92579740285873413 0.16527283191680908
0.2388276606798172 0.9264790415763855 0.15721800923347473
0.31843864917755127 0.93522435426712036 0.1360992044210434
0.43003389239311218 0.94450455904006958 0.11095897853374481
0.55675947666168213 0.94731521606445312 0.09582914412021637
0.68666946887969971 0.94784408807754517 0.08822159469127655
0.8248906135559082 0.94330322742462158 0.082761414349079132
0.93353134393692017 0.93466091156005859 0.079108461737632751
0.98191720247268677 0.9205009937286377 0.079646438360214233
0.99804592132568359 0.89295792579650879 0.083496108651161194
0.15103627741336823 0.95052444934844971 0.16364790499210358
0.16484335064888 0.94919037818908691 0.16734752058982849
0.17369621992111206 0.94891464710235596 0.17014406621456146
0.18345989286899567 0.94859987497329712 0.17155787348747253
0.21097621321678162 0.9493633508682251 0.1654088944196701
0.27618741989135742 0.9567376971244812 0.14390093088150024
0.38483205437660217 0.96656227111816406 0.1111324355006218
0.51738095283508301 0.97027504444122314 0.091014519333839417
0.65032279491424561 0.97642475366592407 0.085320025682449341
0.79085195064544678 0.98121851682662964 0.08129572868347168
0.9211723804473877 0.97997575998306274 0.075172349810600281
0.98903572559356689 0.97994816303253174 0.072224289178848267
0.99997234344482422 0.97073400020599365 0.075282074511051178
0.1414298415184021 0.9746822714805603 0.13868767023086548
0.15465283393859863 0.97248876094818115 0.14729110896587372
0.16193720698356628 0.97326534986495972 0.15381225943565369
0.16576230525970459 0.97358536720275879 0.15511909127235413
0.18255983293056488 0.97462171316146851 0.14717997610569
0.23569713532924652 0.98079031705856323 0.12584622204303741
0.33695122599601746 0.98895680904388428 0.093847565352916718
0.46632909774780273 0.99233496189117432 0.074071310460567474
0.59919840097427368 0.99501901865005493 0.07249634712934494
0.73938804864883423 0.99689698219299316 0.074000895023345947
0.88062757253646851 0.99626004695892334 0.06907336413860321
0.97047644853591919 0.99844211339950562 0.06555493175983429
0.99830478429794312 0.99875950813293457 0.065991327166557312
0.0070068808272480965 0.037624388933181763 0.27774551510810852
0.1215478926897049 0.034660205245018005 0.27199265360832214
0.29575955867767334 0.036903996020555496 0.26046735048294067
0.44777595996856689 0.0468459352850914 0.25586035847663879
0.5672907829284668 0.053709305822849274 0.24775059521198273
0.66779619455337524 0.066050045192241669 0.23454929888248444
0.76260948181152344 0.06805158406496048 0.21948733925819397
0.83877277374267578 0.051730677485466003 0.2033650279045105
0.87297064065933228 0.061145797371864319 0.19269607961177826
0.88678568601608276 0.071658790111541748 0.18715055286884308
0.90261745452880859 0.067379429936408997 0.18098923563957214
0.92215806245803833 0.056631021201610565 0.1699845939874649
0.94421923160552979 0.038053549826145172 0.1620151698589325
0.009023045189678669 0.12425761669874191 0.26488786935806274
0.089653044939041138 0.11874380707740784 0.25745075941085815
0.2564740777015686 0.12010014802217484 0.24411331117153168
0.42379209399223328 0.13059166073799133 0.23538236320018768
0.54630559682846069 0.14474779367446899 0.22614216804504395
0.64726608991622925 0.14973551034927368 0.21725822985172272
0.74383711814880371 0.14393545687198639 0.20887351036071777
0.82563793659210205 0.13346831500530243 0.19556885957717896
0.86726838350296021 0.13590717315673828 0.18262608349323273
0.88469308614730835 0.13968090713024139 0.17489258944988251
0.90271300077438354 0.13611042499542236 0.16958798468112946
0.92483037710189819 0.12921245396137238 0.16253684461116791
0.94816309213638306 0.11345599591732025 0.15832538902759552
0.006045621819794178 0.22651346027851105 0.25067505240440369
0.063988871872425079 0.22078187763690948 0.24197167158126831
0.22218671441078186 0.21499614417552948 0.22743739187717438
0.40368509292602539 0.21213141083717346 0.21285237371921539
0.53233546018600464 0.21096301078796387 0.20042364299297333
0.63128018379211426 0.20636370778083801 0.19363009929656982
0.72941356897354126 0.19919125735759735 0.18775433301925659
0.81707274913787842 0.1907125860452652 0.17740677297115326
0.86527085304260254 0.18285529315471649 0.16774506866931915
0.88562643527984619 0.17741221189498901 0.15999533236026764
0.90432476997375488 0.17356474697589874 0.1579727977514267
0.92710244655609131 0.16899845004081726 0.15555916726589203
0.95072078704833984 0.1634664386510849 0.15110145509243011
0.01906973123550415 0.3408227264881134 0.22869127988815308
0.059665396809577942 0.33647719025611877 0.22415891289710999
0.1882360428571701 0.33055147528648376 0.20959186553955078
0.3767981231212616 0.32029074430465698 0.19044895470142365
0.51944231986999512 0.31076207756996155 0.1778462827205658
0.61633807420730591 0.29878586530685425 0.16974662244319916
0.71238666772842407 0.28479692339897156 0.16271822154521942
0.80553996562957764 0.2692226767539978 0.15559996664524078
0.8639599084854126 0.25367054343223572 0.14902912080287933
0.8882366418838501 0.24191509187221527 0.14013579487800598
0.90739381313323975 0.23441262543201447 0.14466361701488495
0.9290846586227417 0.2293238639831543 0.14532867074012756
0.9519539475440979 0.22743211686611176 0.13804073631763458
0.052558645606040955 0.45109659433364868 0.21021397411823273
0.070805519819259644 0.44763556122779846 0.20757833123207092
0.15397673845291138 0.44216039776802063 0.19438156485557556
0.32874447107315063 0.43227502703666687 0.17017076909542084
0.4926220178604126 0.4213641881942749 0.15875892341136932
0.5995171070098877 0.40669652819633484 0.15441541373729706
