assets/lut/editingcorp padre.cube
# Created by: G'MIC (https://gmic.eu)
TITLE "padre"
# LUT size
LUT_3D_SIZE 5
# Data domain
DOMAIN_MIN 0.0 0.0 0.0
DOMAIN_MAX 1.0 1.0 1.0
# LUT data points
0.01874198205769062 0.019865447655320168 0.025825081393122673
0.20604127645492554 0.031257256865501404 0.036901019513607025
0.50191229581832886 0.068790078163146973 0.10210463404655457
0.72184556722640991 0.062039125710725784 0.12528885900974274
0.85490942001342773 0.09979432076215744 0.14196538925170898
0.014021765440702438 0.21640285849571228 0.055925793945789337
0.18035197257995605 0.21050365269184113 0.051541794091463089
0.47516760230064392 0.20812587440013885 0.082008257508277893
0.73307651281356812 0.22413589060306549 0.11782783269882202
0.86705905199050903 0.22573783993721008 0.12624636292457581
0.018486741930246353 0.49672886729240417 0.1235477402806282
0.12999330461025238 0.48841676115989685 0.11898741126060486
0.43297603726387024 0.49011856317520142 0.095537044107913971
0.7735481858253479 0.44667148590087891 0.097677133977413177
0.89570838212966919 0.43837106227874756 0.12768498063087463
0.032791033387184143 0.78681838512420654 0.21415562927722931
0.14413748681545258 0.77576541900634766 0.21391117572784424
0.29366269707679749 0.78159141540527344 0.22893513739109039
0.73020488023757935 0.77979779243469238 0.16116215288639069
0.92553430795669556 0.76307415962219238 0.18982502818107605
0.027190504595637321 0.95740032196044922 0.24326047301292419
0.14940622448921204 0.94920969009399414 0.2456047385931015
0.27000001072883606 0.9589613676071167 0.27023202180862427
0.65040940046310425 0.98081177473068237 0.26516282558441162
0.9412151575088501 0.99056029319763184 0.30348929762840271
0.017266307026147842 0.022834358736872673 0.20462526381015778
0.19787731766700745 0.022184664383530617 0.22084489464759827
0.502857506275177 0.027993639931082726 0.2513217031955719
0.72481822967529297 0.052667297422885895 0.28177577257156372
0.85596144199371338 0.085223190486431122 0.29389593005180359
0.014516015537083149 0.22083038091659546 0.23056107759475708
0.17312124371528625 0.21503369510173798 0.21983145177364349
0.47285547852516174 0.21611283719539642 0.2334270179271698
0.74166405200958252 0.24976189434528351 0.26548394560813904
0.86941802501678467 0.24207070469856262 0.27009493112564087
0.018471376970410347 0.49670541286468506 0.26967233419418335
0.13663682341575623 0.48650267720222473 0.26066061854362488
0.43302643299102783 0.48867672681808472 0.21984483301639557
0.77088218927383423 0.44839239120483398 0.22344717383384705
0.89313286542892456 0.43908947706222534 0.25068110227584839
0.034134134650230408 0.78122413158416748 0.33634299039840698
0.15683953464031219 0.77844059467315674 0.3319147527217865
0.29909926652908325 0.78037476539611816 0.34587106108665466
0.72201371192932129 0.78060287237167358 0.28624540567398071
0.92712044715881348 0.76302635669708252 0.32503357529640198
0.040414698421955109 0.9470331072807312 0.36890691518783569
0.15272264182567596 0.94794541597366333 0.37526154518127441
0.29828184843063354 0.96078890562057495 0.38137853145599365
0.66401493549346924 0.97816598415374756 0.38902115821838379
0.94915866851806641 0.99632441997528076 0.44927045702934265
0.016709914430975914 0.032819412648677826 0.49525368213653564
0.1857190877199173 0.034959428012371063 0.52147465944290161
0.48134848475456238 0.045063406229019165 0.51842111349105835
0.73308944702148438 0.056326668709516525 0.51215642690658569
0.86023175716400146 0.087522558867931366 0.51117324829101562
0.012796140275895596 0.25282815098762512 0.48968973755836487
0.15802302956581116 0.23301276564598083 0.50687891244888306
0.44912642240524292 0.22702355682849884 0.49008789658546448
0.73450964689254761 0.25483042001724243 0.49840694665908813
0.87209677696228027 0.26029255986213684 0.51315367221832275
0.01909218542277813 0.51158493757247925 0.51675689220428467
0.13367880880832672 0.50567585229873657 0.51156282424926758
0.40865811705589294 0.49793359637260437 0.50649136304855347
0.76453292369842529 0.48819842934608459 0.50959903001785278
0.90223509073257446 0.49292248487472534 0.51846873760223389
0.03732631728053093 0.78907555341720581 0.56318527460098267
0.15339560806751251 0.78715664148330688 0.55216103792190552
0.30800271034240723 0.78810840845108032 0.55490016937255859
0.73124605417251587 0.78364557027816772 0.51125586032867432
0.93255090713500977 0.77258455753326416 0.52815663814544678
0.048140238970518112 0.96259671449661255 0.56352180242538452
0.15871067345142365 0.95280575752258301 0.56735390424728394
0.29792821407318115 0.96618145704269409 0.56094574928283691
0.65028679370880127 0.98955965042114258 0.57348436117172241
0.95360511541366577 0.99496591091156006 0.61476415395736694
0.018348170444369316 0.050100766122341156 0.70383942127227783
0.1821393221616745 0.047003772109746933 0.73245573043823242
0.46760556101799011 0.056075975298881531 0.7871544361114502
0.73946511745452881 0.071461789309978485 0.76551944017410278
0.86640477180480957 0.085403010249137878 0.75485080480575562
0.015859685838222504 0.26720491051673889 0.72945219278335571
0.16073232889175415 0.25714069604873657 0.73840510845184326
0.42640912532806396 0.24276570975780487 0.80143237113952637
0.7311326265335083 0.2558649480342865 0.76990652084350586
0.87525773048400879 0.25956094264984131 0.78849595785140991
0.025124238803982735 0.51646596193313599 0.78565096855163574
0.14797878265380859 0.51026284694671631 0.78442609310150146
0.37020993232727051 0.50596392154693604 0.8129500150680542
0.76049935817718506 0.49267357587814331 0.80893808603286743
0.90762639045715332 0.50068920850753784 0.79831111431121826
0.053086839616298676 0.8117249608039856 0.83722841739654541
0.16720496118068695 0.80666804313659668 0.82923924922943115
0.32285267114639282 0.79785943031311035 0.82831478118896484
0.70876079797744751 0.80517160892486572 0.82671850919723511
0.93885987997055054 0.79925632476806641 0.82559823989868164
0.063228070735931396 0.97696948051452637 0.82653039693832397
0.1741214245557785 0.98009294271469116 0.8299451470375061
0.32956212759017944 0.98802298307418823 0.82366681098937988
0.65850293636322021 0.99468147754669189 0.83828139305114746
0.96317780017852783 0.99343574047088623 0.85150080919265747
0.014315945096313953 0.05904122069478035 0.82177627086639404
0.17698365449905396 0.052317541092634201 0.85574132204055786
0.44857317209243774 0.064238347113132477 0.90940839052200317
0.7163245677947998 0.080152995884418488 0.89883303642272949
0.86218780279159546 0.045338887721300125 0.91039812564849854
0.01868622750043869 0.26985025405883789 0.85685974359512329
0.16475528478622437 0.25452843308448792 0.86892598867416382
0.41934317350387573 0.24654367566108704 0.92841482162475586
0.71874463558197021 0.26490190625190735 0.92355787754058838
0.87112796306610107 0.26712661981582642 0.93059295415878296
0.029658598825335503 0.51065963506698608 0.92203062772750854
0.15256118774414062 0.50839853286743164 0.92072033882141113
0.35731786489486694 0.5144118070602417 0.9565892219543457
0.73101085424423218 0.50374746322631836 0.98305726051330566
0.90149092674255371 0.50348794460296631 0.97248393297195435
0.065845608711242676 0.80570030212402344 0.98587894439697266
0.1798689216375351 0.79671609401702881 0.98161894083023071
0.35545462369918823 0.79590296745300293 0.98762726783752441
0.71332705020904541 0.81056296825408936 0.9939577579498291
0.94744861125946045 0.81357645988464355 0.9959946870803833
0.10912284255027771 0.99063986539840698 0.99311333894729614
0.24426352977752686 0.99011242389678955 0.9948725700378418
0.43770566582679749 0.99707776308059692 0.99546569585800171
0.73094964027404785 0.9967426061630249 0.99582874774932861
0.97179222106933594 0.99432021379470825 0.99653047323226929
