assets/lut/editingcorp levex.cube
# Created by: G'MIC (https://gmic.eu)
TITLE "levex"
# LUT size
LUT_3D_SIZE 5
# Data domain
DOMAIN_MIN 0.0 0.0 0.0
DOMAIN_MAX 1.0 1.0 1.0
# LUT data points
0.034372426569461823 0.032416384667158127 0.029723508283495903
0.31238237023353577 0.046600565314292908 0.040430463850498199
0.57248616218566895 0.031984783709049225 0.0044559403322637081
0.7616390585899353 0.00015810798504389822 7.5845155151910149e-06
0.97276782989501953 0.2168489545583725 0.20958139002323151
0.065278403460979462 0.23457548022270203 0.061124630272388458
0.28861531615257263 0.26540425419807434 0.068091452121734619
0.5514758825302124 0.27550721168518066 0.020965306088328362
0.74717038869857788 0.23807103931903839 0.0031045502983033657
0.97818362712860107 0.3356471061706543 0.18104995787143707
0.020639561116695404 0.49109843373298645 0.058494042605161667
0.25817283987998962 0.50808209180831909 0.077026411890983582
0.56578332185745239 0.54496920108795166 0.061875961720943451
0.79558169841766357 0.56485235691070557 0.00028821159503422678
0.99612408876419067 0.60088527202606201 0.2539820671081543
0.02664794959127903 0.67842209339141846 0.049626756459474564
0.29658102989196777 0.69915688037872314 0.071989826858043671
0.60015630722045898 0.73621058464050293 0.11360780149698257
0.81684637069702148 0.76632595062255859 0.14759857952594757
0.99787384271621704 0.78282439708709717 0.39240619540214539
0.073462933301925659 0.90121620893478394 0.15272708237171173
0.3273780345916748 0.90542000532150269 0.20441415905952454
0.62268620729446411 0.93469220399856567 0.28915688395500183
0.83036893606185913 0.96610987186431885 0.42463874816894531
0.99997198581695557 0.99209469556808472 0.62675535678863525
0 0.063008025288581848 0.19707414507865906
0.24084597826004028 0.01359208021312952 0.22209548950195312
0.58371472358703613 0.01163138635456562 0.15028901398181915
0.8052859902381897 0 0.111503005027771
0.99127662181854248 0.33471196889877319 0.34172022342681885
0.013755963183939457 0.27672183513641357 0.16398608684539795
0.20713494718074799 0.22813616693019867 0.21934236586093903
0.57331544160842896 0.23248395323753357 0.17687214910984039
0.7997402548789978 0.18394008278846741 0.15998975932598114
0.98944705724716187 0.40930420160293579 0.38661152124404907
0.0042754826135933399 0.51306438446044922 0.12792246043682098
0.22138102352619171 0.46749177575111389 0.21803480386734009
0.57116526365280151 0.52789843082427979 0.26905360817909241
0.80701100826263428 0.55814260244369507 0.24404571950435638
0.99775898456573486 0.60524237155914307 0.42382374405860901
0.0034082899801433086 0.69577449560165405 0.11719744652509689
0.24957756698131561 0.67756491899490356 0.24710734188556671
0.59081447124481201 0.71123403310775757 0.3467804491519928
0.83045607805252075 0.76456880569458008 0.38656386733055115
1 0.79224920272827148 0.49644920229911804
0.093549735844135284 0.91223615407943726 0.21614159643650055
0.31791236996650696 0.87976402044296265 0.31069743633270264
0.62390220165252686 0.91354990005493164 0.42182424664497375
0.83427417278289795 0.96526569128036499 0.53556615114212036
0.99920636415481567 0.99093335866928101 0.62557625770568848
0.030308322980999947 0.06544225662946701 0.38718259334564209
0.064011953771114349 0.025811020284891129 0.51703166961669922
0.49282929301261902 0.00021829044271726161 0.44189807772636414
0.76652401685714722 0 0.4205743670463562
0.98547542095184326 0.29559722542762756 0.50020843744277954
6.3593244703952223e-05 0.31049782037734985 0.31939718127250671
9.6938192655215971e-06 0.27526381611824036 0.46421021223068237
0.47223851084709167 0.18067096173763275 0.45487090945243835
0.79407542943954468 0.086686216294765472 0.46576204895973206
0.98620843887329102 0.3654482364654541 0.54009628295898438
0.0024370979517698288 0.54199188947677612 0.2624782919883728
0.0094406278803944588 0.53487509489059448 0.4232235848903656
0.48561158776283264 0.4944610595703125 0.48789560794830322
0.80509597063064575 0.52355188131332397 0.50991559028625488
0.99993103742599487 0.58448201417922974 0.56745117902755737
0.0041452297009527683 0.72266215085983276 0.26771643757820129
0.069766193628311157 0.70963793992996216 0.43048512935638428
0.55298858880996704 0.68425279855728149 0.51538574695587158
0.80920207500457764 0.74712198972702026 0.58786994218826294
0.99974554777145386 0.78417229652404785 0.61795610189437866
0.12976732850074768 0.91663217544555664 0.31558704376220703
0.24285249412059784 0.90037357807159424 0.45568042993545532
0.60651135444641113 0.89467209577560425 0.54951262474060059
0.81431692838668823 0.94983363151550293 0.63420325517654419
0.99926906824111938 0.99581342935562134 0.7059255838394165
0.04212932288646698 0.066550172865390778 0.53245300054550171
0.1347106546163559 0.006329225841909647 0.62412047386169434
0.15422117710113525 0 0.669899582862854
0.65255135297775269 0.00072461296804249287 0.63092970848083496
0.9748644232749939 0.11341555416584015 0.6698792576789856
0 0.31765195727348328 0.47659066319465637
0.012643910944461823 0.27754557132720947 0.58315932750701904
0.020767839625477791 0.18414025008678436 0.66803687810897827
0.68657821416854858 0.04370759055018425 0.6619904637336731
0.98965960741043091 0.14633922278881073 0.69867950677871704
0.0073156468570232391 0.55620294809341431 0.43083655834197998
0 0.55532228946685791 0.56134545803070068
0.0057504992000758648 0.53296858072280884 0.65954393148422241
0.70555025339126587 0.48489055037498474 0.69502341747283936
0.99644607305526733 0.5257568359375 0.71591758728027344
0.0056046131066977978 0.7488979697227478 0.43668076395988464
5.6547278290963732e-06 0.74645566940307617 0.57386529445648193
0.15660767257213593 0.72377222776412964 0.64399629831314087
0.71548700332641602 0.71113348007202148 0.70313161611557007
0.99943727254867554 0.74522000551223755 0.73369079828262329
0.22250637412071228 0.90243434906005859 0.4592583179473877
0.18690568208694458 0.91852152347564697 0.57555794715881348
0.39040917158126831 0.91412091255187988 0.63553822040557861
0.75596326589584351 0.92869466543197632 0.71729964017868042
1 0.99934905767440796 0.84908211231231689
0.069038867950439453 0.058830846101045609 0.63984471559524536
0.16258569061756134 0.00035597858368419111 0.73063075542449951
0.22053024172782898 0.00038078159559518099 0.83411771059036255
0.2258124053478241 0 0.83881455659866333
0.87648040056228638 0.0072770509868860245 0.85849285125732422
0.0099319461733102798 0.32332038879394531 0.59624683856964111
0.040338583290576935 0.27491664886474609 0.68135678768157959
0.11761984974145889 0.18996985256671906 0.80224841833114624
0.24631071090698242 0.05877235159277916 0.86203873157501221
0.92141163349151611 0.00053616694640368223 0.89984112977981567
0 0.58119767904281616 0.57197582721710205
0 0.57267814874649048 0.66555595397949219
0.037653423845767975 0.56067287921905518 0.78146523237228394
0.13577641546726227 0.50218409299850464 0.90101891756057739
0.95073837041854858 0.28971365094184875 0.94258564710617065
0.003453423036262393 0.77111095190048218 0.5746147632598877
0 0.77479010820388794 0.67165833711624146
0.00019077974138781428 0.76187384128570557 0.76555681228637695
0.10084288567304611 0.73158913850784302 0.87894773483276367
0.96454721689224243 0.68158173561096191 0.97035270929336548
0.18353284895420074 0.94164943695068359 0.58383607864379883
0.10085216164588928 0.9462999701499939 0.67562979459762573
0.026261871680617332 0.96601778268814087 0.763194739818573
0.52732974290847778 0.95806753635406494 0.8426017165184021
0.97611033916473389 0.97921454906463623 0.97318392992019653
