assets/lut/editingcorp basuco.cube
# Created by: G'MIC (https://gmic.eu)
TITLE "basuco"
# LUT size
LUT_3D_SIZE 7
# Data domain
DOMAIN_MIN 0.0 0.0 0.0
DOMAIN_MAX 1.0 1.0 1.0
# LUT data points
0.0029268153011798859 0.0015199847985059023 0.0054615093395113945
0.15144571661949158 0.0035284603945910931 0.0052562789060175419
0.36116591095924377 0.0090068597346544266 0.0094035426154732704
0.61504930257797241 0.045134153217077255 0.015152576379477978
0.76173466444015503 0.05373058095574379 0.017921822145581245
0.82675695419311523 0.030622011050581932 0.0099254986271262169
0.89642822742462158 0.045209668576717377 0.01343847531825304
0.0050344876945018768 0.14258754253387451 0.013883583247661591
0.12638993561267853 0.1331806480884552 0.0092549789696931839
0.32200753688812256 0.1307184249162674 0.0080471858382225037
0.58822643756866455 0.13644306361675262 0.014158256351947784
0.75468885898590088 0.15031082928180695 0.019961832091212273
0.83343863487243652 0.14457608759403229 0.025907987728714943
0.89820361137390137 0.15405756235122681 0.03351491317152977
0.0080643445253372192 0.26151576638221741 0.030149707570672035
0.09858500212430954 0.25876244902610779 0.019601050764322281
0.28773218393325806 0.25537502765655518 0.011027257889509201
0.5648379921913147 0.25362581014633179 0.014317740686237812
0.75162851810455322 0.2632385790348053 0.031079400330781937
0.85062891244888306 0.26434966921806335 0.045959740877151489
0.91028261184692383 0.26571708917617798 0.055664900690317154
0.023436212912201881 0.43715563416481018 0.054010741412639618
0.085070453584194183 0.43663197755813599 0.048694804310798645
0.23408424854278564 0.43954432010650635 0.039878472685813904
0.54410761594772339 0.43032649159431458 0.035842042416334152
0.75274175405502319 0.42946708202362061 0.046186693012714386
0.87297165393829346 0.42231070995330811 0.059820584952831268
0.93173861503601074 0.42052918672561646 0.066235862672328949
0.057245723903179169 0.62657684087753296 0.093666568398475647
0.11631921678781509 0.62675720453262329 0.092254295945167542
0.20540890097618103 0.62507826089859009 0.086705103516578674
0.48609337210655212 0.63542324304580688 0.070113837718963623
0.73287147283554077 0.62625521421432495 0.066944465041160583
0.88105762004852295 0.59459304809570312 0.07954280823469162
0.94576603174209595 0.58637446165084839 0.084141872823238373
0.083155706524848938 0.74946999549865723 0.11631335318088531
0.15026578307151794 0.75218302011489868 0.11929454654455185
0.21402165293693542 0.75222039222717285 0.11678502708673477
0.41711029410362244 0.77537834644317627 0.10165801644325256
0.68491369485855103 0.78897750377655029 0.089994736015796661
0.85500246286392212 0.76545292139053345 0.10263942927122116
0.94402551651000977 0.7461237907409668 0.10022100061178207
0.076050534844398499 0.82422530651092529 0.10841822624206543
0.13437329232692719 0.82209891080856323 0.11568262428045273
0.19141250848770142 0.82512670755386353 0.12061481922864914
0.35446333885192871 0.8523324728012085 0.11425763368606567
0.63078421354293823 0.8749840259552002 0.10060571134090424
0.83305513858795166 0.86907088756561279 0.10394475609064102
0.94805353879928589 0.86162149906158447 0.094847626984119415
0.0025674558710306883 0.011134817264974117 0.15239919722080231
0.14290936291217804 0.0016123752575367689 0.14037057757377625
0.36085215210914612 0.015931671485304832 0.12227721512317657
0.61799329519271851 0.025051325559616089 0.11303035914897919
0.76246649026870728 0.032444927841424942 0.11119066178798676
0.83031272888183594 0.029755417257547379 0.10533419996500015
0.89993131160736084 0.064101636409759521 0.10479302704334259
0.00075216853292658925 0.1417633593082428 0.13864754140377045
0.11005181819200516 0.13521996140480042 0.12858887016773224
0.31915715336799622 0.13003407418727875 0.10708755999803543
0.58477282524108887 0.13974611461162567 0.10730236023664474
0.7568780779838562 0.15246453881263733 0.10201244056224823
0.83492392301559448 0.15057247877120972 0.10644412785768509
0.89956474304199219 0.16826868057250977 0.11166485399007797
0.0057304231449961662 0.26346632838249207 0.12279292196035385
0.091800689697265625 0.26146617531776428 0.11313357204198837
0.28369209170341492 0.25518673658370972 0.09366549551486969
0.56143921613693237 0.25449267029762268 0.088132746517658234
0.75593513250350952 0.26689612865447998 0.10709600895643234
0.85222011804580688 0.26729318499565125 0.11272145062685013
0.91045975685119629 0.27226448059082031 0.11750335991382599
0.02241242304444313 0.43979066610336304 0.1207144632935524
0.090460158884525299 0.43360611796379089 0.11752687394618988
0.22801604866981506 0.44355332851409912 0.11000467836856842
0.55598586797714233 0.4353218674659729 0.10109789669513702
0.75809550285339355 0.43311914801597595 0.10550867766141891
0.87192517518997192 0.42720720171928406 0.11618451774120331
0.92945480346679688 0.42210322618484497 0.11950471252202988
0.057791378349065781 0.62882125377655029 0.14432254433631897
0.11707571893930435 0.62100672721862793 0.14117066562175751
0.19331851601600647 0.62087196111679077 0.14318966865539551
0.48962721228599548 0.63517457246780396 0.12977905571460724
0.73221117258071899 0.62819898128509521 0.12282290309667587
0.87816709280014038 0.59724998474121094 0.13535039126873016
0.94454687833786011 0.58471876382827759 0.13530626893043518
0.090770930051803589 0.747455894947052 0.16490042209625244
0.15211592614650726 0.75313079357147217 0.16437004506587982
0.20047396421432495 0.75063765048980713 0.16620789468288422
0.40164804458618164 0.77033239603042603 0.15609939396381378
0.67827683687210083 0.78729856014251709 0.14413395524024963
0.85633808374404907 0.76623117923736572 0.15669362246990204
0.94349884986877441 0.75237208604812622 0.15400645136833191
0.089351922273635864 0.81920909881591797 0.15235856175422668
0.14218191802501678 0.81885117292404175 0.15708211064338684
0.18554413318634033 0.82592928409576416 0.16476300358772278
0.34928944706916809 0.85109245777130127 0.16442358493804932
0.63229644298553467 0.87513881921768188 0.15067969262599945
0.8347393274307251 0.87722766399383545 0.15237900614738464
0.94856280088424683 0.87405610084533691 0.14374776184558868
0.001679783221334219 0.02398713119328022 0.29242816567420959
0.12462314963340759 0.0089919893071055412 0.27684465050697327
0.33583900332450867 0.014296961948275566 0.25944393873214722
0.62613421678543091 0.026623491197824478 0.22926788032054901
0.77073127031326294 0.046182297170162201 0.22750753164291382
0.83493989706039429 0.051342293620109558 0.22453217208385468
0.90222311019897461 0.060755845159292221 0.22170613706111908
0.0014171226648613811 0.15067499876022339 0.27537968754768372
0.090493641793727875 0.13903252780437469 0.27228450775146484
0.28524434566497803 0.13252705335617065 0.25754639506340027
0.60087549686431885 0.14621627330780029 0.22002249956130981
0.75566798448562622 0.16473601758480072 0.21600218117237091
0.8360094428062439 0.16105550527572632 0.21069036424160004
0.90374875068664551 0.17314437031745911 0.21324245631694794
0.0047401878982782364 0.26667222380638123 0.2679213285446167
0.073978394269943237 0.26622858643531799 0.26494911313056946
0.22708024084568024 0.26599141955375671 0.25461804866790771
0.56650358438491821 0.27519908547401428 0.2227741926908493
0.7498052716255188 0.29237455129623413 0.22328752279281616
0.85130995512008667 0.28340107202529907 0.21557222306728363
0.91272163391113281 0.28923842310905457 0.2199527770280838
0.0094137601554393768 0.45755693316459656 0.2515278160572052
0.079420648515224457 0.45374655723571777 0.24863092601299286
0.1989198625087738 0.45037591457366943 0.23046791553497314
0.54878759384155273 0.45416536927223206 0.19227688014507294
0.74931758642196655 0.4534701406955719 0.20438942313194275
0.8647390604019165 0.44723612070083618 0.20554237067699432
0.92535102367401123 0.44848150014877319 0.20776768028736115
0.053435068577528 0.63047218322753906 0.2369360625743866
0.12016024440526962 0.62697184085845947 0.22424246370792389
0.19123111665248871 0.62413698434829712 0.21923871338367462
0.4733833372592926 0.6383548378944397 0.19157923758029938
0.72942781448364258 0.63256531953811646 0.18230427801609039
0.87725543975830078 0.59823203086853027 0.18474672734737396
0.94359630346298218 0.59072881937026978 0.18983717262744904
0.094344273209571838 0.74863076210021973 0.22007653117179871
0.15388031303882599 0.75417542457580566 0.20738491415977478
0.19524277746677399 0.75554728507995605 0.21157316863536835
0.39571535587310791 0.77155596017837524 0.2018878310918808
0.67753690481185913 0.79096674919128418 0.18233700096607208
0.85588294267654419 0.76361638307571411 0.19003638625144958
0.94755196571350098 0.75018167495727539 0.18792560696601868
0.10037142038345337 0.82589268684387207 0.19063271582126617
0.15450736880302429 0.82148247957229614 0.20109713077545166
0.19540169835090637 0.83170187473297119 0.20185907185077667
0.35558339953422546 0.85109984874725342 0.20391817390918732
0.63744676113128662 0.87752252817153931 0.18386699259281158
0.83256834745407104 0.88029128313064575 0.18412674963474274
0.94552254676818848 0.87256479263305664 0.17503663897514343
0.009389256127178669 0.028774470090866089 0.49140128493309021
0.11187665164470673 0.025691777467727661 0.47388181090354919
0.24251870810985565 0.021574536338448524 0.46391770243644714
0.56429517269134521 0.042443759739398956 0.41524589061737061
0.76845115423202515 0.046621568500995636 0.39836111664772034
0.82960838079452515 0.05843048170208931 0.39258280396461487
0.89968454837799072 0.065334171056747437 0.38466137647628784
0.0060555101372301579 0.16124272346496582 0.4703390896320343
0.09311695396900177 0.14887683093547821 0.46300032734870911
0.21309855580329895 0.13402202725410461 0.45518925786018372
0.53464412689208984 0.14550381898880005 0.40596240758895874
0.75738394260406494 0.1794830858707428 0.38736826181411743
0.8373183012008667 0.18663644790649414 0.38061270117759705
0.9046928882598877 0.19422471523284912 0.37444695830345154
0.0034029493108391762 0.27698430418968201 0.45953702926635742
0.072249136865139008 0.27316707372665405 0.45686993002891541
0.19175554811954498 0.26578852534294128 0.46111297607421875
0.50929516553878784 0.29124605655670166 0.44251519441604614
0.7544524073600769 0.32057103514671326 0.41950613260269165
0.85352796316146851 0.31554806232452393 0.40676259994506836
0.9140552282333374 0.32060515880584717 0.39954525232315063
0.006056422833353281 0.45560795068740845 0.45139089226722717
0.069962821900844574 0.45615535974502563 0.44720751047134399
0.17199963331222534 0.46449732780456543 0.45412400364875793
0.43121856451034546 0.49161863327026367 0.44716686010360718
0.74189895391464233 0.51549524068832397 0.44701576232910156
0.86051470041275024 0.50013017654418945 0.42869830131530762
0.92558246850967407 0.49702426791191101 0.41444006562232971
0.048366591334342957 0.64116114377975464 0.43007931113243103
0.11948689818382263 0.64762431383132935 0.43036311864852905
0.17931677401065826 0.6471138596534729 0.42191937565803528
0.40029951930046082 0.6600954532623291 0.39807438850402832
0.72509348392486572 0.66355365514755249 0.37481319904327393
0.87149417400360107 0.63439774513244629 0.3734191358089447
0.94113975763320923 0.63384675979614258 0.37990489602088928
0.093713320791721344 0.76684218645095825 0.38604897260665894
0.15142172574996948 0.76871860027313232 0.37348988652229309
0.19424185156822205 0.76863968372344971 0.36076536774635315
0.34645041823387146 0.77406543493270874 0.35212957859039307
0.66785615682601929 0.80454760789871216 0.32692182064056396
0.85253041982650757 0.78248292207717896 0.30960065126419067
0.94429993629455566 0.76938116550445557 0.30208441615104675
0.10892951488494873 0.84768885374069214 0.34653392434120178
0.15816737711429596 0.83873659372329712 0.34216386079788208
0.20240822434425354 0.8430861234664917 0.33287256956100464
0.34625789523124695 0.85359233617782593 0.33694338798522949
0.63722610473632812 0.89397895336151123 0.30057469010353088
0.82262265682220459 0.89478844404220581 0.28503566980361938
0.9433523416519165 0.87729769945144653 0.26777273416519165
0.016373099759221077 0.033806417137384415 0.63542395830154419
0.11394132673740387 0.032971668988466263 0.62954127788543701
0.24487195909023285 0.033477138727903366 0.62168049812316895
0.51314049959182739 0.045037571340799332 0.59957420825958252
0.76308971643447876 0.061542272567749023 0.57752388715744019
0.82422351837158203 0.053797103464603424 0.56762588024139404
0.89395064115524292 0.045805495232343674 0.56576144695281982
0.014217795804142952 0.16919597983360291 0.63033360242843628
0.095302432775497437 0.16104115545749664 0.62985938787460327
0.21066378057003021 0.14744448661804199 0.62810498476028442
0.44950059056282043 0.15288214385509491 0.61302036046981812
0.75085967779159546 0.19468124210834503 0.5860026478767395
0.82849687337875366 0.18942677974700928 0.57226479053497314
0.89889180660247803 0.19339784979820251 0.55933195352554321
0.0068356683477759361 0.29355549812316895 0.63793635368347168
0.080628521740436554 0.28861767053604126 0.64104878902435303
0.19893082976341248 0.28953421115875244 0.64746010303497314
0.39110302925109863 0.28630346059799194 0.65136295557022095
0.75317525863647461 0.32560569047927856 0.61731022596359253
0.85017222166061401 0.31936243176460266 0.59593302011489868
0.91237401962280273 0.32536298036575317 0.58763068914413452
0.0034034580457955599 0.46894091367721558 0.64426451921463013
0.070185884833335876 0.46715131402015686 0.64222419261932373
0.18099154531955719 0.4690629243850708 0.64621728658676147
0.3284708559513092 0.48025554418563843 0.66222184896469116
0.7418975830078125 0.53217452764511108 0.65582847595214844
0.86293560266494751 0.53043246269226074 0.63760709762573242
0.93158996105194092 0.52622920274734497 0.62522798776626587
0.031448021531105042 0.64568555355072021 0.64450085163116455
0.1030561700463295 0.64861154556274414 0.64771354198455811
0.17064662277698517 0.64770197868347168 0.64426833391189575
0.3064262866973877 0.65368491411209106 0.64509153366088867
0.69399392604827881 0.69173437356948853 0.6406441330909729
0.87528902292251587 0.68958896398544312 0.6325908899307251
0.94591629505157471 0.68403303623199463 0.62871521711349487
0.083883427083492279 0.78698635101318359 0.6142163872718811
0.14361916482448578 0.78746449947357178 0.61030757427215576
0.19472208619117737 0.78996568918228149 0.60136497020721436
0.32961508631706238 0.795432448387146 0.5958976149559021
0.65811395645141602 0.82909965515136719 0.58500880002975464
0.86272346973419189 0.82502031326293945 0.55983155965805054
0.95214873552322388 0.80905401706695557 0.54878717660903931
0.10707935690879822 0.86809182167053223 0.58450746536254883
0.15487995743751526 0.86420422792434692 0.57455611228942871
0.20720463991165161 0.8670809268951416 0.56845587491989136
0.34908875823020935 0.8792874813079834 0.56595069169998169
0.62665057182312012 0.91633814573287964 0.55813801288604736
0.84014135599136353 0.92461317777633667 0.52183371782302856
0.95617234706878662 0.9057808518409729 0.49685025215148926
0.011736806482076645 0.04623127356171608 0.6931614875793457
0.10109531134366989 0.033096626400947571 0.69303333759307861
0.23189350962638855 0.039990503340959549 0.68909746408462524
0.47287899255752563 0.031423036009073257 0.6795424222946167
0.75818514823913574 0.058834780007600784 0.66344696283340454
0.82345688343048096 0.062946498394012451 0.66070616245269775
0.8931276798248291 0.077901087701320648 0.66941148042678833
0.0088910572230815887 0.17409183084964752 0.70590448379516602
0.087699860334396362 0.1664215624332428 0.70473563671112061
0.20535194873809814 0.15789234638214111 0.70926058292388916
0.42138606309890747 0.15214619040489197 0.70585930347442627
0.74598473310470581 0.19408823549747467 0.69029706716537476
0.82304137945175171 0.1989467591047287 0.68116164207458496
0.89458680152893066 0.19965076446533203 0.68009054660797119
0.0059416526928544044 0.29828894138336182 0.73505687713623047
0.074930287897586823 0.29640701413154602 0.73769265413284302
0.17957556247711182 0.29746285080909729 0.74962764978408813
0.36325311660766602 0.29687100648880005 0.75738728046417236
0.72135466337203979 0.3216702938079834 0.74035191535949707
0.83947646617889404 0.31839907169342041 0.72462266683578491
0.90346968173980713 0.32133260369300842 0.72175884246826172
0.0047774519771337509 0.46873068809509277 0.75908166170120239
0.069777034223079681 0.46587061882019043 0.76247221231460571
0.16890409588813782 0.47114771604537964 0.77165448665618896
0.32114079594612122 0.48603522777557373 0.79062628746032715
0.68304270505905151 0.52364271879196167 0.79448199272155762
0.85899442434310913 0.52669668197631836 0.78119438886642456
0.92273741960525513 0.52058553695678711 0.76828491687774658
0.020083827897906303 0.63256180286407471 0.78878331184387207
0.090830661356449127 0.63184362649917603 0.78793823719024658
0.17143766582012177 0.63266587257385254 0.78939074277877808
0.3132929801940918 0.64180165529251099 0.80299001932144165
0.65255415439605713 0.68957817554473877 0.82161611318588257
0.86927932500839233 0.7065284252166748 0.81774723529815674
0.93750488758087158 0.69923758506774902 0.80811613798141479
0.064981468021869659 0.77734923362731934 0.79112702608108521
0.13167211413383484 0.77918404340744019 0.79194158315658569
0.189732626080513 0.78106939792633057 0.79031717777252197
0.3027864396572113 0.78696715831756592 0.78665822744369507
0.58631640672683716 0.8251379132270813 0.80447578430175781
0.86114025115966797 0.85099309682846069 0.79742586612701416
0.95664674043655396 0.84532099962234497 0.78671646118164062
0.081163190305233002 0.86116814613342285 0.77778726816177368
0.13850513100624084 0.86383795738220215 0.77608609199523926
0.1948646754026413 0.87310194969177246 0.76795297861099243
0.31016269326210022 0.88269263505935669 0.76972866058349609
0.55888849496841431 0.91813641786575317 0.78747797012329102
0.83715367317199707 0.94706052541732788 0.7687990665435791
0.96543723344802856 0.94302648305892944 0.74818682670593262
0.017213813960552216 0.04979400709271431 0.75757455825805664
0.11343386769294739 0.04904625192284584 0.75819069147109985
0.23352503776550293 0.046085715293884277 0.75475031137466431
0.45594233274459839 0.054212950170040131 0.74682897329330444
0.73954516649246216 0.095538973808288574 0.73546731472015381
0.82314234972000122 0.091487035155296326 0.73349112272262573
0.8904411792755127 0.087890058755874634 0.74346780776977539
0.011685000732541084 0.17169381678104401 0.77078831195831299
0.098176129162311554 0.16877037286758423 0.77279841899871826
0.21303653717041016 0.16291378438472748 0.7740485668182373
0.39685261249542236 0.15561041235923767 0.77240175008773804
0.72652184963226318 0.19078820943832397 0.75950741767883301
0.81835448741912842 0.20107370615005493 0.75021231174468994
0.8904411792755127 0.20438174903392792 0.75662177801132202
0.0097469408065080643 0.29533371329307556 0.79590839147567749
0.082558833062648773 0.29277968406677246 0.80041670799255371
0.18837131559848785 0.2962099015712738 0.80816370248794556
0.37039843201637268 0.29908865690231323 0.81769073009490967
0.69388145208358765 0.32357567548751831 0.80752134323120117
0.84308123588562012 0.32324188947677612 0.7938658595085144
0.90346002578735352 0.32229003310203552 0.79343670606613159
0.011321946978569031 0.46081167459487915 0.82525813579559326
0.07480175793170929 0.46221882104873657 0.82631897926330566
0.17144428193569183 0.46507465839385986 0.83229964971542358
0.33171734213829041 0.47780969738960266 0.85485440492630005
0.65451693534851074 0.5189787745475769 0.87123239040374756
0.85724687576293945 0.52364766597747803 0.85810106992721558
0.92255681753158569 0.52159839868545532 0.8508269190788269
0.028085445985198021 0.62437587976455688 0.85610318183898926
0.092528611421585083 0.62391167879104614 0.8556525707244873
0.17031511664390564 0.62249767780303955 0.86037415266036987
0.30584514141082764 0.63041472434997559 0.87198776006698608
0.61475205421447754 0.68118232488632202 0.89899665117263794
0.86016982793807983 0.69976669549942017 0.90638953447341919
0.94301408529281616 0.69870847463607788 0.90455538034439087
0.055768735706806183 0.77250325679779053 0.88163995742797852
0.12033407390117645 0.7729155421257019 0.88085567951202393
0.17441155016422272 0.77119815349578857 0.88221269845962524
0.29738661646842957 0.77995973825454712 0.88604921102523804
0.57013976573944092 0.82154077291488647 0.9149317741394043
0.85154300928115845 0.8562665581703186 0.92897588014602661
0.95789378881454468 0.85694980621337891 0.9295421838760376
0.061324011534452438 0.86205792427062988 0.89364665746688843
0.12171674519777298 0.86299020051956177 0.89402550458908081
0.17958137392997742 0.8618122935295105 0.88926953077316284
0.29324078559875488 0.87411010265350342 0.89626586437225342
0.52953505516052246 0.91608339548110962 0.92749166488647461
0.83484256267547607 0.94943255186080933 0.934639573097229
0.96974164247512817 0.95670396089553833 0.92876636981964111
