assets/lut/editingcorpw Lavender Luxe.cube
LUT_3D_SIZE 16
DOMAIN_MIN 0.0 0.0 0.0
DOMAIN_MAX 1.0 1.0 1.0
0.203342 0.119326 0.142153
0.203342 0.119326 0.142153
0.219010 0.120876 0.141750
0.275285 0.127914 0.139108
0.328691 0.136440 0.135116
0.388190 0.151369 0.128634
0.465779 0.174398 0.116780
0.549169 0.203006 0.097438
0.633045 0.236759 0.066706
0.717781 0.272520 0.000372
0.795224 0.307103 0.000000
0.867155 0.340789 0.000000
0.938311 0.375036 0.000000
0.998364 0.407764 0.000000
1.000000 0.438343 0.000000
1.000000 0.473304 0.000000
0.203342 0.119326 0.142153
0.203342 0.119326 0.142153
0.219733 0.120768 0.141739
0.273342 0.127741 0.139233
0.325770 0.137471 0.135393
0.386352 0.153561 0.128976
0.462033 0.175862 0.117280
0.544533 0.203891 0.099896
0.628050 0.237043 0.074625
0.713481 0.272670 0.001938
0.792575 0.307567 0.000000
0.866308 0.341803 0.000000
0.936882 0.375548 0.000000
0.997410 0.407575 0.000000
1.000000 0.437614 0.000000
1.000000 0.473231 0.000000
0.196640 0.144417 0.143203
0.196164 0.146046 0.143297
0.217976 0.147574 0.139257
0.276277 0.142426 0.138827
0.332040 0.152633 0.134879
0.399957 0.169497 0.127035
0.476310 0.191748 0.115789
0.556250 0.219627 0.105270
0.639751 0.251095 0.079705
0.723418 0.284900 0.002643
0.799740 0.317785 0.000000
0.870879 0.349994 0.000000
0.940941 0.382844 0.000000
0.999087 0.414405 0.000000
1.000000 0.443953 0.000000
1.000000 0.477461 0.000000
0.175644 0.193063 0.145370
0.174269 0.195420 0.145306
0.197421 0.193575 0.137539
0.256185 0.198439 0.130100
0.336586 0.197647 0.128859
0.406531 0.196994 0.135476
0.482284 0.217567 0.128150
0.563726 0.242924 0.115473
0.647855 0.272159 0.092968
0.730633 0.303627 0.017569
0.806650 0.334624 0.000000
0.877575 0.365176 0.000000
0.945580 0.395677 0.000000
0.999907 0.424753 0.000000
1.000000 0.452301 0.000000
1.000000 0.485646 0.000000
0.136360 0.260404 0.165518
0.145997 0.265261 0.165679
0.169952 0.264201 0.151817
0.239913 0.260141 0.150549
0.310547 0.268515 0.134913
0.409119 0.274717 0.127266
0.502917 0.265524 0.138403
0.586166 0.283149 0.129566
0.671127 0.310000 0.106638
0.751142 0.337383 0.050966
0.822440 0.363470 0.000000
0.889677 0.389782 0.000000
0.955449 0.417311 0.000000
1.000000 0.444055 0.000000
1.000000 0.469532 0.000000
1.000000 0.498964 0.000000
0.000793 0.324163 0.185458
0.002850 0.336718 0.187680
0.120687 0.334112 0.177627
0.178958 0.331871 0.155392
0.281151 0.329277 0.158541
0.366003 0.342046 0.130922
0.482970 0.358428 0.107338
0.599121 0.356634 0.115755
0.693428 0.357867 0.131758
0.770675 0.379877 0.103645
0.839628 0.401129 0.038911
0.905040 0.423475 0.000000
0.967047 0.446406 0.000000
1.000000 0.468598 0.000000
1.000000 0.490486 0.000000
1.000000 0.518334 0.000000
0.000000 0.409064 0.214829
0.000000 0.429486 0.221228
0.000000 0.425207 0.212135
0.000000 0.421983 0.175635
0.208001 0.416923 0.165707
0.330235 0.419690 0.159530
0.434195 0.433003 0.114751
0.566920 0.454604 0.006471
0.694594 0.456872 0.037437
0.795060 0.442193 0.133110
0.862290 0.450531 0.129799
0.923340 0.466644 0.105188
0.981632 0.484569 0.070053
1.000000 0.503199 0.030375
1.000000 0.521821 0.016599
1.000000 0.545001 0.070033
0.000000 0.495418 0.253117
0.000000 0.517755 0.262960
0.000000 0.514160 0.252975
0.000000 0.511272 0.221732
0.000000 0.511554 0.166845
0.256382 0.508248 0.180624
0.390772 0.519583 0.155612
0.512082 0.532416 0.066888
0.648944 0.548502 0.000000
0.775110 0.548313 0.000000
0.873094 0.529949 0.111842
0.942588 0.519514 0.194292
0.994697 0.531664 0.185866
1.000000 0.544412 0.181162
1.000000 0.556555 0.178173
1.000000 0.575378 0.194192
0.000000 0.582868 0.302617
0.000000 0.598944 0.311134
0.000000 0.596871 0.302017
0.000000 0.594864 0.280963
0.000000 0.597031 0.217398
0.000000 0.597699 0.189841
0.324088 0.596542 0.212117
0.457831 0.612978 0.163492
0.587476 0.624696 0.029726
0.723071 0.636904 0.000000
0.847440 0.638129 0.000000
0.939778 0.616736 0.142558
1.000000 0.596231 0.261838
1.000000 0.598407 0.290424
1.000000 0.606253 0.289166
1.000000 0.620209 0.302592
0.000000 0.669184 0.360064
0.000000 0.682430 0.368051
0.000000 0.679978 0.359973
0.000000 0.678472 0.346431
0.000000 0.681350 0.301383
0.000000 0.685945 0.220450
0.065714 0.685201 0.245663
0.400231 0.684614 0.268216
0.525082 0.700524 0.201718
0.653868 0.708770 0.110490
0.780923 0.713728 0.000000
0.908057 0.723187 0.042132
0.990193 0.697487 0.217236
1.000000 0.671277 0.312894
1.000000 0.656639 0.389386
1.000000 0.664637 0.395886
0.000000 0.752407 0.417700
0.000000 0.757863 0.420997
0.000000 0.756399 0.415448
0.000000 0.756277 0.407410
0.000000 0.758596 0.383820
0.000000 0.764218 0.325200
0.000000 0.768166 0.298033
0.276439 0.768740 0.330846
0.478059 0.772744 0.344921
0.595392 0.787881 0.279978
0.719112 0.793668 0.219730
0.839018 0.794327 0.170901
0.960833 0.804129 0.212857
1.000000 0.773867 0.315270
1.000000 0.742886 0.378839
1.000000 0.732815 0.488685
0.000000 0.824185 0.466761
0.000000 0.830150 0.471056
0.000000 0.826720 0.466160
0.000000 0.826714 0.462604
0.000000 0.829574 0.458912
0.000000 0.835319 0.424909
0.000000 0.840617 0.373194
0.035264 0.839570 0.394819
0.409939 0.836732 0.425755
0.550931 0.841455 0.420985
0.655702 0.854380 0.364526
0.770652 0.859678 0.323793
0.882666 0.859210 0.296214
0.993440 0.866403 0.309559
1.000000 0.830746 0.386413
1.000000 0.804941 0.455507
0.000000 0.902251 0.522136
0.000000 0.905899 0.525525
0.000000 0.902079 0.522277
0.000000 0.899118 0.520536
0.000000 0.897382 0.522844
0.000000 0.899772 0.510106
0.000000 0.905100 0.485675
0.000000 0.908337 0.478978
0.368372 0.907249 0.506307
0.551931 0.904734 0.532992
0.642780 0.911046 0.517040
0.726785 0.920401 0.473592
0.825558 0.922708 0.446599
0.923870 0.919200 0.427517
0.999983 0.925867 0.425196
1.000000 0.895463 0.499165
0.000000 0.954498 0.559215
0.000000 0.955600 0.560868
0.000000 0.952272 0.558997
0.000000 0.950395 0.561309
0.000000 0.949739 0.569671
0.000000 0.950341 0.573456
0.000000 0.953212 0.558838
0.000000 0.955527 0.539839
0.331842 0.953681 0.553747
0.522853 0.951175 0.576112
0.653834 0.949456 0.600122
0.715886 0.957653 0.579628
0.784589 0.964875 0.545182
0.867403 0.964200 0.524127
0.952280 0.959322 0.508935
1.000000 0.968237 0.516801
0.000000 1.000000 0.619324
0.000000 1.000000 0.625551
0.000000 1.000000 0.626199
0.000000 1.000000 0.630449
0.000000 1.000000 0.639824
0.128566 0.999530 0.654413
0.261616 0.999634 0.645859
0.348240 0.999750 0.635370
0.448378 0.999529 0.632172
0.577954 0.998773 0.648521
0.681971 0.996362 0.666907
0.762749 0.994225 0.681251
0.803019 0.998873 0.660940
0.852163 0.999561 0.633074
0.915497 0.998885 0.618902
0.984235 0.995612 0.617493
0.000000 1.000000 0.667720
0.000000 1.000000 0.672206
0.000000 1.000000 0.674586
0.000000 1.000000 0.682234
0.216160 1.000000 0.696059
0.431128 1.000000 0.715084
0.506865 1.000000 0.719429
0.544598 1.000000 0.713479
0.581463 1.000000 0.705629
0.653913 1.000000 0.714687
0.728969 1.000000 0.730434
0.795249 1.000000 0.747512
0.840525 1.000000 0.752755
0.868962 1.000000 0.738332
0.904069 1.000000 0.723073
0.949248 1.000000 0.726253
0.203342 0.119326 0.142153
0.203342 0.119326 0.142153
0.217246 0.120470 0.141760
0.273275 0.127806 0.139227
0.326127 0.135946 0.135334
0.385950 0.151675 0.129024
0.461508 0.174993 0.118393
0.540696 0.203435 0.109318
0.621659 0.234683 0.091855
0.703906 0.268323 0.026275
0.781234 0.302080 0.000000
0.854800 0.335856 0.000000
0.928017 0.370706 0.000000
0.994880 0.404028 0.000000
1.000000 0.435106 0.000000
1.000000 0.468306 0.000000
0.203342 0.119326 0.142153
0.203342 0.119326 0.142153
0.218301 0.120599 0.141720
0.271166 0.127324 0.139299
0.323360 0.137245 0.135595
0.383767 0.153944 0.129189
0.457074 0.176216 0.119926
0.535059 0.203976 0.111801
0.617484 0.235198 0.094617
0.701669 0.269230 0.031249
0.780442 0.303319 0.000000
0.854831 0.337263 0.000000
0.926947 0.371380 0.000000
0.993389 0.403549 0.000000
1.000000 0.433034 0.000000
1.000000 0.468071 0.000000
0.196869 0.143668 0.143077
0.196327 0.145325 0.143209
0.219463 0.146749 0.139119
0.276237 0.142229 0.138831
0.330898 0.152870 0.135277
0.397258 0.170769 0.130521
0.470707 0.193616 0.125570
0.549804 0.219857 0.115256
0.630439 0.249176 0.096448
0.712465 0.281494 0.033026
0.788830 0.313773 0.000000
0.861259 0.346199 0.000000
0.933167 0.379655 0.000000
0.996464 0.411680 0.000000
1.000000 0.441650 0.000000
1.000000 0.474347 0.000000
0.173711 0.192819 0.149479
0.174646 0.195020 0.150082
0.202067 0.192584 0.143304
0.257668 0.196711 0.138387
0.334202 0.195990 0.138413
0.402453 0.198150 0.142439
0.476943 0.217804 0.135313
0.556967 0.241967 0.123858
0.638760 0.269734 0.104689
0.720474 0.300205 0.053625
0.796772 0.330848 0.000000
0.868822 0.361604 0.000000
0.937966 0.392379 0.000000
0.997118 0.421564 0.000000
1.000000 0.448630 0.000000
1.000000 0.482195 0.000000
0.143774 0.260672 0.171598
0.152202 0.265436 0.171742
0.181478 0.263891 0.160971
0.242318 0.259806 0.156350
0.310980 0.266734 0.142311
0.407311 0.271841 0.135253
0.498282 0.263469 0.146432
0.579920 0.281652 0.137000
0.663022 0.307271 0.116531
0.742214 0.333970 0.082709
0.814019 0.359991 0.000791
0.882591 0.386775 0.000000
0.950061 0.414971 0.000000
1.000000 0.442224 0.000000
1.000000 0.468078 0.000000
1.000000 0.497558 0.000000
0.016328 0.325542 0.191025
0.007589 0.337645 0.193576
0.134648 0.334407 0.185689
0.181514 0.332042 0.160694
0.283120 0.328312 0.164600
0.365667 0.339965 0.138326
0.480026 0.354368 0.117759
0.592996 0.351563 0.126974
0.684713 0.353920 0.139479
0.761977 0.375953 0.113893
0.832084 0.397729 0.071638
0.898684 0.420558 0.000000
0.961540 0.443840 0.000000
1.000000 0.466135 0.000000
1.000000 0.486952 0.000000
1.000000 0.516326 0.000000
0.000000 0.410275 0.220499
0.000000 0.429360 0.227064
0.000000 0.425198 0.218104
0.000000 0.421469 0.184708
0.209581 0.416367 0.171088
0.331377 0.418190 0.166306
0.434063 0.431399 0.123559
0.565250 0.452056 0.037154
0.691049 0.453224 0.075290
0.789930 0.438338 0.144472
0.856906 0.447964 0.136875
0.918978 0.464678 0.114275
0.978477 0.483251 0.090661
1.000000 0.502115 0.054456
1.000000 0.521071 0.038132
1.000000 0.544944 0.092755
0.000000 0.496986 0.259180
0.000000 0.519196 0.269372
0.000000 0.515869 0.259530
0.000000 0.512412 0.230922
0.000000 0.512211 0.173781
0.256984 0.507770 0.186101
0.390514 0.517002 0.163200
0.509836 0.528755 0.092351
0.645504 0.544410 0.000000
0.771079 0.544158 0.001116
0.869171 0.526670 0.126495
0.938966 0.517688 0.198174
0.992461 0.529985 0.189509
1.000000 0.542618 0.183945
1.000000 0.553948 0.178437
1.000000 0.574556 0.197046
0.000000 0.585571 0.308933
0.000000 0.602973 0.318830
0.000000 0.601375 0.310184
0.000000 0.598917 0.290535
0.000000 0.600608 0.228876
0.000000 0.601012 0.197241
0.325521 0.599128 0.219335
0.459352 0.613975 0.172829
0.587529 0.623980 0.063438
0.722230 0.635287 0.000000
0.845703 0.635720 0.000000
0.938309 0.615034 0.153125
0.999877 0.595346 0.268286
1.000000 0.598170 0.293835
1.000000 0.606388 0.293018
1.000000 0.622065 0.309701
0.000000 0.671391 0.365653
0.000000 0.687126 0.375883
0.000000 0.685489 0.368614
0.000000 0.683581 0.355034
0.000000 0.685277 0.312226
0.000000 0.688734 0.228927
0.066189 0.686375 0.251898
0.400962 0.684443 0.273533
0.525249 0.699456 0.209303
0.653286 0.707475 0.126599
0.780568 0.712720 0.000000
0.907103 0.721697 0.086200
0.989082 0.695996 0.223737
1.000000 0.669141 0.315888
1.000000 0.655715 0.390471
1.000000 0.666059 0.400962
0.000000 0.756106 0.423835
0.000000 0.763675 0.428826
0.000000 0.762903 0.424134
0.000000 0.762495 0.416195
0.000000 0.764070 0.395099
0.000000 0.769076 0.338042
0.000000 0.772423 0.308054
0.279792 0.771659 0.338848
0.480252 0.773718 0.351924
0.596100 0.787697 0.286904
0.719020 0.793020 0.227658
0.838917 0.793764 0.180036
0.960601 0.803525 0.221465
1.000000 0.773398 0.321493
1.000000 0.743456 0.385814
1.000000 0.735653 0.496742
0.000000 0.828783 0.472912
0.000000 0.838355 0.480213
0.000000 0.837083 0.477352
0.000000 0.836559 0.474167
0.000000 0.836999 0.470656
0.000000 0.840319 0.436505
0.000000 0.843682 0.383923
0.040967 0.841804 0.402319
0.413425 0.838137 0.431654
0.553348 0.842283 0.426973
0.657009 0.854934 0.371327
0.771094 0.859712 0.329711
0.882356 0.858549 0.300331
0.993112 0.865333 0.313158
1.000000 0.830484 0.390805
1.000000 0.806270 0.462313
0.000000 0.906440 0.527689
0.000000 0.911041 0.532067
0.000000 0.908918 0.530568
0.000000 0.906453 0.529863
0.000000 0.904296 0.532822
0.000000 0.905983 0.522263
0.000000 0.909769 0.497384
0.000000 0.911265 0.487233
0.375254 0.908656 0.511257
0.554275 0.905315 0.536112
0.644316 0.911166 0.520112
0.727822 0.920489 0.477291
0.826139 0.922783 0.450680
0.924256 0.919315 0.431719
1.000000 0.926388 0.431695
1.000000 0.896961 0.506653
0.000000 0.957604 0.563776
0.000000 0.960934 0.568166
0.000000 0.958679 0.567755
0.000000 0.956557 0.570368
0.000000 0.954812 0.577823
0.000000 0.954082 0.581697
0.000000 0.955834 0.565934
0.000000 0.957362 0.546252
0.342581 0.955107 0.558341
0.527884 0.952357 0.580036
0.657176 0.950367 0.603530
0.718069 0.958133 0.582800
0.785505 0.964918 0.547753
0.867708 0.964062 0.526143
0.952573 0.959382 0.511515
1.000000 0.968530 0.520491
0.000000 1.000000 0.622832
0.000000 1.000000 0.629167
0.000000 1.000000 0.630962
0.000000 1.000000 0.636015
0.000000 1.000000 0.645640
0.186167 0.999941 0.660173
0.293948 0.999985 0.651718
0.365562 0.999998 0.640192
0.454884 0.999677 0.635081
0.580490 0.998836 0.650357
0.683152 0.996478 0.668209
0.763904 0.994243 0.682688
0.803901 0.998853 0.662429
0.852882 0.999565 0.634807
0.916251 0.998914 0.621266
0.984935 0.995904 0.621226
0.000000 1.000000 0.669984
0.000000 1.000000 0.675780
0.000000 1.000000 0.678945
0.000000 1.000000 0.686561
0.246265 1.000000 0.699668
0.439698 1.000000 0.717922
0.514543 1.000000 0.722458
0.549827 1.000000 0.715729
0.585536 1.000000 0.707718
0.656285 1.000000 0.716352
0.730666 1.000000 0.731954
0.796216 1.000000 0.748755
0.841172 1.000000 0.753783
0.869350 1.000000 0.739150
0.904345 1.000000 0.723892
0.949456 1.000000 0.727157
0.201877 0.121498 0.149300
0.201863 0.121523 0.149344
0.223686 0.113814 0.150960
0.280430 0.102394 0.143718
0.331785 0.100175 0.139955
0.380554 0.155038 0.146664
0.448260 0.183128 0.144629
0.525878 0.207503 0.136831
0.606156 0.235310 0.123366
0.690020 0.267491 0.100076
0.770328 0.300975 0.031525
0.846668 0.335059 0.000000
0.922100 0.370217 0.000000
0.992362 0.403977 0.000000
1.000000 0.435388 0.000000
1.000000 0.469056 0.000000
0.201839 0.121554 0.148951
0.201584 0.121957 0.150206
0.223874 0.113681 0.151783
0.278347 0.099409 0.144937
0.324364 0.122743 0.144699
0.376387 0.161354 0.148488
0.444610 0.184103 0.145235
0.521510 0.208016 0.137664
0.603707 0.236253 0.124387
0.688138 0.268376 0.101529
0.769590 0.302131 0.035023
0.846582 0.336349 0.000000
0.920716 0.370749 0.000000
0.988922 0.403266 0.000000
1.000000 0.433007 0.000000
1.000000 0.468690 0.000000
0.193326 0.141988 0.158092
0.192639 0.143541 0.158654
0.225934 0.142417 0.157836
0.271086 0.148891 0.156829
0.322780 0.162722 0.156013
0.385883 0.179094 0.153996
0.457538 0.198639 0.149131
0.534814 0.221808 0.140462
0.615657 0.249082 0.126440
0.699195 0.280327 0.103075
0.778256 0.312545 0.039159
0.853477 0.345387 0.000000
0.927464 0.379217 0.000000
0.994753 0.411608 0.000000
1.000000 0.441917 0.000000
1.000000 0.475138 0.000000
0.174633 0.191891 0.170502
0.186732 0.192552 0.170628
0.219244 0.189926 0.166907
0.262745 0.192129 0.161239
0.328513 0.191752 0.163400
0.392398 0.202605 0.162421
0.465057 0.220666 0.156557
0.544019 0.243042 0.147147
0.625246 0.269122 0.132561
0.708576 0.298902 0.109533
0.787220 0.329661 0.058362
0.861382 0.360723 0.000000
0.932324 0.391878 0.000000
0.995408 0.421418 0.000000
1.000000 0.448801 0.000000
1.000000 0.482964 0.000000
0.162335 0.257147 0.190479
0.169515 0.261907 0.191691
0.205589 0.259195 0.186262
0.248659 0.255732 0.174953
0.312395 0.260048 0.165105
0.402841 0.263402 0.161436
0.486721 0.260354 0.171132
0.567066 0.281006 0.159686
0.650364 0.305697 0.143319
0.731222 0.332273 0.120856
0.805206 0.358697 0.088351
0.876037 0.386121 0.007059
0.945211 0.414782 0.000000
0.999915 0.442385 0.000000
1.000000 0.468479 0.000000
1.000000 0.498400 0.000000
0.094032 0.321355 0.208487
0.090802 0.332803 0.212598
0.156493 0.329723 0.206249
0.202450 0.327198 0.184623
0.289381 0.322543 0.185436
0.365857 0.333843 0.162685
0.476941 0.346338 0.147993
0.585464 0.343000 0.161719
0.674066 0.352301 0.163919
0.752825 0.374494 0.143261
0.824698 0.396704 0.119417
0.892840 0.420066 0.084701
0.957015 0.443687 0.010711
1.000000 0.466303 0.000000
1.000000 0.487468 0.000000
1.000000 0.517559 0.000000
0.000000 0.405867 0.238540
0.000000 0.423666 0.246251
0.000000 0.419778 0.237992
0.088945 0.414893 0.216532
0.214835 0.411840 0.190073
0.335259 0.411779 0.190300
0.433442 0.425374 0.153934
0.562928 0.445168 0.115717
0.687342 0.446060 0.134287
0.782930 0.434696 0.177242
0.850282 0.447152 0.165163
0.914054 0.464552 0.147391
0.974767 0.483595 0.132105
1.000000 0.502777 0.120538
1.000000 0.521962 0.115234
1.000000 0.545889 0.133259
0.000000 0.493413 0.277177
0.000000 0.514597 0.288470
0.000000 0.511672 0.279341
0.000000 0.507290 0.260619
0.000000 0.507975 0.202230
0.258725 0.504106 0.206418
0.392286 0.511498 0.191531
0.508909 0.523719 0.137197
0.645092 0.540471 0.022936
0.769030 0.538806 0.104086
0.865942 0.522462 0.175389
0.934584 0.518130 0.221893
0.989185 0.530733 0.213522
1.000000 0.543541 0.207682
1.000000 0.555110 0.201669
1.000000 0.576490 0.219566
0.000000 0.583502 0.326575
0.000000 0.600452 0.336995
0.000000 0.598645 0.328599
0.000000 0.595954 0.312480
0.000000 0.597132 0.263490
0.000000 0.598659 0.219050
0.326286 0.596709 0.240224
0.460566 0.610251 0.204700
0.587075 0.620409 0.136208
0.722856 0.632845 0.008749
0.844595 0.631825 0.106089
0.937078 0.612356 0.197581
0.998755 0.594941 0.297751
1.000000 0.599975 0.312647
1.000000 0.608062 0.310217
1.000000 0.623709 0.325044
0.000000 0.670005 0.381445
0.000000 0.685593 0.391727
0.000000 0.684066 0.384850
0.000000 0.682174 0.372283
0.000000 0.682737 0.340562
0.000000 0.686225 0.263850
0.066968 0.684362 0.271627
0.403228 0.681832 0.294594
0.526424 0.696556 0.239238
0.653551 0.705097 0.172927
0.781905 0.711973 0.086134
0.906711 0.719125 0.161508
0.988328 0.694286 0.257907
1.000000 0.668915 0.344124
1.000000 0.657924 0.405068
1.000000 0.668564 0.414241
0.000000 0.755337 0.436774
0.000000 0.763152 0.441971
0.000000 0.762162 0.437438
0.000000 0.761737 0.429866
0.000000 0.762714 0.416898
0.000000 0.767819 0.366180
0.000000 0.771781 0.326444
0.283934 0.770712 0.356060
0.484701 0.771785 0.372077
0.597775 0.785822 0.312014
0.719710 0.791641 0.257706
0.839623 0.792829 0.216801
0.960268 0.801863 0.257304
1.000000 0.772662 0.347174
1.000000 0.743913 0.409002
1.000000 0.737508 0.511400
0.000000 0.829084 0.483304
0.000000 0.838551 0.490328
0.000000 0.837425 0.487764
0.000000 0.836768 0.484553
0.000000 0.836753 0.482482
0.000000 0.839260 0.455328
0.000000 0.842519 0.405993
0.046813 0.840981 0.416078
0.417689 0.837264 0.444069
0.558126 0.841051 0.443326
0.659620 0.854122 0.391756
0.772373 0.859099 0.352192
0.883104 0.858077 0.323569
0.993011 0.864094 0.337547
1.000000 0.830050 0.410128
1.000000 0.806826 0.477169
0.000000 0.905484 0.533727
0.000000 0.910153 0.538033
0.000000 0.907927 0.536412
0.000000 0.905624 0.535760
0.000000 0.904156 0.539128
0.000000 0.905599 0.535494
0.000000 0.909396 0.512325
0.000000 0.911083 0.497145
0.382791 0.908292 0.519899
0.558039 0.904883 0.543621
0.648939 0.910410 0.530690
0.730890 0.919944 0.490535
0.827894 0.922423 0.464932
0.925090 0.919014 0.446322
1.000000 0.925498 0.446767
1.000000 0.896537 0.517302
0.000000 0.957701 0.568414
0.000000 0.961086 0.572756
0.000000 0.958906 0.572371
0.000000 0.956822 0.574911
0.000000 0.955125 0.582137
0.000000 0.953666 0.590731
0.000000 0.955405 0.575495
0.000000 0.956884 0.555878
0.351475 0.954958 0.564676
0.532670 0.952294 0.585912
0.661365 0.950266 0.609638
0.722146 0.957816 0.590402
0.788317 0.964583 0.556570
0.869385 0.963768 0.535198
0.953511 0.959181 0.520721
1.000000 0.968315 0.530190
0.000000 1.000000 0.624501
0.000000 1.000000 0.630658
0.000000 1.000000 0.632426
0.000000 1.000000 0.637531
0.000000 1.000000 0.647244
0.163253 0.999950 0.661966
0.316038 0.999878 0.657804
0.381289 0.999900 0.646174
0.459469 0.999635 0.638899
0.583580 0.998792 0.654004
0.685785 0.996405 0.671949
0.767331 0.993946 0.687513
0.806754 0.998678 0.667641
0.855065 0.999516 0.640510
0.917620 0.998870 0.626874
0.985663 0.995697 0.626296
0.000000 1.000000 0.670216
0.000000 1.000000 0.675960
0.000000 1.000000 0.679169
0.000000 1.000000 0.686742
0.215472 1.000000 0.699749
0.428705 1.000000 0.717879
0.521263 1.000000 0.726632
0.555955 1.000000 0.719874
0.591132 1.000000 0.711828
0.658249 1.000000 0.718995
0.732369 1.000000 0.734627
0.797560 1.000000 0.751312
0.843076 1.000000 0.757106
0.870932 1.000000 0.742616
0.905598 1.000000 0.727535
0.950286 1.000000 0.730696
0.193460 0.132107 0.178445
0.193273 0.132391 0.178868
0.212463 0.116044 0.181283
0.276827 0.092201 0.183562
0.339790 0.005591 0.183394
0.399060 0.000989 0.162930
0.459080 0.115329 0.159132
0.520022 0.181812 0.159424
0.585660 0.231650 0.155258
0.668187 0.264438 0.141265
0.752071 0.297612 0.119124
0.832511 0.332168 0.079033
0.911477 0.368222 0.000000
0.984696 0.402807 0.000000
1.000000 0.434990 0.000000
1.000000 0.469807 0.000000
0.193936 0.131529 0.176629
0.193393 0.132259 0.178543
0.214848 0.115446 0.181076
0.275822 0.092756 0.183358
0.334302 0.054142 0.182013
0.393360 0.047977 0.163784
0.451736 0.133690 0.161315
0.513425 0.190909 0.161506
0.582805 0.235038 0.156351
0.667010 0.265581 0.141874
0.751899 0.298958 0.120003
0.832404 0.333507 0.080596
0.909760 0.368507 0.001037
0.980966 0.401918 0.000000
1.000000 0.432382 0.000000
1.000000 0.469331 0.000000
0.185816 0.151165 0.184273
0.195528 0.150917 0.184862
0.225603 0.140236 0.186141
0.275081 0.134406 0.186786
0.332053 0.128201 0.181653
0.389974 0.142527 0.171719
0.448162 0.186731 0.172424
0.514433 0.221811 0.169046
0.593464 0.247526 0.159352
0.677967 0.277053 0.144222
0.760533 0.309088 0.122514
0.839695 0.342624 0.086915
0.917162 0.377306 0.004893
0.988740 0.410605 0.000000
1.000000 0.441644 0.000000
1.000000 0.475952 0.000000
0.190988 0.183107 0.188047
0.199190 0.184846 0.189293
0.225333 0.185612 0.189888
0.268646 0.185781 0.189930
0.320517 0.193355 0.188796
0.379168 0.207858 0.187093
0.448308 0.223604 0.182943
0.524148 0.243229 0.176024
0.604243 0.266972 0.165560
0.688989 0.295628 0.149986
0.770982 0.326535 0.129215
0.848265 0.358108 0.099654
0.922164 0.390036 0.022557
0.989918 0.420342 0.000000
1.000000 0.448419 0.000000
1.000000 0.483933 0.000000
0.169004 0.252781 0.218946
0.176240 0.257326 0.221505
0.210956 0.254730 0.216572
0.262021 0.249957 0.207447
0.316163 0.250867 0.197095
0.395901 0.250884 0.199860
0.468914 0.260873 0.198615
0.547419 0.279524 0.189729
0.629648 0.302422 0.177505
0.712422 0.328518 0.161414
0.789579 0.355411 0.142111
0.864024 0.383964 0.117874
0.936181 0.413512 0.076299
0.997379 0.441860 0.009914
1.000000 0.468695 0.000000
1.000000 0.499623 0.000000
0.118715 0.316240 0.237449
0.119216 0.326741 0.243491
0.169028 0.324070 0.237543
0.234597 0.319557 0.227340
0.293405 0.316339 0.212838
0.367168 0.323870 0.198105
0.472799 0.332415 0.191739
0.571138 0.329506 0.209633
0.655697 0.348792 0.198002
0.736580 0.371283 0.182231
0.811325 0.394360 0.165212
0.882116 0.418424 0.146589
0.948575 0.442825 0.126121
1.000000 0.466118 0.104458
1.000000 0.487859 0.072254
1.000000 0.519414 0.097554
0.000000 0.399667 0.269622
0.000000 0.415831 0.279326
0.000000 0.412030 0.271468
0.146312 0.406505 0.257789
0.224514 0.404274 0.223113
0.341394 0.400959 0.227449
0.432819 0.415184 0.196635
0.559801 0.432936 0.174139
0.680293 0.432499 0.196639
0.769234 0.429754 0.220656
0.838015 0.445309 0.206013
0.904585 0.463959 0.192841
0.967514 0.483864 0.182208
1.000000 0.503695 0.174622
1.000000 0.523345 0.171151
1.000000 0.547676 0.183366
0.000000 0.487973 0.309418
0.000000 0.507834 0.322290
0.000000 0.505111 0.314132
0.000000 0.500863 0.298793
0.035017 0.498918 0.264077
0.258919 0.497488 0.239744
