assets/lut/editingcorp maesky.cube
# Created by: G'MIC (https://gmic.eu)
TITLE "maesky"
# LUT size
LUT_3D_SIZE 13
# Data domain
DOMAIN_MIN 0.0 0.0 0.0
DOMAIN_MAX 1.0 1.0 1.0
# LUT data points
0.015148656442761421 0.038227111101150513 0.042390398681163788
0.064679823815822601 0.039534177631139755 0.043053749948740005
0.1099526658654213 0.040100876241922379 0.041446998715400696
0.14357955753803253 0.039845529943704605 0.043174460530281067
0.18715223670005798 0.039100959897041321 0.047601260244846344
0.23634546995162964 0.038338948041200638 0.0511307492852211
0.28983446955680847 0.041142676025629044 0.04873199388384819
0.35211685299873352 0.043130043894052505 0.046321958303451538
0.42994120717048645 0.041595235466957092 0.047164004296064377
0.51572388410568237 0.036076921969652176 0.045079696923494339
0.60332280397415161 0.037857610732316971 0.044544592499732971
0.69075679779052734 0.056207381188869476 0.049998443573713303
0.77096951007843018 0.084692023694515228 0.063421972095966339
0.020951589569449425 0.08477289229631424 0.041432667523622513
0.065927959978580475 0.084525525569915771 0.044450469315052032
0.11841292679309845 0.081607043743133545 0.045901384204626083
0.17259158194065094 0.081452235579490662 0.047038674354553223
0.23316657543182373 0.082408592104911804 0.049340251833200455
0.29037123918533325 0.08167508989572525 0.051958825439214706
0.34076669812202454 0.081664033234119415 0.049085341393947601
0.39189457893371582 0.077419891953468323 0.047059182077646255
0.46279346942901611 0.075248181819915771 0.048491340130567551
0.53743308782577515 0.070363648235797882 0.048554752022027969
0.61712199449539185 0.073174268007278442 0.052930869162082672
0.7162553071975708 0.10668691247701645 0.06048215925693512
0.80158227682113647 0.14410468935966492 0.077235817909240723
0.022598551586270332 0.13415339589118958 0.042922075837850571
0.070371486246585846 0.13492594659328461 0.044323820620775223
0.12937621772289276 0.13690106570720673 0.044603772461414337
0.20331683754920959 0.1414024829864502 0.045203592628240585
0.29139918088912964 0.14833743870258331 0.046752419322729111
0.37525084614753723 0.15259002149105072 0.050775222480297089
0.43961787223815918 0.15222588181495667 0.052229277789592743
0.48688092827796936 0.14349743723869324 0.053479496389627457
0.55344754457473755 0.14526191353797913 0.053204599767923355
0.62390697002410889 0.14987272024154663 0.054045852273702621
0.69874542951583862 0.16245867311954498 0.063790954649448395
0.79274880886077881 0.19841143488883972 0.078274339437484741
0.86127150058746338 0.22893548011779785 0.10196544975042343
0.026364987716078758 0.17541979253292084 0.048780538141727448
0.08422890305519104 0.1811470091342926 0.050353419035673141
0.14959926903247833 0.19343453645706177 0.050611712038516998
0.22965104877948761 0.20844261348247528 0.048269864171743393
0.33221316337585449 0.22396481037139893 0.04354526475071907
0.44817417860031128 0.24018868803977966 0.047148864716291428
0.54712980985641479 0.25333374738693237 0.05342571809887886
0.62004995346069336 0.26088574528694153 0.058558415621519089
0.68972325325012207 0.26977035403251648 0.059356272220611572
0.75517016649246216 0.27898511290550232 0.065217874944210052
0.82186871767044067 0.29107093811035156 0.085897423326969147
0.89369660615921021 0.3130737841129303 0.11308683454990387
0.93617981672286987 0.33144161105155945 0.14457528293132782
0.034909851849079132 0.2302791029214859 0.049776729196310043
0.10127958655357361 0.2383950799703598 0.054578952491283417
0.17526426911354065 0.25717887282371521 0.059832748025655746
0.25789257884025574 0.28015023469924927 0.058864891529083252
0.35678651928901672 0.30013242363929749 0.04796263575553894
0.47593963146209717 0.32008647918701172 0.041451368480920792
0.59523749351501465 0.34387928247451782 0.04621461033821106
0.69843989610671997 0.36884355545043945 0.060357112437486649
0.77650934457778931 0.38510096073150635 0.068815089762210846
0.84312975406646729 0.39775994420051575 0.083154268562793732
0.91052001714706421 0.40970823168754578 0.11643428355455399
0.96656119823455811 0.42378279566764832 0.15945422649383545
0.99162238836288452 0.43663334846496582 0.19938372075557709
0.049165029078722 0.29810327291488647 0.047974336892366409
0.12181073427200317 0.30579695105552673 0.05571124330163002
0.20374123752117157 0.3277229368686676 0.069645524024963379
0.29101824760437012 0.35595864057540894 0.079439438879489899
0.38569575548171997 0.37614861130714417 0.073417425155639648
0.48855769634246826 0.39000290632247925 0.054474055767059326
0.59793031215667725 0.40854600071907043 0.043828252702951431
0.71068102121353149 0.43696630001068115 0.058463480323553085
0.80539214611053467 0.46179607510566711 0.078098520636558533
0.88743805885314941 0.48456230759620667 0.10483068972826004
0.95872974395751953 0.50552397966384888 0.14668376743793488
0.99700212478637695 0.52217817306518555 0.20350690186023712
1 0.53417974710464478 0.25110271573066711
0.072615303099155426 0.3704468309879303 0.04957893118262291
0.14912921190261841 0.37582007050514221 0.057961840182542801
0.23485815525054932 0.39761459827423096 0.079004727303981781
0.3250548243522644 0.42919784784317017 0.10291524976491928
0.41816604137420654 0.45185339450836182 0.11102712154388428
0.51256650686264038 0.46227642893791199 0.09679710865020752
0.60993665456771851 0.47222051024436951 0.079159051179885864
0.71110630035400391 0.49047067761421204 0.07808975875377655
0.80761486291885376 0.51441377401351929 0.093256570398807526
0.90050327777862549 0.54528152942657471 0.12946505844593048
0.97519856691360474 0.57590341567993164 0.18555136024951935
0.99991875886917114 0.60098922252655029 0.24934238195419312
1 0.61697572469711304 0.2974143922328949
0.11230287700891495 0.4396921694278717 0.057514294981956482
0.18802940845489502 0.4433324933052063 0.064797297120094299
0.2716573178768158 0.46325203776359558 0.088643215596675873
0.36008977890014648 0.49710735678672791 0.1246442124247551
0.45043227076530457 0.5262567400932312 0.15102486312389374
0.54083192348480225 0.53841745853424072 0.15047888457775116
0.6316457986831665 0.54292196035385132 0.13666817545890808
0.72070187330245972 0.55064839124679565 0.12515532970428467
0.8091273307800293 0.56663811206817627 0.12490884959697723
0.90142828226089478 0.59514880180358887 0.15666866302490234
0.9785536527633667 0.62902843952178955 0.2199600487947464
0.99986308813095093 0.66065478324890137 0.28652521967887878
1 0.68163955211639404 0.33273595571517944
0.16750718653202057 0.50392484664916992 0.072673633694648743
0.238359734416008 0.50607341527938843 0.076493099331855774
0.31526058912277222 0.52362746000289917 0.098511837422847748
0.39681071043014526 0.55921405553817749 0.14126215875148773
0.48050028085708618 0.59509110450744629 0.18133783340454102
0.56628042459487915 0.61292308568954468 0.19616229832172394
0.65453565120697021 0.6176263689994812 0.19137738645076752
0.73870420455932617 0.62074756622314453 0.18335635960102081
0.81899255514144897 0.62959516048431396 0.17886863648891449
0.90318447351455688 0.64831012487411499 0.19537143409252167
0.97738373279571533 0.67642134428024292 0.24378879368305206
0.99998289346694946 0.70635896921157837 0.30112156271934509
1 0.72882258892059326 0.3437599241733551
0.22927410900592804 0.56887960433959961 0.097306177020072937
0.29543417692184448 0.56949931383132935 0.097705289721488953
0.36481457948684692 0.58411097526550293 0.11560263484716415
0.43788045644760132 0.61696517467498779 0.15615980327129364
0.51217114925384521 0.65599721670150757 0.20261508226394653
0.59160840511322021 0.68206429481506348 0.23126493394374847
0.6773076057434082 0.69116723537445068 0.23613867163658142
0.75974923372268677 0.69352167844772339 0.23479275405406952
0.83600932359695435 0.69844645261764526 0.24089185893535614
0.91425621509552002 0.70934790372848511 0.25374197959899902
0.98326331377029419 0.72722607851028442 0.27699476480484009
1 0.7500612735748291 0.31462353467941284
1 0.76965618133544922 0.34811317920684814
0.29171028733253479 0.63957560062408447 0.13174572587013245
0.35495391488075256 0.63910239934921265 0.13046911358833313
0.41909071803092957 0.64879715442657471 0.14244639873504639
0.48436552286148071 0.67534106969833374 0.17518207430839539
0.5514635443687439 0.71301144361495972 0.22126190364360809
0.6228492259979248 0.74552983045578003 0.25943782925605774
0.7014697790145874 0.76221746206283569 0.27819684147834778
0.78237545490264893 0.76709401607513428 0.28554382920265198
0.85756075382232666 0.76952975988388062 0.30016911029815674
0.9285271167755127 0.77588868141174316 0.31780114769935608
0.98758876323699951 0.78774338960647583 0.32974937558174133
1 0.80222642421722412 0.34621110558509827
1 0.81475132703781128 0.36346668004989624
0.35111293196678162 0.71731573343276978 0.17331133782863617
0.4120139479637146 0.7155415415763855 0.17101027071475983
0.47283491492271423 0.72035777568817139 0.17765060067176819
0.53442847728729248 0.73984348773956299 0.20169717073440552
0.59619832038879395 0.77399766445159912 0.24418783187866211
0.66024887561798096 0.80889254808425903 0.28934547305107117
0.72981452941894531 0.83349764347076416 0.32323330640792847
0.80653584003448486 0.84269195795059204 0.34177178144454956
0.88292723894119263 0.84421318769454956 0.35880514979362488
0.95005345344543457 0.84728235006332397 0.37746292352676392
0.9942631721496582 0.85577350854873657 0.3877711296081543
1 0.86537849903106689 0.39415237307548523
1 0.87253707647323608 0.3998323380947113
0.40342134237289429 0.79976576566696167 0.21848414838314056
0.46306958794593811 0.79812365770339966 0.21713453531265259
0.52229171991348267 0.80197763442993164 0.22260262072086334
0.5818132758140564 0.81706452369689941 0.24192957580089569
0.64060693979263306 0.84459215402603149 0.27881327271461487
0.699077308177948 0.87737983465194702 0.32599833607673645
0.76128160953521729 0.9049033522605896 0.3704286515712738
0.8327019214630127 0.91823017597198486 0.40014463663101196
0.90873199701309204 0.92051661014556885 0.41767525672912598
0.97500383853912354 0.92248755693435669 0.43210688233375549
0.99988508224487305 0.92971241474151611 0.44447284936904907
1 0.93888568878173828 0.45363441109657288
1 0.94527387619018555 0.45861038565635681
0.017786122858524323 0.039696786552667618 0.092178851366043091
0.065925046801567078 0.038439176976680756 0.09242597222328186
0.11636928468942642 0.039905980229377747 0.091850936412811279
0.1572064608335495 0.040189195424318314 0.094448551535606384
0.204946368932724 0.038614459335803986 0.10028091073036194
0.25908192992210388 0.037079337984323502 0.10575594753026962
0.31849956512451172 0.038563389331102371 0.10779929161071777
0.38343620300292969 0.037219822406768799 0.11094491928815842
0.4579891562461853 0.03137747198343277 0.11584294587373734
0.54051387310028076 0.029827043414115906 0.11576172709465027
0.62790501117706299 0.043031923472881317 0.11313752084970474
0.71290045976638794 0.068992391228675842 0.1174275279045105
0.79057514667510986 0.099899217486381531 0.13132810592651367
0.022529423236846924 0.080956555902957916 0.08503241091966629
0.067258574068546295 0.079634644091129303 0.086279772222042084
0.12330284714698792 0.080908007919788361 0.090579748153686523
0.18147066235542297 0.081824824213981628 0.09605821967124939
0.24576359987258911 0.081276960670948029 0.10271621495485306
0.30407238006591797 0.077702268958091736 0.10895790904760361
0.36063161492347717 0.079023949801921844 0.11087074875831604
0.41661104559898376 0.076365947723388672 0.1140470951795578
0.48203772306442261 0.072007782757282257 0.11942675709724426
0.55227100849151611 0.072561748325824738 0.11939828842878342
0.63528788089752197 0.090861015021800995 0.11902395635843277
0.72875428199768066 0.12652936577796936 0.1254560798406601
0.80942994356155396 0.1604456752538681 0.14273123443126678
0.022211382165551186 0.13281320035457611 0.080275744199752808
0.071605905890464783 0.13308869302272797 0.082980483770370483
0.1342768669128418 0.13841332495212555 0.087983168661594391
0.21154506504535675 0.14549925923347473 0.093476362526416779
0.30237579345703125 0.15195748209953308 0.10022260248661041
0.38486132025718689 0.15569709241390228 0.10910270363092422
0.45577281713485718 0.15982934832572937 0.11495223641395569
0.5119054913520813 0.15834309160709381 0.12206400185823441
0.57020938396453857 0.16034413874149323 0.12947458028793335
0.62920886278152466 0.16551262140274048 0.13259179890155792
0.70053702592849731 0.18471710383892059 0.13588705658912659
0.78182762861251831 0.21514977514743805 0.14517861604690552
0.84957021474838257 0.24098360538482666 0.16729059815406799
0.025498364120721817 0.17941425740718842 0.084180377423763275
0.084344901144504547 0.18383711576461792 0.090095967054367065
0.1533132791519165 0.19889973104000092 0.096021421253681183
0.23755680024623871 0.21727718412876129 0.099068976938724518
0.33885318040847778 0.23400059342384338 0.10143618285655975
0.44983333349227905 0.25059846043586731 0.10938616096973419
0.55332547426223755 0.26863062381744385 0.11982923001050949
0.63385140895843506 0.28223660588264465 0.13345278799533844
0.69804912805557251 0.29193109273910522 0.14848478138446808
0.7533649206161499 0.29856428503990173 0.1623249351978302
0.80799072980880737 0.30731770396232605 0.17648893594741821
0.86380791664123535 0.32185322046279907 0.18964715301990509
0.91330337524414062 0.34030589461326599 0.21457503736019135
0.03424854576587677 0.23659777641296387 0.087506718933582306
0.10150658339262009 0.24336302280426025 0.097589202225208282
0.17951388657093048 0.26343575119972229 0.11101192235946655
0.26471149921417236 0.289509117603302 0.11907327920198441
0.36197772622108459 0.31302914023399353 0.11778169870376587
0.4761454164981842 0.33647513389587402 0.11556050926446915
0.59378230571746826 0.36408799886703491 0.12344369292259216
0.69895005226135254 0.39124774932861328 0.14563821256160736
0.77978724241256714 0.40957331657409668 0.17116084694862366
0.84279525279998779 0.4190002977848053 0.19797295331954956
0.89905273914337158 0.42597088217735291 0.22659045457839966
0.94753944873809814 0.43589520454406738 0.25193235278129578
0.97941094636917114 0.44913861155509949 0.27925342321395874
0.051465142518281937 0.30425792932510376 0.090322859585285187
0.12506815791130066 0.31067803502082825 0.10340864956378937
0.20994271337985992 0.33160975575447083 0.12545500695705414
0.29757571220397949 0.3616693913936615 0.14619836211204529
0.3921838104724884 0.38726842403411865 0.15231113135814667
0.49399912357330322 0.40755447745323181 0.13937141001224518
0.60046488046646118 0.43153354525566101 0.13230611383914948
0.71037286520004272 0.4631325900554657 0.15459166467189789
0.80532717704772949 0.49070063233375549 0.18945309519767761
0.88545477390289307 0.51153087615966797 0.22472330927848816
0.95191836357116699 0.52794420719146729 0.2633221447467804
0.99217396974563599 0.54152125120162964 0.30289933085441589
0.99986499547958374 0.5524677038192749 0.33432364463806152
0.081271708011627197 0.37478706240653992 0.096635796129703522
0.1561250239610672 0.37911543250083923 0.10856042057275772
0.24049791693687439 0.39904627203941345 0.13479353487491608
0.32925626635551453 0.43139928579330444 0.16821640729904175
0.42286279797554016 0.45970308780670166 0.18928363919258118
0.52036947011947632 0.47587716579437256 0.18384675681591034
0.61696940660476685 0.49082177877426147 0.16947284340858459
0.71475136280059814 0.51596873998641968 0.1774880439043045
0.80779582262039185 0.54634737968444824 0.20772746205329895
0.8974989652633667 0.577739417552948 0.24688896536827087
0.97158598899841309 0.60521179437637329 0.29502654075622559
0.99949872493743896 0.62603390216827393 0.34224769473075867
1 0.63931751251220703 0.37494698166847229
0.12494321167469025 0.44261318445205688 0.10806252062320709
0.19787684082984924 0.44422480463981628 0.11644919961690903
0.27719008922576904 0.46147239208221436 0.14241141080856323
0.36104083061218262 0.49710321426391602 0.18560510873794556
0.44954288005828857 0.53196150064468384 0.22330246865749359
0.54284030199050903 0.54859882593154907 0.23179055750370026
0.63798588514328003 0.55633348226547241 0.220044806599617
0.72715300321578979 0.57096898555755615 0.21561571955680847
0.81174612045288086 0.59558689594268799 0.23002980649471283
0.89950716495513916 0.62740236520767212 0.26614800095558167
0.97742033004760742 0.6604079008102417 0.32149574160575867
1 0.68825477361679077 0.37229138612747192
1 0.70578455924987793 0.40567368268966675
0.18025781214237213 0.50700414180755615 0.12650123238563538
0.24878187477588654 0.50691324472427368 0.13083216547966003
0.32116991281509399 0.52224981784820557 0.15364454686641693
0.39748412370681763 0.55899202823638916 0.19994428753852844
0.47756743431091309 0.59972327947616577 0.24815119802951813
0.56445622444152832 0.62118566036224365 0.27055317163467407
0.65720772743225098 0.62863516807556152 0.26691135764122009
0.74436032772064209 0.63550752401351929 0.26040738821029663
0.82106000185012817 0.65041214227676392 0.26858723163604736
0.90068775415420532 0.67409795522689819 0.29498013854026794
0.97601211071014404 0.70467096567153931 0.34155705571174622
1 0.73408043384552002 0.38882818818092346
1 0.75407975912094116 0.42096960544586182
0.24020591378211975 0.5722387433052063 0.15393026173114777
0.3049461841583252 0.57171916961669922 0.15502111613750458
0.37107264995574951 0.58492004871368408 0.17359153926372528
0.43930089473724365 0.61718928813934326 0.21531024575233459
0.51028549671173096 0.65846145153045654 0.2660127580165863
0.58843052387237549 0.68858379125595093 0.3007570207118988
0.67605465650558472 0.70136797428131104 0.30821013450622559
0.76261729001998901 0.70605546236038208 0.30662310123443604
0.83765929937362671 0.71432489156723022 0.31896385550498962
0.91177928447723389 0.72968298196792603 0.34077855944633484
0.97814053297042847 0.75212228298187256 0.37122154235839844
1 0.77586501836776733 0.40465342998504639
1 0.79289108514785767 0.42864015698432922
0.29972720146179199 0.64291936159133911 0.18982785940170288
0.36212033033370972 0.64233481884002686 0.18939059972763062
0.42452710866928101 0.65181565284729004 0.20175859332084656
0.48778477311134338 0.67665475606918335 0.23351436853408813
0.55213600397109985 0.71408188343048096 0.28010085225105286
0.62122774124145508 0.74929404258728027 0.32222521305084229
0.69929331541061401 0.77040451765060425 0.34468796849250793
0.78290468454360962 0.77805942296981812 0.35117343068122864
0.86185181140899658 0.78267228603363037 0.36475211381912231
0.93282783031463623 0.79204821586608887 0.38681933283805847
0.98566246032714844 0.80911868810653687 0.41221588850021362
1 0.82448357343673706 0.4325404167175293
0.99991559982299805 0.83310520648956299 0.44268253445625305
0.35501885414123535 0.72144407033920288 0.23141366243362427
0.41633668541908264 0.72065812349319458 0.23055261373519897
0.47738257050514221 0.72614878416061401 0.23702700436115265
0.5391160249710083 0.74338197708129883 0.25801056623458862
0.60054033994674683 0.77412921190261841 0.29625788331031799
0.66195708513259888 0.81012958288192749 0.34320458769798279
0.72864848375320435 0.83861756324768066 0.38194796442985535
0.80553287267684937 0.8520740270614624 0.40199613571166992
0.88644278049468994 0.85557067394256592 0.4154895544052124
0.95650500059127808 0.86010837554931641 0.43194982409477234
0.99570727348327637 0.87252771854400635 0.45464688539505005
0.99999982118606567 0.88423049449920654 0.47311225533485413
0.99838078022003174 0.8874935507774353 0.47710943222045898
0.40402638912200928 0.80454379320144653 0.27549651265144348
0.46497425436973572 0.8047182559967041 0.27578985691070557
0.52598112821578979 0.80815857648849487 0.27962988615036011
0.58769923448562622 0.81987601518630981 0.29336386919021606
0.64788037538528442 0.84413337707519531 0.32452544569969177
0.70352238416671753 0.87738156318664551 0.37314319610595703
0.76053428649902344 0.90919464826583862 0.42493772506713867
0.82870197296142578 0.92801976203918457 0.46070137619972229
0.90725207328796387 0.93264245986938477 0.47571882605552673
0.975394606590271 0.93484753370285034 0.486287921667099
0.99990487098693848 0.94558179378509521 0.50780361890792847
0.99999380111694336 0.95876926183700562 0.53196156024932861
0.99865096807479858 0.96201062202453613 0.53901493549346924
0.022273434326052666 0.041249264031648636 0.13715045154094696
0.06790567934513092 0.03713265061378479 0.14204400777816772
0.12096856534481049 0.036881331354379654 0.14702978730201721
0.1731216162443161 0.038946293294429779 0.15129856765270233
0.23146884143352509 0.04093049094080925 0.15927432477474213
0.29916548728942871 0.040364477783441544 0.17019824683666229
0.37023761868476868 0.040950071066617966 0.17999187111854553
0.43783631920814514 0.035909164696931839 0.18998323380947113
0.50861644744873047 0.027632754296064377 0.19918924570083618
0.58680415153503418 0.030251836404204369 0.202387735247612
0.66726398468017578 0.054264485836029053 0.19962170720100403
0.74770158529281616 0.088007941842079163 0.20117044448852539
0.82296591997146606 0.12301672995090485 0.21259233355522156
0.018579220399260521 0.078207917511463165 0.13103140890598297
0.068259157240390778 0.076471425592899323 0.13935941457748413
0.13114640116691589 0.077482201159000397 0.14943660795688629
0.19467714428901672 0.080890417098999023 0.1575128585100174
0.2642572820186615 0.08312021940946579 0.16648508608341217
0.3358757495880127 0.084847532212734222 0.17799083888530731
0.40486091375350952 0.089142695069313049 0.18816585838794708
0.46560379862785339 0.086592733860015869 0.19825156033039093
0.53194016218185425 0.085540637373924255 0.20693175494670868
0.60605704784393311 0.094717584550380707 0.21029530465602875
0.68378728628158569 0.12092304974794388 0.20871971547603607
0.76518493890762329 0.1564943790435791 0.21154198050498962
0.83850693702697754 0.18915726244449615 0.2253098338842392
0.016982853412628174 0.12660123407840729 0.12637203931808472
0.070736467838287354 0.13099765777587891 0.13624724745750427
0.14132231473922729 0.14025150239467621 0.14998733997344971
0.22141349315643311 0.15109056234359741 0.16020500659942627
0.31037637591362 0.1590600311756134 0.17115926742553711
0.4003174901008606 0.16689908504486084 0.1853698194026947
0.48172205686569214 0.17832215130329132 0.19823388755321503
0.54374474287033081 0.18269561231136322 0.21027348935604095
0.6066165566444397 0.19181028008460999 0.22137318551540375
0.67099297046661377 0.20475919544696808 0.22745271027088165
0.73552560806274414 0.22079023718833923 0.22886870801448822
0.80349481105804443 0.24465927481651306 0.23300246894359589
0.86752688884735107 0.26907971501350403 0.2493213564157486
0.018714634701609612 0.18250112235546112 0.12871754169464111
0.074571706354618073 0.19186949729919434 0.13846880197525024
0.15032772719860077 0.21204932034015656 0.15492407977581024
0.24194064736366272 0.23423944413661957 0.1690862774848938
0.34386450052261353 0.25172480940818787 0.18020862340927124
0.45459908246994019 0.26794427633285522 0.19588977098464966
0.556976318359375 0.28849604725837708 0.2120005190372467
0.63946670293807983 0.30656087398529053 0.22913914918899536
0.70834243297576904 0.32174095511436462 0.2478603720664978
0.76554393768310547 0.3305327296257019 0.26187673211097717
0.81611460447311401 0.33597427606582642 0.26984474062919617
0.86370277404785156 0.3453601598739624 0.27495792508125305
0.9149547815322876 0.3631826639175415 0.29233381152153015
0.025205515325069427 0.24662993848323822 0.13146407902240753
0.087543070316314697 0.25621092319488525 0.14495213329792023
0.1701359748840332 0.2807621955871582 0.16859674453735352
0.26480436325073242 0.31296375393867493 0.19125890731811523
0.36605080962181091 0.33946728706359863 0.20301823318004608
0.47821643948554993 0.36460781097412109 0.21167002618312836
0.59049534797668457 0.39293000102043152 0.22556418180465698
0.69360709190368652 0.41831183433532715 0.24856476485729218
0.7768867015838623 0.43638414144515991 0.27644196152687073
0.841411292552948 0.44548788666725159 0.30147004127502441
0.89620929956436157 0.45050618052482605 0.32108607888221741
0.93893730640411377 0.45683002471923828 0.33465433120727539
