assets/lut/editingcorp randas.cube
# Created by: G'MIC (https://gmic.eu)
TITLE "randas"
# LUT size
LUT_3D_SIZE 13
# Data domain
DOMAIN_MIN 0.0 0.0 0.0
DOMAIN_MAX 1.0 1.0 1.0
# LUT data points
0.043784406036138535 0.039998207241296768 0.070984691381454468
0.10450213402509689 0.038653608411550522 0.070476174354553223
0.2092440277338028 0.045650962740182877 0.072121024131774902
0.33187192678451538 0.050488684326410294 0.078155770897865295
0.4547056257724762 0.055098723620176315 0.082543134689331055
0.56510156393051147 0.071796238422393799 0.10915949195623398
0.65529167652130127 0.077848993241786957 0.12743228673934937
0.72641760110855103 0.07539474219083786 0.13313715159893036
0.77999526262283325 0.074331887066364288 0.13599175214767456
0.8208392858505249 0.077881261706352234 0.1391800194978714
0.85662585496902466 0.079125590622425079 0.14246836304664612
0.89252197742462158 0.075679302215576172 0.14408285915851593
0.93067651987075806 0.07037169486284256 0.14417831599712372
0.045814886689186096 0.09694373607635498 0.078578546643257141
0.096547551453113556 0.087391704320907593 0.075685314834117889
0.19010689854621887 0.084369704127311707 0.077553845942020416
0.30919376015663147 0.087077170610427856 0.080622531473636627
0.43509197235107422 0.09203464537858963 0.091081835329532623
0.55089867115020752 0.10155247896909714 0.11162985861301422
0.6480143666267395 0.10831610113382339 0.12710303068161011
0.72568655014038086 0.1078946590423584 0.13372193276882172
0.7835124135017395 0.10667631775140762 0.13729135692119598
0.82451415061950684 0.10832631587982178 0.14058001339435577
0.85829794406890869 0.11099495738744736 0.14367972314357758
0.89244306087493896 0.111650250852108 0.14520920813083649
0.93054407835006714 0.1100909486413002 0.1443636566400528
0.054487027227878571 0.17592297494411469 0.084876716136932373
0.096168488264083862 0.16522103548049927 0.079242289066314697
0.17144685983657837 0.15413327515125275 0.079177230596542358
0.28083071112632751 0.14955256879329681 0.081215739250183105
0.40804228186607361 0.14950254559516907 0.091112367808818817
0.52822023630142212 0.15302291512489319 0.10829497873783112
0.63200122117996216 0.15593501925468445 0.1238110139966011
0.71923726797103882 0.15281182527542114 0.13344547152519226
0.78375238180160522 0.1478067934513092 0.13982023298740387
0.82621049880981445 0.14596544206142426 0.14426703751087189
0.85833472013473511 0.1476166844367981 0.14698673784732819
0.89173293113708496 0.14973019063472748 0.14827761054039001
0.93101024627685547 0.15130679309368134 0.14630350470542908
0.064619876444339752 0.26836535334587097 0.094786703586578369
0.097514897584915161 0.26119539141654968 0.086961455643177032
0.15361805260181427 0.2503645122051239 0.085294641554355621
0.25082144141197205 0.24053153395652771 0.085670337080955505
0.38034528493881226 0.23537403345108032 0.090837053954601288
0.50324171781539917 0.23499302566051483 0.10167688131332397
0.61117261648178101 0.2341897189617157 0.11535264551639557
0.70763564109802246 0.22666661441326141 0.12950828671455383
0.78052788972854614 0.21678441762924194 0.14072154462337494
0.82472515106201172 0.21115913987159729 0.14684301614761353
0.85736417770385742 0.2077961266040802 0.14842084050178528
0.89160925149917603 0.2069476842880249 0.14882639050483704
0.93309956789016724 0.20858703553676605 0.14694690704345703
0.072629846632480621 0.3811982274055481 0.10537201911211014
0.09917140007019043 0.37515610456466675 0.098853059113025665
0.14210590720176697 0.36579081416130066 0.096389457583427429
0.22430956363677979 0.35584986209869385 0.095361106097698212
0.34888514876365662 0.34776401519775391 0.095582596957683563
0.47512531280517578 0.34401974081993103 0.099646322429180145
0.58868169784545898 0.34165504574775696 0.10968032479286194
0.68995147943496704 0.33513852953910828 0.12526632845401764
0.76877248287200928 0.32581666111946106 0.13903690874576569
0.82102841138839722 0.31766238808631897 0.14668835699558258
0.85797202587127686 0.31009659171104431 0.14851218461990356
0.89486038684844971 0.30503290891647339 0.1489914208650589
0.93537980318069458 0.30252128839492798 0.14787949621677399
0.081860244274139404 0.50072479248046875 0.11921504884958267
0.10477731376886368 0.49453723430633545 0.11540278792381287
0.13985158503055573 0.48750755190849304 0.11210028082132339
0.20293168723583221 0.48193991184234619 0.10753658413887024
0.30629929900169373 0.47562623023986816 0.10297162085771561
0.43906429409980774 0.46703892946243286 0.10291297733783722
0.56524550914764404 0.46105113625526428 0.10950950533151627
0.67122930288314819 0.45758402347564697 0.12303213775157928
0.75590091943740845 0.45255634188652039 0.13687583804130554
0.81824541091918945 0.4467025101184845 0.14501097798347473
0.86117565631866455 0.43954333662986755 0.14874185621738434
0.89842844009399414 0.43401297926902771 0.14963138103485107
0.9372478723526001 0.43128710985183716 0.14931477606296539
0.093277379870414734 0.60623347759246826 0.13927370309829712
0.11607781052589417 0.60048383474349976 0.1377004086971283
0.14673316478729248 0.59509706497192383 0.13409537076950073
0.19706350564956665 0.59230500459671021 0.12728343904018402
0.28424099087715149 0.58854597806930542 0.11885061860084534
0.41268855333328247 0.5795857310295105 0.11332695186138153
0.5435798168182373 0.57046806812286377 0.11315485835075378
0.65460419654846191 0.56546008586883545 0.12054462730884552
0.74515855312347412 0.56281989812850952 0.1323639303445816
0.81519001722335815 0.55946987867355347 0.14138489961624146
0.86407053470611572 0.55426400899887085 0.14677543938159943
0.90021336078643799 0.5497698187828064 0.14885951578617096
0.93667328357696533 0.54575371742248535 0.14911776781082153
0.10419977456331253 0.68753290176391602 0.1627490371465683
0.13032270967960358 0.68459141254425049 0.16332603991031647
0.1614605039358139 0.6804279088973999 0.16078546643257141
0.20689676702022552 0.67809844017028809 0.1546512097120285
0.2805367112159729 0.67686134576797485 0.14465676248073578
0.38960039615631104 0.67177039384841919 0.13365308940410614
0.51542049646377563 0.66203594207763672 0.12331955879926682
0.63512396812438965 0.65345185995101929 0.11960796266794205
0.73540204763412476 0.648964524269104 0.1266331821680069
0.81229418516159058 0.64479517936706543 0.1372513473033905
0.86521279811859131 0.6402515172958374 0.14523361623287201
0.90273839235305786 0.63622289896011353 0.14903616905212402
0.93689370155334473 0.63003939390182495 0.15048462152481079
0.11444149911403656 0.75432562828063965 0.18268956243991852
0.14449150860309601 0.75385183095932007 0.18569867312908173
0.17625868320465088 0.75147277116775513 0.18562538921833038
0.2158079594373703 0.75024402141571045 0.1822013258934021
0.27292078733444214 0.7512848973274231 0.17439110577106476
0.35794857144355774 0.75036418437957764 0.16303148865699768
0.47286850214004517 0.74315506219863892 0.14651449024677277
0.60457080602645874 0.73131746053695679 0.12936124205589294
0.71915465593338013 0.72384721040725708 0.12858627736568451
0.80418747663497925 0.71766012907028198 0.1394389420747757
0.86357307434082031 0.7128491997718811 0.15018667280673981
0.904033362865448 0.70968931913375854 0.15629011392593384
0.93849724531173706 0.70404118299484253 0.15933686494827271
0.1223471537232399 0.81420612335205078 0.19464986026287079
0.15552294254302979 0.81556373834609985 0.20023955404758453
0.18660132586956024 0.81428039073944092 0.20282167196273804
0.21905624866485596 0.8130643367767334 0.20332410931587219
0.26186394691467285 0.8150782585144043 0.20092606544494629
0.32443392276763916 0.81877768039703369 0.19520649313926697
0.41940096020698547 0.81820213794708252 0.18273748457431793
0.55378854274749756 0.80839568376541138 0.16101400554180145
0.68238121271133423 0.80042332410812378 0.15169145166873932
0.78087311983108521 0.7932438850402832 0.15712876617908478
0.8520171046257019 0.78687155246734619 0.16578620672225952
0.89909583330154419 0.78345769643783569 0.17195707559585571
0.93673253059387207 0.77719771862030029 0.17424212396144867
0.12457416206598282 0.86623185873031616 0.20118376612663269
0.15967991948127747 0.86790281534194946 0.20871224999427795
0.19054614007472992 0.86698967218399048 0.21303986012935638
0.21980942785739899 0.86501950025558472 0.21580220758914948
0.25518089532852173 0.86643517017364502 0.21716445684432983
0.30566269159317017 0.87136220932006836 0.21684430539608002
0.38596215844154358 0.87486165761947632 0.21138319373130798
0.5107802152633667 0.87113136053085327 0.19670642912387848
0.64554917812347412 0.86639606952667236 0.18482740223407745
0.75554949045181274 0.86216050386428833 0.18304060399532318
0.83563131093978882 0.85705649852752686 0.18594299256801605
0.88925915956497192 0.85489964485168457 0.18995325267314911
0.93073219060897827 0.84851878881454468 0.19168515503406525
0.1201506108045578 0.91034984588623047 0.20331375300884247
0.1549016535282135 0.91026544570922852 0.21259328722953796
0.18651759624481201 0.90858054161071777 0.21749402582645416
0.2172238677740097 0.90604102611541748 0.22017741203308105
0.2523266077041626 0.9060356616973877 0.22232259809970856
0.2992607057094574 0.90941900014877319 0.22378110885620117
0.37055814266204834 0.91341209411621094 0.22297884523868561
0.4850715696811676 0.91303008794784546 0.21649904549121857
0.62535476684570312 0.90938323736190796 0.20750501751899719
0.73987406492233276 0.90927678346633911 0.20180107653141022
0.82090413570404053 0.91074150800704956 0.20062741637229919
0.87810343503952026 0.91152679920196533 0.20244099199771881
0.92289918661117554 0.90795648097991943 0.20388305187225342
0.11017430573701859 0.9497717022895813 0.20030173659324646
0.14442223310470581 0.94792670011520386 0.20997351408004761
0.17695194482803345 0.9452705979347229 0.21532057225704193
0.20966914296150208 0.94215536117553711 0.21818074584007263
0.24543231725692749 0.94097095727920532 0.22058981657028198
0.28860193490982056 0.94354879856109619 0.22335852682590485
0.35021504759788513 0.9478524923324585 0.22534748911857605
0.45425024628639221 0.94934558868408203 0.2232116311788559
0.59231412410736084 0.94659978151321411 0.21673956513404846
0.71167212724685669 0.9485747218132019 0.21001569926738739
0.79881387948989868 0.95252299308776855 0.20722135901451111
0.86190390586853027 0.9562268853187561 0.20782656967639923
0.91129499673843384 0.95563668012619019 0.20985141396522522
0.045053489506244659 0.043355755507946014 0.12530601024627686
0.10595247149467468 0.041261322796344757 0.12432122230529785
0.21129576861858368 0.04083213210105896 0.11822821199893951
0.3343033492565155 0.043136447668075562 0.11780574917793274
0.45760276913642883 0.050089024007320404 0.1231163889169693
0.56852668523788452 0.063656844198703766 0.14369848370552063
0.66065853834152222 0.068972796201705933 0.1572892963886261
0.73258805274963379 0.066283039748668671 0.16009972989559174
0.78553873300552368 0.065833956003189087 0.16075985133647919
0.82456570863723755 0.072924025356769562 0.16508160531520844
0.85838454961776733 0.080363929271697998 0.17037369310855865
0.8949323296546936 0.081711851060390472 0.17461477220058441
0.93353641033172607 0.077855221927165985 0.17765866219997406
0.04944184422492981 0.092934824526309967 0.13073231279850006
0.10103835910558701 0.087564669549465179 0.12699712812900543
0.19367854297161102 0.082993946969509125 0.12307305634021759
0.31325128674507141 0.084893904626369476 0.12048839777708054
0.43888112902641296 0.091585911810398102 0.12828244268894196
0.55436426401138306 0.10028114914894104 0.14476381242275238
0.65272563695907593 0.10500745475292206 0.1560550332069397
0.73040091991424561 0.10495614260435104 0.15916408598423004
0.7867775559425354 0.10484185069799423 0.16015316545963287
0.82596629858016968 0.10955111682415009 0.16351437568664551
0.85827702283859253 0.11718633025884628 0.16842351853847504
0.89244562387466431 0.12111151963472366 0.17251873016357422
0.93234783411026001 0.11976128071546555 0.17324726283550262
0.055504966527223587 0.16864998638629913 0.12950579822063446
0.09653182327747345 0.163805291056633 0.12346870452165604
0.17195500433444977 0.15576300024986267 0.12027439475059509
0.28488823771476746 0.15099263191223145 0.11531666666269302
0.41157791018486023 0.14941391348838806 0.12185824662446976
0.53078669309616089 0.1516895592212677 0.13816700875759125
0.63534361124038696 0.15388038754463196 0.15293926000595093
0.72135013341903687 0.15223416686058044 0.15905040502548218
0.78383487462997437 0.14872081577777863 0.16332681477069855
0.82537615299224854 0.14883886277675629 0.16796506941318512
0.85765588283538818 0.15442816913127899 0.17150768637657166
0.89106708765029907 0.15961018204689026 0.17476455867290497
0.93152427673339844 0.16011562943458557 0.17365917563438416
0.064988799393177032 0.26450338959693909 0.13080210983753204
0.098206840455532074 0.26138067245483398 0.12265538424253464
0.15521365404129028 0.25337028503417969 0.12035305798053741
0.25611212849617004 0.24332819879055023 0.11573243886232376
0.38215240836143494 0.23565557599067688 0.11751636862754822
0.50311470031738281 0.23428884148597717 0.12712197005748749
0.61257290840148926 0.23311440646648407 0.1418956071138382
0.70681166648864746 0.2270311564207077 0.15450716018676758
0.77721524238586426 0.21777211129665375 0.16524395346641541
0.82298415899276733 0.21145184338092804 0.17270165681838989
0.85732901096343994 0.21267926692962646 0.17387805879116058
0.89197927713394165 0.21380129456520081 0.1736038476228714
0.93330091238021851 0.21388719975948334 0.17227979004383087
0.072928950190544128 0.3798215389251709 0.13644205033779144
0.10064230859279633 0.37625142931938171 0.12983080744743347
0.14620316028594971 0.36924105882644653 0.12801657617092133
0.23142579197883606 0.35906392335891724 0.12546898424625397
0.35206276178359985 0.34891334176063538 0.1245153546333313
0.47628912329673767 0.34456434845924377 0.12471867352724075
0.59044915437698364 0.34191673994064331 0.13292777538299561
0.69003593921661377 0.33493506908416748 0.14796693623065948
0.76740902662277222 0.32529470324516296 0.16290384531021118
0.82057344913482666 0.31718569993972778 0.17250041663646698
0.85796916484832764 0.31389704346656799 0.17437559366226196
0.89500170946121216 0.3094516396522522 0.17314170300960541
0.93612390756607056 0.30627283453941345 0.17258830368518829
0.08141741156578064 0.50003272294998169 0.14743733406066895
0.10634046047925949 0.49693101644515991 0.14391010999679565
0.1447874903678894 0.49245241284370422 0.14166960120201111
0.2124498039484024 0.48605939745903015 0.13739907741546631
0.317830890417099 0.47637796401977539 0.13176283240318298
0.44671133160591125 0.46740669012069702 0.12817728519439697
0.57021975517272949 0.46136331558227539 0.13270248472690582
0.67426902055740356 0.45666337013244629 0.14640004932880402
0.75728660821914673 0.45117208361625671 0.16181288659572601
0.81858879327774048 0.44540807604789734 0.17218793928623199
0.86017525196075439 0.44092822074890137 0.17520521581172943
0.8980860710144043 0.43613734841346741 0.17541269958019257
0.937641441822052 0.43242362141609192 0.17642711102962494
0.092649631202220917 0.60540115833282471 0.16694527864456177
0.11717865616083145 0.60292410850524902 0.1651071161031723
0.150364950299263 0.60008347034454346 0.16213139891624451
0.20430837571620941 0.59672272205352783 0.15549635887145996
0.29321056604385376 0.58991813659667969 0.14616164565086365
0.41958576440811157 0.58033406734466553 0.13888266682624817
0.54922902584075928 0.57149088382720947 0.13884136080741882
0.65693002939224243 0.56640386581420898 0.1479644775390625
0.74555450677871704 0.56374835968017578 0.16239282488822937
0.81565505266189575 0.55888724327087402 0.17230373620986938
0.86181724071502686 0.55385524034500122 0.17513120174407959
0.89897793531417847 0.55014920234680176 0.17587071657180786
0.93751281499862671 0.54572999477386475 0.1774262934923172
0.10450082272291183 0.68676471710205078 0.19211822748184204
0.13101662695407867 0.68519508838653564 0.19147545099258423
0.1625555008649826 0.68302744626998901 0.18849343061447144
0.20773304998874664 0.68076527118682861 0.18223926424980164
0.28101003170013428 0.6781688928604126 0.17166571319103241
0.39071199297904968 0.67261713743209839 0.15993945300579071
0.51804661750793457 0.66281169652938843 0.15083760023117065
0.63612943887710571 0.65441352128982544 0.14998675882816315
0.73424029350280762 0.65062469244003296 0.16088846325874329
0.81242620944976807 0.64500194787979126 0.17133493721485138
0.86406564712524414 0.63912826776504517 0.17676608264446259
0.90156960487365723 0.6347510814666748 0.17796041071414948
0.93767982721328735 0.62932825088500977 0.1797010749578476
0.11566941440105438 0.75159364938735962 0.21331718564033508
0.14546816051006317 0.7518543004989624 0.21472129225730896
0.17673887312412262 0.75000542402267456 0.21405699849128723
0.21563369035720825 0.74826079607009888 0.21126963198184967
0.27214616537094116 0.74964457750320435 0.20314846932888031
0.3580358624458313 0.74918782711029053 0.19141072034835815
0.47527793049812317 0.74138331413269043 0.17541703581809998
0.60704106092453003 0.72925287485122681 0.16167207062244415
0.71867948770523071 0.72409653663635254 0.16636277735233307
0.80442970991134644 0.71811294555664062 0.17864230275154114
0.86390143632888794 0.71073055267333984 0.1869463324546814
0.90439754724502563 0.70585447549819946 0.18961237370967865
0.93942797183990479 0.70025372505187988 0.19206023216247559
0.12481601536273956 0.81088739633560181 0.22454081475734711
0.15679754316806793 0.81068241596221924 0.22986873984336853
0.18788439035415649 0.80925506353378296 0.23221050202846527
0.2214730829000473 0.80817329883575439 0.23285022377967834
0.26448515057563782 0.81103146076202393 0.23064514994621277
0.328369140625 0.8156733512878418 0.22559520602226257
0.42622020840644836 0.81481105089187622 0.21430869400501251
0.55759626626968384 0.80654096603393555 0.19750975072383881
0.6835436224937439 0.80142474174499512 0.19196000695228577
0.78305602073669434 0.79460602998733521 0.19916185736656189
0.85437929630279541 0.78514087200164795 0.2066320925951004
0.90157097578048706 0.77853775024414062 0.21000158786773682
0.93873482942581177 0.77138280868530273 0.21153616905212402
0.1284208744764328 0.86227744817733765 0.23209531605243683
0.16201043128967285 0.86149299144744873 0.2399945855140686
0.19343018531799316 0.85990023612976074 0.24328969419002533
0.22477547824382782 0.85887688398361206 0.24490009248256683
0.2627984881401062 0.86116284132003784 0.24654173851013184
0.31587043404579163 0.86669796705245972 0.24760156869888306
0.39719626307487488 0.87141084671020508 0.24461337924003601
0.51846492290496826 0.87048864364624023 0.23320336639881134
0.65097057819366455 0.86788463592529297 0.22355347871780396
0.76056396961212158 0.86448389291763306 0.22312629222869873
0.84099000692367554 0.85714423656463623 0.22703415155410767
0.89426684379577637 0.8510735034942627 0.23055613040924072
0.93429732322692871 0.844066321849823 0.23126909136772156
0.1257474273443222 0.90534317493438721 0.23610357940196991
0.1596829742193222 0.903511643409729 0.24570056796073914
0.19188502430915833 0.90120899677276611 0.24840116500854492
0.22489131987094879 0.89989280700683594 0.24888692796230316
0.26383534073829651 0.90010672807693481 0.25080904364585876
0.31608986854553223 0.90325134992599487 0.25344374775886536
0.38702216744422913 0.9093397855758667 0.25511687994003296
0.49591284990310669 0.91327428817749023 0.25121679902076721
0.63064134120941162 0.91303765773773193 0.24314521253108978
0.74566435813903809 0.91254067420959473 0.23871283233165741
0.8293994665145874 0.9115568995475769 0.23909121751785278
0.88569486141204834 0.9098198413848877 0.24255521595478058
0.92784112691879272 0.90565299987792969 0.24516737461090088
0.11732374876737595 0.94419050216674805 0.23288145661354065
0.15120036900043488 0.94119644165039062 0.24287529289722443
0.18391086161136627 0.93837881088256836 0.2458665668964386
0.21803314983844757 0.9357876181602478 0.24690289795398712
0.25689679384231567 0.9351571798324585 0.24897651374340057
0.3047739565372467 0.93746268749237061 0.25244510173797607
0.3678174614906311 0.94348776340484619 0.25648072361946106
0.46646597981452942 0.94855791330337524 0.25641480088233948
0.59733998775482178 0.94955503940582275 0.25023835897445679
0.72024935483932495 0.94968438148498535 0.24322958290576935
0.81114691495895386 0.95205962657928467 0.24148234724998474
0.87245738506317139 0.95403611660003662 0.24621367454528809
0.91918003559112549 0.9544442892074585 0.25026234984397888
0.05362306535243988 0.047095835208892822 0.2236727774143219
0.1192590594291687 0.045587904751300812 0.21560783684253693
0.21843695640563965 0.043827444314956665 0.21055756509304047
0.33536714315414429 0.046985313296318054 0.20938998460769653
0.45465466380119324 0.057510901242494583 0.21082416176795959
0.56553775072097778 0.066992305219173431 0.21353840827941895
0.66081005334854126 0.069064199924468994 0.21123047173023224
0.73577004671096802 0.061923142522573471 0.2045760452747345
0.78905832767486572 0.058287914842367172 0.20071402192115784
0.8267022967338562 0.069220736622810364 0.20444381237030029
0.85939735174179077 0.08162052184343338 0.2108185887336731
0.89502465724945068 0.086317233741283417 0.21559520065784454
0.93504709005355835 0.083984419703483582 0.22041143476963043
0.055813807994127274 0.094074741005897522 0.21297328174114227
0.11006646603345871 0.091229021549224854 0.20817747712135315
0.20120428502559662 0.086158111691474915 0.20571896433830261
0.31782981753349304 0.08779461681842804 0.20207464694976807
0.43866613507270813 0.097029633820056915 0.20299270749092102
0.55325108766555786 0.10512246191501617 0.20612668991088867
0.65364712476730347 0.10973132401704788 0.20516394078731537
0.73271912336349487 0.10865586251020432 0.19995015859603882
0.78862357139587402 0.10826408863067627 0.19642363488674164
0.82566207647323608 0.11606713384389877 0.19724249839782715
0.85756814479827881 0.12646068632602692 0.2011367529630661
0.89418274164199829 0.13062451779842377 0.20465885102748871
0.93495935201644897 0.12909720838069916 0.20731492340564728
0.058227434754371643 0.16204780340194702 0.20158796012401581
0.098047338426113129 0.16174359619617462 0.19856917858123779
0.17276753485202789 0.15827503800392151 0.19767627120018005
0.29125016927719116 0.15210403501987457 0.18994319438934326
0.41608813405036926 0.15027640759944916 0.18704654276371002
0.5330771803855896 0.15263079106807709 0.19298087060451508
0.63742756843566895 0.15653364360332489 0.19858661293983459
0.72248512506484985 0.15782633423805237 0.19795109331607819
0.78345704078674316 0.15646389126777649 0.19610820710659027
0.82398909330368042 0.15760831534862518 0.19780349731445312
0.85694855451583862 0.16405999660491943 0.19982007145881653
0.89237880706787109 0.16850927472114563 0.20277325809001923
0.93433743715286255 0.16847230494022369 0.2038605660200119
0.063894815742969513 0.25711655616760254 0.19383572041988373
0.095448195934295654 0.2567465603351593 0.18867497146129608
0.15430104732513428 0.25489825010299683 0.18726630508899689
0.26211762428283691 0.24592483043670654 0.17879152297973633
0.38780423998832703 0.23741883039474487 0.17105793952941895
0.50665664672851562 0.23559990525245667 0.17351293563842773
0.61547064781188965 0.2338031679391861 0.18509715795516968
0.70711272954940796 0.22979599237442017 0.19193442165851593
0.77539247274398804 0.22228792309761047 0.19606086611747742
0.82165014743804932 0.21586523950099945 0.19998480379581451
0.85726380348205566 0.21828611195087433 0.20021471381187439
0.89452672004699707 0.21946786344051361 0.20053397119045258
0.9357486367225647 0.21777346730232239 0.20195186138153076
0.071041405200958252 0.37503275275230408 0.18947926163673401
0.099650800228118896 0.37275004386901855 0.18450275063514709
0.14753814041614532 0.36926746368408203 0.18284855782985687
0.23390364646911621 0.36289694905281067 0.177247554063797
0.35605430603027344 0.35437136888504028 0.16933511197566986
0.48133549094200134 0.34836941957473755 0.16471600532531738
0.59432590007781982 0.34331241250038147 0.16977263987064362
0.69084125757217407 0.33605372905731201 0.1800009161233902
