assets/lut/editingcorpw Pearl Paradise.cube
LUT_3D_SIZE 6
DOMAIN_MIN 0.0 0.0 0.0
DOMAIN_MAX 1.0 1.0 1.0
0.001284 0.003836 0.019896
0.061226 0.004396 0.033525
0.105358 0.003822 0.019313
0.348329 0.014395 0.023551
0.662681 0.047234 0.006135
0.851004 0.074343 0.007794
0.003432 0.064283 0.038584
0.055096 0.085326 0.042600
0.148799 0.076416 0.025975
0.462862 0.119570 0.023452
0.721440 0.153511 0.012779
0.865538 0.178654 0.021708
0.010832 0.178418 0.074448
0.055940 0.190940 0.083317
0.213405 0.183222 0.052015
0.547695 0.196874 0.038695
0.746162 0.265809 0.022858
0.864187 0.308669 0.029526
0.021442 0.289210 0.110879
0.067647 0.328670 0.117256
0.291294 0.381271 0.095861
0.610740 0.425046 0.075180
0.798464 0.432933 0.070047
0.926766 0.421158 0.077253
0.036263 0.407848 0.139245
0.115696 0.495349 0.142135
0.447684 0.628618 0.148815
0.682212 0.689189 0.152194
0.807322 0.711446 0.154516
0.922386 0.707310 0.149112
0.053159 0.515206 0.171977
0.280035 0.644042 0.188441
0.601495 0.773600 0.215788
0.755140 0.839305 0.234734
0.852226 0.873291 0.236653
0.933388 0.892126 0.236202
0.001260 0.003947 0.112616
0.040310 0.014268 0.126744
0.137027 0.036693 0.114272
0.332281 0.038912 0.130811
0.668439 0.074491 0.121877
0.856912 0.110625 0.124674
0.004256 0.079996 0.116242
0.043787 0.104522 0.137745
0.163590 0.110216 0.133542
0.463346 0.142400 0.134913
0.759824 0.197208 0.128354
0.892612 0.235381 0.140118
0.012176 0.189313 0.130301
0.048889 0.225101 0.149021
0.157877 0.222107 0.136245
0.555982 0.264844 0.122492
0.787798 0.318160 0.129430
0.905926 0.361869 0.152924
0.023440 0.305549 0.146255
0.063074 0.351496 0.183612
0.220828 0.404348 0.180221
0.601253 0.511240 0.173754
0.811728 0.516319 0.171120
0.923600 0.549116 0.181314
0.035286 0.396016 0.190752
0.108902 0.455831 0.234823
0.389155 0.588367 0.240100
0.697530 0.710262 0.255877
0.823739 0.752405 0.260172
0.922436 0.753510 0.264904
0.053848 0.498730 0.254745
0.229880 0.601206 0.298840
0.558404 0.734049 0.316070
0.783910 0.841469 0.348766
0.871720 0.878284 0.353254
0.941896 0.901051 0.365318
0.003276 0.005130 0.187672
0.037384 0.006309 0.198783
0.101794 0.015904 0.202358
0.272147 0.033229 0.216878
0.605674 0.077323 0.254954
0.824227 0.126415 0.257324
0.006278 0.086017 0.218986
0.040647 0.089013 0.249703
0.121996 0.105628 0.253167
0.334270 0.142892 0.245050
0.717032 0.215077 0.258905
0.877130 0.268643 0.269806
0.015120 0.202469 0.268582
0.050423 0.224643 0.276686
0.124858 0.220625 0.277134
0.436401 0.265528 0.252276
0.794499 0.358855 0.257785
0.918748 0.416628 0.277110
0.030744 0.337311 0.314352
0.069374 0.379819 0.320616
0.176636 0.427986 0.316741
0.529393 0.526711 0.286781
0.823211 0.573157 0.291695
0.934562 0.609988 0.318601
0.044764 0.437118 0.357628
0.113602 0.485142 0.370945
0.314139 0.580224 0.389063
0.652851 0.713192 0.389983
0.839000 0.776395 0.394546
0.938979 0.779090 0.421032
0.062629 0.534360 0.410224
0.212269 0.615900 0.445510
0.506396 0.750807 0.493307
0.768750 0.868650 0.519682
0.888988 0.909932 0.516909
0.949595 0.919447 0.523722
0.006249 0.009436 0.301781
0.040308 0.011055 0.313299
0.094365 0.022483 0.320359
0.248133 0.039366 0.336150
0.542529 0.087998 0.392534
0.796456 0.155604 0.430277
0.009730 0.096754 0.339404
0.044998 0.109819 0.380552
0.125020 0.124258 0.390157
0.273659 0.159653 0.402202
0.629621 0.230309 0.434502
0.848980 0.307058 0.457052
0.016578 0.218671 0.378863
0.052637 0.236573 0.414634
0.141767 0.239977 0.449525
0.320712 0.302855 0.474098
0.731875 0.416824 0.491043
0.904845 0.490517 0.501021
0.032805 0.340974 0.416690
0.071798 0.372123 0.451311
0.174107 0.411039 0.483136
0.401705 0.500268 0.535670
0.814071 0.597698 0.529994
0.944486 0.667172 0.549688
0.049709 0.452152 0.455791
0.122289 0.513277 0.497308
0.283882 0.602387 0.539090
0.572687 0.733788 0.604465
0.838011 0.819334 0.613247
0.934338 0.819336 0.613639
0.075161 0.579118 0.509873
0.211735 0.661604 0.576437
0.458908 0.782550 0.642986
0.711976 0.888364 0.699700
0.873203 0.943945 0.702018
0.940475 0.940617 0.686435
0.009529 0.014105 0.394299
0.044152 0.031485 0.415153
0.130088 0.054926 0.445066
0.270483 0.085580 0.503814
0.491654 0.126906 0.540183
0.804350 0.226343 0.596246
0.013678 0.110944 0.435245
0.062401 0.141686 0.488788
0.169851 0.171926 0.522200
0.309737 0.216404 0.565788
0.564211 0.301568 0.631938
0.861458 0.423288 0.688179
0.021466 0.238511 0.468765
0.066425 0.258970 0.520143
0.193865 0.290678 0.575979
0.364126 0.362412 0.623914
0.652527 0.498956 0.722657
0.900549 0.609442 0.761507
0.034964 0.358643 0.508394
0.086132 0.391019 0.559553
0.211485 0.436963 0.607326
0.434653 0.531168 0.678779
0.730094 0.666429 0.782651
0.924948 0.735273 0.788908
0.058418 0.489347 0.539722
0.139361 0.541717 0.605465
0.299786 0.601616 0.666106
0.545263 0.718704 0.747459
0.793615 0.816442 0.822395
0.937994 0.840583 0.806025
0.086566 0.616741 0.596108
0.231367 0.689770 0.672729
0.454650 0.795422 0.747506
0.671748 0.888426 0.813483
0.842930 0.949269 0.851646
0.944308 0.949388 0.835575
0.013841 0.027200 0.498794
0.064117 0.063346 0.535707
0.168764 0.092208 0.580862
0.313605 0.130152 0.655581
0.515580 0.207984 0.739471
0.792379 0.336997 0.815288
0.017862 0.124908 0.533859
0.090477 0.174714 0.600653
0.208021 0.218639 0.653101
0.361441 0.268332 0.716244
0.607477 0.405977 0.829243
0.847026 0.544206 0.904182
0.026052 0.256254 0.561090
0.088771 0.289188 0.629208
0.234125 0.338896 0.701412
0.424932 0.415868 0.762116
0.686757 0.567445 0.865077
0.885203 0.693039 0.941526
0.037524 0.371604 0.601412
0.104499 0.432166 0.662106
0.249370 0.475677 0.724783
0.501846 0.582619 0.812761
0.753562 0.710126 0.895276
0.908663 0.790539 0.943442
0.066546 0.520877 0.637726
0.153648 0.559480 0.707426
0.325478 0.619603 0.773132
0.584030 0.742181 0.848022
0.789914 0.824431 0.914166
0.926254 0.876974 0.952790
0.099211 0.657543 0.676915
0.259649 0.714468 0.761122
0.468720 0.784997 0.838159
0.685238 0.871252 0.904386
0.816201 0.924808 0.950843
0.936889 0.961093 0.965998
