assets/lut/editingcorp nigrum.cube
# Created by: G'MIC (https://gmic.eu)
TITLE "nigrum"
# LUT size
LUT_3D_SIZE 13
# Data domain
DOMAIN_MIN 0.0 0.0 0.0
DOMAIN_MAX 1.0 1.0 1.0
# LUT data points
0.010274805128574371 0.013891975395381451 0.015297459438443184
0.040667321532964706 0.0091303810477256775 0.010249926708638668
0.089250527322292328 0.0093282964080572128 0.0064778048545122147
0.15460164844989777 0.0082016289234161377 0.0056421170011162758
0.22534184157848358 0.0040857503190636635 0.0039541055448353291
0.29694670438766479 0.0065984087996184826 0.0037921532057225704
0.36924120783805847 0.0091439643874764442 0.0051384721882641315
0.44235661625862122 0.0096414303407073021 0.004666691180318594
0.51943624019622803 0.010601028800010681 0.0030646978411823511
0.60159409046173096 0.012017552740871906 0.0017653671093285084
0.68595683574676514 0.012365213595330715 0.0021192063577473164
0.76898199319839478 0.013786644674837589 0.0032325296197086573
0.84766703844070435 0.018658790737390518 0.0050263646990060806
0.011288182809948921 0.061783075332641602 0.015512384474277496
0.047662682831287384 0.060298141092061996 0.0072986679151654243
0.10602588951587677 0.057647105306386948 0.00415827427059412
0.17394497990608215 0.051103539764881134 0.0011102264979854226
0.24490579962730408 0.041596207767724991 0.0010021284688264132
0.31700462102890015 0.037528198212385178 0.0071159512735903263
0.38889381289482117 0.035854414105415344 0.0099314674735069275
0.45992863178253174 0.035623811185359955 0.0075281928293406963
0.53323674201965332 0.032354302704334259 0.0058769974857568741
0.61113417148590088 0.028263136744499207 0.0047488943673670292
0.69273382425308228 0.023297658190131187 0.0042137443087995052
0.77615833282470703 0.022461326792836189 0.0040388517081737518
0.8584519624710083 0.03080056793987751 0.0069207735359668732
0.012634008191525936 0.12436427921056747 0.014388589188456535
0.053533978760242462 0.12845641374588013 0.006016166415065527
0.1210828572511673 0.12755192816257477 0.0058627258986234665
0.19750288128852844 0.12666741013526917 0.001791157410480082
0.27437293529510498 0.12316831946372986 0.00025975843891501427
0.34982773661613464 0.11522575467824936 0.0053279353305697441
0.42240062355995178 0.10673356801271439 0.0081580812111496925
0.49237719178199768 0.099141307175159454 0.0067276898771524429
0.562641441822052 0.087723135948181152 0.0079417359083890915
0.63374835252761841 0.071521371603012085 0.0074571049772202969
0.70487338304519653 0.048158995807170868 0.0054834554903209209
0.78437983989715576 0.034191533923149109 0.00094226014334708452
0.8673737645149231 0.040214553475379944 0.0024047102779150009
0.016341324895620346 0.19755741953849792 0.013346144929528236
0.061205398291349411 0.20102478563785553 0.0041689104400575161
0.13628768920898438 0.20369520783424377 0.0078991763293743134
0.22205621004104614 0.21020267903804779 0.0059698065742850304
0.30684620141983032 0.21705365180969238 0.0025671566836535931
0.38696089386940002 0.21752862632274628 0.003207232803106308
0.46268704533576965 0.21199259161949158 0.0029104943387210369
0.53685659170150757 0.20211575925350189 0.0014264873461797833
0.61235207319259644 0.19022397696971893 0.0043015275150537491
0.68480378389358521 0.16969776153564453 0.0052296356298029423
0.75401449203491211 0.13791684806346893 0.002852465957403183
0.82579368352890015 0.10374359786510468 1.6156365063579869e-06
0.88912665843963623 0.079260729253292084 0.0032743117772042751
0.036790810525417328 0.26982241868972778 0.025251636281609535
0.084517113864421844 0.27371779084205627 0.019012181088328362
0.16091406345367432 0.28186154365539551 0.018761817365884781
0.25064456462860107 0.2946605384349823 0.01410960778594017
0.3393738865852356 0.30797907710075378 0.012847017496824265
0.42181599140167236 0.31578043103218079 0.015249962918460369
0.49945870041847229 0.31564372777938843 0.0093766003847122192
0.57779496908187866 0.31150954961776733 0.00094302307115867734
0.66137540340423584 0.3074042797088623 0.0017981884302571416
0.74515867233276367 0.29669108986854553 0.011074649170041084
0.8280712366104126 0.28194862604141235 0.023004569113254547
0.8989260196685791 0.26247739791870117 0.031958620995283127
0.93946057558059692 0.23714101314544678 0.065856620669364929
0.077091991901397705 0.339130699634552 0.050643652677536011
0.12773843109607697 0.34623908996582031 0.050752170383930206
0.20080439746379852 0.35967892408370972 0.047439113259315491
0.28720498085021973 0.37802070379257202 0.043029110878705978
0.37389752268791199 0.39536181092262268 0.043680708855390549
0.45496669411659241 0.40693950653076172 0.045917242765426636
0.53200185298919678 0.41109690070152283 0.034980356693267822
0.61009544134140015 0.41114374995231628 0.016646141186356544
0.69563788175582886 0.41169014573097229 0.01431452389806509
0.78540736436843872 0.40923744440078735 0.035830345004796982
0.87024646997451782 0.40531432628631592 0.076826728880405426
0.93409544229507446 0.41394808888435364 0.13287888467311859
0.96955657005310059 0.44189974665641785 0.22561384737491608
0.13049720227718353 0.41046825051307678 0.078641466796398163
0.18411089479923248 0.42125388979911804 0.082577228546142578
0.25250619649887085 0.43854466080665588 0.081699401140213013
0.33164173364639282 0.45969963073730469 0.081490099430084229
0.41181096434593201 0.47930571436882019 0.084168180823326111
0.48882359266281128 0.49310451745986938 0.087423615157604218
0.56326067447662354 0.50149863958358765 0.078595958650112152
0.63976931571960449 0.50601953268051147 0.058515943586826324
0.72265398502349854 0.51009666919708252 0.051830098032951355
0.80996692180633545 0.51112014055252075 0.073065407574176788
0.88937509059906006 0.51153534650802612 0.12500408291816711
0.94458705186843872 0.53253620862960815 0.21345837414264679
0.97451412677764893 0.58281362056732178 0.34378278255462646
0.1896759569644928 0.48407936096191406 0.1040639653801918
0.24378171563148499 0.49727046489715576 0.10942716151475906
0.30723139643669128 0.5154646635055542 0.1119966059923172
0.37752577662467957 0.53659540414810181 0.11450318247079849
0.44963809847831726 0.55686450004577637 0.11831323802471161
0.52106916904449463 0.57299149036407471 0.12181761860847473
0.59251248836517334 0.58540409803390503 0.11911875754594803
0.66628670692443848 0.5942997932434082 0.11028292775154114
0.74607867002487183 0.60168135166168213 0.10796170681715012
0.82843238115310669 0.60661852359771729 0.12602110207080841
0.90159499645233154 0.61235326528549194 0.17690421640872955
0.9500267505645752 0.63689476251602173 0.27351045608520508
0.97487843036651611 0.68381690979003906 0.4054776132106781
0.24785946309566498 0.55732482671737671 0.12924571335315704
0.30153414607048035 0.57164782285690308 0.13480435311794281
0.35870537161827087 0.58854323625564575 0.13857480883598328
0.41955447196960449 0.60772645473480225 0.14103424549102783
0.48354676365852356 0.62756252288818359 0.14379671216011047
0.55003529787063599 0.64583534002304077 0.14654947817325592
0.61858469247817993 0.66180473566055298 0.14924970269203186
0.69047224521636963 0.67520856857299805 0.154383584856987
0.76732867956161499 0.68699580430984497 0.16349370777606964
0.84439349174499512 0.69681751728057861 0.18654158711433411
0.91169261932373047 0.70800602436065674 0.23851446807384491
0.95357495546340942 0.73274213075637817 0.3363090455532074
0.97424912452697754 0.77193814516067505 0.46095871925354004
0.29317548871040344 0.62569773197174072 0.1535293310880661
0.34649896621704102 0.6402166485786438 0.15881803631782532
0.39873966574668884 0.65579342842102051 0.16169784963130951
0.45258596539497375 0.67329257726669312 0.16306883096694946
0.51072710752487183 0.6925843358039856 0.16449035704135895
0.57342404127120972 0.71249401569366455 0.16684755682945251
0.64040553569793701 0.73150491714477539 0.17294646799564362
0.71163076162338257 0.74864214658737183 0.18444135785102844
0.78655129671096802 0.76420241594314575 0.20383892953395844
0.85967433452606201 0.77803647518157959 0.23641136288642883
0.92172789573669434 0.79255229234695435 0.29532244801521301
0.9591681957244873 0.81652611494064331 0.39588555693626404
0.97749686241149902 0.84720635414123535 0.514107346534729
0.31897887587547302 0.6863752007484436 0.17409501969814301
0.37139412760734558 0.70062035322189331 0.1786433607339859
0.42187279462814331 0.71526449918746948 0.18104398250579834
0.4732496440410614 0.73191624879837036 0.18155622482299805
0.5291563868522644 0.75166481733322144 0.1820431649684906
0.59038650989532471 0.77290827035903931 0.18452006578445435
0.65708118677139282 0.79436814785003662 0.19187548756599426
0.72858268022537231 0.81370127201080322 0.2072254866361618
0.80233371257781982 0.83047997951507568 0.23268796503543854
0.87255704402923584 0.84655284881591797 0.27412378787994385
0.92791628837585449 0.86364555358886719 0.34446278214454651
0.96045833826065063 0.88525444269180298 0.44904652237892151
0.97887349128723145 0.9065631628036499 0.5589061975479126
0.32821416854858398 0.74040275812149048 0.18999645113945007
0.3802497386932373 0.75396335124969482 0.19414184987545013
0.43155845999717712 0.76826983690261841 0.19681204855442047
0.48394501209259033 0.78488153219223022 0.19794328510761261
0.54031091928482056 0.80564975738525391 0.19801193475723267
0.60192686319351196 0.82855945825576782 0.20009496808052063
0.6684262752532959 0.85083097219467163 0.20831894874572754
0.73960864543914795 0.86961549520492554 0.22701793909072876
0.81183570623397827 0.88555383682250977 0.258210688829422
0.87784570455551147 0.89993405342102051 0.30747455358505249
0.92836004495620728 0.91360050439834595 0.38409727811813354
0.9584999680519104 0.92762589454650879 0.48406568169593811
0.97758495807647705 0.94055759906768799 0.58277016878128052
0.32964387536048889 0.79036253690719604 0.20278327167034149
0.38249510526657104 0.80414772033691406 0.20685748755931854
0.43554586172103882 0.81859844923019409 0.21004606783390045
0.48977240920066833 0.83545327186584473 0.21223317086696625
0.54786080121994019 0.85629695653915405 0.21305248141288757
0.60993075370788574 0.87934929132461548 0.2158161848783493
0.6761782169342041 0.90118569135665894 0.22545458376407623
0.74616247415542603 0.9182707667350769 0.24792167544364929
0.81581974029541016 0.93088209629058838 0.28495243191719055
0.87763482332229614 0.94091260433197021 0.34012198448181152
0.92448163032531738 0.94890516996383667 0.4169866144657135
0.9552464485168457 0.95482587814331055 0.50773638486862183
0.97727155685424805 0.96205365657806396 0.59532159566879272
0.017957635223865509 0.030412396416068077 0.072530917823314667
0.049191255122423172 0.023987848311662674 0.074404023587703705
0.10150391608476639 0.012553106993436813 0.055501900613307953
0.1648743599653244 0.0038690904621034861 0.037862397730350494
0.22964277863502502 0.00093461578944697976 0.026574872434139252
0.29408243298530579 0.0044419532641768456 0.018994947895407677
0.36318859457969666 0.0045126071199774742 0.020590106025338173
0.43632033467292786 0.0044162822887301445 0.02059091255068779
0.5139385461807251 0.0087624192237854004 0.016869878396391869
0.59792214632034302 0.013361179269850254 0.013543058186769485
0.68573510646820068 0.015099139884114265 0.01286106463521719
0.77231556177139282 0.015882305800914764 0.012688416056334972
0.8532174825668335 0.019574377685785294 0.01114253606647253
0.017536820843815804 0.083180144429206848 0.079921185970306396
0.05822589248418808 0.078340761363506317 0.069253839552402496
0.12646582722663879 0.062155988067388535 0.049568835645914078
0.19145679473876953 0.047117315232753754 0.030330732464790344
0.25245144963264465 0.030477695167064667 0.020735915750265121
0.31669917702674866 0.022000525146722794 0.02036304771900177
0.38453096151351929 0.018011953681707382 0.020476622506976128
0.45289692282676697 0.017567414790391922 0.017176743596792221
0.52501469850540161 0.018777152523398399 0.014432435855269432
0.60598695278167725 0.021841594949364662 0.011529376730322838
0.69400840997695923 0.024217957630753517 0.010634747333824635
0.78206938505172729 0.025419019162654877 0.010297573171555996
0.86708217859268188 0.031344126909971237 0.012594903819262981
0.013197236694395542 0.14246371388435364 0.076166532933712006
0.057949814945459366 0.14677071571350098 0.06154957041144371
0.13522890210151672 0.14099772274494171 0.046079657971858978
0.21391832828521729 0.13353170454502106 0.02835286408662796
0.28682637214660645 0.120736263692379 0.015252326615154743
0.35707265138626099 0.10223822295665741 0.015978345647454262
0.42461293935775757 0.089621558785438538 0.013622283935546875
0.48822635412216187 0.075975678861141205 0.012966829352080822
0.55415445566177368 0.061598416417837143 0.015758858993649483
0.62814962863922119 0.053800351917743683 0.0140178008005023
0.70748996734619141 0.043485425412654877 0.011082233861088753
0.79251652956008911 0.036776255816221237 0.0058102179318666458
0.87615644931793213 0.039049543440341949 0.0077922744676470757
0.0093299420550465584 0.20602303743362427 0.067732267081737518
0.054723896086215973 0.21276316046714783 0.052028536796569824
0.13797345757484436 0.21665249764919281 0.049778509885072708
0.23076096177101135 0.21958903968334198 0.040261019021272659
0.31865110993385315 0.22381502389907837 0.028812333941459656
0.39809459447860718 0.22011575102806091 0.02382315881550312
0.47079586982727051 0.20854271948337555 0.014865515753626823
0.54063373804092407 0.19141346216201782 0.0079773850739002228
0.61174345016479492 0.17306551337242126 0.0084676854312419891
0.68352735042572021 0.15406946837902069 0.0093917101621627808
0.75807219743728638 0.13224092125892639 0.0080043720081448555
0.83315283060073853 0.10780509561300278 0.0028193753678351641
0.89764785766601562 0.088804461061954498 0.01203734427690506
0.020264195278286934 0.27084213495254517 0.067679204046726227
0.067017480731010437 0.2772318422794342 0.062104228883981705
0.15007743239402771 0.28765448927879333 0.058795314282178879
0.24962753057479858 0.30064517259597778 0.047361530363559723
0.34463337063789368 0.31413251161575317 0.045655328780412674
0.42965146899223328 0.32127070426940918 0.051519177854061127
0.50803935527801514 0.319173663854599 0.037827495485544205
0.58632826805114746 0.31300196051597595 0.014324412681162357
0.66766154766082764 0.30545595288276672 0.0071682501584291458
0.74853742122650146 0.29183414578437805 0.016705023124814034
0.83028674125671387 0.27761515974998474 0.033618208020925522
0.89929652214050293 0.26018592715263367 0.048413310199975967
0.93981081247329712 0.24174000322818756 0.094797886908054352
0.050224244594573975 0.33615338802337646 0.083402447402477264
0.099304318428039551 0.34321707487106323 0.085727423429489136
0.18015071749687195 0.35885494947433472 0.082563124597072601
0.27709883451461792 0.37927868962287903 0.076256662607192993
0.3717801570892334 0.39820221066474915 0.07961418479681015
0.45709776878356934 0.4109613299369812 0.085921585559844971
0.53625214099884033 0.41497451066970825 0.068232879042625427
0.61651611328125 0.41493725776672363 0.035135772079229355
0.70197564363479614 0.41391295194625854 0.032151628285646439
0.78924101591110229 0.40821713209152222 0.059263162314891815
0.87242376804351807 0.40294915437698364 0.10623439401388168
0.93404078483581543 0.40999272465705872 0.1601903885602951
0.96741330623626709 0.43604212999343872 0.25392985343933105
0.095819316804409027 0.40397554636001587 0.10436750203371048
0.14934717118740082 0.41423419117927551 0.10850468277931213
0.22579489648342133 0.43306711316108704 0.11039751768112183
0.31487563252449036 0.45640289783477783 0.11191720515489578
0.40357941389083862 0.47754493355751038 0.11792140454053879
0.48569783568382263 0.49483373761177063 0.12317793816328049
0.56330353021621704 0.50446963310241699 0.11178654432296753
0.64187532663345337 0.50855922698974609 0.088306903839111328
0.72633010149002075 0.51106411218643188 0.088087894022464752
0.81418240070343018 0.51079946756362915 0.11198385059833527
0.89264130592346191 0.51251053810119629 0.16059550642967224
0.9461522102355957 0.53196924924850464 0.24351060390472412
0.97580558061599731 0.57727730274200439 0.36525258421897888
0.15251120924949646 0.47380289435386658 0.12728603184223175
0.20800408720970154 0.48670032620429993 0.13239538669586182
0.27930721640586853 0.50669664144515991 0.13758258521556854
0.35823094844818115 0.53015017509460449 0.14249570667743683
0.43784761428833008 0.55300784111022949 0.14861606061458588
0.5146605372428894 0.57266116142272949 0.15319663286209106
0.58954191207885742 0.58710360527038574 0.14987345039844513
0.66587251424789429 0.59692960977554321 0.14336453378200531
0.74703770875930786 0.60344421863555908 0.14760348200798035
0.83131688833236694 0.60826152563095093 0.16585813462734222
0.90466529130935669 0.61619818210601807 0.21136339008808136
0.95206689834594727 0.63971221446990967 0.30446690320968628
0.97659313678741455 0.68257737159729004 0.43153506517410278
0.21509765088558197 0.54600566625595093 0.15455654263496399
0.27170535922050476 0.56050169467926025 0.15967032313346863
0.3342597484588623 0.57896995544433594 0.16461353003978729
0.40069681406021118 0.59997153282165527 0.16865018010139465
0.47034159302711487 0.62221318483352661 0.172463059425354
0.54130828380584717 0.64352953433990479 0.17517712712287903
0.61335432529449463 0.66187071800231934 0.17752908170223236
0.68727415800094604 0.67724341154098511 0.18467335402965546
0.76566177606582642 0.68992054462432861 0.19913333654403687
0.84499537944793701 0.70016801357269287 0.22412845492362976
0.91308927536010742 0.71138906478881836 0.27412357926368713
0.95511877536773682 0.73397129774093628 0.36886945366859436
0.97660785913467407 0.77052724361419678 0.48919001221656799
0.27087172865867615 0.61686176061630249 0.18284958600997925
0.32682907581329346 0.63168251514434814 0.18755370378494263
0.3801044225692749 0.6469842791557312 0.1901402473449707
0.43537893891334534 0.66473722457885742 0.19154341518878937
0.49686515331268311 0.68579638004302979 0.19361427426338196
0.5630759596824646 0.70805156230926514 0.19677084684371948
0.6332661509513855 0.72950488328933716 0.20317792892456055
0.70696753263473511 0.7490534782409668 0.2166144847869873
0.78330510854721069 0.76627635955810547 0.2388252317905426
0.8586266040802002 0.78124427795410156 0.27347594499588013
0.92125189304351807 0.79614359140396118 0.333078533411026
0.95890289545059204 0.81777828931808472 0.43086367845535278
0.97787821292877197 0.84729945659637451 0.54379117488861084
0.30624264478683472 0.6802409291267395 0.20657168328762054
0.3572905957698822 0.69304603338241577 0.20957499742507935
0.40625569224357605 0.70670163631439209 0.21075299382209778
0.45752155780792236 0.72330194711685181 0.2112332284450531
0.51534175872802734 0.74401408433914185 0.21287544071674347
0.57919561862945557 0.76728373765945435 0.21705128252506256
0.64828145503997803 0.790546715259552 0.22638693451881409
0.72237992286682129 0.81167817115783691 0.24289797246456146
0.79917669296264648 0.83096182346343994 0.26790058612823486
0.87141245603561401 0.84808933734893799 0.30942735075950623
0.927387535572052 0.8651917576789856 0.37998610734939575
0.96046477556228638 0.88596290349960327 0.48170074820518494
0.97870808839797974 0.90682196617126465 0.58814388513565063
0.32097324728965759 0.73584824800491333 0.22363863885402679
0.36918610334396362 0.74737203121185303 0.2256925106048584
0.41762831807136536 0.76037538051605225 0.22679047286510468
0.46941530704498291 0.77698218822479248 0.2278943806886673
0.52701020240783691 0.79811429977416992 0.22968292236328125
0.59043556451797485 0.82204264402389526 0.23450951278209686
0.65945589542388916 0.84580224752426147 0.24549759924411774
0.73332339525222778 0.86685997247695923 0.26433384418487549
0.80956059694290161 0.88476943969726562 0.29299226403236389
0.87888187170028687 0.90002882480621338 0.34064546227455139
0.93027645349502563 0.91420203447341919 0.41806060075759888
0.96054452657699585 0.9287179708480835 0.51975995302200317
0.98005592823028564 0.9425385594367981 0.61745727062225342
0.3241240382194519 0.78649330139160156 0.23632115125656128
0.37276414036750793 0.79828715324401855 0.23850513994693756
0.42315590381622314 0.81153661012649536 0.24031455814838409
0.47686260938644409 0.82837474346160889 0.24231418967247009
0.53555339574813843 0.84928798675537109 0.24486194550991058
0.59938979148864746 0.87286347150802612 0.250449538230896
0.6680482029914856 0.89556276798248291 0.2623257040977478
0.74128615856170654 0.91461676359176636 0.28433758020401001
0.81486165523529053 0.92929524183273315 0.31771945953369141
0.88097244501113892 0.94047659635543823 0.37067779898643494
0.92944204807281494 0.94936931133270264 0.45116055011749268
0.95989370346069336 0.95662343502044678 0.54930859804153442
0.98099952936172485 0.96616798639297485 0.63836914300918579
0.027868757024407387 0.056195218116044998 0.14424622058868408
0.057786740362644196 0.058563664555549622 0.16260720789432526
0.11763852834701538 0.035582419484853745 0.14233604073524475
0.18623538315296173 0.0087507804855704308 0.11069102585315704
0.2457316666841507 0.00026442584930919111 0.089737787842750549
0.3031960129737854 0.0015351538313552737 0.073396302759647369
0.36737897992134094 0.00093545351410284638 0.067336000502109528
0.43732002377510071 0.0012430078350007534 0.060421962291002274
0.51223695278167725 0.010065340436995029 0.049252931028604507
0.59255969524383545 0.015414264053106308 0.038894936442375183
0.6780504584312439 0.014706301502883434 0.030535394325852394
0.76535719633102417 0.015032644383609295 0.023171098902821541
0.84843981266021729 0.018821567296981812 0.01691589318215847
0.02910347655415535 0.10923755168914795 0.15966764092445374
0.064518854022026062 0.10996627807617188 0.16768224537372589
0.13557454943656921 0.084705203771591187 0.15011502802371979
0.20906296372413635 0.050028137862682343 0.12016743421554565
0.26866748929023743 0.018718898296356201 0.097804278135299683
0.32647162675857544 0.0084045110270380974 0.079128637909889221
0.38866150379180908 0.0055213780142366886 0.064033284783363342
0.45323124527931213 0.0050018462352454662 0.052102375775575638
0.52222418785095215 0.014244708232581615 0.037667367607355118
0.59927046298980713 0.01933867484331131 0.0296961460262537
0.68430310487747192 0.020735632628202438 0.02429218590259552
0.77398574352264404 0.025496957823634148 0.017624799162149429
0.86170220375061035 0.030794151127338409 0.016971064731478691
0.02511494979262352 0.16579946875572205 0.16121067106723785
0.065787114202976227 0.17214038968086243 0.16235499083995819
0.14325951039791107 0.16403241455554962 0.15110653638839722
0.23056045174598694 0.1433110386133194 0.12675772607326508
0.30650800466537476 0.11882421374320984 0.10423148423433304
0.37091919779777527 0.093259818851947784 0.082974694669246674
0.43293896317481995 0.077946007251739502 0.057551395148038864
0.49165940284729004 0.057588927447795868 0.049594998359680176
0.55299168825149536 0.044217713177204132 0.041486147791147232
0.62131756544113159 0.036362875252962112 0.032984759658575058
0.69724589586257935 0.030195841565728188 0.026784799993038177
0.78315407037734985 0.030695147812366486 0.017693238332867622
0.86990529298782349 0.033104032278060913 0.015902141109108925
0.02001585066318512 0.22473578155040741 0.15715162456035614
0.063557341694831848 0.23360180854797363 0.15122145414352417
0.14528355002403259 0.23885828256607056 0.14721132814884186
0.24365465342998505 0.23795166611671448 0.13951368629932404
0.33646166324615479 0.23661153018474579 0.12940822541713715
0.4139275848865509 0.2255176305770874 0.10719939321279526
0.4836631715297699 0.20929864048957825 0.076867483556270599
0.55174356698989868 0.18810422718524933 0.054439455270767212
0.61715090274810791 0.16213473677635193 0.038278438150882721
0.67994004487991333 0.13270524144172668 0.029822316020727158
0.74631381034851074 0.10607229173183441 0.027849204838275909
0.81810027360916138 0.085592426359653473 0.024218376725912094
0.88926082849502563 0.069849707186222076 0.021006476134061813
0.022322695702314377 0.28401267528533936 0.1450355052947998
0.067045263946056366 0.29260876774787903 0.14417751133441925
