assets/lut/editingcorpw Sunset Kiss.cube
LUT_3D_SIZE 16
DOMAIN_MIN 0.0 0.0 0.0
DOMAIN_MAX 1.0 1.0 1.0
0.098039 0.082353 0.078431
0.131764 0.086275 0.086275
0.171765 0.086275 0.092549
0.218823 0.086275 0.101961
0.261177 0.083922 0.093333
0.313725 0.082353 0.090196
0.370980 0.088628 0.098824
0.429020 0.090196 0.099608
0.504313 0.087059 0.109020
0.578039 0.084706 0.115294
0.658824 0.082353 0.121569
0.730196 0.076078 0.123137
0.806274 0.077647 0.124706
0.884706 0.080784 0.127843
0.958431 0.083922 0.129412
0.996078 0.098039 0.141176
0.101176 0.118432 0.086275
0.130674 0.118977 0.087298
0.170196 0.117647 0.090196
0.214117 0.119216 0.093543
0.261961 0.118431 0.098824
0.317647 0.116078 0.098824
0.375754 0.116317 0.107451
0.434510 0.115294 0.108235
0.503738 0.117072 0.111372
0.571765 0.117647 0.116863
0.650980 0.114510 0.121569
0.733639 0.112396 0.121808
0.814902 0.112941 0.127059
0.890196 0.115189 0.125961
0.960000 0.124706 0.133333
1.000000 0.127059 0.148235
0.108235 0.157647 0.095686
0.138039 0.154510 0.092549
0.168918 0.157288 0.100034
0.220392 0.152157 0.101177
0.268026 0.154615 0.104209
0.312157 0.151373 0.101176
0.370980 0.154510 0.109804
0.433792 0.154577 0.112583
0.505098 0.155294 0.117647
0.580287 0.158222 0.122614
0.655686 0.159216 0.118431
0.734118 0.163137 0.120784
0.811899 0.160358 0.129053
0.890196 0.160784 0.136470
0.961464 0.170300 0.133804
0.996862 0.178824 0.151372
0.114509 0.201569 0.101961
0.144104 0.201359 0.103530
0.177255 0.203137 0.101961
0.221894 0.205065 0.104605
0.268235 0.205490 0.103529
0.324706 0.198432 0.120000
0.380392 0.201569 0.120994
0.440785 0.203922 0.120785
0.512941 0.208269 0.124773
0.584314 0.210196 0.122353
0.665098 0.212549 0.124706
0.738144 0.214902 0.127529
0.818039 0.217255 0.130196
0.895260 0.219608 0.132907
0.965490 0.225882 0.139608
0.996862 0.238432 0.145098
0.126275 0.247843 0.114510
0.149020 0.254117 0.116078
0.184889 0.252758 0.114301
0.232157 0.252549 0.111372
0.275294 0.255208 0.125012
0.327843 0.254902 0.125490
0.386666 0.254118 0.124706
0.450876 0.260078 0.122144
0.517647 0.259608 0.123922
0.595294 0.266188 0.133946
0.667451 0.268235 0.129412
0.747451 0.274510 0.131765
0.821856 0.278641 0.130405
0.896471 0.286274 0.136471
0.964534 0.292855 0.141005
1.000000 0.301177 0.147451
0.152941 0.305882 0.129412
0.161569 0.312157 0.123922
0.196863 0.305098 0.116862
0.237647 0.314509 0.126274
0.289411 0.313725 0.126275
0.341176 0.317647 0.129412
0.400000 0.312157 0.127059
0.454902 0.313725 0.126274
0.523921 0.323137 0.129412
0.596863 0.327059 0.135686
0.678431 0.337255 0.129412
0.753725 0.335686 0.129412
0.829020 0.341960 0.127843
0.898039 0.348236 0.137255
0.970196 0.356863 0.147451
1.000000 0.349020 0.164706
0.132549 0.373333 0.123137
0.165251 0.378891 0.127604
0.201568 0.375686 0.129412
0.245699 0.373438 0.127373
0.298039 0.375686 0.133333
0.353726 0.381176 0.131765
0.410981 0.380392 0.127059
0.474510 0.385098 0.127059
0.538823 0.390484 0.128628
0.608628 0.392157 0.128627
0.683137 0.400784 0.136470
0.757408 0.407298 0.135686
0.830588 0.411765 0.134902
0.898248 0.420079 0.141856
0.970981 0.423529 0.152157
0.995294 0.425882 0.161569
0.144314 0.449412 0.118431
0.160000 0.448628 0.121569
0.199933 0.446633 0.132123
0.255686 0.449412 0.123137
0.309020 0.447843 0.128052
0.370196 0.452549 0.132549
0.429020 0.451765 0.134118
0.489411 0.454117 0.133333
0.550588 0.456471 0.131765
0.619608 0.464314 0.132340
0.691765 0.472157 0.133333
0.767843 0.477647 0.135686
0.839642 0.481143 0.140392
0.907451 0.486274 0.149804
0.974327 0.489098 0.168104
0.988235 0.491765 0.178040
0.134902 0.527843 0.118431
0.153935 0.526588 0.126066
0.200784 0.528627 0.127059
0.249053 0.525423 0.119574
0.310588 0.527843 0.126274
0.373333 0.524706 0.120000
0.437072 0.527948 0.120209
0.501177 0.531764 0.120784
0.569187 0.537748 0.126700
0.627451 0.536471 0.127843
0.701177 0.544314 0.133333
0.770300 0.550483 0.135686
0.836863 0.552941 0.143529
0.908302 0.561277 0.152941
0.969412 0.554509 0.164706
0.994509 0.563922 0.193725
0.111372 0.604706 0.111372
0.149804 0.609412 0.112941
0.201255 0.606484 0.117647
0.257255 0.606274 0.112941
0.315294 0.608388 0.113725
0.389804 0.608627 0.120000
0.447843 0.609412 0.121569
0.507556 0.612549 0.126745
0.578824 0.614118 0.126275
0.643376 0.614596 0.130435
0.715294 0.620392 0.135686
0.781961 0.624314 0.138039
0.849621 0.626562 0.148601
0.912157 0.625882 0.158431
0.970196 0.629498 0.181415
1.000000 0.629020 0.207058
0.090196 0.694118 0.105882
0.148235 0.688628 0.116078
0.193725 0.688627 0.114509
0.250196 0.685491 0.111373
0.322353 0.688628 0.116863
0.384314 0.690196 0.117647
0.456470 0.687843 0.117647
0.524706 0.693334 0.133333
0.587451 0.693334 0.133333
0.650980 0.694118 0.137255
0.717647 0.694118 0.145098
0.784314 0.696471 0.149804
0.850980 0.701961 0.169411
0.910588 0.705098 0.185098
0.962353 0.703529 0.196078
1.000000 0.698039 0.231373
0.117647 0.759216 0.130196
0.149498 0.759694 0.129038
0.206275 0.761569 0.125490
0.261386 0.760471 0.131347
0.327059 0.758431 0.135686
0.393726 0.763922 0.140392
0.458278 0.762659 0.149565
0.525490 0.761569 0.149020
0.590274 0.762928 0.154614
0.656471 0.762353 0.165490
0.719216 0.765490 0.169412
0.782200 0.763137 0.175686
0.850196 0.767059 0.188235
0.910954 0.767739 0.207529
0.971764 0.763922 0.223529
1.000000 0.771765 0.259608
0.156079 0.828235 0.166274
0.179608 0.829804 0.167843
0.220392 0.831372 0.167193
0.273725 0.832157 0.168627
0.334902 0.831372 0.167164
0.403922 0.831372 0.178039
0.469020 0.830588 0.180392
0.530981 0.828952 0.187809
0.596079 0.832157 0.196863
0.655582 0.827556 0.201569
0.717647 0.831372 0.214902
0.781176 0.830588 0.218039
0.845983 0.834510 0.229446
0.898823 0.829020 0.243137
0.958327 0.835085 0.267451
0.996862 0.836078 0.292549
0.218824 0.890980 0.229020
0.236758 0.893647 0.226092
0.268235 0.901960 0.225098
0.310656 0.894835 0.223754
0.363137 0.894118 0.232157
0.422745 0.894118 0.237647
0.483347 0.896470 0.240680
0.539608 0.890981 0.242353
0.600000 0.894835 0.253333
0.662745 0.895686 0.264314
0.720785 0.894118 0.274510
0.782275 0.893804 0.289307
0.843138 0.894118 0.302745
0.896179 0.893759 0.306173
0.954510 0.894902 0.319216
1.000000 0.901961 0.352157
0.296471 0.949804 0.298039
0.318432 0.953725 0.305098
0.338457 0.951059 0.302640
0.367843 0.953726 0.301961
0.411219 0.952463 0.307690
0.456471 0.951373 0.306667
0.510588 0.952941 0.317647
0.561673 0.953830 0.323242
0.620392 0.949804 0.327059
0.671851 0.953486 0.342267
0.730196 0.949019 0.354510
0.785098 0.949804 0.373333
0.836497 0.950797 0.386771
0.894118 0.950588 0.400000
0.942917 0.953008 0.413811
0.987451 0.949804 0.434510
0.407843 1.000000 0.407843
0.414118 0.996863 0.399216
0.432157 0.995294 0.407843
0.457255 0.995294 0.407843
0.484706 0.998431 0.409412
0.517647 0.996078 0.411765
0.561569 0.996078 0.419608
0.613333 0.996862 0.431373
0.660392 1.000000 0.437647
0.705098 0.997647 0.443922
0.749020 1.000000 0.458824
0.799216 1.000000 0.470588
0.848627 0.999216 0.485490
0.892549 0.999216 0.507451
0.945098 1.000000 0.521568
0.988235 1.000000 0.549020
0.108235 0.086275 0.123921
0.137561 0.086036 0.119761
0.172549 0.086275 0.120784
0.213333 0.089412 0.118745
0.263529 0.095686 0.120000
0.307451 0.096471 0.124706
0.370196 0.096471 0.131525
0.432941 0.094118 0.131764
0.503529 0.089621 0.137360
0.575686 0.083922 0.138823
0.650980 0.076078 0.141177
0.726513 0.064247 0.143462
0.812549 0.059608 0.148235
0.886693 0.060288 0.151373
0.956079 0.068235 0.156078
0.996078 0.087059 0.167059
0.102439 0.113965 0.125557
0.133716 0.115370 0.118488
0.175141 0.118909 0.126274
0.217039 0.121330 0.128212
0.264859 0.119694 0.130435
0.310521 0.120000 0.131459
0.373783 0.121760 0.135830
0.436624 0.119216 0.135380
0.503945 0.118380 0.142095
0.571152 0.114271 0.142200
0.654663 0.111134 0.142984
0.730224 0.106073 0.143462
0.814663 0.103290 0.147212
0.887507 0.105622 0.150345
0.963205 0.113793 0.163683
1.000000 0.125490 0.168082
0.111372 0.160784 0.127059
0.139474 0.159522 0.126514
0.177031 0.156796 0.125423
0.219608 0.158431 0.129307
0.269700 0.155399 0.131085
0.315294 0.159216 0.132549
0.370129 0.155533 0.135380
0.436078 0.154868 0.144246
0.505778 0.155399 0.146196
0.577464 0.155190 0.145098
0.658039 0.156863 0.149804
0.736471 0.153247 0.144075
0.812840 0.156078 0.148168
0.888837 0.158222 0.156549
0.956967 0.160889 0.154510
1.000000 0.174118 0.168627
0.121464 0.200889 0.136471
0.146885 0.201745 0.135162
0.180288 0.203137 0.136575
0.224106 0.201657 0.136642
0.271268 0.201359 0.138249
0.315033 0.200000 0.141491
0.378596 0.201757 0.143395
0.440680 0.203922 0.143634
0.508298 0.207659 0.144884
0.583739 0.206954 0.145987
0.662065 0.209987 0.151634
0.736907 0.211693 0.151978
0.816575 0.211869 0.154771
0.894842 0.214920 0.153579
0.964131 0.222745 0.161464
0.999320 0.231268 0.165229
0.124706 0.250196 0.143529
0.151850 0.253334 0.138278
0.184314 0.252654 0.140758
0.226196 0.252654 0.141386
0.278977 0.254357 0.143836
0.330196 0.251765 0.143529
0.387451 0.255447 0.144247
0.450091 0.257150 0.146457
0.519111 0.261856 0.149804
0.588235 0.270043 0.150416
0.665882 0.272157 0.153725
0.741177 0.272703 0.153180
0.822432 0.274615 0.155974
0.895686 0.281569 0.159320
0.965251 0.284160 0.167193
1.000000 0.291764 0.161568
0.127843 0.308235 0.138824
0.153180 0.309804 0.141655
0.191373 0.311372 0.147451
0.238222 0.310483 0.149699
0.287843 0.309019 0.150588
0.334902 0.312157 0.144314
0.398499 0.313725 0.147757
0.461961 0.318431 0.148235
0.528052 0.321778 0.155608
0.596863 0.324706 0.155294
0.670588 0.330980 0.148235
0.752635 0.337255 0.154271
0.828235 0.346667 0.155294
0.897935 0.345098 0.163346
0.963922 0.353726 0.168627
0.998431 0.355294 0.177255
0.131525 0.374902 0.145031
0.155505 0.376116 0.148991
0.189737 0.377494 0.143529
0.240529 0.379491 0.147912
0.294596 0.378823 0.148474
0.353726 0.379608 0.155907
0.410837 0.380937 0.150301
0.473248 0.381655 0.151134
0.540204 0.385555 0.151385
0.609106 0.390827 0.153725
0.686820 0.396557 0.151851
0.758288 0.408102 0.153801
0.830349 0.412071 0.156863
0.896139 0.416438 0.162391
0.967843 0.419608 0.172004
0.999761 0.427996 0.191201
0.123921 0.450196 0.143529
0.151918 0.449957 0.146121
0.193591 0.449412 0.150297
0.246275 0.451555 0.145464
0.304889 0.451085 0.145882
0.360784 0.450196 0.147451
0.423768 0.456232 0.148168
0.487843 0.458823 0.152941
0.551372 0.457046 0.151163
0.622170 0.461281 0.152732
0.692549 0.469804 0.155294
0.769172 0.474816 0.156385
0.838140 0.481994 0.162846
0.905778 0.486170 0.165595
0.969987 0.488627 0.183529
0.997647 0.497255 0.195294
0.104627 0.525961 0.141961
0.145131 0.530583 0.149108
0.191059 0.529412 0.144993
0.252203 0.529707 0.142072
0.311843 0.530405 0.144994
0.374902 0.531294 0.147451
0.438004 0.530435 0.144553
0.499713 0.531869 0.147556
0.567124 0.532991 0.149000
0.632941 0.535896 0.145778
0.705778 0.542640 0.155974
0.774570 0.550676 0.161103
0.839320 0.552366 0.166954
0.904604 0.555844 0.174878
0.972026 0.556758 0.188026
0.999686 0.565386 0.210771
0.090196 0.604706 0.136470
0.131937 0.608560 0.139473
0.188392 0.607163 0.144000
0.243712 0.606274 0.137935
0.309804 0.606753 0.140698
0.382745 0.607059 0.141961
0.445251 0.606820 0.141722
0.511582 0.609725 0.145673
0.579712 0.614222 0.151477
0.643683 0.615447 0.153487
0.709019 0.621961 0.156863
0.776710 0.621483 0.158738
0.848732 0.627242 0.165595
0.903843 0.625673 0.179712
0.970741 0.625098 0.196317
0.995294 0.631373 0.218824
0.093333 0.683922 0.152941
0.133401 0.686036 0.139369
0.180392 0.687059 0.145882
0.246745 0.686170 0.142066
0.314510 0.686275 0.144314
0.384314 0.688628 0.146667
0.450129 0.686275 0.147451
0.519216 0.688628 0.152157
0.581072 0.690405 0.150588
0.644706 0.693334 0.157647
0.715294 0.696471 0.170196
0.782984 0.694357 0.170980
0.852549 0.698039 0.184314
0.915974 0.698039 0.199111
0.970981 0.700392 0.217255
0.990588 0.702745 0.247843
0.098450 0.760546 0.154203
0.138067 0.764343 0.156767
0.192224 0.756078 0.153419
0.253472 0.761434 0.152948
0.320000 0.758432 0.159522
0.389498 0.760000 0.165079
0.454337 0.762229 0.166035
0.521501 0.762659 0.169718
0.591802 0.759749 0.174143
0.653027 0.760784 0.181415
0.717886 0.763137 0.186838
0.783080 0.763472 0.198861
0.846820 0.766035 0.204945
0.911486 0.769643 0.223123
0.968627 0.771764 0.241808
0.995839 0.769890 0.265882
0.147451 0.828235 0.186667
0.178107 0.829871 0.183529
0.215328 0.826241 0.188728
0.270379 0.828915 0.186562
0.329516 0.826981 0.189020
0.393725 0.826667 0.189019
0.463836 0.826189 0.196930
0.526700 0.827093 0.201210
0.589124 0.826771 0.205595
0.652340 0.827451 0.214117
0.716863 0.829019 0.227451
0.777561 0.826667 0.232396
0.837714 0.825883 0.240784
0.895582 0.826092 0.253542
0.959895 0.827451 0.272837
0.998431 0.829019 0.294118
0.213542 0.893229 0.229438
0.231174 0.894503 0.238200
0.269020 0.895791 0.240575
0.313854 0.895942 0.242370
0.360471 0.892654 0.244131
0.419503 0.894798 0.249098
0.476845 0.896450 0.252603
0.538719 0.894222 0.264314
0.601464 0.893629 0.270293
0.661752 0.892235 0.275974
0.719320 0.892654 0.286379
0.779889 0.892633 0.299810
0.840000 0.892549 0.310013
0.893459 0.896729 0.324256
0.950484 0.895791 0.338928
1.000000 0.897830 0.365856
0.301961 0.950588 0.309019
0.313180 0.948474 0.304792
0.328837 0.950693 0.311006
0.360680 0.955189 0.315974
0.408389 0.949565 0.314271
0.458039 0.949020 0.317647
0.506189 0.950043 0.321023
0.563242 0.952157 0.331556
0.617255 0.952157 0.340497
0.671851 0.950349 0.348168
0.729412 0.951373 0.360000
0.784553 0.951134 0.375686
0.838327 0.948444 0.391268
0.893229 0.945778 0.403817
0.948780 0.946121 0.426734
0.996863 0.950588 0.442353
0.400784 0.997647 0.407059
0.413333 1.000000 0.400000
0.421177 1.000000 0.403922
0.449412 0.997751 0.408627
0.484706 0.996863 0.407843
0.518432 0.997647 0.415687
0.557647 0.997886 0.417255
0.607059 0.998431 0.424314
0.654118 0.999320 0.435974
0.699608 1.000000 0.444706
0.748235 1.000000 0.461176
0.795840 0.997886 0.469019
0.843137 0.996862 0.481569
0.895582 1.000000 0.503738
0.941176 1.000000 0.523137
0.984314 0.998431 0.549020
0.127843 0.079215 0.161569
0.149804 0.084706 0.160000
0.178891 0.082353 0.157647
0.215686 0.091765 0.157647
0.259922 0.098928 0.160680
0.311373 0.098823 0.167059
0.369412 0.098039 0.167059
0.428235 0.096403 0.164280
0.501176 0.084706 0.170980
0.576366 0.073830 0.175006
0.651764 0.057255 0.177255
0.731765 0.042353 0.184314
0.814118 0.025815 0.178039
0.890980 0.025883 0.179608
0.965490 0.030797 0.188235
1.000000 0.052549 0.195294
0.117647 0.114510 0.157647
0.154338 0.113726 0.164773
0.178891 0.119642 0.161994
0.214693 0.122562 0.162928
0.258824 0.124706 0.163137
0.313725 0.125490 0.167059
0.369957 0.124399 0.167843
0.434442 0.118006 0.169770
0.502954 0.112837 0.173908
0.572445 0.108235 0.176471
0.651765 0.100392 0.176471
0.733094 0.088866 0.177188
0.817614 0.085490 0.185950
0.889830 0.080784 0.184994
0.964183 0.087739 0.189020
0.999216 0.100392 0.200000
0.122286 0.153793 0.163070
0.143104 0.155227 0.165916
0.180962 0.157647 0.166628
0.215327 0.157580 0.166275
0.260559 0.158285 0.166997
0.312090 0.158790 0.170263
0.373333 0.154936 0.173624
0.437221 0.154084 0.177972
0.508235 0.151373 0.176470
0.581344 0.151990 0.181177
0.656829 0.146241 0.178398
0.739025 0.143955 0.180885
0.819456 0.143883 0.182463
0.893199 0.141311 0.183395
0.963604 0.151247 0.189212
0.996437 0.155227 0.202846
0.127059 0.199216 0.169412
0.151582 0.202353 0.174117
0.178465 0.201143 0.171765
0.225524 0.199216 0.170980
0.267660 0.201569 0.168732
0.321569 0.204706 0.174117
0.381072 0.203033 0.174118
0.444773 0.204706 0.175686
0.512157 0.202353 0.177681
0.588131 0.202353 0.180863
0.662745 0.203922 0.178824
0.739503 0.204497 0.181177
0.814835 0.204347 0.185098
0.895328 0.205064 0.188235
0.966484 0.214013 0.192262
0.996078 0.221177 0.194510
0.135581 0.249412 0.181072
0.148445 0.250405 0.169307
0.185543 0.252273 0.177061
0.228235 0.249307 0.169516
0.276348 0.252835 0.172758
0.330301 0.250301 0.176575
0.388811 0.253752 0.175006
0.451518 0.257464 0.180137
0.515869 0.259712 0.179713
0.588779 0.263291 0.184692
0.665098 0.264889 0.182641
0.743738 0.268915 0.185307
0.822345 0.269524 0.185561
0.895007 0.274405 0.187346
0.968103 0.279803 0.190171
0.991372 0.292549 0.193464
0.123922 0.306666 0.183529
0.146667 0.310588 0.172549
0.181535 0.310230 0.178824
0.230589 0.307451 0.177255
0.284497 0.308915 0.178144
0.334902 0.310588 0.174902
0.395294 0.312941 0.179608
0.459182 0.318073 0.179182
0.528627 0.317647 0.185098
0.601464 0.323033 0.188915
0.674510 0.328628 0.184314
0.750588 0.330980 0.185098
0.828661 0.337613 0.190656
0.898039 0.344314 0.188235
0.969673 0.352157 0.199006
1.000000 0.357647 0.207843
0.111373 0.374902 0.179608
0.142200 0.375925 0.178756
0.186241 0.372907 0.179540
0.235503 0.376470 0.180183
0.291764 0.380392 0.178824
0.349804 0.379608 0.178823
0.410981 0.382267 0.180938
0.473300 0.384314 0.181535
0.544000 0.388235 0.183425
0.615791 0.392157 0.186092
0.687843 0.392941 0.186667
0.761568 0.400000 0.189737
0.833008 0.404280 0.192941
0.898928 0.412444 0.194719
0.967948 0.418144 0.202458
0.998431 0.425098 0.214902
0.092348 0.446991 0.173624
0.136179 0.449053 0.178398
0.179752 0.449125 0.174046
0.232292 0.454409 0.172616
0.296432 0.452742 0.180521
0.358364 0.450196 0.180751
0.424246 0.451406 0.181109
0.487986 0.453620 0.178900
0.554084 0.458106 0.179473
0.623316 0.460348 0.182578
0.696112 0.467810 0.189378
0.765916 0.474151 0.194218
0.839785 0.479861 0.197934
0.905882 0.481076 0.201143
0.971306 0.486375 0.211874
0.997221 0.493827 0.226958
0.072941 0.528627 0.177255
0.117961 0.529987 0.175791
0.171204 0.529120 0.173467
0.234442 0.528202 0.170980
0.298824 0.530301 0.177359
0.370980 0.533333 0.178824
0.437961 0.529516 0.178823
0.502454 0.532549 0.179675
0.563563 0.536538 0.185524
0.632836 0.539399 0.184209
0.705098 0.541961 0.186667
0.774118 0.545882 0.192732
0.843137 0.551305 0.194868
0.907383 0.554084 0.211899
0.972758 0.556653 0.225883
1.000000 0.560000 0.239216
0.052340 0.606379 0.174798
0.100758 0.608523 0.171660
0.165982 0.606950 0.170215
0.230798 0.608837 0.176261
0.304033 0.608061 0.178950
0.371974 0.607738 0.175111
0.439425 0.609412 0.180968
0.506668 0.614755 0.180947
0.575477 0.613438 0.180392
0.642982 0.615224 0.181808
0.707241 0.617150 0.183634
0.776471 0.620497 0.189333
0.842186 0.623362 0.193785
0.904209 0.621961 0.214902
0.967322 0.621100 0.231846
0.998641 0.628340 0.252706
0.040784 0.690196 0.174117
0.095686 0.687843 0.177255
0.164975 0.683787 0.175910
0.236862 0.687059 0.178824
0.307346 0.687164 0.185673
0.374902 0.687059 0.181961
0.448627 0.688628 0.185882
0.518364 0.687418 0.187316
0.583529 0.690196 0.192157
0.650196 0.694118 0.198222
0.714509 0.694118 0.198431
0.782745 0.696471 0.198431
0.844280 0.697613 0.211339
0.910588 0.698039 0.229019
0.968732 0.697830 0.249882
0.998431 0.695687 0.272941
0.070589 0.764706 0.190588
0.121330 0.763922 0.197236
0.177681 0.756997 0.187675
0.243242 0.757909 0.190693
0.309124 0.759895 0.192261
0.381961 0.760784 0.196863
0.453333 0.761330 0.201024
0.520000 0.761927 0.203563
0.584993 0.763033 0.207059
0.650091 0.763817 0.209987
0.717647 0.763137 0.218039
0.780392 0.766274 0.231066
0.840785 0.765064 0.236863
0.902954 0.765699 0.244915
0.966170 0.763712 0.263111
0.995294 0.765490 0.280000
0.122711 0.823037 0.221961
0.161434 0.828661 0.213625
0.206131 0.831368 0.221665
0.260325 0.825389 0.215194
0.325444 0.823358 0.216324
0.387810 0.823462 0.218331
0.461535 0.822678 0.226532
0.525638 0.823252 0.230664
0.591372 0.825456 0.237154
0.652524 0.826220 0.243054
0.713725 0.823104 0.251698
0.772840 0.825882 0.259966
0.834088 0.825385 0.264878
0.894835 0.828168 0.272448
0.960489 0.827898 0.292963
0.996504 0.832874 0.317221
0.210196 0.892549 0.267451
0.232837 0.895007 0.273098
0.267877 0.894118 0.265524
0.308661 0.894118 0.261109
0.358327 0.894222 0.264052
0.414902 0.890196 0.271372
0.476392 0.890771 0.276288
0.540751 0.891406 0.289053
0.602779 0.892123 0.292908
0.662536 0.892758 0.299712
0.720784 0.894118 0.310588
0.779242 0.894013 0.320680
0.840785 0.893334 0.333401
0.893266 0.894476 0.344672
0.951268 0.894327 0.355869
0.998431 0.901961 0.375687
0.295163 0.951582 0.329098
0.315556 0.951268 0.328418
0.329121 0.950139 0.331766
0.364758 0.948131 0.328418
0.405708 0.945811 0.332474
0.452340 0.949124 0.330196
0.499399 0.948235 0.336680
0.559190 0.950037 0.343825
0.620183 0.948235 0.352262
0.673147 0.950328 0.367265
0.733229 0.947555 0.380183
0.784209 0.945882 0.394510
0.839512 0.950167 0.408247
0.891765 0.949229 0.417882
0.945568 0.946956 0.433609
0.992994 0.953934 0.456627
0.396863 0.996862 0.407843
0.410981 1.000000 0.415686
0.421109 1.000000 0.418039
0.445490 0.996862 0.411765
0.473516 0.997751 0.411190
0.506667 1.000000 0.426667
0.552941 1.000000 0.433726
0.603563 0.996862 0.435361
0.646274 1.000000 0.441569
0.697569 1.000000 0.450301
0.750589 1.000000 0.465883
0.795294 0.999216 0.483137
0.848336 0.999641 0.490129
0.891765 1.000000 0.507451
0.947922 0.998431 0.524706
0.984314 0.996862 0.549804
0.146667 0.082353 0.208627
0.169307 0.077961 0.204602
0.192941 0.077647 0.203137
0.226308 0.088986 0.202286
0.274510 0.093333 0.207059
0.314509 0.101961 0.207843
0.373229 0.095791 0.208523
0.432157 0.096470 0.212549
0.504246 0.083496 0.220751
0.580392 0.061961 0.221176
0.658040 0.019608 0.224314
0.734902 0.006065 0.218823
0.814118 0.001569 0.225098
0.895686 0.000359 0.228594
0.970196 0.000784 0.230588
0.996862 0.005490 0.239215
0.153987 0.109595 0.204497
0.167878 0.113661 0.204138
0.203399 0.116445 0.206954
0.233004 0.116863 0.207316
0.267556 0.121359 0.207739
0.314405 0.124811 0.204915
0.372521 0.126975 0.216672
0.441150 0.120784 0.221856
0.507896 0.108001 0.219694
0.580497 0.096366 0.222641
0.653542 0.067451 0.218144
0.737782 0.041330 0.219838
0.819712 0.027660 0.223634
0.896278 0.026005 0.228485
0.966850 0.036601 0.235660
0.991581 0.066823 0.246640
0.141176 0.140392 0.211764
0.161359 0.145882 0.208627
0.192650 0.154151 0.206633
0.230588 0.154443 0.210555
0.268915 0.155190 0.210196
0.315294 0.158431 0.214902
0.373333 0.153830 0.218823
0.443630 0.152874 0.220683
0.510947 0.142678 0.219966
0.582745 0.136366 0.223739
0.658824 0.123922 0.219608
0.743320 0.117647 0.220287
0.819250 0.112090 0.222678
0.898331 0.111440 0.227384
0.965386 0.114928 0.233726
0.992157 0.137255 0.233725
0.142095 0.191798 0.214700
0.151727 0.193939 0.209999
0.193076 0.191731 0.212482
0.225188 0.197284 0.214261
0.267317 0.200784 0.217255
0.318364 0.199216 0.214902
0.382177 0.197389 0.214965
0.444773 0.196728 0.215260
0.515581 0.197432 0.218039
0.589804 0.190588 0.220392
0.670095 0.190162 0.224740
0.743992 0.186604 0.228277
0.819608 0.189512 0.226667
0.898317 0.191014 0.229020
0.969546 0.199642 0.236863
0.998857 0.207484 0.245692
0.133333 0.252549 0.222745
0.152471 0.247529 0.226249
0.186458 0.253438 0.225360
0.223462 0.253759 0.217457
0.278738 0.252071 0.216470
0.332549 0.250980 0.219608
0.387921 0.253333 0.219608
0.453229 0.252758 0.222954
0.517647 0.255686 0.225815
0.594510 0.256538 0.229154
0.666667 0.255686 0.227451
0.744418 0.259033 0.233046
0.823111 0.258144 0.231843
0.899675 0.265165 0.232359
0.971287 0.266600 0.237169
0.997647 0.278431 0.240784
0.130196 0.303530 0.227451
0.157909 0.303163 0.226353
0.176470 0.313725 0.223530
0.216762 0.312649 0.216829
0.276863 0.312941 0.218039
0.331765 0.310588 0.218823
0.400680 0.313830 0.219503
0.462745 0.315294 0.221961
0.528560 0.318073 0.222745
0.600784 0.319216 0.229020
0.674510 0.322353 0.228235
0.754406 0.327634 0.227451
0.828235 0.335686 0.232941
0.898039 0.335552 0.232874
0.967843 0.344314 0.235294
1.000000 0.351372 0.254902
0.116078 0.378719 0.227347
0.132515 0.374869 0.223918
0.164549 0.377464 0.220601
0.218882 0.378377 0.220521
0.283712 0.379242 0.223216
0.348497 0.378039 0.223216
0.410915 0.378605 0.226105
0.474824 0.384105 0.228340
0.538740 0.386008 0.225312
0.609726 0.387451 0.230693
0.689883 0.396078 0.230797
0.762195 0.398872 0.235995
0.832052 0.402353 0.237072
0.906102 0.405702 0.238110
0.970666 0.410092 0.244810
1.000000 0.418405 0.255686
0.044706 0.443922 0.223530
0.086536 0.451869 0.217569
0.149736 0.452123 0.222745
0.219249 0.450129 0.220033
0.289516 0.454013 0.224418
0.353725 0.452549 0.223530
