assets/lut/editingcorp onda.cube
# Created by: G'MIC (https://gmic.eu)
TITLE "onda"
# LUT size
LUT_3D_SIZE 13
# Data domain
DOMAIN_MIN 0.0 0.0 0.0
DOMAIN_MAX 1.0 1.0 1.0
# LUT data points
0.0045261755585670471 0.010839768685400486 0.011121892370283604
0.047508165240287781 0.0084079522639513016 0.018352912738919258
0.175765261054039 0.0063716662116348743 0.019276352599263191
0.33856621384620667 0.021583901718258858 0.02220650389790535
0.49893283843994141 0.051936924457550049 0.035774711519479752
0.64810836315155029 0.073594965040683746 0.046584349125623703
0.78151226043701172 0.094027303159236908 0.062311314046382904
0.88468444347381592 0.1108846589922905 0.06995093822479248
0.92798149585723877 0.11973272264003754 0.069363959133625031
0.92991149425506592 0.12011560052633286 0.067303918302059174
0.92329108715057373 0.10320556908845901 0.060912922024726868
0.92864370346069336 0.076190367341041565 0.04898408055305481
0.95343106985092163 0.1037091538310051 0.065869152545928955
0.0012339124223217368 0.056247562170028687 0.030255978927016258
0.043762296438217163 0.047665227204561234 0.029587047174572945
0.15425306558609009 0.044509168714284897 0.0295854602009058
0.30764216184616089 0.052150711417198181 0.036071132868528366
0.473003089427948 0.074128590524196625 0.04680156335234642
0.6245495080947876 0.09778372198343277 0.061723567545413971
0.75808197259902954 0.12293285131454468 0.078562729060649872
0.86362177133560181 0.13930289447307587 0.084619484841823578
0.91608303785324097 0.14138275384902954 0.082402504980564117
0.92480927705764771 0.13379819691181183 0.078792929649353027
0.92173010110855103 0.1255645751953125 0.077676288783550262
0.92812502384185791 0.11948788166046143 0.076920844614505768
0.95126909017562866 0.14200408756732941 0.088258855044841766
0.014310604892671108 0.1246006116271019 0.04465382918715477
0.03766162320971489 0.11907866597175598 0.041612017899751663
0.11767901480197906 0.11676637083292007 0.037928264588117599
0.26211076974868774 0.11539915204048157 0.037243187427520752
0.43617543578147888 0.12199495732784271 0.041452251374721527
0.59856963157653809 0.13440899550914764 0.053526651114225388
0.73868125677108765 0.15123990178108215 0.06905529648065567
0.8508341908454895 0.16219888627529144 0.079553104937076569
0.91215169429779053 0.15614527463912964 0.080456510186195374
0.92446208000183105 0.14106196165084839 0.077591210603713989
0.92335385084152222 0.13850526511669159 0.080506421625614166
0.92940264940261841 0.14142245054244995 0.085114814341068268
0.9524306058883667 0.16278780996799469 0.09328942745923996
0.038110382854938507 0.20190185308456421 0.065840087831020355
0.045422334223985672 0.19650113582611084 0.063173554837703705
0.095089897513389587 0.19376970827579498 0.058762028813362122
0.21528445184230804 0.19357247650623322 0.053058907389640808
0.38908582925796509 0.20040765404701233 0.048577837646007538
0.56511878967285156 0.20841561257839203 0.051289770752191544
0.7192266583442688 0.2132222056388855 0.061469569802284241
0.84444653987884521 0.21351763606071472 0.073649480938911438
0.91773635149002075 0.20608839392662048 0.08065631240606308
0.93413889408111572 0.19395002722740173 0.083626493811607361
0.93364113569259644 0.18938171863555908 0.085329569876194
0.93987089395523071 0.19131383299827576 0.088575936853885651
0.96075856685638428 0.20657163858413696 0.094876021146774292
0.06771436333656311 0.28865775465965271 0.095149002969264984
0.065432436764240265 0.28255939483642578 0.09263814240694046
0.092820845544338226 0.27789640426635742 0.089572116732597351
0.17895273864269257 0.27620184421539307 0.084334626793861389
0.33246698975563049 0.28399872779846191 0.07492268830537796
0.51719671487808228 0.29641520977020264 0.064493857324123383
0.6910703182220459 0.3020109236240387 0.060009840875864029
0.82881325483322144 0.29314249753952026 0.070331946015357971
0.91785484552383423 0.28266739845275879 0.078120529651641846
0.94978713989257812 0.27251988649368286 0.079997435212135315
0.95089703798294067 0.26676619052886963 0.082324907183647156
0.95447224378585815 0.26644593477249146 0.087223589420318604
0.97216260433197021 0.27555450797080994 0.094502605497837067
0.10078690201044083 0.38499653339385986 0.13175448775291443
0.096351698040962219 0.37862288951873779 0.12992292642593384
0.11099272966384888 0.37255764007568359 0.12793484330177307
0.16668333113193512 0.36719489097595215 0.12348471581935883
0.28196471929550171 0.36697125434875488 0.11550652235746384
0.45632874965667725 0.38184395432472229 0.099571511149406433
0.65186816453933716 0.40545344352722168 0.068424195051193237
0.80344212055206299 0.39827951788902283 0.063782982528209686
0.91196519136428833 0.37843719124794006 0.065795257687568665
0.96593940258026123 0.36151906847953796 0.064155906438827515
0.96947193145751953 0.35355859994888306 0.066618792712688446
0.96877175569534302 0.35216414928436279 0.075393959879875183
0.98223876953125 0.35796394944190979 0.085821069777011871
0.1449832022190094 0.48822596669197083 0.17890734970569611
0.14055970311164856 0.48217085003852844 0.17791262269020081
0.14738728106021881 0.475119948387146 0.17583820223808289
0.17994865775108337 0.46636569499969482 0.17011840641498566
0.25749516487121582 0.45900055766105652 0.16129383444786072
0.40193521976470947 0.46765968203544617 0.15453024208545685
0.591968834400177 0.49688193202018738 0.12062069773674011
0.76429629325866699 0.51140367984771729 0.061799068003892899
0.90035271644592285 0.49205416440963745 0.033002637326717377
0.97740715742111206 0.4636656641960144 0.039209268987178802
0.9883996844291687 0.45322009921073914 0.042105101048946381
0.98245221376419067 0.44936418533325195 0.052820857614278793
0.99092322587966919 0.45089787244796753 0.066695958375930786
0.20907530188560486 0.59640365839004517 0.24014540016651154
0.20464389026165009 0.59050124883651733 0.23949934542179108
0.20488198101520538 0.58162146806716919 0.2362656444311142
0.22073709964752197 0.57025927305221558 0.22815148532390594
0.27258285880088806 0.56233429908752441 0.2187408059835434
0.37819340825080872 0.56295269727706909 0.21846629679203033
0.53062164783477783 0.57405680418014526 0.21688982844352722
0.70432889461517334 0.59983992576599121 0.14284159243106842
0.86378711462020874 0.60835045576095581 0.038888115435838699
0.96922320127487183 0.58383786678314209 0.012774628587067127
0.99880063533782959 0.57066696882247925 0.0062485188245773315
0.99566501379013062 0.5619271993637085 0.013482201844453812
0.99799585342407227 0.55790477991104126 0.030202602967619896
0.2945551872253418 0.70461815595626831 0.31380495429039001
0.28807127475738525 0.69773942232131958 0.31101101636886597
0.28380569815635681 0.68817412853240967 0.30630117654800415
0.28931251168251038 0.67731696367263794 0.29837480187416077
0.32009637355804443 0.66982549428939819 0.28898587822914124
0.39237517118453979 0.66646271944046021 0.28404441475868225
0.51126301288604736 0.66686689853668213 0.29680910706520081
0.65744173526763916 0.67661476135253906 0.29135993123054504
0.80709606409072876 0.69721829891204834 0.1855781078338623
0.9383234977722168 0.70058697462081909 0.059310764074325562
0.99790894985198975 0.6958237886428833 0.00094104843446984887
1 0.68575775623321533 0
1 0.67729699611663818 0.0035483865067362785
0.37602090835571289 0.79338061809539795 0.37956967949867249
0.36856576800346375 0.78544056415557861 0.37456277012825012
0.36418050527572632 0.77968788146972656 0.37076073884963989
0.36763167381286621 0.7753828763961792 0.36692434549331665
0.38147738575935364 0.76701056957244873 0.35936298966407776
0.42598265409469604 0.75959759950637817 0.3530278205871582
0.51971817016601562 0.75837713479995728 0.35810598731040955
0.64264994859695435 0.76313662528991699 0.37801137566566467
0.76358038187026978 0.77105653285980225 0.36723789572715759
0.89003914594650269 0.78582209348678589 0.24155761301517487
0.97143286466598511 0.79632312059402466 0.087858162820339203
0.98860013484954834 0.7956882119178772 0.033210873603820801
0.99662172794342041 0.78457182645797729 0.053184047341346741
0.42008763551712036 0.83990556001663208 0.41458377242088318
0.41586148738861084 0.83310222625732422 0.40981176495552063
0.41499614715576172 0.83188468217849731 0.40877839922904968
0.41951784491539001 0.83499151468276978 0.41063821315765381
0.42600259184837341 0.82912749052047729 0.40739116072654724
0.4554559588432312 0.82123470306396484 0.4014008641242981
0.52832269668579102 0.82132625579833984 0.40184709429740906
0.6349141001701355 0.83095568418502808 0.42385536432266235
0.74312800168991089 0.83591556549072266 0.46498677134513855
0.8437657356262207 0.84021502733230591 0.45227932929992676
0.91104584932327271 0.84915697574615479 0.38021305203437805
0.93082964420318604 0.85355198383331299 0.3381575345993042
0.95593756437301636 0.84433120489120483 0.34587970376014709
0.42690682411193848 0.85055798292160034 0.42169433832168579
0.42484360933303833 0.84356242418289185 0.41647064685821533
0.42463678121566772 0.84340834617614746 0.41656157374382019
0.42842516303062439 0.8495023250579834 0.42194285988807678
0.43490222096443176 0.84970790147781372 0.42309260368347168
0.45902404189109802 0.84730583429336548 0.42099213600158691
0.51863580942153931 0.84861272573471069 0.42390722036361694
0.61662185192108154 0.86015194654464722 0.44498774409294128
0.72732985019683838 0.86807054281234741 0.48691770434379578
0.82546490430831909 0.86927694082260132 0.5218474268913269
0.88189184665679932 0.870247483253479 0.55632394552230835
0.89614492654800415 0.87056106328964233 0.58226221799850464
0.92252433300018311 0.86524122953414917 0.59151005744934082
0.4178318977355957 0.85064935684204102 0.41852250695228577
0.41603356599807739 0.84372848272323608 0.41319271922111511
0.41522997617721558 0.84281283617019653 0.41291144490242004
0.41751021146774292 0.84762793779373169 0.41718912124633789
0.42473319172859192 0.85160517692565918 0.4200235903263092
0.44697248935699463 0.85555309057235718 0.42065644264221191
0.4999924898147583 0.85995680093765259 0.42614597082138062
0.59399658441543579 0.86990898847579956 0.44638365507125854
0.70700305700302124 0.87933099269866943 0.47712579369544983
0.80850064754486084 0.88325983285903931 0.50873947143554688
0.8709750771522522 0.88467133045196533 0.54947000741958618
0.89589613676071167 0.88600707054138184 0.5816153883934021
0.9229239821434021 0.88520824909210205 0.60337167978286743
0.0014376920880749822 0.0094599109143018723 0.032854672521352768
0.025673136115074158 0.0051406561397016048 0.031285528093576431
0.15432362258434296 0.0048791775479912758 0.036210078746080399
0.32383057475090027 0.014890423975884914 0.034098919481039047
0.48978742957115173 0.032650936394929886 0.038581907749176025
0.64243859052658081 0.03791872039437294 0.035028211772441864
0.78009706735610962 0.047085195779800415 0.04832027480006218
0.88613200187683105 0.061773039400577545 0.050596095621585846
0.9277154803276062 0.084401100873947144 0.054372362792491913
0.92936229705810547 0.08385244756937027 0.040795747190713882
0.92381614446640015 0.071552067995071411 0.035089291632175446
0.92828118801116943 0.053564406931400299 0.03855254128575325
0.95117413997650146 0.066034995019435883 0.046761635690927505
0.0061099482700228691 0.058044120669364929 0.064345747232437134
0.040333721786737442 0.050874777138233185 0.060123428702354431
0.1465071439743042 0.048686638474464417 0.062163125723600388
0.29963216185569763 0.055388893932104111 0.066214784979820251
0.46747311949729919 0.07486521452665329 0.067977949976921082
0.62052923440933228 0.088846467435359955 0.072164677083492279
0.75536888837814331 0.10173051059246063 0.079862572252750397
0.86330199241638184 0.12058780342340469 0.08388984203338623
0.91514837741851807 0.13393671810626984 0.084056675434112549
0.92311948537826538 0.1281367689371109 0.075401350855827332
0.92062890529632568 0.12419994920492172 0.079299032688140869
0.92734956741333008 0.11928337067365646 0.08510608971118927
0.95088499784469604 0.12717485427856445 0.087107762694358826
0.019069463014602661 0.12453843653202057 0.069006867706775665
0.034859001636505127 0.1200389638543129 0.064344994723796844
0.11382823437452316 0.11710955947637558 0.059843055903911591
0.26190251111984253 0.1160600408911705 0.055258207023143768
0.44016152620315552 0.12625718116760254 0.055286407470703125
0.59958088397979736 0.13486529886722565 0.065762676298618317
0.73608708381652832 0.14241284132003784 0.07667522132396698
0.84917712211608887 0.15467981994152069 0.083925925195217133
0.91135138273239136 0.15564528107643127 0.083379827439785004
0.92275011539459229 0.14404082298278809 0.079216994345188141
0.92079013586044312 0.13701678812503815 0.079306900501251221
0.92850559949874878 0.13172322511672974 0.080866903066635132
0.95326167345046997 0.14083251357078552 0.083975128829479218
0.036129970103502274 0.19845160841941833 0.076854020357131958
0.041153118014335632 0.19352461397647858 0.074635960161685944
0.091757528483867645 0.19144335389137268 0.069379799067974091
0.2163756787776947 0.19373777508735657 0.060373298823833466
0.40004929900169373 0.20709197223186493 0.053394228219985962
0.57385063171386719 0.21268144249916077 0.057947121560573578
0.71848082542419434 0.20939722657203674 0.068491064012050629
0.84092855453491211 0.20836442708969116 0.075793199241161346
0.91529673337936401 0.20490209758281708 0.079072602093219757
0.93020761013031006 0.19552779197692871 0.083723105490207672
0.92930823564529419 0.18668682873249054 0.083652675151824951
0.93725502490997314 0.18000704050064087 0.08177483081817627
0.96119415760040283 0.18516121804714203 0.08338310569524765
0.062634125351905823 0.28436648845672607 0.096476085484027863
0.06103203073143959 0.27884623408317566 0.095080338418483734
0.086571097373962402 0.27441543340682983 0.09204024076461792
0.17158070206642151 0.27470490336418152 0.085273995995521545
0.33750689029693604 0.28960493206977844 0.074165612459182739
0.53014826774597168 0.30439954996109009 0.063736617565155029
0.69390630722045898 0.30224841833114624 0.063091263175010681
0.82520502805709839 0.29055136442184448 0.071552366018295288
0.91487926244735718 0.28158921003341675 0.07526417076587677
0.94566667079925537 0.27217993140220642 0.07911267876625061
0.94530093669891357 0.264802485704422 0.082278430461883545
0.95113188028335571 0.25914058089256287 0.083911389112472534
0.97227495908737183 0.26061180233955383 0.086443088948726654
0.098927579820156097 0.38097324967384338 0.13101112842559814
0.095585845410823822 0.37527573108673096 0.12809708714485168
0.10722002387046814 0.36971914768218994 0.12575794756412506
0.15883977711200714 0.36490225791931152 0.12096581608057022
0.28049090504646301 0.3677012026309967 0.11340507119894028
0.46300283074378967 0.38453271985054016 0.098670557141304016
0.65180331468582153 0.40141171216964722 0.074421107769012451
0.80084824562072754 0.39504906535148621 0.065427325665950775
0.90938901901245117 0.37689197063446045 0.067084260284900665
0.96128088235855103 0.35998815298080444 0.068393349647521973
0.96406668424606323 0.35037729144096375 0.070563971996307373
0.96483767032623291 0.34571999311447144 0.07523779571056366
0.98254483938217163 0.34692096710205078 0.079795688390731812
0.14612981677055359 0.48467665910720825 0.17824922502040863
0.14041830599308014 0.47874420881271362 0.1748700886964798
0.1437477171421051 0.47229442000389099 0.17144583165645599
0.17210762202739716 0.46413382887840271 0.16667239367961884
0.25100260972976685 0.45582753419876099 0.16217179596424103
0.39931541681289673 0.46302062273025513 0.15964964032173157
0.58865511417388916 0.49040132761001587 0.12515680491924286
0.76451355218887329 0.50996583700180054 0.05650755763053894
0.89644026756286621 0.49135276675224304 0.036508254706859589
0.970958411693573 0.4617907702922821 0.049592066556215286
0.98015207052230835 0.44947737455368042 0.054883155971765518
0.97732275724411011 0.44394165277481079 0.058965135365724564
0.99221205711364746 0.44272646307945251 0.060942839831113815
0.21084177494049072 0.593403160572052 0.23976093530654907
0.20302969217300415 0.5869787335395813 0.23602396249771118
0.20071224868297577 0.57903593778610229 0.23186220228672028
0.21282611787319183 0.56840640306472778 0.22394198179244995
0.26321667432785034 0.55954587459564209 0.21637366712093353
0.37119248509407043 0.55963325500488281 0.21793252229690552
0.527915358543396 0.57224446535110474 0.21710526943206787
0.70559966564178467 0.59915763139724731 0.14094138145446777
0.86204284429550171 0.60838174819946289 0.041548531502485275
0.96348786354064941 0.58231872320175171 0.023540481925010681
0.99120038747787476 0.56433802843093872 0.026265867054462433
0.98956131935119629 0.55601084232330322 0.027980819344520569
0.99842560291290283 0.55263161659240723 0.022707920521497726
0.29449611902236938 0.7014651894569397 0.31167212128639221
0.28747498989105225 0.69534897804260254 0.30840319395065308
0.28187650442123413 0.68753105401992798 0.30439674854278564
0.28302136063575745 0.67740374803543091 0.29565879702568054
0.30994090437889099 0.6699097752571106 0.2840074896812439
0.38203898072242737 0.66708534955978394 0.27677050232887268
0.5046268105506897 0.66716450452804565 0.29179155826568604
0.65516090393066406 0.67391908168792725 0.29493173956871033
0.80540084838867188 0.69318509101867676 0.1975700855255127
0.93483394384384155 0.69617670774459839 0.074285678565502167
0.99327623844146729 0.6869276762008667 0.0089296679943799973
0.99819362163543701 0.67712140083312988 0.0022731856442987919
1 0.67250287532806396 0.00012854782107751817
0.373798668384552 0.78949838876724243 0.3757118284702301
0.37006703019142151 0.78508466482162476 0.37422990798950195
0.36690866947174072 0.78123128414154053 0.37297025322914124
0.36423501372337341 0.77560007572174072 0.36802145838737488
0.37314513325691223 0.76804584264755249 0.35801804065704346
0.41536137461662292 0.76199811697006226 0.34846460819244385
0.5098760724067688 0.76041048765182495 0.35216858983039856
0.6357346773147583 0.7628178596496582 0.38025513291358948
0.76159167289733887 0.77079075574874878 0.36771652102470398
0.88944953680038452 0.78444981575012207 0.24198871850967407
0.96815496683120728 0.79280102252960205 0.097358688712120056
0.98732656240463257 0.79079657793045044 0.038242340087890625
0.99733483791351318 0.78135925531387329 0.049887251108884811
0.41829410195350647 0.83621460199356079 0.41207143664360046
0.41843113303184509 0.83410310745239258 0.41171175241470337
0.41917964816093445 0.8343578577041626 0.41348320245742798
0.4179566502571106 0.83466529846191406 0.4141286313533783
0.42193359136581421 0.8297194242477417 0.41018712520599365
0.4497736394405365 0.82395815849304199 0.40310549736022949
0.52132076025009155 0.82249200344085693 0.40238335728645325
0.62878978252410889 0.82870137691497803 0.42784729599952698
0.74188679456710815 0.83450484275817871 0.46204695105552673
0.8453909158706665 0.84065556526184082 0.44623041152954102
0.91129565238952637 0.84967446327209473 0.38732808828353882
0.93128114938735962 0.85267120599746704 0.34004384279251099
0.95670872926712036 0.8429298996925354 0.34952116012573242
0.42583271861076355 0.84666097164154053 0.42006230354309082
0.42789739370346069 0.84577095508575439 0.41966429352760315
0.42907395958900452 0.84708094596862793 0.4221559464931488
0.42956146597862244 0.85030752420425415 0.4259893000125885
0.43252080678939819 0.85025930404663086 0.42676031589508057
0.45517697930335999 0.84929245710372925 0.42421486973762512
0.5155254602432251 0.84940797090530396 0.42738306522369385
0.61461132764816284 0.85795408487319946 0.44833192229270935
0.72776973247528076 0.86630016565322876 0.48443740606307983
0.8262171745300293 0.86919468641281128 0.51880604028701782
0.88127565383911133 0.87045282125473022 0.56620270013809204
0.89580297470092773 0.87096613645553589 0.58375585079193115
0.92500895261764526 0.86538469791412354 0.57803988456726074
0.41660302877426147 0.84534221887588501 0.41757422685623169
0.41752085089683533 0.84320229291915894 0.41478428244590759
0.41752678155899048 0.84407085180282593 0.41566616296768188
0.41726049780845642 0.84754925966262817 0.41883933544158936
0.421712726354599 0.85167908668518066 0.42034235596656799
0.44363164901733398 0.85607331991195679 0.42181396484375
0.50057005882263184 0.85999023914337158 0.42921167612075806
0.59620195627212524 0.86772042512893677 0.44851475954055786
0.70988285541534424 0.87695914506912231 0.4742107093334198
0.81287062168121338 0.88220149278640747 0.50436162948608398
0.87665379047393799 0.88429206609725952 0.5545768141746521
0.90024679899215698 0.88526934385299683 0.58672642707824707
0.92796164751052856 0.88345795869827271 0.58710455894470215
0.0071272156201303005 0.016421180218458176 0.10844862461090088
0.029867777600884438 0.013747705146670341 0.10683932155370712
0.13764999806880951 0.012662924826145172 0.11443061381578445
0.29942032694816589 0.019147252663969994 0.11666225641965866
0.46855753660202026 0.03197416290640831 0.12398192286491394
0.62547057867050171 0.03463967889547348 0.12359798699617386
0.76819109916687012 0.035756338387727737 0.12491025775671005
0.87677782773971558 0.050462447106838226 0.11395830661058426
0.91849887371063232 0.074585288763046265 0.11204159259796143
0.92377066612243652 0.063403740525245667 0.080147825181484222
0.92435377836227417 0.05726439505815506 0.06490529328584671
0.93378716707229614 0.061193190515041351 0.079048886895179749
0.95515042543411255 0.064539112150669098 0.074883900582790375
0.013681897893548012 0.064889721572399139 0.12834030389785767
0.040056761354207993 0.060107674449682236 0.12408488988876343
0.13413235545158386 0.056880231946706772 0.12731949985027313
0.28221321105957031 0.063644737005233765 0.12931050360202789
0.44932791590690613 0.081679083406925201 0.13305768370628357
0.60629767179489136 0.092069514095783234 0.13371196389198303
0.74703574180603027 0.10173356533050537 0.13424085080623627
0.85771787166595459 0.12508311867713928 0.13607557117938995
0.90978223085403442 0.14213037490844727 0.13508749008178711
0.92027038335800171 0.12936209142208099 0.11575280129909515
0.92178672552108765 0.1291540116071701 0.11425534635782242
0.93284887075424194 0.13396342098712921 0.12240125238895416
0.95566695928573608 0.13704575598239899 0.1218593642115593
0.02016080915927887 0.12602914869785309 0.11961781978607178
0.033291924744844437 0.12226873636245728 0.11481083929538727
0.1066083237528801 0.11881569027900696 0.11278799921274185
0.24887751042842865 0.11738439649343491 0.10985320061445236
0.4225727915763855 0.12636344134807587 0.11037708073854446
0.58517509698867798 0.13583680987358093 0.11816813051700592
0.72691035270690918 0.14476194977760315 0.12327057868242264
0.84440916776657104 0.15870243310928345 0.12470778077840805
0.91051816940307617 0.16030131280422211 0.11841489374637604
0.92353034019470215 0.14466935396194458 0.10721056908369064
0.92291265726089478 0.13828600943088531 0.10205558687448502
0.93405622243881226 0.13529495894908905 0.10071161389350891
0.95895254611968994 0.13671346008777618 0.10131533443927765
0.033703237771987915 0.19706124067306519 0.11462684720754623
0.038045082241296768 0.19256898760795593 0.1120302826166153
0.087907649576663971 0.19058182835578918 0.10864201188087463
0.20826773345470428 0.19120024144649506 0.10152120888233185
0.38623613119125366 0.20118157565593719 0.096736103296279907
0.56238067150115967 0.20820245146751404 0.10069432109594345
0.70953428745269775 0.20881110429763794 0.10568735748529434
0.83667480945587158 0.21007178723812103 0.10417918860912323
0.91767990589141846 0.20676732063293457 0.097780682146549225
0.93397378921508789 0.19323906302452087 0.096993148326873779
0.93177086114883423 0.18217870593070984 0.094901204109191895
0.94104868173599243 0.17516086995601654 0.090340316295623779
0.96489977836608887 0.17762956023216248 0.090298913419246674
0.058994367718696594 0.2805820107460022 0.12288039177656174
0.059066727757453918 0.27594897150993347 0.12023581564426422
0.085095815360546112 0.2720608115196228 0.1156366840004921
0.16726647317409515 0.27197065949440002 0.10626103729009628
0.33157548308372498 0.28483563661575317 0.098156645894050598
0.52754414081573486 0.30276006460189819 0.086992703378200531
