assets/lut/editingcorp scrittle.cube
# Created by: G'MIC (https://gmic.eu)
TITLE "scrittle"
# LUT size
LUT_3D_SIZE 13
# Data domain
DOMAIN_MIN 0.0 0.0 0.0
DOMAIN_MAX 1.0 1.0 1.0
# LUT data points
0.016129571944475174 0.024423711001873016 0.19458404183387756
0.080438174307346344 0.028094392269849777 0.19722889363765717
0.15082013607025146 0.033449809998273849 0.20006273686885834
0.22707247734069824 0.040552325546741486 0.20295493304729462
0.31154575943946838 0.050453681498765945 0.20469611883163452
0.40544456243515015 0.064843378961086273 0.20613737404346466
0.50089573860168457 0.086764015257358551 0.20920927822589874
0.58995062112808228 0.11709793657064438 0.21635071933269501
0.6700243353843689 0.15059062838554382 0.22570087015628815
0.74146926403045654 0.18096263706684113 0.2343534529209137
0.80648863315582275 0.20676279067993164 0.24170888960361481
0.8667595386505127 0.2286248654127121 0.24839174747467041
0.92432302236557007 0.24772407114505768 0.25500130653381348
0.019233554601669312 0.080056272447109222 0.19735278189182281
0.084181778132915497 0.083304747939109802 0.19948047399520874
0.15396417677402496 0.088452853262424469 0.2020689994096756
0.22868055105209351 0.094793997704982758 0.20451520383358002
0.31290897727012634 0.10333437472581863 0.2064584493637085
0.40728548169136047 0.11681536585092545 0.20808796584606171
0.50360202789306641 0.13931962847709656 0.21237044036388397
0.59443068504333496 0.17129413783550262 0.22033877670764923
0.67552131414413452 0.20543773472309113 0.22986648976802826
0.74729716777801514 0.2342122346162796 0.23751111328601837
0.81189882755279541 0.2566838264465332 0.243012934923172
0.87205100059509277 0.27580350637435913 0.24814687669277191
0.92839902639389038 0.2928636372089386 0.25315868854522705
0.022912207990884781 0.13871368765830994 0.20051294565200806
0.089023500680923462 0.14257602393627167 0.20230616629123688
0.15766853094100952 0.14801298081874847 0.2043750137090683
0.23045124113559723 0.15380628407001495 0.20645640790462494
0.31265008449554443 0.16070756316184998 0.20807118713855743
0.40753141045570374 0.17247846722602844 0.21015430986881256
0.50621187686920166 0.19437496364116669 0.21562144160270691
0.59841728210449219 0.22798597812652588 0.22509272396564484
0.68077385425567627 0.26173889636993408 0.23496498167514801
0.75316786766052246 0.2875615656375885 0.24145445227622986
0.81798535585403442 0.30615049600601196 0.24540089070796967
0.87759190797805786 0.32230016589164734 0.24877087771892548
0.93355917930603027 0.33783599734306335 0.25273451209068298
0.028380943462252617 0.20194807648658752 0.20400433242321014
0.093419425189495087 0.20671278238296509 0.20536942780017853
0.15910150110721588 0.21288982033729553 0.20701991021633148
0.22656366229057312 0.21898375451564789 0.20906996726989746
0.30746579170227051 0.22502876818180084 0.21073910593986511
0.40489992499351501 0.23434114456176758 0.21309921145439148
0.50818818807601929 0.25455847382545471 0.21936170756816864
0.60370641946792603 0.28776869177818298 0.23016379773616791
0.68754112720489502 0.3199639618396759 0.24023273587226868
0.76097565889358521 0.34247660636901855 0.24586433172225952
0.8266143798828125 0.35720238089561462 0.24842533469200134
0.88572752475738525 0.37048369646072388 0.25080430507659912
0.94024765491485596 0.38454297184944153 0.25377160310745239
0.039203912019729614 0.2711072564125061 0.20699124038219452
0.099755048751831055 0.27580112218856812 0.20848849415779114
0.15925697982311249 0.28232046961784363 0.2100500762462616
0.22133690118789673 0.28943458199501038 0.2120368629693985
0.29777315258979797 0.29633617401123047 0.21405018866062164
0.39811438322067261 0.30639660358428955 0.21744309365749359
0.50954192876815796 0.32653766870498657 0.2250555008649826
0.61169600486755371 0.35595405101776123 0.23643329739570618
0.69821768999099731 0.38300272822380066 0.24578528106212616
0.77358525991439819 0.40015196800231934 0.2500990629196167
0.83893799781799316 0.41151824593544006 0.25186365842819214
0.89651423692703247 0.42248749732971191 0.25345024466514587
0.9488908052444458 0.4349769651889801 0.25592944025993347
0.055835604667663574 0.34437069296836853 0.21087098121643066
0.11187286674976349 0.34854134917259216 0.21239449083805084
0.16583813726902008 0.35505408048629761 0.21399827301502228
0.21870122849941254 0.3627774715423584 0.21555566787719727
0.28534045815467834 0.37130451202392578 0.21785485744476318
0.38519048690795898 0.38419118523597717 0.22290213406085968
0.50991761684417725 0.40476882457733154 0.23207579553127289
0.62249612808227539 0.42911610007286072 0.24318534135818481
0.71331709623336792 0.44965556263923645 0.25106298923492432
0.78984129428863525 0.4624519944190979 0.25387871265411377
0.85490816831588745 0.47160071134567261 0.25483220815658569
0.90967607498168945 0.48069906234741211 0.25632667541503906
0.95872563123703003 0.49141120910644531 0.25819417834281921
0.076790317893028259 0.41966384649276733 0.21671150624752045
0.1306222528219223 0.42321568727493286 0.2187044620513916
0.17919968068599701 0.42896109819412231 0.22055254876613617
0.22148425877094269 0.43732789158821106 0.22209490835666656
0.27290505170822144 0.44790241122245789 0.22433198988437653
0.36597141623497009 0.46319958567619324 0.23033627867698669
0.50033098459243774 0.48388469219207764 0.24080975353717804
0.62534177303314209 0.50439739227294922 0.2512967586517334
0.72496116161346436 0.52118146419525146 0.2568737268447876
0.8055572509765625 0.53168964385986328 0.25749415159225464
0.87054520845413208 0.54044562578201294 0.25717481970787048
0.92306387424468994 0.54879164695739746 0.25817930698394775
0.96829605102539062 0.55749678611755371 0.26012113690376282
0.102220319211483 0.49681371450424194 0.22525770962238312
0.15417329967021942 0.49863108992576599 0.22799530625343323
0.19893103837966919 0.50336533784866333 0.23067264258861542
0.23327131569385529 0.51315712928771973 0.23263347148895264
0.27454456686973572 0.52706056833267212 0.23518224060535431
0.35516607761383057 0.54468774795532227 0.24146871268749237
0.48005473613739014 0.5653071403503418 0.2517210841178894
0.61218762397766113 0.58526605367660522 0.26116302609443665
0.72445988655090332 0.60127717256546021 0.26402503252029419
0.81497359275817871 0.61262708902359009 0.2622065544128418
0.88417285680770874 0.62209516763687134 0.26008915901184082
0.9356158971786499 0.62979811429977417 0.25950413942337036
0.9777788519859314 0.63615649938583374 0.25999870896339417
0.12861520051956177 0.57712990045547485 0.23587827384471893
0.17794561386108398 0.57759755849838257 0.2391887903213501
0.219277024269104 0.58148837089538574 0.24279046058654785
0.25057739019393921 0.59266668558120728 0.24545590579509735
0.28560036420822144 0.60953032970428467 0.24854421615600586
0.34930777549743652 0.62917375564575195 0.25390499830245972
0.45197892189025879 0.64988493919372559 0.26187425851821899
0.5817645788192749 0.66970586776733398 0.26886847615242004
0.710227370262146 0.68704026937484741 0.27023035287857056
0.81778448820114136 0.70091074705123901 0.2672940194606781
0.89502990245819092 0.71117031574249268 0.26306277513504028
0.94623869657516479 0.71799653768539429 0.26032346487045288
0.98562145233154297 0.7214851975440979 0.2592262327671051
0.15258118510246277 0.65854167938232422 0.24740879237651825
0.19803972542285919 0.65938889980316162 0.25086379051208496
0.23593956232070923 0.66446679830551147 0.25479310750961304
0.26605135202407837 0.67623835802078247 0.25830516219139099
0.29807588458061218 0.69380509853363037 0.26196858286857605
0.34585413336753845 0.71407371759414673 0.2662719190120697
0.42436337471008301 0.73414444923400879 0.27090346813201904
0.54744094610214233 0.75320887565612793 0.27493217587471008
0.69035941362380981 0.77098101377487183 0.27530145645141602
0.81633877754211426 0.78613150119781494 0.27127000689506531
0.90290260314941406 0.79640817642211914 0.26573643088340759
0.95468556880950928 0.80177873373031616 0.26153901219367981
0.9910094141960144 0.80257308483123779 0.25934430956840515
0.17311815917491913 0.74111521244049072 0.25906473398208618
0.21485646069049835 0.74228030443191528 0.26233461499214172
0.24999295175075531 0.74758219718933105 0.26631450653076172
0.28068834543228149 0.75919663906097412 0.2706199586391449
0.31299915909767151 0.77618938684463501 0.27488723397254944
0.35438939929008484 0.79504668712615967 0.27886974811553955
0.419362872838974 0.8126111626625061 0.28165906667709351
0.53030854463577271 0.82916224002838135 0.28270831704139709
0.67322593927383423 0.84521472454071045 0.28018894791603088
0.80842393636703491 0.8590434193611145 0.27386721968650818
0.90407747030258179 0.86748677492141724 0.26718345284461975
0.96022862195968628 0.87058454751968384 0.26270908117294312
0.99484378099441528 0.86907732486724854 0.26055628061294556
0.19050811231136322 0.82218486070632935 0.27074810862541199
0.22895976901054382 0.82285720109939575 0.27359405159950256
0.26234167814254761 0.82753431797027588 0.2772238552570343
0.29371994733810425 0.83778005838394165 0.28168293833732605
0.32741555571556091 0.85248535871505737 0.28662228584289551
0.36816596984863281 0.86813080310821533 0.29073643684387207
0.42786958813667297 0.88212776184082031 0.29271140694618225
0.52501392364501953 0.89475125074386597 0.29129830002784729
0.65978771448135376 0.90770584344863892 0.28481623530387878
0.79894596338272095 0.91894567012786865 0.27499344944953918
0.90144044160842896 0.92489749193191528 0.26701486110687256
0.96196627616882324 0.92523008584976196 0.26346805691719055
0.99634486436843872 0.92294633388519287 0.26204535365104675
0.20415003597736359 0.9012378454208374 0.28191670775413513
0.24033685028553009 0.90062463283538818 0.28413233160972595
0.27262988686561584 0.90344107151031494 0.28735589981079102
0.30419155955314636 0.91129606962203979 0.29157540202140808
0.3382725715637207 0.92241775989532471 0.29620319604873657
0.37915685772895813 0.93413907289505005 0.29977592825889587
0.4360954761505127 0.94413477182388306 0.30095472931861877
0.52381366491317749 0.95309740304946899 0.29791709780693054
0.65109920501708984 0.96293962001800537 0.28851073980331421
0.79066550731658936 0.97170716524124146 0.27569511532783508
0.89584249258041382 0.97567415237426758 0.26700940728187561
0.95891952514648438 0.97460818290710449 0.26423802971839905
0.99583673477172852 0.97239047288894653 0.26366317272186279
0.017065774649381638 0.023730603978037834 0.21980646252632141
0.08023611456155777 0.026497172191739082 0.22144776582717896
0.14933539927005768 0.030722495168447495 0.223883256316185
0.22542868554592133 0.036695428192615509 0.22590425610542297
0.31170192360877991 0.045809846371412277 0.22726500034332275
0.40727090835571289 0.06005096435546875 0.22830790281295776
0.50391030311584473 0.082472376525402069 0.23175144195556641
0.59434103965759277 0.11436112225055695 0.23975494503974915
0.67387217283248901 0.14945213496685028 0.24995426833629608
0.74442487955093384 0.18047042191028595 0.25880840420722961
0.80812972784042358 0.20536191761493683 0.2655811607837677
0.86698359251022339 0.22573071718215942 0.27147063612937927
0.92312526702880859 0.24346880614757538 0.27781325578689575
0.019756495952606201 0.077933445572853088 0.22182971239089966
0.083514146506786346 0.081193782389163971 0.22363767027854919
0.15215019881725311 0.085476279258728027 0.22546505928039551
0.22712704539299011 0.091027356684207916 0.22745844721794128
0.31249138712882996 0.099230013787746429 0.22880139946937561
0.40751221776008606 0.11337941139936447 0.23071882128715515
0.50588792562484741 0.13674108684062958 0.23528696596622467
0.59700757265090942 0.16913698613643646 0.24382546544075012
0.6779855489730835 0.20350529253482819 0.2535298764705658
0.74885833263397217 0.2322857677936554 0.26104113459587097
0.81225186586380005 0.25451043248176575 0.26619017124176025
0.87083333730697632 0.27281647920608521 0.27073672413825989
0.92680352926254272 0.28943157196044922 0.27590346336364746
0.023081207647919655 0.13627511262893677 0.22497552633285522
0.08770027756690979 0.14003533124923706 0.22628417611122131
0.155448317527771 0.14490218460559845 0.22801768779754639
0.22751240432262421 0.15039950609207153 0.22969578206539154
0.31149402260780334 0.15767824649810791 0.23135176301002502
0.40751475095748901 0.17029206454753876 0.23381975293159485
0.50742405652999878 0.194096639752388 0.23971761763095856
0.59929162263870239 0.22665052115917206 0.24911381304264069
0.68122237920761108 0.25976088643074036 0.25854048132896423
0.75288140773773193 0.28494575619697571 0.26467397809028625
0.8167228102684021 0.30343493819236755 0.26822546124458313
0.87605661153793335 0.31955230236053467 0.27153989672660828
0.93160480260848999 0.33506312966346741 0.27582192420959473
0.0283991489559412 0.1996796578168869 0.2282344251871109
0.092159703373908997 0.20414935052394867 0.2292335033416748
0.15687696635723114 0.21001200377941132 0.23079179227352142
0.22426800429821014 0.21619999408721924 0.23276723921298981
0.30642551183700562 0.22251762449741364 0.23453494906425476
0.4052378237247467 0.23391102254390717 0.23757937550544739
0.50814688205718994 0.25677841901779175 0.24461562931537628
0.60342979431152344 0.28907907009124756 0.25531071424484253
0.68664258718490601 0.31975856423377991 0.2648395299911499
0.75987362861633301 0.34097811579704285 0.26971501111984253
0.82467252016067505 0.35521611571311951 0.27191305160522461
0.88370126485824585 0.36874336004257202 0.2742462158203125
0.9385039210319519 0.38279694318771362 0.27762714028358459
0.038310524076223373 0.26875841617584229 0.23116990923881531
0.098655179142951965 0.27365005016326904 0.2323010116815567
0.15848276019096375 0.28037926554679871 0.23371684551239014
0.22038544714450836 0.2873835563659668 0.23569151759147644
0.29838573932647705 0.29414674639701843 0.23790477216243744
0.39923730492591858 0.30558988451957703 0.24195173382759094
0.50946497917175293 0.32791325449943542 0.25056204199790955
0.61042195558547974 0.35841256380081177 0.26252371072769165
0.69646000862121582 0.38539129495620728 0.27207222580909729
0.77224701642990112 0.40152323246002197 0.27571097016334534
0.83785331249237061 0.41205909848213196 0.27677690982818604
0.8953474760055542 0.42278280854225159 0.27801427245140076
0.94747734069824219 0.43464928865432739 0.28053033351898193
0.05303598940372467 0.34282094240188599 0.2346464991569519
0.11113465577363968 0.34748342633247375 0.23613114655017853
0.16652354598045349 0.35460758209228516 0.23749859631061554
0.22075377404689789 0.36249047517776489 0.23913036286830902
0.28780317306518555 0.37021070718765259 0.2417566180229187
0.38756474852561951 0.38334512710571289 0.24738246202468872
0.50946426391601562 0.40447118878364563 0.25743639469146729
0.62102168798446655 0.43080747127532959 0.26934915781021118
0.71190959215164185 0.45309814810752869 0.27792656421661377
0.7894548773765564 0.46583265066146851 0.28055965900421143
0.85505557060241699 0.47432491183280945 0.2807045578956604
0.90938740968704224 0.48273944854736328 0.28137633204460144
0.9577828049659729 0.49283942580223083 0.28314727544784546
0.074102677404880524 0.41956722736358643 0.24040709435939789
0.12971334159374237 0.42300158739089966 0.24234791100025177
0.18045033514499664 0.43006005883216858 0.24409939348697662
0.22444197535514832 0.43886789679527283 0.24561016261577606
0.27744519710540771 0.44862693548202515 0.24844413995742798
0.37146675586700439 0.46315965056419373 0.25510498881340027
0.50314038991928101 0.48325881361961365 0.26582619547843933
0.62575781345367432 0.50633406639099121 0.27695712447166443
0.72482573986053467 0.52447164058685303 0.28342971205711365
0.80622786283493042 0.53612077236175537 0.28450515866279602
0.87141662836074829 0.5445137619972229 0.2836727499961853
0.92343783378601074 0.55227327346801758 0.28332957625389099
0.9679950475692749 0.56056755781173706 0.28405845165252686
0.10047393292188644 0.49681371450424194 0.2493465393781662
0.15291471779346466 0.49960967898368835 0.25199195742607117
0.19772318005561829 0.50524097681045532 0.25461414456367493
0.23380699753761292 0.51504975557327271 0.25654953718185425
0.27785646915435791 0.52837765216827393 0.2594606876373291
0.35995951294898987 0.54493808746337891 0.26584401726722717
0.48312705755233765 0.56495296955108643 0.27598080039024353
0.61244398355484009 0.58601856231689453 0.28550192713737488
0.72526746988296509 0.60355848073959351 0.28992456197738647
0.81698209047317505 0.6161002516746521 0.28890752792358398
0.885997474193573 0.62579107284545898 0.28587371110916138
0.9362453818321228 0.63329416513442993 0.2836853563785553
0.977134108543396 0.63929742574691772 0.28358012437820435
0.12832076847553253 0.577339768409729 0.26084807515144348
0.17757719755172729 0.5784260630607605 0.26411211490631104
0.21842634677886963 0.58355426788330078 0.26736152172088623
0.25082322955131531 0.59458637237548828 0.27027454972267151
0.28869011998176575 0.61048614978790283 0.27348631620407104
0.35451078414916992 0.62953692674636841 0.27896788716316223
0.45720729231834412 0.6500009298324585 0.2867678701877594
0.58501482009887695 0.67066699266433716 0.29417216777801514
0.71345406770706177 0.68899846076965332 0.29675707221031189
0.82087504863739014 0.70357835292816162 0.29406732320785522
0.89677029848098755 0.71438729763031006 0.28865358233451843
0.94644623994827271 0.72114455699920654 0.28391575813293457
0.98491281270980835 0.72412210702896118 0.28231048583984375
0.15363368391990662 0.65870100259780884 0.27319800853729248
0.19954320788383484 0.6599617600440979 0.27667224407196045
0.23787602782249451 0.66539508104324341 0.28053742647171021
0.27042561769485474 0.67763006687164307 0.28459018468856812
0.30595085024833679 0.69556748867034912 0.28861802816390991
0.35773226618766785 0.71569955348968506 0.29340788722038269
0.43859106302261353 0.73524975776672363 0.29877105355262756
0.55773007869720459 0.75423085689544678 0.30335524678230286
0.69669735431671143 0.77345263957977295 0.30437451601028442
0.81980562210083008 0.78882646560668945 0.2996576726436615
0.90462052822113037 0.79890936613082886 0.29195064306259155
0.95552295446395874 0.80393272638320923 0.28525155782699585
0.99132180213928223 0.80369216203689575 0.28215980529785156
0.17509713768959045 0.74097073078155518 0.28566128015518188
0.21747693419456482 0.74180871248245239 0.28900623321533203
0.25423309206962585 0.74742478132247925 0.29312810301780701
0.28816503286361694 0.75995022058486938 0.29822450876235962
0.32540279626846313 0.77829760313034058 0.30369859933853149
0.37181994318962097 0.79826205968856812 0.30884453654289246
0.43515193462371826 0.81560295820236206 0.31246614456176758
0.53861457109451294 0.83095061779022217 0.31426256895065308
0.67699992656707764 0.8479037880897522 0.31181055307388306
0.81047254800796509 0.86182612180709839 0.30420160293579102
0.90577596426010132 0.87006032466888428 0.29461431503295898
0.96315306425094604 0.87242639064788818 0.28724551200866699
0.99630552530288696 0.87131774425506592 0.28327888250350952
0.19163839519023895 0.8213236927986145 0.29791542887687683
0.23124842345714569 0.82133227586746216 0.30072537064552307
0.26638767123222351 0.82578426599502563 0.30486202239990234
0.30089989304542542 0.83755338191986084 0.31049132347106934
0.33844843506813049 0.85425722599029541 0.31691217422485352
0.38106191158294678 0.87165170907974243 0.3226715624332428
0.43317565321922302 0.88455325365066528 0.32576838135719299
0.52011889219284058 0.89577615261077881 0.3251488208770752
0.65165126323699951 0.90870398283004761 0.31825277209281921
0.79336780309677124 0.92037129402160645 0.30640995502471924
0.9010804295539856 0.92667609453201294 0.29523292183876038
0.96669113636016846 0.92825955152511597 0.28821244835853577
0.99856597185134888 0.92687320709228516 0.28478547930717468
0.20398491621017456 0.89828288555145264 0.30977907776832581
0.24114158749580383 0.89742791652679443 0.31202134490013123
0.27458825707435608 0.90024834871292114 0.31562319397926331
0.30798590183258057 0.90943527221679688 0.32110780477523804
0.3428950309753418 0.92257893085479736 0.32743716239929199
0.3809598982334137 0.93522334098815918 0.33268335461616516
0.4288783073425293 0.94459336996078491 0.33533778786659241
0.50476646423339844 0.95195657014846802 0.3333512544631958
0.63045704364776611 0.96116572618484497 0.32302981615066528
0.7763095498085022 0.97069245576858521 0.30761915445327759
0.89172118902206421 0.97612965106964111 0.29534259438514709
0.96460765600204468 0.97723418474197388 0.28842827677726746
0.99903327226638794 0.97729039192199707 0.28585708141326904
0.01804300956428051 0.024300219491124153 0.24507415294647217
0.078890435397624969 0.025725780054926872 0.24667161703109741
0.14549174904823303 0.028751926496624947 0.24840053915977478
0.2203022688627243 0.033544532954692841 0.25029674172401428
0.30616730451583862 0.0423748679459095 0.25167554616928101
0.40188711881637573 0.057372882962226868 0.25339296460151672
0.50036489963531494 0.081152975559234619 0.25807452201843262
0.5924106240272522 0.11411512643098831 0.26711198687553406
0.67412614822387695 0.14985808730125427 0.27774414420127869
0.7457510232925415 0.1803179532289505 0.28635197877883911
0.80873304605484009 0.20381782948970795 0.29212114214897156
0.86617803573608398 0.22216632962226868 0.29659482836723328
0.92119181156158447 0.2382405698299408 0.30237537622451782
0.020139222964644432 0.077423110604286194 0.24697014689445496
0.08150317519903183 0.079602457582950592 0.2481357753276825
0.14760196208953857 0.08258134126663208 0.24972526729106903
0.22158044576644897 0.0874747633934021 0.25141057372093201
0.30724054574966431 0.095808975398540497 0.25264975428581238
0.40319523215293884 0.11074597388505936 0.25526034832000732
0.50198346376419067 0.13518987596035004 0.26092571020126343
0.59501403570175171 0.16810907423496246 0.2700158953666687
0.67738926410675049 0.20258267223834991 0.27999439835548401
0.74905788898468018 0.2312111109495163 0.28747692704200745
0.81220704317092896 0.25284549593925476 0.29205945134162903
0.86982190608978271 0.26995688676834106 0.29558569192886353
0.92476683855056763 0.2854672372341156 0.30041852593421936
0.022739455103874207 0.13493281602859497 0.24979695677757263
0.084506556391716003 0.1370568573474884 0.25081521272659302
0.14998255670070648 0.14134177565574646 0.25203448534011841
0.22218404710292816 0.14639297127723694 0.25342920422554016
0.30686616897583008 0.15419743955135345 0.2552095353603363
0.40335115790367126 0.1686798632144928 0.2583235502243042
0.50296992063522339 0.19307830929756165 0.26491731405258179
0.59716123342514038 0.22557878494262695 0.27463242411613464
0.68034201860427856 0.25774559378623962 0.28426638245582581
0.75214260816574097 0.2826974093914032 0.29043984413146973
0.81572085618972778 0.30133998394012451 0.29378607869148254
0.87442028522491455 0.3176497220993042 0.29681298136711121
0.92988818883895874 0.33282017707824707 0.30122131109237671
0.027392547577619553 0.19666898250579834 0.25299161672592163
0.088583581149578094 0.20038282871246338 0.25375869870185852
0.1516122967004776 0.20572406053543091 0.25496608018875122
0.22029642760753632 0.21157033741474152 0.25653189420700073
0.30382192134857178 0.21871396899223328 0.25849524140357971
0.40251877903938293 0.23201596736907959 0.2621428370475769
0.50512802600860596 0.25623634457588196 0.26988372206687927
0.60116183757781982 0.2880420982837677 0.28054600954055786
0.68595659732818604 0.31808966398239136 0.29030263423919678
0.75894302129745483 0.33920902013778687 0.29560017585754395
0.82342529296875 0.35369303822517395 0.29793593287467957
0.88258039951324463 0.36805751919746399 0.30035212635993958
0.93713432550430298 0.38199919462203979 0.30398309230804443
0.03629264235496521 0.26523670554161072 0.25608521699905396
0.095372818410396576 0.26965653896331787 0.25684574246406555
0.15445730090141296 0.27610093355178833 0.25805884599685669
0.21745526790618896 0.28285479545593262 0.25986805558204651
0.29684290289878845 0.28982022404670715 0.26216357946395874
0.39751878380775452 0.30229324102401733 0.26666402816772461
0.50623816251754761 0.32590940594673157 0.27568310499191284
0.60775500535964966 0.35647693276405334 0.28747114539146423
