assets/lut/editingcorp ampio.cube
# Created by: G'MIC (https://gmic.eu)
TITLE "ampio"
# LUT size
LUT_3D_SIZE 13
# Data domain
DOMAIN_MIN 0.0 0.0 0.0
DOMAIN_MAX 1.0 1.0 1.0
# LUT data points
0.015338478609919548 0.022954843938350677 0.026747863739728928
0.09718690812587738 0.028591828420758247 0.031154213473200798
0.1961645781993866 0.035825736820697784 0.032996546477079391
0.30271756649017334 0.037011254578828812 0.032190613448619843
0.41132506728172302 0.038743950426578522 0.040998540818691254
0.52043837308883667 0.047300539910793304 0.056326773017644882
0.6289483904838562 0.063646994531154633 0.070742666721343994
0.72252541780471802 0.073027849197387695 0.079448476433753967
0.78987723588943481 0.063024796545505524 0.081379912793636322
0.84033125638961792 0.048201989382505417 0.080499716103076935
0.88704764842987061 0.047711480408906937 0.081118173897266388
0.93665146827697754 0.066437199711799622 0.085221759974956512
0.98644876480102539 0.08868204802274704 0.089970216155052185
0.011459320783615112 0.086059615015983582 0.024499736726284027
0.085118070244789124 0.088917478919029236 0.026535168290138245
0.18324112892150879 0.093617625534534454 0.028325712308287621
0.29385823011398315 0.096310846507549286 0.028231946751475334
0.40692076086997986 0.097911536693572998 0.035246036946773529
0.51716500520706177 0.10402752459049225 0.050585340708494186
0.62305796146392822 0.119631327688694 0.068033494055271149
0.71537011861801147 0.12968991696834564 0.079372808337211609
0.78654646873474121 0.12624900043010712 0.083765648305416107
0.84081423282623291 0.11937382817268372 0.084662221372127533
0.88924878835678101 0.12168474495410919 0.085084401071071625
0.93809431791305542 0.13602434098720551 0.08726762980222702
0.98660701513290405 0.1535884290933609 0.090205341577529907
0.0093691358342766762 0.15580025315284729 0.02898680791258812
0.069685794413089752 0.15676796436309814 0.027954431250691414
0.16032783687114716 0.15983031690120697 0.027188783511519432
0.27635684609413147 0.16370889544487 0.025238156318664551
0.39823168516159058 0.16705557703971863 0.028644276782870293
0.51414161920547485 0.17206472158432007 0.041536636650562286
0.62117099761962891 0.18309655785560608 0.058566957712173462
0.71319085359573364 0.19167748093605042 0.071958921849727631
0.78563916683197021 0.19218102097511292 0.079740829765796661
0.84271001815795898 0.19050216674804688 0.08289819210767746
0.89224755764007568 0.19306589663028717 0.083764784038066864
0.93993163108825684 0.20238324999809265 0.085370384156703949
0.98740202188491821 0.21672786772251129 0.087621204555034637
0.0086351577192544937 0.22897875308990479 0.034781735390424728
0.057498663663864136 0.23050467669963837 0.032286267727613449
0.13363659381866455 0.23243115842342377 0.029172755777835846
0.24250385165214539 0.2368406355381012 0.026092888787388802
0.37256667017936707 0.24142074584960938 0.02660045213997364
0.50287520885467529 0.24675460159778595 0.034509919583797455
0.61940228939056396 0.25452125072479248 0.047015052288770676
0.71533536911010742 0.26128020882606506 0.058773040771484375
0.78946226835250854 0.26321667432785034 0.06727917492389679
0.84696245193481445 0.26286178827285767 0.071859695017337799
0.89562267065048218 0.26359599828720093 0.074730128049850464
0.94192034006118774 0.26884502172470093 0.077828347682952881
0.9878082275390625 0.28190848231315613 0.081232406198978424
0.011372001841664314 0.30791845917701721 0.040674757212400436
0.051485639065504074 0.30888789892196655 0.037110887467861176
0.10907293856143951 0.31107765436172485 0.0339851975440979
0.20093150436878204 0.31487008929252625 0.031466390937566757
0.33486297726631165 0.32006329298019409 0.030173476785421371
0.4822046160697937 0.32642832398414612 0.032940343022346497
0.6127011775970459 0.33344763517379761 0.039151016622781754
0.71622580289840698 0.33860403299331665 0.045831345021724701
0.79356485605239868 0.34037226438522339 0.051129899919033051
0.85119336843490601 0.34043392539024353 0.055481929332017899
0.89893049001693726 0.3403606116771698 0.059961851686239243
0.94423383474349976 0.34385117888450623 0.065369024872779846
0.98920929431915283 0.35361993312835693 0.071067929267883301
0.014260251075029373 0.3936040997505188 0.044985976070165634
0.048344302922487259 0.39443311095237732 0.041725218296051025
0.094367057085037231 0.39704421162605286 0.039352282881736755
0.17321750521659851 0.40075397491455078 0.037750843912363052
0.29976123571395874 0.40698134899139404 0.036443028599023819
0.45392981171607971 0.41440394520759583 0.036527100950479507
0.59769642353057861 0.42038729786872864 0.037515617907047272
0.71138668060302734 0.42348924279212952 0.038385696709156036
0.79407888650894165 0.42481833696365356 0.039297543466091156
0.85318833589553833 0.42448112368583679 0.041021984070539474
0.90080112218856812 0.42343872785568237 0.045709617435932159
0.94599175453186035 0.42519018054008484 0.052654221653938293
0.98949044942855835 0.43183496594429016 0.059927921742200851
0.014827802777290344 0.48799958825111389 0.048843637108802795
0.047657236456871033 0.48799026012420654 0.047060709446668625
0.087712273001670837 0.48884832859039307 0.045456890016794205
0.15393452346324921 0.49281597137451172 0.044013287872076035
0.26329496502876282 0.49963629245758057 0.042672909796237946
0.41388574242591858 0.50820672512054443 0.042071562260389328
0.56861615180969238 0.51366120576858521 0.041259974241256714
0.69734317064285278 0.51563906669616699 0.039485212415456772
0.790732741355896 0.5151790976524353 0.037340588867664337
0.85314267873764038 0.51344841718673706 0.035825751721858978
0.9016038179397583 0.51108890771865845 0.038977410644292831
0.94702160358428955 0.51006066799163818 0.045364141464233398
0.99007350206375122 0.51343482732772827 0.052290882915258408
0.017221936956048012 0.58407187461853027 0.05548839271068573
0.050227954983711243 0.58254188299179077 0.05475909635424614
0.085160605609416962 0.58272826671600342 0.053631052374839783
0.13452087342739105 0.58536303043365479 0.05143260583281517
0.21817319095134735 0.59176856279373169 0.048569068312644958
0.34960877895355225 0.60076999664306641 0.046432837843894958
0.51509255170822144 0.60771608352661133 0.046039730310440063
0.67266565561294556 0.61148762702941895 0.046565469354391098
0.78490608930587769 0.6099889874458313 0.045285977423191071
0.8546796441078186 0.60628080368041992 0.043724928051233292
0.90441977977752686 0.60145872831344604 0.044161118566989899
0.94836598634719849 0.59815865755081177 0.047163046896457672
0.99009686708450317 0.59864234924316406 0.051495764404535294
0.022373318672180176 0.67386704683303833 0.063940204679965973
0.05724233016371727 0.67235243320465088 0.064612038433551788
0.088698729872703552 0.67110526561737061 0.063764087855815887
0.12452763319015503 0.67272281646728516 0.060594521462917328
0.18027658760547638 0.67785370349884033 0.055195242166519165
0.28149455785751343 0.68702507019042969 0.050376009196043015
0.45144149661064148 0.69865846633911133 0.050849661231040955
0.64125972986221313 0.70654445886611938 0.055059440433979034
0.77320247888565063 0.70434427261352539 0.056937601417303085
0.85334116220474243 0.69765543937683105 0.056857001036405563
0.90740323066711426 0.69148731231689453 0.056474588811397552
0.95005476474761963 0.68717199563980103 0.056259319186210632
0.99060958623886108 0.68506503105163574 0.057579219341278076
0.029537903144955635 0.75046700239181519 0.071937724947929382
0.068415850400924683 0.74991512298583984 0.07384568452835083
0.10155362635850906 0.74882352352142334 0.073982596397399902
0.13185498118400574 0.74934083223342896 0.070537030696868896
0.1708892434835434 0.7532079815864563 0.063496172428131104
0.24732774496078491 0.76238918304443359 0.056774858385324478
0.4014400839805603 0.77589708566665649 0.056628763675689697
0.5949866771697998 0.78639066219329834 0.062228601425886154
0.74302244186401367 0.78614342212677002 0.066929683089256287
0.84154874086380005 0.7804710865020752 0.068840190768241882
0.90647751092910767 0.77521532773971558 0.069030836224555969
0.95239770412445068 0.77166289091110229 0.068273924291133881
0.99146908521652222 0.76811504364013672 0.068117953836917877
0.035132881253957748 0.81390488147735596 0.077995523810386658
0.079567313194274902 0.81377768516540527 0.080438099801540375
0.11846244335174561 0.81275534629821777 0.081214070320129395
0.15250791609287262 0.81219482421875 0.078516177833080292
0.18627728521823883 0.81506210565567017 0.071613401174545288
0.24362054467201233 0.82313621044158936 0.063928984105587006
0.36356627941131592 0.83534699678421021 0.061695381999015808
0.53513157367706299 0.84614819288253784 0.066272199153900146
0.69902396202087402 0.85070526599884033 0.07304045557975769
0.821571946144104 0.85046213865280151 0.077916257083415985
0.90345603227615356 0.84837263822555542 0.080271027982234955
0.95774936676025391 0.8462403416633606 0.080160684883594513
0.99550759792327881 0.84296566247940063 0.079413063824176788
0.035658054053783417 0.8686295747756958 0.08111349493265152
0.084298811852931976 0.86840552091598511 0.082820728421211243
0.12914307415485382 0.86695510149002075 0.083583489060401917
0.16970193386077881 0.86526548862457275 0.081455856561660767
0.20153707265853882 0.86639422178268433 0.075301378965377808
0.23500394821166992 0.87329095602035522 0.066342376172542572
0.32137176394462585 0.88390320539474487 0.061539459973573685
0.4819139838218689 0.89511948823928833 0.065791592001914978
0.66445261240005493 0.90356969833374023 0.075101561844348907
0.80997371673583984 0.90831077098846436 0.083350129425525665
0.9048040509223938 0.91058516502380371 0.087881229817867279
0.96546947956085205 0.91070777177810669 0.088858582079410553
0.99886006116867065 0.90903627872467041 0.088304005563259125
0.029074531048536301 0.91948586702346802 0.079773955047130585
0.079478532075881958 0.91854757070541382 0.080727458000183105
0.12552827596664429 0.91680485010147095 0.080137036740779877
0.1658434122800827 0.91479849815368652 0.077760942280292511
0.19444403052330017 0.91550767421722412 0.071724787354469299
0.21845053136348724 0.92083090543746948 0.062630042433738708
0.28675729036331177 0.92977231740951538 0.056972235441207886
0.4462035596370697 0.94124311208724976 0.061995279043912888
0.64274007081985474 0.95211738348007202 0.073386833071708679
0.80182623863220215 0.95960265398025513 0.084072113037109375
0.90222495794296265 0.96483492851257324 0.090243682265281677
0.96722555160522461 0.96811199188232422 0.092662706971168518
0.99973160028457642 0.96899509429931641 0.093014508485794067
0.018638625741004944 0.022071119397878647 0.10653255879878998
0.10075191408395767 0.024272633716464043 0.11000555008649826
0.20035336911678314 0.026077808812260628 0.1032111793756485
0.30902081727981567 0.026592599228024483 0.094810932874679565
0.41820666193962097 0.029418915510177612 0.10155973583459854
0.52527046203613281 0.037810575217008591 0.11364823579788208
0.62962937355041504 0.050031129270792007 0.1233614906668663
0.71901798248291016 0.055413220077753067 0.12829431891441345
0.787078857421875 0.047765228897333145 0.12964776158332825
0.8381761908531189 0.035686790943145752 0.12885120511054993
0.88447141647338867 0.036374468356370926 0.1294156014919281
0.93433445692062378 0.054851695895195007 0.13334061205387115
0.98426556587219238 0.073663987219333649 0.13816945254802704
0.014088843949139118 0.088469907641410828 0.10020822286605835
0.082544483244419098 0.090039841830730438 0.099505841732025146
0.18253310024738312 0.089921034872531891 0.096504330635070801
0.29886379837989807 0.090778157114982605 0.089815966784954071
0.41490837931632996 0.093965373933315277 0.091692306101322174
0.52383017539978027 0.10143397003412247 0.10378878563642502
0.62540048360824585 0.11398864537477493 0.11880364269018173
0.71545279026031494 0.12140773981809616 0.12870366871356964
0.78663915395736694 0.11954955756664276 0.13314260542392731
0.84084987640380859 0.11593078821897507 0.13436684012413025
0.88900905847549438 0.1209712028503418 0.13511103391647339
0.9371337890625 0.13379976153373718 0.13730667531490326
0.9851871132850647 0.14648556709289551 0.14058575034141541
0.011137749068439007 0.15919362008571625 0.097788803279399872
0.068955950438976288 0.15983538329601288 0.093720152974128723
0.16244949400424957 0.15982447564601898 0.088543295860290527
0.28197801113128662 0.16313016414642334 0.081109635531902313
0.40757015347480774 0.16814331710338593 0.079176835715770721
0.52374905347824097 0.17302161455154419 0.090837277472019196
0.62783145904541016 0.18263590335845947 0.10780678689479828
0.71785533428192139 0.19072537124156952 0.12248877435922623
0.78973466157913208 0.19279439747333527 0.13147605955600739
0.84576058387756348 0.19369779527187347 0.13489602506160736
0.89370483160018921 0.19785010814666748 0.13625231385231018
0.94023692607879639 0.20572370290756226 0.13823226094245911
0.98692172765731812 0.21575851738452911 0.14118035137653351
0.010214098729193211 0.23251610994338989 0.096219800412654877
0.059842623770236969 0.23281358182430267 0.091591149568557739
0.13749949634075165 0.23458728194236755 0.085546113550662994
0.25015601515769958 0.23837415874004364 0.078023754060268402
0.38436612486839294 0.24333047866821289 0.075050204992294312
0.51506948471069336 0.24850349128246307 0.082149088382720947
0.62985581159591675 0.25608038902282715 0.094723843038082123
0.72418105602264404 0.26325252652168274 0.10815247148275375
0.79646784067153931 0.26727989315986633 0.11901043355464935
0.8516228199005127 0.26849508285522461 0.12469217926263809
0.89810436964035034 0.26953932642936707 0.12849599123001099
0.94310975074768066 0.27382919192314148 0.13278184831142426
0.98840415477752686 0.28374359011650085 0.13722999393939972
0.012016730383038521 0.30951443314552307 0.093704923987388611
0.053869988769292831 0.31037759780883789 0.090032733976840973
0.11447058618068695 0.31294074654579163 0.086150959134101868
0.21176610887050629 0.31621003150939941 0.081668883562088013
0.34578517079353333 0.32101815938949585 0.079314887523651123
0.49173858761787415 0.3276304304599762 0.081336319446563721
0.62289589643478394 0.33438512682914734 0.085764743387699127
0.72615504264831543 0.33968973159790039 0.092029735445976257
0.8012736439704895 0.3435395359992981 0.099353879690170288
0.85625427961349487 0.34505051374435425 0.10583925247192383
0.9016106128692627 0.34542074799537659 0.11294955015182495
0.94579672813415527 0.34840285778045654 0.12034066766500473
0.98959743976593018 0.35661518573760986 0.12746687233448029
0.014914613217115402 0.39360758662223816 0.091582275927066803
0.05177776888012886 0.39453986287117004 0.089859619736671448
0.099164687097072601 0.39707091450691223 0.088547199964523315
0.17767737805843353 0.40073725581169128 0.086603455245494843
0.30050143599510193 0.40664684772491455 0.085667677223682404
0.45426085591316223 0.41414463520050049 0.085902057588100433
0.60212749242782593 0.41965755820274353 0.084745489060878754
0.71849954128265381 0.42249089479446411 0.083046950399875641
0.8003157377243042 0.42489996552467346 0.084315374493598938
0.85721498727798462 0.42642199993133545 0.088684886693954468
0.90287178754806519 0.4269559383392334 0.096258975565433502
0.94728642702102661 0.42859864234924316 0.10501673072576523
0.99005484580993652 0.43394926190376282 0.11363519728183746
0.018930412828922272 0.48516258597373962 0.094689130783081055
0.053508084267377853 0.48579293489456177 0.093006134033203125
0.09156818687915802 0.48809161782264709 0.092572636902332306
0.15054269134998322 0.49138912558555603 0.091784052550792694
0.25093889236450195 0.49785611033439636 0.091427445411682129
0.39916244149208069 0.50602555274963379 0.09120400995016098
0.56228101253509521 0.51132708787918091 0.088859722018241882
0.6983870267868042 0.51278018951416016 0.08510550856590271
0.79364138841629028 0.51345741748809814 0.082804657518863678
0.85576868057250977 0.51368755102157593 0.083877086639404297
0.90238267183303833 0.51258939504623413 0.088500440120697021
0.94758886098861694 0.51197689771652222 0.094778589904308319
0.98999512195587158 0.51464295387268066 0.10222383588552475
0.024583913385868073 0.58085769414901733 0.10194863379001617
0.058377582579851151 0.58082276582717896 0.10080436617136002
0.089768350124359131 0.58142894506454468 0.10028073191642761
0.13072417676448822 0.58448231220245361 0.098700128495693207
0.20337438583374023 0.59000629186630249 0.096905864775180817
0.33328956365585327 0.59853696823120117 0.09540112316608429
0.50728648900985718 0.60609263181686401 0.094344943761825562
0.66990953683853149 0.60934007167816162 0.093881942331790924
0.78436863422393799 0.60868597030639648 0.093702085316181183
0.85404056310653687 0.60589200258255005 0.094298556447029114
0.90335434675216675 0.60178840160369873 0.094539090991020203
0.94773358106613159 0.59898900985717773 0.095483414828777313
0.98936253786087036 0.5988125205039978 0.099252544343471527
0.031982839107513428 0.67190104722976685 0.11030496656894684
0.067318052053451538 0.67199653387069702 0.11037062108516693
0.096920013427734375 0.67234641313552856 0.11039446294307709
0.1265396922826767 0.67403775453567505 0.10827793926000595
0.17748406529426575 0.67839854955673218 0.10374993830919266
0.28386774659156799 0.6872069239616394 0.10009912401437759
0.4558817446231842 0.69828855991363525 0.10054542869329453
0.63942939043045044 0.70555824041366577 0.10432974249124527
0.77212637662887573 0.70409280061721802 0.10748684406280518
0.85272789001464844 0.6981167197227478 0.10932285338640213
0.90599066019058228 0.69211584329605103 0.10745745152235031
0.94932436943054199 0.68747222423553467 0.10507384687662125
0.98973935842514038 0.68461155891418457 0.10582587867975235
0.0393192358314991 0.74973756074905396 0.11686716973781586
0.079324327409267426 0.75128400325775146 0.11878933012485504
0.11213897913694382 0.752113938331604 0.12026588618755341
0.13976527750492096 0.75358289480209351 0.11857998371124268
0.17703691124916077 0.75641912221908569 0.11220268160104752
0.26045963168144226 0.76431214809417725 0.1069546565413475
0.41321572661399841 0.77665597200393677 0.10751930624246597
0.59715694189071655 0.78619366884231567 0.11330409348011017
0.74522733688354492 0.78674465417861938 0.11898983269929886
0.84342718124389648 0.7822796106338501 0.12173749506473541
0.906757652759552 0.77696621417999268 0.12093479186296463
0.95160931348800659 0.7723119854927063 0.11906023323535919
0.99109017848968506 0.7676314115524292 0.1185392364859581
0.044334635138511658 0.81392389535903931 0.12025450170040131
0.089087530970573425 0.81572479009628296 0.12332289665937424
0.1269984096288681 0.81730902194976807 0.1257341057062149
0.15731577575206757 0.81763970851898193 0.12464342266321182
0.18904775381088257 0.81931811571121216 0.11869017779827118
0.25195461511611938 0.82588654756546021 0.11292149871587753
0.37543237209320068 0.83669805526733398 0.11261315643787384
0.54519999027252197 0.84642338752746582 0.11852075904607773
0.70694750547409058 0.8516419529914856 0.12606242299079895
0.82592970132827759 0.85216665267944336 0.13120608031749725
0.90492880344390869 0.8503575325012207 0.13299021124839783
0.95693099498748779 0.8474050760269165 0.13268165290355682
0.99469995498657227 0.84291756153106689 0.13183808326721191
0.043569840490818024 0.86954766511917114 0.1205635666847229
0.091493062674999237 0.87011903524398804 0.12320194393396378
0.13351039588451385 0.86998087167739868 0.12504997849464417
0.16787871718406677 0.8694949746131897 0.12460430711507797
0.19785380363464355 0.87055754661560059 0.11993826925754547
0.24381336569786072 0.87601751089096069 0.11407893896102905
0.34321108460426331 0.88505899906158447 0.11272928863763809
0.50448077917098999 0.8951115608215332 0.11851685494184494
0.67882829904556274 0.90338212251663208 0.1280280202627182
0.81470268964767456 0.90924280881881714 0.1362801194190979
0.90571081638336182 0.91107898950576782 0.14083108305931091
0.96453744173049927 0.9110267162322998 0.14176023006439209
0.99836587905883789 0.90872418880462646 0.14144167304039001
0.035759571939706802 0.91943490505218506 0.1175200343132019
0.084859229624271393 0.91875779628753662 0.11919135600328445
0.12834025919437408 0.9182090163230896 0.12043628841638565
0.16464860737323761 0.91719317436218262 0.11952146887779236
0.19470886886119843 0.91799205541610718 0.11546638607978821
0.23499926924705505 0.92273497581481934 0.10988554358482361
0.32348090410232544 0.93067890405654907 0.10803957283496857
0.48057961463928223 0.94120770692825317 0.11371871083974838
0.66160547733306885 0.95190507173538208 0.12463622540235519
0.80579370260238647 0.95996308326721191 0.13546401262283325
0.90283501148223877 0.96547490358352661 0.14230301976203918
0.96696728467941284 0.96787184476852417 0.14504237473011017
0.99949288368225098 0.96827298402786255 0.14613565802574158
0.020076317712664604 0.023161944001913071 0.2006354033946991
0.095518819987773895 0.023119937628507614 0.20361855626106262
0.19223779439926147 0.021811751648783684 0.19768032431602478
0.30733364820480347 0.021423473954200745 0.18647226691246033
0.42592903971672058 0.023997573181986809 0.18398953974246979
0.53520828485488892 0.029881929978728294 0.18399780988693237
0.632518470287323 0.036761235445737839 0.18223196268081665
0.7173125147819519 0.039884291589260101 0.1815376877784729
0.78441864252090454 0.037529110908508301 0.18234024941921234
0.83859503269195557 0.034615535289049149 0.18338844180107117
0.88583838939666748 0.039335947483778 0.18407799303531647
0.9339415431022644 0.050381828099489212 0.18575640022754669
0.98287761211395264 0.060411371290683746 0.18899945914745331
0.015289994888007641 0.092475041747093201 0.19292652606964111
0.075971268117427826 0.092012755572795868 0.19342726469039917
0.17074498534202576 0.088569924235343933 0.18977600336074829
0.29420396685600281 0.086856693029403687 0.17779847979545593
0.41945821046829224 0.089410044252872467 0.17077232897281647
0.52896106243133545 0.095655448734760284 0.17046673595905304
0.62566274404525757 0.10449423640966415 0.17400330305099487
0.71365940570831299 0.11174502223730087 0.18058845400810242
0.78508716821670532 0.11447867751121521 0.1862364262342453
0.8409501314163208 0.11762885004281998 0.18800234794616699
0.88947945833206177 0.12730391323566437 0.18877996504306793
0.93691593408584595 0.13621523976325989 0.19024629890918732
0.98433369398117065 0.14002496004104614 0.19300805032253265
0.011145513504743576 0.16516187787055969 0.18359452486038208
0.062188390642404556 0.16488185524940491 0.17997090518474579
0.1488478034734726 0.16285432875156403 0.17386525869369507
0.27360126376152039 0.16230645775794983 0.16345451772212982
0.4085552990436554 0.16485752165317535 0.15541614592075348
0.52721476554870605 0.16972063481807709 0.15646299719810486
0.62918531894683838 0.17853529751300812 0.16431741416454315
0.71857106685638428 0.18828876316547394 0.17786331474781036
0.79096859693527222 0.19461627304553986 0.18863765895366669
0.84672731161117554 0.19901980459690094 0.19016474485397339
0.89437341690063477 0.20638324320316315 0.19120848178863525
0.94059604406356812 0.21227018535137177 0.19387221336364746
0.98682940006256104 0.21557047963142395 0.19742225110530853
0.012042954564094543 0.23969726264476776 0.17408674955368042
0.058451589196920395 0.23973634839057922 0.16971030831336975
0.12815716862678528 0.24040776491165161 0.16287021338939667
0.24137850105762482 0.24208246171474457 0.15368407964706421
0.38411912322044373 0.24345128238201141 0.14669859409332275
0.51842129230499268 0.24810777604579926 0.14630240201950073
0.63353043794631958 0.25598761439323425 0.15180473029613495
0.72765922546386719 0.26506718993186951 0.16511169075965881
0.79965329170227051 0.27262777090072632 0.17862102389335632
0.85358422994613647 0.27651122212409973 0.18392528593540192
0.89934885501861572 0.27969330549240112 0.1870737224817276
0.94455844163894653 0.28371992707252502 0.19223730266094208
0.98932415246963501 0.28895384073257446 0.19789636135101318
0.014549405314028263 0.31685605645179749 0.16319653391838074
0.056860458105802536 0.31721767783164978 0.16026899218559265
0.11221034079790115 0.31866544485092163 0.1562158614397049
