assets/lut/editingcorp foresta.cube
# Created by: G'MIC (https://gmic.eu)
TITLE "foresta"
# LUT size
LUT_3D_SIZE 13
# Data domain
DOMAIN_MIN 0.0 0.0 0.0
DOMAIN_MAX 1.0 1.0 1.0
# LUT data points
0.015424840152263641 0.020363288000226021 0.028877347707748413
0.096790775656700134 0.03149140253663063 0.041062988340854645
0.19930726289749146 0.048932753503322601 0.057675007730722427
0.30580839514732361 0.051113653928041458 0.063844464719295502
0.41703161597251892 0.052087865769863129 0.073920384049415588
0.53504395484924316 0.070636436343193054 0.090189136564731598
0.6529155969619751 0.086682356894016266 0.10146868973970413
0.75060641765594482 0.0889863520860672 0.10598456859588623
0.81338071823120117 0.072476252913475037 0.10321169346570969
0.85423111915588379 0.054262977093458176 0.099267773330211639
0.89239847660064697 0.047563411295413971 0.099345847964286804
0.93387353420257568 0.04899413138628006 0.1030237227678299
0.97641289234161377 0.049173019826412201 0.10605477541685104
0.0098973140120506287 0.082374915480613708 0.025510765612125397
0.080718100070953369 0.088485121726989746 0.032854281365871429
0.18160378932952881 0.10477978736162186 0.044431198388338089
0.29106256365776062 0.11792299151420593 0.057366777211427689
0.4031062126159668 0.12491404265165329 0.072476468980312347
0.52285432815551758 0.13449028134346008 0.089457795023918152
0.6426880955696106 0.14049990475177765 0.1004914790391922
0.74116545915603638 0.13836632668972015 0.10571642220020294
0.80708301067352295 0.13073329627513885 0.10524079203605652
0.85041505098342896 0.12159613519906998 0.10489469021558762
0.89024275541305542 0.11774778366088867 0.10590185970067978
0.93298465013504028 0.11776184290647507 0.10775701701641083
0.97625404596328735 0.11744248867034912 0.1091955155134201
0.0093556875362992287 0.15284654498100281 0.030650747939944267
0.066895335912704468 0.15695019066333771 0.031576044857501984
0.15502406656742096 0.16666893661022186 0.035370200872421265
0.26589211821556091 0.17861880362033844 0.045734822750091553
0.38723957538604736 0.1903441995382309 0.060307789593935013
0.51493030786514282 0.19656956195831299 0.077145293354988098
0.63708347082138062 0.19516554474830627 0.089744508266448975
0.73659157752990723 0.19011029601097107 0.096731103956699371
0.80515402555465698 0.18696682155132294 0.099505588412284851
0.85050421953201294 0.18388882279396057 0.10288051515817642
0.89148151874542236 0.18154636025428772 0.10526519268751144
0.93442100286483765 0.18020543456077576 0.10659484565258026
0.97710412740707397 0.1790899783372879 0.10727440565824509
0.011763419024646282 0.22548410296440125 0.037391960620880127
0.05895233154296875 0.2263171374797821 0.03501911461353302
0.12988314032554626 0.23234008252620697 0.03320617601275444
0.23349246382713318 0.24403055012226105 0.036955170333385468
0.36372476816177368 0.25922766327857971 0.046416774392127991
0.5040212869644165 0.2685791552066803 0.059678710997104645
0.63370710611343384 0.26544278860092163 0.070842340588569641
0.7379031777381897 0.25648540258407593 0.078249000012874603
0.81147116422653198 0.24952970445156097 0.082765482366085052
0.86046624183654785 0.24600501358509064 0.087017446756362915
0.90044111013412476 0.24335211515426636 0.090467207133769989
0.9403952956199646 0.24144294857978821 0.093441903591156006
0.98049014806747437 0.24063840508460999 0.094914346933364868
0.019808929413557053 0.30066898465156555 0.052472177892923355
0.059834886342287064 0.29899844527244568 0.051402058452367783
0.1156005859375 0.30183830857276917 0.047630354762077332
0.20277383923530579 0.31264552474021912 0.042480841279029846
0.32794147729873657 0.33047285676002502 0.042025890201330185
0.47787147760391235 0.34715679287910461 0.046634044498205185
0.62175410985946655 0.34906649589538574 0.052432205528020859
0.73868626356124878 0.33602672815322876 0.058073829859495163
0.82039445638656616 0.32259887456893921 0.061757180839776993
0.87305295467376709 0.31525185704231262 0.064503520727157593
0.91231995820999146 0.31078162789344788 0.067624621093273163
0.94897425174713135 0.30828288197517395 0.071157805621623993
0.98564523458480835 0.30792704224586487 0.073912709951400757
0.031724054366350174 0.38185298442840576 0.075734324753284454
0.067009627819061279 0.37794950604438782 0.075170151889324188
0.111863873898983 0.37800467014312744 0.071100853383541107
0.17888177931308746 0.38591665029525757 0.05771230161190033
0.28307861089706421 0.40297225117683411 0.046033222228288651
0.43142884969711304 0.42730310559272766 0.041310075670480728
0.5941922664642334 0.44322174787521362 0.041169080883264542
0.73078036308288574 0.43480241298675537 0.04307180643081665
0.82441085577011108 0.41585975885391235 0.044296726584434509
0.88296246528625488 0.40055292844772339 0.044275157153606415
0.92325550317764282 0.39074575901031494 0.04516308382153511
0.95758563280105591 0.38607457280158997 0.048135675489902496
0.99009168148040771 0.38466712832450867 0.052402228116989136
0.04201158881187439 0.46836394071578979 0.089940287172794342
0.075725466012954712 0.46425199508666992 0.089801624417304993
0.11356192082166672 0.46240952610969543 0.085399001836776733
0.16508816182613373 0.46699219942092896 0.069712124764919281
0.24918000400066376 0.481760174036026 0.052207451313734055
0.3836158812046051 0.50834673643112183 0.045048028230667114
0.55209267139434814 0.53577548265457153 0.046461455523967743
0.70838499069213867 0.5450136661529541 0.04401252418756485
0.81793570518493652 0.53045099973678589 0.038861725479364395
0.8863295316696167 0.50666236877441406 0.032532263547182083
0.93087059259414673 0.49004203081130981 0.028108589351177216
0.9645649790763855 0.48021230101585388 0.030706817284226418
0.99336200952529907 0.47443279623985291 0.036601107567548752
0.049923423677682877 0.55527997016906738 0.091862380504608154
0.084956809878349304 0.55268585681915283 0.092504344880580902
0.11998000741004944 0.55107682943344116 0.086875393986701965
0.16315124928951263 0.55330836772918701 0.072263531386852264
0.2299606055021286 0.56433075666427612 0.054051928222179413
0.34018722176551819 0.58633148670196533 0.046479497104883194
0.49847480654716492 0.6141846776008606 0.059294622391462326
0.66732704639434814 0.63866227865219116 0.066115342080593109
0.79786515235900879 0.64157336950302124 0.057174772024154663
0.88369089365005493 0.62841767072677612 0.03425433486700058
0.93587225675582886 0.61027032136917114 0.019475227221846581
0.96951931715011597 0.59162306785583496 0.021730206906795502
0.99548190832138062 0.57861745357513428 0.028159093111753464
0.055500030517578125 0.63331639766693115 0.089887775480747223
0.094212807714939117 0.63386756181716919 0.090165019035339355
0.13105280697345734 0.63434815406799316 0.086738750338554382
0.16890230774879456 0.63437676429748535 0.074873082339763641
0.22114564478397369 0.63972079753875732 0.056021101772785187
0.30733165144920349 0.65606480836868286 0.041893679648637772
0.44688349962234497 0.68057388067245483 0.055117275565862656
0.61626672744750977 0.70659804344177246 0.087105348706245422
0.76641178131103516 0.72667264938354492 0.095910154283046722
0.87337374687194824 0.74009078741073608 0.051981490105390549
0.93685418367385864 0.73261022567749023 0.02228209562599659
0.97265493869781494 0.71104437112808228 0.021921688690781593
0.99724495410919189 0.69305950403213501 0.026034606620669365
0.056580964475870132 0.69753140211105347 0.08909028023481369
0.10002097487449646 0.70045381784439087 0.091601505875587463
0.13970416784286499 0.70091897249221802 0.090449102222919464
0.17593440413475037 0.69959014654159546 0.082231171429157257
0.2189241498708725 0.70076775550842285 0.065327510237693787
0.2895471453666687 0.71261119842529297 0.044579852372407913
0.40776380896568298 0.73454147577285767 0.039178617298603058
0.56678634881973267 0.75918704271316528 0.068774878978729248
0.726798415184021 0.78415805101394653 0.11018530279397964
0.85073834657669067 0.81152766942977905 0.095354221761226654
0.92830187082290649 0.82358288764953613 0.058480925858020782
0.97187244892120361 0.81661397218704224 0.040120877325534821
0.99829095602035522 0.80058646202087402 0.034855548292398453
0.05132872611284256 0.75080841779708862 0.087757453322410583
0.097866654396057129 0.75174462795257568 0.092731371521949768
0.13980646431446075 0.75091242790222168 0.094430036842823029
0.17492301762104034 0.74847912788391113 0.089987874031066895
0.20925246179103851 0.74870067834854126 0.074780300259590149
0.26295149326324463 0.75843650102615356 0.048158951103687286
0.36216184496879578 0.7789338231086731 0.022440487518906593
0.5145336389541626 0.80253815650939941 0.02955341711640358
0.68346023559570312 0.82450366020202637 0.084160536527633667
0.82161951065063477 0.84884190559387207 0.13315241038799286
0.91469377279281616 0.87508028745651245 0.11568979173898697
0.96991908550262451 0.88863182067871094 0.081096693873405457
0.99887913465499878 0.88406991958618164 0.060468263924121857
0.038609717041254044 0.79627197980880737 0.083554103970527649
0.085786961019039154 0.79591763019561768 0.089531391859054565
0.12728053331375122 0.79363769292831421 0.09271673858165741
0.15952834486961365 0.79111725091934204 0.088815696537494659
0.180865079164505 0.7922670841217041 0.073417156934738159
0.21533738076686859 0.80147111415863037 0.045770473778247833
0.29879221320152283 0.81912237405776978 0.016950584948062897
0.45281732082366943 0.84168028831481934 0.01378733292222023
0.6373334527015686 0.86120074987411499 0.061298519372940063
0.79416918754577637 0.88246798515319824 0.13248816132545471
0.90225440263748169 0.90957021713256836 0.14903266727924347
0.96887403726577759 0.932575523853302 0.12181471288204193
0.99949789047241211 0.94017845392227173 0.092712804675102234
0.018764659762382507 0.83930736780166626 0.075422756373882294
0.062724381685256958 0.83786141872406006 0.080277793109416962
0.10094694048166275 0.83551925420761108 0.08225308358669281
0.12711001932621002 0.83399897813796997 0.077821902930736542
0.14029619097709656 0.83640575408935547 0.063783712685108185
0.16436833143234253 0.84529811143875122 0.041297253221273422
0.237253338098526 0.86118501424789429 0.019630042836070061
0.3925967812538147 0.88063794374465942 0.017997860908508301
0.58756828308105469 0.8998485803604126 0.05991903692483902
0.76008933782577515 0.91792196035385132 0.12892162799835205
0.8813176155090332 0.94201129674911499 0.15825100243091583
0.9580112099647522 0.96756893396377563 0.14143836498260498
0.99812936782836914 0.98220759630203247 0.11325438320636749
0.017703605815768242 0.02206796407699585 0.12631027400493622
0.093254074454307556 0.02669944055378437 0.13944248855113983
0.19172406196594238 0.034476261585950851 0.1496216207742691
0.29902517795562744 0.036405973136425018 0.14575876295566559
0.41433453559875488 0.043505843728780746 0.14674219489097595
0.53382617235183716 0.062635339796543121 0.15255439281463623
0.65236586332321167 0.066856518387794495 0.15585349500179291
0.74977165460586548 0.056347612291574478 0.15519292652606964
0.81066310405731201 0.044196318835020065 0.15020541846752167
0.84857416152954102 0.036312445998191833 0.14452916383743286
0.88637310266494751 0.042041897773742676 0.14592041075229645
0.93012404441833496 0.054515659809112549 0.15239855647087097
0.97332543134689331 0.059063885360956192 0.15786164999008179
0.013621027581393719 0.091964900493621826 0.11531741917133331
0.07916705310344696 0.094765983521938324 0.11957968771457672
0.17484511435031891 0.10421878844499588 0.12455660104751587
0.28627243638038635 0.11377759277820587 0.1291535347700119
0.40363112092018127 0.12100710719823837 0.13724461197853088
0.52463722229003906 0.13327278196811676 0.14561478793621063
0.64324951171875 0.1338949054479599 0.15075621008872986
0.74091571569442749 0.1253473162651062 0.15193216502666473
0.80568444728851318 0.11730433255434036 0.1503368467092514
0.84791231155395508 0.11320311576128006 0.14891691505908966
0.88707691431045532 0.11715913563966751 0.15091244876384735
0.9309876561164856 0.12518391013145447 0.15510945022106171
0.97450876235961914 0.12806813418865204 0.15842410922050476
0.014964533969759941 0.161590576171875 0.11084719002246857
0.068350665271282196 0.16296353936195374 0.10679910331964493
0.15226519107818604 0.16907192766666412 0.10335678607225418
0.26614925265312195 0.17919909954071045 0.10905741900205612
0.39084362983703613 0.19014212489128113 0.11734406650066376
0.51858872175216675 0.19538448750972748 0.13021370768547058
0.63896328210830688 0.19238924980163574 0.13899949193000793
0.73798012733459473 0.18680793046951294 0.14254443347454071
0.80600303411483765 0.18326307833194733 0.1438731849193573
0.85049188137054443 0.18148557841777802 0.14645163714885712
0.8901863694190979 0.18253123760223389 0.14982412755489349
0.93309873342514038 0.18488018214702606 0.15330028533935547
0.97603052854537964 0.18632258474826813 0.15485985577106476
0.017824359238147736 0.23082315921783447 0.10547222197055817
0.059995748102664948 0.23011891543865204 0.10080068558454514
0.12669858336448669 0.23447965085506439 0.093096338212490082
0.23434922099113464 0.24593193829059601 0.094590924680233002
0.36767005920410156 0.26101541519165039 0.10032194852828979
0.50690263509750366 0.26787349581718445 0.1115194708108902
0.63613677024841309 0.26426848769187927 0.1204996332526207
0.74066436290740967 0.25637140870094299 0.12477894127368927
0.81348001956939697 0.25076669454574585 0.12694580852985382
0.86032211780548096 0.24735680222511292 0.13063164055347443
0.89865338802337646 0.2453143447637558 0.13579444587230682
0.93883270025253296 0.24391897022724152 0.14059995114803314
0.97958391904830933 0.24414728581905365 0.14291927218437195
0.024667777121067047 0.30186882615089417 0.10678546130657196
0.059843745082616806 0.29915845394134521 0.10727415233850479
0.11196905374526978 0.30170115828514099 0.10193657875061035
0.20066361129283905 0.31333383917808533 0.093763150274753571
0.32904112339019775 0.33332377672195435 0.091728180646896362
0.47877854108810425 0.34926292300224304 0.096194282174110413
0.62355875968933105 0.34983083605766296 0.10147437453269958
0.74112379550933838 0.33867341279983521 0.10398343950510025
0.82224267721176147 0.32563146948814392 0.10555926710367203
0.87275278568267822 0.31740465760231018 0.1085757240653038
0.91021990776062012 0.31256335973739624 0.11309712380170822
0.94746917486190796 0.30927178263664246 0.1181795746088028
0.98502302169799805 0.30874398350715637 0.12214396148920059
0.032204542309045792 0.37933936715126038 0.11779601126909256
0.064853712916374207 0.37515223026275635 0.1197315901517868
0.10679399222135544 0.37562373280525208 0.11653349548578262
0.17471411824226379 0.38505443930625916 0.1031058058142662
0.28480225801467896 0.40580272674560547 0.092607177793979645
0.43426734209060669 0.43020811676979065 0.090055517852306366
0.59523838758468628 0.44353291392326355 0.089908421039581299
0.73132354021072388 0.43621876835823059 0.088308922946453094
0.8255763053894043 0.41685676574707031 0.087647214531898499
0.88354790210723877 0.40022474527359009 0.089467816054821014
0.92252928018569946 0.39059111475944519 0.090960949659347534
0.95673877000808716 0.38533610105514526 0.094529017806053162
0.98949670791625977 0.38340979814529419 0.099306263029575348
0.040869064629077911 0.4644109308719635 0.12683205306529999
0.073028147220611572 0.46024039387702942 0.12899628281593323
0.1093195304274559 0.4588426947593689 0.12816376984119415
0.16259641945362091 0.46405848860740662 0.11648710817098618
0.25063526630401611 0.48142731189727783 0.099976949393749237
0.38579225540161133 0.50745224952697754 0.094938792288303375
0.55086392164230347 0.53172570466995239 0.09847298264503479
0.70484912395477295 0.54201728105545044 0.090145379304885864
0.81764417886734009 0.52981126308441162 0.080155283212661743
0.8883853554725647 0.50482428073883057 0.079961635172367096
0.93212443590164185 0.48807060718536377 0.076343417167663574
0.96454983949661255 0.4778391420841217 0.077655956149101257
0.99314206838607788 0.4727756679058075 0.083295710384845734
0.049980401992797852 0.55190491676330566 0.12872126698493958
0.083637550473213196 0.54894620180130005 0.13151425123214722
0.1176161989569664 0.54678452014923096 0.13042581081390381
0.16083087027072906 0.54886949062347412 0.12013033777475357
0.2297050803899765 0.56032055616378784 0.10347804427146912
0.34267997741699219 0.5815843939781189 0.1006021723151207
0.49811971187591553 0.60752260684967041 0.11713758111000061
0.66292601823806763 0.63615268468856812 0.11128715425729752
0.79657739400863647 0.64513015747070312 0.09303177148103714
0.8854224681854248 0.6279798150062561 0.080977223813533783
0.93728232383728027 0.60720866918563843 0.070306487381458282
0.96961706876754761 0.58804643154144287 0.07185884565114975
0.99531751871109009 0.5768733024597168 0.077960789203643799
0.057387214154005051 0.63128602504730225 0.12855392694473267
0.094888903200626373 0.63070172071456909 0.13014844059944153
0.1302943080663681 0.6299329400062561 0.13041128218173981
0.16777954995632172 0.62996387481689453 0.12219854444265366
0.22136402130126953 0.6360698938369751 0.10634801536798477
0.31138968467712402 0.6517338752746582 0.097363747656345367
0.44962948560714722 0.67636215686798096 0.1082722544670105
0.61493247747421265 0.70638442039489746 0.12695986032485962
0.7653425931930542 0.72947758436203003 0.13199400901794434
0.87323057651519775 0.73838251829147339 0.10489869862794876
0.93662786483764648 0.72836238145828247 0.078425705432891846
0.97209030389785767 0.7074819803237915 0.074018858373165131
0.99676549434661865 0.69150429964065552 0.076904639601707458
0.061179216951131821 0.69684511423110962 0.1289343535900116
0.10353600233793259 0.69731152057647705 0.13261495530605316
0.14243565499782562 0.69719702005386353 0.13455274701118469
0.17801132798194885 0.69625455141067505 0.12971992790699005
0.21981483697891235 0.69935417175292969 0.11410149931907654
0.28942233324050903 0.71110206842422485 0.09246489405632019
0.40640804171562195 0.73347026109695435 0.083234213292598724
0.56386184692382812 0.75970697402954102 0.10552418977022171
0.72504222393035889 0.78555822372436523 0.15137822926044464
0.8503410816192627 0.81096476316452026 0.1497102677822113
0.92816567420959473 0.82200503349304199 0.11401371657848358
0.97183310985565186 0.81494426727294922 0.089768022298812866
0.99763667583465576 0.80039000511169434 0.083646990358829498
0.058660201728343964 0.74931055307388306 0.12978710234165192
0.10517304390668869 0.74931192398071289 0.13526548445224762
0.14760740101337433 0.74790853261947632 0.13942255079746246
0.1828075498342514 0.74617373943328857 0.13615186512470245
0.21224908530712128 0.74882102012634277 0.1195024698972702
0.26007089018821716 0.75962162017822266 0.090198114514350891
0.35752150416374207 0.77961915731430054 0.06475955992937088
0.50969803333282471 0.80293446779251099 0.075209252536296844
0.68054598569869995 0.82516050338745117 0.13877964019775391
0.82147127389907837 0.84919983148574829 0.18716801702976227
0.91534698009490967 0.87491834163665771 0.16794069111347198
0.97056823968887329 0.88863861560821533 0.12888963520526886
0.99872761964797974 0.88521361351013184 0.10868606716394424
0.048369240015745163 0.79466056823730469 0.12655581533908844
0.096254430711269379 0.79310190677642822 0.13264006376266479
0.14107289910316467 0.79040026664733887 0.13654963672161102
0.17489266395568848 0.78887730836868286 0.13347899913787842
0.18860641121864319 0.79138833284378052 0.11685891449451447
0.21414445340633392 0.80192190408706665 0.089011222124099731
0.29580184817314148 0.82070904970169067 0.062095567584037781
0.45018786191940308 0.8421599268913269 0.061158902943134308
0.63576757907867432 0.86132073402404785 0.11285539716482162
0.79264438152313232 0.88082790374755859 0.18423794209957123
0.90192973613739014 0.90802019834518433 0.19909735023975372
0.9698796272277832 0.93394982814788818 0.1687970906496048
0.99964529275894165 0.94261389970779419 0.13983871042728424
0.029945733025670052 0.8371313214302063 0.11826875060796738
0.075642049312591553 0.83480978012084961 0.12220799922943115
0.11594747006893158 0.83211284875869751 0.12401779741048813
0.14276009798049927 0.83075356483459473 0.11941508948802948
0.14973674714565277 0.834300696849823 0.10609669238328934
0.16656161844730377 0.84423947334289551 0.086075350642204285
0.23936201632022858 0.86114954948425293 0.065365448594093323
0.39545655250549316 0.88332736492156982 0.057198032736778259
0.5903359055519104 0.90204840898513794 0.092338114976882935
0.75811851024627686 0.91819155216217041 0.16369983553886414
0.88023930788040161 0.942108154296875 0.19629107415676117
0.96031647920608521 0.97003579139709473 0.18128857016563416
0.99890279769897461 0.9855690598487854 0.15526001155376434
0.026004761457443237 0.031781602650880814 0.22931942343711853
0.088590584695339203 0.032726813107728958 0.23939667642116547
0.17283844947814941 0.03259524330496788 0.24722248315811157
0.28274008631706238 0.034058395773172379 0.2464415431022644
0.40762162208557129 0.045171625912189484 0.24300247430801392
0.52986925840377808 0.059386666864156723 0.23464383184909821
0.64670616388320923 0.059279646724462509 0.22409056127071381
0.74358922243118286 0.043089833110570908 0.21597841382026672
0.80370891094207764 0.036404389888048172 0.20885969698429108
0.84151440858840942 0.039106525480747223 0.20299024879932404
0.87979161739349365 0.051827583461999893 0.20336472988128662
0.92422723770141602 0.068412646651268005 0.20877392590045929
0.96764630079269409 0.072027646005153656 0.2138221263885498
0.026040874421596527 0.1088322177529335 0.2158929705619812
0.079741142690181732 0.10901477187871933 0.22153192758560181
0.16003626585006714 0.10937314480543137 0.22747308015823364
0.2713552713394165 0.11085477471351624 0.23060019314289093
0.39820420742034912 0.11882174760103226 0.23110932111740112
0.52203404903411865 0.13178321719169617 0.22519718110561371
0.63769030570983887 0.13585343956947327 0.2164737731218338
0.73449772596359253 0.12753212451934814 0.21006469428539276
0.79892456531524658 0.11932684481143951 0.20569850504398346
0.84129351377487183 0.11892887204885483 0.20261003077030182
0.88152635097503662 0.12658834457397461 0.20358298718929291
0.92686384916305542 0.13823573291301727 0.20720513164997101
0.9706992506980896 0.1407928466796875 0.21030262112617493
0.027016298845410347 0.17713363468647003 0.20417751371860504
0.072767607867717743 0.17584355175495148 0.20432579517364502
0.14487972855567932 0.17680637538433075 0.20277354121208191
0.2545144259929657 0.17968122661113739 0.20553827285766602
0.38447344303131104 0.18642476201057434 0.20772024989128113
0.51446354389190674 0.19149743020534515 0.20834042131900787
0.63399809598922729 0.1919122040271759 0.2051306813955307
0.73301988840103149 0.19097223877906799 0.20161759853363037
0.80087816715240479 0.18749994039535522 0.19957262277603149
0.84587675333023071 0.18556919693946838 0.19971352815628052
0.88625657558441162 0.18770727515220642 0.20132021605968475
0.93027216196060181 0.19176693260669708 0.20494385063648224
0.97364747524261475 0.19443342089653015 0.20649205148220062
0.027050511911511421 0.24400053918361664 0.19414925575256348
0.066551938652992249 0.24114473164081573 0.1933111846446991
0.12563906610012054 0.24202346801757812 0.18679431080818176
0.22866453230381012 0.24875500798225403 0.18295364081859589
0.36479967832565308 0.25968962907791138 0.18434968590736389
0.50304973125457764 0.264699786901474 0.18715031445026398
0.63170504570007324 0.26261284947395325 0.18735978007316589
0.73714029788970947 0.25827175378799438 0.18601645529270172
0.81013131141662598 0.25497874617576599 0.18304377794265747
0.85620379447937012 0.25156733393669128 0.18451255559921265
0.894878089427948 0.24939088523387909 0.18905743956565857
0.93713772296905518 0.24799032509326935 0.19433461129665375
0.97858637571334839 0.24901840090751648 0.19685657322406769
0.030738173052668571 0.31077614426612854 0.18831281363964081
0.065364837646484375 0.30760994553565979 0.18824826180934906
0.11122079193592072 0.30735096335411072 0.18062563240528107
0.1945892870426178 0.31604769825935364 0.16636411845684052
