assets/lut/editingcorpw Peach Perfection.cube
LUT_3D_SIZE 6
DOMAIN_MIN 0.0 0.0 0.0
DOMAIN_MAX 1.0 1.0 1.0
0.138949 0.131136 0.172091
0.231864 0.175869 0.204715
0.382983 0.253556 0.262175
0.569335 0.347679 0.337872
0.786997 0.456563 0.440424
0.983948 0.617517 0.620264
0.203134 0.207626 0.225797
0.217534 0.214198 0.236222
0.433155 0.271794 0.237455
0.604726 0.354090 0.320601
0.811936 0.459436 0.425245
0.997058 0.615527 0.607367
0.315843 0.334551 0.322289
0.328796 0.336433 0.330317
0.344511 0.344030 0.344558
0.685701 0.451341 0.260670
0.897382 0.507502 0.358366
1.000000 0.623615 0.555749
0.443104 0.476325 0.447779
0.453580 0.478293 0.455035
0.477371 0.477931 0.476317
0.495206 0.493676 0.496820
0.844220 0.639609 0.434927
1.000000 0.677705 0.428144
0.635627 0.685121 0.665553
0.641367 0.683842 0.668443
0.668662 0.687237 0.689214
0.699796 0.697245 0.722794
0.727175 0.724384 0.750829
0.956469 0.848814 0.763033
0.884337 0.909575 0.902281
0.887577 0.910332 0.904314
0.899248 0.913024 0.911907
0.916057 0.918126 0.924889
0.933214 0.931023 0.940825
0.953429 0.951751 0.958648
0.174173 0.166696 0.225791
0.200618 0.196446 0.222356
0.338765 0.286217 0.300588
0.522212 0.385724 0.387079
0.753891 0.485399 0.486868
0.962200 0.639472 0.654572
0.193794 0.227607 0.246488
0.247074 0.245488 0.261313
0.381973 0.303584 0.305890
0.563988 0.380871 0.371340
0.782384 0.483385 0.472046
0.977564 0.637039 0.643610
0.316942 0.346345 0.329375
0.339381 0.353507 0.342405
0.358540 0.357972 0.357377
0.685604 0.449306 0.297223
0.878935 0.514538 0.408817
1.000000 0.640524 0.597057
0.448733 0.489129 0.458431
0.461515 0.492117 0.466990
0.487203 0.489813 0.486679
0.504847 0.503292 0.507531
0.857520 0.644752 0.446088
1.000000 0.685429 0.479494
0.641235 0.695089 0.674698
0.649462 0.695931 0.679868
0.678041 0.699165 0.700313
0.706980 0.704372 0.730250
0.733533 0.730693 0.757212
0.962245 0.852553 0.767665
0.885814 0.912206 0.904271
0.889781 0.913493 0.906847
0.900566 0.915270 0.913475
0.917504 0.920110 0.926203
0.934446 0.932297 0.941930
0.954394 0.952746 0.959484
0.238736 0.230503 0.321080
0.271411 0.251607 0.313977
0.303822 0.303309 0.308784
0.433587 0.402915 0.409608
0.669974 0.525296 0.556184
0.894121 0.710512 0.749148
0.245095 0.270293 0.353850
0.289694 0.285348 0.346694
0.327764 0.327271 0.329667
0.460235 0.419217 0.427814
0.689205 0.540196 0.568850
0.901025 0.725953 0.760051
0.271525 0.371732 0.368295
0.302150 0.380552 0.377164
0.403799 0.402409 0.400706
0.575200 0.472340 0.469303
0.790326 0.574733 0.579807
0.969445 0.715716 0.732543
0.431695 0.507178 0.471877
0.451184 0.515889 0.483935
0.513947 0.532295 0.522191
0.541022 0.539410 0.548068
0.908941 0.656588 0.494628
1.000000 0.723266 0.645244
0.627598 0.710420 0.680115
0.644807 0.718013 0.692546
0.693872 0.729247 0.724551
0.730857 0.729866 0.753780
0.755672 0.752676 0.779058
0.983521 0.861969 0.779898
0.879460 0.916375 0.903368
0.887042 0.918966 0.908285
0.902386 0.922075 0.917296
0.921447 0.926708 0.930077
0.938858 0.936785 0.945804
0.957964 0.956414 0.962627
0.320805 0.312658 0.456807
0.345809 0.324778 0.450361
0.400411 0.372816 0.420224
0.418517 0.417393 0.415250
0.548215 0.546169 0.555864
0.822422 0.719466 0.769564
0.324248 0.336597 0.481824
0.352921 0.346834 0.475685
0.416001 0.388328 0.442598
0.434721 0.433426 0.431806
0.560900 0.557536 0.569198
0.832567 0.726943 0.776189
0.245526 0.414267 0.549900
0.288375 0.416566 0.555994
0.446576 0.443760 0.530431
0.495486 0.493987 0.497172
0.644654 0.611826 0.639985
0.881770 0.771306 0.812947
0.338777 0.544924 0.548903
0.363620 0.551469 0.556638
0.453601 0.568215 0.577279
0.593624 0.592982 0.608681
0.808297 0.695570 0.716946
0.961903 0.814476 0.832619
0.581300 0.728742 0.698403
0.599282 0.735569 0.707424
0.657378 0.750055 0.731189
0.758526 0.776666 0.785805
0.790486 0.787267 0.812357
1.000000 0.867815 0.800098
0.839433 0.914421 0.888047
0.849004 0.916875 0.892933
0.883366 0.926237 0.911352
0.925881 0.939201 0.936889
0.946903 0.945347 0.952795
0.964971 0.963622 0.968829
0.425409 0.419788 0.685249
0.449027 0.428991 0.679172
0.520595 0.468639 0.652630
0.573144 0.550563 0.595645
0.589272 0.587485 0.602334
0.744143 0.741195 0.767757
0.424896 0.436999 0.703647
0.451272 0.446263 0.699019
0.528345 0.483075 0.671669
0.586172 0.560424 0.613287
0.598060 0.596227 0.612175
0.753382 0.750378 0.776838
0.366806 0.490536 0.764785
0.414736 0.500767 0.761596
0.535975 0.532029 0.737162
0.633873 0.599566 0.683140
0.645659 0.643540 0.664912
0.789351 0.786131 0.811311
0.244305 0.625960 0.797504
0.291566 0.628877 0.803621
0.421263 0.626204 0.816323
0.666165 0.661588 0.789332
0.720538 0.717799 0.744150
0.865290 0.845996 0.871109
0.427654 0.777849 0.796567
0.454041 0.782528 0.801382
0.544061 0.794142 0.813656
0.687385 0.813809 0.834514
0.835858 0.832500 0.854902
0.969280 0.917701 0.927348
0.807852 0.928557 0.903850
0.817398 0.930436 0.906809
0.848054 0.935513 0.915662
0.896700 0.944992 0.932043
0.956454 0.962813 0.962611
0.977184 0.976281 0.979639
0.669001 0.653651 0.931670
0.685365 0.661946 0.929106
0.743093 0.696223 0.918285
0.813920 0.758078 0.895250
0.837113 0.833762 0.855436
0.853727 0.850492 0.870420
0.665949 0.659821 0.934539
0.683611 0.668672 0.932398
0.742599 0.701609 0.921762
0.815344 0.761298 0.899032
0.840243 0.835300 0.858733
0.856199 0.852964 0.872612
0.650831 0.687758 0.949810
0.670632 0.695280 0.947637
0.739675 0.726175 0.938275
0.825377 0.782041 0.918453
0.863893 0.851607 0.882851
0.874486 0.871403 0.888981
0.499956 0.702266 0.972302
0.538239 0.709566 0.971124
0.667115 0.743353 0.964563
0.816767 0.806208 0.947315
0.892528 0.870075 0.917939
0.902189 0.899382 0.913487
0.546185 0.846330 0.968750
0.563408 0.846996 0.969386
0.628787 0.849390 0.971836
0.739218 0.854889 0.976657
0.909590 0.904145 0.964420
0.944664 0.942767 0.950933
0.738064 0.964904 0.966003
0.746615 0.965246 0.966394
0.783236 0.967273 0.968652
0.846469 0.971886 0.973559
0.923467 0.980859 0.982464
0.998810 0.998749 0.998932
