assets/lut/editingcorp ensaya.cube
# Created by: G'MIC (https://gmic.eu)
TITLE "ensaya"
# LUT size
LUT_3D_SIZE 13
# Data domain
DOMAIN_MIN 0.0 0.0 0.0
DOMAIN_MAX 1.0 1.0 1.0
# LUT data points
0.018927285447716713 0.016480794176459312 0.016065813601016998
0.091328836977481842 0.031158102676272392 0.020116858184337616
0.18475136160850525 0.039754185825586319 0.026706621050834656
0.29151821136474609 0.04131610319018364 0.034077513962984085
0.40670248866081238 0.03911425918340683 0.041513197124004364
0.52352613210678101 0.040672872215509415 0.049154829233884811
0.63198757171630859 0.041321173310279846 0.054376520216464996
0.7202678918838501 0.036314856261014938 0.055399935692548752
0.78888511657714844 0.026828046888113022 0.054142266511917114
0.84629607200622559 0.016515454277396202 0.051838278770446777
0.89953535795211792 0.0080068549141287804 0.049170341342687607
0.95119494199752808 0.0028808293864130974 0.048486374318599701
0.9948076605796814 0.00048576804692856967 0.050003860145807266
0.028297409415245056 0.076964102685451508 0.018111495301127434
0.09101974219083786 0.084867529571056366 0.021536719053983688
0.1758493036031723 0.09479077160358429 0.026678226888179779
0.27638915181159973 0.098073534667491913 0.032262209802865982
0.3890184760093689 0.09671434760093689 0.038100387901067734
0.5079389214515686 0.093850992619991302 0.045337706804275513
0.61812198162078857 0.091845706105232239 0.05076884850859642
0.71085256338119507 0.088430739939212799 0.052286230027675629
0.78311991691589355 0.082185842096805573 0.052142903208732605
0.84231728315353394 0.073031827807426453 0.051479984074831009
0.89592969417572021 0.062153100967407227 0.049894176423549652
0.94724905490875244 0.052007067948579788 0.04830334335565567
0.99293065071105957 0.042955990880727768 0.048252839595079422
0.039725657552480698 0.15010720491409302 0.017664007842540741
0.092843450605869293 0.15116828680038452 0.019235873594880104
0.1681894063949585 0.15519024431705475 0.024358486756682396
0.26255762577056885 0.15770438313484192 0.030373862013220787
0.37208569049835205 0.15634056925773621 0.036514267325401306
0.48886346817016602 0.15155541896820068 0.043342035263776779
0.60281407833099365 0.14772538840770721 0.048424094915390015
0.70245957374572754 0.14326854050159454 0.050623726099729538
0.7811284065246582 0.13792324066162109 0.051930911839008331
0.84219539165496826 0.13197675347328186 0.051999557763338089
0.89459437131881714 0.12558439373970032 0.051210187375545502
0.9449235200881958 0.11983635276556015 0.04868277907371521
0.99128824472427368 0.11450155079364777 0.047289591282606125
0.050933253020048141 0.22979404032230377 0.017048494890332222
0.098042100667953491 0.22802208364009857 0.015843065455555916
0.1655595451593399 0.22821897268295288 0.020052323117852211
0.25285160541534424 0.22999502718448639 0.02623290941119194
0.35509297251701355 0.22821176052093506 0.033729150891304016
0.46938678622245789 0.22458893060684204 0.041311495006084442
0.58821123838424683 0.21837598085403442 0.04752209410071373
0.69737100601196289 0.21030931174755096 0.05151035264134407
0.78320026397705078 0.2030690610408783 0.05333486944437027
0.84460675716400146 0.19908536970615387 0.053556092083454132
0.89449912309646606 0.19663198292255402 0.052306246012449265
0.94395947456359863 0.19405834376811981 0.049652427434921265
0.99062490463256836 0.19148041307926178 0.047573328018188477
0.071115501224994659 0.31966462731361389 0.020107896998524666
0.11523722857236862 0.31587523221969604 0.018136147409677505
0.17424465715885162 0.31508445739746094 0.019218938425183296
0.25071525573730469 0.31446138024330139 0.024250958114862442
0.34303680062294006 0.31314119696617126 0.031972803175449371
0.45207470655441284 0.31096747517585754 0.040963206440210342
0.57446897029876709 0.30571079254150391 0.048328638076782227
0.69388264417648315 0.29422393441200256 0.054469972848892212
0.7882724404335022 0.28299614787101746 0.057756401598453522
0.84932374954223633 0.27953308820724487 0.05737590417265892
0.89599567651748657 0.27934935688972473 0.055033843964338303
0.94517236948013306 0.27759549021720886 0.051974382251501083
0.99127048254013062 0.27581200003623962 0.049509834498167038
0.092936709523200989 0.4184359610080719 0.025236556306481361
0.13572719693183899 0.41511377692222595 0.023194616660475731
0.18741188943386078 0.41245067119598389 0.02265249565243721
0.25482878088951111 0.40929427742958069 0.026199759915471077
0.33936777710914612 0.40637794137001038 0.034336388111114502
0.44339227676391602 0.40451446175575256 0.043857842683792114
0.56165611743927002 0.40641641616821289 0.050674919039011002
0.68492418527603149 0.39853298664093018 0.057620327919721603
0.78835481405258179 0.38331702351570129 0.062406174838542938
0.8557698130607605 0.37570872902870178 0.062273737043142319
0.90323019027709961 0.37386074662208557 0.059579454362392426
0.9499204158782959 0.37164288759231567 0.055927053093910217
0.99297887086868286 0.36934515833854675 0.052504327148199081
0.099919892847537994 0.52320241928100586 0.027497684583067894
0.14456978440284729 0.520111083984375 0.027725998312234879
0.19331152737140656 0.51663541793823242 0.027770726010203362
0.25506281852722168 0.5122489333152771 0.030786387622356415
0.33669757843017578 0.50562083721160889 0.038559559732675552
0.43974930047988892 0.50037389993667603 0.049512527883052826
0.55251157283782959 0.50747382640838623 0.056711472570896149
0.6693950891494751 0.51327973604202271 0.061042487621307373
0.77741992473602295 0.50170189142227173 0.064393393695354462
0.85570663213729858 0.4875064492225647 0.064935781061649323
0.90818846225738525 0.48145765066146851 0.062836997210979462
0.95405209064483643 0.47714477777481079 0.058886822313070297
0.99446475505828857 0.47236058115959167 0.054026167839765549
0.087272047996520996 0.63090616464614868 0.025915453210473061
0.13564296066761017 0.62732398509979248 0.028224796056747437
0.18434984982013702 0.6240546703338623 0.029243962839245796
0.2421187162399292 0.62059223651885986 0.031686507165431976
0.31988438963890076 0.61353445053100586 0.038233738392591476
0.42226335406303406 0.60467875003814697 0.049951605498790741
0.53647541999816895 0.60808730125427246 0.059502486139535904
0.64973336458206177 0.62296086549758911 0.062154911458492279
0.75693559646606445 0.62136948108673096 0.062344137579202652
0.84328943490982056 0.60769021511077881 0.062314607203006744
0.90412908792495728 0.59835851192474365 0.060433734208345413
0.95347261428833008 0.59106051921844482 0.056625813245773315
0.99453669786453247 0.5829886794090271 0.05101737380027771
0.063059188425540924 0.73336613178253174 0.020931484177708626
0.11449068784713745 0.72907978296279907 0.024813558906316757
0.16388899087905884 0.72655755281448364 0.026480028405785561
0.21705935895442963 0.72657835483551025 0.026960080489516258
0.28873786330223083 0.72321373224258423 0.030662640929222107
0.38875547051429749 0.71314328908920288 0.041175123304128647
0.50489681959152222 0.71039462089538574 0.051627498120069504
0.62219417095184326 0.72022068500518799 0.055267110466957092
0.73232585191726685 0.72489213943481445 0.054323174059391022
0.82529687881469727 0.71911019086837769 0.052553709596395493
0.89589446783065796 0.71175122261047363 0.050418209284543991
0.95063388347625732 0.704170823097229 0.047089193016290665
0.99403995275497437 0.69428187608718872 0.042323034256696701
0.042323272675275803 0.81679940223693848 0.016661625355482101
0.094387739896774292 0.81303548812866211 0.021267145872116089
0.14378398656845093 0.81108909845352173 0.023184487596154213
0.19426882266998291 0.81380575895309448 0.022563336417078972
0.25998947024345398 0.81415200233459473 0.023611061275005341
0.35377985239028931 0.80695509910583496 0.030807001516222954
0.46782359480857849 0.80275994539260864 0.038772627711296082
0.58929657936096191 0.80640172958374023 0.042765926569700241
0.70709091424942017 0.81132298707962036 0.042006652802228928
0.80983877182006836 0.81240779161453247 0.038974449038505554
0.88977259397506714 0.81072264909744263 0.03602561354637146
0.94878458976745605 0.80683457851409912 0.0336899533867836
0.99331367015838623 0.79808336496353149 0.030729586258530617
0.032130088657140732 0.87772202491760254 0.014086420647799969
0.083226189017295837 0.87534970045089722 0.018891921266913414
0.13289535045623779 0.87419378757476807 0.02192707359790802
0.18313699960708618 0.87605684995651245 0.022049788385629654
0.24396151304244995 0.87848544120788574 0.020789830014109612
0.32769444584846497 0.87651956081390381 0.024189084768295288
0.43504798412322998 0.87537264823913574 0.028617305681109428
0.55816620588302612 0.87718349695205688 0.031397905200719833
0.68337881565093994 0.88175493478775024 0.03076324425637722
0.79687386751174927 0.8862718939781189 0.027453582733869553
0.88636231422424316 0.89004504680633545 0.024852827191352844
0.94883996248245239 0.89188075065612793 0.02301177941262722
0.99316853284835815 0.88709431886672974 0.020672053098678589
0.027821918949484825 0.92615747451782227 0.0096516329795122147
0.078673571348190308 0.92392861843109131 0.015214912593364716
0.12941597402095795 0.92167049646377563 0.019559942185878754
0.17939381301403046 0.92284369468688965 0.020792882889509201
0.23480746150016785 0.92649096250534058 0.019352678209543228
0.30892783403396606 0.92850816249847412 0.020030766725540161
0.40907430648803711 0.92995959520339966 0.021836718544363976
0.53175628185272217 0.93310809135437012 0.023070331662893295
0.66207993030548096 0.93773478269577026 0.022792516276240349
0.78391456604003906 0.94331705570220947 0.021204002201557159
0.88354426622390747 0.94878268241882324 0.019424887374043465
0.95255106687545776 0.95474517345428467 0.017919756472110748
0.99529242515563965 0.95498448610305786 0.015041111968457699
0.024321597069501877 0.97140616178512573 0.004282049834728241
0.075420618057250977 0.96861082315444946 0.0086817871779203415
0.126068115234375 0.96614253520965576 0.013017198070883751
0.17614863812923431 0.96645641326904297 0.015264772810041904
0.23032364249229431 0.9696471095085144 0.014598966576159
0.2986912727355957 0.97273147106170654 0.014680585823953152
0.39260849356651306 0.97570431232452393 0.015899254009127617
0.51343339681625366 0.98001128435134888 0.016506688669323921
0.64379173517227173 0.98448091745376587 0.016749782487750053
0.7682228684425354 0.98884260654449463 0.016599647700786591
0.87428247928619385 0.99221783876419067 0.01627565361559391
0.9513896107673645 0.99558919668197632 0.014587985351681709
0.99652379751205444 0.99690902233123779 0.010881910100579262
0.016449738293886185 0.015370567329227924 0.058730915188789368
0.083407081663608551 0.022912269458174706 0.063576780259609222
0.1759520024061203 0.030487509444355965 0.07423662394285202
0.28457307815551758 0.033942472189664841 0.085336439311504364
0.40172970294952393 0.03663991391658783 0.095716558396816254
0.51922476291656494 0.041018467396497726 0.10592780262231827
0.62957286834716797 0.041267290711402893 0.11122667044401169
0.72086822986602783 0.036945492029190063 0.11052826792001724
0.78943395614624023 0.030154896900057793 0.10774531960487366
0.84457153081893921 0.020328881219029427 0.10434798896312714
0.89567989110946655 0.010960373096168041 0.10170280933380127
0.94594019651412964 0.004613928496837616 0.10221991688013077
0.99196779727935791 0.0013686235761269927 0.10695615410804749
0.020673340186476707 0.073744215071201324 0.060126658529043198
0.081050112843513489 0.079697117209434509 0.063463203608989716
0.16831481456756592 0.089068226516246796 0.073505789041519165
0.27155271172523499 0.095682419836521149 0.081227153539657593
0.38524600863456726 0.099331334233283997 0.087338283658027649
0.50436156988143921 0.097779668867588043 0.09671889990568161
0.61835455894470215 0.093085303902626038 0.10310280323028564
0.71358579397201538 0.088400833308696747 0.10340046882629395
0.78454548120498657 0.083720125257968903 0.102472223341465
0.84097886085510254 0.076262801885604858 0.10147655755281448
0.89235860109329224 0.066046707332134247 0.1000414714217186
0.94220227003097534 0.05605747178196907 0.09991028904914856
0.98947882652282715 0.047126501798629761 0.10253182053565979
0.030840691179037094 0.14400869607925415 0.061833087354898453
0.084494329988956451 0.14752295613288879 0.062041487544775009
0.16195394098758698 0.15182062983512878 0.070644497871398926
0.25787857174873352 0.15642277896404266 0.07821548730134964
0.3684992790222168 0.15831941366195679 0.083886764943599701
0.4885716438293457 0.15445227921009064 0.091233707964420319
0.60583788156509399 0.14809216558933258 0.096862763166427612
0.70698815584182739 0.14203731715679169 0.09824739396572113
0.78392320871353149 0.13761299848556519 0.098306424915790558
0.84196126461029053 0.13273195922374725 0.099146045744419098
0.89198237657546997 0.12679183483123779 0.099456846714019775
0.94067060947418213 0.12122897058725357 0.098381549119949341
0.98829430341720581 0.11631158739328384 0.099633283913135529
0.046384818851947784 0.22539350390434265 0.062310971319675446
0.094686232507228851 0.22710360586643219 0.06025836244225502
0.16197890043258667 0.22733795642852783 0.064691044390201569
0.24956786632537842 0.22783839702606201 0.071193262934684753
0.35393023490905762 0.22765551507472992 0.078340671956539154
0.47179162502288818 0.2247549444437027 0.086485907435417175
0.59357732534408569 0.21690581738948822 0.093410030007362366
0.70289325714111328 0.20795689523220062 0.096776150166988373
0.78649783134460449 0.20127619802951813 0.097901813685894012
0.84507972002029419 0.19746869802474976 0.098401822149753571
0.8928946852684021 0.19548122584819794 0.098027579486370087
0.94099932909011841 0.19230383634567261 0.096821069717407227
0.98834002017974854 0.19045943021774292 0.097575411200523376
0.069419130682945251 0.31738695502281189 0.063461557030677795
0.11411373317241669 0.3154204785823822 0.061442490667104721
0.17272569239139557 0.31388306617736816 0.061508432030677795
0.24986560642719269 0.31272965669631958 0.064703501760959625
0.34438028931617737 0.31217256188392639 0.072765454649925232
0.45583251118659973 0.30940335988998413 0.083186939358711243
0.5800405740737915 0.30237048864364624 0.09297865629196167
0.69913548231124878 0.29093712568283081 0.099641986191272736
0.78923434019088745 0.28161787986755371 0.10162822902202606
0.84900188446044922 0.27720266580581665 0.10098793357610703
0.89515429735183716 0.27566736936569214 0.09942132979631424
0.9430549144744873 0.27344316244125366 0.097780011594295502
0.98957657814025879 0.27207338809967041 0.097938090562820435
0.094592705368995667 0.41833215951919556 0.066042862832546234
0.13788163661956787 0.41441398859024048 0.065652735531330109
0.18930767476558685 0.41122975945472717 0.06445891410112381
0.25644394755363464 0.40805742144584656 0.065148390829563141
0.3407571017742157 0.40547096729278564 0.07287229597568512
0.44378912448883057 0.40352556109428406 0.083779983222484589
0.5647435188293457 0.40251943469047546 0.09441106766462326
0.68852078914642334 0.3953433632850647 0.10309162735939026
0.78710472583770752 0.38373729586601257 0.10656516999006271
0.85348290205001831 0.37441608309745789 0.10606256872415543
0.90179717540740967 0.3696039617061615 0.1040455549955368
0.94799411296844482 0.36600315570831299 0.10208418965339661
0.99163877964019775 0.3630671501159668 0.10128214210271835
0.10822430998086929 0.52277696132659912 0.070635147392749786
0.15367738902568817 0.51851367950439453 0.071502670645713806
0.20130716264247894 0.51443129777908325 0.071540027856826782
0.26060712337493896 0.51003813743591309 0.072724379599094391
0.33842843770980835 0.50534522533416748 0.078351117670536041
0.43731403350830078 0.50219839811325073 0.088511720299720764
0.55176413059234619 0.50683355331420898 0.098805807530879974
0.6698232889175415 0.51277881860733032 0.10609706491231918
0.77527976036071777 0.50398033857345581 0.1095898225903511
0.85247820615768433 0.48887202143669128 0.10997456312179565
0.90613585710525513 0.47874563932418823 0.10827295482158661
0.95193290710449219 0.47167736291885376 0.10605618357658386
0.99314820766448975 0.46574127674102783 0.10398109257221222
0.10010179877281189 0.6295660138130188 0.072789691388607025
0.1506679505109787 0.62452715635299683 0.074197731912136078
0.19843761622905731 0.62024283409118652 0.075709305703639984
0.25277122855186462 0.61646354198455811 0.076555885374546051
0.32549834251403809 0.61112922430038452 0.0798683762550354
0.42323046922683716 0.60450345277786255 0.089551649987697601
0.53737366199493408 0.60611289739608765 0.1015041396021843
0.65199083089828491 0.62064194679260254 0.10707050561904907
0.75778639316558838 0.62301313877105713 0.10800591111183167
0.84263354539871216 0.61059337854385376 0.10726907849311829
0.90256226062774658 0.59854865074157715 0.1061418280005455
0.95135670900344849 0.58831894397735596 0.1038910374045372
0.99358963966369629 0.57843804359436035 0.10038230568170547
0.073389448225498199 0.73668205738067627 0.068366214632987976
0.12910780310630798 0.72837179899215698 0.071361735463142395
0.1788887083530426 0.72293627262115479 0.072449415922164917
0.23001506924629211 0.72131192684173584 0.071750685572624207
0.29758283495903015 0.71817433834075928 0.072726801037788391
0.39248165488243103 0.71076816320419312 0.080640532076358795
0.50788885354995728 0.70804572105407715 0.092373088002204895
0.62648653984069824 0.71902954578399658 0.098191715776920319
0.73677867650985718 0.72736930847167969 0.097525589168071747
0.82872492074966431 0.7230684757232666 0.095153436064720154
0.89714592695236206 0.71467381715774536 0.093545801937580109
0.95091581344604492 0.70462125539779663 0.091526374220848083
0.99351626634597778 0.69307959079742432 0.089140333235263824
0.049817658960819244 0.82195472717285156 0.063757769763469696
0.10514751076698303 0.81409150362014771 0.06748218834400177
0.15518730878829956 0.80990809202194214 0.067833706736564636
0.20431695878505707 0.8104851245880127 0.065263442695140839
0.26692906022071838 0.81075954437255859 0.063894353806972504
0.35643172264099121 0.80634140968322754 0.068199917674064636
0.46991103887557983 0.80336576700210571 0.076564952731132507
0.59357273578643799 0.80821579694747925 0.081933282315731049
0.71293097734451294 0.8146665096282959 0.081771865487098694
0.81588035821914673 0.81707262992858887 0.078100509941577911
0.8944053053855896 0.81492680311203003 0.076180040836334229
0.95098894834518433 0.80919307470321655 0.075560763478279114
0.99389183521270752 0.79887819290161133 0.075579293072223663
0.040470961481332779 0.87901526689529419 0.061414577066898346
0.091371305286884308 0.87582707405090332 0.065212056040763855
0.13922536373138428 0.87420940399169922 0.065513774752616882
0.18742093443870544 0.87616866827011108 0.062599703669548035
0.24654760956764221 0.87895035743713379 0.059178072959184647
0.32892036437988281 0.87853217124938965 0.060247547924518585
0.43747714161872864 0.87714642286300659 0.06486944854259491
0.56282162666320801 0.87961471080780029 0.069178953766822815
0.68979793787002563 0.88486844301223755 0.069349996745586395
0.80388665199279785 0.89064246416091919 0.065354242920875549
0.89217531681060791 0.89483976364135742 0.062898941338062286
0.95209908485412598 0.89492952823638916 0.064402610063552856
0.99415844678878784 0.88827013969421387 0.065593510866165161
0.036429312080144882 0.92526161670684814 0.055033843964338303
0.085077814757823944 0.92357689142227173 0.06038149818778038
0.13224662840366364 0.92278802394866943 0.06258787214756012
0.17975509166717529 0.92494916915893555 0.060574039816856384
0.23587074875831604 0.9285774827003479 0.057463791221380234
0.3121509850025177 0.93077462911605835 0.05628325417637825
0.41454377770423889 0.93185079097747803 0.058475300669670105
0.53829383850097656 0.93443655967712402 0.061358656734228134
0.66838663816452026 0.93923532962799072 0.062675371766090393
0.78882020711898804 0.94598430395126343 0.06136544793844223
0.8853304386138916 0.95315003395080566 0.060068212449550629
0.95236766338348389 0.95739972591400146 0.061458855867385864
0.99541181325912476 0.95644587278366089 0.060612995177507401
0.03254782035946846 0.9706578254699707 0.042947359383106232
0.081024020910263062 0.96780192852020264 0.050571486353874207
0.12828752398490906 0.96658110618591309 0.05483328178524971
0.17639893293380737 0.96788740158081055 0.055156782269477844
0.23208466172218323 0.97131407260894775 0.05306694284081459
0.30460137128829956 0.97417807579040527 0.052194662392139435
0.40182554721832275 0.97676652669906616 0.05311170220375061
0.52168494462966919 0.98015040159225464 0.055649250745773315
0.65003490447998047 0.98432403802871704 0.057563483715057373
0.77140170335769653 0.98935955762863159 0.058699216693639755
0.8731122612953186 0.99414259195327759 0.059423051774501801
0.9486461877822876 0.9969172477722168 0.059445235878229141
0.99592387676239014 0.99760454893112183 0.056225676089525223
0.013729828409850597 0.015532549470663071 0.10476932674646378
0.069092005491256714 0.018919941037893295 0.10828867554664612
0.15186014771461487 0.02117501012980938 0.12375827878713608
0.26142266392707825 0.024793902412056923 0.14280346035957336
0.38610440492630005 0.031208561733365059 0.16125260293483734
0.5080445408821106 0.041722480207681656 0.17561048269271851
0.624980628490448 0.043646164238452911 0.17888364195823669
0.72158730030059814 0.040443196892738342 0.17459902167320251
0.79020494222640991 0.036332912743091583 0.16949863731861115
0.84301602840423584 0.028383517637848854 0.16429337859153748
0.891582190990448 0.017727944999933243 0.16087999939918518
0.94044554233551025 0.0092930812388658524 0.16301561892032623
0.98842644691467285 0.0038562400732189417 0.17047335207462311
0.016094222664833069 0.071319580078125 0.10742761939764023
0.065189957618713379 0.075831890106201172 0.10619980841875076
0.14484342932701111 0.08068421483039856 0.12225499004125595
0.25160294771194458 0.086968459188938141 0.13887417316436768
0.37340196967124939 0.096066571772098541 0.1515742689371109
0.49765202403068542 0.10062043368816376 0.16392195224761963
0.617145836353302 0.095619544386863708 0.16805128753185272
0.71652954816818237 0.090740397572517395 0.16446520388126373
0.78748786449432373 0.088164478540420532 0.16150325536727905
0.84036660194396973 0.083574511110782623 0.15954044461250305
0.88866609334945679 0.075058326125144958 0.1577337384223938
0.93730288743972778 0.06512780487537384 0.15881133079528809
0.9858289361000061 0.05562325194478035 0.16398409008979797
0.022675009444355965 0.13587664067745209 0.11305168271064758
0.070822380483150482 0.13982698321342468 0.11096406728029251
0.14278595149517059 0.14420704543590546 0.12244419753551483
0.23971910774707794 0.14992697536945343 0.13465188443660736
0.35756766796112061 0.15590359270572662 0.14443951845169067
0.48530313372612 0.15625831484794617 0.15335805714130402
0.60762697458267212 0.1494944840669632 0.15798944234848022
0.71008384227752686 0.14388576149940491 0.15678910911083221
0.78628122806549072 0.1409442275762558 0.15455307066440582
0.84164488315582275 0.13791957497596741 0.15487740933895111
0.88970816135406494 0.133343905210495 0.15498219430446625
0.93726664781570435 0.127849280834198 0.15500327944755554
0.98517346382141113 0.12220969051122665 0.15827460587024689
0.036374185234308243 0.21539586782455444 0.11548402160406113
0.082843959331512451 0.21674269437789917 0.11474220454692841
0.14710301160812378 0.2188715785741806 0.12009208649396896
0.23438094556331635 0.22220116853713989 0.1276194155216217
0.34448683261871338 0.22606641054153442 0.13588634133338928
0.47088149189949036 0.22594848275184631 0.14405606687068939
0.59724313020706177 0.2185710221529007 0.15058146417140961
0.70578634738922119 0.20957101881504059 0.15211428701877594
0.78730863332748413 0.20347532629966736 0.15123941004276276
0.84550017118453979 0.2001233696937561 0.15128237009048462
0.89312922954559326 0.19788067042827606 0.1509309858083725
0.93985456228256226 0.19534267485141754 0.15019820630550385
0.9867861270904541 0.19326812028884888 0.15295526385307312
0.057563003152608871 0.30971229076385498 0.1160152330994606
0.10136003792285919 0.30811294913291931 0.11644382774829865
