assets/lut/editingcorpw Garden Glamour.cube
LUT_3D_SIZE 16
DOMAIN_MIN 0.0 0.0 0.0
DOMAIN_MAX 1.0 1.0 1.0
0.021129 0.037472 0.019760
0.061326 0.032231 0.015321
0.093785 0.021842 0.009289
0.128729 0.016591 0.005501
0.185135 0.015213 0.003851
0.258487 0.016045 0.004547
0.344569 0.015591 0.005652
0.435823 0.019555 0.008066
0.507487 0.022985 0.008629
0.573929 0.025370 0.008623
0.641383 0.028273 0.009598
0.710173 0.031704 0.010623
0.775868 0.035826 0.012086
0.835707 0.044494 0.015160
0.889309 0.053494 0.018326
0.939277 0.062594 0.021559
0.016990 0.074557 0.019857
0.063396 0.069723 0.016405
0.100988 0.059189 0.005333
0.139898 0.054486 0.000971
0.203274 0.054489 0.001048
0.281744 0.055943 0.003753
0.370020 0.053557 0.004731
0.450498 0.051501 0.004604
0.515839 0.052098 0.005301
0.580169 0.054491 0.006957
0.647971 0.059711 0.008994
0.716314 0.067095 0.011346
0.779977 0.074888 0.014013
0.836566 0.082779 0.016824
0.888179 0.091200 0.019776
0.936790 0.099958 0.022818
0.006619 0.116471 0.017397
0.057340 0.115916 0.020647
0.103217 0.100418 0.008743
0.149484 0.092542 0.000734
0.219183 0.093577 0.002377
0.303495 0.094804 0.007410
0.391348 0.091636 0.007819
0.464643 0.090712 0.007666
0.526419 0.091256 0.008033
0.589580 0.093728 0.009349
0.656107 0.099025 0.010967
0.721358 0.105366 0.013032
0.780957 0.111825 0.015331
0.835023 0.119594 0.017881
0.885107 0.127680 0.020649
0.932718 0.135480 0.023499
0.000000 0.152813 0.016335
0.044654 0.154034 0.020892
0.096986 0.149996 0.015080
0.154129 0.140913 0.004544
0.229866 0.134040 0.004184
0.320658 0.131449 0.008621
0.405113 0.128778 0.008842
0.473615 0.129755 0.008852
0.534123 0.130012 0.009480
0.597027 0.132482 0.010720
0.662487 0.136931 0.012138
0.723074 0.142875 0.013965
0.779292 0.149439 0.016093
0.831916 0.156348 0.018530
0.880992 0.164032 0.021245
0.928371 0.171796 0.024060
0.000000 0.196626 0.018671
0.035551 0.199087 0.025114
0.089434 0.192142 0.021875
0.151339 0.184556 0.011279
0.231544 0.181553 0.004597
0.329251 0.171584 0.006876
0.410353 0.167863 0.008003
0.478549 0.170385 0.008518
0.540142 0.171353 0.009834
0.602955 0.174273 0.011293
0.666214 0.178191 0.012791
0.723489 0.183527 0.014638
0.777839 0.189103 0.016842
0.828909 0.195759 0.019347
0.877069 0.203063 0.022067
0.924201 0.210712 0.024867
0.000000 0.240878 0.023763
0.031074 0.246332 0.031379
0.086155 0.245456 0.031142
0.148865 0.235160 0.021841
0.229530 0.220003 0.010792
0.327426 0.208670 0.004987
0.410572 0.213037 0.006607
0.480807 0.213487 0.008062
0.545348 0.215652 0.009653
0.608127 0.219165 0.011020
0.667835 0.222644 0.012482
0.722678 0.227252 0.014365
0.775028 0.232345 0.016749
0.824455 0.238298 0.019527
0.872614 0.244880 0.022407
0.919423 0.251972 0.025267
0.000000 0.288100 0.032702
0.030678 0.296096 0.041230
0.083779 0.296099 0.040673
0.147587 0.289541 0.033078
0.230135 0.279869 0.023056
0.319005 0.263975 0.015468
0.402272 0.249587 0.009144
0.478036 0.251085 0.008243
0.548265 0.257402 0.009927
0.611978 0.263500 0.010950
0.668937 0.268824 0.012002
0.721412 0.273683 0.013608
0.771652 0.278855 0.015832
0.819830 0.284737 0.018554
0.866886 0.291008 0.021416
0.913003 0.296814 0.024233
0.000000 0.337751 0.044192
0.032173 0.346272 0.052350
0.083690 0.345340 0.050134
0.147449 0.341829 0.044027
0.231621 0.339126 0.036724
0.314492 0.332746 0.030782
0.390978 0.320929 0.025449
0.469181 0.300668 0.016627
0.543421 0.290274 0.012150
0.609366 0.293298 0.011178
0.667857 0.306108 0.012007
0.719939 0.318521 0.013335
0.769139 0.326657 0.015184
0.816589 0.333488 0.017810
0.862578 0.339635 0.020546
0.907299 0.345499 0.023178
0.000000 0.388617 0.056026
0.035405 0.397110 0.063681
0.086675 0.396465 0.060304
0.151541 0.397464 0.055998
0.235298 0.401093 0.052200
0.314580 0.400493 0.048506
0.388784 0.393683 0.045305
0.461278 0.381894 0.039006
0.536303 0.359691 0.028012
0.602470 0.336752 0.017759
0.661031 0.332148 0.014448
0.715058 0.342967 0.014540
0.765270 0.363216 0.017243
0.813693 0.382146 0.020591
0.859615 0.393363 0.024101
0.903950 0.401194 0.026943
0.000000 0.430070 0.063918
0.038707 0.440316 0.071416
0.093030 0.444460 0.069128
0.160752 0.453113 0.068656
0.244127 0.463542 0.069441
0.324066 0.468881 0.068994
0.398555 0.468377 0.068518
0.469048 0.462822 0.064218
0.534620 0.449629 0.056863
0.599250 0.425895 0.044238
0.659895 0.399580 0.031230
0.714253 0.386030 0.024700
0.765223 0.391396 0.024607
0.813635 0.409412 0.027330
0.860008 0.434358 0.032259
0.905056 0.454790 0.037071
0.000000 0.464811 0.068433
0.042886 0.477129 0.075834
0.102521 0.488198 0.077031
0.174225 0.503529 0.080390
0.258651 0.519681 0.085407
0.341548 0.532774 0.089985
0.418572 0.538847 0.092576
0.488925 0.540418 0.091435
0.549636 0.534130 0.086212
0.604809 0.521959 0.078636
0.662360 0.502818 0.066847
0.720137 0.478441 0.053194
0.771211 0.457544 0.043092
0.817658 0.451942 0.039288
0.862528 0.462524 0.040694
0.906597 0.484125 0.044648
0.000000 0.499173 0.073580
0.052092 0.514361 0.081129
0.119915 0.533158 0.086761
0.194519 0.552958 0.094511
0.279403 0.573713 0.103206
0.364167 0.590922 0.110347
0.441198 0.601153 0.115194
0.508097 0.605434 0.115138
0.565721 0.603713 0.111338
0.618332 0.598259 0.105355
0.668837 0.589927 0.099109
0.719975 0.577617 0.090508
0.774043 0.556821 0.077341
0.822225 0.536594 0.065642
0.865679 0.522642 0.057788
0.908911 0.524255 0.056215
0.000235 0.536056 0.080573
0.068634 0.556598 0.090049
0.144633 0.580424 0.099480
0.217410 0.600819 0.108938
0.300491 0.623050 0.120012
0.386467 0.642939 0.129859
0.462239 0.655818 0.135407
0.525791 0.662170 0.136974
0.580073 0.663710 0.134447
0.630737 0.662360 0.129872
0.679478 0.659573 0.124191
0.725931 0.653707 0.117902
0.771958 0.644521 0.111114
0.821480 0.628456 0.099665
0.868092 0.610831 0.088185
0.911336 0.595321 0.079442
0.010992 0.578299 0.090352
0.095011 0.604342 0.102322
0.170073 0.626531 0.112415
0.240676 0.646837 0.123501
0.321717 0.669211 0.135917
0.408437 0.691019 0.147787
0.481731 0.705618 0.154506
0.541813 0.713374 0.156753
0.593218 0.716842 0.155502
0.641736 0.718421 0.152671
0.688274 0.718533 0.148030
0.732246 0.715726 0.141916
0.775485 0.711551 0.136387
0.819039 0.705365 0.130879
0.864851 0.693686 0.122298
0.910850 0.678748 0.112042
0.038333 0.627973 0.103767
0.123165 0.651045 0.114470
0.195127 0.670134 0.124436
0.264323 0.690742 0.137692
0.343431 0.714374 0.151787
0.430232 0.737274 0.165093
0.500234 0.752620 0.172917
0.556609 0.761230 0.175714
0.605496 0.766498 0.176037
0.651888 0.769910 0.174001
0.695958 0.771335 0.170317
0.737712 0.769990 0.164860
0.778981 0.767972 0.159703
0.820903 0.765602 0.154874
0.863054 0.761877 0.151247
0.906614 0.754115 0.146238
0.071033 0.677706 0.117622
0.152252 0.696793 0.126801
0.220875 0.713277 0.136669
0.288848 0.734703 0.151714
0.366557 0.759346 0.167630
0.451273 0.783382 0.183133
0.518681 0.798649 0.191679
0.571897 0.807375 0.195378
0.618253 0.814101 0.195939
0.661796 0.818496 0.194842
0.703387 0.820504 0.191498
0.743514 0.820140 0.186613
0.782667 0.818906 0.181461
0.822598 0.817697 0.177555
0.863650 0.817053 0.174727
0.905907 0.815957 0.173005
0.017918 0.043700 0.056835
0.066660 0.051021 0.059697
0.107164 0.041193 0.048354
0.143146 0.031248 0.039224
0.192525 0.026987 0.037696
0.262751 0.025785 0.039595
0.341090 0.023520 0.042360
0.429893 0.018998 0.044129
0.508300 0.020017 0.047987
0.576817 0.023126 0.050615
0.646139 0.027613 0.052877
0.717014 0.035487 0.055261
0.784310 0.044852 0.058318
0.843761 0.054507 0.061495
0.897324 0.064000 0.064674
0.946594 0.073625 0.067883
0.013956 0.074743 0.058033
0.066422 0.085778 0.064343
0.113011 0.080856 0.055075
0.154144 0.069776 0.043135
0.208939 0.066425 0.040893
0.284188 0.065954 0.044376
0.368717 0.063676 0.046461
0.453206 0.058994 0.047353
0.523424 0.058902 0.049592
0.590065 0.062362 0.051964
0.659173 0.068404 0.054489
0.727716 0.077133 0.057193
0.791076 0.085865 0.060085
0.847146 0.094911 0.063075
0.898201 0.103734 0.066119
0.946200 0.112940 0.069223
0.005567 0.116236 0.056583
0.060029 0.122371 0.065887
0.112651 0.118985 0.062215
0.162399 0.108200 0.047963
0.223396 0.105718 0.044697
0.305950 0.106118 0.048416
0.393128 0.102495 0.049770
0.471301 0.099167 0.050392
0.537151 0.099495 0.052145
0.602020 0.103017 0.054312
0.669988 0.109514 0.056568
0.735367 0.117299 0.059045
0.794172 0.125134 0.061639
0.847620 0.133371 0.064382
0.896725 0.141760 0.067262
0.943642 0.150281 0.070192
0.000451 0.159495 0.055493
0.048601 0.168922 0.064642
0.103862 0.166981 0.067547
0.162906 0.151452 0.054916
0.234417 0.146310 0.047776
0.323431 0.145237 0.050956
0.411818 0.140614 0.051987
0.485125 0.138737 0.052725
0.548047 0.139824 0.054177
0.612031 0.143125 0.056167
0.678180 0.149076 0.058126
0.738850 0.155499 0.060238
0.794333 0.162897 0.062531
0.845173 0.170769 0.065087
0.893152 0.178836 0.067881
0.939566 0.186592 0.070712
0.000000 0.208973 0.059023
0.040371 0.217311 0.068214
0.092385 0.216774 0.072591
0.155381 0.206529 0.063408
0.234309 0.196547 0.053239
0.331330 0.185689 0.051915
0.421533 0.178790 0.052581
0.493470 0.178709 0.053702
0.556224 0.180167 0.055298
0.619165 0.184018 0.057357
0.683377 0.189246 0.059210
0.739924 0.195473 0.061240
0.792877 0.202042 0.063485
0.842532 0.209413 0.066049
0.889640 0.217011 0.068818
0.935607 0.224616 0.071587
0.000000 0.257220 0.064785
0.037557 0.266502 0.075426
0.088077 0.269906 0.081932
0.147844 0.259948 0.074989
0.228350 0.246861 0.062113
0.326606 0.236962 0.055009
0.422820 0.224135 0.052304
0.497438 0.223081 0.053897
0.562675 0.224825 0.055883
0.626053 0.228953 0.058066
0.685983 0.233401 0.059972
0.740366 0.238531 0.062066
0.791059 0.244604 0.064462
0.839926 0.251034 0.067149
0.886324 0.258317 0.069925
0.930992 0.265660 0.072603
0.000000 0.307442 0.073134
0.039656 0.317551 0.085833
0.089019 0.322945 0.093456
0.144405 0.316511 0.088523
0.223443 0.305155 0.075991
0.316903 0.288046 0.065226
0.410997 0.276604 0.060216
0.493338 0.276967 0.058193
0.565510 0.275601 0.057816
0.630929 0.277646 0.058531
0.687941 0.281794 0.060071
0.739426 0.285930 0.062094
0.789005 0.291031 0.064636
0.836533 0.296952 0.067542
0.881713 0.303285 0.070425
0.925867 0.309795 0.073194
0.000481 0.357316 0.082897
0.042958 0.368016 0.097353
0.091259 0.374660 0.105189
0.144713 0.369887 0.099559
0.221987 0.362640 0.090013
0.311670 0.355123 0.081945
0.398893 0.345613 0.078048
0.481586 0.327574 0.069862
0.559628 0.321970 0.064668
0.628222 0.324814 0.062609
0.686600 0.331168 0.062711
0.737347 0.336936 0.063561
0.785679 0.342318 0.065549
0.832159 0.348193 0.068059
0.876831 0.353922 0.070888
0.920001 0.359539 0.073724
0.000014 0.401619 0.091045
0.045889 0.414614 0.108044
0.094358 0.422301 0.115419
0.149035 0.421047 0.110736
0.224619 0.419644 0.105015
0.312514 0.422385 0.102144
0.396694 0.421257 0.100369
0.473042 0.409413 0.094441
0.550302 0.387206 0.082920
0.618529 0.368053 0.072664
0.678590 0.367680 0.068929
0.731980 0.381417 0.069916
0.781248 0.395218 0.072132
0.827388 0.404060 0.074389
0.871957 0.410660 0.077217
0.915474 0.417034 0.080121
0.000000 0.438837 0.098128
0.048402 0.454470 0.116438
0.098462 0.463285 0.122860
0.156407 0.466450 0.120137
0.232451 0.473456 0.119482
0.320480 0.484325 0.121283
0.404919 0.490669 0.122969
0.480409 0.487595 0.120265
0.548163 0.475567 0.112881
0.612656 0.451996 0.099723
0.674096 0.427968 0.086475
0.729212 0.419564 0.080449
0.779329 0.429263 0.080670
0.826197 0.449698 0.083834
0.871553 0.469298 0.088101
0.915749 0.480760 0.091406
0.000000 0.473563 0.104880
0.051669 0.490105 0.123176
0.104800 0.500547 0.129238
0.167905 0.510208 0.129787
0.245200 0.524443 0.134233
0.335228 0.542324 0.140611
0.422061 0.554908 0.145767
0.498305 0.559112 0.146035
0.562052 0.554947 0.141143
0.617678 0.542586 0.132953
0.674254 0.523939 0.121615
0.732023 0.502191 0.107958
0.782558 0.485926 0.098146
0.828662 0.486515 0.095280
0.873124 0.502666 0.097815
0.916805 0.526559 0.102833
0.001990 0.507560 0.112052
0.057865 0.524745 0.129344
0.117569 0.538635 0.136660
0.187321 0.555091 0.142481
0.264722 0.575877 0.151970
0.355224 0.597482 0.161292
0.442725 0.613781 0.168745
0.516429 0.620897 0.169963
0.576553 0.620527 0.166207
0.629539 0.614879 0.159484
0.679589 0.605824 0.151913
0.728891 0.592611 0.143319
0.781957 0.572338 0.129950
0.829673 0.555098 0.118759
0.874170 0.548968 0.113706
0.917818 0.559555 0.115047
0.005493 0.542951 0.120467
0.069279 0.562364 0.137552
0.138927 0.582688 0.147856
0.211524 0.601948 0.156754
0.286852 0.624883 0.169248
0.375870 0.648513 0.180768
0.463577 0.667477 0.190297
0.533409 0.676673 0.192723
0.590468 0.678643 0.190003
0.641058 0.676657 0.184484
0.688275 0.672556 0.177154
0.733486 0.665712 0.170354
0.778531 0.655870 0.163039
0.827182 0.639625 0.151887
0.874227 0.624629 0.141744
0.918312 0.614692 0.135946
0.017452 0.582192 0.130785
0.090577 0.606914 0.149508
0.165252 0.628771 0.160550
0.235974 0.647412 0.170856
0.310056 0.670747 0.185423
0.397269 0.695721 0.199028
0.483107 0.717556 0.210799
0.549973 0.728333 0.214459
0.603528 0.732042 0.212651
0.651501 0.732261 0.208043
0.696123 0.730330 0.201847
0.739044 0.726534 0.195133
0.781658 0.721833 0.189119
0.824566 0.714641 0.183772
0.870204 0.702914 0.175951
0.917139 0.690317 0.167543
0.039927 0.629165 0.145706
0.117696 0.654968 0.163595
0.192464 0.673455 0.173353
0.261844 0.691853 0.185656
0.334454 0.715858 0.201898
0.419045 0.741720 0.217325
0.502699 0.765148 0.230755
0.566456 0.777218 0.235432
0.616665 0.782532 0.235058
0.661727 0.784453 0.231687
0.704286 0.783917 0.225989
0.744634 0.780956 0.219640
0.785363 0.778482 0.213797
0.826707 0.775520 0.209506
0.868690 0.771231 0.206334
0.912576 0.763161 0.202169
0.069364 0.680376 0.163563
0.147508 0.703234 0.178815
0.220746 0.718725 0.187726
0.289473 0.737603 0.201447
0.360872 0.762083 0.219130
0.441820 0.788712 0.236734
0.522959 0.812458 0.251512
0.583072 0.824666 0.257507
0.630457 0.830863 0.257743
0.672678 0.833840 0.254901
0.712547 0.833820 0.249825
0.751236 0.831663 0.243494
0.790107 0.829957 0.237937
0.829712 0.828893 0.233982
0.870019 0.827379 0.231057
0.911120 0.824950 0.229026
0.015409 0.046163 0.090747
0.065025 0.059228 0.100573
0.112971 0.063828 0.102231
0.155709 0.052533 0.090148
0.203858 0.042052 0.082589
0.269691 0.036969 0.083917
0.344525 0.033162 0.086013
0.427915 0.026436 0.087747
0.509890 0.021565 0.091348
0.582663 0.024506 0.095764
0.652943 0.031344 0.099278
0.724177 0.041127 0.102293
0.790765 0.051561 0.105327
0.849289 0.061830 0.108318
0.902188 0.072711 0.111607
0.951652 0.082660 0.114986
0.012807 0.079380 0.094387
0.065273 0.094373 0.106393
0.116545 0.103063 0.110604
0.165201 0.094357 0.099217
0.218176 0.083111 0.089716
0.288902 0.079483 0.090621
0.369187 0.074540 0.090782
0.453977 0.067842 0.091977
0.529718 0.064690 0.095215
0.599047 0.067986 0.098571
0.668447 0.074960 0.101370
0.736928 0.084179 0.103926
0.799534 0.093699 0.106673
0.855145 0.103653 0.109559
0.905627 0.113852 0.112892
0.953128 0.124009 0.116329
0.005606 0.114182 0.095588
0.059888 0.127271 0.108969
0.114709 0.139581 0.117007
0.170188 0.135634 0.108179
0.230067 0.124209 0.095788
0.307727 0.120646 0.095285
0.393866 0.115520 0.094852
0.476323 0.109251 0.095450
0.547404 0.106854 0.098064
0.614057 0.110855 0.100584
0.682201 0.117962 0.103105
0.746691 0.126617 0.105533
0.804943 0.135547 0.108109
0.857728 0.144708 0.110900
0.906258 0.154051 0.114173
0.952017 0.164057 0.117499
0.001381 0.163568 0.097056
0.050429 0.171704 0.109857
0.106993 0.177989 0.120492
0.167231 0.176006 0.116824
0.236458 0.165552 0.101682
0.324112 0.161434 0.098158
0.415502 0.155915 0.097732
0.494531 0.150262 0.098312
0.561639 0.149063 0.100363
0.626477 0.152794 0.102571
0.692769 0.160057 0.104783
0.752702 0.167694 0.106942
0.807741 0.175983 0.109291
0.857520 0.184509 0.112037
0.904026 0.193220 0.115019
0.948614 0.202100 0.118134
0.003259 0.219452 0.103154
0.044517 0.229603 0.114358
0.098745 0.235573 0.124427
0.157566 0.228178 0.124843
0.233775 0.210343 0.108317
0.330279 0.203401 0.101310
0.428047 0.196086 0.099533
0.506885 0.191673 0.100435
0.572318 0.191297 0.102075
0.635630 0.194968 0.104127
0.698683 0.201122 0.105997
0.755043 0.208042 0.107821
0.806980 0.215536 0.110144
0.855050 0.223222 0.112836
0.900744 0.231511 0.115979
0.944305 0.239854 0.119088
0.005093 0.274251 0.110370
0.044443 0.285108 0.121754
0.095446 0.293793 0.132705
0.149911 0.290763 0.135391
0.223604 0.270983 0.119181
0.322671 0.255670 0.107015
0.427641 0.241500 0.103441
0.512730 0.235445 0.102211
0.580325 0.235644 0.103676
0.643266 0.239193 0.105687
0.703348 0.244544 0.107389
0.756903 0.250530 0.109130
0.806259 0.257251 0.111509
0.852708 0.264938 0.114272
0.897601 0.272026 0.117267
0.939800 0.280138 0.120402
0.007210 0.328291 0.119088
0.047232 0.339090 0.130877
0.097223 0.348490 0.143215
0.148841 0.347891 0.146879
0.215853 0.333468 0.135513
0.310002 0.317953 0.121510
0.414807 0.304770 0.114948
0.506512 0.294152 0.110734
0.582165 0.289937 0.108708
0.648301 0.290354 0.108395
0.705654 0.293365 0.109064
0.757128 0.297909 0.110674
0.805039 0.303494 0.113180
0.850267 0.309888 0.115968
0.893355 0.316818 0.118962
0.935384 0.323903 0.122356
0.008147 0.378505 0.127888
0.052247 0.390007 0.140832
0.100495 0.399441 0.154039
0.150267 0.401218 0.158229
0.213926 0.392898 0.151156
0.302919 0.382536 0.140408
0.401760 0.372006 0.134558
0.492984 0.358713 0.127512
0.574787 0.353024 0.121691
0.644704 0.349615 0.117758
0.703272 0.350048 0.115647
0.753757 0.352628 0.115374
0.800918 0.356703 0.116578
0.845869 0.361768 0.118926
0.888661 0.367385 0.122179
0.930586 0.373187 0.125258
0.005479 0.419735 0.135311
0.056743 0.432736 0.149655
0.103025 0.442894 0.163412
0.152835 0.446867 0.167430
0.217259 0.445111 0.164087
0.303098 0.443230 0.158575
0.396924 0.444983 0.158082
0.484024 0.437908 0.154660
0.564124 0.417773 0.142950
0.635571 0.404348 0.132398
0.696415 0.404846 0.127664
0.748328 0.410798 0.126456
0.795791 0.416291 0.126800
0.840777 0.421024 0.127894
0.883878 0.425855 0.130440
0.926601 0.431832 0.133887
0.004744 0.454449 0.141265
0.059918 0.468508 0.156408
0.105800 0.480032 0.170831
0.158351 0.486789 0.175444
0.224451 0.491066 0.175818
0.309211 0.497757 0.175702
0.401767 0.508609 0.179066
0.488922 0.511098 0.179570
0.561717 0.501076 0.173391
0.628173 0.479436 0.160224
0.690605 0.459594 0.146143
0.744738 0.457097 0.140311
0.793819 0.469929 0.140388
0.839128 0.483556 0.142113
0.883066 0.492881 0.144192
0.926369 0.499329 0.146875
0.008002 0.486774 0.146639
0.063092 0.500857 0.162032
0.110052 0.513733 0.176946
0.167211 0.523823 0.183003
0.236047 0.534153 0.187464
0.320913 0.550708 0.193746
0.414611 0.567860 0.200965
0.502683 0.577843 0.204237
0.573337 0.576291 0.200812
0.631789 0.563895 0.192159
0.687864 0.545249 0.180478
0.743733 0.523951 0.165108
0.793538 0.514367 0.156700
0.839830 0.522949 0.155537
0.884176 0.544494 0.159196
0.927522 0.565682 0.164515
0.011252 0.518152 0.151270
0.067705 0.533170 0.168210
0.118985 0.548031 0.183583
0.182907 0.561942 0.192121
0.255316 0.579324 0.201445
0.339396 0.601973 0.212993
0.433280 0.624099 0.223167
0.519239 0.638178 0.229057
0.586775 0.640890 0.226844
0.641736 0.634713 0.219221
0.691404 0.623577 0.210076
0.738724 0.608058 0.199894
0.790537 0.588320 0.185356
0.838156 0.574791 0.175213
0.883613 0.578532 0.173749
0.927789 0.598608 0.178809
0.016241 0.550837 0.157765
0.075813 0.568256 0.176400
0.134412 0.587329 0.193211
0.205394 0.604471 0.204409
0.278871 0.625254 0.216788
0.360114 0.650518 0.231205
0.452515 0.675227 0.243885
0.535952 0.692581 0.251968
0.599959 0.698239 0.251741
0.652064 0.695886 0.245300
0.698347 0.689400 0.236734
0.742293 0.680291 0.227773
0.786261 0.667796 0.219147
0.834354 0.651875 0.207384
0.881609 0.639407 0.198837
0.925281 0.638014 0.197158
0.025258 0.587388 0.166834
0.091653 0.609915 0.188678
0.158582 0.632571 0.207197
0.231322 0.649381 0.218463
0.303733 0.670923 0.232904
0.382710 0.696556 0.249098
0.472124 0.723477 0.263952
0.553141 0.743320 0.273767
0.612911 0.750947 0.274897
0.661611 0.751393 0.270325
0.705661 0.747465 0.262651
0.747432 0.742031 0.254419
0.789548 0.735246 0.247076
0.831808 0.726198 0.241385
0.877238 0.714308 0.234119
0.923883 0.703529 0.227237
0.043527 0.631270 0.180734
0.115851 0.658066 0.205493
0.186793 0.678916 0.222880
0.259911 0.695927 0.234903
0.331489 0.718063 0.251326
0.408154 0.744133 0.269081
0.493621 0.771777 0.285564
0.571475 0.792562 0.296768
0.626910 0.801042 0.298418
0.672480 0.803223 0.295105
0.714203 0.801692 0.288934
0.753974 0.797871 0.281291
0.794093 0.793839 0.274202
0.834504 0.789118 0.269215
0.875375 0.782615 0.264890
0.918888 0.772965 0.260714
0.071163 0.682249 0.199785
0.144771 0.709199 0.224968
0.218279 0.727550 0.241272
0.292347 0.745934 0.255437
0.363560 0.768315 0.273340
0.437142 0.794468 0.292801
0.518123 0.822486 0.310946
0.591237 0.842207 0.322425
0.643327 0.850528 0.324288
0.685372 0.853501 0.321417
0.724218 0.853286 0.315861
0.761493 0.849951 0.308284
0.799556 0.846313 0.300813
0.837420 0.842611 0.294592
0.876080 0.838839 0.289668
0.915733 0.833725 0.286141
0.018655 0.054331 0.131852
0.067844 0.065952 0.140500
0.116705 0.076493 0.148223
0.165604 0.077421 0.146810
0.214547 0.066449 0.139724
0.273207 0.058539 0.140848
0.346263 0.052941 0.142963
0.424325 0.044223 0.143181
0.505944 0.035802 0.143872
0.581890 0.034356 0.147473
0.653520 0.039980 0.151244
0.724300 0.049127 0.153618
0.790582 0.059512 0.156462
0.848307 0.070450 0.159642
0.901264 0.082273 0.163000
0.950738 0.093970 0.167024
0.017163 0.089701 0.137525
0.068412 0.103413 0.147940
0.118998 0.115776 0.157576
0.170924 0.121198 0.160931
0.224531 0.111299 0.151699
0.289685 0.102239 0.149477
0.368104 0.096088 0.148845
0.448910 0.088088 0.148352
0.527831 0.080764 0.149594
0.600719 0.080284 0.152317
0.670621 0.085965 0.154773
0.739075 0.094607 0.156338
0.801493 0.104573 0.158753
0.856454 0.114978 0.161429
0.906917 0.125877 0.164748
0.954734 0.136855 0.168231
0.011352 0.124486 0.140963
0.064182 0.137661 0.152657
0.116830 0.151795 0.163979
0.171692 0.160744 0.170078
0.232323 0.153968 0.160485
0.305928 0.144334 0.154983
0.390218 0.138580 0.153424
0.472876 0.131335 0.152701
0.548669 0.125356 0.154188
0.618762 0.125667 0.155746
0.687023 0.131214 0.157060
0.752076 0.139262 0.158347
0.809973 0.148351 0.160301
0.862254 0.158388 0.162733
0.910364 0.168484 0.166097
0.955940 0.178404 0.169389
0.003721 0.167182 0.144334
0.056374 0.175153 0.156206
0.110606 0.186641 0.168228
0.166874 0.197998 0.177164
0.233221 0.194785 0.167348
0.317416 0.184898 0.157218
0.410492 0.180592 0.156314
0.494922 0.174227 0.155939
0.567697 0.169181 0.157308
0.634804 0.170207 0.158057
0.701546 0.175656 0.158722
0.761616 0.183077 0.159877
0.815769 0.191318 0.161753
0.865156 0.200585 0.164136
0.910814 0.210125 0.167370
0.954036 0.218964 0.170851
0.007562 0.229063 0.152847
0.049796 0.234600 0.161728
0.102763 0.237092 0.172437
0.159512 0.239633 0.181786
0.226971 0.235830 0.175333
0.319551 0.224844 0.158464
0.424122 0.221143 0.157042
0.511875 0.216195 0.157672
0.583247 0.212459 0.159303
0.647929 0.214278 0.160017
0.711152 0.219401 0.160571
0.767001 0.225541 0.160830
0.818073 0.232823 0.162658
0.864621 0.241178 0.165168
0.908110 0.249279 0.168167
0.950144 0.257519 0.171476
0.012166 0.289669 0.162310
0.049920 0.298672 0.171302
0.100013 0.307439 0.181760
0.153290 0.307814 0.189123
0.217000 0.292577 0.185070
0.310741 0.270503 0.163258
0.423432 0.263996 0.159738
0.519714 0.258942 0.159261
0.593945 0.255916 0.160731
0.658041 0.258877 0.162038
0.717472 0.263351 0.162247
0.769933 0.268524 0.162312
0.818075 0.274911 0.164056
0.862396 0.282481 0.166649
0.904727 0.289807 0.169507
0.945757 0.297339 0.172933
0.016366 0.347738 0.172386
0.053490 0.358256 0.181562
0.101594 0.368285 0.192696
0.153096 0.374017 0.201631
0.212854 0.367930 0.201900
0.298525 0.344676 0.183750
0.408744 0.324891 0.171302
0.514673 0.312965 0.168250
0.597107 0.308648 0.166681
0.664200 0.309040 0.166284
0.721705 0.312164 0.165669
0.771621 0.315678 0.165266
0.817463 0.321051 0.166678
0.860184 0.327056 0.169080
0.901396 0.333731 0.172113
0.941912 0.340718 0.175534
0.017261 0.397193 0.181123
0.057641 0.409113 0.191272
0.105662 0.420082 0.202433
0.155506 0.428277 0.212670
0.213489 0.426642 0.215846
0.291584 0.414472 0.207029
