assets/lut/editingcorp colore.cube
# Created by: G'MIC (https://gmic.eu)
TITLE "colore"
# LUT size
LUT_3D_SIZE 7
# Data domain
DOMAIN_MIN 0.0 0.0 0.0
DOMAIN_MAX 1.0 1.0 1.0
# LUT data points
0.008958001621067524 0.010585575364530087 0.013434974476695061
0.16212514042854309 0.011674933135509491 0.0090612974017858505
0.3989107608795166 0.04653104767203331 0.048472147434949875
0.65174359083175659 0.079444661736488342 0.083031825721263885
0.81659078598022461 0.074861384928226471 0.097257860004901886
0.87620550394058228 0.069471053779125214 0.097789868712425232
0.92803281545639038 0.10213638097047806 0.10653848201036453
0.023390287533402443 0.17433227598667145 0.029854061082005501
0.12580086290836334 0.1412348747253418 0.021333865821361542
0.34942561388015747 0.13577350974082947 0.039660047739744186
0.60375648736953735 0.15100540220737457 0.073892064392566681
0.8110465407371521 0.15009839832782745 0.10099624842405319
0.87830793857574463 0.15360894799232483 0.1097361221909523
0.92838424444198608 0.16552156209945679 0.10980528593063354
0.042153764516115189 0.36023068428039551 0.057313866913318634
0.097816988825798035 0.34636622667312622 0.043137881904840469
0.28133410215377808 0.33019557595252991 0.040832653641700745
0.54385828971862793 0.32351186871528625 0.062567539513111115
0.78620791435241699 0.31065776944160461 0.094721116125583649
0.88186085224151611 0.30294361710548401 0.10591816902160645
0.92807573080062866 0.28631162643432617 0.10706918686628342
0.064944371581077576 0.56298857927322388 0.099586993455886841
0.1116311177611351 0.55442732572555542 0.096260666847229004
0.22782041132450104 0.53913795948028564 0.078146882355213165
0.4818761944770813 0.52074450254440308 0.064815133810043335
0.74490171670913696 0.51499724388122559 0.08878471702337265
0.89073491096496582 0.50032526254653931 0.10641159117221832
0.9308769702911377 0.48843550682067871 0.10450008511543274
0.089696832001209259 0.75548404455184937 0.1525123119354248
0.12916804850101471 0.74879807233810425 0.1567949503660202
0.19609811902046204 0.74058675765991211 0.14336501061916351
0.39085227251052856 0.72947138547897339 0.10940399020910263
0.68626666069030762 0.71046793460845947 0.092911615967750549
0.8775748610496521 0.68980401754379272 0.10455936938524246
0.92868894338607788 0.6747862696647644 0.11286963522434235
0.10729579627513885 0.88036739826202393 0.18723361194133759
0.14369255304336548 0.87898838520050049 0.19492901861667633
0.18992820382118225 0.87763088941574097 0.19303478300571442
0.30235826969146729 0.88666516542434692 0.18625181913375854
0.58701705932617188 0.87874299287796021 0.16296941041946411
0.84600889682769775 0.86206018924713135 0.15038175880908966
0.92949932813644409 0.85821086168289185 0.16121815145015717
0.10741068422794342 0.93928080797195435 0.19848965108394623
0.145115926861763 0.94181889295578003 0.20141571760177612
0.18985508382320404 0.94097727537155151 0.19799317419528961
0.26148891448974609 0.94567424058914185 0.20573042333126068
0.52897107601165771 0.94834274053573608 0.19599735736846924
0.81691473722457886 0.94336569309234619 0.18177072703838348
0.92332684993743896 0.94640898704528809 0.19235712289810181
0.024779869243502617 0.017697189003229141 0.19453771412372589
0.17004241049289703 0.017307355999946594 0.18175506591796875
0.39732977747917175 0.033628784120082855 0.17877210676670074
0.6439826488494873 0.057830989360809326 0.17018380761146545
0.82006311416625977 0.030074924230575562 0.1597612202167511
0.87883901596069336 0.029376698657870293 0.1543407142162323
0.92869597673416138 0.062657102942466736 0.17607100307941437
0.027539152652025223 0.15880784392356873 0.16080778837203979
0.12492179125547409 0.14472347497940063 0.15259552001953125
0.36202031373977661 0.14529259502887726 0.15087367594242096
0.60957926511764526 0.1557123064994812 0.1548827588558197
0.80847328901290894 0.1503322422504425 0.16075663268566132
0.8766322135925293 0.15729567408561707 0.15813088417053223
0.93083244562149048 0.16602994501590729 0.15844318270683289
0.041966099292039871 0.35011529922485352 0.14376997947692871
0.097761385142803192 0.34446617960929871 0.13562685251235962
0.2883983850479126 0.33473947644233704 0.11891938745975494
0.54743939638137817 0.32784506678581238 0.12285427004098892
0.79094982147216797 0.31322863698005676 0.14874245226383209
0.88208520412445068 0.30091893672943115 0.14983537793159485
0.93144673109054565 0.29079881310462952 0.15971104800701141
0.066596627235412598 0.55582898855209351 0.17438538372516632
0.110757015645504 0.55201965570449829 0.16618809103965759
0.20737965404987335 0.547291100025177 0.14013500511646271
0.48344200849533081 0.5259394645690918 0.11705910414457321
0.75664228200912476 0.51360195875167847 0.13170008361339569
0.88893020153045654 0.49922743439674377 0.15278741717338562
0.92748230695724487 0.49101370573043823 0.15487533807754517
0.091558538377285004 0.75138825178146362 0.21301433444023132
0.13585810363292694 0.74827951192855835 0.21423764526844025
0.19387485086917877 0.74226504564285278 0.20828044414520264
0.39565896987915039 0.73179274797439575 0.18109391629695892
0.69258224964141846 0.7127147912979126 0.15217581391334534
0.87992823123931885 0.68989604711532593 0.17866109311580658
0.93115097284317017 0.6758275032043457 0.19167335331439972
0.10917051881551743 0.87575626373291016 0.23721383512020111
0.15371248126029968 0.87826454639434814 0.25045213103294373
0.20509150624275208 0.87452930212020874 0.25575760006904602
0.33185169100761414 0.87880182266235352 0.25204432010650635
0.6058158278465271 0.8810276985168457 0.23268739879131317
0.84620887041091919 0.86728107929229736 0.2355731725692749
0.92556798458099365 0.85288900136947632 0.24939888715744019
0.10514972358942032 0.9304497241973877 0.24812856316566467
0.14488303661346436 0.93268972635269165 0.25706756114959717
0.18894088268280029 0.93257170915603638 0.25783982872962952
0.26164045929908752 0.94084757566452026 0.26561012864112854
0.52586334943771362 0.95124107599258423 0.26279076933860779
0.81924682855606079 0.95264154672622681 0.25856700539588928
0.92782109975814819 0.95174992084503174 0.27560490369796753
0.090573616325855255 0.027588624507188797 0.46971172094345093
0.21212522685527802 0.035788636654615402 0.4478161633014679
0.39452454447746277 0.021728126332163811 0.42362505197525024
0.63264983892440796 0.051389116793870926 0.4034934937953949
0.81479698419570923 0.046550408005714417 0.38844060897827148
0.88016068935394287 0.050072435289621353 0.3841087818145752
0.92899131774902344 0.059420239180326462 0.38330993056297302
0.057108845561742783 0.18603073060512543 0.41806843876838684
0.16067902743816376 0.16142946481704712 0.41360411047935486
0.36738353967666626 0.14231789112091064 0.40246701240539551
0.60287606716156006 0.14760127663612366 0.37543705105781555
0.80336612462997437 0.15589819848537445 0.36316689848899841
0.88013941049575806 0.16401344537734985 0.3466067910194397
0.93118011951446533 0.16752490401268005 0.34129524230957031
0.046299491077661514 0.3600669801235199 0.37713712453842163
0.10759694874286652 0.3512367308139801 0.36281788349151611
0.29087775945663452 0.35300299525260925 0.36971467733383179
0.57837504148483276 0.3396618664264679 0.35689008235931396
0.80983519554138184 0.34105855226516724 0.37017908692359924
0.89295846223831177 0.31981033086776733 0.34731033444404602
0.93826115131378174 0.31157645583152771 0.34480881690979004
0.068660512566566467 0.55720943212509155 0.35156840085983276
0.10906747728586197 0.54733806848526001 0.33315536379814148
0.21765144169330597 0.55170935392379761 0.32086667418479919
0.49451747536659241 0.55092781782150269 0.30922269821166992
0.772064208984375 0.54064559936523438 0.30252549052238464
0.89902299642562866 0.52470749616622925 0.31287232041358948
0.94389289617538452 0.51689726114273071 0.32502004504203796
0.090926885604858398 0.75359398126602173 0.32912582159042358
0.13932272791862488 0.74160939455032349 0.32074758410453796
0.20125728845596313 0.73783773183822632 0.31615683436393738
0.38215404748916626 0.73636323213577271 0.30036893486976624
0.70288252830505371 0.72348010540008545 0.26395291090011597
0.88638949394226074 0.69342643022537231 0.28492510318756104
0.93504041433334351 0.68729394674301147 0.30590689182281494
0.10751262307167053 0.87789005041122437 0.31374695897102356
0.15917052328586578 0.87398910522460938 0.32769104838371277
0.21417312324047089 0.87315505743026733 0.32939806580543518
0.32868397235870361 0.87756305932998657 0.32218295335769653
0.61187744140625 0.88780397176742554 0.32221406698226929
0.85013478994369507 0.87037855386734009 0.31678357720375061
0.92908650636672974 0.85499066114425659 0.32294982671737671
0.1027228832244873 0.93729203939437866 0.29935193061828613
0.14271141588687897 0.93372750282287598 0.32361903786659241
0.17764756083488464 0.93493950366973877 0.32580220699310303
0.24423319101333618 0.94422996044158936 0.3199273943901062
0.54139584302902222 0.9585919976234436 0.32637682557106018
0.8246803879737854 0.95530855655670166 0.31408178806304932
0.93346297740936279 0.95150148868560791 0.34636422991752625
0.1584937572479248 0.048035744577646255 0.69787204265594482
0.26608380675315857 0.039603378623723984 0.687061607837677
0.44390192627906799 0.022774714976549149 0.67616778612136841
0.65588772296905518 0.047744780778884888 0.66083943843841553
0.82508426904678345 0.06177106499671936 0.64797866344451904
0.8885422945022583 0.038149185478687286 0.63557511568069458
0.92946082353591919 0.038071352988481522 0.62046056985855103
0.12280738353729248 0.18851959705352783 0.66230422258377075
0.2215876430273056 0.17212963104248047 0.66021847724914551
0.40617629885673523 0.13676796853542328 0.65340757369995117
0.61953961849212646 0.13846731185913086 0.62716150283813477
0.81680983304977417 0.15360990166664124 0.61477851867675781
0.88992571830749512 0.14627477526664734 0.59630388021469116
0.9293399453163147 0.1581621915102005 0.58452856540679932
0.078749276697635651 0.38348612189292908 0.62293016910552979
0.13922452926635742 0.37671759724617004 0.61061269044876099
0.33453869819641113 0.35373660922050476 0.62342351675033569
0.58975112438201904 0.33708482980728149 0.61536061763763428
0.80602794885635376 0.32753327488899231 0.60472941398620605
0.8912549614906311 0.30679339170455933 0.57967352867126465
0.93442273139953613 0.30387803912162781 0.5721733570098877
0.077733524143695831 0.56780993938446045 0.58526349067687988
0.11421918869018555 0.55912154912948608 0.56945288181304932
0.21678575873374939 0.56077349185943604 0.5677604079246521
0.51304161548614502 0.57376641035079956 0.59705370664596558
0.79937541484832764 0.57298183441162109 0.59756708145141602
0.91502231359481812 0.56115269660949707 0.59537315368652344
0.95842283964157104 0.55296176671981812 0.58575940132141113
0.091615192592144012 0.75309580564498901 0.54517567157745361
0.13111834228038788 0.74374818801879883 0.53230077028274536
0.18196536600589752 0.74187028408050537 0.52720385789871216
0.36789518594741821 0.74724745750427246 0.54554969072341919
0.73380500078201294 0.75802052021026611 0.54877924919128418
0.91103768348693848 0.73370760679244995 0.55333405733108521
0.95892155170440674 0.72560977935791016 0.55382382869720459
0.10659413039684296 0.87214809656143188 0.50238466262817383
0.15895310044288635 0.87238192558288574 0.50182473659515381
0.21552720665931702 0.87731993198394775 0.49804073572158813
0.31561416387557983 0.87559503316879272 0.49784985184669495
0.62797898054122925 0.89393562078475952 0.51162916421890259
0.86796706914901733 0.89034736156463623 0.4914705753326416
0.94985842704772949 0.87819200754165649 0.48650732636451721
0.10212098807096481 0.93245744705200195 0.46420294046401978
0.14398345351219177 0.932422935962677 0.47367557883262634
0.186126708984375 0.93305075168609619 0.47143855690956116
0.23468418419361115 0.93809658288955688 0.45875483751296997
0.52482539415359497 0.95921659469604492 0.47575381398200989
0.83982998132705688 0.97029632329940796 0.45753416419029236
0.94525927305221558 0.96825093030929565 0.47626933455467224
0.18966645002365112 0.055110018700361252 0.83245986700057983
0.29996666312217712 0.058165889233350754 0.83119821548461914
0.47701236605644226 0.055961817502975464 0.82861274480819702
0.67653495073318481 0.067085787653923035 0.81876105070114136
0.83777594566345215 0.076992616057395935 0.81206655502319336
0.89138609170913696 0.039687227457761765 0.80347734689712524
0.92502790689468384 0.044189885258674622 0.78596597909927368
0.17730961740016937 0.18794211745262146 0.82446861267089844
0.26689687371253967 0.19210374355316162 0.81914037466049194
0.44441533088684082 0.16999715566635132 0.81724041700363159
0.65293794870376587 0.16144914925098419 0.80529361963272095
0.83354532718658447 0.16104911267757416 0.79451650381088257
0.89675790071487427 0.14395035803318024 0.77998441457748413
0.92953431606292725 0.15846672654151917 0.76783525943756104
0.12792228162288666 0.40272095799446106 0.80850613117218018
0.19592802226543427 0.39306610822677612 0.80159831047058105
0.40309196710586548 0.37130609154701233 0.81667721271514893
0.62605017423629761 0.32656481862068176 0.8130958080291748
0.81397795677185059 0.30106827616691589 0.79119139909744263
0.89759516716003418 0.28895717859268188 0.76377367973327637
0.93433564901351929 0.28136038780212402 0.7562064528465271
0.095260575413703918 0.57631510496139526 0.78253668546676636
0.14165502786636353 0.57023018598556519 0.77803128957748413
0.27219483256340027 0.5798267126083374 0.78348082304000854
0.55893605947494507 0.58702927827835083 0.80795401334762573
0.80501765012741089 0.5665290355682373 0.7982410192489624
0.92094182968139648 0.56110084056854248 0.77652597427368164
0.96266722679138184 0.55964881181716919 0.76651906967163086
0.099094510078430176 0.75585317611694336 0.75559818744659424
0.1407850980758667 0.74740773439407349 0.75271666049957275
0.18588064610958099 0.74035131931304932 0.73874551057815552
0.40850794315338135 0.75796812772750854 0.75914925336837769
0.74699050188064575 0.77555501461029053 0.78445732593536377
0.92651969194412231 0.77117258310317993 0.78331476449966431
0.97580480575561523 0.76734912395477295 0.77722781896591187
0.10689885914325714 0.88064473867416382 0.71549183130264282
0.1591239869594574 0.87869226932525635 0.71538734436035156
0.20225200057029724 0.88061702251434326 0.70388394594192505
0.29788291454315186 0.8818390965461731 0.7032771110534668
0.6478000283241272 0.90739095211029053 0.74513566493988037
0.90058845281600952 0.9156307578086853 0.74826544523239136
0.97767525911331177 0.90544140338897705 0.74397242069244385
0.1017458438873291 0.93504369258880615 0.68050915002822876
0.14361590147018433 0.93703091144561768 0.67981880903244019
0.18399584293365479 0.9345201849937439 0.67375195026397705
0.25341174006462097 0.94137203693389893 0.66617345809936523
0.57591545581817627 0.97213959693908691 0.71199882030487061
0.87806254625320435 0.99151605367660522 0.72416740655899048
0.96733897924423218 0.98520463705062866 0.71182882785797119
0.19201503694057465 0.055560003966093063 0.88022977113723755
0.30345639586448669 0.058861691504716873 0.88015878200531006
0.47418442368507385 0.057280268520116806 0.88260990381240845
0.67202961444854736 0.058959588408470154 0.88288426399230957
0.83165401220321655 0.052520871162414551 0.88273841142654419
0.8855699896812439 0.032966792583465576 0.88127559423446655
0.9230276346206665 0.040808673948049545 0.87549078464508057
0.18528188765048981 0.20371316373348236 0.88256126642227173
0.27475881576538086 0.1812242716550827 0.88165366649627686
0.44587862491607666 0.17637091875076294 0.88461506366729736
0.64830923080444336 0.1676906943321228 0.88184249401092529
0.82936209440231323 0.1577112078666687 0.87974315881729126
0.89081066846847534 0.14305129647254944 0.88034111261367798
0.92888772487640381 0.16125029325485229 0.874664306640625
0.14025330543518066 0.39742758870124817 0.88397490978240967
0.22299408912658691 0.39968225359916687 0.8878551721572876
0.42256051301956177 0.37829557061195374 0.90182137489318848
0.62819933891296387 0.32569089531898499 0.90228271484375
0.81300193071365356 0.29380065202713013 0.8932570219039917
0.89093846082687378 0.27364224195480347 0.88711708784103394
0.93628358840942383 0.29309186339378357 0.88219362497329712
0.10299418121576309 0.57359033823013306 0.88017666339874268
0.15379048883914948 0.570273756980896 0.88228517770767212
0.31613460183143616 0.58454650640487671 0.90040785074234009
0.5886915922164917 0.59891414642333984 0.92085093259811401
0.81241863965988159 0.57035332918167114 0.91415059566497803
0.92163980007171631 0.54825311899185181 0.90272146463394165
0.96105647087097168 0.55417490005493164 0.89982414245605469
0.10797298699617386 0.75190085172653198 0.8822484016418457
0.15370418131351471 0.74657803773880005 0.88102346658706665
0.21478314697742462 0.7392621636390686 0.88079124689102173
0.44467857480049133 0.76080191135406494 0.89917969703674316
0.75734013319015503 0.78252828121185303 0.92244309186935425
0.93179738521575928 0.77408915758132935 0.920360267162323
0.97032135725021362 0.76264381408691406 0.90909802913665771
0.10957884043455124 0.88069337606430054 0.86867421865463257
0.16033641993999481 0.88032954931259155 0.87036406993865967
0.20710763335227966 0.88007205724716187 0.86243218183517456
0.33374345302581787 0.88083422183990479 0.86766082048416138
0.66603809595108032 0.91504180431365967 0.90115487575531006
0.91084808111190796 0.93003875017166138 0.91475671529769897
0.98099219799041748 0.92117142677307129 0.90808075666427612
0.10233335196971893 0.93371301889419556 0.84971660375595093
0.13719116151332855 0.93835783004760742 0.85334163904190063
0.17357760667800903 0.93636977672576904 0.84991103410720825
0.27697354555130005 0.94212114810943604 0.84810924530029297
0.61409056186676025 0.97309547662734985 0.87986475229263306
0.8919140100479126 0.99487960338592529 0.90317237377166748
0.99015814065933228 0.99522358179092407 0.89591085910797119
0.19523747265338898 0.049394074827432632 0.92803281545639038
0.30425158143043518 0.075700826942920685 0.92791903018951416
0.47362911701202393 0.052081704139709473 0.92742073535919189
0.6691054105758667 0.045687161386013031 0.92788338661193848
0.83342236280441284 0.03153349831700325 0.92420995235443115
0.88896852731704712 0.028082320466637611 0.92319959402084351
0.92844760417938232 0.029210453853011131 0.9251244068145752
0.19324848055839539 0.19786223769187927 0.93157553672790527
0.28150719404220581 0.19196619093418121 0.93278610706329346
0.44338029623031616 0.17634305357933044 0.93067097663879395
0.63617748022079468 0.17246948182582855 0.92724037170410156
0.81115573644638062 0.15175285935401917 0.9252738356590271
0.88482093811035156 0.15394547581672668 0.92903083562850952
0.9285815954208374 0.14318498969078064 0.92828285694122314
0.14935408532619476 0.39921343326568604 0.93148142099380493
0.23319298028945923 0.39982253313064575 0.9375760555267334
0.41694855690002441 0.37039542198181152 0.94332563877105713
0.61667126417160034 0.32924038171768188 0.93945252895355225
0.80653399229049683 0.28368064761161804 0.93433201313018799
0.89176207780838013 0.28405067324638367 0.93602943420410156
0.93620705604553223 0.28051841259002686 0.93513625860214233
0.10351616144180298 0.56871175765991211 0.92769378423690796
0.15636108815670013 0.56520432233810425 0.92746067047119141
0.32553458213806152 0.57776743173599243 0.93948328495025635
0.5902523398399353 0.59719783067703247 0.96321451663970947
0.80638575553894043 0.56911098957061768 0.96184605360031128
0.91620421409606934 0.55365782976150513 0.95804071426391602
0.96325445175170898 0.55828821659088135 0.95871835947036743
0.10552221536636353 0.74161225557327271 0.92945575714111328
0.15045122802257538 0.74191737174987793 0.92561882734298706
0.22953356802463531 0.74199187755584717 0.93044495582580566
0.45543169975280762 0.75815862417221069 0.94920545816421509
0.75298464298248291 0.78153711557388306 0.97337901592254639
0.92963916063308716 0.77629697322845459 0.98221361637115479
0.98127931356430054 0.76583123207092285 0.97764003276824951
0.10907597094774246 0.88028311729431152 0.93061137199401855
0.15086723864078522 0.88463205099105835 0.9329073429107666
0.18946173787117004 0.8788604736328125 0.93207359313964844
0.33414104580879211 0.88338392972946167 0.93809568881988525
0.67484289407730103 0.91320419311523438 0.96822476387023926
0.91261518001556396 0.93039977550506592 0.99151676893234253
0.99246829748153687 0.9282296895980835 0.9919695258140564
0.10426526516675949 0.93518239259719849 0.93083316087722778
0.12913411855697632 0.9442099928855896 0.93877202272415161
0.16011954843997955 0.9440467357635498 0.9383319616317749
0.28809031844139099 0.94784760475158691 0.93848961591720581
0.65225958824157715 0.97049582004547119 0.9636797308921814
0.89221513271331787 0.9945216178894043 0.98985594511032104
0.99456137418746948 0.99642348289489746 0.99293327331542969
