assets/lut/editingcorp padre.cube
# Created by: G'MIC (https://gmic.eu)
TITLE "padre"
# LUT size
LUT_3D_SIZE 7
# Data domain
DOMAIN_MIN 0.0 0.0 0.0
DOMAIN_MAX 1.0 1.0 1.0
# LUT data points
0.01874198205769062 0.019865447655320168 0.025825081393122673
0.13253942131996155 0.022268915548920631 0.025425989180803299
0.29294180870056152 0.040476076304912567 0.055343478918075562
0.50191229581832886 0.068790078163146973 0.10210463404655457
0.67279905080795288 0.076573498547077179 0.12532775104045868
0.76299214363098145 0.058819640427827835 0.12661364674568176
0.85490942001342773 0.09979432076215744 0.14196538925170898
0.01558450423181057 0.14259430766105652 0.042353194206953049
0.12033890187740326 0.13564996421337128 0.038570761680603027
0.28155094385147095 0.13739736378192902 0.054828286170959473
0.47774988412857056 0.15452569723129272 0.089259035885334015
0.66740405559539795 0.17515787482261658 0.11877302080392838
0.76709961891174316 0.17219078540802002 0.12786847352981567
0.85858428478240967 0.18219937384128571 0.13540314137935638
0.013376452960073948 0.29997405409812927 0.07457047700881958
0.093463867902755737 0.30024611949920654 0.070209205150604248
0.25057706236839294 0.29306685924530029 0.066567197442054749
0.47616174817085266 0.28612247109413147 0.077106431126594543
0.68151313066482544 0.28501683473587036 0.10322817414999008
0.79327422380447388 0.28058859705924988 0.11333600431680679
0.87714928388595581 0.28116005659103394 0.11949806660413742
0.018486741930246353 0.49672886729240417 0.1235477402806282
0.089000210165977478 0.48849183320999146 0.11849169433116913
0.18974490463733673 0.49147436022758484 0.11851010471582413
0.43297603726387024 0.49011856317520142 0.095537044107913971
0.69008517265319824 0.46134349703788757 0.08854202926158905
0.82499074935913086 0.44458433985710144 0.10891687870025635
0.89570838212966919 0.43837106227874756 0.12768498063087463
0.029732948169112206 0.70230346918106079 0.18826903402805328
0.10063815861940384 0.68988794088363647 0.18474619090557098
0.17758792638778687 0.68508255481719971 0.18763095140457153
0.33102932572364807 0.69114798307418823 0.18442904949188232
0.64102131128311157 0.68258082866668701 0.12603016197681427
0.85144460201263428 0.66531938314437866 0.12028120458126068
0.91639566421508789 0.65022218227386475 0.15044517815113068
0.032996144145727158 0.8530811071395874 0.23072674870491028
0.11049830168485641 0.84946364164352417 0.23318688571453094
0.19490283727645874 0.84370356798171997 0.23166470229625702
0.28114360570907593 0.85389554500579834 0.2535490095615387
0.51093369722366333 0.86402410268783569 0.23946838080883026
0.82183408737182617 0.86903500556945801 0.21914230287075043
0.93424040079116821 0.86180770397186279 0.24399136006832123
0.027190504595637321 0.95740032196044922 0.24326047301292419
0.10805230587720871 0.95243567228317261 0.2464560866355896
0.19075492024421692 0.9469681978225708 0.24655617773532867
0.27000001072883606 0.9589613676071167 0.27023202180862427
0.46942275762557983 0.97596484422683716 0.27870368957519531
0.80094927549362183 0.98603790998458862 0.26651719212532043
0.9412151575088501 0.99056029319763184 0.30348929762840271
0.016854215413331985 0.019480537623167038 0.12685024738311768
0.12677368521690369 0.019571162760257721 0.13153569400310516
0.2919599711894989 0.023241380229592323 0.13725766539573669
0.5029107928276062 0.03306853398680687 0.19252634048461914
0.67777615785598755 0.050091851502656937 0.21744947135448456
0.76145535707473755 0.043949514627456665 0.21799410879611969
0.85284698009490967 0.080046728253364563 0.23543092608451843
0.01289074495434761 0.14360670745372772 0.15318785607814789
0.11650002002716064 0.1393243819475174 0.14552542567253113
0.27808040380477905 0.14217615127563477 0.15429677069187164
0.47878938913345337 0.15864716470241547 0.18349805474281311
0.67529082298278809 0.18801271915435791 0.21098881959915161
0.77408099174499512 0.18737909197807312 0.21490281820297241
0.85944372415542603 0.18614970147609711 0.2246895432472229
0.012402523308992386 0.29974848031997681 0.17097778618335724
0.095949910581111908 0.29811099171638489 0.16305159032344818
0.25301602482795715 0.29109516739845276 0.15263693034648895
0.47204011678695679 0.28207814693450928 0.1570664644241333
0.68058198690414429 0.28919196128845215 0.183786541223526
0.79401499032974243 0.28649333119392395 0.19027186930179596
0.87537741661071777 0.28601568937301636 0.2022184431552887
0.017943363636732101 0.49448978900909424 0.20985546708106995
0.089395336806774139 0.48828461766242981 0.20464576780796051
0.18981674313545227 0.48926529288291931 0.19994467496871948
0.42724424600601196 0.48771744966506958 0.17053766548633575
0.69281017780303955 0.46162131428718567 0.16526848077774048
0.81619918346405029 0.44161513447761536 0.18613313138484955
0.89025974273681641 0.43544068932533264 0.20208926498889923
0.030119368806481361 0.69725906848907471 0.26551514863967896
0.10602340847253799 0.69131326675415039 0.26285776495933533
0.18914139270782471 0.68420124053955078 0.25889581441879272
0.32773295044898987 0.68874090909957886 0.26375117897987366
0.63511580228805542 0.6838911771774292 0.2106814980506897
0.84636050462722778 0.6622505784034729 0.20674866437911987
0.91530716419219971 0.64751285314559937 0.23948834836483002
0.038595940917730331 0.84507566690444946 0.31094127893447876
0.11673546582460403 0.85103791952133179 0.31448554992675781
0.20512786507606506 0.85141664743423462 0.3090236485004425
0.2940114438533783 0.85809141397476196 0.33021515607833862
0.50018459558486938 0.86822855472564697 0.33173787593841553
0.81710582971572876 0.86885517835617065 0.30185744166374207
0.93700230121612549 0.86980962753295898 0.33782726526260376
0.036880925297737122 0.94769382476806641 0.32687836885452271
0.11413609981536865 0.94826430082321167 0.33133664727210999
0.19514910876750946 0.95097357034683228 0.33112949132919312
0.29277518391609192 0.96229159832000732 0.34574404358863831
0.50373190641403198 0.9762457013130188 0.35515221953392029
0.80730229616165161 0.98531138896942139 0.3556438684463501
0.94629037380218506 0.9945940375328064 0.40541538596153259
0.016964482143521309 0.028067225590348244 0.2937590479850769
0.12134252488613129 0.027178715914487839 0.31970345973968506
0.27921736240386963 0.025026418268680573 0.31016457080841064
0.49875494837760925 0.031053880229592323 0.32262754440307617
0.68256145715713501 0.044033437967300415 0.34923675656318665
0.76589488983154297 0.044641278684139252 0.3526310920715332
0.8587755560874939 0.089260384440422058 0.3597971498966217
0.015441176481544971 0.15745487809181213 0.30357873439788818
0.10756289958953857 0.15176364779472351 0.31022858619689941
0.26521486043930054 0.14259707927703857 0.3113972544670105
0.47831624746322632 0.15958179533481598 0.31271234154701233
0.68022888898849487 0.19711248576641083 0.34678906202316284
0.78092002868652344 0.1995413601398468 0.34654051065444946
0.86478441953659058 0.20028989017009735 0.34750860929489136
0.015441176481544971 0.31028172373771667 0.31722602248191833
0.092768408358097076 0.30787670612335205 0.31196284294128418
0.2370455265045166 0.30171996355056763 0.30864503979682922
0.47125932574272156 0.29490333795547485 0.29757270216941833
0.68386805057525635 0.30695900321006775 0.31679838895797729
0.79965513944625854 0.31078639626502991 0.32685533165931702
0.87932103872299194 0.31017851829528809 0.33426174521446228
0.018793622031807899 0.50080591440200806 0.34136477112770081
0.093449026346206665 0.4906790554523468 0.33586394786834717
0.19301089644432068 0.49088513851165771 0.33548182249069214
0.42348292469978333 0.48734602332115173 0.30412939190864563
0.69654667377471924 0.46399274468421936 0.27876719832420349
0.81855887174606323 0.44986042380332947 0.30706524848937988
0.89524805545806885 0.45325052738189697 0.32412636280059814
0.028320267796516418 0.70007342100143433 0.37756389379501343
0.10700718313455582 0.69231855869293213 0.37517639994621277
0.1920369565486908 0.68598324060440063 0.36823797225952148
0.33713307976722717 0.6910240650177002 0.36380651593208313
0.62804639339447021 0.68389880657196045 0.30641824007034302
0.84084904193878174 0.65769511461257935 0.30169165134429932
0.9146232008934021 0.64539450407028198 0.33750298619270325
0.038788169622421265 0.85023903846740723 0.40846648812294006
0.11610990017652512 0.85410892963409424 0.41080006957054138
0.20056807994842529 0.84910577535629272 0.40030646324157715
0.29721257090568542 0.85592228174209595 0.40711277723312378
0.50050652027130127 0.87014549970626831 0.41364216804504395
0.82341480255126953 0.86771225929260254 0.37964165210723877
0.93466532230377197 0.87119776010513306 0.42908033728599548
0.043661110103130341 0.95043617486953735 0.41748315095901489
0.11619879305362701 0.94841229915618896 0.42651638388633728
0.19551801681518555 0.94854593276977539 0.42309537529945374
0.30210402607917786 0.95899128913879395 0.42215368151664734
0.50313347578048706 0.976737380027771 0.43695950508117676
0.80650138854980469 0.98563879728317261 0.43903633952140808
0.95247715711593628 0.99674534797668457 0.49409708380699158
0.016709914430975914 0.032819412648677826 0.49525368213653564
0.1183151975274086 0.038377605378627777 0.50964653491973877
0.26826173067092896 0.028711520135402679 0.53054952621459961
0.48134848475456238 0.045063406229019165 0.51842111349105835
0.67497760057449341 0.062977857887744904 0.5107656717300415
0.77620565891265869 0.055256415158510208 0.51079541444778442
0.86023175716400146 0.087522558867931366 0.51117324829101562
0.01291732769459486 0.17840288579463959 0.48570287227630615
0.10271048545837402 0.16914153099060059 0.49421188235282898
0.24950970709323883 0.15061493217945099 0.51976758241653442
0.45792186260223389 0.16366758942604065 0.49261757731437683
0.6655469536781311 0.1941780149936676 0.49808838963508606
0.77810674905776978 0.18888276815414429 0.50086879730224609
0.86521065235137939 0.20223256945610046 0.51065355539321899
0.014134963974356651 0.33307689428329468 0.49681565165519714
0.092990785837173462 0.32573679089546204 0.49167424440383911
0.22280292212963104 0.31497371196746826 0.50972026586532593
0.44837677478790283 0.30995061993598938 0.49780288338661194
0.67150378227233887 0.32616710662841797 0.49983438849449158
0.79795938730239868 0.32824501395225525 0.50309133529663086
0.88235390186309814 0.33504387736320496 0.51748365163803101
0.01909218542277813 0.51158493757247925 0.51675689220428467
0.094110764563083649 0.50638008117675781 0.50906670093536377
0.18607066571712494 0.50563240051269531 0.51509124040603638
0.40865811705589294 0.49793359637260437 0.50649136304855347
0.68525207042694092 0.48739805817604065 0.49634671211242676
0.81882214546203613 0.49227946996688843 0.51675432920455933
0.90223509073257446 0.49292248487472534 0.51846873760223389
0.030422389507293701 0.70106774568557739 0.55181789398193359
0.10594794899225235 0.69991374015808105 0.54414021968841553
0.18548278510570526 0.6950758695602417 0.54034066200256348
0.32349345088005066 0.69543671607971191 0.54494774341583252
0.61801636219024658 0.68781304359436035 0.5086856484413147
0.83984410762786865 0.66855520009994507 0.5061296820640564
0.92004686594009399 0.66487354040145874 0.52137351036071777
0.043030757457017899 0.8614814281463623 0.56717640161514282
0.1187131255865097 0.86087882518768311 0.56422394514083862
0.20269198715686798 0.85541337728500366 0.55439746379852295
0.29908281564712524 0.86294656991958618 0.55916076898574829
0.50119096040725708 0.87522643804550171 0.56499701738357544
0.82982325553894043 0.87396490573883057 0.53365468978881836
0.94087386131286621 0.87311899662017822 0.55721819400787354
0.048140238970518112 0.96259671449661255 0.56352180242538452
0.12049964815378189 0.95586967468261719 0.56896370649337769
0.19991631805896759 0.95436805486679077 0.56295424699783325
0.29792821407318115 0.96618145704269409 0.56094574928283691
0.47827693819999695 0.98540639877319336 0.57651013135910034
0.80832457542419434 0.99215936660766602 0.57422482967376709
0.95360511541366577 0.99496591091156006 0.61476415395736694
0.017892710864543915 0.040857832878828049 0.65753531455993652
0.11807151883840561 0.044299885630607605 0.66600537300109863
0.26118949055671692 0.038217358291149139 0.70960640907287598
0.46940580010414124 0.053648300468921661 0.72362422943115234
0.68063807487487793 0.08530280739068985 0.70445215702056885
0.78408879041671753 0.066286914050579071 0.68612444400787354
0.86508089303970337 0.087006993591785431 0.6798861026763916
0.015807835385203362 0.19060376286506653 0.65922534465789795
0.10705527663230896 0.18121764063835144 0.6578667163848877
0.24377326667308807 0.17133432626724243 0.69596332311630249
0.43934011459350586 0.17384794354438782 0.72133940458297729
0.65671205520629883 0.19976693391799927 0.70220696926116943
0.77806097269058228 0.19246853888034821 0.69045370817184448
0.86889564990997314 0.20913451910018921 0.69842821359634399
0.017956707626581192 0.3472074568271637 0.68229484558105469
0.10014759004116058 0.34296467900276184 0.67669004201889038
0.22408944368362427 0.33308693766593933 0.70068162679672241
0.42437243461608887 0.31407818198204041 0.7326970100402832
0.66139304637908936 0.31994479894638062 0.698231041431427
0.79758667945861816 0.31763038039207458 0.68667590618133545
0.88575512170791626 0.32523864507675171 0.70868134498596191
0.024092879146337509 0.51803404092788696 0.70931202173233032
0.10085571557283401 0.51115834712982178 0.7103959321975708
0.19676958024501801 0.509712815284729 0.70478451251983643
0.37537220120429993 0.50185471773147583 0.73246228694915771
0.67323017120361328 0.49312984943389893 0.7125207781791687
0.8283354640007019 0.49847257137298584 0.71141278743743896
0.91084814071655273 0.50480252504348755 0.7074553370475769
0.039989322423934937 0.71479201316833496 0.74314862489700317
0.11517589539289474 0.70995014905929565 0.73653310537338257
0.20742009580135345 0.69994121789932251 0.72901946306228638
0.32076787948608398 0.70713424682617188 0.73911750316619873
0.59701800346374512 0.70177763700485229 0.73211592435836792
0.84789210557937622 0.69332653284072876 0.72110307216644287
0.93207865953445435 0.69467675685882568 0.72538435459136963
0.053068183362483978 0.88224160671234131 0.75625026226043701
0.12783236801624298 0.88059550523757935 0.74974721670150757
0.21387746930122375 0.87593132257461548 0.74455720186233521
0.31723687052726746 0.87649053335189819 0.7439342737197876
0.47953388094902039 0.88623994588851929 0.75282114744186401
0.82376605272293091 0.88544988632202148 0.74073004722595215
0.94127589464187622 0.88472986221313477 0.75380867719650269
0.055639874190092087 0.97428047657012939 0.74358046054840088
0.12923654913902283 0.97379583120346069 0.74578702449798584
0.20480635762214661 0.97540843486785889 0.74221312999725342
0.31938260793685913 0.98020255565643311 0.7374037504196167
0.50416451692581177 0.98788809776306152 0.74859970808029175
0.81608861684799194 0.99308168888092041 0.76225072145462036
0.95777034759521484 0.99405264854431152 0.77975869178771973
0.017960775643587112 0.055974565446376801 0.74077266454696655
0.11236630380153656 0.048143170773983002 0.75349003076553345
0.25847563147544861 0.0466461181640625 0.79663610458374023
0.46267658472061157 0.050683159381151199 0.8332703709602356
0.67283040285110474 0.082841299474239349 0.82097887992858887
0.77847063541412354 0.048830069601535797 0.81511622667312622
0.86573940515518188 0.075613580644130707 0.81637370586395264
0.015448117628693581 0.19233116507530212 0.75540614128112793
0.10628392547369003 0.18776518106460571 0.75959771871566772
0.24032524228096008 0.17939582467079163 0.79982227087020874
0.43381088972091675 0.18004833161830902 0.84447014331817627
0.65707123279571533 0.20568813383579254 0.83212149143218994
0.78159236907958984 0.20222392678260803 0.82683360576629639
0.86937522888183594 0.21593181788921356 0.83594071865081787
0.016124172136187553 0.34362503886222839 0.79523271322250366
0.097029305994510651 0.34313768148422241 0.79183769226074219
0.22137880325317383 0.33499741554260254 0.81724798679351807
0.41084432601928711 0.32289472222328186 0.85924071073532104
0.65200614929199219 0.3250877857208252 0.84814000129699707
0.79543840885162354 0.31845617294311523 0.84326374530792236
0.88077622652053833 0.32324588298797607 0.85476475954055786
0.025589033961296082 0.51312351226806641 0.84286355972290039
0.10156524926424026 0.51034700870513916 0.84202855825424194
0.20789420604705811 0.51036220788955688 0.84253937005996704
0.36633634567260742 0.51086831092834473 0.87244915962219238
0.63711178302764893 0.49991166591644287 0.89028692245483398
0.81975096464157104 0.49162265658378601 0.88292652368545532
0.90318435430526733 0.49698656797409058 0.87284171581268311
0.04471983015537262 0.70850181579589844 0.88856357336044312
0.11730014532804489 0.70743048191070557 0.8850255012512207
0.21095277369022369 0.69993168115615845 0.87981587648391724
0.32994109392166138 0.70111799240112305 0.89146196842193604
0.57822573184967041 0.70800620317459106 0.90732234716415405
0.84677517414093018 0.70166182518005371 0.89859801530838013
0.93063437938690186 0.70156401395797729 0.89975118637084961
0.065793894231319427 0.88257712125778198 0.90902030467987061
0.13998031616210938 0.88516652584075928 0.90897482633590698
0.22083441913127899 0.88125002384185791 0.90562403202056885
0.34171992540359497 0.88095581531524658 0.90289765596389771
0.52059930562973022 0.89653807878494263 0.9079509973526001
0.81334608793258667 0.89849865436553955 0.90703701972961426
0.95238775014877319 0.89475613832473755 0.9036182165145874
0.076581813395023346 0.98117077350616455 0.89653962850570679
0.15594469010829926 0.98351359367370605 0.90076500177383423
0.2321351170539856 0.98297250270843506 0.90185058116912842
0.35871997475624084 0.99135488271713257 0.89783930778503418
0.54700368642807007 0.99371486902236938 0.90436083078384399
0.81335592269897461 0.99649763107299805 0.91018152236938477
0.9633171558380127 0.99479687213897705 0.91154074668884277
0.014315945096313953 0.05904122069478035 0.82177627086639404
0.11134885996580124 0.055990945547819138 0.83727824687957764
0.25458487868309021 0.053049422800540924 0.87931674718856812
0.44857317209243774 0.064238347113132477 0.90940839052200317
0.64828479290008545 0.082969352602958679 0.89921557903289795
0.76855015754699707 0.074643030762672424 0.90235990285873413
0.86218780279159546 0.045338887721300125 0.91039812564849854
0.018584651872515678 0.20220628380775452 0.84094178676605225
0.11087169498205185 0.19410544633865356 0.84685921669006348
0.2428525984287262 0.17576035857200623 0.87852364778518677
0.43217545747756958 0.18502576649188995 0.91738659143447876
0.64297538995742798 0.20144456624984741 0.91345304250717163
0.77519363164901733 0.21955852210521698 0.91033422946929932
0.86724060773849487 0.20934088528156281 0.92222929000854492
0.020017482340335846 0.34296640753746033 0.8760603666305542
0.1049816682934761 0.33813884854316711 0.87567108869552612
0.22375929355621338 0.3331814706325531 0.89731353521347046
0.40379080176353455 0.32607769966125488 0.94131225347518921
0.63232755661010742 0.32402470707893372 0.95281177759170532
0.78542852401733398 0.32879477739334106 0.93888849020004272
0.87880009412765503 0.33369290828704834 0.94354701042175293
0.029658598825335503 0.51065963506698608 0.92203062772750854
0.10600282251834869 0.50808411836624146 0.91968363523483276
0.20562626421451569 0.51078373193740845 0.92594343423843384
0.35731786489486694 0.5144118070602417 0.9565892219543457
0.62270617485046387 0.50657373666763306 0.98527407646179199
0.8074113130569458 0.50110012292861938 0.97767704725265503
0.90149092674255371 0.50348794460296631 0.97248393297195435
0.050185408443212509 0.70847445726394653 0.96858853101730347
0.12124451249837875 0.69971150159835815 0.96400713920593262
0.21182571351528168 0.69341015815734863 0.96595054864883423
0.33560225367546082 0.70034706592559814 0.977153480052948
0.5828859806060791 0.71097975969314575 0.99421364068984985
0.83000451326370239 0.70810079574584961 0.99285209178924561
0.93366348743438721 0.70941686630249023 0.9947810173034668
0.08270736038684845 0.88632041215896606 0.99398231506347656
0.16070403158664703 0.88217455148696899 0.99280136823654175
0.25058180093765259 0.88177841901779175 0.99208152294158936
0.3887629508972168 0.88790571689605713 0.99237996339797974
0.58595365285873413 0.90159672498703003 0.99418896436691284
0.82846873998641968 0.90002983808517456 0.99457263946533203
0.95538908243179321 0.9027981162071228 0.99483007192611694
0.10912284255027771 0.99063986539840698 0.99311333894729614
0.20119842886924744 0.98780709505081177 0.99369537830352783
0.29472100734710693 0.99234700202941895 0.99545633792877197
0.43770566582679749 0.99707776308059692 0.99546569585800171
0.62575250864028931 0.99758702516555786 0.99661004543304443
0.83362752199172974 0.99495220184326172 0.99543070793151855
0.97179222106933594 0.99432021379470825 0.99653047323226929
