assets/lut/editingcorp satid.cube
# Created by: G'MIC (https://gmic.eu)
TITLE "satid"
# LUT size
LUT_3D_SIZE 5
# Data domain
DOMAIN_MIN 0.0 0.0 0.0
DOMAIN_MAX 1.0 1.0 1.0
# LUT data points
0.019407862797379494 0.011760173365473747 0.0040139141492545605
0.17399954795837402 0.033023849129676819 0.0044817458838224411
0.43077915906906128 0.067132391035556793 0.00098003307357430458
0.55889558792114258 0.089673988521099091 0.010749681852757931
0.61763876676559448 0.076304927468299866 0
0.0024204179644584656 0.19764776527881622 0.056470174342393875
0.24755258858203888 0.19465745985507965 0.025422593578696251
0.5071532130241394 0.23139950633049011 0.01080582570284605
0.63889968395233154 0.26792639493942261 0.011764706112444401
0.71101242303848267 0.2887694239616394 0.014585831202566624
0.023773657158017159 0.40224531292915344 0.15469500422477722
0.27024134993553162 0.42751175165176392 0.068176284432411194
0.60231953859329224 0.44183653593063354 0.020287502557039261
0.69880217313766479 0.42846837639808655 0.015728281810879707
0.77441960573196411 0.45021313428878784 0.021377863362431526
0.026234615594148636 0.521262526512146 0.24098862707614899
0.19418838620185852 0.56302797794342041 0.24462386965751648
0.62184792757034302 0.5486835241317749 0.022602679207921028
0.74948364496231079 0.56106644868850708 0.033021334558725357
0.81931495666503906 0.58123975992202759 0.027804311364889145
0.039100721478462219 0.6047675609588623 0.32491511106491089
0.12539854645729065 0.64790022373199463 0.38352581858634949
0.63659775257110596 0.65949267148971558 0.13025471568107605
0.79107671976089478 0.66323679685592651 0.048113580793142319
0.81498444080352783 0.71858590841293335 0.28638520836830139
0.021153543144464493 0.051223516464233398 0.15506161749362946
0.177596315741539 0.065321557223796844 0.14542627334594727
0.37856203317642212 0.085991188883781433 0.1115427240729332
0.53999918699264526 0.094345197081565857 0.071959525346755981
0.60972940921783447 0.0733780637383461 0.029845025390386581
0.0033098107669502497 0.26967456936836243 0.22352717816829681
0.21367989480495453 0.25372746586799622 0.24123202264308929
0.51064205169677734 0.26866784691810608 0.15464547276496887
0.64859730005264282 0.29752179980278015 0.12314225733280182
0.71754461526870728 0.30992215871810913 0.10641249269247055
0.0362815260887146 0.43751794099807739 0.31466823816299438
0.091300785541534424 0.48672589659690857 0.36898553371429443
0.58334505558013916 0.50830078125 0.28877168893814087
0.72125047445297241 0.47054409980773926 0.14726482331752777
0.78231543302536011 0.50561922788619995 0.18671905994415283
0.033728878945112228 0.54604053497314453 0.36631166934967041
0.090201571583747864 0.57228446006774902 0.40742745995521545
0.5611758828163147 0.6140332818031311 0.31258562207221985
0.762897789478302 0.60382986068725586 0.14276058971881866
0.80341744422912598 0.63886243104934692 0.30303958058357239
0.043415728956460953 0.62906843423843384 0.44260942935943604
0.12632320821285248 0.66551506519317627 0.48641982674598694
0.52529090642929077 0.71558213233947754 0.49111130833625793
0.75856590270996094 0.7018619179725647 0.28452238440513611
0.80943244695663452 0.757377028465271 0.52037650346755981
0.027929358184337616 0.064984999597072601 0.37398117780685425
0.1455528736114502 0.050559069961309433 0.35699546337127686
0.28162351250648499 0.072095073759555817 0.34051364660263062
0.48004862666130066 0.11356033384799957 0.33425018191337585
0.61269658803939819 0.16187907755374908 0.35912773013114929
0.010572845116257668 0.35107776522636414 0.44677278399467468
0.15942409634590149 0.26540514826774597 0.45682397484779358
0.42316162586212158 0.26693505048751831 0.44918364286422729
0.58453810214996338 0.29796662926673889 0.39853858947753906
0.71781688928604126 0.39720833301544189 0.42931357026100159
0.035108141601085663 0.47665309906005859 0.4921671450138092
0.07393200695514679 0.49824169278144836 0.51949179172515869
0.51048344373703003 0.5461612343788147 0.53245258331298828
0.70111393928527832 0.55822587013244629 0.49780693650245667
0.77720457315444946 0.60065412521362305 0.54684031009674072
0.0343056321144104 0.57132750749588013 0.52746200561523438
0.080971583724021912 0.59688764810562134 0.53840035200119019
0.43371808528900146 0.66367161273956299 0.59195196628570557
0.71929478645324707 0.69913315773010254 0.58744138479232788
0.79856550693511963 0.7104068398475647 0.60753124952316284
0.05985405296087265 0.6487501859664917 0.56766277551651001
0.15931791067123413 0.68430233001708984 0.59289908409118652
0.49930423498153687 0.74543225765228271 0.64131349325180054
0.73507213592529297 0.77133411169052124 0.6298832893371582
0.81152999401092529 0.78344118595123291 0.64919263124465942
0.063721597194671631 0.12865065038204193 0.50305485725402832
0.19060669839382172 0.064387015998363495 0.47700560092926025
0.35068464279174805 0.085888728499412537 0.48994338512420654
0.51624542474746704 0.14032532274723053 0.49551001191139221
0.64318865537643433 0.21972882747650146 0.54218608140945435
0.023699352517724037 0.39530110359191895 0.57832890748977661
0.2166111171245575 0.31046029925346375 0.59148156642913818
0.41740584373474121 0.2429441511631012 0.57790255546569824
0.57088887691497803 0.29104357957839966 0.56538832187652588
0.71231532096862793 0.43806707859039307 0.60448867082595825
0.037623926997184753 0.51148200035095215 0.59382796287536621
0.097620584070682526 0.53912323713302612 0.61700499057769775
0.49554121494293213 0.57666230201721191 0.65457463264465332
0.68384730815887451 0.59505385160446167 0.65840226411819458
0.7695886492729187 0.6238405704498291 0.6715095043182373
0.043569274246692657 0.59688836336135864 0.62282282114028931
0.073503665626049042 0.6226193904876709 0.64180141687393188
0.41863703727722168 0.68346184492111206 0.68497353792190552
0.71029698848724365 0.7201765775680542 0.69834762811660767
0.79519796371459961 0.73034757375717163 0.7066388726234436
0.090963177382946014 0.6820107102394104 0.67176169157028198
0.20555247366428375 0.71639245748519897 0.68723076581954956
0.55504924058914185 0.76011687517166138 0.71789789199829102
0.72782278060913086 0.7826656699180603 0.7268366813659668
0.80645352602005005 0.79735648632049561 0.73946678638458252
0.094208404421806335 0.17911189794540405 0.59199661016464233
0.25023934245109558 0.093792721629142761 0.56340432167053223
0.42369219660758972 0.14558576047420502 0.5991021990776062
0.57463937997817993 0.20076622068881989 0.63744622468948364
0.70377707481384277 0.34497442841529846 0.67898142337799072
0.054469581693410873 0.45319169759750366 0.65566074848175049
0.28107699751853943 0.37782490253448486 0.6798245906829834
0.49321234226226807 0.32492375373840332 0.68259966373443604
0.64256471395492554 0.39558160305023193 0.69729220867156982
0.75607156753540039 0.53986954689025879 0.71508944034576416
0.050969023257493973 0.55590808391571045 0.67460936307907104
0.17877683043479919 0.5926976203918457 0.70001435279846191
0.55511391162872314 0.62370574474334717 0.73083901405334473
0.70614248514175415 0.62036001682281494 0.73366457223892212
0.7768329381942749 0.65254050493240356 0.74585157632827759
0.082389920949935913 0.64183098077774048 0.70752406120300293
0.2141256183385849 0.67567533254623413 0.725666344165802
0.54219239950180054 0.71724420785903931 0.75573724508285522
0.72123849391937256 0.74010378122329712 0.76276278495788574
0.79678118228912354 0.74839603900909424 0.77540290355682373
0.21782034635543823 0.73256796598434448 0.75471174716949463
0.44619163870811462 0.75762486457824707 0.76101875305175781
0.65017062425613403 0.7844586968421936 0.77809566259384155
0.7353859543800354 0.79579842090606689 0.77676397562026978
0.8209538459777832 0.81770110130310059 0.81104332208633423
