assets/lut/editingcorpw Soft Sparkle.cube
LUT_3D_SIZE 6
DOMAIN_MIN 0.0 0.0 0.0
DOMAIN_MAX 1.0 1.0 1.0
0.100374 0.108125 0.113375
0.218955 0.116396 0.139358
0.480299 0.173953 0.125533
0.725966 0.252238 0.183352
0.978826 0.335046 0.263096
1.000000 0.476448 0.362341
0.132271 0.211295 0.149270
0.235862 0.229257 0.143209
0.432699 0.254109 0.148144
0.675914 0.305618 0.204830
0.949593 0.373938 0.270490
1.000000 0.498863 0.360748
0.286265 0.396497 0.280437
0.344374 0.405117 0.293157
0.435030 0.400630 0.261213
0.574862 0.400000 0.249852
0.850572 0.465748 0.283048
1.000000 0.577404 0.356530
0.411121 0.570538 0.377264
0.449481 0.580305 0.384694
0.554786 0.579067 0.395333
0.632158 0.570393 0.341771
0.753563 0.555215 0.306949
1.000000 0.666828 0.344604
0.611865 0.813688 0.509904
0.631076 0.809610 0.508813
0.725833 0.815994 0.529994
0.839511 0.824006 0.540811
0.920863 0.824365 0.451621
1.000000 0.805856 0.372558
0.875486 0.976959 0.868650
0.882804 0.977032 0.871831
0.908434 0.976825 0.881565
0.948797 0.976428 0.896818
0.985248 0.981842 0.893022
1.000000 0.987091 0.858793
0.095461 0.134176 0.200107
0.220637 0.113732 0.214835
0.456797 0.211106 0.260304
0.690120 0.283000 0.299460
0.961885 0.354825 0.340706
1.000000 0.487861 0.412311
0.128255 0.214462 0.222865
0.225795 0.232321 0.238355
0.421184 0.270932 0.263170
0.657496 0.321475 0.297678
0.938361 0.387230 0.339123
1.000000 0.509656 0.409842
0.285953 0.395061 0.323386
0.338231 0.402038 0.333045
0.425540 0.397299 0.308402
0.571233 0.403629 0.299198
0.853960 0.472822 0.331339
1.000000 0.584953 0.399922
0.412552 0.574173 0.403541
0.452697 0.586814 0.412436
0.552413 0.580236 0.418922
0.627575 0.568395 0.368360
0.757595 0.559239 0.336188
1.000000 0.672546 0.376340
0.616612 0.819251 0.537210
0.643437 0.821350 0.543050
0.736867 0.827778 0.565508
0.840231 0.825866 0.567343
0.919867 0.825202 0.475141
1.000000 0.809914 0.396555
0.877568 0.977752 0.877665
0.886540 0.978405 0.882842
0.909273 0.977505 0.888713
0.948748 0.977144 0.902546
0.984778 0.982110 0.899089
1.000000 0.987354 0.866197
0.181442 0.125063 0.396197
0.274732 0.102404 0.401127
0.429754 0.192716 0.394769
0.679886 0.285124 0.438724
0.994767 0.422695 0.516595
1.000000 0.582989 0.604584
0.229046 0.243687 0.389735
0.282727 0.251475 0.394191
0.418687 0.270981 0.393619
0.686640 0.346027 0.449418
0.973082 0.447018 0.506971
1.000000 0.591620 0.594391
0.262049 0.395416 0.407028
0.313735 0.408520 0.418007
0.433217 0.416233 0.420638
0.616211 0.442593 0.430256
0.904454 0.519402 0.477531
1.000000 0.637518 0.565716
0.359132 0.585223 0.455255
0.422023 0.595030 0.475772
0.540523 0.586481 0.489310
0.627672 0.575073 0.451843
0.789980 0.584350 0.431884
1.000000 0.690724 0.485203
0.600553 0.824730 0.614462
0.637478 0.832703 0.630084
0.724604 0.833153 0.643586
0.837455 0.829797 0.657597
0.912793 0.825956 0.557905
1.000000 0.818108 0.484217
0.874138 0.978344 0.896599
0.882713 0.978839 0.900227
0.905212 0.978039 0.904650
0.945806 0.978588 0.917438
0.982786 0.982526 0.917463
1.000000 0.988055 0.889311
0.330913 0.113161 0.590801
0.371115 0.139880 0.584771
0.487305 0.195463 0.565959
0.643554 0.258628 0.555369
0.925345 0.349959 0.626100
1.000000 0.669673 0.808603
0.333986 0.256813 0.562187
0.372421 0.263727 0.565668
0.479841 0.277099 0.555697
0.640703 0.312020 0.556006
0.921042 0.397898 0.629655
1.000000 0.693949 0.815455
0.358438 0.419677 0.554634
0.392655 0.428014 0.562117
0.484718 0.431849 0.559718
0.649126 0.451598 0.572928
0.947066 0.590313 0.702546
1.000000 0.794861 0.863870
0.368775 0.584664 0.579185
0.404290 0.596168 0.589586
0.516883 0.614304 0.604663
0.663823 0.619635 0.604484
0.878125 0.657596 0.627841
1.000000 0.763429 0.748674
0.496828 0.840829 0.700677
0.539111 0.848987 0.713891
0.638193 0.846853 0.721193
0.813856 0.844008 0.771477
0.898887 0.829098 0.690376
1.000000 0.840120 0.673124
0.787533 0.987396 0.879222
0.812935 0.986197 0.890161
0.885550 0.981817 0.921867
0.938390 0.981575 0.938493
0.980107 0.983251 0.943646
1.000000 0.989648 0.922276
0.448981 0.127352 0.851347
0.482358 0.143216 0.849723
0.599258 0.183637 0.844687
0.770314 0.228064 0.837544
0.941581 0.306809 0.825129
1.000000 0.503313 0.856352
0.451635 0.257570 0.842032
0.487040 0.263372 0.846328
0.599266 0.276376 0.841211
0.763918 0.296818 0.832060
0.927232 0.349231 0.813887
1.000000 0.541846 0.861022
0.452994 0.445485 0.825399
0.486256 0.450069 0.830561
0.593739 0.455932 0.831879
0.758476 0.466670 0.834870
0.925737 0.505631 0.830324
1.000000 0.681020 0.886225
0.470096 0.645350 0.828536
0.508887 0.656295 0.838852
0.602783 0.660516 0.840918
0.738396 0.657330 0.841756
0.904868 0.678287 0.843727
1.000000 0.860161 0.933834
0.514802 0.844435 0.870341
0.552926 0.850725 0.876634
0.653111 0.857187 0.883154
0.794174 0.869952 0.896003
0.896081 0.859322 0.882444
1.000000 0.914446 0.930618
0.816282 0.988617 0.943450
0.829952 0.988965 0.945669
0.862740 0.988367 0.948977
0.908470 0.987683 0.953963
0.972818 0.986584 0.969062
1.000000 0.992871 0.960748
0.653620 0.172488 1.000000
0.677406 0.182559 1.000000
0.766860 0.222159 1.000000
0.901317 0.293413 1.000000
1.000000 0.420215 1.000000
1.000000 0.597955 0.998383
0.651313 0.269841 1.000000
0.676488 0.277324 1.000000
0.763790 0.300123 1.000000
0.895472 0.350583 1.000000
1.000000 0.450827 1.000000
1.000000 0.614221 0.996191
0.660261 0.480470 1.000000
0.682496 0.484232 1.000000
0.765148 0.501845 1.000000
0.887755 0.540459 1.000000
1.000000 0.605723 1.000000
1.000000 0.719857 0.993054
0.718001 0.732711 0.997162
0.726854 0.729642 0.998004
0.755051 0.704611 1.000000
0.863871 0.726126 0.998774
0.973271 0.760948 0.995918
1.000000 0.836020 0.988696
0.796762 0.898149 0.990930
0.807680 0.899570 0.990857
0.844496 0.903697 0.990268
0.898332 0.910440 0.989512
0.953550 0.912498 0.990903
1.000000 0.937676 0.990100
0.860594 0.991852 0.993133
0.865324 0.991699 0.993054
0.887987 0.991919 0.993231
0.926006 0.992633 0.993732
0.969281 0.994214 0.994830
0.998932 0.998505 0.999084
