assets/lut/editingcorp culor.cube
# Created by: G'MIC (https://gmic.eu)
TITLE "culor"
# LUT size
LUT_3D_SIZE 5
# Data domain
DOMAIN_MIN 0.0 0.0 0.0
DOMAIN_MAX 1.0 1.0 1.0
# LUT data points
0.032513651996850967 0.031538736075162888 0.033440310508012772
0.28678655624389648 0.046347465366125107 0.013617526739835739
0.57807403802871704 0.047520101070404053 0.0014492857735604048
0.72438758611679077 0.032533623278141022 0
0.80395448207855225 0.042032711207866669 0
0.0039342246018350124 0.20694547891616821 0.069751366972923279
0.18566304445266724 0.23294459283351898 0.032956484705209732
0.54238134622573853 0.28749820590019226 0.0019766115583479404
0.76827353239059448 0.30435317754745483 0
0.88173717260360718 0.32292422652244568 0
0.0012464785249903798 0.40245276689529419 0.12318179756402969
0.11616405099630356 0.43677273392677307 0.079488225281238556
0.51542681455612183 0.50893592834472656 0.010142337530851364
0.80658584833145142 0.54633522033691406 9.6938192655215971e-06
0.94747054576873779 0.5579642653465271 0
0 0.54378443956375122 0.21432159841060638
0.031611498445272446 0.589133620262146 0.16223405301570892
0.4802604615688324 0.67406713962554932 0.049709979444742203
0.80413210391998291 0.72671002149581909 0.00058885460020974278
0.96588677167892456 0.74346345663070679 2.6927275030175224e-05
0.00046557257883250713 0.65187931060791016 0.32630932331085205
0 0.69936269521713257 0.30109453201293945
0.39207884669303894 0.78031200170516968 0.23062340915203094
0.77054166793823242 0.84220755100250244 0.12708920240402222
0.95950049161911011 0.86597615480422974 0.045763667672872543
0.14117887616157532 0.029610292986035347 0.25308939814567566
0.4338286817073822 0.040866747498512268 0.21105369925498962
0.64800089597702026 0.020233139395713806 0.17033596336841583
0.76839363574981689 0.025300433859229088 0.14478342235088348
0.8426557183265686 0.028286833316087723 0.11655151098966599
0.0062546674162149429 0.23091226816177368 0.29671663045883179
0.22058030962944031 0.25993829965591431 0.27125453948974609
0.5951240062713623 0.29166460037231445 0.23370350897312164
0.80245816707611084 0.30236631631851196 0.18723499774932861
0.91100800037384033 0.3215394914150238 0.14995525777339935
1.0501637007109821e-05 0.44568133354187012 0.35789072513580322
0.078916214406490326 0.48370766639709473 0.33040639758110046
0.54609209299087524 0.54616731405258179 0.29233863949775696
0.8293878436088562 0.57306456565856934 0.22857345640659332
0.97082978487014771 0.58031409978866577 0.17907652258872986
0.0078214006498456001 0.59745961427688599 0.42170426249504089
0.01920013502240181 0.64570158720016479 0.39807093143463135
0.49173903465270996 0.72374564409255981 0.36459186673164368
0.81365537643432617 0.76389551162719727 0.30410298705101013
0.97794151306152344 0.77778869867324829 0.25074756145477295
0.0026934754569083452 0.69869166612625122 0.49140176177024841
0.028042199090123177 0.74526524543762207 0.48411273956298828
0.41911303997039795 0.82621079683303833 0.448047935962677
0.77577686309814453 0.87966877222061157 0.41364952921867371
0.96203756332397461 0.90558362007141113 0.3647923469543457
0.38293620944023132 0.0088696051388978958 0.47145640850067139
0.5950276255607605 0.0050884322263300419 0.45844843983650208
0.7052074670791626 0.020269701257348061 0.41962778568267822
0.80356758832931519 0.014025609940290451 0.41020175814628601
0.8683963418006897 0.027015864849090576 0.40430864691734314
0.038789279758930206 0.24405224621295929 0.52016991376876831
0.32033267617225647 0.27612671256065369 0.5247158408164978
0.65078413486480713 0.29355883598327637 0.50930309295654297
0.83065170049667358 0.30142322182655334 0.48457974195480347
0.93371427059173584 0.32247805595397949 0.45951703190803528
0.0040903729386627674 0.48968836665153503 0.58887332677841187
0.16818922758102417 0.53001415729522705 0.58641695976257324
0.59236812591552734 0.57851850986480713 0.57642209529876709
0.84759843349456787 0.59993660449981689 0.55119788646697998
0.98522603511810303 0.60549074411392212 0.52431976795196533
0.0010746675543487072 0.65491646528244019 0.63457655906677246
0.029005911201238632 0.70026570558547974 0.63249349594116211
0.50824218988418579 0.7668575644493103 0.62395089864730835
0.83382052183151245 0.80309706926345825 0.59671473503112793
0.98644685745239258 0.80850660800933838 0.57161110639572144
0 0.74913126230239868 0.67096573114395142
0.088562548160552979 0.80094665288925171 0.67368412017822266
0.4594801664352417 0.87699741125106812 0.66743767261505127
0.78568631410598755 0.92625725269317627 0.65047150850296021
0.9638482928276062 0.94239503145217896 0.62591028213500977
0.62228399515151978 0 0.59104615449905396
0.71665358543395996 0.0010222939308732748 0.58719748258590698
0.78626775741577148 3.0697094189235941e-05 0.58599585294723511
0.83060908317565918 0 0.57525384426116943
0.88983893394470215 0.0041899140924215317 0.57496601343154907
0.23529908061027527 0.23424956202507019 0.67394852638244629
0.48035237193107605 0.25089597702026367 0.68526625633239746
0.71470379829406738 0.25827288627624512 0.68766725063323975
0.85962313413619995 0.25873896479606628 0.67608541250228882
0.94115579128265381 0.2923489511013031 0.66660970449447632
0.0091027207672595978 0.51804131269454956 0.74835759401321411
0.33659014105796814 0.55648124217987061 0.76763391494750977
0.66708976030349731 0.58825004100799561 0.76636892557144165
0.87095922231674194 0.60312426090240479 0.75939023494720459
0.99405449628829956 0.60969775915145874 0.73913514614105225
8.7289248767774552e-05 0.69925063848495483 0.7872474193572998
0.14542905986309052 0.74422240257263184 0.80376130342483521
0.5921860933303833 0.79525762796401978 0.80830061435699463
0.85471230745315552 0.81927132606506348 0.79883557558059692
0.99297857284545898 0.82476538419723511 0.78236407041549683
0.00026137407985515893 0.80223453044891357 0.82005852460861206
0.14905162155628204 0.85379171371459961 0.82567983865737915
0.51561683416366577 0.90939664840698242 0.83779460191726685
0.82185649871826172 0.95208859443664551 0.83270442485809326
0.97705906629562378 0.96744853258132935 0.81206893920898438
0.79482161998748779 0.00087766459910199046 0.6547095775604248
0.81882190704345703 7.0010914896556642e-06 0.65042299032211304
0.84027063846588135 0 0.65141975879669189
0.84641182422637939 2.1003274014219642e-05 0.64043545722961426
0.91783928871154785 0 0.65563398599624634
0.47264260053634644 0.21700280904769897 0.76380670070648193
0.61683362722396851 0.21299581229686737 0.76818335056304932
0.77221548557281494 0.18657657504081726 0.76856845617294312
0.88005954027175903 0.19830460846424103 0.76693332195281982
0.95001405477523804 0.23445017635822296 0.76417779922485352
0.33295705914497375 0.54593151807785034 0.85818195343017578
0.52838075160980225 0.5662500262260437 0.86366778612136841
0.75911188125610352 0.58166342973709106 0.86462908983230591
0.90547186136245728 0.58911395072937012 0.85951697826385498
0.99683809280395508 0.59464424848556519 0.85068851709365845
0.08432895690202713 0.74668389558792114 0.89487004280090332
0.4047248363494873 0.77604556083679199 0.90619206428527832
0.69275051355361938 0.80817914009094238 0.91040134429931641
0.88781547546386719 0.81984949111938477 0.90517342090606689
0.99873989820480347 0.82746678590774536 0.89563602209091187
0.024197805672883987 0.85873758792877197 0.92178207635879517
0.29749804735183716 0.89373260736465454 0.92605966329574585
0.62747102975845337 0.93883681297302246 0.9347720742225647
0.85059744119644165 0.96462815999984741 0.93098175525665283
0.99334180355072021 0.97784209251403809 0.91991508007049561
