assets/lut/editingcorp dimmer.cube
# Created by: G'MIC (https://gmic.eu)
TITLE "dimmer"
# LUT size
LUT_3D_SIZE 5
# Data domain
DOMAIN_MIN 0.0 0.0 0.0
DOMAIN_MAX 1.0 1.0 1.0
# LUT data points
0.059606991708278656 0.057504929602146149 0.052111398428678513
0.19813695549964905 0.069116272032260895 0.053429249674081802
0.33254054188728333 0.045932170003652573 0.052700940519571304
0.50424867868423462 0.037108536809682846 0.039000567048788071
0.73929852247238159 0.097878493368625641 0.01952107809484005
0.10650230944156647 0.19637849926948547 0.11345723271369934
0.26259034872055054 0.19925934076309204 0.08660387247800827
0.41409948468208313 0.22256685793399811 0.080736137926578522
0.59086054563522339 0.23193089663982391 0.046910140663385391
0.80967468023300171 0.3445475697517395 0.037260271608829498
0.21323564648628235 0.39781114459037781 0.21844139695167542
0.3071708083152771 0.43050083518028259 0.20060783624649048
0.48122102022171021 0.44571730494499207 0.14043231308460236
0.67050528526306152 0.50015455484390259 0.10665881633758545
0.85324978828430176 0.52322101593017578 0.090433739125728607
0.33738613128662109 0.56401509046554565 0.35131824016571045
0.41955134272575378 0.61506396532058716 0.3438321053981781
0.53990423679351807 0.64418774843215942 0.258716881275177
0.72923064231872559 0.64798390865325928 0.20564143359661102
0.8726348876953125 0.67945492267608643 0.20538443326950073
0.48073515295982361 0.73731738328933716 0.51199877262115479
0.56766855716705322 0.77323371171951294 0.55726641416549683
0.64302974939346313 0.79121655225753784 0.47077545523643494
0.78624290227890015 0.7852364182472229 0.34122031927108765
0.88995867967605591 0.80600035190582275 0.35466885566711426
0.049927625805139542 0.092327296733856201 0.23402592539787292
0.18951970338821411 0.092378266155719757 0.23408898711204529
0.34350830316543579 0.081985235214233398 0.16880175471305847
0.49902039766311646 0.07247430831193924 0.16333532333374023
0.73388040065765381 0.15801796317100525 0.13990284502506256
0.09864361584186554 0.27263498306274414 0.29794332385063171
0.23335157334804535 0.29717683792114258 0.31467428803443909
0.47014990448951721 0.31148287653923035 0.27826336026191711
0.61095398664474487 0.33863547444343567 0.31467258930206299
0.79077959060668945 0.3992563784122467 0.30483770370483398
0.21790196001529694 0.49027064442634583 0.39617693424224854
0.32071700692176819 0.51337581872940063 0.41065672039985657
0.5284048318862915 0.50375330448150635 0.33489459753036499
0.6815418004989624 0.54376316070556641 0.38487944006919861
0.83639729022979736 0.55536764860153198 0.38961467146873474
0.36800459027290344 0.63687664270401001 0.44817972183227539
0.45889055728912354 0.69124573469161987 0.53114229440689087
0.58459615707397461 0.68310654163360596 0.50408673286437988
0.73508507013320923 0.70103102922439575 0.43629896640777588
0.86817687749862671 0.71399354934692383 0.45982655882835388
0.48991855978965759 0.79691368341445923 0.59864526987075806
0.57863110303878784 0.82439011335372925 0.65387427806854248
0.68748480081558228 0.81324279308319092 0.64764076471328735
0.79452526569366455 0.84575915336608887 0.54588013887405396
0.89512676000595093 0.8500208854675293 0.53827935457229614
0.026938285678625107 0.090062357485294342 0.46809881925582886
0.18362365663051605 0.069494687020778656 0.509044349193573
0.391977459192276 0.093258924782276154 0.38537517189979553
0.50565075874328613 0.14386172592639923 0.29528030753135681
0.70063412189483643 0.27993127703666687 0.37221106886863708
0.13199588656425476 0.32390633225440979 0.46425271034240723
0.25248822569847107 0.30785652995109558 0.52849417924880981
0.49934548139572144 0.36112231016159058 0.48620259761810303
0.6296195387840271 0.41231504082679749 0.45859324932098389
0.789500892162323 0.44348397850990295 0.47258716821670532
0.25086075067520142 0.53565317392349243 0.54445743560791016
0.33618858456611633 0.56668198108673096 0.58358550071716309
0.55647873878479004 0.57705819606781006 0.55231708288192749
0.71922332048416138 0.57930171489715576 0.53452205657958984
0.84521031379699707 0.57162976264953613 0.55303263664245605
0.3844141960144043 0.70580637454986572 0.60833543539047241
0.47202759981155396 0.75252920389175415 0.65371233224868774
0.62544471025466919 0.74306273460388184 0.65255320072174072
0.76734417676925659 0.74562090635299683 0.60077202320098877
0.90150195360183716 0.75875639915466309 0.63573229312896729
0.51558321714401245 0.84733939170837402 0.6979140043258667
0.60356557369232178 0.87784337997436523 0.74525833129882812
0.72467470169067383 0.87731105089187622 0.76829719543457031
0.8284451961517334 0.87931710481643677 0.73068070411682129
0.92823153734207153 0.89582228660583496 0.70906168222427368
0.12909926474094391 0.11945049464702606 0.68240982294082642
0.32156747579574585 0.077117428183555603 0.68845576047897339
0.46186134219169617 0.12017945200204849 0.63297265768051147
0.59645742177963257 0.20029303431510925 0.53808075189590454
0.74385929107666016 0.34594199061393738 0.59333235025405884
0.23457524180412292 0.42808586359024048 0.67081570625305176
0.37298187613487244 0.34691938757896423 0.73162978887557983
0.54280298948287964 0.35892155766487122 0.76926147937774658
0.69203031063079834 0.44899573922157288 0.66166430711746216
0.79914247989654541 0.46112114191055298 0.64530378580093384
0.30650296807289124 0.5835908055305481 0.6889004111289978
0.39072048664093018 0.61287820339202881 0.73341125249862671
0.56153827905654907 0.56488925218582153 0.79108327627182007
0.75876611471176147 0.59517800807952881 0.75247329473495483
0.85320770740509033 0.61004889011383057 0.70314449071884155
0.39600759744644165 0.71477967500686646 0.74337947368621826
0.49281573295593262 0.76696360111236572 0.78278881311416626
0.59630978107452393 0.77620226144790649 0.81904101371765137
0.78506827354431152 0.80263620615005493 0.81440079212188721
0.92068248987197876 0.80351585149765015 0.79989063739776611
0.55559200048446655 0.90049713850021362 0.86832225322723389
0.6348450779914856 0.92354786396026611 0.8905712366104126
0.71441900730133057 0.93729192018508911 0.91324108839035034
0.84795647859573364 0.93932092189788818 0.89567720890045166
0.94977498054504395 0.93383723497390747 0.8634076714515686
0.35783416032791138 0.25270864367485046 0.89319336414337158
0.52199947834014893 0.20554783940315247 0.89370048046112061
0.63337862491607666 0.26756501197814941 0.89032858610153198
0.74470013380050659 0.36752498149871826 0.83092361688613892
0.84650880098342896 0.42246448993682861 0.81536567211151123
0.38400676846504211 0.48972210288047791 0.92579358816146851
0.55055868625640869 0.44225344061851501 0.94887804985046387
0.68107742071151733 0.42214182019233704 0.95023626089096069
0.79552137851715088 0.48092544078826904 0.89535093307495117
0.8818814754486084 0.5183333158493042 0.87773889303207397
0.41181814670562744 0.65447884798049927 0.900432288646698
0.52786999940872192 0.66370856761932373 0.91435104608535767
0.6738506555557251 0.63219517469406128 0.94557946920394897
0.84605234861373901 0.63193207979202271 0.93836444616317749
0.91346579790115356 0.67081338167190552 0.90834486484527588
0.48152616620063782 0.78188538551330566 0.92221724987030029
0.57386857271194458 0.80704027414321899 0.93486696481704712
0.66649585962295532 0.82717752456665039 0.94940286874771118
0.82348501682281494 0.83294415473937988 0.94354307651519775
0.9492155909538269 0.83963346481323242 0.93570190668106079
0.60258018970489502 0.92264652252197266 0.9848286509513855
0.67591089010238647 0.92584514617919922 0.9714849591255188
0.75408875942230225 0.93859702348709106 0.97825545072555542
0.85465031862258911 0.95547765493392944 0.9800686240196228
0.98210638761520386 0.97469609975814819 0.98145991563796997
