assets/lut/editingcorpw Peach Perfection.cube
LUT_3D_SIZE 16
DOMAIN_MIN 0.0 0.0 0.0
DOMAIN_MAX 1.0 1.0 1.0
0.138949 0.131136 0.172091
0.148703 0.135091 0.175052
0.185354 0.152731 0.187918
0.231864 0.175869 0.204715
0.279790 0.199038 0.221518
0.329046 0.224521 0.240146
0.382983 0.253556 0.262175
0.440320 0.284013 0.285857
0.502232 0.315380 0.311064
0.569335 0.347679 0.337872
0.640497 0.380865 0.366979
0.711903 0.416279 0.400080
0.786997 0.456563 0.440424
0.861265 0.502971 0.490284
0.927520 0.555493 0.549352
0.983948 0.617517 0.620264
0.146206 0.139638 0.178097
0.149647 0.141456 0.179680
0.198503 0.155400 0.183218
0.241211 0.176363 0.201119
0.286041 0.198908 0.218386
0.333544 0.224021 0.237626
0.385928 0.252856 0.259602
0.442366 0.283262 0.283644
0.503659 0.314665 0.309053
0.570372 0.347036 0.336038
0.641694 0.380462 0.365277
0.713473 0.416067 0.398590
0.788064 0.456147 0.438847
0.861624 0.502053 0.488181
0.927483 0.554148 0.546888
0.984448 0.616565 0.618500
0.173477 0.172164 0.200687
0.176104 0.172489 0.202310
0.181747 0.176585 0.206887
0.261315 0.197270 0.193073
0.312401 0.208930 0.206932
0.356634 0.230064 0.229215
0.405205 0.256664 0.253013
0.458967 0.286271 0.278238
0.518364 0.317096 0.304197
0.583537 0.349094 0.331530
0.653041 0.382092 0.360809
0.722900 0.417174 0.394170
0.796684 0.457183 0.434654
0.869595 0.503088 0.484557
0.934166 0.555229 0.544069
0.988806 0.616187 0.614899
0.203134 0.207626 0.225797
0.205656 0.208125 0.227158
0.211489 0.208555 0.231133
0.217534 0.214198 0.236222
0.295879 0.242739 0.221025
0.387469 0.255698 0.209714
0.433155 0.271794 0.237455
0.484227 0.295938 0.265148
0.541295 0.323755 0.292481
0.604726 0.354090 0.320601
0.671809 0.386053 0.350628
0.740074 0.420397 0.384498
0.811936 0.459436 0.425245
0.882120 0.503951 0.474938
0.944177 0.554804 0.534804
0.997058 0.615527 0.607367
0.240158 0.250010 0.256736
0.242716 0.251280 0.258408
0.247903 0.251147 0.261328
0.254069 0.252333 0.266546
0.259453 0.257857 0.271038
0.326623 0.287828 0.259715
0.451263 0.312247 0.226793
0.520053 0.325156 0.242799
0.576037 0.344906 0.273318
0.637661 0.370032 0.303231
0.700502 0.398065 0.334319
0.765841 0.429523 0.369171
0.835449 0.466429 0.410673
0.902967 0.508999 0.461387
0.961682 0.558100 0.522848
1.000000 0.615473 0.595288
0.276432 0.290898 0.287816
0.279930 0.293504 0.290397
0.284153 0.292980 0.292449
0.290355 0.292558 0.296654
0.295299 0.294639 0.301427
0.300786 0.299992 0.306035
0.355493 0.328698 0.301109
0.492445 0.365899 0.264683
0.614740 0.387390 0.240354
0.674202 0.402173 0.274992
0.734249 0.422522 0.309178
0.798007 0.448780 0.346068
0.864475 0.480866 0.388788
0.927440 0.518614 0.440229
0.981690 0.563110 0.502730
1.000000 0.617548 0.578393
0.315843 0.334551 0.322289
0.320308 0.338313 0.325822
0.323412 0.337516 0.327229
0.328796 0.336433 0.330317
0.334977 0.335658 0.335651
0.339196 0.338818 0.339855
0.344511 0.344030 0.344558
0.387151 0.369207 0.346056
0.534942 0.417925 0.305868
0.685701 0.451341 0.260670
0.772286 0.466029 0.271068
0.834193 0.483172 0.312379
0.897382 0.507502 0.358366
0.956675 0.538274 0.412429
0.999473 0.575895 0.477428
1.000000 0.623615 0.555749
0.355517 0.378570 0.358752
0.360028 0.382583 0.362645
0.362794 0.381782 0.363848
0.368007 0.380808 0.366671
0.374716 0.380095 0.371606
0.380957 0.380127 0.378320
0.385443 0.384609 0.382647
0.390896 0.390029 0.387920
0.420722 0.410688 0.396149
0.577829 0.469239 0.351984
0.734737 0.510252 0.305259
0.867013 0.534744 0.267704
0.930559 0.548605 0.315209
0.984864 0.568436 0.373648
1.000000 0.594657 0.440557
1.000000 0.632850 0.522448
0.397168 0.424811 0.399524
0.400946 0.428122 0.402945
0.403437 0.427541 0.404126
0.408383 0.426822 0.406911
0.415319 0.426166 0.411641
0.422956 0.425751 0.418610
0.428797 0.427552 0.425704
0.433930 0.432694 0.431029
0.440124 0.438819 0.437447
0.462437 0.456791 0.450207
0.622968 0.523198 0.408808
0.789497 0.573099 0.360879
0.932510 0.601729 0.307871
1.000000 0.612596 0.322062
1.000000 0.626701 0.396894
1.000000 0.652930 0.485060
0.443104 0.476325 0.447779
0.446691 0.479612 0.451335
0.448748 0.478894 0.452296
0.453580 0.478293 0.455035
0.460828 0.478059 0.460012
0.469288 0.477851 0.467109
0.477371 0.477931 0.476317
0.482842 0.481321 0.483202
0.488367 0.486834 0.489275
0.495206 0.493676 0.496820
0.511723 0.509813 0.514214
0.671656 0.582900 0.483123
0.844220 0.639609 0.434927
0.977131 0.666113 0.386219
1.000000 0.666788 0.341057
1.000000 0.677705 0.428144
0.496803 0.537041 0.508110
0.498951 0.538799 0.510265
0.501134 0.538250 0.511339
0.506108 0.538030 0.514458
0.513609 0.538164 0.519750
0.523033 0.538598 0.527306
0.533025 0.539355 0.537273
0.541881 0.540685 0.548827
0.548247 0.546655 0.556213
0.555224 0.553594 0.564080
0.563195 0.561486 0.572992
0.577673 0.575952 0.589325
0.726253 0.651765 0.576849
0.894755 0.710921 0.533947
0.998462 0.732131 0.493474
1.000000 0.729976 0.454108
0.558068 0.603107 0.578185
0.561221 0.605749 0.581396
0.562133 0.604194 0.581227
0.566778 0.604211 0.584190
0.574945 0.605559 0.590284
0.584845 0.606983 0.598272
0.595536 0.608064 0.607748
0.605268 0.608726 0.618365
0.612738 0.610795 0.628531
0.619297 0.617336 0.635855
0.627692 0.625660 0.645154
0.637661 0.635591 0.656133
0.651573 0.649406 0.671379
0.777267 0.720472 0.674829
0.928562 0.775631 0.638375
1.000000 0.796274 0.616412
0.635627 0.685121 0.665553
0.638383 0.687334 0.668309
0.638459 0.685216 0.667314
0.641367 0.683842 0.668443
0.647497 0.683597 0.672295
0.656819 0.684748 0.679274
0.668662 0.687237 0.689214
0.680886 0.689841 0.700762
0.691814 0.692210 0.713214
0.699796 0.697245 0.722794
0.707570 0.704945 0.730849
0.716724 0.714017 0.740228
0.727175 0.724384 0.750829
0.739448 0.736561 0.763101
0.832891 0.796506 0.778164
0.956469 0.848814 0.763033
0.714119 0.762491 0.747939
0.715546 0.763346 0.749123
0.715209 0.761387 0.748061
0.718242 0.760902 0.749616
0.724780 0.761952 0.753955
0.733590 0.763693 0.760238
0.743865 0.765592 0.767865
0.754392 0.767345 0.776387
0.764654 0.769209 0.785879
0.774464 0.772019 0.796836
0.782876 0.779666 0.805142
0.792038 0.788794 0.813797
0.801486 0.798233 0.822651
0.810478 0.807202 0.831001
0.819993 0.816695 0.839764
0.883629 0.865312 0.863877
0.809176 0.847685 0.837101
0.812606 0.850268 0.840033
0.812643 0.849263 0.839615
0.814255 0.848528 0.840198
0.817960 0.848462 0.842251
0.823642 0.849040 0.845799
0.830881 0.850223 0.850661
0.838801 0.851624 0.856411
0.846892 0.853243 0.862929
0.854729 0.855283 0.870207
0.861845 0.858653 0.877696
0.868512 0.865375 0.883632
0.875903 0.872827 0.890225
0.883302 0.880291 0.896811
0.890216 0.887305 0.902950
0.899095 0.896257 0.910777
0.884337 0.909575 0.902281
0.885838 0.910692 0.903557
0.886076 0.910253 0.903495
0.887577 0.910332 0.904314
0.890519 0.910972 0.906169
0.894499 0.911864 0.908721
0.899248 0.913024 0.911907
0.904601 0.914434 0.915715
0.910198 0.916026 0.919951
0.916057 0.918126 0.924889
0.922057 0.920958 0.930571
0.927617 0.925310 0.935918
0.933214 0.931023 0.940825
0.939220 0.937164 0.946111
0.945775 0.943877 0.951891
0.953429 0.951751 0.958648
0.142165 0.134414 0.178225
0.145996 0.138474 0.177808
0.175877 0.158353 0.194194
0.221737 0.183219 0.212636
0.272126 0.205295 0.228562
0.322649 0.230112 0.246720
0.377225 0.258335 0.267874
0.434822 0.288132 0.290970
0.496402 0.318417 0.315258
0.562647 0.349626 0.341328
0.633606 0.381994 0.369665
0.705420 0.416864 0.402219
0.781089 0.456915 0.442276
0.856134 0.503103 0.491703
0.923368 0.555370 0.550258
0.979718 0.615454 0.618732
0.144107 0.142400 0.180894
0.153589 0.146155 0.183929
0.187255 0.161506 0.194526
0.231732 0.182223 0.209749
0.278652 0.204299 0.225737
0.327388 0.229186 0.244259
0.380057 0.257407 0.265615
0.436639 0.287132 0.288830
0.498034 0.317693 0.313384
0.564394 0.349166 0.339663
0.635440 0.381860 0.368204
0.707308 0.416820 0.400966
0.782327 0.456563 0.440762
0.856306 0.501953 0.489380
0.922197 0.553030 0.546673
0.980133 0.614411 0.616846
0.172997 0.174458 0.201827
0.178311 0.176582 0.204714
0.185858 0.180407 0.209365
0.261566 0.198199 0.199362
0.306646 0.211793 0.215716
0.351178 0.234173 0.236952
0.400156 0.260981 0.259848
0.454226 0.289946 0.283922
0.513198 0.319811 0.308845
0.577870 0.350968 0.335308
0.647182 0.383335 0.363938
0.717477 0.418043 0.396795
0.791911 0.457917 0.437064
0.865398 0.503703 0.486648
0.930820 0.555676 0.545751
0.985699 0.615574 0.615068
0.205350 0.211235 0.228243
0.208198 0.212041 0.229750
0.214659 0.212404 0.233734
0.220744 0.217676 0.238926
0.299446 0.244763 0.223949
0.382574 0.256815 0.218974
0.428471 0.273943 0.244883
0.479600 0.298075 0.271036
0.536296 0.325530 0.297303
0.599346 0.355232 0.324502
0.666457 0.386893 0.353869
0.735006 0.421074 0.387362
0.807206 0.459881 0.427662
0.877716 0.504067 0.476767
0.939877 0.554097 0.535333
0.993955 0.614650 0.607279
0.242402 0.253363 0.259149
0.244966 0.254609 0.260785
0.250503 0.254429 0.263719
0.256790 0.255201 0.268800
0.261836 0.260355 0.273048
0.329823 0.289687 0.261083
0.451356 0.312578 0.230979
0.515937 0.325444 0.249294
0.571525 0.345297 0.278445
0.632857 0.370368 0.307404
0.695762 0.398237 0.337935
0.761553 0.429794 0.372292
0.831808 0.466896 0.413543
0.899866 0.509637 0.464054
0.959183 0.558820 0.525214
1.000000 0.616027 0.597065
0.278196 0.293437 0.289647
0.281778 0.295915 0.292204
0.285948 0.295375 0.294182
0.292033 0.294746 0.298208
0.297134 0.296478 0.303014
0.302153 0.301573 0.307293
0.357630 0.329983 0.301620
0.493025 0.365919 0.266300
0.610199 0.386029 0.246266
0.669687 0.401182 0.279557
0.729964 0.421893 0.313054
0.794129 0.448433 0.349381
0.860837 0.480777 0.391736
0.924158 0.518539 0.442599
0.977949 0.562164 0.503527
1.000000 0.617560 0.579657
0.317214 0.336470 0.323772
0.321265 0.340007 0.327064
0.324562 0.339234 0.328462
0.330081 0.338078 0.331583
0.336298 0.337140 0.336748
0.340468 0.340062 0.341017
0.345673 0.345179 0.345639
0.389006 0.370443 0.346491
0.536017 0.418234 0.306699
0.685646 0.450757 0.262348
0.768977 0.464979 0.275589
0.831292 0.482611 0.316273
0.895058 0.507404 0.361825
0.954699 0.538499 0.415676
0.999209 0.576509 0.480574
1.000000 0.624644 0.558649
0.356702 0.380185 0.360070
0.361163 0.384190 0.363943
0.363986 0.383488 0.365187
0.369126 0.382428 0.367942
0.375929 0.381555 0.372784
0.382014 0.381296 0.379345
0.386187 0.385379 0.383374
0.391356 0.390505 0.388379
0.421924 0.411315 0.395992
0.578455 0.469221 0.352203
0.734726 0.509784 0.306249
0.865259 0.533861 0.271264
0.928352 0.547936 0.318977
0.982722 0.567960 0.376768
1.000000 0.593926 0.442317
1.000000 0.633218 0.524939
0.398360 0.426499 0.400979
0.402402 0.430094 0.404704
0.405033 0.429620 0.405984
0.409990 0.428813 0.408707
0.416994 0.428051 0.413358
0.424549 0.427570 0.420232
0.430306 0.429116 0.427301
0.435200 0.433942 0.432324
0.440971 0.439683 0.438335
0.463320 0.457491 0.450677
0.624061 0.523537 0.408963
0.790080 0.573083 0.361646
0.932872 0.601500 0.309194
1.000000 0.612465 0.326177
1.000000 0.627001 0.400670
1.000000 0.654358 0.489702
0.444125 0.477931 0.449188
0.448305 0.481872 0.453411
0.450647 0.481348 0.454570
0.455414 0.480639 0.457229
0.462512 0.480148 0.461986
0.470778 0.479645 0.468763
0.478523 0.479193 0.477536
0.483677 0.482143 0.484110
0.489044 0.487499 0.489987
0.495736 0.494202 0.497395
0.512457 0.510456 0.514771
0.672677 0.583356 0.483280
0.844589 0.639579 0.435379
0.976708 0.665297 0.386326
1.000000 0.666263 0.342341
1.000000 0.678541 0.432691
0.498335 0.539196 0.510222
0.501274 0.541532 0.513115
0.503615 0.541192 0.514416
0.508529 0.540917 0.517422
0.515991 0.540910 0.522605
0.525279 0.541161 0.530004
0.535149 0.541673 0.539630
0.543639 0.542514 0.550761
0.549485 0.547841 0.557570
0.556004 0.554344 0.564928
0.563708 0.562029 0.573608
0.578278 0.576551 0.590003
0.727442 0.652452 0.577159
0.895424 0.711207 0.534468
0.998602 0.732462 0.494730
1.000000 0.730788 0.456996
0.560473 0.605887 0.581103
0.565155 0.610224 0.586120
0.567007 0.609703 0.587016
0.571555 0.609534 0.589833
0.578821 0.609863 0.594858
0.587801 0.610173 0.601686
0.597636 0.610377 0.610163
0.607045 0.610614 0.620327
0.614161 0.612227 0.630140
0.620481 0.618534 0.637184
0.628735 0.626717 0.646277
0.638317 0.636251 0.656881
0.651894 0.649702 0.671699
0.777853 0.720602 0.674496
0.929093 0.775851 0.638756
1.000000 0.796989 0.618194
0.638534 0.688286 0.668950
0.641813 0.691036 0.672205
0.642965 0.689986 0.672401
0.646250 0.688999 0.673937
0.652215 0.688585 0.677624
0.661372 0.689515 0.684307
0.672308 0.691019 0.693198
0.683341 0.692451 0.703412
0.693361 0.693812 0.714777
0.700782 0.698222 0.723818
0.708272 0.705645 0.731583
0.717356 0.714658 0.740888
0.727781 0.724983 0.751438
0.740085 0.737191 0.763746
0.834277 0.797650 0.779047
0.957415 0.850147 0.765029
0.716756 0.765166 0.750713
0.719953 0.767687 0.753656
0.720456 0.766485 0.753392
0.723365 0.765870 0.754791
0.729126 0.766215 0.758379
0.737105 0.767158 0.763754
0.746477 0.768275 0.770530
0.756397 0.769445 0.778398
0.766313 0.770917 0.787476
0.775910 0.773501 0.798193
0.784134 0.780932 0.806347
0.792930 0.789701 0.814651
0.801974 0.798711 0.823108
0.810729 0.807437 0.831231
0.820388 0.817092 0.840135
0.884422 0.865977 0.864360
0.811041 0.849382 0.838829
0.814295 0.851843 0.841629
0.814996 0.851392 0.841813
0.817056 0.851030 0.842769
0.820827 0.851031 0.844866
0.826229 0.851441 0.848179
0.832976 0.852213 0.852600
0.840297 0.853104 0.857807
0.847832 0.854186 0.863769
0.855277 0.855845 0.870660
0.862217 0.859054 0.878032
0.868841 0.865683 0.883928
0.876179 0.873097 0.890460
0.883564 0.880570 0.897043
0.890646 0.887722 0.903308
0.899778 0.896984 0.911383
0.885197 0.910387 0.903093
0.887212 0.911888 0.904749
0.887712 0.911705 0.904928
0.889143 0.911705 0.905699
0.891792 0.912122 0.907279
0.895421 0.912767 0.909581
0.899874 0.913675 0.912493
0.905058 0.914925 0.916136
0.910574 0.916447 0.920309
0.916425 0.918530 0.925200
0.922399 0.921336 0.930828
0.927873 0.925561 0.936143
0.933361 0.931173 0.940978
0.939303 0.937249 0.946196
0.945825 0.943969 0.951952
0.953527 0.951855 0.958721
0.156814 0.149154 0.200845
0.163505 0.153554 0.199051
0.171925 0.166058 0.198873
0.203951 0.191989 0.220527
0.253638 0.217782 0.242682
0.302513 0.250352 0.267466
0.356919 0.280071 0.290473
0.417383 0.305857 0.311136
0.480893 0.333179 0.333566
0.548850 0.362324 0.358329
0.621491 0.393305 0.386071
0.695078 0.427208 0.418207
0.772018 0.466643 0.458083
0.848104 0.512588 0.507222
0.916487 0.564095 0.564340
0.973883 0.623755 0.631391
0.155126 0.154586 0.205458
0.165418 0.158834 0.204360
0.177062 0.171573 0.203157
0.209830 0.195896 0.223772
0.256991 0.221576 0.244835
0.305309 0.252127 0.267984
0.360312 0.278313 0.288316
0.419764 0.304383 0.309021
0.483087 0.332268 0.331784
0.550809 0.361583 0.356724
0.623456 0.392844 0.384591
0.696972 0.426928 0.416861
0.773184 0.466101 0.456370
0.848223 0.511249 0.504785
0.915237 0.561458 0.560535
0.974290 0.622525 0.629313
0.165541 0.182389 0.211519
0.173397 0.185318 0.213887
0.198942 0.194541 0.221152
0.237824 0.210560 0.231736
0.281183 0.230588 0.247024
0.329628 0.253167 0.264150
0.381517 0.278103 0.283467
0.437653 0.304613 0.304492
0.498497 0.332557 0.327326
0.564638 0.362133 0.352451
0.635566 0.393402 0.380316
0.707536 0.427516 0.412745
0.783128 0.467022 0.452820
0.857627 0.512680 0.502183
0.924181 0.564095 0.559920
0.979981 0.623639 0.627769
0.204919 0.217626 0.232582
0.209815 0.220096 0.235068
0.224101 0.225710 0.242454
0.232559 0.229866 0.248298
0.309470 0.250535 0.237170
0.364998 0.263174 0.249177
0.412356 0.283402 0.270140
0.465030 0.307913 0.292495
0.522967 0.334831 0.316145
0.587145 0.363934 0.341792
0.655767 0.395104 0.370223
0.725649 0.429011 0.403196
0.798885 0.467773 0.443220
0.870345 0.512128 0.492127
0.933463 0.561870 0.549415
0.988466 0.622284 0.620015
0.243764 0.259784 0.263180
0.247640 0.262314 0.265651
0.257436 0.264694 0.270725
0.265239 0.264468 0.275768
0.269898 0.268698 0.279855
0.342075 0.296379 0.266727
0.450429 0.314004 0.248122
0.503055 0.328334 0.272654
0.559575 0.349589 0.298338
0.621840 0.375277 0.325218
0.686158 0.403679 0.354456
0.753156 0.435733 0.388263
0.824408 0.473280 0.429218
0.893245 0.516530 0.479537
0.953339 0.565894 0.539623
0.999883 0.623094 0.609932
0.279905 0.299150 0.293180
0.284438 0.302480 0.296478
0.290503 0.302690 0.299287
0.297615 0.301924 0.303215
0.303444 0.302782 0.308391
0.308062 0.307531 0.312431
0.368216 0.336206 0.304339
0.500468 0.368343 0.273138
0.599968 0.385179 0.268474
0.660487 0.402144 0.298599
0.721797 0.424207 0.330205
0.786789 0.451786 0.365615
0.854337 0.485012 0.407410
0.918368 0.523727 0.457995
0.972716 0.568114 0.518074
1.000000 0.624079 0.592993
0.319589 0.341829 0.327486
0.324035 0.345527 0.331013
0.327728 0.344737 0.332478
0.333814 0.343547 0.335481
0.340786 0.342579 0.340617
0.345276 0.344805 0.345287
0.350245 0.349756 0.349783
0.397719 0.375958 0.348635
0.543539 0.421305 0.311007
0.690511 0.451190 0.269997
0.761924 0.464265 0.294628
0.825166 0.483412 0.333541
0.889733 0.509577 0.378124
0.949907 0.541994 0.431401
0.998336 0.581281 0.495726
1.000000 0.629939 0.571882
0.359061 0.384900 0.363639
0.363442 0.388805 0.367422
0.366516 0.388127 0.368725
0.372122 0.387060 0.371456
0.379372 0.386109 0.376254
0.385987 0.385488 0.383065
0.390096 0.389247 0.387177
0.395124 0.394238 0.392068
0.429496 0.416357 0.397844
0.585574 0.472580 0.355196
0.740035 0.511069 0.311554
0.863035 0.533114 0.286941
0.924019 0.548247 0.336453
0.978844 0.569662 0.392987
1.000000 0.597088 0.457794
1.000000 0.637836 0.539260
0.400477 0.430748 0.404359
0.404441 0.434303 0.408071
0.407223 0.433775 0.409319
0.412437 0.432935 0.412010
0.419803 0.432189 0.416708
0.427781 0.431668 0.423543
0.433973 0.432700 0.431043
0.438735 0.437414 0.435978
0.444317 0.442982 0.441805
0.468149 0.461452 0.453810
0.630569 0.526856 0.411206
0.795162 0.574818 0.365879
0.935855 0.601654 0.316391
0.999728 0.612902 0.344041
1.000000 0.628862 0.416831
1.000000 0.657558 0.504297
0.446049 0.481832 0.452475
0.450260 0.485812 0.456756
0.452754 0.485263 0.457926
0.457693 0.484534 0.460602
0.465008 0.483985 0.465327
0.473494 0.483354 0.471980
0.481543 0.482821 0.480651
0.486888 0.485349 0.487637
0.492135 0.490607 0.493424
0.498807 0.497275 0.500815
0.516689 0.514212 0.518223
0.678777 0.586733 0.485213
0.848892 0.641393 0.438999
0.979102 0.665634 0.391180
1.000000 0.666832 0.357658
1.000000 0.680721 0.448630
0.500185 0.542803 0.513488
0.503194 0.545236 0.516509
0.505639 0.544801 0.517743
0.510637 0.544531 0.520731
0.518371 0.544584 0.525976
0.527886 0.544830 0.533361
0.537976 0.545197 0.542848
0.546630 0.545752 0.553953
0.552348 0.550708 0.560808
0.558742 0.557083 0.568004
0.566473 0.564733 0.576654
0.581391 0.579659 0.593505
0.732872 0.655672 0.578853
0.898869 0.712918 0.537382
0.999020 0.732933 0.498445
1.000000 0.730538 0.461000
0.562346 0.609383 0.584324
0.567007 0.613636 0.589282
0.569016 0.613164 0.590271
0.573588 0.612920 0.592990
0.580854 0.613114 0.597863
0.589934 0.613288 0.604523
0.599806 0.613364 0.612862
0.609367 0.613478 0.622866
0.616643 0.614747 0.632901
0.623001 0.621040 0.639961
0.631291 0.629245 0.649128
0.640814 0.638728 0.659604
0.654540 0.652349 0.674591
0.782221 0.723334 0.675736
0.931721 0.777243 0.640702
1.000000 0.797511 0.620692
0.639445 0.690486 0.670794
0.642786 0.693310 0.674175
0.643883 0.692177 0.674256
0.647270 0.691267 0.675852
0.653800 0.691233 0.679974
0.663397 0.692513 0.686994
0.674482 0.693958 0.695816
0.685410 0.695113 0.705718
0.695407 0.696256 0.716845
0.702876 0.700300 0.725995
0.710317 0.707672 0.733682
0.719408 0.716697 0.742983
0.729739 0.726928 0.753399
0.741999 0.739107 0.765651
0.837552 0.799782 0.779846
0.959011 0.850936 0.765873
0.717852 0.767231 0.752440
0.721073 0.769780 0.755420
0.721654 0.768620 0.755205
0.724650 0.768041 0.756628
0.730481 0.768400 0.760221
0.738576 0.769333 0.765588
0.747990 0.770383 0.772248
0.757884 0.771425 0.779953
0.767845 0.772831 0.788945
0.777565 0.775366 0.799695
0.785840 0.782637 0.807961
0.794531 0.791279 0.816136
0.803403 0.800120 0.824423
0.812000 0.808703 0.832404
0.821646 0.818354 0.841286
0.886603 0.867490 0.864884
0.811321 0.850344 0.839496
0.814573 0.852767 0.842254
0.815311 0.852335 0.842453
0.817442 0.852039 0.843467
0.821363 0.852123 0.845668
0.826923 0.852609 0.849060
0.833711 0.853369 0.853453
0.841023 0.854177 0.858582
0.848511 0.855202 0.864453
0.856031 0.856855 0.871321
0.863186 0.859994 0.878875
0.869740 0.866602 0.884737
0.876993 0.873914 0.891186
0.884289 0.881288 0.897676
0.891275 0.888356 0.903855
0.900279 0.897486 0.911828
0.885411 0.911003 0.903502
0.887464 0.912502 0.905166
0.887956 0.912318 0.905355
0.889403 0.912329 0.906116
0.892039 0.912718 0.907673
0.895647 0.913310 0.909911
0.900136 0.914195 0.912832
0.905322 0.915441 0.916449
0.910893 0.916966 0.920623
0.916757 0.919039 0.925518
0.922789 0.921825 0.931170
0.928264 0.925989 0.936499
0.933733 0.931548 0.941301
0.939628 0.937598 0.946494
0.946160 0.944290 0.952233
0.953814 0.952154 0.958990
0.174173 0.166696 0.225791
0.179396 0.169548 0.224794
0.192642 0.181899 0.220373
0.200618 0.196446 0.222356
0.231810 0.227604 0.247147
0.283433 0.256010 0.274455
0.338765 0.286217 0.300588
0.394705 0.319679 0.328611
0.453441 0.356045 0.359756
0.522212 0.385724 0.387079
0.597888 0.414252 0.414490
0.674697 0.446712 0.446707
0.753891 0.485399 0.486868
0.832091 0.530524 0.535320
0.902835 0.580656 0.590118
0.962200 0.639472 0.654572
0.174223 0.170986 0.229364
0.180651 0.174012 0.228939
0.196428 0.185977 0.224687
0.205236 0.201389 0.226160
0.235279 0.230782 0.249816
0.286392 0.258183 0.276071
0.340415 0.287717 0.301371
0.395559 0.321501 0.329518
0.455098 0.356493 0.359610
0.524606 0.384566 0.385481
0.600291 0.413511 0.413094
0.676749 0.446067 0.445267
0.755086 0.484444 0.485021
0.832217 0.528946 0.532780
0.901567 0.577629 0.586011
0.962647 0.638116 0.652529
0.172033 0.193989 0.244463
0.180698 0.196309 0.245624
0.210037 0.206195 0.243971
0.223657 0.220773 0.241318
0.253844 0.245159 0.262257
0.301994 0.270299 0.284936
0.352348 0.299485 0.309061
0.406892 0.330110 0.334421
0.470357 0.356182 0.357173
0.539385 0.383130 0.381450
0.613145 0.412507 0.408973
0.687979 0.445568 0.441355
0.765678 0.484568 0.481650
0.842127 0.529898 0.530518
0.910939 0.580058 0.585814
0.968564 0.639001 0.651120
0.193794 0.227607 0.246488
0.199050 0.229837 0.248343
0.217800 0.235802 0.253474
0.247074 0.245488 0.261313
0.287350 0.262079 0.272711
0.331519 0.282083 0.288663
0.381973 0.303584 0.305890
0.437313 0.327281 0.325231
0.497723 0.352936 0.346833
0.563988 0.380871 0.371340
0.635140 0.411201 0.399247
0.707327 0.444680 0.431962
0.782384 0.483385 0.472046
0.855581 0.527904 0.520590
0.920700 0.576790 0.575415
0.977564 0.637039 0.643610
0.239428 0.265693 0.268445
0.243581 0.268199 0.270686
0.255656 0.272705 0.275693
0.275174 0.279128 0.285209
0.282906 0.281817 0.290521
0.361893 0.304341 0.278797
0.427639 0.316901 0.287524
0.479762 0.335762 0.308243
0.537392 0.359129 0.330839
0.601028 0.385756 0.355871
0.667470 0.414911 0.384057
0.736616 0.447807 0.417404
0.809562 0.486126 0.458427
0.879842 0.530402 0.508625
0.941638 0.579688 0.566332
0.992131 0.636966 0.633993
0.277757 0.304350 0.296587
0.281901 0.307750 0.299513
0.290342 0.310526 0.303618
0.305046 0.314183 0.311380
0.313706 0.313623 0.317317
0.318181 0.317644 0.321197
0.388863 0.346413 0.309083
0.513628 0.370749 0.286108
0.581048 0.384870 0.304543
0.642944 0.405082 0.331339
0.705824 0.429584 0.361071
0.772330 0.459074 0.395620
0.841303 0.493988 0.436945
0.906501 0.534514 0.487318
0.962145 0.579840 0.545407
1.000000 0.636768 0.617816
0.316942 0.346345 0.329375
0.321527 0.350249 0.332981
0.328266 0.352239 0.336606
0.339381 0.353507 0.342405
0.348143 0.352341 0.347475
0.353850 0.353348 0.353071
0.358540 0.357972 0.357377
0.415051 0.386033 0.352053
0.558412 0.426310 0.319146
0.685604 0.449306 0.297223
0.748252 0.463653 0.328247
0.813053 0.485749 0.365194
0.878935 0.514538 0.408817
0.940070 0.549490 0.461574
0.991104 0.590916 0.524375
1.000000 0.640524 0.597057
0.357319 0.390074 0.365804
0.362323 0.394452 0.370129
0.368819 0.396000 0.373994
0.376812 0.395842 0.378001
0.385226 0.394726 0.382701
0.393031 0.393785 0.389458
