assets/lut/editingcorpw Whispering White.cube
LUT_3D_SIZE 16
DOMAIN_MIN 0.0 0.0 0.0
DOMAIN_MAX 1.0 1.0 1.0
0.000000 0.017334 0.018173
0.000000 0.018677 0.020029
0.002999 0.021000 0.023344
0.058741 0.024506 0.029105
0.143151 0.030650 0.038535
0.230940 0.039953 0.052247
0.311592 0.052123 0.069930
0.383468 0.067649 0.092215
0.457663 0.089933 0.123247
0.540706 0.123518 0.164615
0.633320 0.171064 0.216790
0.741170 0.233132 0.285677
0.870387 0.311955 0.373856
0.924291 0.407034 0.477120
0.953796 0.509835 0.577786
0.979614 0.572839 0.636225
0.000000 0.020147 0.021588
0.000000 0.019704 0.021137
0.000083 0.021323 0.022589
0.042239 0.023892 0.026443
0.128414 0.029435 0.034746
0.218986 0.038545 0.047877
0.302223 0.050564 0.065059
0.375646 0.065813 0.086698
0.449415 0.087257 0.116737
0.532372 0.119730 0.157941
0.624376 0.166317 0.209221
0.731745 0.227619 0.277550
0.859928 0.305610 0.364983
0.922216 0.399886 0.468082
0.951692 0.503186 0.570554
0.979597 0.572899 0.635462
0.000000 0.033226 0.032879
0.000000 0.031959 0.031836
0.000200 0.032037 0.031688
0.029126 0.035236 0.032019
0.113701 0.038074 0.035088
0.204963 0.042113 0.041468
0.291215 0.050929 0.054125
0.367013 0.064756 0.073425
0.440683 0.085592 0.101988
0.523495 0.117170 0.143546
0.615242 0.162705 0.195197
0.721715 0.222802 0.262998
0.848573 0.299538 0.350112
0.919993 0.392698 0.453923
0.949309 0.496227 0.559349
0.979545 0.573313 0.632373
0.001184 0.067820 0.052757
0.001096 0.066252 0.051621
0.001594 0.063299 0.046396
0.028981 0.065577 0.048452
0.102501 0.070973 0.050440
0.197092 0.076865 0.055625
0.285063 0.082204 0.063388
0.360100 0.087416 0.072995
0.430684 0.095157 0.087373
0.512847 0.117049 0.119609
0.604819 0.159496 0.172563
0.710562 0.218236 0.240931
0.835902 0.293417 0.328519
0.917550 0.385234 0.434143
0.946663 0.488901 0.543976
0.979465 0.574087 0.627146
0.020715 0.124930 0.084314
0.020172 0.123524 0.083345
0.020159 0.120574 0.077669
0.032141 0.116966 0.066875
0.101057 0.123082 0.075119
0.187716 0.129878 0.079417
0.280300 0.137004 0.085901
0.359753 0.144206 0.095764
0.429190 0.151553 0.108699
0.506304 0.161059 0.127535
0.592995 0.175726 0.155542
0.697592 0.215595 0.209953
0.822185 0.287414 0.298442
0.914994 0.377673 0.407399
0.943824 0.481490 0.523699
0.979131 0.574632 0.619107
0.054231 0.193876 0.127230
0.053785 0.192943 0.126530
0.053928 0.190698 0.121637
0.056311 0.187446 0.107172
0.097863 0.185815 0.099178
0.186481 0.194044 0.111848
0.275303 0.200945 0.118145
0.357543 0.207705 0.125114
0.427576 0.215723 0.136411
0.503764 0.225820 0.153144
0.588622 0.238900 0.176511
0.686599 0.255971 0.209318
0.806288 0.290015 0.265487
0.912049 0.370621 0.372249
0.941054 0.473985 0.496973
0.976099 0.569625 0.602024
0.091538 0.266619 0.173455
0.091229 0.265997 0.173010
0.091330 0.264430 0.169748
0.093397 0.261923 0.159578
0.103994 0.258355 0.138267
0.181636 0.260543 0.140836
0.274983 0.269321 0.154066
0.356959 0.276440 0.161383
0.426906 0.282587 0.167725
0.500909 0.292210 0.180447
0.583823 0.304983 0.201001
0.679332 0.321555 0.231629
0.793560 0.343135 0.274832
0.904731 0.379682 0.341804
0.938311 0.467105 0.462316
0.972596 0.564014 0.579867
0.132194 0.341008 0.221836
0.132029 0.340679 0.221583
0.132367 0.339664 0.219030
0.134592 0.337795 0.210931
0.140500 0.335252 0.193911
0.174770 0.332027 0.173326
0.270817 0.337596 0.183471
0.358165 0.346323 0.196772
0.428972 0.353810 0.205685
0.499084 0.360274 0.213028
0.579913 0.371716 0.229812
0.672705 0.386644 0.256595
0.781402 0.406514 0.295935
0.893469 0.433192 0.351823
0.933178 0.472604 0.428663
0.967391 0.555768 0.547596
0.181907 0.424067 0.280441
0.181886 0.424012 0.280374
0.182243 0.423184 0.278253
0.184518 0.421533 0.271400
0.189988 0.419330 0.257971
0.202694 0.416533 0.233576
0.262132 0.414162 0.218698
0.356072 0.420850 0.232389
0.432540 0.428809 0.246283
0.502590 0.437041 0.257972
0.578164 0.443482 0.267130
0.667119 0.456238 0.288982
0.768822 0.474271 0.325796
0.876262 0.499354 0.380345
0.926293 0.525555 0.441907
0.959984 0.558930 0.515793
0.247979 0.521257 0.357063
0.248136 0.521459 0.357214
0.248597 0.520985 0.355635
0.250862 0.519716 0.349984
0.255893 0.517867 0.339149
0.265031 0.515340 0.320770
0.283306 0.512328 0.290633
0.350474 0.510422 0.279757
0.434958 0.516410 0.294072
0.511423 0.524159 0.311248
0.584872 0.533841 0.330691
0.664325 0.541716 0.347115
0.754304 0.556003 0.379601
0.853110 0.578613 0.429444
0.919791 0.597009 0.479038
0.952390 0.611710 0.530141
0.331843 0.631688 0.451835
0.332285 0.632101 0.452197
0.332886 0.631901 0.451172
0.335557 0.631099 0.447007
0.340697 0.629519 0.438805
0.348572 0.627339 0.425488
0.360087 0.624619 0.404679
0.377436 0.621398 0.371961
0.438136 0.617147 0.361213
0.523971 0.621267 0.383899
0.601353 0.630370 0.413489
0.673531 0.642760 0.442684
0.751928 0.652738 0.463265
0.842674 0.664549 0.491771
0.916012 0.676358 0.526329
0.947605 0.684565 0.564619
0.479085 0.737925 0.558089
0.479854 0.738383 0.558593
0.480597 0.738475 0.558298
0.482387 0.737977 0.555836
0.485542 0.736929 0.550932
0.490407 0.735390 0.543171
0.497333 0.733395 0.531649
0.506403 0.730955 0.514934
0.518172 0.728592 0.490563
0.555065 0.724938 0.477150
0.625663 0.732456 0.500766
0.694599 0.744774 0.527347
0.767019 0.756939 0.551914
0.848693 0.764600 0.567362
0.915465 0.766369 0.584125
0.944340 0.765738 0.607411
0.615986 0.842914 0.664271
0.616607 0.843670 0.664946
0.617085 0.844073 0.665045
0.617891 0.844160 0.663745
0.619114 0.843997 0.660837
0.620769 0.843468 0.656148
0.622918 0.842744 0.649309
0.625844 0.842119 0.640092
0.629331 0.841353 0.627301
0.633846 0.840967 0.608750
0.650855 0.840997 0.587284
0.709369 0.848737 0.600554
0.780471 0.859558 0.624326
0.856456 0.868389 0.646686
0.916566 0.868610 0.655580
0.941924 0.859980 0.662702
0.691494 0.936057 0.752972
0.691916 0.936345 0.753523
0.692277 0.936524 0.753682
0.692814 0.936627 0.752884
0.693644 0.936663 0.750994
0.694767 0.936634 0.747880
0.696193 0.936527 0.743357
0.698048 0.936427 0.737368
0.700269 0.936307 0.729337
0.703159 0.936261 0.718656
0.707529 0.936465 0.701379
0.720961 0.937033 0.676318
0.775316 0.939821 0.680431
0.849638 0.943366 0.702097
0.913936 0.945101 0.720672
0.937245 0.941300 0.723135
0.736613 0.960934 0.812987
0.736864 0.961104 0.813348
0.737087 0.961219 0.813483
0.737491 0.961289 0.812916
0.738179 0.961355 0.811678
0.739076 0.961369 0.809561
0.740278 0.961377 0.806587
0.741739 0.961344 0.802586
0.743570 0.961315 0.797486
0.745777 0.961285 0.790883
0.748990 0.961288 0.780944
0.753991 0.961442 0.763987
0.765540 0.961750 0.736684
0.815175 0.962249 0.731675
0.891239 0.962961 0.749352
0.926912 0.961641 0.760658
0.746792 0.967590 0.827482
0.746792 0.967590 0.827482
0.746816 0.967590 0.827375
0.747122 0.967611 0.826776
0.747665 0.967644 0.825675
0.748506 0.967702 0.823880
0.749621 0.967779 0.821432
0.751094 0.967877 0.818254
0.752900 0.968005 0.814254
0.755037 0.968140 0.809190
0.757982 0.968348 0.801699
0.762439 0.968660 0.789273
0.769079 0.969128 0.766986
0.793443 0.969571 0.741994
0.862312 0.970110 0.752218
0.919631 0.969543 0.765743
0.000000 0.018028 0.019807
0.000000 0.020217 0.023557
0.019672 0.022894 0.029577
0.097585 0.027407 0.037683
0.185483 0.035214 0.049603
0.270794 0.045871 0.065365
0.347104 0.059443 0.085092
0.417980 0.077561 0.110805
0.496470 0.104617 0.146504
0.583413 0.144524 0.191244
0.682453 0.198484 0.250547
0.799632 0.268308 0.327891
0.907864 0.354807 0.423657
0.937686 0.456127 0.528489
0.970919 0.553104 0.619171
0.000000 0.018018 0.019356
0.000000 0.019816 0.021307
0.000000 0.020533 0.022412
0.010145 0.022536 0.025998
0.087383 0.026563 0.032873
0.175855 0.034146 0.044138
0.262767 0.044633 0.059533
0.340763 0.058094 0.078976
0.411645 0.075748 0.104067
0.489991 0.102049 0.139603
0.576685 0.141147 0.184313
0.675246 0.194499 0.243165
0.791996 0.263921 0.320328
0.903777 0.349921 0.416055
0.936233 0.450914 0.521590
0.969172 0.549124 0.614305
0.000000 0.023815 0.025648
0.000000 0.032373 0.032613
0.000000 0.030996 0.031050
0.005283 0.032448 0.031084
0.072563 0.035175 0.032961
0.162282 0.038767 0.038453
0.251500 0.045366 0.048560
0.331964 0.057082 0.065287
0.403492 0.074143 0.089001
0.481592 0.099776 0.124042
0.568207 0.138065 0.170265
0.666392 0.190590 0.228988
0.782058 0.258754 0.305848
0.898184 0.343701 0.401836
0.934198 0.443947 0.509054
0.966529 0.543518 0.605210
0.000000 0.045327 0.040719
0.001075 0.066459 0.052346
0.001045 0.064869 0.050334
0.005529 0.062013 0.045215
0.058572 0.066367 0.048648
0.149111 0.071492 0.051633
0.243593 0.076930 0.058591
0.324924 0.082142 0.067447
0.395015 0.088291 0.079115
0.471126 0.102680 0.102036
0.557946 0.135672 0.146378
0.655799 0.186812 0.206278
0.770265 0.253454 0.283724
0.891544 0.336942 0.380753
0.931757 0.436219 0.490897
0.963362 0.537278 0.592210
0.006687 0.090699 0.065655
0.019985 0.123298 0.083610
0.019691 0.122002 0.082040
0.020425 0.118441 0.072870
0.057482 0.117202 0.069234
0.138197 0.124291 0.076583
0.233743 0.130563 0.080715
0.321441 0.137703 0.089308
0.393839 0.144609 0.100557
0.466544 0.152765 0.116167
0.548133 0.163973 0.139117
0.642731 0.188569 0.177912
0.757218 0.248438 0.252742
0.884468 0.330138 0.352130
0.929142 0.428274 0.466911
0.959929 0.530829 0.575357
0.034809 0.155172 0.102584
0.053453 0.192364 0.126365
0.053220 0.191478 0.125118
0.054129 0.189012 0.117578
0.062093 0.184763 0.099177
0.134701 0.187593 0.104201
0.226947 0.195776 0.114665
0.316000 0.201498 0.119477
0.391690 0.208721 0.128763
0.463739 0.217539 0.142709
0.544523 0.228890 0.162697
0.635058 0.243741 0.190308
0.742049 0.264719 0.230363
0.876330 0.324669 0.314729
0.926460 0.420578 0.435725
0.956689 0.524094 0.553628
0.071394 0.226192 0.148374
0.090830 0.265215 0.172643
0.090716 0.264695 0.171894
0.091414 0.262946 0.166612
0.094659 0.259987 0.152302
0.126990 0.256611 0.134416
0.223449 0.262787 0.146380
0.313502 0.271287 0.157472
0.390227 0.276548 0.162432
0.461092 0.284378 0.171849
0.539959 0.295378 0.188195
0.628421 0.309880 0.213491
0.732550 0.328688 0.250101
0.859421 0.354084 0.301376
0.923403 0.416537 0.397485
0.953713 0.516998 0.525161
0.109779 0.299872 0.194628
0.131496 0.339748 0.221023
0.131465 0.339465 0.220482
0.132565 0.338371 0.216285
0.135818 0.336212 0.205398
0.145673 0.333126 0.183348
0.212928 0.332036 0.174948
0.310684 0.339966 0.188862
0.391395 0.348380 0.200895
0.460248 0.354031 0.206922
0.536054 0.363070 0.218720
0.622510 0.375952 0.240192
0.723051 0.393164 0.272848
0.841237 0.416179 0.320053
0.917505 0.446144 0.383723
0.948987 0.509592 0.486040
0.152114 0.376665 0.246262
0.180941 0.422653 0.279391
0.181056 0.422617 0.279141
0.182149 0.421665 0.275542
0.185621 0.419962 0.266555
0.193054 0.417452 0.249448
0.215792 0.413916 0.221353
0.303201 0.415083 0.223089
0.391040 0.422578 0.237738
0.464109 0.430693 0.251097
0.535899 0.437352 0.259756
0.617883 0.446048 0.274103
0.714163 0.461737 0.303192
0.821732 0.482693 0.348417
0.909048 0.509695 0.408150
0.941710 0.536772 0.473688
0.210451 0.466208 0.312649
0.246963 0.519800 0.355851
0.247136 0.519897 0.355778
0.248477 0.519568 0.353161
0.251708 0.518090 0.345689
0.258161 0.515944 0.332123
0.269858 0.513099 0.309137
0.302383 0.509310 0.279200
0.387919 0.510953 0.284288
0.468842 0.517695 0.300002
0.544237 0.526256 0.318744
0.619711 0.534634 0.335038
0.705167 0.544410 0.357553
0.800492 0.563591 0.399791
0.897155 0.585303 0.451258
0.934569 0.602206 0.502125
0.281925 0.569695 0.397894
0.330197 0.630151 0.450423
0.330808 0.630632 0.450777
0.332348 0.630507 0.448943
0.336102 0.629499 0.443372
0.342271 0.627704 0.433272
0.351456 0.625156 0.417091
0.364823 0.622033 0.391362
0.394974 0.617547 0.359962
0.474861 0.616317 0.367631
0.559065 0.622590 0.394797
0.632917 0.633377 0.425011
0.707811 0.644882 0.449580
0.792132 0.654868 0.472714
0.886014 0.667809 0.505727
0.930732 0.678521 0.542766
0.389289 0.682381 0.499205
0.476914 0.736655 0.556694
0.477914 0.737215 0.557296
0.479206 0.737213 0.556380
0.481840 0.736679 0.553188
0.485715 0.735439 0.547215
0.491436 0.733692 0.538002
0.499187 0.731357 0.524283
0.509306 0.728607 0.504234
0.527780 0.725344 0.479341
0.584555 0.724918 0.483836
0.655549 0.735692 0.511053
0.725876 0.747941 0.537046
0.802431 0.758731 0.557838
0.886084 0.763628 0.572809
0.928916 0.763473 0.592417
0.551101 0.783270 0.606728
0.614894 0.841596 0.663082
0.615529 0.842366 0.663762
0.616217 0.842808 0.663513
0.617348 0.842931 0.661752
0.618808 0.842713 0.658227
0.620701 0.842131 0.652746
0.623125 0.841366 0.644877
0.626160 0.840403 0.633978
0.629953 0.839602 0.618967
0.635822 0.839192 0.595366
0.672401 0.841154 0.588012
0.740194 0.851624 0.609787
0.813527 0.861470 0.633213
0.891490 0.868366 0.651820
0.928166 0.862607 0.656322
0.655692 0.891965 0.708404
0.690854 0.935635 0.752143
0.691337 0.935934 0.752743
0.691808 0.936157 0.752641
0.692495 0.936242 0.751472
0.693520 0.936287 0.749217
0.694796 0.936257 0.745615
0.696346 0.936126 0.740424
0.698308 0.935979 0.733498
0.700752 0.935855 0.724412
0.704053 0.935825 0.711301
0.709331 0.936088 0.688206
0.739643 0.937271 0.672196
0.808187 0.941032 0.689223
0.885343 0.944204 0.710820
0.924928 0.943366 0.723325
0.714996 0.950761 0.783734
0.736329 0.960755 0.812580
0.736593 0.960921 0.812951
0.736893 0.961034 0.812869
0.737444 0.961122 0.812075
0.738235 0.961188 0.810545
0.739243 0.961193 0.808084
0.740558 0.961187 0.804698
0.742144 0.961140 0.800193
0.744107 0.961087 0.794455
0.746637 0.961043 0.786679
0.750517 0.961086 0.774156
0.756632 0.961274 0.751753
0.781748 0.961574 0.728580
0.849214 0.962313 0.738998
0.913472 0.962252 0.755119
0.745687 0.966821 0.825892
0.746792 0.967590 0.827482
0.746792 0.967590 0.827476
0.746905 0.967594 0.827209
0.747315 0.967626 0.826390
0.747960 0.967665 0.825043
0.748914 0.967732 0.822985
0.750171 0.967823 0.820263
0.751769 0.967924 0.816745
0.753724 0.968052 0.812350
0.756128 0.968217 0.806515
0.759641 0.968463 0.797310
0.764952 0.968832 0.781470
0.774709 0.969376 0.753716
0.820209 0.969759 0.743229
0.894603 0.970153 0.759310
0.000000 0.018192 0.023241
0.000000 0.018608 0.033606
0.000000 0.020246 0.037187
0.014500 0.023910 0.044596
0.090967 0.028657 0.055806
0.179115 0.036358 0.069285
0.266436 0.047101 0.086308
0.344509 0.060790 0.106684
0.416094 0.078844 0.131932
0.494784 0.105731 0.164762
0.581516 0.145179 0.207246
0.680109 0.198413 0.264422
0.796448 0.267253 0.339199
0.905919 0.352526 0.431600
0.936869 0.452996 0.533376
0.969811 0.550360 0.622242
0.000000 0.018764 0.030773
0.000000 0.020583 0.031341
0.000000 0.020575 0.035038
0.007844 0.023532 0.039627
0.083255 0.027800 0.048962
0.172299 0.035368 0.061648
0.260633 0.045970 0.078153
0.339686 0.059552 0.098414
0.411238 0.077232 0.123623
0.489562 0.103433 0.157062
0.576086 0.142259 0.199433
0.674151 0.194940 0.256426
0.790114 0.263314 0.331208
0.902242 0.348379 0.424094
0.935661 0.448597 0.526775
0.968339 0.546942 0.617546
0.000000 0.024815 0.032339
0.000000 0.032887 0.037852
0.000000 0.031727 0.036908
0.010043 0.031814 0.039137
0.083214 0.034565 0.044833
0.171084 0.039503 0.053786
0.257526 0.047206 0.066298
0.336567 0.059452 0.084690
0.407784 0.076823 0.109471
0.486149 0.102811 0.144149
0.572786 0.141415 0.187649
0.671300 0.194105 0.245568
0.787553 0.262458 0.321365
0.901171 0.347615 0.415797
0.935415 0.448211 0.520651
0.968091 0.547278 0.613905
0.000000 0.045197 0.046677
0.001113 0.065691 0.058903
0.001078 0.064910 0.056633
0.002671 0.061899 0.048678
0.062819 0.063347 0.050525
0.164051 0.068101 0.057853
0.256956 0.073043 0.067221
0.335355 0.078151 0.077910
0.403252 0.085660 0.092412
0.478529 0.103304 0.119633
0.564928 0.138950 0.164581
0.663235 0.190802 0.223545
0.778934 0.258326 0.300588
0.896471 0.342994 0.397148
0.933807 0.443291 0.505499
0.965894 0.543788 0.603552
0.006768 0.089326 0.072725
0.019525 0.121586 0.089947
0.019309 0.121099 0.087516
0.019928 0.118393 0.079232
0.048707 0.115966 0.069718
0.137751 0.120815 0.076750
0.239790 0.125673 0.083239
0.328559 0.132953 0.094138
0.400528 0.139562 0.106937
0.473589 0.147441 0.123910
0.555479 0.159389 0.148303
0.650496 0.188946 0.191254
0.765072 0.252414 0.268517
0.889276 0.335473 0.367805
0.930994 0.434713 0.481095
0.962362 0.536697 0.586161
0.033900 0.152977 0.108716
0.052138 0.190299 0.131057
0.052280 0.190309 0.129372
0.053282 0.188606 0.122452
0.058175 0.184506 0.103648
0.127043 0.185908 0.103812
0.225413 0.193076 0.114255
0.318151 0.197460 0.120232
0.395229 0.204453 0.131194
0.468529 0.213326 0.146610
0.550241 0.224687 0.167657
0.641233 0.239260 0.196185
0.749581 0.261395 0.238102
0.881201 0.328310 0.328563
0.928040 0.426124 0.449249
0.958684 0.529509 0.564124
0.069782 0.223942 0.152317
0.089625 0.263268 0.175615
0.089824 0.263373 0.174539
0.090660 0.262292 0.169607
0.093477 0.259599 0.156667
0.118110 0.255807 0.135017
0.217517 0.261029 0.145793
0.311846 0.268965 0.156940
0.390760 0.273134 0.162340
0.463235 0.280743 0.172811
0.543296 0.291787 0.190424
0.632804 0.306285 0.216997
0.738244 0.325300 0.254825
0.866051 0.351144 0.307365
0.924987 0.419647 0.408863
0.955386 0.521715 0.535266
0.108277 0.297850 0.197419
0.130105 0.337896 0.223071
0.130422 0.338171 0.222367
0.131592 0.337553 0.218436
0.134755 0.335664 0.208145
0.142608 0.332594 0.186814
0.204174 0.330656 0.174128
0.306246 0.338127 0.188109
0.389921 0.346313 0.200157
0.460242 0.351104 0.206367
0.537361 0.359892 0.219073
0.624943 0.372796 0.241548
0.726520 0.390095 0.275250
0.846214 0.413426 0.323615
0.919094 0.443774 0.388289
0.950612 0.512560 0.495145
0.150421 0.374534 0.247993
0.178998 0.420673 0.280426
0.179489 0.421116 0.280167
0.180782 0.420671 0.276950
0.184159 0.419203 0.268351
0.191304 0.416799 0.251881
0.209633 0.413319 0.222644
0.296707 0.413440 0.221970
0.387743 0.420691 0.236747
0.462526 0.428467 0.250026
0.535418 0.434364 0.258689
0.618581 0.443003 0.273839
0.715981 0.458486 0.303588
0.824867 0.479686 0.349618
0.910366 0.506785 0.409860
0.943026 0.534714 0.476659
0.208390 0.463996 0.313289
0.245011 0.517691 0.355980
0.245589 0.518319 0.356087
0.246947 0.518272 0.353720
0.250189 0.517132 0.346637
0.256514 0.515257 0.333690
0.267724 0.512256 0.311165
0.297246 0.508155 0.279721
0.383172 0.509181 0.282986
0.465834 0.515579 0.298615
0.542474 0.523808 0.317057
0.618870 0.531428 0.332826
0.705532 0.541081 0.355807
0.802031 0.560364 0.398755
0.898470 0.582216 0.450961
0.935388 0.599302 0.502576
0.279455 0.567268 0.397548
0.327380 0.628079 0.449808
0.328361 0.628850 0.450245
0.330132 0.629034 0.448704
0.333986 0.628375 0.443545
0.340293 0.626859 0.433960
0.349221 0.624305 0.418068
0.362248 0.620927 0.392537
0.391191 0.616334 0.360228
0.470497 0.614415 0.365481
0.555995 0.620157 0.392167
0.631029 0.630762 0.422388
0.706690 0.641830 0.446758
0.791838 0.651743 0.470538
0.886444 0.664786 0.504402
0.931072 0.675424 0.542054
0.385588 0.680414 0.498262
0.473423 0.734845 0.555440
0.474929 0.735677 0.556185
0.476574 0.735943 0.555552
0.479434 0.735593 0.552661
0.483657 0.734651 0.547124
0.489445 0.732961 0.538157
0.496861 0.730407 0.524358
0.506922 0.727508 0.504343
0.524668 0.723893 0.478572
0.581100 0.723000 0.481636
0.652978 0.733296 0.508762
0.723956 0.745386 0.534858
0.801181 0.755925 0.555571
0.885635 0.760614 0.570865
0.928948 0.760436 0.590946
0.548329 0.781171 0.605263
0.613132 0.839572 0.661688
0.614022 0.840634 0.662536
0.614887 0.841291 0.662504
0.616103 0.841613 0.660963
0.617722 0.841595 0.657750
0.619629 0.841074 0.652429
0.621985 0.840228 0.644590
0.624941 0.839161 0.633676
0.628660 0.838192 0.618618
0.634235 0.837464 0.594916
0.669824 0.838993 0.586205
0.737952 0.849252 0.607800
0.811798 0.859092 0.631311
0.890615 0.865605 0.649679
0.928010 0.859861 0.654543
0.654255 0.890087 0.707105
0.689863 0.935002 0.751157
0.690457 0.935380 0.751864
0.690965 0.935606 0.751861
0.691848 0.935854 0.751005
0.692796 0.935890 0.748731
0.694138 0.935894 0.745318
0.695719 0.935818 0.740270
0.697549 0.935594 0.733239
0.699894 0.935390 0.724046
0.703149 0.935343 0.711055
0.708310 0.935553 0.688101
0.737772 0.936699 0.671150
0.806671 0.940414 0.687923
0.884295 0.943343 0.709544
0.924761 0.942240 0.721946
0.714108 0.950395 0.782819
0.735822 0.960444 0.812085
0.736127 0.960634 0.812480
0.736474 0.960774 0.812474
0.737074 0.960915 0.811814
0.737868 0.960989 0.810322
0.738892 0.961022 0.807943
0.740201 0.961024 0.804637
0.741774 0.960965 0.800179
0.743680 0.960892 0.794409
0.746154 0.960814 0.786683
0.749960 0.960829 0.774232
0.756003 0.960984 0.751990
0.780407 0.961249 0.727992
0.848273 0.961949 0.738304
0.913404 0.961889 0.754656
0.745584 0.966768 0.825958
0.746753 0.967575 0.827600
0.746758 0.967576 0.827578
0.746875 0.967592 0.827343
0.747243 0.967622 0.826555
0.747887 0.967658 0.825212
0.748834 0.967717 0.823203
0.750073 0.967806 0.820505
0.751649 0.967909 0.817031
0.753582 0.968046 0.812677
0.755952 0.968202 0.806990
0.759409 0.968443 0.797980
0.764668 0.968815 0.782453
0.773958 0.969353 0.754840
0.818034 0.969738 0.742826
0.893012 0.970155 0.758982
0.000000 0.019110 0.044660
0.000000 0.019852 0.064961
0.000000 0.020504 0.071107
0.013893 0.024120 0.077988
0.085524 0.030114 0.089259
0.172440 0.038475 0.105321
0.260227 0.049422 0.123179
0.338987 0.062990 0.142485
0.410857 0.080595 0.164287
0.489527 0.106795 0.193414
0.576176 0.145488 0.233664
0.674014 0.197707 0.287727
0.789050 0.265238 0.358557
0.901517 0.349157 0.445961
0.934992 0.448189 0.542583
0.967247 0.545221 0.627672
0.000000 0.019913 0.060475
0.000000 0.021891 0.061034
0.000000 0.021098 0.067863
0.008549 0.023780 0.073659
0.077648 0.029351 0.082657
0.166129 0.037480 0.097200
0.255052 0.048258 0.114292
0.334582 0.061654 0.133609
0.406815 0.079037 0.156141
0.485414 0.104840 0.185398
0.571828 0.142994 0.225494
0.669105 0.194658 0.279422
0.783705 0.261844 0.350462
0.897883 0.345529 0.438485
0.933995 0.444320 0.536090
0.966049 0.542092 0.622970
0.000000 0.026128 0.060986
0.000000 0.035017 0.064876
0.000000 0.033195 0.068815
0.004011 0.031923 0.080322
0.073527 0.034443 0.080706
0.160530 0.039688 0.087490
0.249232 0.048334 0.100518
0.330418 0.061005 0.119144
0.403474 0.078400 0.142813
0.482300 0.104094 0.173041
0.568865 0.142062 0.213344
0.666477 0.193801 0.268113
0.781497 0.261050 0.340250
0.896898 0.344806 0.429813
0.933795 0.443813 0.529483
0.966048 0.542209 0.618715
0.000000 0.047909 0.069504
0.000890 0.067813 0.079131
0.000859 0.066858 0.078267
0.001388 0.063772 0.077526
0.070379 0.062190 0.082001
0.172038 0.065857 0.089328
0.260951 0.072931 0.101176
0.339103 0.080581 0.115093
0.407589 0.090517 0.131994
0.483346 0.108552 0.157248
0.569810 0.144525 0.197313
0.668541 0.196640 0.254046
0.785018 0.264546 0.328774
0.899008 0.349272 0.421811
0.935128 0.449373 0.525093
0.967260 0.548587 0.617632
0.006935 0.090717 0.092349
0.021075 0.122166 0.110064
0.021023 0.121873 0.107821
0.021764 0.120240 0.101621
0.033141 0.117470 0.085398
0.146525 0.119291 0.088757
0.263206 0.123454 0.105312
0.348641 0.128904 0.120054
0.417145 0.134946 0.134975
0.488746 0.144412 0.153846
0.569008 0.160141 0.179905
0.664449 0.197214 0.227380
0.781310 0.263718 0.304470
0.896475 0.348490 0.401756
0.934845 0.449103 0.510524
0.966804 0.549836 0.608875
0.035813 0.153160 0.128596
0.053994 0.190085 0.148981
0.053944 0.190245 0.146765
0.054480 0.189157 0.140758
0.056823 0.185530 0.125304
0.106156 0.186491 0.109506
0.225510 0.190291 0.119290
0.328843 0.190781 0.132035
0.408193 0.198975 0.148050
0.483741 0.208092 0.165901
0.564894 0.218766 0.187826
0.656354 0.233638 0.217788
0.765311 0.261994 0.265554
0.888870 0.339077 0.362421
0.931522 0.438807 0.478999
0.963358 0.541266 0.586546
0.070839 0.223271 0.168385
0.090194 0.262185 0.189716
0.090184 0.262496 0.187906
0.090758 0.261929 0.183031
0.092740 0.259694 0.171656
0.102867 0.255614 0.146842
0.201614 0.260280 0.148690
0.309653 0.266292 0.159515
0.394426 0.266106 0.167892
0.471109 0.273802 0.182460
0.553525 0.285753 0.203740
0.645261 0.300792 0.233022
0.753350 0.320188 0.272765
0.877586 0.347032 0.327054
0.928190 0.429181 0.438096
0.959446 0.532404 0.558241
0.107930 0.296434 0.210693
0.129256 0.336247 0.234539
0.129368 0.336688 0.233146
0.130303 0.336477 0.229180
0.132963 0.335070 0.219721
0.139035 0.332105 0.200604
0.179618 0.330048 0.176302
