assets/lut/editingcorp loro.cube
# Created by: G'MIC (https://gmic.eu)
TITLE "loro"
# LUT size
LUT_3D_SIZE 5
# Data domain
DOMAIN_MIN 0.0 0.0 0.0
DOMAIN_MAX 1.0 1.0 1.0
# LUT data points
0.019293691962957382 0.019660081714391708 0.019604463130235672
0.36745616793632507 0.01924215629696846 0.015016622841358185
0.66866403818130493 0.057086046785116196 0.017668182030320168
0.8249962329864502 0.040023025125265121 0.018218126147985458
0.93571275472640991 0.021565889939665794 0.011320076882839203
0.092852301895618439 0.23203451931476593 0.12305869162082672
0.28410705924034119 0.22440657019615173 0.064003661274909973
0.6566433310508728 0.23643353581428528 0.014181488193571568
0.83819246292114258 0.23660758137702942 0.014656620100140572
0.94504660367965698 0.2218153178691864 0.015003952197730541
0.24656353890895844 0.50909847021102905 0.30091330409049988
0.33778777718544006 0.50163537263870239 0.28597572445869446
0.63781642913818359 0.51538288593292236 0.069825790822505951
0.8686099648475647 0.5040583610534668 0.017487663775682449
0.98081463575363159 0.46478870511054993 0.0072664595209062099
0.3159153163433075 0.71320652961730957 0.39823195338249207
0.43740630149841309 0.71153718233108521 0.3993782103061676
0.55532366037368774 0.76805692911148071 0.43144547939300537
0.82027781009674072 0.77144050598144531 0.22148017585277557
0.98562920093536377 0.71181422472000122 0.065156005322933197
0.32524511218070984 0.83668488264083862 0.41117420792579651
0.43589687347412109 0.83287239074707031 0.40901482105255127
0.55501270294189453 0.85987502336502075 0.42472720146179199
0.71593892574310303 0.93719571828842163 0.44287505745887756
0.9718506932258606 0.91239029169082642 0.25569456815719604
0.019054112955927849 0.040646571666002274 0.15982405841350555
0.35688003897666931 0.034233033657073975 0.18770074844360352
0.65995645523071289 0.038200467824935913 0.17083823680877686
0.81011980772018433 0.056626785546541214 0.16310915350914001
0.92688703536987305 0.040717508643865585 0.16618432104587555
0.057388544082641602 0.23368123173713684 0.2250727117061615
0.24061955511569977 0.2363947331905365 0.22210937738418579
0.65510553121566772 0.22545266151428223 0.16816124320030212
0.82666963338851929 0.22879946231842041 0.16259346902370453
0.93957686424255371 0.22931765019893646 0.16370499134063721
0.2446611076593399 0.50899982452392578 0.41503578424453735
0.34801188111305237 0.5019153356552124 0.40987518429756165
0.63931530714035034 0.50814312696456909 0.17387428879737854
0.86905759572982788 0.49117165803909302 0.13522690534591675
0.9828149676322937 0.46471095085144043 0.14249783754348755
0.32815563678741455 0.71770668029785156 0.5252382755279541
0.43706426024436951 0.71310508251190186 0.51468956470489502
0.5484468936920166 0.76535660028457642 0.55090415477752686
0.81595593690872192 0.7684820294380188 0.31905287504196167
0.98991930484771729 0.7018280029296875 0.14171425998210907
0.31974205374717712 0.83315074443817139 0.52055239677429199
0.43323174118995667 0.83185601234436035 0.52042496204376221
0.55348128080368042 0.86359071731567383 0.54540038108825684
0.71210843324661255 0.93683993816375732 0.56260758638381958
0.96891242265701294 0.91291534900665283 0.37326732277870178
0.03152802586555481 0.11621212214231491 0.35206326842308044
0.18006779253482819 0.10976556688547134 0.39239516854286194
0.67980021238327026 0.10189930349588394 0.5242919921875
0.81724333763122559 0.11715319752693176 0.50773173570632935
0.92921841144561768 0.11544489860534668 0.46349164843559265
0.061341200023889542 0.2780269980430603 0.39699599146842957
0.16340664029121399 0.27285927534103394 0.39645722508430481
0.66340595483779907 0.27748286724090576 0.51102578639984131
0.81453031301498413 0.28756725788116455 0.47137466073036194
0.93113023042678833 0.28288701176643372 0.44247600436210632
0.12173321098089218 0.46624806523323059 0.43664431571960449
0.23228168487548828 0.45728665590286255 0.42673635482788086
0.5121917724609375 0.52623587846755981 0.5126911997795105
0.85393667221069336 0.51960283517837524 0.4788382351398468
0.96911680698394775 0.50102037191390991 0.44840258359909058
0.32096847891807556 0.72842347621917725 0.62337785959243774
0.4430927038192749 0.72727018594741821 0.63220864534378052
0.58481454849243164 0.74707156419754028 0.66082024574279785
0.824676513671875 0.78770726919174194 0.54348939657211304
0.99355864524841309 0.7369425892829895 0.42876037955284119
0.35739743709564209 0.85496383905410767 0.668049156665802
0.47682392597198486 0.85512298345565796 0.67527347803115845
0.5827401876449585 0.86902105808258057 0.67010486125946045
0.73350977897644043 0.94524669647216797 0.68702811002731323
0.97707414627075195 0.92860394716262817 0.53704965114593506
0.029624370858073235 0.12360613793134689 0.4869135320186615
0.16353413462638855 0.12281467020511627 0.51133847236633301
0.67958486080169678 0.12773381173610687 0.69570577144622803
0.8236808180809021 0.14696153998374939 0.69696211814880371
0.93671590089797974 0.14685532450675964 0.69468343257904053
0.066150620579719543 0.2881004810333252 0.52475839853286743
0.16718463599681854 0.28356742858886719 0.5157235860824585
0.61717063188552856 0.28553152084350586 0.7009577751159668
0.82058119773864746 0.31001359224319458 0.6994052529335022
0.93779712915420532 0.31695154309272766 0.70390623807907104
0.10513169318437576 0.4704698920249939 0.57103198766708374
0.21445533633232117 0.46542957425117493 0.56863188743591309
0.36281067132949829 0.47985348105430603 0.59686017036437988
0.85142785310745239 0.55000609159469604 0.76833230257034302
0.96041804552078247 0.54218173027038574 0.7513614296913147
0.17441385984420776 0.67539143562316895 0.62170261144638062
0.28818371891975403 0.67221319675445557 0.62420713901519775
0.42608708143234253 0.68681490421295166 0.63234478235244751
0.81496655941009521 0.82348048686981201 0.82138925790786743
0.99215555191040039 0.8379586935043335 0.83835917711257935
0.20477932691574097 0.80823081731796265 0.63284432888031006
0.32559743523597717 0.81079280376434326 0.63990181684494019
0.44499176740646362 0.82823771238327026 0.64493358135223389
0.75677812099456787 0.93475258350372314 0.79671049118041992
0.99068748950958252 0.98950690031051636 0.85334175825119019
0.011353451758623123 0.12343779951334 0.60343015193939209
0.13690236210823059 0.1279798150062561 0.61864948272705078
0.65443438291549683 0.12433881312608719 0.84149867296218872
0.81972658634185791 0.15073046088218689 0.83085566759109497
0.9330323338508606 0.11510175466537476 0.82104194164276123
0.055417377501726151 0.28278613090515137 0.63916057348251343
0.17374444007873535 0.28217911720275879 0.64336609840393066
0.52701759338378906 0.28033080697059631 0.78699594736099243
0.82223135232925415 0.30698996782302856 0.83738172054290771
0.94190222024917603 0.31269696354866028 0.84137922525405884
0.089529149234294891 0.45241034030914307 0.68469917774200439
0.20412518084049225 0.4489043653011322 0.68456965684890747
0.36274343729019165 0.47572904825210571 0.72407418489456177
0.8142777681350708 0.54656660556793213 0.90006965398788452
0.96540290117263794 0.54475241899490356 0.89732640981674194
0.15718983113765717 0.65232139825820923 0.74022501707077026
0.2712286114692688 0.64944261312484741 0.73983454704284668
0.4102165699005127 0.66808176040649414 0.75982844829559326
0.80488824844360352 0.81827670335769653 0.95455580949783325
0.99345284700393677 0.84462434053421021 0.98189914226531982
0.18017992377281189 0.79470747709274292 0.75916576385498047
0.29099860787391663 0.79413735866546631 0.75719714164733887
0.43239879608154297 0.81236827373504639 0.77352583408355713
0.74837452173233032 0.92313981056213379 0.91926020383834839
0.99674320220947266 0.99658644199371338 0.99696820974349976
