assets/lut/editingcorpw Blush Blossom.cube
LUT_3D_SIZE 6
DOMAIN_MIN 0.0 0.0 0.0
DOMAIN_MAX 1.0 1.0 1.0
0.000000 0.000000 0.000000
0.000000 0.000000 0.000000
0.444584 0.000000 0.000000
0.871872 0.000000 0.020386
1.000000 0.000000 0.019657
0.998596 0.000000 0.034195
0.000000 0.042066 0.000000
0.047074 0.086162 0.000000
0.336541 0.019480 0.000000
0.671353 0.000000 0.002179
0.966837 0.000000 0.046265
0.599432 0.065119 0.037720
0.000000 0.358138 0.000000
0.000909 0.393465 0.000000
0.409420 0.399578 0.000000
0.744382 0.357221 0.000000
0.990723 0.245189 0.000000
0.000000 0.392980 0.000000
0.000000 0.682530 0.000000
0.000000 0.736444 0.000000
0.216068 0.751151 0.000000
0.732974 0.761580 0.000000
0.979546 0.721039 0.000000
0.000000 0.707670 0.000000
0.022675 0.947860 0.000000
0.000000 0.944595 0.000000
0.063921 0.949990 0.000000
0.645879 0.956849 0.000000
0.928066 0.950529 0.000000
0.021335 0.953030 0.000000
0.000000 0.954452 0.000000
0.000000 0.954739 0.000000
0.000000 0.959461 0.000000
0.378456 0.978479 0.000000
0.726958 1.000000 0.000000
0.000000 0.000000 0.000000
0.034711 0.000000 0.022751
0.495281 0.000000 0.049190
0.882923 0.000000 0.102062
0.999807 0.000000 0.122688
0.325252 0.000000 0.048458
0.012842 0.000000 0.020612
0.014089 0.082692 0.087357
0.432403 0.025354 0.055211
0.774109 0.000000 0.055284
0.998864 0.000252 0.121100
0.325266 0.088712 0.125148
0.000000 0.151634 0.104436
0.000000 0.447788 0.127264
0.399434 0.447525 0.071727
0.788060 0.407570 0.015227
0.995448 0.290979 0.000000
0.325629 0.311093 0.132694
0.000000 0.505975 0.130545
0.000000 0.770179 0.137592
0.219436 0.779441 0.096491
0.760875 0.782282 0.045711
0.982511 0.738853 0.000000
0.332638 0.724685 0.134706
0.000000 0.807722 0.138012
0.000000 0.946744 0.146465
0.122067 0.951854 0.085458
0.669497 0.959095 0.034175
0.930873 0.952706 0.000000
0.324936 0.938230 0.140645
0.000000 0.949782 0.114883
0.000000 0.951421 0.000000
0.000000 0.962325 0.050700
0.352362 0.984929 0.125280
0.787020 1.000000 0.076921
0.000000 0.000000 0.034378
0.071992 0.000000 0.050086
0.416298 0.000000 0.198121
0.809015 0.000000 0.069813
1.000000 0.000000 0.122256
0.757654 0.000000 0.161017
0.000000 0.000000 0.266979
0.360315 0.000000 0.216970
0.374665 0.031488 0.325595
0.744696 0.000000 0.251593
0.994737 0.000000 0.112030
0.757641 0.040638 0.178306
0.000000 0.135945 0.351830
0.306752 0.114437 0.343879
0.251607 0.470205 0.423429
0.775496 0.432037 0.389183
0.999298 0.348538 0.225199
0.758656 0.245532 0.119282
0.000790 0.530863 0.432347
0.101205 0.531466 0.431460
0.020003 0.786957 0.473499
0.689657 0.796847 0.426977
0.987131 0.755951 0.301525
0.757757 0.677011 0.167486
0.000000 0.808527 0.475688
0.000000 0.818593 0.486984
0.000000 0.944453 0.486406
0.451208 0.960046 0.385934
0.892585 0.957792 0.261831
0.754734 0.923060 0.148123
0.000000 0.944957 0.486643
0.000000 0.947471 0.475492
0.000000 0.956092 0.359115
0.000000 0.978514 0.360769
0.649503 1.000000 0.434036
0.724032 0.758730 0.292344
0.000000 0.000000 0.298127
0.337697 0.000000 0.250101
0.351818 0.000000 0.427268
0.786810 0.000000 0.335790
1.000000 0.000000 0.097730
0.757642 0.000000 0.225127
0.019786 0.000000 0.528715
0.298397 0.000000 0.439420
0.303041 0.032075 0.561534
0.744246 0.000000 0.548034
0.998041 0.000000 0.420025
0.757825 0.025275 0.223074
0.000000 0.103452 0.588338
0.220102 0.115108 0.581176
0.141026 0.464124 0.657131
0.759532 0.423838 0.670635
0.999158 0.341454 0.610460
0.758729 0.290791 0.467134
0.002400 0.507989 0.643276
0.011006 0.527539 0.655964
0.000000 0.779987 0.682590
0.649783 0.789220 0.708572
0.984663 0.751959 0.672020
0.713899 0.704438 0.592925
0.000000 0.800685 0.677248
0.000000 0.811175 0.678437
0.000000 0.936901 0.673259
0.282903 0.951009 0.672420
0.879125 0.948961 0.644457
0.713780 0.912330 0.581755
0.000000 0.940048 0.671589
0.000000 0.943136 0.664001
0.000000 0.957124 0.565089
0.000000 0.975193 0.596219
0.601409 0.999493 0.632081
0.689189 0.710476 0.618136
0.017270 0.000000 0.561900
0.289076 0.000000 0.470687
0.561288 0.000000 0.633283
0.965338 0.000000 0.543904
0.999613 0.000000 0.141704
0.000000 0.000000 0.784196
0.000000 0.000000 0.677415
0.507988 0.000000 0.645304
0.511790 0.000000 0.769160
0.925469 0.000000 0.773341
1.000000 0.004408 0.575288
0.000000 0.095096 0.785194
0.000000 0.153487 0.748939
0.429654 0.014948 0.789629
0.413209 0.422306 0.845986
0.937691 0.348442 0.855832
1.000000 0.280150 0.745802
0.013601 0.449909 0.795431
0.000000 0.504487 0.788540
0.249799 0.502905 0.841827
0.086376 0.759923 0.833156
0.820466 0.730947 0.869710
1.000000 0.689300 0.798861
0.008344 0.760791 0.798219
0.000000 0.774537 0.799372
0.001978 0.789693 0.817002
0.000000 0.925288 0.796067
0.506351 0.933191 0.831281
0.978472 0.913398 0.823064
0.000000 0.921757 0.785209
0.000000 0.928993 0.783650
0.000000 0.934143 0.786643
0.000000 0.964957 0.721181
0.018923 0.988273 0.759060
0.813265 1.000000 0.801256
0.000000 0.000000 0.814235
0.000000 0.000000 0.708117
0.469545 0.000000 0.671934
0.906233 0.000000 0.797589
1.000000 0.000000 0.586367
0.000000 0.000000 0.869879
0.000461 0.000000 0.833762
0.313912 0.000000 0.820770
0.863737 0.000000 0.808621
0.847245 0.000000 1.000000
1.000000 0.000000 0.869868
0.000000 0.137611 0.892629
0.000000 0.144962 0.875918
0.047431 0.065611 0.976331
0.777069 0.015448 1.000000
0.790052 0.360899 0.999965
1.000000 0.235648 0.981041
0.016849 0.376504 0.851672
0.000000 0.438489 0.844388
0.000000 0.487056 0.857695
0.684133 0.427603 0.998078
0.592311 0.682631 0.929484
0.986818 0.645039 0.996554
0.009282 0.680518 0.817379
0.000000 0.699755 0.815379
0.000000 0.723216 0.813349
0.377949 0.722719 0.889589
0.165298 0.874931 0.845847
0.906258 0.878136 0.940515
0.000000 0.860702 0.798350
0.000000 0.870186 0.797617
0.000000 0.881335 0.795552
0.000000 0.896870 0.826532
0.000000 0.951949 0.813855
0.694319 0.966345 0.857859
0.000000 0.000000 0.000000
0.000000 0.000000 0.000000
0.000000 0.000000 0.000000
0.000000 0.000000 0.000000
