assets/lut/editingcorp randas.cube
# Created by: G'MIC (https://gmic.eu)
TITLE "randas"
# LUT size
LUT_3D_SIZE 7
# Data domain
DOMAIN_MIN 0.0 0.0 0.0
DOMAIN_MAX 1.0 1.0 1.0
# LUT data points
0.043784406036138535 0.039998207241296768 0.070984691381454468
0.2092440277338028 0.045650962740182877 0.072121024131774902
0.4547056257724762 0.055098723620176315 0.082543134689331055
0.65529167652130127 0.077848993241786957 0.12743228673934937
0.77999526262283325 0.074331887066364288 0.13599175214767456
0.85662585496902466 0.079125590622425079 0.14246836304664612
0.93067651987075806 0.07037169486284256 0.14417831599712372
0.054487027227878571 0.17592297494411469 0.084876716136932373
0.17144685983657837 0.15413327515125275 0.079177230596542358
0.40804228186607361 0.14950254559516907 0.091112367808818817
0.63200122117996216 0.15593501925468445 0.1238110139966011
0.78375238180160522 0.1478067934513092 0.13982023298740387
0.85833472013473511 0.1476166844367981 0.14698673784732819
0.93101024627685547 0.15130679309368134 0.14630350470542908
0.072629846632480621 0.3811982274055481 0.10537201911211014
0.14210590720176697 0.36579081416130066 0.096389457583427429
0.34888514876365662 0.34776401519775391 0.095582596957683563
0.58868169784545898 0.34165504574775696 0.10968032479286194
0.76877248287200928 0.32581666111946106 0.13903690874576569
0.85797202587127686 0.31009659171104431 0.14851218461990356
0.93537980318069458 0.30252128839492798 0.14787949621677399
0.093277379870414734 0.60623347759246826 0.13927370309829712
0.14673316478729248 0.59509706497192383 0.13409537076950073
0.28424099087715149 0.58854597806930542 0.11885061860084534
0.5435798168182373 0.57046806812286377 0.11315485835075378
0.74515855312347412 0.56281989812850952 0.1323639303445816
0.86407053470611572 0.55426400899887085 0.14677543938159943
0.93667328357696533 0.54575371742248535 0.14911776781082153
0.11444149911403656 0.75432562828063965 0.18268956243991852
0.17625868320465088 0.75147277116775513 0.18562538921833038
0.27292078733444214 0.7512848973274231 0.17439110577106476
0.47286850214004517 0.74315506219863892 0.14651449024677277
0.71915465593338013 0.72384721040725708 0.12858627736568451
0.86357307434082031 0.7128491997718811 0.15018667280673981
0.93849724531173706 0.70404118299484253 0.15933686494827271
0.12457416206598282 0.86623185873031616 0.20118376612663269
0.19054614007472992 0.86698967218399048 0.21303986012935638
0.25518089532852173 0.86643517017364502 0.21716445684432983
0.38596215844154358 0.87486165761947632 0.21138319373130798
0.64554917812347412 0.86639606952667236 0.18482740223407745
0.83563131093978882 0.85705649852752686 0.18594299256801605
0.93073219060897827 0.84851878881454468 0.19168515503406525
0.11017430573701859 0.9497717022895813 0.20030173659324646
0.17695194482803345 0.9452705979347229 0.21532057225704193
0.24543231725692749 0.94097095727920532 0.22058981657028198
0.35021504759788513 0.9478524923324585 0.22534748911857605
0.59231412410736084 0.94659978151321411 0.21673956513404846
0.79881387948989868 0.95252299308776855 0.20722135901451111
0.91129499673843384 0.95563668012619019 0.20985141396522522
0.05362306535243988 0.047095835208892822 0.2236727774143219
0.21843695640563965 0.043827444314956665 0.21055756509304047
0.45465466380119324 0.057510901242494583 0.21082416176795959
0.66081005334854126 0.069064199924468994 0.21123047173023224
0.78905832767486572 0.058287914842367172 0.20071402192115784
0.85939735174179077 0.08162052184343338 0.2108185887336731
0.93504709005355835 0.083984419703483582 0.22041143476963043
0.058227434754371643 0.16204780340194702 0.20158796012401581
0.17276753485202789 0.15827503800392151 0.19767627120018005
0.41608813405036926 0.15027640759944916 0.18704654276371002
0.63742756843566895 0.15653364360332489 0.19858661293983459
0.78345704078674316 0.15646389126777649 0.19610820710659027
0.85694855451583862 0.16405999660491943 0.19982007145881653
0.93433743715286255 0.16847230494022369 0.2038605660200119
0.071041405200958252 0.37503275275230408 0.18947926163673401
0.14753814041614532 0.36926746368408203 0.18284855782985687
0.35605430603027344 0.35437136888504028 0.16933511197566986
0.59432590007781982 0.34331241250038147 0.16977263987064362
0.76684856414794922 0.326311856508255 0.19086474180221558
0.85947650671005249 0.31544062495231628 0.19903033971786499
0.93831396102905273 0.30502814054489136 0.20104511082172394
0.091520018875598907 0.60548990964889526 0.20368319749832153
0.15162649750709534 0.60275477170944214 0.19945617020130157
0.28493133187294006 0.59249109029769897 0.18051283061504364
0.54466128349304199 0.57162541151046753 0.16933053731918335
0.74996507167816162 0.56255263090133667 0.18704882264137268
0.86320304870605469 0.55076605081558228 0.19680681824684143
0.93784070014953613 0.54239368438720703 0.19959180057048798
0.11531216651201248 0.75428932905197144 0.23952379822731018
0.1758849024772644 0.75009459257125854 0.24054594337940216
0.2652471661567688 0.74851024150848389 0.23128125071525574
0.46503478288650513 0.74411517381668091 0.20793834328651428
0.71476548910140991 0.72602307796478271 0.19960714876651764
0.86183202266693115 0.70816218852996826 0.21411140263080597
0.93778961896896362 0.6974109411239624 0.22337199747562408
0.12948474287986755 0.86151611804962158 0.25697752833366394
0.19396789371967316 0.85621100664138794 0.26676866412162781
0.26621469855308533 0.85872840881347656 0.27157562971115112
0.39295366406440735 0.8730044960975647 0.27896016836166382
0.65050959587097168 0.86878091096878052 0.25857758522033691
0.8419499397277832 0.85897612571716309 0.2651161253452301
0.93231618404388428 0.84362208843231201 0.27099466323852539
0.12216342240571976 0.94034445285797119 0.26052767038345337
0.18785524368286133 0.93383955955505371 0.27107381820678711
0.26295530796051025 0.93236899375915527 0.27466797828674316
0.36831223964691162 0.94385331869125366 0.28778967261314392
0.59440034627914429 0.95383131504058838 0.2814466655254364
0.81618160009384155 0.95307475328445435 0.27573749423027039
0.92232561111450195 0.95283859968185425 0.28989797830581665
0.11086515337228775 0.054647304117679596 0.465892493724823
0.25238803029060364 0.051376312971115112 0.44432711601257324
0.44873377680778503 0.053030919283628464 0.42570552229881287
0.65623396635055542 0.073429495096206665 0.40724426507949829
0.79095643758773804 0.069405302405357361 0.38959226012229919
0.86178874969482422 0.074786707758903503 0.38510257005691528
0.93752098083496094 0.076196081936359406 0.3831629753112793
0.082383684813976288 0.18951952457427979 0.4149288535118103
0.20236635208129883 0.16539353132247925 0.41545140743255615
0.42323648929595947 0.15030869841575623 0.39598527550697327
0.6360626220703125 0.15822190046310425 0.37311515212059021
0.78651052713394165 0.16421268880367279 0.36748766899108887
0.86093461513519287 0.16397373378276825 0.3536241352558136
0.93890547752380371 0.16968050599098206 0.35329258441925049
0.076621592044830322 0.3801579475402832 0.3717038631439209
0.14367339015007019 0.37306514382362366 0.36355111002922058
0.35685208439826965 0.36596140265464783 0.36780440807342529
0.61567717790603638 0.35643747448921204 0.35643714666366577
0.77969366312026978 0.34657102823257446 0.35670498013496399
0.87167692184448242 0.33268332481384277 0.34780073165893555
0.94578534364700317 0.3389836847782135 0.35766828060150146
0.096105553209781647 0.601043701171875 0.35411551594734192
0.1495840847492218 0.59957695007324219 0.33851420879364014
0.26867640018463135 0.5959928035736084 0.3261360228061676
0.55940961837768555 0.59402817487716675 0.30663147568702698
0.76200145483016968 0.58369755744934082 0.31788861751556396
0.87289094924926758 0.56478500366210938 0.31325849890708923
0.94506162405014038 0.56144899129867554 0.32654383778572083
0.11502435803413391 0.76179635524749756 0.33927541971206665
0.17813456058502197 0.75494319200515747 0.3298175036907196
0.25993052124977112 0.74847418069839478 0.32194939255714417
0.46587303280830383 0.74789178371429443 0.29798963665962219
0.71804141998291016 0.73301798105239868 0.27760049700737
0.86143076419830322 0.70962142944335938 0.28967452049255371
0.9356502890586853 0.70275801420211792 0.32070055603981018
0.12927912175655365 0.86837339401245117 0.32443791627883911
0.19464428722858429 0.86332714557647705 0.32562908530235291
0.26960855722427368 0.86371070146560669 0.33153232932090759
0.38923296332359314 0.87166547775268555 0.33193004131317139
0.64877933263778687 0.87258195877075195 0.32030433416366577
0.84363961219787598 0.86212313175201416 0.32391422986984253
0.93557512760162354 0.84846681356430054 0.33313950896263123
0.12858882546424866 0.94176477193832397 0.31407654285430908
0.18898136913776398 0.935538649559021 0.3244873583316803
0.2606557309627533 0.93345898389816284 0.33224254846572876
0.35904198884963989 0.94342392683029175 0.33877965807914734
0.60859066247940063 0.95839619636535645 0.33549460768699646
0.8257710337638855 0.95626503229141235 0.32949453592300415
0.93053656816482544 0.95219498872756958 0.35544583201408386
0.17391592264175415 0.062572687864303589 0.70209401845932007
0.30115121603012085 0.061676520854234695 0.68623620271682739
0.47834822535514832 0.067099854350090027 0.66928362846374512
0.6641274094581604 0.067551538348197937 0.65683823823928833
0.79389244318008423 0.080624602735042572 0.64238160848617554
0.86273431777954102 0.061923965811729431 0.63371789455413818
0.93445771932601929 0.063200764358043671 0.61868768930435181
0.14057959616184235 0.18929967284202576 0.67104566097259521
0.26227715611457825 0.17288543283939362 0.67299771308898926
0.4592328667640686 0.14906720817089081 0.65207928419113159
0.64319002628326416 0.14522285759449005 0.62535625696182251
0.78821098804473877 0.16120471060276031 0.62730306386947632
0.86390930414199829 0.15032114088535309 0.6033400297164917
0.93756550550460815 0.15690860152244568 0.59316468238830566
0.10066275298595428 0.40302586555480957 0.62185835838317871
0.17749601602554321 0.39696508646011353 0.61971944570541382
0.38728213310241699 0.36555019021034241 0.63153237104415894
0.62011528015136719 0.35255390405654907 0.62164634466171265
0.7829938530921936 0.34731793403625488 0.61401951313018799
0.87216788530349731 0.32247129082679749 0.5922846794128418
0.94438093900680542 0.3206489086151123 0.58599328994750977
0.10616755485534668 0.60325974225997925 0.58843111991882324
0.16142772138118744 0.60186445713043213 0.58121883869171143
0.28442242741584778 0.60336744785308838 0.58204299211502075
0.5728222131729126 0.61475843191146851 0.6055305004119873
0.78011006116867065 0.61541962623596191 0.61807024478912354
0.89269661903381348 0.60473871231079102 0.60351371765136719
0.96764492988586426 0.60416096448898315 0.60407054424285889
0.11528895050287247 0.7533145546913147 0.55785560607910156
0.17782863974571228 0.75132244825363159 0.54547023773193359
0.2532239556312561 0.749103844165802 0.54054611921310425
0.46430131793022156 0.75502657890319824 0.55418509244918823
0.73713535070419312 0.75474876165390015 0.56042152643203735
0.89022302627563477 0.73749494552612305 0.56205779314041138
0.96560013294219971 0.73304581642150879 0.56351858377456665
0.12921202182769775 0.86650919914245605 0.510093092918396
0.19637614488601685 0.86373639106750488 0.51164156198501587
0.27159518003463745 0.86757200956344604 0.50615143775939941
0.39425286650657654 0.87514299154281616 0.5138048529624939
0.66105765104293823 0.88562977313995361 0.51880037784576416
0.85715365409851074 0.87675720453262329 0.50565773248672485
0.95871847867965698 0.86414134502410889 0.49692296981811523
0.12862107157707214 0.93906563520431519 0.4741518497467041
0.18676944077014923 0.93453836441040039 0.48469200730323792
0.25126063823699951 0.93431293964385986 0.48311927914619446
0.3434252142906189 0.94550013542175293 0.47576367855072021
0.6206742525100708 0.96695911884307861 0.49986505508422852
0.84442776441574097 0.96619921922683716 0.46164223551750183
0.95332729816436768 0.96264815330505371 0.4810079038143158
0.20776061713695526 0.079008810222148895 0.82076650857925415
0.33750060200691223 0.072427503764629364 0.8223540186882019
0.50770354270935059 0.090389743447303772 0.81671643257141113
0.67795306444168091 0.094662562012672424 0.80947476625442505
0.79696530103683472 0.090248763561248779 0.80127006769180298
0.86191731691360474 0.072112977504730225 0.79530203342437744
0.93319588899612427 0.075469717383384705 0.78327971696853638
0.18851089477539062 0.19788189232349396 0.81311172246932983
0.30476319789886475 0.1920531690120697 0.81369167566299438
0.48852339386940002 0.17221209406852722 0.80999648571014404
0.66148293018341064 0.15987645089626312 0.79936665296554565
0.79467344284057617 0.16400714218616486 0.79033654928207397
0.86380636692047119 0.16096653044223785 0.77772331237792969
0.93711817264556885 0.1655261367559433 0.7714383602142334
0.13263280689716339 0.42673227190971375 0.79320251941680908
0.23002178966999054 0.41651174426078796 0.79709756374359131
0.44841453433036804 0.39075994491577148 0.80861961841583252
0.64052611589431763 0.34264448285102844 0.79792636632919312
0.78663241863250732 0.3234984278678894 0.7780296802520752
0.87012183666229248 0.30232962965965271 0.76357585191726685
0.94202291965484619 0.29770740866661072 0.75612062215805054
0.11654295027256012 0.61700987815856934 0.77355557680130005
0.17871087789535522 0.61306333541870117 0.77230608463287354
0.32534059882164001 0.61571329832077026 0.77517765760421753
0.59901785850524902 0.62122422456741333 0.7948337197303772
0.79163640737533569 0.6142737865447998 0.78347790241241455
0.89601302146911621 0.60684055089950562 0.77225697040557861
0.97106409072875977 0.59447956085205078 0.7659304141998291
0.12182319164276123 0.75966846942901611 0.7543981671333313
0.17679914832115173 0.75500750541687012 0.75003224611282349
0.25116780400276184 0.75022685527801514 0.74532347917556763
0.48072946071624756 0.76293915510177612 0.76025444269180298
0.74950265884399414 0.77142244577407837 0.7725645899772644
0.90165024995803833 0.76634442806243896 0.7753751277923584
0.98001968860626221 0.7621006965637207 0.77185928821563721
0.1279551088809967 0.8724358081817627 0.71911144256591797
0.19399212300777435 0.87265849113464355 0.72001117467880249
0.25755885243415833 0.86978667974472046 0.71485823392868042
0.38454428315162659 0.87585830688476562 0.71380823850631714
0.68035751581192017 0.89746809005737305 0.73825478553771973
0.88377076387405396 0.90178781747817993 0.74655401706695557
0.98040318489074707 0.89158284664154053 0.74351304769515991
0.12588141858577728 0.93480873107910156 0.6868632435798645
0.17989182472229004 0.93574744462966919 0.69186890125274658
0.23128367960453033 0.93620622158050537 0.68639743328094482
0.33311474323272705 0.9462745189666748 0.68908089399337769
0.6417575478553772 0.97233939170837402 0.72590827941894531
0.86464732885360718 0.97707313299179077 0.71401506662368774
0.97315317392349243 0.97610300779342651 0.71844536066055298
0.21428056061267853 0.078149579465389252 0.88117855787277222
0.34189656376838684 0.071460455656051636 0.88283693790435791
0.51084041595458984 0.096692092716693878 0.88440746068954468
0.67658740282058716 0.10431026667356491 0.88525784015655518
0.79628777503967285 0.088161692023277283 0.88423019647598267
0.86218082904815674 0.055101804435253143 0.87878823280334473
0.93267220258712769 0.072173252701759338 0.87082576751708984
0.20754978060722351 0.19086509943008423 0.88444215059280396
0.32426759600639343 0.18834015727043152 0.88452041149139404
0.4938170313835144 0.16676008701324463 0.88276594877243042
0.66347110271453857 0.15948645770549774 0.88245624303817749
0.79976505041122437 0.16443696618080139 0.88251882791519165
0.86922687292098999 0.14195841550827026 0.87867790460586548
0.93444466590881348 0.16242693364620209 0.87068867683410645
0.1547316312789917 0.42692247033119202 0.88145792484283447
0.25760459899902344 0.41601407527923584 0.88418149948120117
0.46577340364456177 0.39330026507377625 0.89624989032745361
0.64177650213241577 0.33507028222084045 0.89354640245437622
0.7882390022277832 0.30813267827033997 0.88785505294799805
0.86859875917434692 0.2892909049987793 0.88462334871292114
0.94037032127380371 0.28931471705436707 0.87450492382049561
0.11890576034784317 0.61640280485153198 0.88178855180740356
0.18891678750514984 0.61470276117324829 0.88251692056655884
0.38183599710464478 0.62701404094696045 0.89592760801315308
0.62129896879196167 0.63149857521057129 0.90995073318481445
0.79641896486282349 0.61245763301849365 0.90672451257705688
0.8943367600440979 0.60161304473876953 0.89803993701934814
0.96773403882980347 0.58746576309204102 0.89002543687820435
0.13120719790458679 0.75666767358779907 0.87926936149597168
0.18843172490596771 0.75311398506164551 0.87724876403808594
0.27836260199546814 0.74783951044082642 0.87902623414993286
0.51604658365249634 0.76475018262863159 0.89408189058303833
0.76424634456634521 0.77843761444091797 0.90731287002563477
0.90838539600372314 0.77259993553161621 0.906593918800354
0.9810909628868103 0.76372891664505005 0.9008820652961731
0.13132406771183014 0.87274783849716187 0.86724007129669189
0.19594596326351166 0.87265491485595703 0.86452633142471313
0.25722679495811462 0.8703882098197937 0.86071264743804932
0.4097687304019928 0.87506115436553955 0.86157315969467163
0.6969001293182373 0.90320593118667603 0.88584607839584351
0.89912152290344238 0.91212862730026245 0.90027141571044922
0.98410749435424805 0.9029197096824646 0.88822382688522339
0.12527620792388916 0.93477171659469604 0.847392737865448
0.17697782814502716 0.93788957595825195 0.84682637453079224
0.23027722537517548 0.93868350982666016 0.84190350770950317
0.35897558927536011 0.94428640604019165 0.84158515930175781
0.66070961952209473 0.97497224807739258 0.87335824966430664
0.87849003076553345 0.99103260040283203 0.88554435968399048
0.98658794164657593 0.98512917757034302 0.87943768501281738
0.2190418541431427 0.072876662015914917 0.9353448748588562
0.34326645731925964 0.089920610189437866 0.93507426977157593
0.50308966636657715 0.086181864142417908 0.93473982810974121
0.66849040985107422 0.094851128756999969 0.93592375516891479
0.79848527908325195 0.093651086091995239 0.93677031993865967
0.87062448263168335 0.054054483771324158 0.9335898756980896
0.93651890754699707 0.051580838859081268 0.9285590648651123
0.21450857818126678 0.19098642468452454 0.93984878063201904
0.32521712779998779 0.18838000297546387 0.94040930271148682
0.48782381415367126 0.15887920558452606 0.93577444553375244
0.65521728992462158 0.15457852184772491 0.93359899520874023
0.79430866241455078 0.16232174634933472 0.93349480628967285
0.87315601110458374 0.13214513659477234 0.93269014358520508
0.93754667043685913 0.13740704953670502 0.9300537109375
0.17549021542072296 0.42454728484153748 0.94019109010696411
0.28262698650360107 0.42106813192367554 0.94408303499221802
0.47499498724937439 0.39976412057876587 0.95140570402145386
0.63580107688903809 0.32906779646873474 0.94658464193344116
0.78372186422348022 0.29898208379745483 0.94289189577102661
0.87474209070205688 0.29566082358360291 0.94182354211807251
0.94175261259078979 0.29127910733222961 0.93774682283401489
0.12887546420097351 0.61290246248245239 0.940399169921875
0.19389599561691284 0.61247187852859497 0.93834167718887329
0.37338277697563171 0.62223565578460693 0.9491657018661499
0.61271774768829346 0.63290709257125854 0.96497577428817749
0.78859645128250122 0.60653144121170044 0.96921807527542114
0.89596045017242432 0.59831482172012329 0.96478307247161865
0.97299569845199585 0.59276419878005981 0.96149814128875732
0.12714311480522156 0.75653743743896484 0.93984884023666382
0.18287824094295502 0.75222229957580566 0.9373774528503418
0.28370517492294312 0.74617844820022583 0.94008529186248779
0.52911496162414551 0.76056420803070068 0.95794838666915894
0.76355475187301636 0.77926599979400635 0.97813230752944946
0.91038328409194946 0.77672731876373291 0.98149091005325317
0.99004983901977539 0.76737207174301147 0.97721570730209351
0.13182201981544495 0.87421542406082153 0.93762892484664917
0.19745200872421265 0.87421202659606934 0.93784022331237793
0.25585746765136719 0.86558979749679565 0.93876856565475464
0.42676308751106262 0.87718212604522705 0.94631731510162354
0.69904929399490356 0.90379995107650757 0.9727405309677124
0.90367323160171509 0.91558802127838135 0.99030941724777222
0.99437528848648071 0.91698610782623291 0.98856890201568604
0.12929248809814453 0.93738645315170288 0.93706297874450684
0.1829286515712738 0.9402039647102356 0.93839144706726074
0.24794624745845795 0.93623048067092896 0.93792164325714111
0.419831782579422 0.94465756416320801 0.94552397727966309
0.69074851274490356 0.97488147020339966 0.97176694869995117
0.89425843954086304 0.99478769302368164 0.98962026834487915
0.99455028772354126 0.99484068155288696 0.99041652679443359
