assets/lut/editingcorp strano.cube
# Created by: G'MIC (https://gmic.eu)
TITLE "strano"
# LUT size
LUT_3D_SIZE 7
# Data domain
DOMAIN_MIN 0.0 0.0 0.0
DOMAIN_MAX 1.0 1.0 1.0
# LUT data points
0.020231688395142555 0.018185978755354881 0.020167287439107895
0.27446502447128296 0.014735097996890545 0.013982121832668781
0.55272364616394043 0.017291050404310226 0.02081787958741188
0.76553446054458618 0.030778981745243073 0.032443568110466003
0.8863409161567688 0.043850783258676529 0.043038178235292435
0.93158191442489624 0.049173511564731598 0.049095138907432556
0.97855520248413086 0.052508454769849777 0.056682124733924866
0.012572509236633778 0.13309606909751892 0.081346981227397919
0.19041246175765991 0.14206856489181519 0.049870360642671585
0.51170259714126587 0.12581419944763184 0.016325408592820168
0.74129712581634521 0.12044290453195572 0.028639310970902443
0.88024389743804932 0.16072225570678711 0.060279920697212219
0.93110352754592896 0.16020122170448303 0.063750341534614563
0.97419315576553345 0.15814921259880066 0.068557903170585632
0.011248734779655933 0.29312902688980103 0.20552559196949005
0.075879022479057312 0.29618954658508301 0.18775661289691925
0.3837132453918457 0.32658404111862183 0.066239796578884125
0.69237709045410156 0.30929955840110779 0.020568219944834709
0.87791132926940918 0.34248608350753784 0.049884632229804993
0.93887746334075928 0.33062359690666199 0.058310952037572861
0.98686116933822632 0.31670358777046204 0.060233499854803085
0.01080144289880991 0.43745166063308716 0.3404805064201355
0.058805577456951141 0.43306273221969604 0.33158397674560547
0.16758227348327637 0.46590393781661987 0.30222892761230469
0.55756622552871704 0.52102327346801758 0.067823715507984161
0.85569441318511963 0.52153342962265015 0.02719096839427948
0.94457030296325684 0.5047297477722168 0.04299558699131012
0.98977762460708618 0.48860400915145874 0.04502391442656517
0.011513220146298409 0.57132577896118164 0.46435418725013733
0.057948317378759384 0.57029443979263306 0.46136665344238281
0.13345512747764587 0.58097153902053833 0.45634698867797852
0.30446109175682068 0.63843446969985962 0.43838950991630554
0.72199660539627075 0.72112303972244263 0.11870452016592026
0.94026863574981689 0.71901589632034302 0.018625566735863686
0.99156832695007324 0.68601751327514648 0.020736334845423698
0.011500190012156963 0.64938092231750488 0.51101028919219971
0.057201653718948364 0.65124690532684326 0.51320356130599976
0.11257950961589813 0.66145908832550049 0.5207328200340271
0.22453345358371735 0.69444602727890015 0.52942770719528198
0.48906227946281433 0.77957671880722046 0.4740176796913147
0.82474899291992188 0.85631430149078369 0.21035954356193542
0.95854741334915161 0.84174275398254395 0.11039042472839355
0.011045702733099461 0.70377230644226074 0.51976895332336426
0.054719515144824982 0.7049146294593811 0.52059954404830933
0.10570361465215683 0.70626699924468994 0.53495830297470093
0.16040657460689545 0.73933088779449463 0.53535562753677368
0.31815454363822937 0.7985413670539856 0.54507851600646973
0.71783500909805298 0.91636514663696289 0.34779828786849976
0.89975976943969727 0.95258384943008423 0.28179830312728882
0.012514630332589149 0.056646909564733505 0.094388894736766815
0.21196363866329193 0.024305306375026703 0.11110194772481918
0.51824831962585449 0.018415354192256927 0.20630612969398499
0.7588992714881897 0.024665966629981995 0.16698382794857025
0.88246029615402222 0.056324228644371033 0.16271533071994781
0.92752766609191895 0.048701252788305283 0.15622702240943909
0.97422605752944946 0.048834916204214096 0.15364834666252136
0.012238715775310993 0.17282041907310486 0.16716760396957397
0.14493127167224884 0.15998442471027374 0.14767098426818848
0.48198452591896057 0.1228313073515892 0.13610509037971497
0.73114204406738281 0.11453165113925934 0.14027278125286102
0.87574928998947144 0.17840500175952911 0.16384896636009216
0.92844957113265991 0.17589569091796875 0.15815339982509613
0.97500801086425781 0.1667630672454834 0.14810925722122192
0.011765843257308006 0.29562017321586609 0.26371809840202332
0.070870436728000641 0.29544630646705627 0.2450985461473465
0.37637752294540405 0.3259073793888092 0.14230111241340637
0.68767887353897095 0.31288972496986389 0.090471215546131134
0.87433677911758423 0.34387657046318054 0.12056057155132294
0.93856394290924072 0.33216157555580139 0.11655865609645844
0.98409920930862427 0.32232934236526489 0.12882000207901001
0.011514970101416111 0.43401220440864563 0.38864746689796448
0.059625200927257538 0.43414139747619629 0.38444381952285767
0.16011267900466919 0.46002396941184998 0.35009944438934326
0.55404722690582275 0.51821655035018921 0.12125561386346817
0.85179972648620605 0.51900506019592285 0.079136505722999573
0.9425424337387085 0.50896680355072021 0.096149757504463196
0.99031263589859009 0.48378509283065796 0.098096288740634918
0.010879815556108952 0.57223749160766602 0.51535534858703613
0.058522813022136688 0.56751549243927002 0.50789958238601685
0.11408012360334396 0.57777351140975952 0.50217223167419434
0.2926749587059021 0.6340487003326416 0.48200258612632751
0.71957260370254517 0.72144216299057007 0.1649928092956543
0.93629354238510132 0.71567422151565552 0.06891949474811554
0.98527365922927856 0.68929684162139893 0.072583064436912537
0.011986766010522842 0.6528812050819397 0.56215870380401611
0.056940790265798569 0.65145790576934814 0.5604061484336853
0.10777483135461807 0.65891051292419434 0.5635870099067688
0.226629838347435 0.69503182172775269 0.57598936557769775
0.48581051826477051 0.78107494115829468 0.52471858263015747
0.82677888870239258 0.85314798355102539 0.25966957211494446
0.95799815654754639 0.83922600746154785 0.1553928405046463
0.013110830448567867 0.70229780673980713 0.56748217344284058
0.054928768426179886 0.70472115278244019 0.56727272272109985
0.10685155540704727 0.70589923858642578 0.56723183393478394
0.16338449716567993 0.74065935611724854 0.58100944757461548
0.30184781551361084 0.79772377014160156 0.59364885091781616
0.71322274208068848 0.91279071569442749 0.39332073926925659
0.90033209323883057 0.95146989822387695 0.32267135381698608
0.011884068138897419 0.18828921020030975 0.2938423752784729
0.12735138833522797 0.13877496123313904 0.29635560512542725
0.44070634245872498 0.024181529879570007 0.41206458210945129
0.69058263301849365 0.047430403530597687 0.57828927040100098
0.84709572792053223 0.15156768262386322 0.60639703273773193
0.89865100383758545 0.10563788563013077 0.57355093955993652
0.95515382289886475 0.11906351149082184 0.52811169624328613
0.011744061484932899 0.26046502590179443 0.32870775461196899
0.093257173895835876 0.24723595380783081 0.30960485339164734
0.3970472514629364 0.13347503542900085 0.34585365653038025
0.68002009391784668 0.15662878751754761 0.48818758130073547
0.85145562887191772 0.23939509689807892 0.52697873115539551
0.90850919485092163 0.23777987062931061 0.50628763437271118
0.95373374223709106 0.23207312822341919 0.45832237601280212
0.012299870140850544 0.35400885343551636 0.39959394931793213
0.072145603597164154 0.34853050112724304 0.37905263900756836
0.32642459869384766 0.34451532363891602 0.32612773776054382
0.66041535139083862 0.33395984768867493 0.31140783429145813
0.86124312877655029 0.38709497451782227 0.36682775616645813
0.92961186170578003 0.37967756390571594 0.36160188913345337
0.97478389739990234 0.37211862206459045 0.35992923378944397
0.013915566727519035 0.45789751410484314 0.48607972264289856
0.058923039585351944 0.44401389360427856 0.46800842881202698
0.14814014732837677 0.45461377501487732 0.43129172921180725
0.55507642030715942 0.5275152325630188 0.31475570797920227
0.84982025623321533 0.53198748826980591 0.26348945498466492
0.94359117746353149 0.52148491144180298 0.27039873600006104
0.98868584632873535 0.50388187170028687 0.27328094840049744
0.011576229706406593 0.57072550058364868 0.57462018728256226
0.059975806623697281 0.56555753946304321 0.56721395254135132
0.1121944934129715 0.5680505633354187 0.55268412828445435
0.27750682830810547 0.62154805660247803 0.54057139158248901
0.71840757131576538 0.71915942430496216 0.2688547670841217
0.94280284643173218 0.71886140108108521 0.1696031391620636
0.99236702919006348 0.6910175085067749 0.18411067128181458
0.011917338706552982 0.64929991960525513 0.61518913507461548
0.060320626944303513 0.64775162935256958 0.61311167478561401
0.10865025222301483 0.65246737003326416 0.61101317405700684
0.21584676206111908 0.69712281227111816 0.62624752521514893
0.48614752292633057 0.77729588747024536 0.58602750301361084
0.83100992441177368 0.85511916875839233 0.32232019305229187
0.96396136283874512 0.8379552960395813 0.21793517470359802
0.015962144359946251 0.70053267478942871 0.61752772331237793
0.055661547929048538 0.70020598173141479 0.61642158031463623
0.10919572412967682 0.70861172676086426 0.61772769689559937
0.16492150723934174 0.74380654096603394 0.62894600629806519
0.35423099994659424 0.79787528514862061 0.63977181911468506
0.71546846628189087 0.91585451364517212 0.43399316072463989
0.89638710021972656 0.9544404149055481 0.35516771674156189
0.015617220662534237 0.29881325364112854 0.50611788034439087
0.077806316316127777 0.31150540709495544 0.52525216341018677
0.36947456002235413 0.14116373658180237 0.54685252904891968
0.65336394309997559 0.026519147679209709 0.67643791437149048
0.78622019290924072 0.15143106877803802 0.76215451955795288
0.82969492673873901 0.11087095737457275 0.76729375123977661
0.88266348838806152 0.089178465306758881 0.76749926805496216
0.011450988240540028 0.35678455233573914 0.51332169771194458
0.065517991781234741 0.36283174157142639 0.51270198822021484
0.30856108665466309 0.26706743240356445 0.51313108205795288
0.61786907911300659 0.12200701981782913 0.62671315670013428
0.78799319267272949 0.25383707880973816 0.75799685716629028
0.84067308902740479 0.2421518862247467 0.75904852151870728
0.89401370286941528 0.24011312425136566 0.75229525566101074
0.013787048868834972 0.42986065149307251 0.55402171611785889
0.066346950829029083 0.42496690154075623 0.53322488069534302
0.2423490583896637 0.42439955472946167 0.50617074966430664
0.59578078985214233 0.33110970258712769 0.55058461427688599
0.83358383178710938 0.46984037756919861 0.68165916204452515
0.90117162466049194 0.47767826914787292 0.68727594614028931
0.95442026853561401 0.46356013417243958 0.66614055633544922
0.013280801475048065 0.51659274101257324 0.61322247982025146
0.056582760065793991 0.50841224193572998 0.60086393356323242
0.17155678570270538 0.51854485273361206 0.57143843173980713
0.53801482915878296 0.54516410827636719 0.53790962696075439
0.83383214473724365 0.57861042022705078 0.54601597785949707
0.93187838792800903 0.59070134162902832 0.568492591381073
0.97622323036193848 0.58498585224151611 0.56322973966598511
0.030987802892923355 0.61607527732849121 0.67395979166030884
0.065466113388538361 0.60159969329833984 0.65792334079742432
0.14909264445304871 0.60302412509918213 0.64389991760253906
0.34409704804420471 0.62774807214736938 0.61502271890640259
0.74788767099380493 0.73271697759628296 0.52463167905807495
0.93954813480377197 0.73493140935897827 0.47007247805595398
0.98909926414489746 0.7143281102180481 0.47913968563079834
0.02972717210650444 0.6632993221282959 0.6762312650680542
0.06870809942483902 0.65961927175521851 0.6725081205368042
0.13618984818458557 0.66245919466018677 0.67085707187652588
0.30200660228729248 0.70560264587402344 0.68482273817062378
0.52904242277145386 0.77433294057846069 0.69113552570343018
0.85285919904708862 0.8711969256401062 0.52039182186126709
0.96473151445388794 0.86507797241210938 0.45962613821029663
0.016449827700853348 0.70689970254898071 0.67179411649703979
0.059220451861619949 0.70628994703292847 0.6709747314453125
0.11508645117282867 0.70831203460693359 0.67183411121368408
0.2102506011724472 0.74984461069107056 0.67955970764160156
0.43635165691375732 0.80165237188339233 0.7079959511756897
0.75136321783065796 0.90919297933578491 0.60634022951126099
0.90817070007324219 0.96384787559509277 0.52860242128372192
0.016413655132055283 0.32987761497497559 0.60313743352890015
0.066753208637237549 0.35167983174324036 0.62474071979522705
0.32181671261787415 0.25350886583328247 0.65146219730377197
0.60786104202270508 0.026745770126581192 0.7101057767868042
0.84900569915771484 0.04653593897819519 0.86920219659805298
0.89693212509155273 0.050850003957748413 0.87134575843811035
0.94439047574996948 0.055021457374095917 0.87126016616821289
0.012732218019664288 0.39395537972450256 0.6196865439414978
0.067823775112628937 0.40845271944999695 0.6289057731628418
0.2502608597278595 0.38566091656684875 0.65474015474319458
0.5676109790802002 0.12818700075149536 0.67784541845321655
0.83268952369689941 0.15746331214904785 0.8579479455947876
0.88963174819946289 0.16702587902545929 0.86500465869903564
0.905376136302948 0.20373876392841339 0.84192311763763428
0.012699127197265625 0.471384197473526 0.65805608034133911
0.060781262814998627 0.47333997488021851 0.65473467111587524
0.19059538841247559 0.50243300199508667 0.66280269622802734
0.52132737636566162 0.39276480674743652 0.67354297637939453
0.80505728721618652 0.39220911264419556 0.82624030113220215
0.8816644549369812 0.42621156573295593 0.85104513168334961
0.92193377017974854 0.44600430130958557 0.83970022201538086
0.011570978909730911 0.56178998947143555 0.72245758771896362
0.058224860578775406 0.55850064754486084 0.71468156576156616
0.17374485731124878 0.5759848952293396 0.70624983310699463
0.46160820126533508 0.60962939262390137 0.71164178848266602
0.79845726490020752 0.59180408716201782 0.79388773441314697
0.91308212280273438 0.64705467224121094 0.83235502243041992
0.95663660764694214 0.66630309820175171 0.80586022138595581
0.12911388278007507 0.67973178625106812 0.78862655162811279
0.16344635188579559 0.67368340492248535 0.7840149998664856
0.22780381143093109 0.67194759845733643 0.77459317445755005
0.46047213673591614 0.70426130294799805 0.75943714380264282
0.76396477222442627 0.76061880588531494 0.77110391855239868
0.92222994565963745 0.79215461015701294 0.77801728248596191
0.97495830059051514 0.78989487886428833 0.76983088254928589
0.22045411169528961 0.75159752368927002 0.79676008224487305
0.25480926036834717 0.74681544303894043 0.79473775625228882
0.29900979995727539 0.74196052551269531 0.78820431232452393
0.45044496655464172 0.76291072368621826 0.78602796792984009
0.68161982297897339 0.82178068161010742 0.79793089628219604
0.8840598464012146 0.88702011108398438 0.76308673620223999
0.96451854705810547 0.88953626155853271 0.75281000137329102
0.16808618605136871 0.77345567941665649 0.77704596519470215
0.19136050343513489 0.76564961671829224 0.77345865964889526
0.23823839426040649 0.76655572652816772 0.77016621828079224
0.38299134373664856 0.80100136995315552 0.77479410171508789
0.62373089790344238 0.86047172546386719 0.79568368196487427
0.84352612495422363 0.94548028707504272 0.78327399492263794
0.94103115797042847 0.96985852718353271 0.75906938314437866
0.016342177987098694 0.32872116565704346 0.64755511283874512
0.06699865311384201 0.34558069705963135 0.66768163442611694
0.29181927442550659 0.27947303652763367 0.69498300552368164
0.58363252878189087 0.032729849219322205 0.73393338918685913
0.84413915872573853 0.037762660533189774 0.91201364994049072
0.90983873605728149 0.071925066411495209 0.92592668533325195
0.95888608694076538 0.082279771566390991 0.92622548341751099
0.012043642811477184 0.39781561493873596 0.66872626543045044
0.061465393751859665 0.40521115064620972 0.67711335420608521
0.23510706424713135 0.39012765884399414 0.69855034351348877
0.55143147706985474 0.12888333201408386 0.71413779258728027
0.82534182071685791 0.14135727286338806 0.89702403545379639
0.9116254448890686 0.15095148980617523 0.92771995067596436
0.96118062734603882 0.14793902635574341 0.93002450466156006
0.015853507444262505 0.47240707278251648 0.70465058088302612
0.059892959892749786 0.47502133250236511 0.70550978183746338
0.18247681856155396 0.50441259145736694 0.7136845588684082
0.49829009175300598 0.41479098796844482 0.72494244575500488
0.77803230285644531 0.37196874618530273 0.85558557510375977
0.91973090171813965 0.33584132790565491 0.93257367610931396
0.96370536088943481 0.33227595686912537 0.93204450607299805
0.012645287439227104 0.56045287847518921 0.76587730646133423
0.059047609567642212 0.55940443277359009 0.7628282904624939
0.16129620373249054 0.5800972580909729 0.75840622186660767
0.44525605440139771 0.62014257907867432 0.7752077579498291
0.77150052785873413 0.57475155591964722 0.8492429256439209
0.93049806356430054 0.55535894632339478 0.93718969821929932
0.97311991453170776 0.56509292125701904 0.93303787708282471
0.15396542847156525 0.69132113456726074 0.84715455770492554
0.17525163292884827 0.68385225534439087 0.8416212797164917
0.22473444044589996 0.68350487947463989 0.83786988258361816
0.45927011966705322 0.72452104091644287 0.84072601795196533
0.75995796918869019 0.77998685836791992 0.87125074863433838
0.91980558633804321 0.78038305044174194 0.92592263221740723
0.97357338666915894 0.77810728549957275 0.93298125267028809
0.33778411149978638 0.8063589334487915 0.88649195432662964
0.37625148892402649 0.80283361673355103 0.88473892211914062
0.42262545228004456 0.8005492091178894 0.88117462396621704
0.55760914087295532 0.82398676872253418 0.88473474979400635
0.75650900602340698 0.87118297815322876 0.89639365673065186
0.90365266799926758 0.90614444017410278 0.91533565521240234
0.97276991605758667 0.91275489330291748 0.92134320735931396
0.33471086621284485 0.85487610101699829 0.88713890314102173
0.37054833769798279 0.84556871652603149 0.88183873891830444
0.43154218792915344 0.85267549753189087 0.88296860456466675
0.55407953262329102 0.87562036514282227 0.88635289669036865
0.73347461223602295 0.9203224778175354 0.89524626731872559
0.89578092098236084 0.96534496545791626 0.91286605596542358
0.96476107835769653 0.97628670930862427 0.90992647409439087
0.012605195865035057 0.32140424847602844 0.69263374805450439
0.069351166486740112 0.33978697657585144 0.70625585317611694
0.26929250359535217 0.29667219519615173 0.74613708257675171
0.55941247940063477 0.049478806555271149 0.777607262134552
0.81400841474533081 0.042645025998353958 0.94406962394714355
0.90478813648223877 0.063315972685813904 0.96744358539581299
0.95271807909011841 0.094536364078521729 0.94572925567626953
0.014128321781754494 0.39379692077636719 0.72443819046020508
0.061489883810281754 0.40482309460639954 0.73137545585632324
0.20838874578475952 0.4041384756565094 0.7525324821472168
0.51841199398040771 0.18495984375476837 0.76794594526290894
0.76432764530181885 0.14914888143539429 0.90223246812820435
0.90813422203063965 0.14156092703342438 0.98335891962051392
0.95628648996353149 0.15926988422870636 0.97439110279083252
0.016932843253016472 0.46641474962234497 0.75531816482543945
0.058851622045040131 0.47101810574531555 0.7572597861289978
0.18425123393535614 0.50150233507156372 0.76444512605667114
0.4742245078086853 0.43822690844535828 0.77620929479598999
0.74284309148788452 0.36080107092857361 0.86916613578796387
0.90535825490951538 0.34461808204650879 0.97450453042984009
0.96938908100128174 0.31747442483901978 0.98452425003051758
0.018504677340388298 0.55036401748657227 0.81134676933288574
0.056591946631669998 0.54641491174697876 0.80801165103912354
0.15195357799530029 0.57032352685928345 0.80721664428710938
0.43680796027183533 0.6180155873298645 0.82728058099746704
0.74195122718811035 0.56256210803985596 0.88023251295089722
0.92927628755569458 0.54633200168609619 0.99007517099380493
0.97720736265182495 0.5365862250328064 0.99422580003738403
0.11357990652322769 0.66694337129592896 0.89027899503707886
0.10469488799571991 0.66262030601501465 0.89149183034896851
0.1909000426530838 0.66870737075805664 0.88803714513778687
0.45694807171821594 0.72124671936035156 0.8952828049659729
0.74996429681777954 0.77148908376693726 0.92235159873962402
0.914725661277771 0.77785634994506836 0.98167425394058228
0.98063606023788452 0.76979953050613403 0.9863278865814209
0.31819027662277222 0.79776585102081299 0.94211751222610474
0.35375502705574036 0.79585433006286621 0.94048285484313965
0.41158059239387512 0.79607778787612915 0.93606048822402954
0.55202233791351318 0.81936389207839966 0.94248694181442261
0.76441723108291626 0.8759695291519165 0.95823198556900024
0.912098228931427 0.91071313619613647 0.98202389478683472
0.97387605905532837 0.91378772258758545 0.98891091346740723
0.36386695504188538 0.86175715923309326 0.9343833327293396
0.39722654223442078 0.85883802175521851 0.94484853744506836
0.45597755908966064 0.85943484306335449 0.94306617975234985
0.58050757646560669 0.88280993700027466 0.94632077217102051
0.76327931880950928 0.93009501695632935 0.96823275089263916
0.90757745504379272 0.97011041641235352 0.98447072505950928
0.97034311294555664 0.97356164455413818 0.98757022619247437
