assets/lut/editingcorp lotta.cube
# Created by: G'MIC (https://gmic.eu)
TITLE "lotta"
# LUT size
LUT_3D_SIZE 13
# Data domain
DOMAIN_MIN 0.0 0.0 0.0
DOMAIN_MAX 1.0 1.0 1.0
# LUT data points
0.0031693102791905403 0.0054609710350632668 0.0048011182807385921
0.0064511764794588089 0.010136728174984455 0.012559269554913044
0.034518595784902573 0.020882295444607735 0.022692108526825905
0.10760414600372314 0.037819087505340576 0.037329655140638351
0.19154411554336548 0.052393101155757904 0.050886642187833786
0.2617594301700592 0.061646152287721634 0.059824895113706589
0.32870841026306152 0.071350768208503723 0.065100260078907013
0.39675167202949524 0.080341741442680359 0.066302672028541565
0.46761634945869446 0.089941509068012238 0.066878281533718109
0.53860312700271606 0.10114429146051407 0.068912267684936523
0.60888034105300903 0.11188046634197235 0.072519548237323761
0.69090664386749268 0.12461085617542267 0.076774835586547852
0.76468002796173096 0.13159024715423584 0.082171648740768433
0.012146430090069771 0.022628858685493469 0.018274659290909767
0.020348912104964256 0.026809558272361755 0.02401021309196949
0.071186661720275879 0.041977662593126297 0.032602842897176743
0.15670135617256165 0.061649847775697708 0.044777020812034607
0.22736018896102905 0.072189152240753174 0.053848806768655777
0.28828591108322144 0.080332785844802856 0.059686429798603058
0.35151815414428711 0.090330310165882111 0.064676113426685333
0.41725307703018188 0.10084614157676697 0.06776823103427887
0.48675018548965454 0.11265495419502258 0.070054449141025543
0.56003880500793457 0.12796600162982941 0.073414355516433716
0.63481712341308594 0.14291949570178986 0.077532783150672913
0.71706253290176392 0.1586424708366394 0.083542138338088989
0.79078716039657593 0.16918425261974335 0.090200699865818024
0.019825579598546028 0.057683397084474564 0.029915230348706245
0.026302263140678406 0.066363915801048279 0.033506624400615692
0.076253779232501984 0.08160051703453064 0.038893800228834152
0.17172247171401978 0.10514390468597412 0.045952696353197098
0.25120148062705994 0.11820711940526962 0.052515216171741486
0.31288725137710571 0.1240164190530777 0.058333542197942734
0.3755195140838623 0.13371054828166962 0.062895737588405609
0.43804800510406494 0.14581009745597839 0.066311657428741455
0.50263303518295288 0.15776321291923523 0.068610519170761108
0.57189726829528809 0.17436839640140533 0.07176584005355835
0.64788609743118286 0.19139765202999115 0.075810916721820831
0.73099315166473389 0.2078145444393158 0.081224404275417328
0.80846452713012695 0.22289586067199707 0.089357949793338776
0.042448993772268295 0.12057532370090485 0.050622183829545975
0.043513502925634384 0.1303270012140274 0.053030919283628464
0.076391257345676422 0.13757231831550598 0.056622851639986038
0.16874827444553375 0.1585962176322937 0.060880802571773529
0.26209831237792969 0.18099795281887054 0.059991456568241119
0.33660051226615906 0.19256815314292908 0.060132164508104324
0.40316042304039001 0.20183059573173523 0.063024677336215973
0.46422293782234192 0.21285013854503632 0.063679665327072144
0.52562165260314941 0.22278861701488495 0.06488635390996933
0.5909610390663147 0.23755435645580292 0.066548712551593781
0.66521120071411133 0.25402915477752686 0.070413745939731598
0.74828726053237915 0.26802295446395874 0.076887659728527069
0.82744413614273071 0.28393265604972839 0.087669074535369873
0.078098669648170471 0.19055415689945221 0.091132372617721558
0.076385468244552612 0.2015145868062973 0.097220808267593384
0.11469503492116928 0.21007390320301056 0.09848494827747345
0.19166578352451324 0.2170378714799881 0.10378073900938034
0.27143922448158264 0.23606856167316437 0.097831293940544128
0.35336226224899292 0.263906329870224 0.07832055538892746
0.42728161811828613 0.28346353769302368 0.066402554512023926
0.49072158336639404 0.29035854339599609 0.063139252364635468
0.55308014154434204 0.29663676023483276 0.061946328729391098
0.61917728185653687 0.30956366658210754 0.061650834977626801
0.69221013784408569 0.32256224751472473 0.065674334764480591
0.77189487218856812 0.33361497521400452 0.074927054345607758
0.84940445423126221 0.34803557395935059 0.088907800614833832
0.11230544745922089 0.26461213827133179 0.14190137386322021
0.11895793676376343 0.27743569016456604 0.15158790349960327
0.16938686370849609 0.29124554991722107 0.1498764306306839
0.24875181913375854 0.29504108428955078 0.15149447321891785
0.30395281314849854 0.29857495427131653 0.15390338003635406
0.36720958352088928 0.32150250673294067 0.12859857082366943
0.44008699059486389 0.35077345371246338 0.099283851683139801
0.50928092002868652 0.36668109893798828 0.082027435302734375
0.57750099897384644 0.37864673137664795 0.069857574999332428
0.64652496576309204 0.39004236459732056 0.06399168074131012
0.72007983922958374 0.39940148591995239 0.066917464137077332
0.79712957143783569 0.40834838151931763 0.078292384743690491
0.87197697162628174 0.42149358987808228 0.093716070055961609
0.14057940244674683 0.3377348780632019 0.18739126622676849
0.17727687954902649 0.3520054817199707 0.19124205410480499
0.24227342009544373 0.36722478270530701 0.19135218858718872
0.31581798195838928 0.374919593334198 0.19971828162670135
0.35666203498840332 0.37034997344017029 0.21256051957607269
0.39131125807762146 0.37213373184204102 0.19966870546340942
0.44793790578842163 0.39498689770698547 0.16791994869709015
0.51907974481582642 0.42586052417755127 0.13213855028152466
0.59418982267379761 0.45350569486618042 0.10062409937381744
0.66692173480987549 0.46947500109672546 0.081971548497676849
0.74266952276229858 0.4797939658164978 0.077767148613929749
0.81992870569229126 0.48929101228713989 0.086859352886676788
0.8930402398109436 0.50159186124801636 0.10012940317392349
0.20408448576927185 0.40374743938446045 0.21807995438575745
0.25426554679870605 0.4175923764705658 0.22028252482414246
0.31827741861343384 0.43221500515937805 0.22749495506286621
0.37680333852767944 0.44405505061149597 0.25009515881538391
0.41677269339561462 0.4462854266166687 0.27015548944473267
0.43935319781303406 0.4404754638671875 0.26876392960548401
0.47212409973144531 0.44553723931312561 0.24686022102832794
0.52838307619094849 0.47071138024330139 0.2076716423034668
0.60206496715545654 0.50796264410018921 0.15966556966304779
0.6784965991973877 0.53529578447341919 0.12213423848152161
0.75919437408447266 0.55529749393463135 0.10168790817260742
0.83914285898208618 0.56987196207046509 0.097921721637248993
0.9111209511756897 0.58335191011428833 0.10520972311496735
0.29695793986320496 0.46249514818191528 0.24236902594566345
0.33413904905319214 0.47480615973472595 0.25514647364616394
0.38306072354316711 0.48782810568809509 0.27254176139831543
0.42892399430274963 0.50278234481811523 0.30164310336112976
0.46891358494758606 0.51511663198471069 0.32466727495193481
0.4929206371307373 0.51450735330581665 0.33053120970726013
0.51304930448532104 0.50941294431686401 0.31910279393196106
0.55014729499816895 0.51974844932556152 0.28673610091209412
0.61079919338226318 0.54895895719528198 0.23712250590324402
0.68771982192993164 0.58516263961791992 0.1862507164478302
0.77386361360549927 0.61956846714019775 0.14592073857784271
0.85595566034317017 0.64457637071609497 0.12226071953773499
0.92645025253295898 0.66220813989639282 0.1191260814666748
0.37492126226425171 0.51414716243743896 0.28105217218399048
0.39923819899559021 0.52571791410446167 0.30103448033332825
0.43242278695106506 0.53874486684799194 0.32375666499137878
0.46796980500221252 0.55396747589111328 0.35061824321746826
0.50494790077209473 0.56955474615097046 0.37069863080978394
0.53431707620620728 0.57685858011245728 0.37897622585296631
0.55796796083450317 0.57616662979125977 0.37467166781425476
0.58676069974899292 0.57837468385696411 0.3535582423210144
0.63175970315933228 0.59395104646682739 0.31559333205223083
0.70088714361190796 0.62720388174057007 0.26561024785041809
0.78801709413528442 0.67203891277313232 0.21275880932807922
0.87033498287200928 0.7096790075302124 0.17136994004249573
0.9388619065284729 0.73549193143844604 0.15755537152290344
0.41844615340232849 0.56120675802230835 0.33214226365089417
0.4382634162902832 0.57385766506195068 0.34916219115257263
0.46500974893569946 0.58808839321136475 0.36752289533615112
0.4950355589389801 0.60298019647598267 0.38513225317001343
0.52850210666656494 0.61819267272949219 0.40006333589553833
0.56340432167053223 0.63083136081695557 0.41047579050064087
0.59711962938308716 0.63905125856399536 0.41369155049324036
0.628917396068573 0.64325463771820068 0.40478599071502686
0.66550111770629883 0.64987576007843018 0.38239577412605286
0.72267168760299683 0.67290174961090088 0.34558194875717163
0.80098253488540649 0.71600878238677979 0.29483607411384583
0.88093650341033936 0.76439851522445679 0.24483837187290192
0.94695878028869629 0.80047881603240967 0.2250010222196579
0.44267705082893372 0.60965782403945923 0.36999684572219849
0.45838567614555359 0.62265175580978394 0.38155531883239746
0.48064413666725159 0.63614308834075928 0.3921598494052887
0.50804299116134644 0.64978480339050293 0.40263348817825317
0.54212206602096558 0.66520261764526367 0.41482260823249817
0.58330380916595459 0.68229275941848755 0.42876845598220825
0.62678259611129761 0.69847601652145386 0.43821147084236145
0.66832709312438965 0.71065735816955566 0.43821918964385986
0.70935320854187012 0.72010278701782227 0.42918121814727783
0.75839638710021973 0.73462790250778198 0.41216754913330078
0.82121694087982178 0.76554381847381592 0.38131427764892578
0.89105594158172607 0.8141016960144043 0.34064319729804993
0.94851541519165039 0.8527064323425293 0.33172637224197388
0.45893341302871704 0.65922904014587402 0.39517316222190857
0.47107085585594177 0.67233091592788696 0.40168493986129761
0.48992633819580078 0.68468934297561646 0.4073185920715332
0.51631450653076172 0.69745391607284546 0.41376996040344238
0.55267924070358276 0.71378087997436523 0.42592722177505493
0.59899443387985229 0.73436301946640015 0.44325867295265198
0.64985066652297974 0.75669896602630615 0.456839919090271
0.70119625329971313 0.77752357721328735 0.46327894926071167
0.75079602003097534 0.79453772306442261 0.46460482478141785
0.79783886671066284 0.80782049894332886 0.46483194828033447
0.84984898567199707 0.83033972978591919 0.45643037557601929
0.90497952699661255 0.86751663684844971 0.44803369045257568
0.94838851690292358 0.89769488573074341 0.47497084736824036
0.010732598602771759 0.015645943582057953 0.015965988859534264
0.01085611991584301 0.016893109306693077 0.022905401885509491
0.027446432039141655 0.019096838310360909 0.028535760939121246
0.090524099767208099 0.030327606946229935 0.041204176843166351
0.17403663694858551 0.044665828347206116 0.055533479899168015
0.25078499317169189 0.052978813648223877 0.067924529314041138
0.32383823394775391 0.059070736169815063 0.075942143797874451
0.39610368013381958 0.067194797098636627 0.078279457986354828
0.46986451745033264 0.074496597051620483 0.083140656352043152
0.54346299171447754 0.079695664346218109 0.086836270987987518
0.6170310378074646 0.084290251135826111 0.088393926620483398
0.69935137033462524 0.098202258348464966 0.093855850398540497
0.76852256059646606 0.10747158527374268 0.103026382625103
0.015344073995947838 0.030307050794363022 0.029815388843417168
0.022486204281449318 0.037341233342885971 0.037940409034490585
0.067133493721485138 0.048012498766183853 0.046894118189811707
0.14641299843788147 0.059797234833240509 0.056785643100738525
0.2198643684387207 0.069671362638473511 0.063080504536628723
0.28626832365989685 0.074854865670204163 0.069199517369270325
0.35293874144554138 0.080347739160060883 0.074787929654121399
0.42117771506309509 0.088145360350608826 0.080954365432262421
0.49220329523086548 0.09644424170255661 0.088452279567718506
0.56497657299041748 0.10431626439094543 0.092989020049571991
0.6392892599105835 0.1115085706114769 0.095894604921340942
0.72221231460571289 0.12953962385654449 0.10357075184583664
0.79254519939422607 0.14434590935707092 0.11440365016460419
0.014590139500796795 0.06323801726102829 0.040899120271205902
0.019660905003547668 0.075759872794151306 0.051550444215536118
0.074075318872928619 0.093309395015239716 0.063161469995975494
0.1785847395658493 0.11300221085548401 0.066765546798706055
0.25582349300384521 0.12215079367160797 0.067935258150100708
0.31957462430000305 0.12359821051359177 0.072246581315994263
0.38216575980186462 0.12911614775657654 0.075401857495307922
0.44534704089164734 0.13836966454982758 0.081142708659172058
0.51100969314575195 0.14670442044734955 0.087571129202842712
0.58025336265563965 0.15707321465015411 0.091650687158107758
0.65553933382034302 0.16923415660858154 0.096170432865619659
0.73737579584121704 0.18585878610610962 0.10330349951982498
0.81307721138000488 0.20541274547576904 0.11405695229768753
0.030848199501633644 0.12300051748752594 0.055976569652557373
0.035135772079229355 0.13410523533821106 0.064447857439517975
0.072972103953361511 0.14628782868385315 0.077115975320339203
0.16843205690383911 0.1651269942522049 0.083111360669136047
0.26996120810508728 0.1880851536989212 0.075826875865459442
0.34717753529548645 0.1969158798456192 0.072769433259963989
0.41045168042182922 0.20139461755752563 0.076054319739341736
0.47101140022277832 0.21098700165748596 0.080339305102825165
0.53395920991897583 0.21826685965061188 0.084159672260284424
0.60118317604064941 0.22921472787857056 0.087153986096382141
0.67585855722427368 0.24261413514614105 0.092022314667701721
0.75766855478286743 0.25706061720848083 0.10001032054424286
0.83558887243270874 0.27528625726699829 0.11308515816926956
0.06783110648393631 0.18970337510108948 0.086734086275100708
0.073678277432918549 0.20387642085552216 0.09555034339427948
0.10203473269939423 0.21470005810260773 0.10529707372188568
0.17844446003437042 0.22147595882415771 0.11468403786420822
0.27598488330841064 0.24358902871608734 0.10712440311908722
0.36256590485572815 0.27103680372238159 0.086746051907539368
0.43393754959106445 0.28617098927497864 0.079575784504413605
0.49592489004135132 0.29159915447235107 0.080136902630329132
0.5594789981842041 0.29597669839859009 0.081039488315582275
0.6283460259437561 0.30661904811859131 0.082313179969787598
0.70263850688934326 0.31750524044036865 0.086990788578987122
0.78194057941436768 0.32855534553527832 0.098026275634765625
0.85877746343612671 0.34419500827789307 0.11630228161811829
0.10299374163150787 0.26166695356369019 0.13339120149612427
0.10843704640865326 0.27773204445838928 0.14757117629051208
0.13758403062820435 0.29209774732589722 0.15628258883953094
0.22041451930999756 0.29741382598876953 0.15667305886745453
0.29828682541847229 0.3012179434299469 0.15866577625274658
0.36954864859580994 0.32624763250350952 0.13552778959274292
0.44449308514595032 0.35580658912658691 0.11006360501050949
0.51483422517776489 0.37174946069717407 0.094778291881084442
0.5841936469078064 0.38192340731620789 0.085330650210380554
0.65440547466278076 0.38947054743766785 0.082103535532951355
0.72896474599838257 0.39615437388420105 0.087119936943054199
0.80639392137527466 0.40435388684272766 0.10184352844953537
0.88134109973907471 0.41843321919441223 0.1230432540178299
0.12987683713436127 0.33309629559516907 0.1797640472650528
0.14722932875156403 0.34783774614334106 0.19029875099658966
0.19026847183704376 0.36297062039375305 0.19758489727973938
0.28391972184181213 0.37716403603553772 0.20061717927455902
0.3541100025177002 0.37704676389694214 0.21398141980171204
0.39213484525680542 0.37574547529220581 0.20600663125514984
0.4482252299785614 0.39649054408073425 0.17281360924243927
0.52241683006286621 0.42978730797767639 0.13857531547546387
0.59877902269363403 0.45612546801567078 0.11170174181461334
0.67320519685745239 0.46979799866676331 0.096533395349979401
0.75061315298080444 0.47860535979270935 0.095959216356277466
0.82903271913528442 0.48721837997436523 0.11169515550136566
0.90175145864486694 0.5002017617225647 0.13152477145195007
0.17488546669483185 0.39750456809997559 0.21582455933094025
0.20775404572486877 0.41079053282737732 0.21863949298858643
0.26804116368293762 0.42599350214004517 0.22219496965408325
0.34846505522727966 0.44438907504081726 0.24219200015068054
0.41328051686286926 0.45262792706489563 0.26911166310310364
0.44179901480674744 0.44429519772529602 0.27046447992324829
0.47205880284309387 0.44496855139732361 0.24649907648563385
0.52811390161514282 0.47086486220359802 0.20999959111213684
0.60222303867340088 0.50690621137619019 0.16843312978744507
0.68315780162811279 0.5359460711479187 0.13230307400226593
0.76680606603622437 0.5569756031036377 0.11498021334409714
0.8473542332649231 0.57116633653640747 0.12060560286045074
0.91834390163421631 0.58414113521575928 0.13714393973350525
0.25860100984573364 0.45613133907318115 0.23885622620582581
0.29199844598770142 0.46800205111503601 0.24545435607433319
0.35314393043518066 0.48284158110618591 0.25629431009292603
0.41125127673149109 0.50063145160675049 0.29040837287902832
0.46277794241905212 0.51569360494613647 0.32232066988945007
0.49400585889816284 0.5175621509552002 0.33049166202545166
0.51458406448364258 0.51142942905426025 0.31966516375541687
0.54855906963348389 0.51817220449447632 0.29043078422546387
0.61051023006439209 0.54800325632095337 0.24425673484802246
0.6911923885345459 0.58709037303924561 0.19311961531639099
0.78006857633590698 0.62322425842285156 0.1547049880027771
0.86242711544036865 0.64821290969848633 0.14076435565948486
0.93162769079208374 0.665283203125 0.14969304203987122
0.34833091497421265 0.51000946760177612 0.27427750825881958
0.37245699763298035 0.52122634649276733 0.2877538800239563
0.41516470909118652 0.53526532649993896 0.30928909778594971
0.45776388049125671 0.55189937353134155 0.34259063005447388
0.4995516836643219 0.56905144453048706 0.3685087263584137
0.53540599346160889 0.57967787981033325 0.37873163819313049
0.56201732158660889 0.58069324493408203 0.37780427932739258
0.5893898606300354 0.5811455249786377 0.3604620099067688
0.63395559787750244 0.59660226106643677 0.32346627116203308
0.70449292659759521 0.63072425127029419 0.27208256721496582
0.7920830249786377 0.67588263750076294 0.21913665533065796
0.87495213747024536 0.71397286653518677 0.18450193107128143
0.94242376089096069 0.73935151100158691 0.1804402619600296
0.40634638071060181 0.56061440706253052 0.32977348566055298
0.42536523938179016 0.57276880741119385 0.34226241707801819
0.45501610636711121 0.58696168661117554 0.36158663034439087
0.48763039708137512 0.60188454389572144 0.38134473562240601
0.52351313829421997 0.61810338497161865 0.39772158861160278
0.56383943557739258 0.6341702938079834 0.41106760501861572
0.60316091775894165 0.64590209722518921 0.41882768273353577
0.63631880283355713 0.65122324228286743 0.4133833646774292
0.67045766115188599 0.65629279613494873 0.39167609810829163
0.72562462091445923 0.6776694655418396 0.35417407751083374
0.8031381368637085 0.71975398063659668 0.30165860056877136
0.88416635990142822 0.76871234178543091 0.25427132844924927
0.94920134544372559 0.80412977933883667 0.23925937712192535
0.43629646301269531 0.61051994562149048 0.37158557772636414
0.45126581192016602 0.62343287467956543 0.38054290413856506
0.47374853491783142 0.63646107912063599 0.39171448349952698
0.50205463171005249 0.64963811635971069 0.40320774912834167
0.5373384952545166 0.66539430618286133 0.41631278395652771
0.58126938343048096 0.68408864736557007 0.4316868782043457
0.62911880016326904 0.70377111434936523 0.44403389096260071
0.67354434728622437 0.71869796514511108 0.44624719023704529
0.71387511491775513 0.72799956798553467 0.43858087062835693
0.76098090410232544 0.74086308479309082 0.4223291277885437
0.82330799102783203 0.77056241035461426 0.39037224650382996
0.89256280660629272 0.81704795360565186 0.35439127683639526
0.94709640741348267 0.85362845659255981 0.34512874484062195
0.45314067602157593 0.66059666872024536 0.39829760789871216
0.46302711963653564 0.6738707423210144 0.40278738737106323
0.48246121406555176 0.68576359748840332 0.40963685512542725
0.51055252552032471 0.69828599691390991 0.41851094365119934
0.54752784967422485 0.71436774730682373 0.43146991729736328
0.59430372714996338 0.73505222797393799 0.44848385453224182
0.64779722690582275 0.75976580381393433 0.46281024813652039
0.70276486873626709 0.78451025485992432 0.47006276249885559
0.75492382049560547 0.80425655841827393 0.47270357608795166
0.80175793170928955 0.81621509790420532 0.4766794741153717
0.85275501012802124 0.83646094799041748 0.47384241223335266
0.90543544292449951 0.8699115514755249 0.48123607039451599
0.94275230169296265 0.89591121673583984 0.51199895143508911
0.012550997547805309 0.028220875188708305 0.034529518336057663
0.0097494535148143768 0.031877689063549042 0.047714501619338989
0.018266281113028526 0.026832759380340576 0.053579680621623993
0.065652556717395782 0.024968046694993973 0.06151295080780983
0.14353936910629272 0.03744811937212944 0.072579585015773773
0.22622817754745483 0.047305356711149216 0.084644600749015808
0.3063008189201355 0.053556628525257111 0.088348165154457092
0.38260561227798462 0.058636564761400223 0.092451773583889008
0.45645606517791748 0.061913106590509415 0.10409988462924957
0.52944719791412354 0.062018688768148422 0.11002331972122192
0.60455018281936646 0.060566607862710953 0.10711739957332611
0.68298554420471191 0.066508933901786804 0.11278507113456726
0.7531510591506958 0.077169708907604218 0.12639033794403076
0.012883399613201618 0.04228660836815834 0.052004270255565643
0.014019132591784 0.054654844105243683 0.068611606955528259
0.03747355192899704 0.054490003734827042 0.079873986542224884
0.10776674002408981 0.047599375247955322 0.090308308601379395
0.19182908535003662 0.060042932629585266 0.090502612292766571
0.26943570375442505 0.068137705326080322 0.089655421674251556
0.3427165150642395 0.072368592023849487 0.09058697521686554
0.41439726948738098 0.076244384050369263 0.097929202020168304
0.4845736026763916 0.080115661025047302 0.11050879955291748
0.55511355400085449 0.082993872463703156 0.11607269942760468
0.62856370210647583 0.082532770931720734 0.11720316112041473
0.70719248056411743 0.092348776757717133 0.12650385499000549
0.77733933925628662 0.10847170650959015 0.14269757270812988
0.01184686366468668 0.074020206928253174 0.071875371038913727
0.011574435047805309 0.089265294373035431 0.090923503041267395
0.049144834280014038 0.10473448783159256 0.10941740870475769
0.15493649244308472 0.11271778494119644 0.11638752371072769
0.24636189639568329 0.120392806828022 0.11089721322059631
0.3184560239315033 0.1227383017539978 0.10589291155338287
0.38265401124954224 0.12644225358963013 0.10395679622888565
0.447843998670578 0.13117209076881409 0.10656054317951202
0.51494622230529785 0.1353667676448822 0.11345694959163666
0.58382529020309448 0.14079749584197998 0.11579268425703049
0.65754139423370361 0.14566816389560699 0.12108484655618668
0.73530244827270508 0.15656837821006775 0.1307978630065918
0.80822432041168213 0.17645792663097382 0.14510206878185272
0.019573945552110672 0.12598490715026855 0.087903819978237152
0.025092808529734612 0.14075353741645813 0.10481781512498856
0.064529240131378174 0.16113807260990143 0.13302132487297058
0.16853758692741394 0.18326051533222198 0.14240716397762299
0.27967032790184021 0.20025308430194855 0.13157746195793152
0.35649967193603516 0.20470763742923737 0.12181360274553299
0.41714152693748474 0.20922091603279114 0.12108954787254333
0.47851163148880005 0.21569648385047913 0.12003602832555771
0.54508930444717407 0.21896913647651672 0.12018169462680817
0.61494439840316772 0.22400864958763123 0.12086624652147293
0.68797630071640015 0.23162081837654114 0.12506413459777832
0.76512283086776733 0.24299776554107666 0.13327740132808685
0.83932203054428101 0.26042383909225464 0.14851392805576324
0.048280902206897736 0.18971607089042664 0.10245811939239502
0.061714470386505127 0.20885163545608521 0.11689487844705582
0.091388151049613953 0.2288169264793396 0.13818348944187164
0.16755250096321106 0.24459187686443329 0.15877926349639893
