assets/lut/editingcorpw Opal Opulence.cube
LUT_3D_SIZE 6
DOMAIN_MIN 0.0 0.0 0.0
DOMAIN_MAX 1.0 1.0 1.0
0.137255 0.109804 0.137255
0.231372 0.120785 0.141176
0.412549 0.105882 0.145098
0.654118 0.086275 0.150588
0.855686 0.069804 0.142745
1.000000 0.070588 0.164706
0.140392 0.216470 0.155294
0.229445 0.205490 0.154577
0.391843 0.214797 0.160575
0.634510 0.229804 0.158431
0.843137 0.230588 0.157647
0.996862 0.226667 0.165490
0.113725 0.406274 0.130981
0.247634 0.402458 0.132758
0.407604 0.384553 0.160000
0.599216 0.393725 0.175686
0.801569 0.407843 0.179608
0.986667 0.407059 0.196078
0.003137 0.619608 0.051765
0.196862 0.618039 0.045490
0.418039 0.610196 0.073725
0.601875 0.596078 0.152157
0.779399 0.582275 0.217255
0.945098 0.589020 0.250980
0.003138 0.796078 0.000000
0.083922 0.797647 0.003138
0.362353 0.795294 0.000784
0.576366 0.782641 0.079896
0.761636 0.771765 0.208919
0.924706 0.767059 0.339608
0.007843 0.972549 0.000000
0.000000 0.968627 0.000784
0.309020 0.970980 0.000000
0.538824 0.974902 0.001569
0.768627 0.965490 0.236078
0.945098 0.976471 0.407843
0.178823 0.120785 0.232941
0.224807 0.129053 0.222745
0.431372 0.082562 0.268131
0.669804 0.000784 0.259608
0.869804 0.000000 0.250196
1.000000 0.003138 0.254118
0.146443 0.200000 0.250913
0.232726 0.203998 0.251406
0.420970 0.199580 0.256365
0.650487 0.186308 0.253759
0.851832 0.183529 0.249770
0.991664 0.195720 0.265950
0.000000 0.406850 0.234614
0.191059 0.405004 0.232557
0.406346 0.390349 0.250359
0.610091 0.392157 0.257673
0.812654 0.400889 0.270274
0.983268 0.404601 0.279896
0.001569 0.618040 0.197647
0.117266 0.617614 0.201143
0.394405 0.614588 0.201935
0.602659 0.593964 0.252310
0.773438 0.587242 0.290405
0.952157 0.594510 0.334902
0.001569 0.799216 0.175686
0.008650 0.799641 0.167776
0.350379 0.794719 0.170614
0.573856 0.788131 0.213647
0.769546 0.771765 0.301670
0.925490 0.770980 0.399216
0.000000 0.975687 0.110588
0.003138 0.966992 0.120000
0.297150 0.975582 0.115556
0.543529 0.979608 0.145883
0.762353 0.977255 0.308235
0.953725 0.975687 0.454902
0.288627 0.099608 0.399216
0.324235 0.113516 0.384889
0.370980 0.141961 0.346122
0.656471 0.006275 0.465098
0.883137 0.002353 0.474510
1.000000 0.003922 0.460392
0.252602 0.176261 0.445228
0.321745 0.183359 0.420516
0.394287 0.205901 0.378202
0.674301 0.154143 0.479425
0.866353 0.139817 0.473935
0.996862 0.184209 0.465203
0.000478 0.381893 0.470110
0.148788 0.384344 0.460908
0.406590 0.381396 0.452855
0.641330 0.392635 0.459369
0.829498 0.402831 0.469087
0.989804 0.420459 0.475907
0.000000 0.619608 0.436078
0.006484 0.614797 0.434510
0.361569 0.615447 0.426599
0.601703 0.598431 0.442114
0.779869 0.593151 0.466458
0.954510 0.603137 0.484706
0.003138 0.796863 0.410196
0.003817 0.797647 0.410458
0.339742 0.791133 0.407059
0.568418 0.786457 0.409412
0.763496 0.774902 0.461961
0.926274 0.772549 0.523137
0.000000 0.975686 0.371765
0.000105 0.975791 0.376575
0.288627 0.978039 0.370502
0.532549 0.979608 0.367843
0.767843 0.973333 0.443137
0.954510 0.979608 0.548235
0.429020 0.025098 0.602353
0.446275 0.046274 0.595294
0.501176 0.094118 0.541177
0.545815 0.144620 0.497905
0.803033 0.022118 0.610876
0.994510 0.004706 0.672941
0.410196 0.148235 0.623529
0.445490 0.149804 0.610263
0.504105 0.169726 0.571085
0.553830 0.206103 0.513285
0.805281 0.192941 0.620183
0.998431 0.232941 0.672942
0.189020 0.276863 0.673725
0.325490 0.302536 0.661961
0.495753 0.348542 0.620938
0.574461 0.349909 0.552739
0.824000 0.417150 0.658406
0.995294 0.449412 0.672157
0.000717 0.574663 0.650607
0.076041 0.575141 0.663223
0.375208 0.578824 0.646447
0.601453 0.587575 0.646907
0.804195 0.612108 0.654814
0.964467 0.627996 0.659062
0.004968 0.787555 0.621856
0.000889 0.792157 0.619503
0.335791 0.788549 0.619137
0.570644 0.784386 0.621617
0.766808 0.776212 0.638114
0.931869 0.780392 0.657569
0.001569 0.978039 0.568628
0.002353 0.980392 0.583529
0.309020 0.978039 0.588235
0.549804 0.974663 0.585643
0.760889 0.980392 0.605490
0.963921 0.981961 0.672942
0.558431 0.000000 0.772549
0.570196 0.003138 0.768627
0.632157 0.035294 0.746667
0.685386 0.126379 0.702640
0.750521 0.180818 0.676146
0.938039 0.194510 0.749020
0.541177 0.120784 0.777255
0.562711 0.128202 0.770554
0.621176 0.153725 0.751581
0.683922 0.193621 0.714405
0.746532 0.237221 0.675160
0.934117 0.279216 0.756078
0.482353 0.309020 0.805490
0.519634 0.320000 0.794301
0.599828 0.325729 0.775686
0.683922 0.339608 0.735686
0.752022 0.354801 0.691630
0.945098 0.441569 0.765490
0.193255 0.449726 0.827085
0.289203 0.456523 0.824523
0.485961 0.501856 0.817725
0.670340 0.550068 0.786511
0.746520 0.526494 0.718334
0.962458 0.629804 0.811660
0.009591 0.740033 0.818532
0.171742 0.743529 0.816829
0.385950 0.750588 0.813692
0.585421 0.759744 0.808886
0.774328 0.769125 0.804688
0.956302 0.792090 0.818264
0.003138 0.979608 0.794510
0.000784 0.980392 0.802353
0.259608 0.975686 0.796863
0.521464 0.981386 0.790693
0.765490 0.984314 0.791014
0.965490 0.987451 0.821961
0.705882 0.184314 0.949020
0.720785 0.202353 0.949804
0.767059 0.254902 0.940392
0.837647 0.333333 0.929412
0.904314 0.418823 0.892549
0.984314 0.462745 0.890196
0.695687 0.247059 0.957647
0.709804 0.259182 0.949737
0.760209 0.302536 0.942170
0.828235 0.370980 0.927843
0.905098 0.445490 0.901961
0.970980 0.493334 0.896470
0.655686 0.374902 0.970196
0.684811 0.384993 0.963555
0.741109 0.410980 0.955772
0.822745 0.454902 0.934902
0.901177 0.507451 0.907451
0.986667 0.545882 0.891765
0.541960 0.476863 0.989804
0.579608 0.499608 0.985098
0.680784 0.549019 0.978824
0.792224 0.571764 0.961636
0.896732 0.601569 0.933909
0.974118 0.632157 0.914510
0.238431 0.671373 0.999216
0.307451 0.668235 0.996078
0.454118 0.673726 0.997647
0.649935 0.700236 0.998536
0.867586 0.753658 0.969770
0.980392 0.767059 0.938824
0.003922 0.984314 1.000000
0.006274 0.984314 1.000000
0.334902 0.988235 1.000000
0.570196 0.989804 0.994510
0.817255 0.998431 0.996862
1.000000 1.000000 1.000000
