assets/lut/editingcorp falua.cube
# Created by: G'MIC (https://gmic.eu)
TITLE "falua"
# LUT size
LUT_3D_SIZE 7
# Data domain
DOMAIN_MIN 0.0 0.0 0.0
DOMAIN_MAX 1.0 1.0 1.0
# LUT data points
0.016350556164979935 0.010014582425355911 0.0078825559467077255
0.20392516255378723 0.014040360227227211 0.0052478713914752007
0.49363300204277039 0.015439246781170368 0.0052730487659573555
0.76428377628326416 0.02208239957690239 0.0090736392885446548
0.885459303855896 0.017441289499402046 0.0022939795162528753
0.9239499568939209 0.011493952013552189 0.010084234178066254
0.96235555410385132 0.023106802254915237 0.0053590959869325161
0.0030180539470165968 0.13180540502071381 0.022342966869473457
0.11216790974140167 0.12526270747184753 0.018905969336628914
0.4389708936214447 0.12462446838617325 0.0052355299703776836
0.73504388332366943 0.10726846754550934 0.0060326368547976017
0.89186084270477295 0.093469791114330292 0.0096111670136451721
0.92550855875015259 0.077201217412948608 0.009039904922246933
0.96450376510620117 0.079866938292980194 0.00234222412109375
0.006136531475931406 0.30327287316322327 0.059461303055286407
0.03603077307343483 0.29966732859611511 0.058850936591625214
0.30947127938270569 0.32146266102790833 0.028425224125385284
0.69733816385269165 0.315020352602005 4.3083641685370822e-06
0.89398092031478882 0.27657678723335266 0.0088481530547142029
0.93955010175704956 0.24526423215866089 0.00526453647762537
0.97930675745010376 0.2233196496963501 0.0019458247115835547
0.010251468047499657 0.49594786763191223 0.1394590437412262
0.044372424483299255 0.48448771238327026 0.13362061977386475
0.14732314646244049 0.5249294638633728 0.12796863913536072
0.59942489862442017 0.56706255674362183 0.037959303706884384
0.87630379199981689 0.52318322658538818 0.010025831870734692
0.95783501863479614 0.47851192951202393 0.010497193783521652
0.99352788925170898 0.43957340717315674 0.0080637466162443161
0.011568241752684116 0.69188421964645386 0.21897183358669281
0.056877106428146362 0.67569261789321899 0.21440237760543823
0.089139275252819061 0.69064801931381226 0.19038845598697662
0.36790025234222412 0.74982976913452148 0.19565674662590027
0.78825521469116211 0.77617925405502319 0.060057021677494049
0.96882790327072144 0.7377769947052002 0.0021368288435041904
0.99892598390579224 0.6858869194984436 0.0054620928131043911
0.0082611832767724991 0.78551638126373291 0.24272805452346802
0.050714753568172455 0.7812950611114502 0.24466097354888916
0.08126569539308548 0.78664553165435791 0.23456037044525146
0.22701193392276764 0.83295607566833496 0.22754266858100891
0.57376080751419067 0.87973946332931519 0.26865476369857788
0.89875227212905884 0.90782183408737183 0.1227300763130188
0.97408580780029297 0.89326679706573486 0.067258186638355255
0.0091892462223768234 0.82479393482208252 0.24301470816135406
0.04974588006734848 0.82312804460525513 0.24300536513328552
0.085949793457984924 0.82425427436828613 0.238865926861763
0.1808350682258606 0.86741459369659424 0.23534759879112244
0.45373243093490601 0.91706228256225586 0.27323159575462341
0.80952781438827515 0.95636129379272461 0.19553260505199432
0.95531767606735229 0.97235554456710815 0.12232746928930283
0.01377283688634634 0.017084144055843353 0.12921175360679626
0.21610137820243835 0.012701565399765968 0.10873076319694519
0.50724887847900391 0.015488808043301105 0.097405798733234406
0.76473408937454224 0.014511168003082275 0.097492128610610962
0.88207340240478516 0.01565602608025074 0.074846260249614716
0.92110401391983032 0.013509443961083889 0.06602795422077179
0.96257084608078003 0.013901385478675365 0.061299823224544525
0.0082912817597389221 0.14450474083423615 0.13028295338153839
0.10981186479330063 0.12882302701473236 0.122592493891716
0.43429660797119141 0.12130710482597351 0.09707939624786377
0.72704535722732544 0.10433268547058105 0.085565529763698578
0.88676601648330688 0.089630603790283203 0.077091097831726074
0.92140096426010132 0.081845484673976898 0.06740366667509079
0.96342754364013672 0.079632684588432312 0.06183992326259613
0.011099991388618946 0.31204977631568909 0.14773233234882355
0.041437860578298569 0.30665647983551025 0.13144856691360474
0.30642899870872498 0.32075104117393494 0.084771938621997833
0.68196290731430054 0.31063759326934814 0.051092334091663361
0.8919072151184082 0.27025040984153748 0.054126020520925522
0.94062221050262451 0.24291674792766571 0.044640187174081802
0.97967714071273804 0.22657747566699982 0.046407166868448257
0.011267374269664288 0.49505805969238281 0.18233898282051086
0.046687405556440353 0.48695337772369385 0.17613263428211212
0.14657476544380188 0.51825070381164551 0.1610652357339859
0.59589064121246338 0.56247663497924805 0.067807182669639587
0.87510150671005249 0.5225030779838562 0.041669268161058426
0.95138943195343018 0.4745202362537384 0.035752885043621063
0.99042129516601562 0.43792179226875305 0.038287397474050522
0.0098834913223981857 0.68873947858810425 0.25606358051300049
0.051651645451784134 0.67200314998626709 0.24974541366100311
0.07894616574048996 0.67815381288528442 0.21860074996948242
0.37205356359481812 0.74583417177200317 0.23493959009647369
0.7821318507194519 0.77195006608963013 0.10780208557844162
0.96374452114105225 0.73503446578979492 0.027361327782273293
0.99750494956970215 0.68012291193008423 0.037797141820192337
0.0075382008217275143 0.7837526798248291 0.2807871401309967
0.047619178891181946 0.78751134872436523 0.28575000166893005
0.081409275531768799 0.78143990039825439 0.2746722400188446
0.22410659492015839 0.828643798828125 0.26011985540390015
0.56575822830200195 0.87579774856567383 0.31501889228820801
0.89996081590652466 0.90983814001083374 0.1707608699798584
0.97149670124053955 0.88933825492858887 0.10331570357084274
0.0071770614013075829 0.82258957624435425 0.27891072630882263
0.047438766807317734 0.82727241516113281 0.28475508093833923
0.069337688386440277 0.82679456472396851 0.27551418542861938
0.12420006841421127 0.86625450849533081 0.25200092792510986
0.39662572741508484 0.91577839851379395 0.2921845018863678
0.81766414642333984 0.95771700143814087 0.23092052340507507
0.95999670028686523 0.97379690408706665 0.15872153639793396
0.013254068791866302 0.033676505088806152 0.33907616138458252
0.21579837799072266 0.02158101461827755 0.31568804383277893
0.53362172842025757 0.023469230160117149 0.26509597897529602
0.75088626146316528 0.034360174089670181 0.26982146501541138
0.86690890789031982 0.024379581212997437 0.28847593069076538
0.90425378084182739 0.025574928149580956 0.26798826456069946
0.94917190074920654 0.017551692202687263 0.24785912036895752
0.016864089295268059 0.18703779578208923 0.2972412109375
0.10003393143415451 0.14838683605194092 0.30115991830825806
0.44265955686569214 0.12471684813499451 0.26227810978889465
0.72410446405410767 0.13220126926898956 0.24544103443622589
0.8585008978843689 0.11300282180309296 0.25888654589653015
0.90845334529876709 0.095512524247169495 0.24359363317489624
0.95431524515151978 0.086829200387001038 0.22762805223464966
0.0098423082381486893 0.35297411680221558 0.32903850078582764
0.045078426599502563 0.34059914946556091 0.31324827671051025
0.26987221837043762 0.32381758093833923 0.29231441020965576
0.69226545095443726 0.30543723702430725 0.25963321328163147
0.88180059194564819 0.28132641315460205 0.26421758532524109
0.93389642238616943 0.26124686002731323 0.24386855959892273
0.97466766834259033 0.2499840259552002 0.23232173919677734
0.017226604744791985 0.53450757265090942 0.35888814926147461
0.050520189106464386 0.52464598417282104 0.34247258305549622
0.11127587407827377 0.52893388271331787 0.32037138938903809
0.58355402946472168 0.56574219465255737 0.24314554035663605
0.87572509050369263 0.52679038047790527 0.2308657169342041
0.95220530033111572 0.48880508542060852 0.22097557783126831
0.99265837669372559 0.45902043581008911 0.21838420629501343
0.009683242067694664 0.68381094932556152 0.34262669086456299
0.054289288818836212 0.67711919546127319 0.33666220307350159
0.094460472464561462 0.67437374591827393 0.31070098280906677
0.36033490300178528 0.74339264631271362 0.30346101522445679
0.78142577409744263 0.76933109760284424 0.20581646263599396
0.96244913339614868 0.73043298721313477 0.13360635936260223
0.99824249744415283 0.6785770058631897 0.15810629725456238
0.0033565596677362919 0.77827972173690796 0.33225527405738831
0.051448103040456772 0.77923691272735596 0.33428972959518433
0.079091854393482208 0.78091597557067871 0.31727871298789978
0.21043707430362701 0.83285510540008545 0.30079200863838196
0.56893825531005859 0.87609201669692993 0.35978817939758301
0.8920857310295105 0.90657502412796021 0.22510871291160583
0.97421884536743164 0.88994461297988892 0.16269558668136597
0.0021912967786192894 0.81922823190689087 0.32024604082107544
0.044450078159570694 0.81786513328552246 0.32465359568595886
0.072621665894985199 0.82208812236785889 0.32273697853088379
0.15429729223251343 0.86236584186553955 0.30919027328491211
0.43662711977958679 0.91448390483856201 0.34750229120254517
0.81353247165679932 0.95859932899475098 0.28653198480606079
0.96033340692520142 0.97566944360733032 0.21959486603736877
0.022858159616589546 0.048389628529548645 0.54656875133514404
0.19876532256603241 0.032788790762424469 0.52959656715393066
0.53358036279678345 0.046298786997795105 0.47263672947883606
0.75297915935516357 0.044329416006803513 0.46407237648963928
0.85087227821350098 0.047278281301259995 0.45680713653564453
0.88912487030029297 0.051792819052934647 0.44383811950683594
0.93436580896377563 0.076455689966678619 0.42248773574829102
0.038738265633583069 0.22202318906784058 0.52507394552230835
0.10322858393192291 0.17591828107833862 0.51546412706375122
0.42581170797348022 0.1382782906293869 0.47760814428329468
0.71995294094085693 0.1600964367389679 0.44245359301567078
0.84584474563598633 0.18469974398612976 0.4510752260684967
0.88934111595153809 0.16424570977687836 0.42475539445877075
0.93440335988998413 0.15087173879146576 0.39349779486656189
0.012820000760257244 0.39277151226997375 0.46769759058952332
0.051070749759674072 0.37771669030189514 0.45822823047637939
0.21366478502750397 0.33628565073013306 0.47834089398384094
0.68197298049926758 0.31626474857330322 0.46828064322471619
0.84749186038970947 0.3251577615737915 0.44985401630401611
0.90225487947463989 0.31005147099494934 0.44045540690422058
0.94842433929443359 0.29565325379371643 0.42147207260131836
0.019187163561582565 0.58389043807983398 0.55243736505508423
0.059533841907978058 0.57103687524795532 0.53946727514266968
0.090157225728034973 0.56357115507125854 0.5309518575668335
0.51542061567306519 0.57324862480163574 0.53517806529998779
0.86222535371780396 0.54357177019119263 0.52543526887893677
0.93650609254837036 0.51949161291122437 0.51735621690750122
0.98017948865890503 0.51068401336669922 0.51782834529876709
0.038704607635736465 0.75308465957641602 0.57591265439987183
0.083332717418670654 0.74296516180038452 0.56564980745315552
0.1170070543885231 0.71944785118103027 0.53535473346710205
0.35379764437675476 0.75102442502975464 0.54584938287734985
0.78357064723968506 0.77141821384429932 0.52268248796463013
0.95879697799682617 0.74218094348907471 0.49599823355674744
0.99652755260467529 0.71444469690322876 0.50892531871795654
0.041324242949485779 0.82481485605239868 0.51603227853775024
0.083639420568943024 0.82072490453720093 0.50886422395706177
0.11692181974649429 0.80940908193588257 0.49159985780715942
0.23881761729717255 0.83226561546325684 0.47960564494132996
0.58643645048141479 0.88081204891204834 0.51697432994842529
0.904011070728302 0.9115976095199585 0.44684889912605286
0.97412419319152832 0.8979194164276123 0.43922603130340576
0.01864076592028141 0.84884405136108398 0.4642486572265625
0.048161391168832779 0.85142809152603149 0.46463361382484436
0.082906879484653473 0.85134613513946533 0.46643155813217163
0.18422518670558929 0.87530767917633057 0.46409589052200317
0.47059676051139832 0.92260968685150146 0.49805790185928345
0.83215570449829102 0.96217817068099976 0.45648077130317688
0.97187751531600952 0.98154860734939575 0.41414305567741394
0.027537297457456589 0.063964292407035828 0.61458390951156616
0.18716146051883698 0.030382059514522552 0.59769600629806519
0.5149916410446167 0.053998477756977081 0.57141447067260742
0.74465304613113403 0.063561141490936279 0.56445944309234619
0.85208165645599365 0.079047545790672302 0.5778965950012207
0.892525315284729 0.084894217550754547 0.57794344425201416
0.93620532751083374 0.11027216911315918 0.57524007558822632
0.026950595900416374 0.22990074753761292 0.63911092281341553
0.10122774541378021 0.18080013990402222 0.62271237373352051
0.41445928812026978 0.14922723174095154 0.59729146957397461
0.71476560831069946 0.17062588036060333 0.56779789924621582
0.84581285715103149 0.1985495537519455 0.58437502384185791
0.89162701368331909 0.19806189835071564 0.58232909440994263
0.93458741903305054 0.19587080180644989 0.56016474962234497
0.046036828309297562 0.40985694527626038 0.60070890188217163
0.086599715054035187 0.39233064651489258 0.59596830606460571
0.22771605849266052 0.3294827938079834 0.62586098909378052
0.65340054035186768 0.31461319327354431 0.62071841955184937
0.84873467683792114 0.34605270624160767 0.6179802417755127
0.8984108567237854 0.33348330855369568 0.59566986560821533
0.9406123161315918 0.32890218496322632 0.57619202136993408
0.0045306636020541191 0.5939486026763916 0.64827364683151245
0.04817696288228035 0.58536362648010254 0.64081668853759766
0.082732707262039185 0.57383346557617188 0.63169175386428833
0.41733834147453308 0.5458451509475708 0.67790687084197998
0.84374183416366577 0.55010461807250977 0.67174053192138672
0.91156637668609619 0.53514742851257324 0.6457098126411438
0.95302814245223999 0.52684372663497925 0.62558263540267944
0.02185293473303318 0.76913481950759888 0.74042552709579468
0.060581237077713013 0.75950199365615845 0.73176270723342896
0.098962791264057159 0.75287604331970215 0.71970540285110474
0.25975304841995239 0.76488733291625977 0.73184102773666382
0.75257205963134766 0.77530592679977417 0.74809527397155762
0.93582779169082642 0.75908577442169189 0.73292988538742065
0.97794800996780396 0.74854707717895508 0.72643172740936279
0.058003697544336319 0.86403226852416992 0.74481076002120972
0.076029710471630096 0.85919702053070068 0.7354314923286438
0.13369844853878021 0.85459995269775391 0.7246476411819458
0.24959646165370941 0.86415404081344604 0.72147083282470703
0.57646900415420532 0.8928215503692627 0.72538703680038452
0.91220396757125854 0.91501647233963013 0.72931063175201416
0.97689676284790039 0.90593695640563965 0.73790323734283447
0.044170141220092773 0.89947319030761719 0.70560282468795776
0.059228170663118362 0.90177041292190552 0.69745075702667236
0.10982360690832138 0.89972424507141113 0.69004642963409424
0.18229557573795319 0.91168212890625 0.68946659564971924
0.49064594507217407 0.94411998987197876 0.70708179473876953
0.86696773767471313 0.97244054079055786 0.71871095895767212
0.96764302253723145 0.97956281900405884 0.70674765110015869
0.01875774934887886 0.050511978566646576 0.6498599648475647
0.17988166213035583 0.028768487274646759 0.6269652247428894
0.48789343237876892 0.042764268815517426 0.60357367992401123
0.72937047481536865 0.047299284487962723 0.59233909845352173
0.85031569004058838 0.08575814962387085 0.61720544099807739
0.89485293626785278 0.064442068338394165 0.61711466312408447
0.93735593557357788 0.10029352456331253 0.62820613384246826
0.020214634016156197 0.22205477952957153 0.6767280101776123
0.09440217912197113 0.17809028923511505 0.66263848543167114
0.38366249203681946 0.14197163283824921 0.6392592191696167
0.69564670324325562 0.16578640043735504 0.60944479703903198
0.83970814943313599 0.20069758594036102 0.62368190288543701
0.89156508445739746 0.19266192615032196 0.62876236438751221
0.9355463981628418 0.1998230367898941 0.63016599416732788
0.064381681382656097 0.39351704716682434 0.63978224992752075
0.094048552215099335 0.3823067843914032 0.64363938570022583
0.23064586520195007 0.32129204273223877 0.66602247953414917
0.6341632604598999 0.31159472465515137 0.66449594497680664
0.84106647968292236 0.34589192271232605 0.66009318828582764
0.90093505382537842 0.34053635597229004 0.66842150688171387
0.94195938110351562 0.33256316184997559 0.66371911764144897
0.0084804762154817581 0.58017772436141968 0.68207991123199463
0.052010376006364822 0.57170635461807251 0.67689532041549683
0.087773434817790985 0.55744880437850952 0.66749316453933716
0.38581463694572449 0.53376752138137817 0.72369205951690674
0.82422256469726562 0.53807973861694336 0.73437511920928955
0.91092902421951294 0.53781938552856445 0.73440253734588623
0.95407283306121826 0.53501302003860474 0.72798037528991699
0.0056142322719097137 0.75848734378814697 0.78232026100158691
0.053185287863016129 0.74682104587554932 0.77471792697906494
0.094630233943462372 0.73835629224777222 0.770011305809021
0.19091834127902985 0.74693924188613892 0.77904421091079712
0.72381633520126343 0.76682209968566895 0.83097392320632935
0.93476396799087524 0.76081198453903198 0.81984740495681763
0.96811175346374512 0.7538725733757019 0.81661075353622437
0.010996919125318527 0.86530256271362305 0.82734799385070801
0.051025539636611938 0.86326849460601807 0.82879149913787842
0.095501720905303955 0.86769813299179077 0.82829409837722778
0.18786442279815674 0.87636405229568481 0.83912187814712524
0.47399643063545227 0.89852827787399292 0.86497741937637329
0.89993053674697876 0.91843301057815552 0.87276828289031982
0.96459436416625977 0.91446340084075928 0.86683350801467896
0.020737577229738235 0.91523021459579468 0.82874554395675659
0.052744068205356598 0.91517072916030884 0.82768911123275757
0.089673243463039398 0.91575908660888672 0.83007824420928955
0.10913651436567307 0.92877531051635742 0.84185385704040527
0.38265368342399597 0.95152723789215088 0.86278051137924194
0.87390041351318359 0.98100477457046509 0.880584716796875
0.96363842487335205 0.9830251932144165 0.87186509370803833
0.03050944022834301 0.056937724351882935 0.70301622152328491
0.16864566504955292 0.033290158957242966 0.69035613536834717
0.4614747166633606 0.030038436874747276 0.65763908624649048
0.70177477598190308 0.07050507515668869 0.648265540599823
0.83739668130874634 0.10574027895927429 0.67226988077163696
0.89863294363021851 0.069293603301048279 0.67138636112213135
0.9373774528503418 0.041450366377830505 0.66803580522537231
0.02057381346821785 0.21146431565284729 0.72964590787887573
0.1084568127989769 0.17363221943378448 0.71449810266494751
0.35892775654792786 0.14117647707462311 0.6972581148147583
0.67899155616760254 0.16899667680263519 0.66519880294799805
0.83285427093505859 0.20351621508598328 0.67755520343780518
0.89534717798233032 0.18934985995292664 0.68181461095809937
0.93777883052825928 0.18354232609272003 0.6821247935295105
0.054760158061981201 0.37726679444313049 0.70089364051818848
0.08236655592918396 0.36708620190620422 0.68988418579101562
0.23943054676055908 0.31905511021614075 0.71031481027603149
0.60300523042678833 0.30632981657981873 0.72240579128265381
0.83500140905380249 0.33830311894416809 0.71989810466766357
0.90504837036132812 0.3401329517364502 0.71665406227111816
0.94537413120269775 0.33150544762611389 0.71474987268447876
0.0068156071938574314 0.55871200561523438 0.72445195913314819
0.047927781939506531 0.55020946264266968 0.71710890531539917
0.089616052806377411 0.54119455814361572 0.71195691823959351
0.38925060629844666 0.52981656789779663 0.7707439661026001
0.81288999319076538 0.53681111335754395 0.79736185073852539
0.90968900918960571 0.54134976863861084 0.78519457578659058
0.95783638954162598 0.53558492660522461 0.78149992227554321
0.0077205882407724857 0.7252381443977356 0.81469309329986572
0.051460761576890945 0.71518582105636597 0.80988395214080811
0.087486281991004944 0.71586757898330688 0.80863308906555176
0.21335890889167786 0.72809088230133057 0.82761716842651367
0.71679782867431641 0.76239252090454102 0.88754469156265259
0.92633527517318726 0.76034075021743774 0.87878590822219849
0.97004902362823486 0.74840652942657471 0.87112534046173096
0.0077205882407724857 0.85118144750595093 0.8757551908493042
0.050652641803026199 0.85062432289123535 0.87512308359146118
0.088611200451850891 0.85213553905487061 0.86793804168701172
0.17571644484996796 0.8630298376083374 0.88121718168258667
0.47574505209922791 0.89492952823638916 0.9259064793586731
0.89366328716278076 0.91826421022415161 0.93663305044174194
0.96777850389480591 0.91573256254196167 0.93105000257492065
0.0077205882407724857 0.91079556941986084 0.8877597451210022
0.04940999299287796 0.91230535507202148 0.8817145824432373
0.090714409947395325 0.91121971607208252 0.88494753837585449
0.16499187052249908 0.92262876033782959 0.90164357423782349
0.3885924220085144 0.94921302795410156 0.92876189947128296
0.86304450035095215 0.97458726167678833 0.94747447967529297
0.96406584978103638 0.98034477233886719 0.94318157434463501
