assets/lut/editingcorp ensaya.cube
# Created by: G'MIC (https://gmic.eu)
TITLE "ensaya"
# LUT size
LUT_3D_SIZE 7
# Data domain
DOMAIN_MIN 0.0 0.0 0.0
DOMAIN_MAX 1.0 1.0 1.0
# LUT data points
0.018927285447716713 0.016480794176459312 0.016065813601016998
0.18475136160850525 0.039754185825586319 0.026706621050834656
0.40670248866081238 0.03911425918340683 0.041513197124004364
0.63198757171630859 0.041321173310279846 0.054376520216464996
0.78888511657714844 0.026828046888113022 0.054142266511917114
0.89953535795211792 0.0080068549141287804 0.049170341342687607
0.9948076605796814 0.00048576804692856967 0.050003860145807266
0.039725657552480698 0.15010720491409302 0.017664007842540741
0.1681894063949585 0.15519024431705475 0.024358486756682396
0.37208569049835205 0.15634056925773621 0.036514267325401306
0.60281407833099365 0.14772538840770721 0.048424094915390015
0.7811284065246582 0.13792324066162109 0.051930911839008331
0.89459437131881714 0.12558439373970032 0.051210187375545502
0.99128824472427368 0.11450155079364777 0.047289591282606125
0.071115501224994659 0.31966462731361389 0.020107896998524666
0.17424465715885162 0.31508445739746094 0.019218938425183296
0.34303680062294006 0.31314119696617126 0.031972803175449371
0.57446897029876709 0.30571079254150391 0.048328638076782227
0.7882724404335022 0.28299614787101746 0.057756401598453522
0.89599567651748657 0.27934935688972473 0.055033843964338303
0.99127048254013062 0.27581200003623962 0.049509834498167038
0.099919892847537994 0.52320241928100586 0.027497684583067894
0.19331152737140656 0.51663541793823242 0.027770726010203362
0.33669757843017578 0.50562083721160889 0.038559559732675552
0.55251157283782959 0.50747382640838623 0.056711472570896149
0.77741992473602295 0.50170189142227173 0.064393393695354462
0.90818846225738525 0.48145765066146851 0.062836997210979462
0.99446475505828857 0.47236058115959167 0.054026167839765549
0.063059188425540924 0.73336613178253174 0.020931484177708626
0.16388899087905884 0.72655755281448364 0.026480028405785561
0.28873786330223083 0.72321373224258423 0.030662640929222107
0.50489681959152222 0.71039462089538574 0.051627498120069504
0.73232585191726685 0.72489213943481445 0.054323174059391022
0.89589446783065796 0.71175122261047363 0.050418209284543991
0.99403995275497437 0.69428187608718872 0.042323034256696701
0.032130088657140732 0.87772202491760254 0.014086420647799969
0.13289535045623779 0.87419378757476807 0.02192707359790802
0.24396151304244995 0.87848544120788574 0.020789830014109612
0.43504798412322998 0.87537264823913574 0.028617305681109428
0.68337881565093994 0.88175493478775024 0.03076324425637722
0.88636231422424316 0.89004504680633545 0.024852827191352844
0.99316853284835815 0.88709431886672974 0.020672053098678589
0.024321597069501877 0.97140616178512573 0.004282049834728241
0.126068115234375 0.96614253520965576 0.013017198070883751
0.23032364249229431 0.9696471095085144 0.014598966576159
0.39260849356651306 0.97570431232452393 0.015899254009127617
0.64379173517227173 0.98448091745376587 0.016749782487750053
0.87428247928619385 0.99221783876419067 0.01627565361559391
0.99652379751205444 0.99690902233123779 0.010881910100579262
0.013729828409850597 0.015532549470663071 0.10476932674646378
0.15186014771461487 0.02117501012980938 0.12375827878713608
0.38610440492630005 0.031208561733365059 0.16125260293483734
0.624980628490448 0.043646164238452911 0.17888364195823669
0.79020494222640991 0.036332912743091583 0.16949863731861115
0.891582190990448 0.017727944999933243 0.16087999939918518
0.98842644691467285 0.0038562400732189417 0.17047335207462311
0.022675009444355965 0.13587664067745209 0.11305168271064758
0.14278595149517059 0.14420704543590546 0.12244419753551483
0.35756766796112061 0.15590359270572662 0.14443951845169067
0.60762697458267212 0.1494944840669632 0.15798944234848022
0.78628122806549072 0.1409442275762558 0.15455307066440582
0.88970816135406494 0.133343905210495 0.15498219430446625
0.98517346382141113 0.12220969051122665 0.15827460587024689
0.057563003152608871 0.30971229076385498 0.1160152330994606
0.15991978347301483 0.30737105011940002 0.11688742786645889
0.33827716112136841 0.30970418453216553 0.12702777981758118
0.58203375339508057 0.30353760719299316 0.14558184146881104
0.7884143590927124 0.28268229961395264 0.15109483897686005
0.8982003927230835 0.27437815070152283 0.14833459258079529
0.98937737941741943 0.27188989520072937 0.14997434616088867
0.10372531414031982 0.52046895027160645 0.12276767194271088
0.19824711978435516 0.51339948177337646 0.12334691733121872
0.33418905735015869 0.50627923011779785 0.12547162175178528
0.54694980382919312 0.50750100612640381 0.14209587872028351
0.7723846435546875 0.50288784503936768 0.15478895604610443
0.90632843971252441 0.47438156604766846 0.15364660322666168
0.99296796321868896 0.46026632189750671 0.15533468127250671
0.085031501948833466 0.72920697927474976 0.12204411625862122
0.19170042872428894 0.71834689378738403 0.12092486768960953
0.30124011635780334 0.71661567687988281 0.11565445363521576
0.50578206777572632 0.71224629878997803 0.13081647455692291
0.73779749870300293 0.72996276617050171 0.13993686437606812
0.89875954389572144 0.71365809440612793 0.1343330591917038
0.99317026138305664 0.6897779107093811 0.13521420955657959
0.049971144646406174 0.87403780221939087 0.11197111755609512
0.14469839632511139 0.87224209308624268 0.11127816140651703
0.24739578366279602 0.87921667098999023 0.099735096096992493
0.43853294849395752 0.87982463836669922 0.10273919254541397
0.69237041473388672 0.88497036695480347 0.11040203273296356
0.89097589254379272 0.89417058229446411 0.1041133776307106
0.99316591024398804 0.88611584901809692 0.1104937419295311
0.039647690951824188 0.96886616945266724 0.088789172470569611
0.12997689843177795 0.9663204550743103 0.099293693900108337
0.23437602818012238 0.97203713655471802 0.094052545726299286
0.41064706444740295 0.97678285837173462 0.092603079974651337
0.65477472543716431 0.98193877935409546 0.10094598680734634
0.86975359916687012 0.99315482378005981 0.10439009964466095
0.99423587322235107 0.99663937091827393 0.10424614697694778
0.01773783378303051 0.027090050280094147 0.23750413954257965
0.092002078890800476 0.032541926950216293 0.24634110927581787
0.28607463836669922 0.03890533372759819 0.30258446931838989
0.61255025863647461 0.065482348203659058 0.3385334312915802
0.77963697910308838 0.079122491180896759 0.34242081642150879
0.88237345218658447 0.05876777321100235 0.32577121257781982
0.98133665323257446 0.021886024624109268 0.33144107460975647
0.019526837393641472 0.13945849239826202 0.23496814072132111
0.10343653708696365 0.13852685689926147 0.23208560049533844
0.26908737421035767 0.15163777768611908 0.28660386800765991
0.59552127122879028 0.16980324685573578 0.32069945335388184
0.77788001298904419 0.17359212040901184 0.33505037426948547
0.88182741403579712 0.16850890219211578 0.32409098744392395
0.97956013679504395 0.14949256181716919 0.3163316547870636
0.019992798566818237 0.28186771273612976 0.24787621200084686
0.11083089560270309 0.27865290641784668 0.24627205729484558
0.2719913125038147 0.2937982976436615 0.27206167578697205
0.57476657629013062 0.31174811720848083 0.30547395348548889
0.78163725137710571 0.30120450258255005 0.30832949280738831
0.89428842067718506 0.2947227954864502 0.30257377028465271
0.98768514394760132 0.29158595204353333 0.2989925742149353
0.0393538698554039 0.51098442077636719 0.26874557137489319
0.13314583897590637 0.50722980499267578 0.26294136047363281
0.2833392322063446 0.50032925605773926 0.26270383596420288
0.53523331880569458 0.50202268362045288 0.28075861930847168
0.76736223697662354 0.50155240297317505 0.28721314668655396
0.90345138311386108 0.48198533058166504 0.28130841255187988
0.99205189943313599 0.47480833530426025 0.28985622525215149
0.061879057437181473 0.72489529848098755 0.25788795948028564
0.16540977358818054 0.72104126214981079 0.24825005233287811
0.27918869256973267 0.71851158142089844 0.24098296463489532
0.49988037347793579 0.7093701958656311 0.25237378478050232
0.73853170871734619 0.72766739130020142 0.25593164563179016
0.90145194530487061 0.7133147120475769 0.24464811384677887
0.99380511045455933 0.69094175100326538 0.25472119450569153
0.044271700084209442 0.87217342853546143 0.23042674362659454
0.13172537088394165 0.87408691644668579 0.23019547760486603
0.2363269031047821 0.87978202104568481 0.22103142738342285
0.4371333122253418 0.87792456150054932 0.21984550356864929
0.69357305765151978 0.88442522287368774 0.22178758680820465
0.8920934796333313 0.89245611429214478 0.20343966782093048
0.9948585033416748 0.87885302305221558 0.21597850322723389
0.042505871504545212 0.97047638893127441 0.19281572103500366
0.12452308833599091 0.96626168489456177 0.21173541247844696
0.23251336812973022 0.96922260522842407 0.20904813706874847
0.41655841469764709 0.97371542453765869 0.20021538436412811
0.65924239158630371 0.978973388671875 0.20758646726608276
0.87102556228637695 0.99038064479827881 0.18959245085716248
0.99358451366424561 0.99264532327651978 0.18774764239788055
0.020023075863718987 0.053873937577009201 0.45079028606414795
0.10138680040836334 0.057130582630634308 0.45835426449775696
0.19201362133026123 0.065457917749881744 0.4645373523235321
0.4443417489528656 0.078950695693492889 0.54863470792770386
0.77968764305114746 0.087426640093326569 0.55744302272796631
0.88104754686355591 0.084074713289737701 0.53425449132919312
0.97758209705352783 0.042948149144649506 0.53168022632598877
0.019052378833293915 0.17440415918827057 0.4489058256149292
0.10208170115947723 0.17295838892459869 0.44465285539627075
0.18624891340732574 0.1757606565952301 0.4492744505405426
0.4212062656879425 0.18278951942920685 0.53326153755187988
0.79329651594161987 0.20499475300312042 0.54237979650497437
0.87947976589202881 0.21168206632137299 0.52902877330780029
0.97934859991073608 0.18826702237129211 0.51741570234298706
0.017178209498524666 0.29305559396743774 0.42690324783325195
0.10274340957403183 0.28845548629760742 0.41676059365272522
0.19189831614494324 0.28916263580322266 0.414399653673172
0.41802796721458435 0.31516215205192566 0.49894002079963684
0.78347873687744141 0.34188416600227356 0.5288851261138916
0.88393509387969971 0.33955493569374084 0.52528876066207886
0.98291367292404175 0.32733958959579468 0.51690185070037842
0.016844445839524269 0.48526111245155334 0.43422409892082214
0.10355978459119797 0.4745771586894989 0.43365368247032166
0.21016491949558258 0.4743085503578186 0.42779836058616638
0.44545209407806396 0.50416165590286255 0.47479799389839172
0.75985121726989746 0.52316027879714966 0.51458162069320679
0.89236176013946533 0.51517802476882935 0.51605641841888428
0.98877030611038208 0.51095473766326904 0.51187503337860107
0.021313341334462166 0.72524440288543701 0.46953973174095154
0.10958606749773026 0.71948683261871338 0.46058079600334167
0.2215520441532135 0.71055620908737183 0.45077571272850037
0.46205458045005798 0.71271973848342896 0.46666532754898071
0.74431627988815308 0.72854232788085938 0.48142945766448975
0.90434974431991577 0.7196953296661377 0.48298284411430359
0.99399703741073608 0.70639550685882568 0.48538774251937866
0.018521850928664207 0.88146543502807617 0.44071313738822937
0.10342058539390564 0.88421344757080078 0.4346899688243866
0.20373652875423431 0.87914270162582397 0.42912685871124268
0.41983991861343384 0.87791949510574341 0.43156039714813232
0.69176137447357178 0.88729995489120483 0.43635061383247375
0.89027178287506104 0.89256972074508667 0.42904916405677795
0.99392497539520264 0.88390153646469116 0.42948269844055176
0.027937885373830795 0.97414636611938477 0.40003937482833862
0.11247896403074265 0.96901285648345947 0.40860649943351746
0.22267612814903259 0.9669184684753418 0.40555021166801453
0.41261383891105652 0.97410756349563599 0.39540278911590576
0.66298288106918335 0.98250144720077515 0.4118233323097229
0.87362468242645264 0.99101561307907104 0.38398948311805725
0.99189257621765137 0.99245691299438477 0.37108621001243591
0.016879690811038017 0.070962540805339813 0.62266343832015991
0.10661233961582184 0.073465399444103241 0.62271606922149658
0.20172262191772461 0.084938123822212219 0.62338507175445557
0.30327975749969482 0.098033800721168518 0.69102662801742554
0.80402988195419312 0.023279931396245956 0.77543789148330688
0.89019131660461426 0.034578841179609299 0.75056487321853638
0.98334199190139771 0.032911010086536407 0.76304769515991211
0.017000071704387665 0.19353766739368439 0.64071226119995117
0.10305485129356384 0.19130027294158936 0.63360220193862915
0.20501267910003662 0.19373030960559845 0.63436847925186157
0.3080102801322937 0.2070918083190918 0.66718375682830811
0.74512398242950439 0.15302000939846039 0.75572597980499268
0.8758997917175293 0.16512992978096008 0.73968213796615601
0.98192822933197021 0.16640126705169678 0.73397725820541382
0.01624959334731102 0.3232380747795105 0.65129923820495605
0.10425785928964615 0.31913822889328003 0.64333009719848633
0.20048289000988007 0.31793835759162903 0.64548379182815552
0.28735408186912537 0.32624366879463196 0.65894347429275513
0.71361929178237915 0.31620800495147705 0.7459140419960022
0.88157945871353149 0.31067165732383728 0.73260533809661865
0.98355484008789062 0.31482908129692078 0.72553867101669312
0.015954321250319481 0.50873541831970215 0.64011126756668091
0.10295385867357254 0.50296688079833984 0.63300740718841553
0.19359385967254639 0.49457985162734985 0.62936198711395264
0.29018241167068481 0.50048625469207764 0.63747143745422363
0.61978542804718018 0.52606004476547241 0.73237049579620361
0.89628320932388306 0.52425223588943481 0.73099374771118164
0.98384261131286621 0.53161734342575073 0.71675539016723633
0.015441176481544971 0.72750914096832275 0.70091140270233154
0.10149130970239639 0.72315722703933716 0.68850523233413696
0.197552889585495 0.71783030033111572 0.68243932723999023
0.38340598344802856 0.7135012149810791 0.6865578293800354
0.67402052879333496 0.73194676637649536 0.72200268507003784
0.90042167901992798 0.73443245887756348 0.73931217193603516
0.98932284116744995 0.72577077150344849 0.73335480690002441
0.015785800293087959 0.88247865438461304 0.70436298847198486
0.1004277691245079 0.88423734903335571 0.69664686918258667
0.19775307178497314 0.88420844078063965 0.68888378143310547
0.40678286552429199 0.886913001537323 0.69326436519622803
0.68690747022628784 0.88905298709869385 0.7058032751083374
0.89429569244384766 0.89603126049041748 0.71029925346374512
0.99404722452163696 0.88970136642456055 0.710166335105896
0.019527973607182503 0.97884809970855713 0.67137372493743896
0.10866193473339081 0.97619843482971191 0.66859889030456543
0.218372642993927 0.97681957483291626 0.65876072645187378
0.40844398736953735 0.98292607069015503 0.66334158182144165
0.66278475522994995 0.98766940832138062 0.68061715364456177
0.87168377637863159 0.99428367614746094 0.68143373727798462
0.99161446094512939 0.9951280951499939 0.67693525552749634
0.016108015552163124 0.076881542801856995 0.7450871467590332
0.10378503054380417 0.078113362193107605 0.74689531326293945
0.17969290912151337 0.084658272564411163 0.74362468719482422
0.28531390428543091 0.10083646327257156 0.78926366567611694
0.77452045679092407 0.026545297354459763 0.88274407386779785
0.89825379848480225 0.024462068453431129 0.89233362674713135
0.99179327487945557 0.018077535554766655 0.90758830308914185
0.017486842349171638 0.19306041300296783 0.75372111797332764
0.10613618791103363 0.19219785928726196 0.7549862265586853
0.20801860094070435 0.19332043826580048 0.75596916675567627
0.28336289525032043 0.20621854066848755 0.77987545728683472
0.72947055101394653 0.13924427330493927 0.87137806415557861
0.88863003253936768 0.13149780035018921 0.88548600673675537
0.98731905221939087 0.13273265957832336 0.88800138235092163
0.017193574458360672 0.31846567988395691 0.76891839504241943
0.1052071824669838 0.31669214367866516 0.77332800626754761
0.19703224301338196 0.31916877627372742 0.77392721176147461
0.28454944491386414 0.33226144313812256 0.77537858486175537
0.60079658031463623 0.3172001838684082 0.85568034648895264
0.89772957563400269 0.27482259273529053 0.89340484142303467
0.98949706554412842 0.27450987696647644 0.89590358734130859
0.019086232408881187 0.50495976209640503 0.76917904615402222
0.10553668439388275 0.5005345344543457 0.77103561162948608
0.19541934132575989 0.49393486976623535 0.77821046113967896
0.29851061105728149 0.50514400005340576 0.77396512031555176
0.49120089411735535 0.51536458730697632 0.84723669290542603
0.91339540481567383 0.49662554264068604 0.90697520971298218
0.98895668983459473 0.49740806221961975 0.89588361978530884
0.01794910803437233 0.7169070839881897 0.81147152185440063
0.10118716210126877 0.71769338846206665 0.81905472278594971
0.19367016851902008 0.71530240774154663 0.81805223226547241
0.33951181173324585 0.71801233291625977 0.81554651260375977
0.59423744678497314 0.73277360200881958 0.86207687854766846
0.90585005283355713 0.73284304141998291 0.90275400876998901
0.99066221714019775 0.72884511947631836 0.8960612416267395
0.017769608646631241 0.87408530712127686 0.86766272783279419
0.09994012862443924 0.88222044706344604 0.87152564525604248
0.19173505902290344 0.88666284084320068 0.87045735120773315
0.39444270730018616 0.88672757148742676 0.87485998868942261
0.66912978887557983 0.8910108208656311 0.88613879680633545
0.89179891347885132 0.89506185054779053 0.90163815021514893
0.99313724040985107 0.89298969507217407 0.89603596925735474
0.015969354659318924 0.98073446750640869 0.8663145899772644
0.10287860035896301 0.98301416635513306 0.8727450966835022
0.20470790565013885 0.9855034351348877 0.8645559549331665
0.39529025554656982 0.9880068302154541 0.87024664878845215
0.6509019136428833 0.99064522981643677 0.8806644082069397
0.87182456254959106 0.99420571327209473 0.88698339462280273
0.99222952127456665 0.99317163228988647 0.89240843057632446
0.009024481289088726 0.07864069938659668 0.85873353481292725
0.10265286266803741 0.0809287428855896 0.85813015699386597
0.19952447712421417 0.078200168907642365 0.84898561239242554
0.29111543297767639 0.097210749983787537 0.87398755550384521
0.72524303197860718 0.04028504341840744 0.96753901243209839
0.89499598741531372 0.022677253931760788 0.99289053678512573
0.99511152505874634 0.0099480273202061653 0.99905878305435181
0.011340287514030933 0.19719459116458893 0.86513644456863403
0.1038057953119278 0.19471314549446106 0.86584222316741943
0.20048344135284424 0.19280916452407837 0.86677306890487671
0.27373871207237244 0.21070843935012817 0.88319295644760132
0.65655732154846191 0.17173995077610016 0.95363044738769531
0.90151208639144897 0.13714827597141266 0.98818552494049072
0.99183666706085205 0.13162019848823547 0.99368071556091309
0.013094374909996986 0.32210239768028259 0.88002496957778931
0.10170210152864456 0.31496456265449524 0.88239473104476929
0.19133752584457397 0.31847923994064331 0.87779080867767334
0.28316113352775574 0.32856205105781555 0.88521027565002441
0.51221728324890137 0.32574689388275146 0.94463968276977539
0.90487825870513916 0.28309834003448486 0.98746877908706665
0.98955011367797852 0.28033509850502014 0.99242210388183594
0.015042293816804886 0.4957999587059021 0.8787848949432373
0.10267419368028641 0.4891735315322876 0.87819045782089233
0.19145716726779938 0.48924216628074646 0.87679457664489746
0.29238355159759521 0.50023561716079712 0.88263803720474243
0.47986480593681335 0.51860731840133667 0.93639349937438965
0.89122605323791504 0.50352805852890015 0.99013108015060425
0.99285769462585449 0.49570557475090027 0.99231874942779541
0.013341357931494713 0.69434422254562378 0.89776986837387085
0.097414322197437286 0.69571775197982788 0.89970123767852783
0.19023454189300537 0.69472199678421021 0.90730524063110352
0.33134418725967407 0.70328313112258911 0.91685312986373901
0.58447277545928955 0.7236788272857666 0.95941567420959473
0.88854104280471802 0.72752898931503296 0.99193882942199707
0.99218279123306274 0.72580158710479736 0.99205505847930908
0.011841059662401676 0.85641717910766602 0.94907230138778687
0.093605071306228638 0.86548399925231934 0.95314407348632812
0.18730106949806213 0.86832493543624878 0.96177589893341064
0.38463687896728516 0.87336975336074829 0.97109830379486084
0.66096550226211548 0.88571065664291382 0.98258280754089355
0.8874131441116333 0.89252370595932007 0.99397307634353638
0.99371737241744995 0.89394789934158325 0.99240362644195557
0.0076248617842793465 0.97585761547088623 0.96983075141906738
0.09075271338224411 0.981545090675354 0.97561478614807129
0.19063681364059448 0.98171353340148926 0.97761762142181396
0.39154008030891418 0.98608899116516113 0.98346298933029175
0.65483778715133667 0.99112439155578613 0.98596680164337158
0.88089531660079956 0.99292469024658203 0.99283194541931152
0.99480706453323364 0.99343043565750122 0.99074000120162964
