assets/lut/editingcorp levex.cube
# Created by: G'MIC (https://gmic.eu)
TITLE "levex"
# LUT size
LUT_3D_SIZE 7
# Data domain
DOMAIN_MIN 0.0 0.0 0.0
DOMAIN_MAX 1.0 1.0 1.0
# LUT data points
0.034372426569461823 0.032416384667158127 0.029723508283495903
0.21039992570877075 0.04856356605887413 0.03815167024731636
0.42058375477790833 0.042616438120603561 0.036651041358709335
0.57248616218566895 0.031984783709049225 0.0044559403322637081
0.69254273176193237 0.0069843069650232792 0
0.83877670764923096 0.00016744277672842145 0.0065354742109775543
0.97276782989501953 0.2168489545583725 0.20958139002323151
0.056984409689903259 0.16189199686050415 0.054497122764587402
0.19571699202060699 0.17545744776725769 0.062736541032791138
0.3870387077331543 0.18861520290374756 0.047302801162004471
0.55158185958862305 0.18043360114097595 0.015843290835618973
0.67599886655807495 0.14306662976741791 0.00094324746169149876
0.82315546274185181 0.088363051414489746 0.003177642822265625
0.97173714637756348 0.24192635715007782 0.17618267238140106
0.059278927743434906 0.32095080614089966 0.062478877604007721
0.19035761058330536 0.3316364586353302 0.075618192553520203
0.3747062087059021 0.36235865950584412 0.069367982447147369
0.5547444224357605 0.37106871604919434 0.02941315621137619
0.68736797571182251 0.36884221434593201 0.0096064098179340363
0.84371966123580933 0.37226453423500061 0.012471785768866539
0.98740124702453613 0.43868863582611084 0.19232434034347534
0.020639561116695404 0.49109843373298645 0.058494042605161667
0.15548177063465118 0.49809679388999939 0.069995597004890442
0.36785173416137695 0.5235288143157959 0.081904441118240356
0.56578332185745239 0.54496920108795166 0.061875961720943451
0.71700763702392578 0.5590057373046875 0.0044531282037496567
0.88186502456665039 0.57144039869308472 0.0021024069283157587
0.99612408876419067 0.60088527202606201 0.2539820671081543
0.012987383641302586 0.62055301666259766 0.044440101832151413
0.16084140539169312 0.63459020853042603 0.058273524045944214
0.39692431688308716 0.64773541688919067 0.075608059763908386
0.58928126096725464 0.67459321022033691 0.09299895167350769
0.72892481088638306 0.69733798503875732 0.091646067798137665
0.90071547031402588 0.70488756895065308 0.04549885168671608
0.99668353796005249 0.71485698223114014 0.34938782453536987
0.039488967508077621 0.74652767181396484 0.068255916237831116
0.19381886720657349 0.75922262668609619 0.081704176962375641
0.42728611826896667 0.77217942476272583 0.11515884101390839
0.60758763551712036 0.80497348308563232 0.1392381340265274
0.73886549472808838 0.83569836616516113 0.18989910185337067
0.90522336959838867 0.85340398550033569 0.23355056345462799
0.99738746881484985 0.86707383394241333 0.45685383677482605
0.073462933301925659 0.90121620893478394 0.15272708237171173
0.20409327745437622 0.90541946887969971 0.18680870532989502
0.45226418972015381 0.91184425354003906 0.22865299880504608
0.62268620729446411 0.93469220399856567 0.28915688395500183
0.7497183084487915 0.9518662691116333 0.38888287544250488
0.91510677337646484 0.97765934467315674 0.48667615652084351
0.99997198581695557 0.99209469556808472 0.62675535678863525
0.00017920101527124643 0.05541209876537323 0.14417876303195953
0.16012130677700043 0.02837371826171875 0.15140226483345032
0.43532028794288635 0.023017149418592453 0.11581284552812576
0.59077811241149902 0.018694665282964706 0.081956528127193451
0.72456580400466919 2.154182038793806e-05 0.049777910113334656
0.88177007436752319 0.0051407008431851864 0.056331992149353027
0.98422205448150635 0.32933089137077332 0.32454091310501099
0.019866285845637321 0.18720486760139465 0.12493019551038742
0.14162054657936096 0.1600278913974762 0.1540142297744751
0.40000656247138977 0.15935289859771729 0.12933942675590515
0.57503706216812134 0.1517176628112793 0.097550638020038605
0.70980691909790039 0.090802915394306183 0.069991618394851685
0.87314540147781372 0.084642164409160614 0.076995372772216797
0.98573869466781616 0.34923416376113892 0.32294660806655884
0.036711450666189194 0.3377479612827301 0.10897596925497055
0.15913642942905426 0.30525228381156921 0.15256412327289581
0.36699497699737549 0.33482670783996582 0.16731201112270355
0.56463241577148438 0.35406655073165894 0.13327525556087494
0.70119738578796387 0.34813317656517029 0.10584364086389542
0.87246304750442505 0.36104229092597961 0.11234615743160248
0.99433821439743042 0.46275290846824646 0.31883174180984497
0.012202752754092216 0.50115567445755005 0.097136475145816803
0.1333603709936142 0.47470369935035706 0.154527947306633
0.35902717709541321 0.49679723381996155 0.18979783356189728
0.57023817300796509 0.53712469339370728 0.1925143301486969
0.72360706329345703 0.55808800458908081 0.13445501029491425
0.89450830221176147 0.5719035267829895 0.1363789439201355
0.99532830715179443 0.60535925626754761 0.37263739109039307
0.0028139450587332249 0.62988322973251343 0.089325264096260071
0.13259062170982361 0.62268716096878052 0.1624249666929245
0.38602623343467712 0.62805676460266113 0.20398326218128204
0.5885167121887207 0.66279453039169312 0.24878998100757599
0.73579442501068115 0.69312518835067749 0.25496011972427368
0.9136354923248291 0.70485889911651611 0.21678256988525391
0.99966716766357422 0.72091484069824219 0.4197651743888855
0.031532630324363708 0.75488168001174927 0.095211237668991089
0.15865662693977356 0.75258725881576538 0.18464326858520508
0.40887859463691711 0.75326818227767944 0.24425525963306427
0.60274785757064819 0.78826534748077393 0.28984272480010986
0.74105429649353027 0.82917839288711548 0.33374831080436707
0.91753500699996948 0.85356324911117554 0.3720741868019104
1 0.86976164579391479 0.50438898801803589
0.098981566727161407 0.90897291898727417 0.18873618543148041
0.22054268419742584 0.88968062400817871 0.24483600258827209
0.44954580068588257 0.89222246408462524 0.30262425541877747
0.62594258785247803 0.92211353778839111 0.38326287269592285
0.75366246700286865 0.95167559385299683 0.45121744275093079
0.91581201553344727 0.97722673416137695 0.54567641019821167
0.99669688940048218 0.98638123273849487 0.59702569246292114
0.0011269812239333987 0.068489506840705872 0.25354164838790894
0.017778269946575165 0.034222755581140518 0.35608220100402832
0.34043845534324646 0.002934429794549942 0.28600510954856873
0.57298123836517334 0.0035756130237132311 0.2328612357378006
0.71556967496871948 0 0.21481706202030182
0.88516628742218018 0.015231442637741566 0.21246455609798431
0.99434912204742432 0.32830396294593811 0.36673977971076965
0.0035046895500272512 0.21459482610225677 0.2254016250371933
0.0040721967816352844 0.19249825179576874 0.32413819432258606
0.27568292617797852 0.13665042817592621 0.29234498739242554
0.56870484352111816 0.10930341482162476 0.24045002460479736
0.72237592935562134 0.048109572380781174 0.23480090498924255
0.9024537205696106 0.076194077730178833 0.25484713912010193
0.99458760023117065 0.36491137742996216 0.41624677181243896
0.0038579006213694811 0.36981278657913208 0.19436429440975189
0.030637135729193687 0.35008442401885986 0.27789229154586792
0.28033944964408875 0.30474027991294861 0.29224041104316711
0.56878447532653809 0.31344312429428101 0.27500945329666138
0.71953189373016357 0.30400857329368591 0.27425706386566162
0.9013325572013855 0.34492999315261841 0.3082544207572937
0.99058759212493896 0.46446952223777771 0.43710878491401672
0.00058559345779940486 0.52491778135299683 0.16694019734859467
0.051155675202608109 0.50681716203689575 0.25765901803970337
0.32132980227470398 0.46583709120750427 0.29338732361793518
0.56330829858779907 0.5173870325088501 0.34438171982765198
0.72625058889389038 0.54170876741409302 0.34585052728652954
0.89964491128921509 0.56466954946517944 0.36121875047683716
0.99772554636001587 0.60041803121566772 0.47324937582015991
0 0.64880996942520142 0.1646488755941391
0.074113719165325165 0.63379406929016113 0.26518869400024414
0.35940897464752197 0.61049491167068481 0.30944967269897461
0.57440197467803955 0.6475142240524292 0.39923793077468872
0.73626363277435303 0.68364429473876953 0.42962220311164856
0.91733735799789429 0.70208531618118286 0.43283611536026001
1 0.71880084276199341 0.51029634475708008
0.0042456532828509808 0.77528834342956543 0.18045265972614288
0.085336990654468536 0.76708173751831055 0.29859563708305359
0.37224742770195007 0.74137347936630249 0.34653541445732117
0.59247273206710815 0.76324141025543213 0.42442730069160461
0.73709499835968018 0.81233173608779907 0.48225662112236023
0.92256772518157959 0.85589092969894409 0.51908391714096069
0.99972164630889893 0.87402492761611938 0.58285081386566162
0.091315969824790955 0.91447073221206665 0.2474081814289093
0.18271151185035706 0.89594221115112305 0.33030563592910767
0.42596304416656494 0.87603622674942017 0.38268673419952393
0.61917728185653687 0.90245956182479858 0.46581366658210754
0.7451852560043335 0.93950241804122925 0.54042255878448486
0.92028474807739258 0.98359423875808716 0.60501587390899658
0.99719691276550293 0.99419063329696655 0.64765036106109619
0.030308322980999947 0.06544225662946701 0.38718259334564209
0.038605004549026489 0.038194559514522552 0.4867178201675415
0.14150159060955048 0.011613628827035427 0.51329249143600464
0.49282929301261902 0.00021829044271726161 0.44189807772636414
0.68229734897613525 0 0.41620755195617676
0.86158972978591919 0.001420817687176168 0.42762851715087891
0.98547542095184326 0.29559722542762756 0.50020843744277954
2.3546406737295911e-05 0.23137424886226654 0.34221565723419189
0.0010635076323524117 0.1991901695728302 0.43900731205940247
0.041331510990858078 0.14402274787425995 0.50405323505401611
0.47221934795379639 0.080808289349079132 0.44133937358856201
0.69812047481536865 0.011526833288371563 0.43754932284355164
0.87973296642303467 0.055191773921251297 0.46899265050888062
0.98341125249862671 0.32871019840240479 0.52516287565231323
0.00035225364263169467 0.3929627537727356 0.29312801361083984
0 0.37964028120040894 0.39684545993804932
0.020283479243516922 0.3518950343132019 0.48255288600921631
0.47296875715255737 0.28436177968978882 0.46531316637992859
0.70186805725097656 0.24875627458095551 0.46402156352996826
0.90494275093078613 0.28173097968101501 0.50373679399490356
0.9905698299407959 0.43729624152183533 0.55332905054092407
0.0024370979517698288 0.54199188947677612 0.2624782919883728
6.4625460254319478e-06 0.54034852981567383 0.37955904006958008
0.09046587347984314 0.51748687028884888 0.44549790024757385
0.48561158776283264 0.4944610595703125 0.48789560794830322
0.71293920278549194 0.51418858766555786 0.50431227684020996
0.90950685739517212 0.53787428140640259 0.52283453941345215
0.99993103742599487 0.58448201417922974 0.56745117902755737
0.0011637370334938169 0.66270357370376587 0.262544184923172
0.0021651473361998796 0.66105103492736816 0.38905629515647888
0.19518744945526123 0.63072657585144043 0.43510556221008301
0.53998291492462158 0.63119900226593018 0.50686055421829224
0.70858246088027954 0.67103993892669678 0.56241136789321899
0.90823137760162354 0.69084131717681885 0.57208019495010376
1 0.70968127250671387 0.60096460580825806
0.01116765383630991 0.7953038215637207 0.27780300378799438
0.0070914025418460369 0.79637390375137329 0.41356712579727173
0.26072770357131958 0.75272738933563232 0.45622915029525757
0.56649184226989746 0.74360829591751099 0.52471649646759033
0.70891088247299194 0.78694111108779907 0.5867304801940918
0.90818977355957031 0.84724503755569458 0.61437785625457764
0.99565774202346802 0.87036073207855225 0.64381587505340576
0.12976732850074768 0.91663217544555664 0.31558704376220703
0.16687630116939545 0.90922278165817261 0.42282414436340332
0.36911699175834656 0.89052492380142212 0.48302063345909119
0.60651135444641113 0.89467209577560425 0.54951262474060059
0.72582000494003296 0.92360430955886841 0.60428571701049805
0.91602474451065063 0.97349905967712402 0.66398793458938599
0.99926906824111938 0.99581342935562134 0.7059255838394165
0.033430825918912888 0.070686355233192444 0.49231207370758057
0.087402313947677612 0.029079092666506767 0.56263726949691772
0.14411352574825287 0.0036323098465800285 0.61149448156356812
0.17962212860584259 0 0.61920595169067383
0.60322713851928711 0.0013741586590185761 0.57476896047592163
0.80533945560455322 0.00030026902095414698 0.58269798755645752
0.98112905025482178 0.20182488858699799 0.61766642332077026
1.4361213516167481e-06 0.23416599631309509 0.45246610045433044
0.0078226430341601372 0.19850966334342957 0.52297508716583252
0.040602248162031174 0.14178015291690826 0.59127569198608398
0.10759355127811432 0.06798071414232254 0.61960148811340332
0.6205248236656189 0.006640206091105938 0.58752572536468506
0.82661014795303345 0.020324796438217163 0.60876733064651489
0.98960667848587036 0.18855899572372437 0.63786649703979492
0.00085153017425909638 0.40102699398994446 0.40429878234863281
0.00078781729098409414 0.38158971071243286 0.49450808763504028
0.0053520351648330688 0.36510762572288513 0.57457536458969116
0.065975680947303772 0.30689868330955505 0.62512940168380737
0.62814873456954956 0.2316044420003891 0.61140811443328857
0.85781937837600708 0.22332282364368439 0.63019317388534546
0.99813663959503174 0.35528397560119629 0.65665155649185181
0.0096463970839977264 0.55277150869369507 0.37447467446327209
0.0052933488041162491 0.55364304780960083 0.47589269280433655
0 0.5490533709526062 0.56233471632003784
0.09737764298915863 0.52070909738540649 0.61567729711532593
0.63055455684661865 0.48961925506591797 0.63202518224716187
0.87032526731491089 0.49998185038566589 0.63802111148834229
0.99921828508377075 0.55084455013275146 0.66285175085067749
0.0082772495225071907 0.67499673366546631 0.37590804696083069
0.00036339854705147445 0.67476159334182739 0.48580083250999451
0.0052664512768387794 0.66937017440795898 0.56410294771194458
0.2811075747013092 0.6485588550567627 0.60027295351028442
0.63756996393203735 0.64536768198013306 0.63859212398529053
0.87359362840652466 0.66324055194854736 0.65487271547317505
1 0.68559020757675171 0.67436283826828003
0.027931736782193184 0.81425768136978149 0.38610777258872986
0.0018271950539201498 0.81628775596618652 0.50365573167800903
0.042006503790616989 0.80344158411026001 0.5684698224067688
0.41139644384384155 0.76466387510299683 0.5983547568321228
0.67198348045349121 0.75878268480300903 0.64419335126876831
0.88393682241439819 0.827991783618927 0.69963711500167847
0.99902105331420898 0.86110424995422363 0.72457736730575562
0.2055332362651825 0.90187567472457886 0.41093042492866516
0.19932015240192413 0.90413177013397217 0.50574374198913574
0.25202915072441101 0.91076081991195679 0.56826251745223999
0.51993948221206665 0.89758527278900146 0.60342472791671753
0.69835549592971802 0.90367448329925537 0.65283089876174927
0.88888055086135864 0.97214740514755249 0.73625051975250244
1 0.99925428628921509 0.80056792497634888
0.053184255957603455 0.061053048819303513 0.56868875026702881
0.1206294372677803 0.0091217635199427605 0.62944769859313965
0.18210616707801819 7.0369947934523225e-05 0.68446028232574463
0.18553133308887482 0 0.71867662668228149
0.36364090442657471 0 0.70292478799819946
0.71506989002227783 0.0022611580789089203 0.69281625747680664
0.95782196521759033 0.033054113388061523 0.72184056043624878
0.0031344096641987562 0.23276999592781067 0.53561925888061523
0.026459427550435066 0.19212961196899414 0.59454739093780518
0.078174561262130737 0.13350185751914978 0.6580805778503418
0.12279998511075974 0.065057478845119476 0.7115897536277771
0.3736594021320343 0.0063538346439599991 0.71664237976074219
0.75362354516983032 0 0.71613025665283203
0.96973472833633423 0.022103028371930122 0.74370324611663818
0 0.40606862306594849 0.50463980436325073
5.5410346249118447e-05 0.38962480425834656 0.57663679122924805
0.018372179940342903 0.36858344078063965 0.64016187191009521
0.0071632084436714649 0.32452446222305298 0.70614373683929443
0.25899508595466614 0.23547664284706116 0.73963218927383423
0.77918887138366699 0.10264137387275696 0.74664485454559326
0.98483812808990479 0.15039673447608948 0.76967054605484009
0.0027134614065289497 0.56174492835998535 0.48298737406730652
0.0013770159566774964 0.55947530269622803 0.56231057643890381
0.00017260383174289018 0.553996741771698 0.6292986273765564
0.00016213211347348988 0.54187142848968506 0.6971442699432373
0.22643041610717773 0.50412851572036743 0.75619041919708252
0.79143857955932617 0.4558384120464325 0.77256792783737183
0.99350941181182861 0.48951917886734009 0.78494346141815186
0 0.68564748764038086 0.48457998037338257
2.3935356239235261e-06 0.68824547529220581 0.56746584177017212
1.914828544613556e-06 0.6863628625869751 0.63228327035903931
0.012253900058567524 0.67709660530090332 0.68738472461700439
0.25883173942565918 0.66301041841506958 0.74236124753952026
0.79869538545608521 0.64200544357299805 0.78107792139053345
0.99376684427261353 0.64653360843658447 0.78073227405548096
0.031774856150150299 0.82767301797866821 0.48882576823234558
0.019318569451570511 0.8346017599105835 0.57470297813415527
1.1967678119617631e-06 0.8314933180809021 0.64101976156234741
0.056168604642152786 0.8140760064125061 0.68404108285903931
0.48300883173942566 0.78213393688201904 0.71611768007278442
0.79304879903793335 0.79497933387756348 0.7838512659072876
0.99851816892623901 0.82938724756240845 0.8206908106803894
0.22507539391517639 0.90869426727294922 0.50059884786605835
0.20535352826118469 0.91572004556655884 0.57266390323638916
0.10486089438199997 0.93916743993759155 0.63919860124588013
0.23626068234443665 0.93221533298492432 0.67571312189102173
0.62060713768005371 0.91869461536407471 0.70425927639007568
0.84586447477340698 0.96240842342376709 0.80292540788650513
0.9991832971572876 0.99901962280273438 0.89859199523925781
0.069038867950439453 0.058830846101045609 0.63984471559524536
0.13180157542228699 0.0059274113737046719 0.69669872522354126
0.18951325118541718 0 0.76795828342437744
0.22053024172782898 0.00038078159559518099 0.83411771059036255
0.20342634618282318 1.8669577912078239e-05 0.84560436010360718
0.45289000868797302 4.6673944780195598e-06 0.83688449859619141
0.87648040056228638 0.0072770509868860245 0.85849285125732422
0.023779101669788361 0.23101930320262909 0.60751074552536011
0.059290613979101181 0.17570307850837708 0.66008937358856201
0.11766193062067032 0.12118402868509293 0.73010623455047607
0.16953355073928833 0.066891930997371674 0.81069028377532959
0.16650927066802979 0.030062029138207436 0.84900552034378052
0.49203130602836609 0.00049293367192149162 0.85642588138580322
0.90234285593032837 0.0012257744092494249 0.88316386938095093
0.0029560762923210859 0.41649350523948669 0.58643460273742676
0.0085274344310164452 0.39715540409088135 0.645976722240448
0.03428223729133606 0.37535220384597778 0.70997446775436401
0.080236412584781647 0.34333080053329468 0.79638791084289551
0.07725130021572113 0.27024608850479126 0.86278837919235229
0.52590852975845337 0.058842439204454422 0.88743013143539429
0.9384956955909729 0.018884381279349327 0.91440039873123169
0 0.58119767904281616 0.57197582721710205
0 0.57528311014175415 0.63503062725067139
0.0020745669025927782 0.56984406709671021 0.69940513372421265
0.037653423845767975 0.56067287921905518 0.78146523237228394
0.025800742208957672 0.53141915798187256 0.8685683012008667
0.47930878400802612 0.4272896945476532 0.92169469594955444
0.95073837041854858 0.28971365094184875 0.94258564710617065
0 0.70620262622833252 0.57268154621124268
0 0.70685064792633057 0.63867175579071045
0.004289574921131134 0.70035660266876221 0.69864219427108765
0.011515478603541851 0.69174313545227051 0.76824533939361572
8.4731160313822329e-05 0.67766368389129639 0.84678739309310913
0.38619798421859741 0.64401155710220337 0.93923735618591309
0.96539890766143799 0.58980756998062134 0.96428412199020386
0.032050922513008118 0.84198844432830811 0.57617479562759399
0.01065507810562849 0.85059553384780884 0.6422886848449707
0 0.84733760356903076 0.70461279153823853
0 0.84275859594345093 0.7639237642288208
0.051361937075853348 0.81870508193969727 0.82383298873901367
0.51181930303573608 0.80048805475234985 0.91394490003585815
0.96588438749313354 0.77452188730239868 0.97229772806167603
0.18353284895420074 0.94164943695068359 0.58383607864379883
0.15307343006134033 0.94070553779602051 0.64151179790496826
0.040527388453483582 0.95575559139251709 0.70849239826202393
0.026261871680617332 0.96601778268814087 0.763194739818573
0.20489318668842316 0.95426422357559204 0.81676590442657471
0.69988656044006348 0.96918368339538574 0.8801456093788147
0.97611033916473389 0.97921454906463623 0.97318392992019653
