assets/lut/editingcorp valsky.cube
# Created by: G'MIC (https://gmic.eu)
TITLE "valsky"
# LUT size
LUT_3D_SIZE 13
# Data domain
DOMAIN_MIN 0.0 0.0 0.0
DOMAIN_MAX 1.0 1.0 1.0
# LUT data points
0.017138373106718063 0.015571295283734798 0.019054323434829712
0.068254448473453522 0.0088347494602203369 0.013328268192708492
0.13380119204521179 0.0082577578723430634 0.011987335048615932
0.1918514221906662 0.0075092539191246033 0.018368516117334366
0.2406061589717865 0.0094433054327964783 0.030590461567044258
0.29046505689620972 0.022019853815436363 0.046651817858219147
0.34976932406425476 0.041130933910608292 0.067170627415180206
0.4288918673992157 0.063633531332015991 0.088859155774116516
0.53449702262878418 0.080823056399822235 0.11140585690736771
0.66105884313583374 0.097660019993782043 0.13415291905403137
0.79721426963806152 0.11851209402084351 0.16666173934936523
0.92347812652587891 0.14770486950874329 0.22730931639671326
0.99562615156173706 0.16949033737182617 0.27889153361320496
0.023446101695299149 0.064320646226406097 0.012213179841637611
0.070019692182540894 0.057824347168207169 0.0093393661081790924
0.13143761456012726 0.050612892955541611 0.0093075018376111984
0.18739047646522522 0.040944460779428482 0.01665160246193409
0.23688438534736633 0.039022933691740036 0.029293268918991089
0.28842076659202576 0.049811523407697678 0.045366384088993073
0.34952074289321899 0.06620103120803833 0.064865320920944214
0.43031442165374756 0.084144473075866699 0.086986362934112549
0.53524112701416016 0.10011324286460876 0.10994970053434372
0.65999841690063477 0.11600477993488312 0.13280543684959412
0.79703241586685181 0.13647827506065369 0.1669556200504303
0.92264378070831299 0.16434831917285919 0.22793072462081909
0.99358731508255005 0.1858556866645813 0.2755730152130127
0.036301121115684509 0.12363610416650772 0.008624102920293808
0.077284492552280426 0.12225241214036942 0.0085025560110807419
0.13204957544803619 0.11620216816663742 0.0086510749533772469
0.18712964653968811 0.10429250448942184 0.014343651011586189
0.2380998283624649 0.097084790468215942 0.027337003499269485
0.29125076532363892 0.1005048081278801 0.046132031828165054
0.35472303628921509 0.10884134471416473 0.067757114768028259
0.4376106858253479 0.11872053146362305 0.089210554957389832
0.54316681623458862 0.13147345185279846 0.11080224812030792
0.66714692115783691 0.14420412480831146 0.13002713024616241
0.80110734701156616 0.15978111326694489 0.16573376953601837
0.92432838678359985 0.17986927926540375 0.22897917032241821
0.99442207813262939 0.2044176459312439 0.27696114778518677
0.056852586567401886 0.18197086453437805 0.010514921508729458
0.095167063176631927 0.18306095898151398 0.012848109938204288
0.14311525225639343 0.18170499801635742 0.014390219934284687
0.19371877610683441 0.17556138336658478 0.01746896468102932
0.24559450149536133 0.16942340135574341 0.02962016686797142
0.30226710438728333 0.16932174563407898 0.051173355430364609
0.36906123161315918 0.17312775552272797 0.07391059398651123
0.45464923977851868 0.18163491785526276 0.093964532017707825
0.56355053186416626 0.19361229240894318 0.11492200195789337
0.69129723310470581 0.20768642425537109 0.13617414236068726
0.8234366774559021 0.22111079096794128 0.17737922072410583
0.93635141849517822 0.23400813341140747 0.23757649958133698
0.99623316526412964 0.25446033477783203 0.27711889147758484
0.084199301898479462 0.24246498942375183 0.021754020825028419
0.12159386277198792 0.24651260673999786 0.025365628302097321
0.1645280122756958 0.24832405149936676 0.028001433238387108
0.21096217632293701 0.2461792528629303 0.030462257564067841
0.26464807987213135 0.24594822525978088 0.039960719645023346
0.3272688090801239 0.24875545501708984 0.058710630983114243
0.40223208069801331 0.25631707906723022 0.080714568495750427
0.49249503016471863 0.26944640278816223 0.10134696215391159
0.60298222303390503 0.28417155146598816 0.12192279845476151
0.72910165786743164 0.30234861373901367 0.14420895278453827
0.8546176552772522 0.32176440954208374 0.19137084484100342
0.95025753974914551 0.33683004975318909 0.24551887810230255
0.99660199880599976 0.34443262219429016 0.2732989490032196
0.11738619208335876 0.32062605023384094 0.039972253143787384
0.15270441770553589 0.32352212071418762 0.042966686189174652
0.19404228031635284 0.32663515210151672 0.045867830514907837
0.24130648374557495 0.3279624879360199 0.048751622438430786
0.29925650358200073 0.33505704998970032 0.0545375756919384
0.36859071254730225 0.34536704421043396 0.066082417964935303
0.45485737919807434 0.35908064246177673 0.082942843437194824
0.55580002069473267 0.37407931685447693 0.1072942242026329
0.66236233711242676 0.38655737042427063 0.13085277378559113
0.77596014738082886 0.40257585048675537 0.15827955305576324
0.88990700244903564 0.42552238702774048 0.21126893162727356
0.96512705087661743 0.44139212369918823 0.25537383556365967
0.99696964025497437 0.44364911317825317 0.27265110611915588
0.15903595089912415 0.42751139402389526 0.061386078596115112
0.19313445687294006 0.42706951498985291 0.063782200217247009
0.23715789616107941 0.43306860327720642 0.065439470112323761
0.28930124640464783 0.4396120011806488 0.068425014615058899
0.35156720876693726 0.45015150308609009 0.070775739848613739
0.4257315993309021 0.46318235993385315 0.074252739548683167
0.51842141151428223 0.47899132966995239 0.080374188721179962
0.62177163362503052 0.49199888110160828 0.098593920469284058
0.72329336404800415 0.49914324283599854 0.12855152785778046
0.82553941011428833 0.50921487808227539 0.17111028730869293
0.92273920774459839 0.52579587697982788 0.22855284810066223
0.97891891002655029 0.53711795806884766 0.26568254828453064
0.99906474351882935 0.53841876983642578 0.2792992889881134
0.21070912480354309 0.55802083015441895 0.085235193371772766
0.24754208326339722 0.55929911136627197 0.085698239505290985
0.29671746492385864 0.56884467601776123 0.087294608354568481
0.35413610935211182 0.57780665159225464 0.088889420032501221
0.42036831378936768 0.58705335855484009 0.090287737548351288
0.49635818600654602 0.59680253267288208 0.088898301124572754
0.5836106538772583 0.60698807239532471 0.086897097527980804
0.67756891250610352 0.61523652076721191 0.095669150352478027
0.77219581604003906 0.61822551488876343 0.13056996464729309
0.86436063051223755 0.62307316064834595 0.18535499274730682
0.94066864252090454 0.62939858436584473 0.23909132182598114
0.98387551307678223 0.63147199153900146 0.27400451898574829
0.9996941089630127 0.6285545825958252 0.28920412063598633
0.26783442497253418 0.6913335919380188 0.11371923983097076
0.30820575356483459 0.69615811109542847 0.11256316304206848
0.36256852746009827 0.70848947763442993 0.11225283890962601
0.42388400435447693 0.71722525358200073 0.11486908793449402
0.4913904070854187 0.72184270620346069 0.11823570728302002
0.56355994939804077 0.72434645891189575 0.11733051389455795
0.63854426145553589 0.72463476657867432 0.11436253041028976
0.71938526630401611 0.72707456350326538 0.1228463426232338
0.80386883020401001 0.72984743118286133 0.15516580641269684
0.88510483503341675 0.7314528226852417 0.20583131909370422
0.94655627012252808 0.73030948638916016 0.25339734554290771
0.98179769515991211 0.72494041919708252 0.28475725650787354
0.99861466884613037 0.71769356727600098 0.29997247457504272
0.32411482930183411 0.79929786920547485 0.15841299295425415
0.36641931533813477 0.80700927972793579 0.15519991517066956
0.42285913228988647 0.82116442918777466 0.15288622677326202
0.48358598351478577 0.8276522159576416 0.15517297387123108
0.5466536283493042 0.8257066011428833 0.15902392566204071
0.61093580722808838 0.82141745090484619 0.15938620269298553
0.67555564641952515 0.81621712446212769 0.16003584861755371
0.7455257773399353 0.81710135936737061 0.17026551067829132
0.82018715143203735 0.82205307483673096 0.1977122575044632
0.89089882373809814 0.82437187433242798 0.23825308680534363
0.94416666030883789 0.82093483209609985 0.27653911709785461
0.97702586650848389 0.81345522403717041 0.30119448900222778
0.99676352739334106 0.80589097738265991 0.31331127882003784
0.38179910182952881 0.87641537189483643 0.22086963057518005
0.42238762974739075 0.88288033008575439 0.21854768693447113
0.47269394993782043 0.89062827825546265 0.2166450023651123
0.52685421705245972 0.89273101091384888 0.21607953310012817
0.5820356011390686 0.88812172412872314 0.21595121920108795
0.63854092359542847 0.88220351934432983 0.21639202535152435
0.69742268323898315 0.87988752126693726 0.2209755927324295
0.7615591287612915 0.88536924123764038 0.23412913084030151
0.82891231775283813 0.89378422498703003 0.25791516900062561
0.89196181297302246 0.89791631698608398 0.28793877363204956
0.94089257717132568 0.89549964666366577 0.31366565823554993
0.97417038679122925 0.89017915725708008 0.32740426063537598
0.99601221084594727 0.88432168960571289 0.3336847722530365
0.44056564569473267 0.92710059881210327 0.2956143319606781
0.47618097066879272 0.9289129376411438 0.29484671354293823
0.51714634895324707 0.92890602350234985 0.29390382766723633
0.56217330694198608 0.92746001482009888 0.29080584645271301
0.60923308134078979 0.92380160093307495 0.28775885701179504
0.65894955396652222 0.92111414670944214 0.28861743211746216
0.71457648277282715 0.92601335048675537 0.29620110988616943
0.77525228261947632 0.93757927417755127 0.31243208050727844
0.83728164434432983 0.94810283184051514 0.33472391963005066
0.89429676532745361 0.9527512788772583 0.35544666647911072
0.94076496362686157 0.95208007097244263 0.36444851756095886
0.97527080774307251 0.9495200514793396 0.36343520879745483
0.99819248914718628 0.94722038507461548 0.36277610063552856
0.49707874655723572 0.96157646179199219 0.36977881193161011
0.52783489227294922 0.95991915464401245 0.37116968631744385
0.56131184101104736 0.95616483688354492 0.37144896388053894
0.59895980358123779 0.95349609851837158 0.36822488903999329
0.63945925235748291 0.9522559642791748 0.36507353186607361
0.68407756090164185 0.95336377620697021 0.36755627393722534
0.7358134388923645 0.96304666996002197 0.37743237614631653
0.79228192567825317 0.97749876976013184 0.39419525861740112
0.84860700368881226 0.98828017711639404 0.41320639848709106
0.9009518027305603 0.99213272333145142 0.42670363187789917
0.94517815113067627 0.99292761087417603 0.42181158065795898
0.98157185316085815 0.9928433895111084 0.40743982791900635
0.99980378150939941 0.99366295337677002 0.40077561140060425
0.0046642976813018322 0.012985169887542725 0.064202584326267242
0.042624067515134811 0.010025458410382271 0.059554304927587509
0.10598768293857574 0.0074604707770049572 0.052764367312192917
0.17404510080814362 0.0052198972553014755 0.051461972296237946
0.23116664588451385 0.0070306067354977131 0.058457918465137482
0.28456377983093262 0.018802089616656303 0.072124257683753967
0.34681195020675659 0.039143625646829605 0.089697591960430145
0.42725148797035217 0.062952481210231781 0.10964211821556091
0.53093200922012329 0.082511290907859802 0.13299684226512909
0.65647578239440918 0.098317541182041168 0.15425297617912292
0.79432839155197144 0.11944402009248734 0.18796390295028687
0.92000806331634521 0.14841026067733765 0.25426670908927917
0.99326413869857788 0.16996249556541443 0.30889227986335754
0.0092653762549161911 0.059342224150896072 0.056615311652421951
0.046770673245191574 0.055212326347827911 0.055037599056959152
0.11132604628801346 0.045241367071866989 0.047477137297391891
0.17742034792900085 0.036795567721128464 0.047318447381258011
0.23180890083312988 0.034355297684669495 0.056385308504104614
0.28467124700546265 0.043476719409227371 0.070513859391212463
0.34670129418373108 0.0619850754737854 0.08737984299659729
0.42791497707366943 0.08368276059627533 0.10716500133275986
0.53273117542266846 0.10099615901708603 0.13159216940402985
0.65863156318664551 0.11615374684333801 0.15413801372051239
0.79615509510040283 0.13766372203826904 0.18603681027889252
0.91734826564788818 0.16436204314231873 0.25007027387619019
0.98900038003921509 0.18419814109802246 0.30126714706420898
0.019708491861820221 0.11911831796169281 0.047376967966556549
0.055462241172790527 0.11463352292776108 0.04857286810874939
0.11635193228721619 0.10777312517166138 0.041616432368755341
0.18251378834247589 0.10208248347043991 0.041378874331712723
0.23758785426616669 0.09391600638628006 0.052265435457229614
0.29093089699745178 0.096099480986595154 0.069467730820178986
0.3526950478553772 0.10656726360321045 0.08867703378200531
0.43469884991645813 0.11926858872175217 0.11058535426855087
0.54195070266723633 0.12995791435241699 0.13638661801815033
0.66926145553588867 0.14207112789154053 0.15638582408428192
0.80499708652496338 0.15870827436447144 0.18781431019306183
0.92403984069824219 0.17919401824474335 0.25089016556739807
0.99311774969100952 0.20150144398212433 0.30147972702980042
0.040201030671596527 0.1764771044254303 0.039702203124761581
0.076191022992134094 0.17404186725616455 0.043502073734998703
0.12850271165370941 0.17349614202976227 0.042123995721340179
0.18762843310832977 0.17332723736763 0.041475377976894379
0.2456023097038269 0.16840165853500366 0.05148029699921608
0.30378326773643494 0.16781577467918396 0.071597203612327576
0.36904698610305786 0.17286437749862671 0.093731150031089783
0.45377752184867859 0.18305835127830505 0.11417273432016373
0.5646093487739563 0.19152906537055969 0.14079956710338593
0.69416415691375732 0.20348404347896576 0.16267253458499908
0.82897955179214478 0.21455840766429901 0.20100967586040497
0.93898588418960571 0.22767022252082825 0.25707030296325684
0.99571287631988525 0.24792741239070892 0.29499852657318115
0.06766384094953537 0.23436515033245087 0.042507454752922058
0.10505738854408264 0.23653732240200043 0.047355875372886658
0.15176790952682495 0.23936612904071808 0.050464645028114319
0.20369304716587067 0.24120070040225983 0.051926184445619583
0.26303490996360779 0.24409006536006927 0.060282643884420395
0.32833889126777649 0.24690873920917511 0.078579306602478027
0.40248215198516846 0.25484168529510498 0.10015293210744858
0.49381840229034424 0.26897725462913513 0.12114939838647842
0.60550755262374878 0.28279000520706177 0.14501185715198517
0.73167926073074341 0.30041980743408203 0.16734585165977478
0.8594173789024353 0.31646865606307983 0.21283486485481262
0.95380705595016479 0.32868015766143799 0.26367014646530151
0.9966924786567688 0.33688437938690186 0.28648486733436584
0.10258935391902924 0.30982914566993713 0.05840594694018364
0.13909076154232025 0.31225311756134033 0.060915645211935043
0.18369662761688232 0.31779497861862183 0.064971461892127991
0.23625229299068451 0.32421788573265076 0.06896749883890152
0.2993520200252533 0.33426034450531006 0.075728185474872589
0.37022191286087036 0.3450065553188324 0.086574405431747437
0.45555269718170166 0.35892471671104431 0.10054285079240799
0.55435299873352051 0.37313711643218994 0.12252095341682434
0.66209477186203003 0.38539302349090576 0.15107925236225128
0.77782618999481201 0.40209105610847473 0.18133717775344849
0.89210742712020874 0.42284253239631653 0.2318737804889679
0.96865266561508179 0.43792685866355896 0.27481237053871155
0.99780029058456421 0.44146138429641724 0.28749123215675354
0.14757819473743439 0.41497251391410828 0.084903523325920105
0.18479759991168976 0.41814625263214111 0.083955071866512299
0.23012052476406097 0.42602813243865967 0.086488641798496246
0.28372624516487122 0.43407917022705078 0.091601431369781494
0.35020333528518677 0.44765341281890869 0.095924332737922668
0.42802929878234863 0.46373870968818665 0.097367860376834869
0.51995503902435303 0.48062708973884583 0.098214030265808105
0.62010341882705688 0.49174797534942627 0.11384958028793335
0.72003161907196045 0.49618318676948547 0.14953094720840454
0.82410639524459839 0.50789344310760498 0.19406504929065704
0.91999506950378418 0.52526688575744629 0.24687638878822327
0.97843021154403687 0.53683984279632568 0.28309619426727295
0.99915629625320435 0.53825479745864868 0.29432427883148193
0.20053118467330933 0.54538613557815552 0.11446429789066315
0.24141216278076172 0.55262595415115356 0.1110042929649353
0.29049199819564819 0.56330543756484985 0.11163822561502457
0.34597927331924438 0.57011419534683228 0.11672694236040115
0.41518634557723999 0.58190459012985229 0.12065698951482773
0.49620044231414795 0.59615075588226318 0.11831267178058624
0.58440279960632324 0.60794639587402344 0.11274536699056625
0.67541897296905518 0.61443126201629639 0.12134569883346558
0.76751351356506348 0.61539727449417114 0.15734387934207916
0.85959523916244507 0.62102794647216797 0.20828336477279663
0.93674808740615845 0.62922912836074829 0.25802254676818848
0.98169994354248047 0.63091349601745605 0.29064846038818359
0.99891549348831177 0.62681287527084351 0.3035130500793457
0.25454992055892944 0.67846733331680298 0.14569006860256195
0.29693639278411865 0.68627619743347168 0.14125427603721619
0.35156583786010742 0.69928264617919922 0.14100536704063416
0.41418561339378357 0.7089458703994751 0.14564166963100433
0.4861970841884613 0.71827632188796997 0.15047977864742279
0.56261873245239258 0.72422868013381958 0.14973302185535431
0.63754564523696899 0.72435587644577026 0.14522330462932587
0.71549487113952637 0.72664231061935425 0.15158860385417938
0.79852408170700073 0.730327308177948 0.18307332694530487
0.88006627559661865 0.73204237222671509 0.23084203898906708
0.94345581531524658 0.73021262884140015 0.27506235241889954
0.97990155220031738 0.72283637523651123 0.30320075154304504
0.99738830327987671 0.71386462450027466 0.31455448269844055
0.30896642804145813 0.79296743869781494 0.18677660822868347
0.35112783312797546 0.79839468002319336 0.1837601363658905
0.40912756323814392 0.81144791841506958 0.18337693810462952
0.4734627902507782 0.82065451145172119 0.18628624081611633
0.54158800840377808 0.8239891529083252 0.18908856809139252
0.60836291313171387 0.82088255882263184 0.18804998695850372
0.67117869853973389 0.81296944618225098 0.18588650226593018
0.73957973718643188 0.81399410963058472 0.19508664309978485
0.81564980745315552 0.82283037900924683 0.22452013194561005
0.88905191421508789 0.82768881320953369 0.2657831609249115
0.94461727142333984 0.82295221090316772 0.30188670754432678
0.97660201787948608 0.81195968389511108 0.32282865047454834
0.99553894996643066 0.80192548036575317 0.33002248406410217
0.36870497465133667 0.87838780879974365 0.24531152844429016
0.40953230857849121 0.88125354051589966 0.24446365237236023
0.46131294965744019 0.88725453615188599 0.24413974583148956
0.51842433214187622 0.89035654067993164 0.24278505146503448
0.57611960172653198 0.88705503940582275 0.24039021134376526
0.63284134864807129 0.87977224588394165 0.23829385638237
0.69047564268112183 0.87467086315155029 0.24068208038806915
0.75455272197723389 0.8801497220993042 0.25489404797554016
0.82560372352600098 0.89385050535202026 0.28342810273170471
0.89263343811035156 0.90267312526702881 0.31579345464706421
0.94278097152709961 0.90023899078369141 0.33893978595733643
0.97505789995193481 0.89132940769195557 0.34896785020828247
0.99550807476043701 0.88307875394821167 0.3515726625919342
0.43088942766189575 0.93201661109924316 0.3164374828338623
0.46692168712615967 0.9315909743309021 0.3171793520450592
0.50935149192810059 0.93087214231491089 0.31659480929374695
0.55570805072784424 0.92834079265594482 0.31261363625526428
0.60375642776489258 0.92335116863250732 0.30654251575469971
0.65378004312515259 0.91895401477813721 0.30534830689430237
0.70872217416763306 0.92199230194091797 0.31428411602973938
0.76986467838287354 0.93436843156814575 0.33324015140533447
0.83457773923873901 0.94836699962615967 0.35803672671318054
0.89436554908752441 0.95647752285003662 0.3784911036491394
0.94232189655303955 0.95631057024002075 0.38428643345832825
0.97525423765182495 0.95234817266464233 0.38085320591926575
0.99744021892547607 0.94947868585586548 0.37982746958732605
0.49106210470199585 0.96557819843292236 0.38986188173294067
0.52234917879104614 0.96270227432250977 0.39152088761329651
0.5564606785774231 0.95815742015838623 0.39119777083396912
0.59419506788253784 0.95446610450744629 0.38748279213905334
0.63538068532943726 0.9517931342124939 0.3837837278842926
0.68059623241424561 0.95247906446456909 0.38548889756202698
0.73187708854675293 0.96126312017440796 0.39730265736579895
0.78837960958480835 0.97592341899871826 0.41642990708351135
0.84610730409622192 0.988200843334198 0.43577632308006287
0.89957797527313232 0.99303394556045532 0.4447748064994812
0.94433838129043579 0.99392795562744141 0.43577668070793152
0.97959750890731812 0.99384862184524536 0.4201626181602478
0.99949073791503906 0.99496060609817505 0.41654267907142639
0.003084713825955987 0.0093269497156143188 0.11625780910253525
0.02321542426943779 0.0099921878427267075 0.11490997672080994
0.066089272499084473 0.0089548444375395775 0.10750796645879745
0.13817796111106873 0.0070113535039126873 0.09905669093132019
0.20746320486068726 0.007908959873020649 0.098667770624160767
0.27023446559906006 0.016558403149247169 0.10742628574371338
0.33919468522071838 0.035857420414686203 0.12233128398656845
0.421021968126297 0.060381375253200531 0.14323408901691437
0.52311486005783081 0.080789826810359955 0.16739670932292938
0.64866447448730469 0.096352040767669678 0.18634794652462006
0.78835916519165039 0.11846400052309036 0.22149387001991272
0.91696286201477051 0.14898550510406494 0.2918088436126709
0.99419122934341431 0.17205213010311127 0.35479351878166199
0.0065606208518147469 0.055252585560083389 0.116834856569767
0.02612457238137722 0.054746050387620926 0.11820939183235168
0.071216419339179993 0.044794373214244843 0.10806819051504135
0.14153307676315308 0.037211969494819641 0.098935551941394806
0.20830813050270081 0.033736672252416611 0.098685994744300842
0.27041235566139221 0.037766609340906143 0.10723040997982025
0.33751234412193298 0.055921413004398346 0.12215971201658249
0.41957023739814758 0.079755403101444244 0.1417614221572876
0.52471649646759033 0.098443932831287384 0.16498552262783051
0.65207338333129883 0.11435087770223618 0.18575519323348999
0.79218858480453491 0.13768725097179413 0.22354614734649658
0.92195171117782593 0.16832615435123444 0.29756152629852295
0.99496674537658691 0.18840417265892029 0.35564970970153809
0.0094372918829321861 0.11651675403118134 0.11191482841968536
0.032118763774633408 0.11103080213069916 0.1136912927031517
0.078075170516967773 0.099300548434257507 0.10503377020359039
0.14944519102573395 0.093484289944171906 0.096851453185081482
0.21726438403129578 0.088676825165748596 0.097195707261562347
0.27766185998916626 0.088568158447742462 0.10669455677270889
0.3432270884513855 0.098993368446826935 0.12270905822515488
0.42619568109512329 0.11321167647838593 0.14427602291107178
0.53490382432937622 0.12581440806388855 0.17002911865711212
0.6631891131401062 0.13947190344333649 0.19014944136142731
0.80007654428482056 0.15834477543830872 0.22431313991546631
0.92573195695877075 0.18032632768154144 0.29436531662940979
0.99549651145935059 0.20075209438800812 0.34866604208946228
0.02332712896168232 0.17256103456020355 0.095885664224624634
0.050789926201105118 0.16571643948554993 0.098890967667102814
0.097279630601406097 0.15810614824295044 0.097276903688907623
0.16233223676681519 0.158363938331604 0.093247599899768829
0.22933152318000793 0.16056682169437408 0.095122091472148895
0.29299914836883545 0.16282199323177338 0.10683298856019974
0.3614923357963562 0.16908903419971466 0.12426245957612991
0.4477393627166748 0.17826318740844727 0.14466550946235657
0.55963927507400513 0.18701659142971039 0.17064960300922394
0.68855369091033936 0.20073884725570679 0.1905568540096283
0.82250773906707764 0.21242168545722961 0.2295880913734436
0.93629008531570435 0.22098700702190399 0.29182860255241394
0.99583452939987183 0.23854212462902069 0.33202937245368958
0.046873308718204498 0.22632047533988953 0.08540324866771698
0.077114462852478027 0.22145576775074005 0.087529651820659637
0.12254979461431503 0.2193404883146286 0.090601794421672821
0.18080361187458038 0.22568224370479584 0.093801550567150116
0.2461366206407547 0.23534779250621796 0.099808007478713989
