assets/lut/editingcorp vita.cube
# Created by: G'MIC (https://gmic.eu)
TITLE "vita"
# LUT size
LUT_3D_SIZE 5
# Data domain
DOMAIN_MIN 0.0 0.0 0.0
DOMAIN_MAX 1.0 1.0 1.0
# LUT data points
0.0016166686546057463 0.0035652909427881241 0.0229784045368433
0.21860033273696899 0.003478076308965683 0.026694219559431076
0.59611213207244873 0.035225316882133484 0.065940454602241516
0.76264393329620361 0.03698260709643364 0.074143290519714355
0.85309886932373047 0.026869231835007668 0.056351307779550552
0.0061121773906052113 0.2156635969877243 0.044306032359600067
0.19775570929050446 0.20935148000717163 0.047737076878547668
0.58580523729324341 0.22649960219860077 0.079830393195152283
0.7775837779045105 0.23105883598327637 0.096736147999763489
0.86903393268585205 0.21888278424739838 0.089291557669639587
0.034161556512117386 0.5210186243057251 0.084315329790115356
0.18228815495967865 0.52464151382446289 0.086169376969337463
0.56180059909820557 0.52182728052139282 0.096263870596885681
0.80147790908813477 0.51476520299911499 0.12046845257282257
0.89806270599365234 0.49398359656333923 0.12263789772987366
0.092930875718593597 0.78190368413925171 0.14270228147506714
0.21826741099357605 0.77775692939758301 0.14013443887233734
0.51894122362136841 0.78770631551742554 0.14113479852676392
0.8109632134437561 0.7696729302406311 0.15838491916656494
0.9236336350440979 0.74860525131225586 0.15886209905147552
0.097656413912773132 0.91623270511627197 0.15895465016365051
0.20008562505245209 0.89903157949447632 0.16148379445075989
0.4514736533164978 0.90434491634368896 0.16327986121177673
0.77617472410202026 0.91916161775588989 0.17602977156639099
0.93176299333572388 0.93108785152435303 0.18662752211093903
0 0.0078840367496013641 0.20724661648273468
0.22111387550830841 0.0035977980587631464 0.20748782157897949
0.58979213237762451 0.01579691655933857 0.19831229746341705
0.77567118406295776 0.019240465015172958 0.19721005856990814
0.86043465137481689 0.026873763650655746 0.18828605115413666
0.0046850764192640781 0.20686188340187073 0.20266418159008026
0.18422700464725494 0.20639878511428833 0.19744294881820679
0.58511000871658325 0.22325189411640167 0.19819948077201843
0.78423893451690674 0.22156962752342224 0.20342567563056946
0.87379050254821777 0.22781503200531006 0.20386633276939392
0.022086348384618759 0.51586967706680298 0.1970074325799942
0.17520259320735931 0.51791638135910034 0.19703333079814911
0.56627702713012695 0.53379088640213013 0.19806084036827087
0.80298936367034912 0.51866000890731812 0.21390672028064728
0.9002004861831665 0.51057440042495728 0.22743108868598938
0.081323511898517609 0.77054935693740845 0.22567251324653625
0.19523428380489349 0.77065575122833252 0.23089613020420074
0.51223218441009521 0.78797644376754761 0.23151321709156036
0.80661267042160034 0.77223539352416992 0.25162544846534729
0.92178398370742798 0.75348025560379028 0.25547328591346741
0.10974284261465073 0.89978551864624023 0.24973320960998535
0.21074709296226501 0.89337259531021118 0.25214138627052307
0.45951661467552185 0.90895074605941772 0.25731915235519409
0.77629172801971436 0.92386966943740845 0.27531042695045471
0.93701660633087158 0.9310232400894165 0.28847518563270569
0.0029668621718883514 0.0062573449686169624 0.47047680616378784
0.21801964938640594 0.0042309029959142208 0.47204753756523132
0.56880074739456177 0.022787416353821754 0.46191447973251343
0.75535225868225098 0.014718298800289631 0.44937130808830261
0.85822683572769165 0.037763588130474091 0.43808102607727051
0.0095956837758421898 0.2183973640203476 0.47752287983894348
0.1777472048997879 0.21687458455562592 0.47469612956047058
0.56487822532653809 0.22955827414989471 0.46618372201919556
0.78819769620895386 0.22538907825946808 0.44002571702003479
0.87880021333694458 0.22844061255455017 0.42491981387138367
0.022199070081114769 0.51950246095657349 0.4539203941822052
0.14270448684692383 0.51968145370483398 0.45264124870300293
0.54525816440582275 0.54868346452713013 0.46900126338005066
0.80786019563674927 0.54690510034561157 0.47619304060935974
0.90113621950149536 0.53135353326797485 0.45833125710487366
0.071384802460670471 0.77098649740219116 0.42803338170051575
0.19275178015232086 0.76743412017822266 0.41923046112060547
0.50107598304748535 0.78478139638900757 0.43791025876998901
0.80163383483886719 0.78532648086547852 0.44955748319625854
0.9217262864112854 0.76858985424041748 0.45153260231018066
0.09758497029542923 0.88982385396957397 0.40021544694900513
0.20082868635654449 0.89402395486831665 0.40492302179336548
0.46780356764793396 0.90632981061935425 0.41440275311470032
0.78506481647491455 0.92368465662002563 0.42627280950546265
0.93602144718170166 0.93250095844268799 0.44333294034004211
0.026346363127231598 0.0052696079947054386 0.69297617673873901
0.22367452085018158 0.0086063314229249954 0.70407551527023315
0.55975598096847534 0.038403797894716263 0.70549404621124268
0.7521127462387085 0.030950538814067841 0.71145182847976685
0.85197484493255615 0.058260165154933929 0.70613843202590942
0.017255879938602448 0.2253715991973877 0.72109043598175049
0.18142306804656982 0.22690147161483765 0.73559188842773438
0.54152339696884155 0.23571796715259552 0.73653942346572876
0.77067011594772339 0.22830830514431 0.72487020492553711
0.86978846788406372 0.22935217618942261 0.70827805995941162
0.035206813365221024 0.52115064859390259 0.74292731285095215
0.16816918551921844 0.52494966983795166 0.74729740619659424
0.51104116439819336 0.54864734411239624 0.75405234098434448
0.79179650545120239 0.55507022142410278 0.74741315841674805
0.89681261777877808 0.54356813430786133 0.73454779386520386
0.081189744174480438 0.76963883638381958 0.73609262704849243
0.19024427235126495 0.76969724893569946 0.7278900146484375
0.46800962090492249 0.77980136871337891 0.73264998197555542
0.80273878574371338 0.80265551805496216 0.75420880317687988
0.92603969573974609 0.80273836851119995 0.75527662038803101
0.10235561430454254 0.89638787508010864 0.69340771436691284
0.20583640038967133 0.89438480138778687 0.69133293628692627
0.44747152924537659 0.9090006947517395 0.69982385635375977
0.78396880626678467 0.93537753820419312 0.72784751653671265
0.93648004531860352 0.93914306163787842 0.73168635368347168
0.02352721244096756 0.008169989101588726 0.80722999572753906
0.20092782378196716 0.016058379784226418 0.80876380205154419
0.54353833198547363 0.031824719160795212 0.81762194633483887
0.75710076093673706 0.020589940249919891 0.81678682565689087
0.85419631004333496 0.030037015676498413 0.82801192998886108
0.027033936232328415 0.22223705053329468 0.8294491171836853
0.18148556351661682 0.21783168613910675 0.83127623796463013
0.51896947622299194 0.23076188564300537 0.83767902851104736
0.76618260145187378 0.23436363041400909 0.8400765061378479
0.86706477403640747 0.23636494576931 0.85098594427108765
0.042425043880939484 0.51431453227996826 0.85630279779434204
0.17249137163162231 0.51837700605392456 0.85568606853485107
0.51001274585723877 0.54744559526443481 0.87416094541549683
0.78120934963226318 0.55014240741729736 0.88127595186233521
0.89333683252334595 0.54105156660079956 0.89061892032623291
0.085920907557010651 0.76880472898483276 0.88360059261322021
0.20009757578372955 0.76575624942779541 0.88709801435470581
0.46234801411628723 0.77916496992111206 0.89641714096069336
0.79122275114059448 0.80392444133758545 0.91767561435699463
0.92455661296844482 0.80775940418243408 0.92609119415283203
0.1095588207244873 0.89886963367462158 0.89307790994644165
0.22448606789112091 0.90603929758071899 0.89327836036682129
0.43194222450256348 0.91474682092666626 0.90742772817611694
0.76740860939025879 0.9421161413192749 0.92660856246948242
0.94683456420898438 0.95406299829483032 0.92930102348327637
