assets/lut/editingcorp cosa.cube
# Created by: G'MIC (https://gmic.eu)
TITLE "cosa"
# LUT size
LUT_3D_SIZE 13
# Data domain
DOMAIN_MIN 0.0 0.0 0.0
DOMAIN_MAX 1.0 1.0 1.0
# LUT data points
0.010847323574125767 0.015169884078204632 0.012901141308248043
0.068962976336479187 0.011223438195884228 0.011832697317004204
0.16186970472335815 0.015861362218856812 0.015703283250331879
0.2668575644493103 0.022282006219029427 0.015718931332230568
0.37156474590301514 0.02237153984606266 0.010447288863360882
0.47346782684326172 0.021644921973347664 0.0060467291623353958
0.57324844598770142 0.028467470780014992 0.0075269662775099277
0.65899252891540527 0.034679755568504333 0.0085348691791296005
0.71522641181945801 0.026697615161538124 0.0026110331527888775
0.74770474433898926 0.01400445681065321 0.00050030875718221068
0.76864141225814819 0.0069126952439546585 4.9546186346560717e-05
0.78650283813476562 0.0045343139208853245 0
0.80592256784439087 0.0047093410976231098 0
0.015940004959702492 0.067647643387317657 0.012932482175529003
0.066967815160751343 0.061576168984174728 0.014273968525230885
0.15123189985752106 0.064102083444595337 0.016165774315595627
0.25509464740753174 0.067291021347045898 0.014818348921835423
0.36179211735725403 0.064812079071998596 0.010783655568957329
0.46481665968894958 0.059267021715641022 0.0099875358864665031
0.56530481576919556 0.06174856424331665 0.013278527185320854
0.65271377563476562 0.066559672355651855 0.014514070004224777
0.71331381797790527 0.060589253902435303 0.010575971566140652
0.74946820735931396 0.049335062503814697 0.0058562187477946281
0.77269119024276733 0.042339835315942764 0.0027041416615247726
0.79215162992477417 0.040378987789154053 0.0012163498904556036
0.81323355436325073 0.04261467233300209 0.000964116130489856
0.019306138157844543 0.14208585023880005 0.0083281723782420158
0.061330921947956085 0.13797147572040558 0.010852948762476444
0.13850808143615723 0.13583163917064667 0.015188823454082012
0.24330361187458038 0.13430549204349518 0.015573883429169655
0.35425767302513123 0.13001459836959839 0.013592155650258064
0.4611460268497467 0.12432876229286194 0.015543963760137558
0.56338763236999512 0.1223137229681015 0.020715048536658287
0.65249156951904297 0.12163884937763214 0.024319414049386978
0.71701502799987793 0.11332754790782928 0.024556403979659081
0.75689220428466797 0.10092836618423462 0.021474560722708702
0.78268253803253174 0.095442421734333038 0.01530882902443409
0.80382496118545532 0.094574660062789917 0.011514970101416111
0.82492208480834961 0.097303144633769989 0.011189030483365059
0.025534685701131821 0.22984586656093597 0.0064103966578841209
0.063394077122211456 0.2269427478313446 0.008562813512980938
0.13220216333866119 0.2247520387172699 0.014862164855003357
0.23280130326747894 0.22222869098186493 0.020573664456605911
0.34758394956588745 0.21905829012393951 0.024247996509075165
0.46129369735717773 0.2152179628610611 0.028318697586655617
0.56789875030517578 0.21111910045146942 0.033211860805749893
0.66150057315826416 0.2058117538690567 0.037929549813270569
0.7324899435043335 0.19620606303215027 0.039818514138460159
0.77740567922592163 0.18368223309516907 0.038555160164833069
0.80413186550140381 0.17577052116394043 0.03442738950252533
0.82339000701904297 0.17206776142120361 0.032639447599649429
0.84228461980819702 0.17239595949649811 0.033037535846233368
0.037895683199167252 0.32443657517433167 0.007364609744399786
0.070217669010162354 0.32269167900085449 0.012196349911391735
0.12817998230457306 0.32232362031936646 0.021275375038385391
0.22170668840408325 0.32200518250465393 0.033313047140836716
0.34062990546226501 0.32176598906517029 0.045183818787336349
0.46140873432159424 0.32003054022789001 0.051972616463899612
0.57376444339752197 0.31604215502738953 0.055668625980615616
0.67413789033889771 0.30979657173156738 0.058123793452978134
0.75481975078582764 0.3010823130607605 0.057652253657579422
0.80666011571884155 0.28921574354171753 0.057178869843482971
0.8327677845954895 0.27817854285240173 0.05456605926156044
0.84880095720291138 0.27121558785438538 0.054903469979763031
0.86611801385879517 0.26744410395622253 0.05558471754193306
0.055327411741018295 0.42301589250564575 0.017895806580781937
0.082237750291824341 0.42230105400085449 0.026124946773052216
0.12811185419559479 0.42258000373840332 0.036014348268508911
0.21174244582653046 0.42469507455825806 0.05160917341709137
0.33149749040603638 0.42766866087913513 0.069547228515148163
0.4565855860710144 0.42911693453788757 0.080948911607265472
0.57438009977340698 0.42711964249610901 0.085391685366630554
0.68229579925537109 0.42006358504295349 0.085209988057613373
0.77231454849243164 0.4092613160610199 0.081761457026004791
0.83244895935058594 0.39651346206665039 0.078214816749095917
0.86158019304275513 0.386322021484375 0.077549293637275696
0.87625592947006226 0.3792167603969574 0.078077487647533417
0.89162373542785645 0.37151464819908142 0.077105112373828888
0.07548096776008606 0.52288758754730225 0.038779418915510178
0.099764443933963776 0.52194958925247192 0.049158476293087006
0.13580922782421112 0.52163338661193848 0.056832704693078995
0.20521348714828491 0.5239989161491394 0.068174861371517181
0.31431835889816284 0.52976715564727783 0.086044952273368835
0.44014695286750793 0.53564119338989258 0.10245817899703979
0.56462806463241577 0.53678339719772339 0.11256930977106094
0.68054300546646118 0.52940875291824341 0.11338125169277191
0.78011101484298706 0.51490741968154907 0.10765614360570908
0.85082602500915527 0.49945265054702759 0.10257765650749207
0.88745296001434326 0.48991400003433228 0.10114248096942902
0.90457499027252197 0.48287680745124817 0.10026930272579193
0.9187285304069519 0.47370132803916931 0.097157329320907593
0.093855977058410645 0.62167274951934814 0.061932940036058426
0.11718304455280304 0.62024712562561035 0.071914300322532654
0.14534954726696014 0.6183469295501709 0.075918875634670258
0.19910250604152679 0.61913836002349854 0.081392265856266022
0.29485586285591125 0.6268349289894104 0.096206381916999817
0.41699603199958801 0.63614761829376221 0.11408498138189316
0.54491716623306274 0.64013189077377319 0.12764717638492584
0.66714143753051758 0.6339486837387085 0.13196788728237152
0.77503842115402222 0.61943060159683228 0.12939010560512543
0.85722619295120239 0.60288572311401367 0.12617328763008118
0.90574020147323608 0.59092479944229126 0.12389320135116577
0.92960941791534424 0.58172702789306641 0.1204458475112915
0.94304633140563965 0.57225996255874634 0.11546251177787781
0.10543131828308105 0.71238702535629272 0.080656178295612335
0.13001586496829987 0.71211820840835571 0.088216207921504974
0.15635956823825836 0.70985543727874756 0.090939708054065704
0.20092906057834625 0.71045279502868652 0.094772711396217346
0.28265884518623352 0.71788591146469116 0.10620390623807907
0.39485016465187073 0.7281995415687561 0.12118745595216751
0.5199924111366272 0.73373168706893921 0.13336612284183502
0.64474576711654663 0.72992837429046631 0.14032906293869019
0.75874924659729004 0.71891945600509644 0.14250671863555908
0.85189688205718994 0.70498859882354736 0.14274758100509644
0.91410660743713379 0.69210362434387207 0.14157475531101227
0.9456784725189209 0.68147867918014526 0.13768598437309265
0.96069455146789551 0.67109322547912598 0.13257575035095215
0.11009775847196579 0.78558021783828735 0.092878751456737518
0.13813567161560059 0.78771346807479858 0.099517121911048889
0.16672179102897644 0.78789567947387695 0.10288947820663452
0.20658783614635468 0.78882956504821777 0.10728029906749725
0.27501082420349121 0.79499399662017822 0.11606112867593765
0.37481123208999634 0.80501288175582886 0.12675602734088898
0.49420931935310364 0.81150585412979126 0.13602973520755768
0.61756032705307007 0.81020641326904297 0.14327745139598846
0.735221266746521 0.80542838573455811 0.1479564905166626
0.83931726217269897 0.79773229360580444 0.15072014927864075
0.91484552621841431 0.78733068704605103 0.15185539424419403
0.9535452127456665 0.77720886468887329 0.15114077925682068
0.97035932540893555 0.76774841547012329 0.14798417687416077
0.10899130254983902 0.83593279123306274 0.096731700003147125
0.13797678053379059 0.84002214670181274 0.10445990413427353
0.16664570569992065 0.8423607349395752 0.10916664451360703
0.20323196053504944 0.84450834989547729 0.11423670500516891
0.26313385367393494 0.84947991371154785 0.12183037400245667
0.35449588298797607 0.8572007417678833 0.13044612109661102
0.46891653537750244 0.86276769638061523 0.13758213818073273
0.59033292531967163 0.86549347639083862 0.14351990818977356
0.7078545093536377 0.86956608295440674 0.1492336243391037
0.81954234838485718 0.86903297901153564 0.15409766137599945
0.90853375196456909 0.86116170883178711 0.15897031128406525
0.95523691177368164 0.85391414165496826 0.16220435500144958
0.97468286752700806 0.84829902648925781 0.16174758970737457
0.10133793950080872 0.86914139986038208 0.093389429152011871
0.12930375337600708 0.87350738048553467 0.10233624279499054
0.15637911856174469 0.87670272588729858 0.10827580094337463
0.19089196622371674 0.87943863868713379 0.11436505615711212
0.24653606116771698 0.88315427303314209 0.12227898091077805
0.333658367395401 0.88825702667236328 0.13103774189949036
0.44639277458190918 0.8919793963432312 0.13728371262550354
0.56853079795837402 0.89653497934341431 0.14228995144367218
0.68524527549743652 0.90748369693756104 0.14871902763843536
0.79816985130310059 0.91214096546173096 0.15673735737800598
0.89468622207641602 0.90654247999191284 0.16549751162528992
0.95178437232971191 0.90308499336242676 0.17128786444664001
0.97768604755401611 0.90191686153411865 0.17262913286685944
0.089069396257400513 0.89461219310760498 0.084578029811382294
0.11679568141698837 0.89808022975921631 0.094609566032886505
0.14411488175392151 0.90116292238235474 0.10226792097091675
0.17861625552177429 0.90358912944793701 0.10977361351251602
0.23186534643173218 0.90643668174743652 0.11866233497858047
0.31722855567932129 0.91084182262420654 0.12842243909835815
0.42841175198554993 0.91527563333511353 0.13570304214954376
0.54865133762359619 0.9213482141494751 0.14097529649734497
0.66606265306472778 0.93208056688308716 0.14798197150230408
0.77702510356903076 0.938862144947052 0.15756484866142273
0.8721926212310791 0.9385368824005127 0.16799935698509216
0.93630176782608032 0.93871134519577026 0.17547990381717682
0.97181570529937744 0.93985038995742798 0.17898412048816681
0.0049197026528418064 0.012829993851482868 0.069080665707588196
0.063985176384449005 0.014038369990885258 0.069476231932640076
0.16610205173492432 0.01503937691450119 0.071901760995388031
0.27345088124275208 0.016780508682131767 0.068607628345489502
0.37783825397491455 0.015500506386160851 0.058094128966331482
0.47937807440757751 0.013809174299240112 0.04723815992474556
0.57908380031585693 0.017714811488986015 0.046570286154747009
0.66471302509307861 0.021175878122448921 0.042196355760097504
0.72185343503952026 0.016990587115287781 0.030764201655983925
0.75338524580001831 0.01075032539665699 0.029162703081965446
0.77193087339401245 0.0071720946580171585 0.027762977406382561
0.7888110876083374 0.0070654028095304966 0.022511007264256477
0.80890285968780518 0.00867462158203125 0.019128762185573578
0.015073783695697784 0.065120220184326172 0.063973322510719299
0.065682306885719299 0.06377759575843811 0.064849123358726501
0.15607370436191559 0.064180918037891388 0.067174382507801056
0.26135039329528809 0.065959781408309937 0.064992137253284454
0.36802864074707031 0.063049241900444031 0.055673770606517792
0.47205242514610291 0.057130537927150726 0.050329588353633881
0.57299911975860596 0.05733158066868782 0.051546283066272736
0.66090625524520874 0.060386985540390015 0.049699265509843826
0.72148716449737549 0.056960027664899826 0.043320450931787491
0.75510531663894653 0.048987071961164474 0.038887564092874527
0.77477055788040161 0.043198797851800919 0.034948490560054779
0.79323142766952515 0.042299620807170868 0.031653102487325668
0.81533539295196533 0.045851059257984161 0.032162372022867203
0.019775958731770515 0.14231710135936737 0.054929185658693314
0.060002811253070831 0.14063961803913116 0.055054280906915665
0.14159312844276428 0.13873852789402008 0.06202862411737442
0.24815277755260468 0.13773691654205322 0.062791250646114349
0.35957247018814087 0.13402850925922394 0.054701007902622223
0.46794083714485168 0.12706616520881653 0.051734309643507004
0.57163053750991821 0.12263469398021698 0.05582510307431221
0.66229456663131714 0.12101999670267105 0.05833975225687027
0.72680658102035522 0.11493971943855286 0.056530386209487915
0.76324081420898438 0.10482797026634216 0.05144747719168663
0.78419250249862671 0.096886761486530304 0.045676961541175842
0.80342388153076172 0.093774698674678802 0.044198788702487946
0.82643133401870728 0.096047841012477875 0.047883905470371246
0.02733478881418705 0.23285958170890808 0.04905293881893158
0.062043014913797379 0.23162038624286652 0.051152441650629044
0.1322702169418335 0.22961346805095673 0.058349981904029846
0.23576964437961578 0.22815610468387604 0.063593633472919464
0.35258561372756958 0.22544606029987335 0.061809912323951721
0.46701449155807495 0.22009630501270294 0.059741765260696411
0.57497870922088623 0.21402347087860107 0.06286747008562088
0.67022663354873657 0.20822107791900635 0.067400358617305756
0.74147987365722656 0.19931849837303162 0.068057596683502197
0.78326934576034546 0.18723717331886292 0.064139500260353088
0.80543571710586548 0.17721894383430481 0.059537582099437714
0.82370090484619141 0.17161634564399719 0.058596771210432053
0.84443372488021851 0.17176796495914459 0.063146837055683136
0.042179509997367859 0.32805618643760681 0.045434631407260895
0.069984942674636841 0.32713055610656738 0.048951435834169388
0.12637060880661011 0.32620653510093689 0.055393293499946594
0.22301438450813293 0.32677793502807617 0.067453213036060333
0.34536886215209961 0.32733497023582458 0.078093327581882477
0.46635141968727112 0.32532611489295959 0.079514659941196442
0.57841324806213379 0.31988099217414856 0.080186285078525543
0.6797640323638916 0.31244444847106934 0.082356937229633331
0.76025629043579102 0.30242356657981873 0.081750132143497467
0.81017887592315674 0.29022893309593201 0.079238578677177429
0.83492141962051392 0.27936193346977234 0.077967807650566101
0.85059398412704468 0.27248719334602356 0.078916840255260468
0.86845117807388306 0.26948666572570801 0.081889912486076355
0.060603436082601547 0.42496159672737122 0.049454797059297562
0.08324037492275238 0.42414861917495728 0.055710498243570328
0.12674558162689209 0.42398226261138916 0.061604458838701248
0.21285180747509003 0.42670157551765442 0.076711498200893402
0.3361683189868927 0.43128800392150879 0.097631014883518219
0.46150818467140198 0.43334046006202698 0.10697405785322189
0.57800686359405518 0.43084341287612915 0.10900138318538666
0.68516606092453003 0.42296510934829712 0.10833146423101425
0.77488797903060913 0.41076767444610596 0.10363854467868805
0.83450233936309814 0.39757385849952698 0.099667161703109741
0.86385369300842285 0.38776746392250061 0.10089078545570374
0.87906384468078613 0.38144418597221375 0.10447631776332855
0.89501655101776123 0.37468123435974121 0.10500092059373856
0.080750033259391785 0.52394682168960571 0.065902784466743469
0.1034870520234108 0.52266561985015869 0.076394639909267426
0.13602748513221741 0.52153867483139038 0.080301009118556976
0.20481209456920624 0.52448803186416626 0.089642934501171112
0.3168204128742218 0.53139680624008179 0.10925396531820297
0.44384202361106873 0.53844135999679565 0.12656642496585846
0.56783962249755859 0.54043054580688477 0.13784120976924896
0.68225693702697754 0.53328001499176025 0.1392207145690918
0.78088438510894775 0.51825571060180664 0.13247039914131165
0.85113024711608887 0.5019041895866394 0.12602801620960236
0.88911980390548706 0.4912051260471344 0.12522533535957336
0.90739470720291138 0.48438400030136108 0.12646855413913727
0.92169994115829468 0.47656694054603577 0.12429723143577576
0.098964408040046692 0.62385225296020508 0.086126796901226044
0.12248712033033371 0.62174910306930542 0.097450226545333862
0.14716818928718567 0.61993420124053955 0.098551385104656219
0.19846263527870178 0.62053894996643066 0.10185535252094269
0.29436293244361877 0.62825769186019897 0.11751831322908401
0.41801732778549194 0.6382785439491272 0.13725793361663818
0.5466039776802063 0.64335638284683228 0.1534678041934967
0.66884958744049072 0.63791286945343018 0.15997447073459625
0.77631664276123047 0.62267398834228516 0.15740051865577698
0.85867774486541748 0.60430753231048584 0.15252619981765747
0.90788924694061279 0.59033060073852539 0.14921140670776367
0.93147879838943481 0.58216452598571777 0.14474128186702728
0.9457242488861084 0.57444465160369873 0.14037066698074341
0.11188085377216339 0.71826547384262085 0.10487841069698334
0.1364389955997467 0.71714252233505249 0.11148065328598022
0.16050627827644348 0.71437853574752808 0.11264533549547195
0.20118136703968048 0.71427327394485474 0.11641506105661392
0.27986931800842285 0.72119450569152832 0.12958398461341858
0.39146515727043152 0.73107218742370605 0.14665016531944275
0.51827096939086914 0.7362486720085144 0.16068588197231293
0.64451271295547485 0.73288804292678833 0.16910789906978607
0.76029729843139648 0.72152388095855713 0.17209511995315552
0.85440540313720703 0.70472317934036255 0.17200253903865814
0.91647553443908691 0.69060665369033813 0.1700846403837204
0.94822937250137329 0.68132412433624268 0.16340596973896027
0.96304833889007568 0.67303913831710815 0.15813830494880676
0.12045524269342422 0.79450637102127075 0.12006983906030655
0.14872026443481445 0.79555660486221313 0.12393908202648163
0.17538179457187653 0.79543566703796387 0.12610948085784912
0.20883332192897797 0.79521268606185913 0.13137844204902649
0.27078524231910706 0.80035644769668579 0.14347103238105774
0.36798405647277832 0.80859601497650146 0.15699440240859985
0.48864495754241943 0.81330138444900513 0.16684117913246155
0.61527162790298462 0.81316202878952026 0.17460650205612183
0.73605728149414062 0.80815029144287109 0.1801719069480896
0.84078991413116455 0.79860901832580566 0.18317426741123199
0.91508162021636963 0.78747010231018066 0.1833234578371048
0.95495897531509399 0.77738970518112183 0.18045307695865631
0.97291594743728638 0.76813465356826782 0.17715179920196533
0.12304265797138214 0.8421638011932373 0.12600937485694885
0.15190626680850983 0.84580862522125244 0.13121640682220459
0.17765538394451141 0.84867995977401733 0.13435946404933929
0.20747049152851105 0.85080760717391968 0.14072553813457489
0.26060307025909424 0.85539811849594116 0.15236702561378479
0.34776085615158081 0.86228483915328979 0.16435486078262329
0.4623812735080719 0.86743068695068359 0.17200501263141632
0.5868380069732666 0.87073427438735962 0.17820581793785095
0.70906853675842285 0.87330096960067749 0.18450063467025757
0.82107549905776978 0.87160593271255493 0.18952289223670959
0.90652275085449219 0.86446136236190796 0.19344434142112732
0.95536649227142334 0.85621649026870728 0.19495357573032379
0.97827833890914917 0.84769582748413086 0.19433382153511047
0.11776374280452728 0.87087112665176392 0.12397779524326324
0.1443677693605423 0.87473982572555542 0.13116824626922607
0.16793949902057648 0.87935906648635864 0.13553929328918457
0.19749292731285095 0.88343054056167603 0.1428162157535553
0.24836529791355133 0.88871389627456665 0.15492895245552063
0.33125951886177063 0.89483702182769775 0.16737651824951172
0.44205212593078613 0.89991378784179688 0.1746683269739151
0.5647660493850708 0.90531563758850098 0.1786789745092392
0.68604832887649536 0.91346830129623413 0.18419267237186432
0.80027502775192261 0.91752058267593384 0.1915435791015625
0.89283829927444458 0.914436936378479 0.19924311339855194
0.95025992393493652 0.90952575206756592 0.20494690537452698
0.98003822565078735 0.90448296070098877 0.20726720988750458
0.10572292655706406 0.89398950338363647 0.11502048373222351
0.13166257739067078 0.89687329530715942 0.12413162738084793
0.15589223802089691 0.90119749307632446 0.13106523454189301
0.18745419383049011 0.90604305267333984 0.13996805250644684
0.23865906894207001 0.9113534688949585 0.15317311882972717
0.31971579790115356 0.91772329807281494 0.16699002683162689
0.42715838551521301 0.92346715927124023 0.17460741102695465
0.54741585254669189 0.93004506826400757 0.17704178392887115
0.66677343845367432 0.93933135271072388 0.18184134364128113
0.77949810028076172 0.94586002826690674 0.19051815569400787
0.87283980846405029 0.94709688425064087 0.20102560520172119
0.93661588430404663 0.94626140594482422 0.21000382304191589
0.97436857223510742 0.94486361742019653 0.2155270129442215
0.0070433374494314194 0.011741263791918755 0.15222175419330597
0.072810813784599304 0.015545355156064034 0.1548951119184494
0.1772453635931015 0.01631602831184864 0.15395694971084595
0.28363505005836487 0.016036778688430786 0.14748881757259369
0.38876372575759888 0.013587936758995056 0.13742125034332275
0.49152359366416931 0.011932701803743839 0.13120409846305847
0.59071356058120728 0.013822667300701141 0.13160432875156403
0.67461806535720825 0.017253156751394272 0.11857839673757553
0.73115295171737671 0.016765788197517395 0.10192712396383286
0.76113581657409668 0.013262939639389515 0.10137013345956802
0.77874851226806641 0.010634643025696278 0.10134346038103104
0.79638433456420898 0.012309369631111622 0.09385247528553009
0.81795823574066162 0.016045499593019485 0.087488792836666107
0.018323427066206932 0.065497376024723053 0.1425914466381073
0.071692511439323425 0.066880121827125549 0.14718770980834961
0.16421465575695038 0.069917000830173492 0.15033747255802155
0.27187788486480713 0.070860922336578369 0.14527782797813416
0.37900158762931824 0.066737234592437744 0.13362963497638702
0.48343425989151001 0.060071937739849091 0.12715145945549011
0.58419322967529297 0.058662757277488708 0.12641963362693787
0.67248207330703735 0.062687471508979797 0.11969026923179626
0.73304134607315063 0.062429420650005341 0.10914359241724014
0.764110267162323 0.056168396025896072 0.10293908417224884
0.78112697601318359 0.050592370331287384 0.098716333508491516
0.80055266618728638 0.051150139421224594 0.095702826976776123
0.8252074122428894 0.056631859391927719 0.096512123942375183
0.022768313065171242 0.14892326295375824 0.1331595778465271
0.064367406070232391 0.14972800016403198 0.13736417889595032
0.15030717849731445 0.14914107322692871 0.14719349145889282
0.25912955403327942 0.14789272844791412 0.14511312544345856
0.37032029032707214 0.14348681271076202 0.13204649090766907
0.47838550806045532 0.13490591943264008 0.12373141199350357
0.58260929584503174 0.12929417192935944 0.12371525168418884
0.67553669214248657 0.12868787348270416 0.12249355018138885
0.74077028036117554 0.12499330937862396 0.11686990410089493
0.77305775880813599 0.11500007659196854 0.10702259093523026
0.78889888525009155 0.10572656244039536 0.09832242876291275
0.80932199954986572 0.10319016128778458 0.097123041749000549
0.83566689491271973 0.10731036961078644 0.10345562547445297
0.033747054636478424 0.24310325086116791 0.12584893405437469
0.068833880126476288 0.24409449100494385 0.12962782382965088
0.14056986570358276 0.24220097064971924 0.13753506541252136
0.24617636203765869 0.24065469205379486 0.14242467284202576
0.36241886019706726 0.23736661672592163 0.13596361875534058
0.47505423426628113 0.23063673079013824 0.12562806904315948
0.58353763818740845 0.22315174341201782 0.12315263599157333
0.68146109580993652 0.21766659617424011 0.12451544404029846
0.75364392995834351 0.20944273471832275 0.12202918529510498
0.79185730218887329 0.19710409641265869 0.11309453845024109
0.81020563840866089 0.18622273206710815 0.10433032363653183
0.82896071672439575 0.18109193444252014 0.10153069347143173
0.85282731056213379 0.18293629586696625 0.10768923163414001
0.050210677087306976 0.33813971281051636 0.1133817657828331
0.076872251927852631 0.33853113651275635 0.11717522144317627
0.13168010115623474 0.33781054615974426 0.12079117447137833
0.2289348691701889 0.33812782168388367 0.13220095634460449
