assets/lut/editingcorpw Silken Shadow.cube
LUT_3D_SIZE 6
DOMAIN_MIN 0.0 0.0 0.0
DOMAIN_MAX 1.0 1.0 1.0
0.173678 0.201022 0.222873
0.197580 0.208218 0.231436
0.277195 0.223667 0.247782
0.438349 0.258665 0.283085
0.654816 0.321434 0.352068
0.908598 0.424781 0.482673
0.190231 0.216983 0.240366
0.193322 0.219038 0.243336
0.332436 0.248629 0.244668
0.490033 0.284703 0.285367
0.699024 0.346586 0.357187
0.932726 0.444441 0.488740
0.240537 0.266801 0.295640
0.241994 0.267626 0.296175
0.262227 0.284132 0.319088
0.593297 0.425118 0.320677
0.865875 0.473337 0.372027
1.000000 0.533837 0.514482
0.328014 0.358276 0.400647
0.328524 0.358380 0.400236
0.345274 0.371709 0.417500
0.396587 0.420562 0.482648
0.784104 0.638559 0.558882
1.000000 0.693276 0.536327
0.473951 0.516320 0.579443
0.469537 0.511383 0.573653
0.473284 0.513260 0.574127
0.544020 0.574991 0.644484
0.634688 0.655466 0.728503
0.903508 0.832059 0.798202
0.758663 0.785916 0.830564
0.760641 0.787540 0.831742
0.765725 0.791409 0.834073
0.791592 0.810111 0.851304
0.845677 0.853214 0.891160
0.890227 0.892088 0.925414
0.186722 0.213815 0.243943
0.198975 0.212205 0.248621
0.257497 0.235845 0.271190
0.383155 0.272812 0.315543
0.603599 0.333034 0.387352
0.873216 0.439729 0.516283
0.198934 0.225437 0.251088
0.207860 0.231282 0.258450
0.281892 0.250724 0.280077
0.432733 0.289436 0.323007
0.649561 0.353826 0.395736
0.901136 0.458957 0.524993
0.255747 0.280842 0.313742
0.255976 0.280950 0.313332
0.274458 0.296236 0.333952
0.611703 0.428161 0.349450
0.827084 0.470836 0.427160
0.990532 0.545629 0.557082
0.342010 0.372068 0.418807
0.342700 0.372558 0.418860
0.353207 0.379987 0.428219
0.406999 0.431522 0.496147
0.797329 0.648028 0.579726
1.000000 0.703112 0.580803
0.490179 0.532045 0.597880
0.490911 0.532515 0.597923
0.490525 0.530567 0.593978
0.551434 0.582198 0.652116
0.644761 0.664850 0.737227
0.911683 0.840528 0.808874
0.768368 0.794095 0.838267
0.773185 0.798245 0.841594
0.773721 0.798221 0.840543
0.795622 0.813869 0.854612
0.848971 0.856291 0.893742
0.893364 0.895097 0.927709
0.225461 0.254777 0.322985
0.234370 0.254448 0.329622
0.290754 0.250128 0.348953
0.444717 0.287724 0.408473
0.529082 0.356065 0.452438
0.724697 0.463576 0.571081
0.248566 0.278771 0.335170
0.252654 0.278084 0.340985
0.295456 0.269788 0.355167
0.430820 0.309207 0.407289
0.513506 0.367889 0.452954
0.763137 0.480740 0.586235
0.280612 0.308863 0.350487
0.287626 0.314532 0.357332
0.310801 0.326761 0.375298
0.433433 0.368650 0.424317
0.651872 0.449245 0.518294
0.896561 0.566072 0.644361
0.384386 0.412716 0.473365
0.389424 0.418283 0.479627
0.384836 0.413225 0.471587
0.440631 0.466856 0.538944
0.846023 0.671715 0.641992
1.000000 0.722287 0.702470
0.539314 0.577292 0.649763
0.544810 0.582706 0.654629
0.536457 0.574110 0.644371
0.569629 0.600088 0.671134
0.675847 0.693685 0.763793
0.936066 0.861679 0.835813
0.791092 0.812796 0.856480
0.794551 0.815862 0.858818
0.794168 0.815341 0.857382
0.802537 0.821097 0.860867
0.858344 0.865229 0.901095
0.904253 0.905535 0.935625
0.316893 0.357397 0.511079
0.324155 0.356116 0.515781
0.362996 0.347902 0.534198
0.468227 0.332365 0.560651
0.699204 0.397035 0.651171
0.852121 0.533892 0.715432
0.337215 0.379912 0.516029
0.342750 0.379315 0.522231
0.372628 0.369754 0.538898
0.471493 0.353834 0.565022
0.698724 0.420839 0.654223
0.835461 0.538463 0.708154
0.385858 0.429112 0.521612
0.391730 0.434461 0.531747
0.404843 0.433929 0.551789
0.479035 0.419673 0.575600
0.696622 0.501651 0.666859
0.797139 0.575219 0.702964
0.428165 0.469472 0.544314
0.434974 0.475190 0.550819
0.448968 0.484347 0.561102
0.478118 0.493617 0.577463
0.647570 0.556780 0.640669
0.886071 0.674211 0.746982
0.599184 0.626888 0.704110
0.610462 0.637701 0.713919
0.613987 0.642081 0.716977
0.601605 0.631294 0.703942
0.713229 0.728129 0.794870
0.977694 0.888777 0.874300
0.828178 0.842832 0.885008
0.833430 0.847629 0.888740
0.838943 0.852990 0.892216
0.838091 0.852413 0.889896
0.870954 0.877780 0.911148
0.923888 0.924547 0.949645
0.501528 0.543987 0.753793
0.506819 0.543025 0.756676
0.532471 0.537875 0.768495
0.599636 0.523248 0.790170
0.724317 0.499903 0.805345
0.915843 0.587408 0.851194
0.521736 0.565446 0.757734
0.527152 0.565455 0.761599
0.547708 0.558956 0.772141
0.607122 0.542791 0.791753
0.716965 0.509650 0.799019
0.916240 0.606575 0.854137
0.579373 0.625525 0.766962
0.583052 0.626357 0.770829
0.593561 0.621324 0.780708
0.635597 0.608525 0.799517
0.734991 0.580271 0.811572
0.920280 0.673711 0.866286
0.619542 0.663683 0.759028
0.633022 0.674372 0.768381
0.648357 0.683661 0.779286
0.661527 0.679087 0.797611
0.733585 0.649152 0.808997
0.926794 0.761572 0.881906
0.667296 0.705869 0.777903
0.677617 0.714297 0.785162
0.693509 0.725343 0.794544
0.714047 0.737951 0.805117
0.729269 0.731286 0.803711
0.914539 0.827071 0.877388
0.872514 0.877037 0.915709
0.876938 0.881327 0.918900
0.884603 0.889190 0.924512
0.895212 0.900460 0.932095
0.895555 0.902138 0.931068
0.955517 0.955505 0.971356
0.776028 0.786740 0.926818
0.777487 0.785653 0.927599
0.785770 0.781796 0.931328
0.807554 0.773287 0.938634
0.855088 0.755355 0.949377
0.941680 0.742672 0.957946
0.779519 0.791965 0.925346
0.782478 0.792361 0.926898
0.789257 0.787951 0.930342
0.808463 0.778357 0.937140
0.852566 0.758103 0.947088
0.939629 0.746004 0.956451
0.808993 0.825016 0.929271
0.809777 0.824204 0.930100
0.814470 0.820903 0.933641
0.829559 0.813949 0.940820
0.867428 0.798023 0.951214
0.945629 0.784487 0.960333
0.829880 0.850529 0.924736
0.833030 0.852714 0.927086
0.842044 0.857524 0.934370
0.852447 0.855503 0.942748
0.879368 0.842992 0.953238
0.952270 0.834061 0.964520
0.865171 0.885148 0.932262
0.867673 0.886893 0.933526
0.876506 0.892784 0.937869
0.893099 0.903707 0.946204
0.913289 0.911823 0.963389
0.971228 0.913469 0.977887
0.916014 0.930114 0.955322
0.917174 0.930913 0.955871
0.924651 0.936662 0.959747
0.940526 0.949102 0.968023
0.966455 0.970080 0.981597
0.992248 0.992218 0.995209
