assets/lut/editingcorpw Dreamy Matte.cube
LUT_3D_SIZE 16
DOMAIN_MIN 0.0 0.0 0.0
DOMAIN_MAX 1.0 1.0 1.0
0.193118 0.144137 0.149294
0.198087 0.146309 0.150076
0.216794 0.155477 0.153408
0.243644 0.169076 0.157986
0.273899 0.183932 0.160836
0.308263 0.200778 0.162325
0.357146 0.224649 0.162643
0.412824 0.252268 0.162228
0.472047 0.281321 0.161453
0.534759 0.311229 0.159036
0.600336 0.341497 0.155428
0.669776 0.372588 0.149953
0.748037 0.406006 0.143691
0.830143 0.439905 0.138173
0.911486 0.472675 0.136800
1.000000 0.511437 0.150759
0.195968 0.149630 0.153433
0.199104 0.150739 0.154735
0.218924 0.158021 0.155522
0.244204 0.170372 0.159326
0.273152 0.184327 0.161777
0.306719 0.200650 0.163265
0.354787 0.224022 0.163444
0.409140 0.250857 0.162944
0.467586 0.279451 0.162243
0.530101 0.309323 0.160104
0.596893 0.340178 0.156338
0.668005 0.372027 0.151162
0.745412 0.405106 0.144630
0.825264 0.438067 0.139211
0.905092 0.470346 0.137457
1.000000 0.510228 0.150417
0.206595 0.171041 0.170553
0.208911 0.172049 0.171631
0.219454 0.175443 0.175133
0.253221 0.182343 0.167809
0.282379 0.191927 0.166811
0.319457 0.209122 0.167202
0.366997 0.231997 0.166680
0.420203 0.257926 0.166163
0.477303 0.285536 0.165250
0.538574 0.314485 0.162871
0.603186 0.344134 0.158932
0.672038 0.374678 0.153848
0.749745 0.407742 0.147860
0.831208 0.441220 0.142544
0.911764 0.473654 0.141653
1.000000 0.511253 0.154647
0.217844 0.194650 0.188602
0.219852 0.196055 0.189747
0.227389 0.198206 0.192068
0.243077 0.203312 0.198088
0.291263 0.215773 0.185457
0.332110 0.223337 0.179666
0.376771 0.242010 0.176795
0.427488 0.265512 0.174715
0.482628 0.291074 0.172061
0.542391 0.318561 0.168470
0.607135 0.347833 0.164523
0.676813 0.378456 0.159438
0.753085 0.410686 0.153765
0.831565 0.442804 0.149186
0.909905 0.474254 0.148628
1.000000 0.512853 0.162002
0.234488 0.229972 0.214926
0.237376 0.233187 0.217286
0.243393 0.234220 0.218598
0.258957 0.239830 0.223826
0.280330 0.245675 0.232658
0.342431 0.262028 0.213065
0.396152 0.270903 0.200779
0.445033 0.282332 0.193570
0.498446 0.305459 0.189525
0.556813 0.330787 0.184240
0.618824 0.357378 0.177847
0.686366 0.385697 0.170044
0.762759 0.417101 0.162811
0.842207 0.449454 0.159129
0.920666 0.480654 0.160077
1.000000 0.515758 0.173074
0.249302 0.261082 0.237430
0.253696 0.268088 0.242325
0.257847 0.267082 0.242002
0.270152 0.269999 0.244999
0.290837 0.277140 0.251426
0.315465 0.283482 0.262882
0.388397 0.304161 0.240251
0.458039 0.318847 0.223154
0.510716 0.325530 0.212857
0.567834 0.343408 0.204862
0.629206 0.368658 0.198245
0.697810 0.396411 0.190903
0.772787 0.426019 0.182016
0.848966 0.455439 0.172665
0.924266 0.485078 0.173495
1.000000 0.520562 0.187686
0.265964 0.296550 0.261540
0.272352 0.307156 0.268674
0.275647 0.304983 0.267663
0.284217 0.304017 0.267779
0.302963 0.309763 0.272768
0.329559 0.319139 0.280796
0.359248 0.326571 0.293689
0.439547 0.349484 0.270953
0.524181 0.368544 0.247308
0.585277 0.376959 0.234666
0.645124 0.385028 0.222080
0.712051 0.409867 0.214419
0.786989 0.438666 0.207174
0.864356 0.468126 0.199830
0.940213 0.495792 0.193816
1.000000 0.528246 0.206149
0.281675 0.328166 0.282274
0.288393 0.338995 0.289348
0.291217 0.337007 0.288359
0.297087 0.334257 0.287202
0.313986 0.339534 0.291656
0.339538 0.349285 0.299346
0.373070 0.362311 0.309608
0.408177 0.371560 0.324542
0.494460 0.396120 0.302247
0.586362 0.416240 0.274350
0.660737 0.428186 0.257102
0.728896 0.437820 0.245392
0.802568 0.453735 0.234582
0.875718 0.480698 0.228463
0.950530 0.507445 0.224290
1.000000 0.537706 0.227555
0.298015 0.359289 0.301842
0.303678 0.367698 0.307095
0.306240 0.366117 0.306391
0.311641 0.364050 0.305593
0.323965 0.365826 0.307511
0.348205 0.375817 0.314793
0.380444 0.389440 0.324644
0.420605 0.405870 0.336769
0.462669 0.418559 0.354129
0.557004 0.446643 0.333962
0.656507 0.468306 0.304625
0.749724 0.485694 0.282634
0.822507 0.496217 0.273461
0.897415 0.506302 0.263180
0.971315 0.525801 0.258300
1.000000 0.555272 0.263523
0.317778 0.394116 0.322484
0.323439 0.402095 0.327212
0.325398 0.400115 0.326245
0.330378 0.398146 0.325503
0.338779 0.396794 0.325268
0.361651 0.406598 0.331993
0.392911 0.420215 0.341057
0.431758 0.436568 0.351659
0.476695 0.454068 0.364277
0.524446 0.468860 0.382904
0.624085 0.499092 0.365270
0.733650 0.524252 0.336040
0.835884 0.544615 0.313867
0.912436 0.554649 0.304145
0.985702 0.563205 0.298278
1.000000 0.574975 0.297825
0.341192 0.432959 0.343389
0.344109 0.436396 0.345251
0.346062 0.434784 0.344543
0.351068 0.433668 0.344207
0.359289 0.432636 0.344201
0.377173 0.438361 0.347997
0.409192 0.453791 0.357324
0.449769 0.472785 0.368652
0.499364 0.495064 0.381744
0.552972 0.516600 0.397547
0.608362 0.535027 0.420417
0.710829 0.565606 0.404852
0.822977 0.590936 0.374774
0.925652 0.610419 0.355639
0.998926 0.621326 0.345330
1.000000 0.633692 0.350286
0.372161 0.480842 0.366455
0.373999 0.482569 0.367329
0.375751 0.480890 0.366611
0.380662 0.479823 0.366321
0.388616 0.478909 0.366230
0.399463 0.477840 0.366228
0.430865 0.492756 0.374802
0.470488 0.510935 0.385277
0.518550 0.532304 0.398086
0.575456 0.557383 0.413925
0.634747 0.581628 0.435078
0.697168 0.605160 0.465976
0.796459 0.635990 0.454530
0.905983 0.659842 0.425028
0.996771 0.678237 0.409192
1.000000 0.693666 0.403247
0.415784 0.542107 0.394262
0.417654 0.543547 0.394957
0.418654 0.541372 0.393970
0.422498 0.539098 0.393011
0.429191 0.536877 0.392229
0.439027 0.534795 0.391638
0.463796 0.543144 0.396794
0.506105 0.563189 0.408798
0.556777 0.586650 0.424003
0.614894 0.612997 0.442523
0.679072 0.642011 0.465516
0.739248 0.667618 0.497599
0.799449 0.693838 0.545670
0.889545 0.721861 0.540503
0.983862 0.743124 0.513402
1.000000 0.766195 0.513457
0.467439 0.607550 0.425128
0.468617 0.608102 0.425447
0.469177 0.605715 0.424170
0.472914 0.603948 0.423367
0.480163 0.602692 0.422890
0.490095 0.601093 0.422370
0.503933 0.600162 0.422354
0.546308 0.619640 0.435618
0.596820 0.642873 0.452906
0.654460 0.669668 0.475397
0.717391 0.700374 0.505674
0.782962 0.733690 0.546332
0.838373 0.758769 0.600203
0.888189 0.782804 0.669360
0.955567 0.803807 0.670792
1.000000 0.826889 0.664497
0.551294 0.703663 0.482075
0.555898 0.707745 0.485263
0.555948 0.705147 0.483291
0.558731 0.702692 0.481560
0.564612 0.700570 0.480163
0.573504 0.698487 0.478816
0.585210 0.696151 0.477361
0.616287 0.706505 0.487654
0.666304 0.729901 0.512934
0.720515 0.755909 0.546725
0.779391 0.783841 0.591223
0.840208 0.812593 0.648061
0.895869 0.840143 0.712111
0.929838 0.856234 0.773844
0.957643 0.873978 0.828311
0.994983 0.889622 0.832749
0.655879 0.815976 0.594995
0.659150 0.818375 0.598767
0.659699 0.816990 0.596600
0.663209 0.816196 0.595617
0.670063 0.816153 0.595795
0.679591 0.816129 0.596063
0.691792 0.815903 0.596014
0.709566 0.817173 0.599164
0.759353 0.836399 0.641870
0.813816 0.856950 0.694929
0.867613 0.877409 0.752499
0.915300 0.897142 0.806650
0.952593 0.915685 0.852219
0.975903 0.929699 0.888390
0.988763 0.939550 0.916869
1.000000 0.951049 0.933318
0.194333 0.146511 0.153671
0.197150 0.147544 0.154888
0.214885 0.156705 0.157095
0.242250 0.169707 0.159719
0.272830 0.184098 0.161656
0.307176 0.200779 0.163155
0.355739 0.224476 0.163495
0.410015 0.251398 0.163170
0.466087 0.278887 0.162500
0.524806 0.306899 0.160567
0.587506 0.336065 0.157357
0.656235 0.366872 0.152014
0.734767 0.400677 0.145504
0.817677 0.434925 0.139522
0.899766 0.468199 0.137206
0.993805 0.504570 0.146798
0.196309 0.150924 0.156536
0.199564 0.152821 0.158350
0.216494 0.159841 0.159991
0.242312 0.171208 0.161889
0.271898 0.184555 0.162982
0.305846 0.200794 0.164202
0.352961 0.223684 0.164430
0.405555 0.249549 0.163937
0.462194 0.277334 0.163360
0.522044 0.305877 0.161385
0.585956 0.335547 0.157921
0.655829 0.366892 0.152756
0.732683 0.399992 0.146462
0.811892 0.432694 0.140539
0.891805 0.465165 0.137862
0.989907 0.503186 0.146513
0.207511 0.173090 0.174120
0.209827 0.174173 0.175178
0.220249 0.177466 0.178446
0.252275 0.183846 0.172595
0.281284 0.193937 0.171237
0.319385 0.210900 0.170691
0.366619 0.232990 0.169472
0.418761 0.257951 0.167889
0.472903 0.283915 0.166455
0.531061 0.311284 0.163946
0.593535 0.339984 0.160369
0.662022 0.370465 0.155184
0.740150 0.403868 0.149025
0.822191 0.437682 0.143593
0.903489 0.470513 0.141971
0.997714 0.506935 0.152080
0.219259 0.196870 0.192306
0.221368 0.198432 0.193615
0.228406 0.200299 0.195667
0.244272 0.205679 0.201728
0.291284 0.217532 0.190291
0.331197 0.224834 0.184528
0.375061 0.243349 0.181755
0.424622 0.265937 0.179445
0.477595 0.290187 0.176537
0.535027 0.316135 0.172303
0.598346 0.344235 0.166405
0.667594 0.374574 0.160508
0.743452 0.406780 0.154963
0.821132 0.438606 0.149841
0.899985 0.470372 0.148515
0.997236 0.508101 0.159215
0.236536 0.233473 0.219362
0.239416 0.236794 0.221863
0.245252 0.237278 0.222720
0.260338 0.242366 0.227592
0.281325 0.247638 0.235760
0.342397 0.263111 0.216331
0.394228 0.271024 0.204692
0.442041 0.282453 0.197382
0.493623 0.304496 0.192985
0.550086 0.328695 0.187969
0.610924 0.354728 0.181611
0.678688 0.383158 0.173884
0.756061 0.414594 0.164452
0.836170 0.447048 0.159468
0.915384 0.478647 0.159819
1.000000 0.513719 0.171838
0.251005 0.264243 0.240940
0.255387 0.271219 0.245872
0.259671 0.270019 0.245480
0.271400 0.272183 0.247887
0.291735 0.278953 0.254047
0.315892 0.284538 0.264884
0.387040 0.303832 0.241901
0.453824 0.317070 0.225594
0.504975 0.323027 0.215067
0.560726 0.341063 0.207325
0.621973 0.366064 0.200772
0.690397 0.393856 0.193582
0.765321 0.423483 0.184862
0.840968 0.452656 0.175460
0.918761 0.482887 0.173092
1.000000 0.518114 0.186080
0.267504 0.299232 0.264456
0.273543 0.309217 0.271229
0.276957 0.307173 0.270219
0.285041 0.305570 0.269886
0.303573 0.311122 0.274756
0.330123 0.320139 0.282435
0.359690 0.327410 0.295173
0.439074 0.349534 0.272244
0.521565 0.367411 0.249021
0.580766 0.374969 0.236366
0.639755 0.383291 0.224122
0.707076 0.408396 0.216613
0.782913 0.437520 0.209393
0.860702 0.467091 0.202072
0.937600 0.495243 0.196109
1.000000 0.528059 0.206245
0.283129 0.330588 0.284722
0.289741 0.341579 0.291902
0.292757 0.339614 0.290954
0.298574 0.336650 0.289634
0.314985 0.341151 0.293558
0.340120 0.350311 0.300823
0.372749 0.362319 0.310436
0.406777 0.370703 0.324643
0.491811 0.394419 0.302100
0.582519 0.414175 0.274994
0.656168 0.426105 0.258340
0.724437 0.435864 0.246654
0.797723 0.452047 0.235831
0.870428 0.478910 0.229673
0.947955 0.506893 0.225986
1.000000 0.537733 0.229351
0.299610 0.362106 0.304222
0.305821 0.371464 0.310145
0.308640 0.370143 0.309591
0.314116 0.367790 0.308578
0.326025 0.368904 0.310063
0.350362 0.378754 0.317339
0.382756 0.392154 0.326920
0.422480 0.407887 0.338588
0.463321 0.419306 0.355107
0.556198 0.446183 0.334279
0.654531 0.467383 0.305235
0.747323 0.484700 0.283884
0.820655 0.495506 0.274793
0.895721 0.505681 0.264457
0.971015 0.526249 0.260095
1.000000 0.556358 0.265716
0.319366 0.396789 0.324638
0.326137 0.406355 0.330198
0.328459 0.404820 0.329521
0.333374 0.402624 0.328617
0.341404 0.400472 0.327950
0.363649 0.409289 0.334071
0.394252 0.421906 0.342521
0.432394 0.437343 0.352619
0.476693 0.454287 0.364919
0.524018 0.468765 0.383275
0.623433 0.498845 0.365665
0.732518 0.523712 0.336599
0.833788 0.543531 0.314420
0.910807 0.554031 0.305002
0.984748 0.562813 0.299127
1.000000 0.575509 0.299450
0.343481 0.436450 0.345702
0.347997 0.442049 0.348748
0.350226 0.440842 0.348239
0.355223 0.439433 0.347774
0.363294 0.438095 0.347608
0.380596 0.442920 0.350903
0.412772 0.457996 0.360015
0.453070 0.476167 0.370799
0.501454 0.497019 0.383304
0.553834 0.517403 0.398411
0.608398 0.535168 0.420923
0.710601 0.565653 0.405307
0.822990 0.591128 0.375418
0.925663 0.610558 0.356441
0.998966 0.621857 0.346741
1.000000 0.635083 0.352495
0.373877 0.483155 0.367965
0.377098 0.486801 0.369809
0.378974 0.485259 0.369217
0.383740 0.483966 0.368788
0.391547 0.482789 0.368564
0.401831 0.480796 0.368104
0.432796 0.495049 0.376298
0.471846 0.512382 0.386400
0.519496 0.533350 0.399025
0.576287 0.558284 0.414861
0.635596 0.582475 0.435985
0.697745 0.605780 0.466856
0.796435 0.636130 0.454979
0.905731 0.659764 0.425391
0.996761 0.678480 0.409967
1.000000 0.694730 0.405163
0.418026 0.544834 0.395961
0.422027 0.548829 0.397966
0.422719 0.546216 0.396750
0.425970 0.543317 0.395506
0.432660 0.540906 0.394625
0.442392 0.538616 0.393888
0.466789 0.546459 0.398802
0.509059 0.566268 0.410826
0.558992 0.588822 0.425576
0.616059 0.614193 0.443669
0.679715 0.642716 0.466467
0.739730 0.668217 0.498475
0.799938 0.694463 0.546821
0.889878 0.722363 0.541479
0.984584 0.744048 0.514944
1.000000 0.767931 0.516727
0.469853 0.610189 0.426899
0.472449 0.612321 0.428175
0.473613 0.610592 0.427259
0.477234 0.608685 0.426342
0.483934 0.606816 0.425524
0.493278 0.604503 0.424587
0.506127 0.602548 0.423978
0.547831 0.621304 0.436920
0.598045 0.644231 0.454106
0.655647 0.670944 0.476753
0.718406 0.701542 0.507105
0.783674 0.734527 0.547733
0.838646 0.759198 0.601218
0.888238 0.783005 0.670057
0.955682 0.804148 0.671693
1.000000 0.827615 0.666322
0.553792 0.706293 0.484541
0.562531 0.714523 0.491126
0.561990 0.711336 0.488617
0.563297 0.707543 0.485684
0.568684 0.704769 0.483734
0.577160 0.702308 0.482056
0.588372 0.699447 0.480224
0.617871 0.708414 0.489441
0.667118 0.730971 0.514269
0.720882 0.756462 0.547725
0.779560 0.784184 0.592080
0.840338 0.812910 0.649028
0.895958 0.840416 0.712933
0.929982 0.856530 0.774621
0.957844 0.874479 0.829268
0.995152 0.890336 0.834105
0.657869 0.817893 0.598358
0.662264 0.821300 0.603808
0.663437 0.820389 0.602405
0.666794 0.819500 0.601178
0.673026 0.818923 0.600468
0.681965 0.818345 0.599872
0.693550 0.817594 0.599054
0.710653 0.818303 0.601309
0.759826 0.837059 0.643291
0.814218 0.857468 0.696250
0.867997 0.877812 0.753610
0.915471 0.897413 0.807391
0.952642 0.915843 0.852624
0.975906 0.929772 0.888581
0.988758 0.939618 0.917009
1.000000 0.951122 0.933458
0.199021 0.156765 0.171139
0.201102 0.157296 0.172201
0.211843 0.161719 0.176400
0.243081 0.167969 0.177327
0.270705 0.192846 0.178611
0.308500 0.211313 0.181552
0.357089 0.233628 0.181514
0.410110 0.258031 0.179767
0.464869 0.283282 0.177031
0.523568 0.310115 0.173217
0.586987 0.338433 0.167574
0.656684 0.368747 0.159537
0.735615 0.401923 0.149710
0.818451 0.435826 0.142291
0.900389 0.468938 0.139909
0.994897 0.505437 0.149392
0.200390 0.159846 0.172221
0.203179 0.161651 0.174557
0.213218 0.165650 0.178672
0.241816 0.174972 0.179808
0.269536 0.194373 0.181348
0.307364 0.211783 0.183294
0.354031 0.232662 0.182348
0.406006 0.256423 0.180476
0.461964 0.282351 0.178163
0.520920 0.309229 0.174355
0.585372 0.338018 0.168593
0.655858 0.368668 0.160702
0.733034 0.401007 0.150740
0.812227 0.433453 0.143323
0.892555 0.465924 0.140501
0.990543 0.503867 0.149129
0.209282 0.178904 0.186665
0.212369 0.180912 0.188669
0.223269 0.185929 0.193264
0.248003 0.193764 0.192443
0.278653 0.205034 0.191686
0.319215 0.221632 0.190938
0.366050 0.241696 0.188720
0.416923 0.264413 0.186252
0.470967 0.288741 0.183286
0.529342 0.314886 0.178960
0.592555 0.342742 0.173004
0.662068 0.372651 0.165256
0.740843 0.405305 0.154667
0.822897 0.438509 0.146056
0.904071 0.471171 0.144352
0.998701 0.507739 0.154500
0.223067 0.203870 0.204504
0.225861 0.206339 0.206920
0.232633 0.208453 0.209246
0.248532 0.214319 0.214785
0.290521 0.223438 0.207083
0.329083 0.233141 0.202325
0.373322 0.250841 0.199041
0.422859 0.271947 0.196067
0.475418 0.294829 0.192415
0.533199 0.319964 0.187687
0.597070 0.347633 0.181756
0.666965 0.377296 0.174185
0.743317 0.408526 0.164436
0.821418 0.439403 0.153455
0.900743 0.471154 0.150712
0.998113 0.508828 0.161209
0.241737 0.242435 0.232855
0.244977 0.246336 0.236018
0.250229 0.245891 0.236027
0.263465 0.248785 0.239055
0.284096 0.253799 0.246055
0.343106 0.267542 0.229091
0.391146 0.273140 0.218361
0.438937 0.287263 0.211827
0.490908 0.308421 0.207025
0.547621 0.332041 0.201522
0.609277 0.357715 0.195146
0.678046 0.386104 0.187863
0.755882 0.417326 0.178851
0.836419 0.448725 0.168498
0.915924 0.479240 0.161855
1.000000 0.514385 0.173547
0.254881 0.270817 0.251011
0.259379 0.278144 0.256349
0.263685 0.276827 0.255757
0.273548 0.277115 0.256661
0.293985 0.283609 0.262439
0.318108 0.289171 0.272703
0.388679 0.307363 0.250779
0.451070 0.318247 0.237052
0.502559 0.323661 0.225524
0.558770 0.344209 0.218790
0.620703 0.369067 0.212516
0.689650 0.396620 0.205453
0.764675 0.425921 0.197305
0.840565 0.454885 0.188052
0.919262 0.484270 0.179816
1.000000 0.518847 0.187387
0.270459 0.304870 0.272471
0.276617 0.314816 0.279430
0.280085 0.312641 0.278246
0.286977 0.309655 0.276855
0.305244 0.314647 0.281321
0.331752 0.323678 0.288986
0.361653 0.331026 0.301146
0.440648 0.352070 0.278259
0.520541 0.368666 0.257936
0.578458 0.375280 0.245599
0.638100 0.385416 0.233779
0.706332 0.411078 0.226793
0.782634 0.440138 0.219932
0.860479 0.469531 0.213054
0.937479 0.497459 0.207036
1.000000 0.528585 0.208507
0.285732 0.335679 0.291465
0.292739 0.346592 0.298792
0.295731 0.344745 0.297807
0.301765 0.341750 0.296364
0.316406 0.344332 0.298935
0.341672 0.353345 0.306136
0.374242 0.365181 0.315517
0.408567 0.373571 0.329156
0.493356 0.396446 0.306422
0.583424 0.415857 0.281463
0.654963 0.426845 0.266706
0.723705 0.436329 0.254728
0.797104 0.454422 0.244794
0.870060 0.481181 0.238621
0.948025 0.509191 0.234952
1.000000 0.540212 0.238287
0.302511 0.367111 0.310201
0.308885 0.376389 0.316085
0.311604 0.374983 0.315399
0.317133 0.372588 0.314373
0.327486 0.371859 0.314607
0.351917 0.381672 0.321852
0.384404 0.394963 0.331338
0.424345 0.410634 0.342735
0.464992 0.421846 0.358742
0.557682 0.448032 0.337758
0.655764 0.469034 0.310335
0.746709 0.485648 0.291238
0.820475 0.496352 0.281943
0.895657 0.506687 0.271474
0.970899 0.528568 0.267551
1.000000 0.558560 0.272706
0.322358 0.401492 0.329738
0.329307 0.411161 0.335339
0.331701 0.409633 0.334676
0.336608 0.407386 0.333737
0.344678 0.405083 0.332971
0.365014 0.411742 0.337764
0.395663 0.424193 0.346061
0.433754 0.439469 0.356011
0.478343 0.456519 0.368157
0.525895 0.471174 0.386496
0.625373 0.500973 0.368731
0.734212 0.525533 0.340762
0.834597 0.544853 0.319572
0.910601 0.554924 0.310927
0.984832 0.563613 0.304879
1.000000 0.576737 0.304803
0.346666 0.440992 0.350189
0.351371 0.446780 0.353258
0.353472 0.445389 0.352632
0.358558 0.444077 0.352303
0.366779 0.442782 0.352009
0.382238 0.445527 0.354150
0.414514 0.460616 0.363300
0.454742 0.478547 0.373986
0.502879 0.499037 0.386215
0.555500 0.519487 0.401364
0.609955 0.537261 0.423975
0.712636 0.567715 0.408117
0.824685 0.592978 0.379059
0.926886 0.612064 0.360577
0.998927 0.622994 0.351777
1.000000 0.636035 0.356964
0.377000 0.487554 0.371860
0.380759 0.491727 0.373954
0.382491 0.490066 0.373218
0.387228 0.488629 0.372738
0.395058 0.487301 0.372474
0.405053 0.484959 0.371790
0.433830 0.496892 0.378767
0.472887 0.514087 0.388890
0.520719 0.535016 0.401575
0.577638 0.560022 0.417554
0.637376 0.584566 0.438926
0.699281 0.607827 0.469999
0.797830 0.637896 0.457774
0.906873 0.661293 0.428419
0.996939 0.679887 0.413498
1.000000 0.696152 0.409601
0.420602 0.548208 0.399160
0.424248 0.551611 0.400924
0.425078 0.549192 0.399774
0.428670 0.546654 0.398709
0.435630 0.544509 0.397926
0.445809 0.542659 0.397403
0.467789 0.548361 0.401142
0.510197 0.568045 0.413221
0.559888 0.590215 0.427906
0.616798 0.615428 0.446013
0.680576 0.644047 0.469113
0.740960 0.670022 0.501718
0.800983 0.696300 0.550633
0.890751 0.723851 0.544715
0.985170 0.745333 0.518176
1.000000 0.769020 0.520218
0.472522 0.613443 0.430174
0.475245 0.615634 0.431465
0.476400 0.613929 0.430579
0.480125 0.612037 0.429668
0.486823 0.610146 0.428821
0.496137 0.607875 0.427840
0.508027 0.605020 0.426663
0.547796 0.622124 0.438603
0.598241 0.645124 0.455977
0.656050 0.671928 0.478894
0.718912 0.702658 0.509727
0.784170 0.735670 0.550838
0.839235 0.760479 0.604663
0.888564 0.784199 0.673563
0.955944 0.805218 0.674714
1.000000 0.828743 0.669739
0.555489 0.708515 0.487780
0.563397 0.715896 0.493853
0.562861 0.712721 0.491236
0.564661 0.709399 0.488688
0.570571 0.707240 0.487168
0.579193 0.704804 0.485457
0.590398 0.701997 0.483574
0.616938 0.708511 0.490606
0.666250 0.731100 0.515538
0.720231 0.756709 0.549320
0.779319 0.784692 0.594269
0.840269 0.813483 0.651606
0.895936 0.841040 0.715585
0.930058 0.857264 0.776850
0.957876 0.875133 0.830982
0.995135 0.890833 0.835326
0.659071 0.819614 0.602673
0.663437 0.822943 0.608085
0.664643 0.822054 0.606712
0.667939 0.821153 0.605421
0.674136 0.820561 0.604632
0.682929 0.819870 0.603814
0.694490 0.819050 0.602886
0.710511 0.819064 0.603644
0.758446 0.836936 0.643902
0.813287 0.857521 0.697175
0.867448 0.877982 0.754769
0.915194 0.897652 0.808483
0.952501 0.916099 0.853561
0.975933 0.930137 0.889371
0.988769 0.939967 0.917681
1.000000 0.951464 0.933971
0.204355 0.169046 0.191781
0.206236 0.169451 0.192975
0.214172 0.172489 0.196944
0.231135 0.179266 0.203673
0.264893 0.187334 0.210622
0.311693 0.212357 0.204226
0.355710 0.243916 0.203701
0.407488 0.267178 0.203703
0.461755 0.291596 0.202969
0.520648 0.317113 0.198925
0.585083 0.344702 0.193405
0.656144 0.374643 0.186426
0.735948 0.407232 0.177254
0.819080 0.439803 0.165876
0.901365 0.471233 0.153270
0.996740 0.506755 0.153164
0.205422 0.171108 0.191433
0.207877 0.172967 0.194313
0.215572 0.175840 0.198371
0.232146 0.182889 0.205297
0.266228 0.189710 0.210656
0.308629 0.217176 0.205931
0.352685 0.243456 0.204952
0.404349 0.266431 0.204837
0.459518 0.291037 0.203745
0.518504 0.316379 0.199476
0.583974 0.344458 0.194130
0.655110 0.374472 0.187272
0.732693 0.406075 0.178142
0.812360 0.437242 0.166666
0.893892 0.468461 0.153925
0.992268 0.505112 0.152818
0.214256 0.189173 0.206466
0.216895 0.191199 0.208467
0.225852 0.195412 0.213104
0.240917 0.200861 0.218397
0.279372 0.210115 0.219346
0.316244 0.235191 0.216499
0.363149 0.253625 0.214573
0.413302 0.274324 0.212161
0.467467 0.296885 0.208500
0.526213 0.321659 0.203824
0.590349 0.348842 0.198128
0.661366 0.378509 0.191227
0.740844 0.410601 0.182248
0.823224 0.442744 0.171386
0.904764 0.473716 0.159709
0.999936 0.509042 0.158336
0.224936 0.211408 0.220987
0.227857 0.214323 0.223991
0.236517 0.218922 0.228346
0.253346 0.225848 0.234245
0.286013 0.234531 0.231658
0.324607 0.246680 0.228384
0.369633 0.262391 0.224284
0.418950 0.281357 0.220322
0.471908 0.302615 0.215951
0.530416 0.326793 0.211087
0.595467 0.353885 0.205434
0.666061 0.382922 0.198611
0.742676 0.413525 0.190036
0.821054 0.443747 0.179471
0.901701 0.474280 0.168675
0.999658 0.510334 0.165919
0.244493 0.251014 0.249581
0.248307 0.255951 0.253943
0.255755 0.257754 0.255713
0.267037 0.258511 0.256761
0.288061 0.263297 0.262037
0.341923 0.272908 0.249122
0.386379 0.278658 0.239050
0.434197 0.295743 0.234063
0.486656 0.315576 0.228853
0.544031 0.338173 0.223177
0.606725 0.363376 0.217024
0.676994 0.391678 0.210358
0.755568 0.422467 0.202372
0.836309 0.453356 0.193327
0.916017 0.482999 0.184173
1.000000 0.516306 0.181543
0.259159 0.281016 0.267216
0.264292 0.289488 0.273857
0.269473 0.289031 0.273717
0.277959 0.286973 0.272566
0.297034 0.291376 0.276689
0.321739 0.297221 0.286204
0.391651 0.313352 0.266477
0.446673 0.319806 0.254811
0.498619 0.328888 0.244221
0.555611 0.350308 0.238173
0.618732 0.374853 0.232279
0.688455 0.402025 0.225717
0.763772 0.430763 0.218217
0.839789 0.459272 0.209808
0.919565 0.488683 0.202242
1.000000 0.522002 0.201493
0.275225 0.315520 0.287326
0.281742 0.325699 0.294849
0.285364 0.323222 0.293354
0.292447 0.319757 0.291321
0.307472 0.320940 0.292964
0.334371 0.329878 0.300455
0.365215 0.337660 0.311875
0.444268 0.356962 0.289339
0.517974 0.370505 0.273809
0.574841 0.375623 0.261200
0.635507 0.390216 0.251138
0.705171 0.416440 0.245045
0.782176 0.445230 0.238754
0.860230 0.474249 0.232329
0.937331 0.501813 0.226424
1.000000 0.532606 0.227117
0.290699 0.345689 0.304334
0.298065 0.356822 0.311986
0.301324 0.354926 0.310942
0.307603 0.351828 0.309341
0.318689 0.350122 0.308864
0.344105 0.358851 0.315780
