assets/lut/editingcorp culor.cube
# Created by: G'MIC (https://gmic.eu)
TITLE "culor"
# LUT size
LUT_3D_SIZE 13
# Data domain
DOMAIN_MIN 0.0 0.0 0.0
DOMAIN_MAX 1.0 1.0 1.0
# LUT data points
0.032513651996850967 0.031538736075162888 0.033440310508012772
0.10354280471801758 0.036600463092327118 0.027231372892856598
0.18849186599254608 0.041856233030557632 0.020365845412015915
0.28678655624389648 0.046347465366125107 0.013617526739835739
0.39633607864379883 0.046684533357620239 0.0054174684919416904
0.49662777781486511 0.048646591603755951 0.0022973602171987295
0.57807403802871704 0.047520101070404053 0.0014492857735604048
0.64062356948852539 0.039351921528577805 0.00076002231799066067
0.68801069259643555 0.032817751169204712 0
0.72438758611679077 0.032533623278141022 0
0.75368702411651611 0.03438447043299675 0
0.77876275777816772 0.037433803081512451 0
0.80395448207855225 0.042032711207866669 0
0.015685511752963066 0.082451418042182922 0.043967690318822861
0.063976675271987915 0.087238803505897522 0.036046076565980911
0.1259339302778244 0.097134321928024292 0.032939523458480835
0.21775336563587189 0.10895125567913055 0.025724194943904877
0.33623290061950684 0.11733896285295486 0.014374378137290478
0.45498967170715332 0.1255200058221817 0.0084241833537817001
0.55541062355041504 0.12891824543476105 0.0063922060653567314
0.63244658708572388 0.12371106445789337 0.0028271095361560583
0.68943721055984497 0.11928734928369522 0
0.73180091381072998 0.11990994960069656 0
0.76590120792388916 0.12326416373252869 0
0.79525113105773926 0.12811727821826935 0
0.82311803102493286 0.13356481492519379 0
0.0080721238628029823 0.14076222479343414 0.056507498025894165
0.052625484764575958 0.14345081150531769 0.04663575068116188
0.11557812988758087 0.15108746290206909 0.038519572466611862
0.20043019950389862 0.16551725566387177 0.028669858351349831
0.31495282053947449 0.18248039484024048 0.017535803839564323
0.43928426504135132 0.19805134832859039 0.010031501762568951
0.5486443042755127 0.20723423361778259 0.0059373741969466209
0.6372334361076355 0.20888097584247589 0.0018072539241984487
0.70161145925521851 0.20941850543022156 0
0.74886393547058105 0.2119908332824707 0
0.78749209642410278 0.21731346845626831 0
0.82088065147399902 0.22354176640510559 0
0.85135078430175781 0.22947125136852264 0
0.0039342246018350124 0.20694547891616821 0.069751366972923279
0.039958279579877853 0.21016517281532288 0.058521613478660583
0.10039488971233368 0.21790830790996552 0.046515252441167831
0.18566304445266724 0.23294459283351898 0.032956484705209732
0.30024731159210205 0.2538318932056427 0.019362984225153923
0.42728859186172485 0.27363315224647522 0.0084841558709740639
0.54238134622573853 0.28749820590019226 0.0019766115583479404
0.63963115215301514 0.29491978883743286 9.6220130217261612e-05
0.7136833667755127 0.29957664012908936 0
0.76827353239059448 0.30435317754745483 0
0.81182688474655151 0.31028291583061218 0
0.84906303882598877 0.31734675168991089 0
0.88173717260360718 0.32292422652244568 0
0.0041932947933673859 0.27627286314964294 0.082915395498275757
0.03268902376294136 0.28092840313911438 0.071433305740356445
0.08465634286403656 0.2900749146938324 0.058754462748765945
0.16925527155399323 0.30693450570106506 0.043861508369445801
0.2850131094455719 0.33023643493652344 0.02644958533346653
0.41416674852371216 0.3517363965511322 0.0099906623363494873
0.53277689218521118 0.36775016784667969 0.00083773746155202389
0.63768506050109863 0.37940424680709839 0
0.7227509617805481 0.38707935810089111 0
0.78561991453170776 0.39245569705963135 0
0.83434337377548218 0.39818203449249268 0
0.87462669610977173 0.40402916073799133 0
0.90901398658752441 0.40819156169891357 0
0.0047388263046741486 0.34303617477416992 0.09966684877872467
0.024119507521390915 0.34899461269378662 0.088466167449951172
0.06631132960319519 0.35895687341690063 0.075768850743770599
0.14659632742404938 0.37621685862541199 0.05946514755487442
0.26470306515693665 0.39935517311096191 0.038914863020181656
0.39960166811943054 0.42286759614944458 0.017384802922606468
0.52415645122528076 0.44261103868484497 0.0044176885858178139
0.63477349281311035 0.45741051435470581 0.0018655066378414631
0.72743815183639526 0.46731704473495483 0.00028984219534322619
0.79846572875976562 0.4733729362487793 0
0.85221493244171143 0.47874966263771057 0
0.89494103193283081 0.48314747214317322 0
0.93104618787765503 0.48590591549873352 0
0.0012464785249903798 0.40245276689529419 0.12318179756402969
0.011248419992625713 0.40989643335342407 0.11099746078252792
0.043409697711467743 0.42042538523674011 0.097663432359695435
0.11616405099630356 0.43677273392677307 0.079488225281238556
0.23501013219356537 0.45988067984580994 0.053841535001993179
0.37972769141197205 0.48580536246299744 0.025856077671051025
0.51542681455612183 0.50893592834472656 0.010142337530851364
0.62889391183853149 0.52670842409133911 0.0061154235154390335
0.72674089670181274 0.53867018222808838 0.001776526914909482
0.80658584833145142 0.54633522033691406 9.6938192655215971e-06
0.86516648530960083 0.55182623863220215 0
0.90979605913162231 0.55580973625183105 0
0.94747054576873779 0.5579642653465271 0
0 0.45466285943984985 0.15109241008758545
0.0013689227635040879 0.46387729048728943 0.13792558014392853
0.020112864673137665 0.4747556746006012 0.12339573353528976
0.081931501626968384 0.49044859409332275 0.10322291404008865
0.20135132968425751 0.51420938968658447 0.071210660040378571
0.36041229963302612 0.54293298721313477 0.032483644783496857
0.50994068384170532 0.56906896829605103 0.011497183702886105
0.62632071971893311 0.58904409408569336 0.008849678561091423
0.72652143239974976 0.60296833515167236 0.0070232613943517208
0.81211096048355103 0.61232715845108032 0.0017129936022683978
0.87359786033630371 0.61890876293182373 0
0.91970360279083252 0.62325739860534668 0
0.95829391479492188 0.62504053115844727 0
0 0.50160974264144897 0.18137237429618835
0 0.51214396953582764 0.16756170988082886
0.0048212688416242599 0.52464389801025391 0.15181334316730499
0.054791796952486038 0.54151839017868042 0.12932160496711731
0.17222802340984344 0.56635850667953491 0.093176886439323425
0.33962765336036682 0.59667277336120605 0.047969669103622437
0.50054991245269775 0.62451434135437012 0.02006714791059494
0.6229623556137085 0.64569360017776489 0.012807539664208889
0.72358590364456177 0.66116517782211304 0.0075654122047126293
0.81107407808303833 0.67251080274581909 0.0016768660861998796
0.87693142890930176 0.68074709177017212 0
0.9249570369720459 0.6857069730758667 0
0.9642566442489624 0.68693321943283081 0
0 0.54378443956375122 0.21432159841060638
0 0.55568104982376099 0.20054930448532104
0.00040314617217518389 0.57008194923400879 0.18471945822238922
0.031611498445272446 0.589133620262146 0.16223405301570892
0.14112786948680878 0.61496943235397339 0.12730932235717773
0.31005015969276428 0.64574706554412842 0.083079978823661804
0.4802604615688324 0.67406713962554932 0.049709979444742203
0.60907125473022461 0.69620984792709351 0.027788169682025909
0.71160215139389038 0.71301573514938354 0.0092888027429580688
0.80413210391998291 0.72671002149581909 0.00058885460020974278
0.87681412696838379 0.73654913902282715 0
0.92664617300033569 0.74209344387054443 3.7249395973049104e-05
0.96588677167892456 0.74346345663070679 2.6927275030175224e-05
7.0399866672232747e-05 0.58218687772750854 0.25023683905601501
0 0.59473812580108643 0.23803789913654327
0 0.61027175188064575 0.22420547902584076
0.011144884862005711 0.63023805618286133 0.20577497780323029
0.10432419180870056 0.65628695487976074 0.17755351960659027
0.27214300632476807 0.68688315153121948 0.14098244905471802
0.45551010966300964 0.71620213985443115 0.10578225553035736
0.5946965217590332 0.73934608697891235 0.071075797080993652
0.69946509599685669 0.75763291120529175 0.033874556422233582
0.79692757129669189 0.77271133661270142 0.0080738291144371033
0.87491554021835327 0.78376948833465576 0.0018280328949913383
0.92672377824783325 0.79000216722488403 0.0061322827823460102
0.96619659662246704 0.79192113876342773 0.0072055291384458542
0.0005081625422462821 0.61781781911849976 0.28867641091346741
0 0.63051539659500122 0.2785189151763916
0 0.64624565839767456 0.26795139908790588
0.0016437305603176355 0.66618973016738892 0.25475203990936279
0.069665707647800446 0.69124341011047363 0.23441042006015778
0.23490957915782928 0.72109580039978027 0.20518520474433899
0.42978861927986145 0.75112873315811157 0.17247903347015381
0.58072906732559204 0.77579158544540405 0.13768942654132843
0.6901811957359314 0.79519933462142944 0.099990144371986389
0.7878144383430481 0.81069755554199219 0.0570969358086586
0.869548499584198 0.82172495126724243 0.028585141524672508
0.92493218183517456 0.82857209444046021 0.026837501674890518
0.96559673547744751 0.83190226554870605 0.02312927320599556
0.00046557257883250713 0.65187931060791016 0.32630932331085205
0 0.66469424962997437 0.3181246817111969
0 0.68022936582565308 0.3104509711265564
0 0.69936269521713257 0.30109453201293945
0.047968458384275436 0.72279840707778931 0.286204993724823
0.20231930911540985 0.75113499164581299 0.26111713051795959
0.39207884669303894 0.78031200170516968 0.23062340915203094
0.55069619417190552 0.80563920736312866 0.20208948850631714
0.66894412040710449 0.82627183198928833 0.17268748581409454
0.77054166793823242 0.84220755100250244 0.12708920240402222
0.85753458738327026 0.8535463809967041 0.078885532915592194
0.91612249612808228 0.8612368106842041 0.060703739523887634
0.95950049161911011 0.86597615480422974 0.045763667672872543
0.05989297479391098 0.034686833620071411 0.091002807021141052
0.1598469614982605 0.036703474819660187 0.076760761439800262
0.23992668092250824 0.042231690138578415 0.068234480917453766
0.33714604377746582 0.04317251592874527 0.056471999734640121
0.44397026300430298 0.038645979017019272 0.039476059377193451
0.53328728675842285 0.039735414087772369 0.029276454821228981
0.60438710451126099 0.038251914083957672 0.022112738341093063
0.66179192066192627 0.033224262297153473 0.014811213128268719
0.70585489273071289 0.031173840165138245 0.0058371750637888908
0.74031323194503784 0.031536582857370377 0.0029250800143927336
0.76846367120742798 0.031911302357912064 0.0026254542171955109
0.79267591238021851 0.033649999648332596 0.0019546060357242823
0.81700366735458374 0.039441559463739395 0.002534529659897089
0.013925185427069664 0.089983753859996796 0.10616271197795868
0.066848486661911011 0.09372933954000473 0.093537978827953339
0.14133988320827484 0.10107024013996124 0.084320679306983948
0.24237281084060669 0.11108166724443436 0.075181491672992706
0.36583924293518066 0.11563822627067566 0.059417352080345154
0.4809432327747345 0.11901009082794189 0.045842308551073074
0.57580763101577759 0.11901406943798065 0.034079547971487045
0.65037012100219727 0.11586210876703262 0.02142830565571785
0.70520365238189697 0.11469928175210953 0.0092387627810239792
0.74625945091247559 0.11661441624164581 0.0033262514043599367
0.77992641925811768 0.11960229277610779 0.0011993108782917261
0.80869263410568237 0.1238766685128212 0.00086967617971822619
0.83518290519714355 0.13050076365470886 0.002750202314928174
0.0057530421763658524 0.14846667647361755 0.12259418517351151
0.051045645028352737 0.15045048296451569 0.10932096838951111
0.12417455762624741 0.1563829630613327 0.09622357040643692
0.21940150856971741 0.17021171748638153 0.085270360112190247
0.33846867084503174 0.18541257083415985 0.071980416774749756
0.46016350388526917 0.19674530625343323 0.056378711014986038
0.56658279895782471 0.20303569734096527 0.038908924907445908
0.65324205160140991 0.20537270605564117 0.021434932947158813
0.71575045585632324 0.20606620609760284 0.008087577298283577
0.7614750862121582 0.20909571647644043 0.001972004072740674
0.80009740591049194 0.21458250284194946 0.00049054017290472984
0.83325040340423584 0.2210623025894165 0.00034984512603841722
0.86253887414932251 0.22753036022186279 0.0018755445489659905
0.0017054987838491797 0.21515478193759918 0.13838835060596466
0.033727113157510757 0.21796602010726929 0.12535890936851501
0.10088574141263962 0.22483782470226288 0.11167775839567184
0.19791361689567566 0.23962824046611786 0.097509883344173431
0.32020628452301025 0.25897449254989624 0.08127100020647049
0.44695356488227844 0.27641025185585022 0.060994092375040054
0.55952107906341553 0.28858911991119385 0.037856455892324448
0.65429520606994629 0.29552876949310303 0.020105354487895966
0.72641682624816895 0.29954275488853455 0.0082925837486982346
0.77908682823181152 0.30359813570976257 0.0019363702740520239
0.82267892360687256 0.30964803695678711 0.0011109146289527416
0.86011534929275513 0.31670224666595459 0.00078015797771513462
0.89226305484771729 0.32245519757270813 0.000994513975456357
0.00094329233979806304 0.28565627336502075 0.15437500178813934
0.021861866116523743 0.29015392065048218 0.14170613884925842
0.076215840876102448 0.29860293865203857 0.12873052060604095
0.17060598731040955 0.31487759947776794 0.11296642571687698
0.29887774586677551 0.33643600344657898 0.094334200024604797
0.43438273668289185 0.35698163509368896 0.068952076137065887
0.54884886741638184 0.37238308787345886 0.038156323134899139
0.64978575706481934 0.38272610306739807 0.023192761465907097
0.73371607065200806 0.38949787616729736 0.013974507339298725
0.79605531692504883 0.39475423097610474 0.0062666349112987518
0.84428113698959351 0.40017825365066528 0.0031955793965607882
0.88476455211639404 0.40578183531761169 0.0011260537430644035
0.91971522569656372 0.41014501452445984 0.00029669370269402862
0.0003678864159155637 0.35387259721755981 0.17261801660060883
0.010267010889947414 0.36007916927337646 0.1607661247253418
0.050679076462984085 0.36974844336509705 0.1482444703578949
0.13807001709938049 0.38639813661575317 0.13184884190559387
0.27010157704353333 0.40901836752891541 0.1115109771490097
0.41563582420349121 0.43197616934776306 0.085144639015197754
0.53805696964263916 0.45036357641220093 0.055122256278991699
0.64508593082427979 0.46362647414207458 0.036131616681814194
0.73816061019897461 0.4723537266254425 0.019817546010017395
0.80838888883590698 0.47828871011734009 0.0091895610094070435
0.86053001880645752 0.48310518264770508 0.0045291525311768055
0.90357714891433716 0.48724493384361267 0.00080747419269755483
0.94111281633377075 0.49040251970291138 0
3.4107881674572127e-06 0.41575825214385986 0.19537296891212463
0.0015767714940011501 0.42330613732337952 0.18357096612453461
0.026518922299146652 0.43377509713172913 0.17093987762928009
0.10253182053565979 0.45001634955406189 0.15440623462200165
0.23305961489677429 0.47269776463508606 0.13034316897392273
0.3874550461769104 0.4979856014251709 0.10091879218816757
0.525726318359375 0.51990830898284912 0.074288792908191681
0.64017593860626221 0.53579747676849365 0.050628527998924255
0.73864501714706421 0.54654049873352051 0.023450559005141258
0.81499588489532471 0.55343925952911377 0.010371578857302666
0.87036651372909546 0.5581439733505249 0.0048807030543684959
0.91534477472305298 0.56185644865036011 0.0011839773505926132
0.95563143491744995 0.56433671712875366 0.00037238924414850771
0 0.4701140820980072 0.22102826833724976
1.1518890232764534e-06 0.47932162880897522 0.20892035961151123
0.0083908680826425552 0.49051043391227722 0.19619995355606079
0.068644598126411438 0.5060117244720459 0.17935951054096222
0.19504347443580627 0.52927869558334351 0.15197856724262238
0.36257448792457581 0.55706906318664551 0.11641032248735428
0.5171312689781189 0.58186763525009155 0.087569311261177063
0.63576000928878784 0.60028588771820068 0.067102767527103424
0.73446708917617798 0.61276453733444214 0.043230634182691574
0.81539261341094971 0.621368408203125 0.024666281417012215
0.87524479627609253 0.62712138891220093 0.011277816258370876
0.92296582460403442 0.63092392683029175 0.0049895341508090496
0.96498590707778931 0.63304078578948975 0.003415664890781045
8.556889952160418e-06 0.51821911334991455 0.24841207265853882
0 0.52897316217422485 0.23550964891910553
0.00088833080371841788 0.54184567928314209 0.22260241210460663
0.040989432483911514 0.55817884206771851 0.20606987178325653
0.15884828567504883 0.58223330974578857 0.17841061949729919
0.33436194062232971 0.61155861616134644 0.14218468964099884
0.50351047515869141 0.63839107751846313 0.11181361228227615
0.62660723924636841 0.65842509269714355 0.090344794094562531
0.72491365671157837 0.67293745279312134 0.066344976425170898
0.81082981824874878 0.68344575166702271 0.041529547423124313
0.87716281414031982 0.69064652919769287 0.023834139108657837
0.92782330513000488 0.69471979141235352 0.014516673050820827
0.97043931484222412 0.69643551111221313 0.0070568607188761234
0.00071119418134912848 0.56078261137008667 0.27713674306869507
0 0.57253694534301758 0.2644692063331604
0 0.58723783493041992 0.25257387757301331
0.016253931447863579 0.60552573204040527 0.23768116533756256
0.11641722917556763 0.63044524192810059 0.21405452489852905
0.29224184155464172 0.6603202223777771 0.18113985657691956
0.47421202063560486 0.68860656023025513 0.14943459630012512
0.6067347526550293 0.71008706092834473 0.11986099183559418
0.70850002765655518 0.72611671686172485 0.085880130529403687
0.80331683158874512 0.73890423774719238 0.050429608672857285
0.87776106595993042 0.7477344274520874 0.032739169895648956
0.92916429042816162 0.75200468301773071 0.027352726086974144
0.97207105159759521 0.75304967164993286 0.010416906327009201
0.002858584513887763 0.59855985641479492 0.30837258696556091
0 0.61075210571289062 0.2970617413520813
0 0.62636619806289673 0.28819793462753296
0.0029674454126507044 0.64596265554428101 0.27739837765693665
0.078430145978927612 0.67119765281677246 0.25863969326019287
0.25073036551475525 0.70143216848373413 0.22917689383029938
0.44195467233657837 0.7308121919631958 0.19692292809486389
0.5860588550567627 0.75382888317108154 0.16478699445724487
0.69427800178527832 0.7716335654258728 0.12628188729286194
0.79557508230209351 0.78566634654998779 0.082650907337665558
0.87632507085800171 0.79570037126541138 0.059159807860851288
0.92912918329238892 0.80070561170578003 0.061080530285835266
0.97119134664535522 0.80222249031066895 0.045042824000120163
0.003696187399327755 0.63329046964645386 0.34308972954750061
0 0.64549434185028076 0.33439525961875916
0 0.66103166341781616 0.32785522937774658
0.0007433274295181036 0.6809074878692627 0.32001152634620667
0.065417282283306122 0.70625370740890503 0.30463254451751709
0.22921575605869293 0.73587489128112793 0.27939361333847046
0.42088755965232849 0.76528090238571167 0.25034904479980469
0.57426631450653076 0.78977513313293457 0.22419939935207367
0.68641197681427002 0.80890762805938721 0.19660381972789764
0.78598803281784058 0.82353651523590088 0.15781846642494202
0.86864960193634033 0.83399754762649536 0.12837202847003937
0.92454379796981812 0.84031426906585693 0.12152060866355896
0.96748685836791992 0.84363681077957153 0.10531414300203323
0.0016044167568907142 0.66653382778167725 0.37895652651786804
0 0.67876660823822021 0.37272259593009949
0 0.69407665729522705 0.36751362681388855
0.0016244775615632534 0.71356332302093506 0.36099743843078613
0.06578623503446579 0.7377808690071106 0.3482135534286499
0.21783976256847382 0.76583796739578247 0.32625418901443481
0.40169420838356018 0.79421347379684448 0.30036440491676331
0.55753785371780396 0.81901448965072632 0.28218162059783936
0.6706317663192749 0.8393784761428833 0.27010324597358704
0.76923948526382446 0.85467356443405151 0.23905850946903229
0.85318636894226074 0.8656609058380127 0.20216096937656403
0.91253089904785156 0.8731997013092041 0.18820179998874664
0.95868933200836182 0.87842941284179688 0.16305166482925415
0.098523125052452087 0.033940661698579788 0.16719323396682739
0.22162069380283356 0.036643024533987045 0.1541677862405777
0.29700076580047607 0.043095160275697708 0.14170292019844055
0.38712343573570251 0.04024919867515564 0.12278514355421066
0.48733025789260864 0.034589804708957672 0.103376604616642
0.56459003686904907 0.032920822501182556 0.089984774589538574
0.62633764743804932 0.027416842058300972 0.078213274478912354
0.68007606267929077 0.022680096328258514 0.067688778042793274
0.7218053936958313 0.026118723675608635 0.053835071623325348
0.75470691919326782 0.029072465375065804 0.049542803317308426
0.78286480903625488 0.026921290904283524 0.047886792570352554
0.80710446834564209 0.026891117915511131 0.041224133223295212
0.82992458343505859 0.03416810929775238 0.03552531823515892
0.013620548881590366 0.095037706196308136 0.17754662036895752
0.072411753237247467 0.10024206340312958 0.16488161683082581
0.1524471789598465 0.10775735974311829 0.15352162718772888
0.2638237476348877 0.11511737853288651 0.14235673844814301
0.39533403515815735 0.11679874360561371 0.12818937003612518
0.50417971611022949 0.11402879655361176 0.11359377205371857
0.5935782790184021 0.10737191140651703 0.098457217216491699
0.66616082191467285 0.1019437164068222 0.083189554512500763
0.71941959857940674 0.10526414960622787 0.068859994411468506
0.75959509611129761 0.11021957546472549 0.058290969580411911
0.79357242584228516 0.1122300997376442 0.048070676624774933
0.82222741842269897 0.11535564064979553 0.042086180299520493
0.84718388319015503 0.1242215633392334 0.042656917124986649
0.0055758459493517876 0.15508586168289185 0.19606752693653107
0.050648573786020279 0.15861709415912628 0.18301944434642792
0.12964460253715515 0.1656305193901062 0.17139913141727448
0.23529791831970215 0.17917470633983612 0.16085031628608704
0.35960152745246887 0.19136135280132294 0.1496443897485733
0.47584658861160278 0.19670738279819489 0.13469883799552917
0.58163511753082275 0.19781380891799927 0.11333388090133667
0.66822654008865356 0.1977045089006424 0.091768257319927216
0.72914355993270874 0.19965101778507233 0.075628019869327545
0.77351135015487671 0.20414803922176361 0.06183808296918869
0.81220030784606934 0.20955932140350342 0.048823606222867966
0.8451458215713501 0.21582093834877014 0.041441060602664948
0.87294608354568481 0.22373515367507935 0.042558122426271439
0.00092867680359631777 0.22358793020248413 0.21461722254753113
0.027685711160302162 0.22723181545734406 0.20194202661514282
0.10031991451978683 0.23439905047416687 0.19164055585861206
0.20721691846847534 0.24929766356945038 0.17942886054515839
0.33549913763999939 0.26689651608467102 0.16587315499782562
0.46129024028778076 0.28040391206741333 0.14790914952754974
0.57516896724700928 0.28907763957977295 0.12368560582399368
0.67054903507232666 0.2941557765007019 0.10073557496070862
0.73950827121734619 0.2977348268032074 0.081502653658390045
0.78978484869003296 0.30225595831871033 0.065063595771789551
0.83268028497695923 0.30820944905281067 0.056030020117759705
0.87006264925003052 0.31479793787002563 0.047543380409479141
0.90178954601287842 0.32142877578735352 0.041914112865924835
1.4361213516167481e-06 0.29609370231628418 0.23293542861938477
0.011032224632799625 0.3010043203830719 0.2211640477180481
0.063952080905437469 0.30957388877868652 0.21013584733009338
0.16793714463710785 0.32540234923362732 0.19741636514663696
0.30778148770332336 0.34566149115562439 0.18198718130588531
0.44756695628166199 0.3642551600933075 0.16134034097194672
0.56579458713531494 0.37734943628311157 0.13594849407672882
0.6661725640296936 0.38590949773788452 0.1135082021355629
0.74624806642532349 0.39209434390068054 0.093701332807540894
0.80566000938415527 0.39710131287574768 0.078710205852985382
0.85266721248626709 0.40217897295951843 0.068488985300064087
0.89357048273086548 0.40720105171203613 0.054667647927999496
0.92945224046707153 0.41152453422546387 0.042458925396203995
0 0.36641606688499451 0.25258830189704895
0.0012125950306653976 0.37316992878913879 0.241380974650383
0.030411724001169205 0.3827921450138092 0.23037166893482208
0.12449920922517776 0.39940744638442993 0.21727810800075531
0.27096813917160034 0.42131540179252625 0.20042160153388977
0.42390620708465576 0.4428253173828125 0.18035756051540375
0.5497785210609436 0.45937907695770264 0.15664640069007874
0.65633606910705566 0.47071000933647156 0.13082306087017059
