assets/lut/editingcorp foresta.cube
# Created by: G'MIC (https://gmic.eu)
TITLE "foresta"
# LUT size
LUT_3D_SIZE 7
# Data domain
DOMAIN_MIN 0.0 0.0 0.0
DOMAIN_MAX 1.0 1.0 1.0
# LUT data points
0.015424840152263641 0.020363288000226021 0.028877347707748413
0.19930726289749146 0.048932753503322601 0.057675007730722427
0.41703161597251892 0.052087865769863129 0.073920384049415588
0.6529155969619751 0.086682356894016266 0.10146868973970413
0.81338071823120117 0.072476252913475037 0.10321169346570969
0.89239847660064697 0.047563411295413971 0.099345847964286804
0.97641289234161377 0.049173019826412201 0.10605477541685104
0.0093556875362992287 0.15284654498100281 0.030650747939944267
0.15502406656742096 0.16666893661022186 0.035370200872421265
0.38723957538604736 0.1903441995382309 0.060307789593935013
0.63708347082138062 0.19516554474830627 0.089744508266448975
0.80515402555465698 0.18696682155132294 0.099505588412284851
0.89148151874542236 0.18154636025428772 0.10526519268751144
0.97710412740707397 0.1790899783372879 0.10727440565824509
0.019808929413557053 0.30066898465156555 0.052472177892923355
0.1156005859375 0.30183830857276917 0.047630354762077332
0.32794147729873657 0.33047285676002502 0.042025890201330185
0.62175410985946655 0.34906649589538574 0.052432205528020859
0.82039445638656616 0.32259887456893921 0.061757180839776993
0.91231995820999146 0.31078162789344788 0.067624621093273163
0.98564523458480835 0.30792704224586487 0.073912709951400757
0.04201158881187439 0.46836394071578979 0.089940287172794342
0.11356192082166672 0.46240952610969543 0.085399001836776733
0.24918000400066376 0.481760174036026 0.052207451313734055
0.55209267139434814 0.53577548265457153 0.046461455523967743
0.81793570518493652 0.53045099973678589 0.038861725479364395
0.93087059259414673 0.49004203081130981 0.028108589351177216
0.99336200952529907 0.47443279623985291 0.036601107567548752
0.055500030517578125 0.63331639766693115 0.089887775480747223
0.13105280697345734 0.63434815406799316 0.086738750338554382
0.22114564478397369 0.63972079753875732 0.056021101772785187
0.44688349962234497 0.68057388067245483 0.055117275565862656
0.76641178131103516 0.72667264938354492 0.095910154283046722
0.93685418367385864 0.73261022567749023 0.02228209562599659
0.99724495410919189 0.69305950403213501 0.026034606620669365
0.05132872611284256 0.75080841779708862 0.087757453322410583
0.13980646431446075 0.75091242790222168 0.094430036842823029
0.20925246179103851 0.74870067834854126 0.074780300259590149
0.36216184496879578 0.7789338231086731 0.022440487518906593
0.68346023559570312 0.82450366020202637 0.084160536527633667
0.91469377279281616 0.87508028745651245 0.11568979173898697
0.99887913465499878 0.88406991958618164 0.060468263924121857
0.018764659762382507 0.83930736780166626 0.075422756373882294
0.10094694048166275 0.83551925420761108 0.08225308358669281
0.14029619097709656 0.83640575408935547 0.063783712685108185
0.237253338098526 0.86118501424789429 0.019630042836070061
0.58756828308105469 0.8998485803604126 0.05991903692483902
0.8813176155090332 0.94201129674911499 0.15825100243091583
0.99812936782836914 0.98220759630203247 0.11325438320636749
0.026004761457443237 0.031781602650880814 0.22931942343711853
0.17283844947814941 0.03259524330496788 0.24722248315811157
0.40762162208557129 0.045171625912189484 0.24300247430801392
0.64670616388320923 0.059279646724462509 0.22409056127071381
0.80370891094207764 0.036404389888048172 0.20885969698429108
0.87979161739349365 0.051827583461999893 0.20336472988128662
0.96764630079269409 0.072027646005153656 0.2138221263885498
0.027016298845410347 0.17713363468647003 0.20417751371860504
0.14487972855567932 0.17680637538433075 0.20277354121208191
0.38447344303131104 0.18642476201057434 0.20772024989128113
0.63399809598922729 0.1919122040271759 0.2051306813955307
0.80087816715240479 0.18749994039535522 0.19957262277603149
0.88625657558441162 0.18770727515220642 0.20132021605968475
0.97364747524261475 0.19443342089653015 0.20649205148220062
0.030738173052668571 0.31077614426612854 0.18831281363964081
0.11122079193592072 0.30735096335411072 0.18062563240528107
0.32446026802062988 0.33400169014930725 0.16334164142608643
0.61852377653121948 0.34696421027183533 0.16703955829143524
0.81865477561950684 0.32773089408874512 0.16200375556945801
0.90660327672958374 0.31810498237609863 0.16659633815288544
0.9847140908241272 0.31259047985076904 0.17659455537796021
0.040738813579082489 0.46662241220474243 0.17917604744434357
0.10619864612817764 0.46139121055603027 0.18083202838897705
0.24364517629146576 0.48222875595092773 0.15121608972549438
0.54507064819335938 0.52819836139678955 0.14163507521152496
0.81517279148101807 0.52574783563613892 0.12425285577774048
0.93115848302841187 0.49106010794639587 0.12208788841962814
0.99329584836959839 0.47424468398094177 0.13019512593746185
0.056864120066165924 0.63157480955123901 0.17093637585639954
0.12648637592792511 0.62797987461090088 0.17368665337562561
0.2163441926240921 0.63474828004837036 0.15102304518222809
0.45013368129730225 0.67509043216705322 0.14892579615116119
0.76664274930953979 0.72728151082992554 0.1706070750951767
0.93557876348495483 0.72820520401000977 0.11473310738801956
0.99625563621520996 0.6915963888168335 0.12074214220046997
0.060075931251049042 0.74772053956985474 0.17073680460453033
0.14500358700752258 0.74531525373458862 0.17882376909255981
0.20902802050113678 0.74961107969284058 0.1610725075006485
0.35670450329780579 0.77912455797195435 0.11662163585424423
0.68132179975509644 0.82572728395462036 0.17945139110088348
0.91354525089263916 0.87592202425003052 0.19740639626979828
0.99683743715286255 0.88374489545822144 0.1593279242515564
0.036951132118701935 0.83499765396118164 0.15855428576469421
0.11979777365922928 0.83013415336608887 0.15714567899703979
0.1541583240032196 0.83379215002059937 0.14043359458446503
0.23782263696193695 0.86104691028594971 0.11785345524549484
0.58561247587203979 0.90101414918899536 0.13238468766212463
0.87376374006271362 0.94191956520080566 0.22427049279212952
0.99790900945663452 0.9860156774520874 0.19196008145809174
0.036094367504119873 0.048380054533481598 0.35285854339599609
0.12925204634666443 0.056944079697132111 0.38696503639221191
0.32831534743309021 0.063100524246692657 0.42465180158615112
0.61094057559967041 0.057526800781488419 0.41127341985702515
0.77659571170806885 0.069315485656261444 0.38283291459083557
0.84814244508743286 0.079338908195495605 0.36233910918235779
0.93902444839477539 0.074996620416641235 0.35338661074638367
0.043210960924625397 0.20398759841918945 0.35512447357177734
0.12132680416107178 0.20366698503494263 0.3622124195098877
0.29919818043708801 0.1929805725812912 0.39583975076675415
0.59799647331237793 0.20111389458179474 0.39220145344734192
0.77631580829620361 0.20757880806922913 0.3616727888584137
0.85744959115982056 0.1980447918176651 0.34155967831611633
0.95169758796691895 0.20734040439128876 0.32980173826217651
0.046697340905666351 0.3419034481048584 0.3427731990814209
0.11958004534244537 0.33534032106399536 0.33800646662712097
0.27532240748405457 0.34188872575759888 0.34589377045631409
0.58115595579147339 0.34919548034667969 0.34869197010993958
0.79916167259216309 0.34233918786048889 0.32822135090827942
0.89402121305465698 0.33555567264556885 0.32337012887001038
0.97555923461914062 0.33244186639785767 0.32000994682312012
0.057424195110797882 0.49401888251304626 0.34289664030075073
0.12069890648126602 0.48729729652404785 0.33504191040992737
0.21887290477752686 0.49637141823768616 0.31779158115386963
0.52754169702529907 0.53462404012680054 0.29981759190559387
0.81295394897460938 0.52882188558578491 0.28826257586479187
0.93038588762283325 0.50196677446365356 0.27800479531288147
0.99297624826431274 0.48470035195350647 0.28677380084991455
0.06411290168762207 0.6473662257194519 0.30257365107536316
0.13345801830291748 0.641612708568573 0.29409128427505493
0.19927199184894562 0.64523327350616455 0.2751556932926178
0.42211979627609253 0.6785883903503418 0.26588961482048035
0.76558500528335571 0.72819334268569946 0.2569943368434906
0.9348488450050354 0.7217908501625061 0.22375397384166718
0.99617761373519897 0.69178187847137451 0.23217809200286865
0.06336192786693573 0.75377869606018066 0.26900395750999451
0.14327076077461243 0.75084644556045532 0.25929823517799377
0.20439067482948303 0.75237929821014404 0.24631017446517944
0.35339170694351196 0.78098249435424805 0.21441829204559326
0.67845755815505981 0.82338929176330566 0.26540061831474304
0.91275691986083984 0.87627255916595459 0.27410686016082764
0.99509048461914062 0.88032680749893188 0.25689411163330078
0.048844266682863235 0.83572059869766235 0.24616609513759613
0.13069707155227661 0.83561676740646362 0.21795254945755005
0.1814296543598175 0.83779639005661011 0.20899653434753418
0.2901616096496582 0.86123764514923096 0.19763439893722534
0.59435749053955078 0.90270400047302246 0.19779233634471893
0.87135154008865356 0.94905757904052734 0.27248600125312805
0.99203783273696899 0.97956633567810059 0.25628265738487244
0.049257181584835052 0.084064662456512451 0.4595009982585907
0.13259096443653107 0.10943667590618134 0.50039809942245483
0.22851970791816711 0.11239591240882874 0.55721414089202881
0.51923322677612305 0.090248122811317444 0.60884684324264526
0.77055644989013672 0.053421244025230408 0.61973977088928223
0.83253425359725952 0.056774020195007324 0.59338349103927612
0.92059874534606934 0.046415708959102631 0.56795716285705566
0.054084014147520065 0.21769854426383972 0.47307083010673523
0.13355781137943268 0.21946559846401215 0.48158860206604004
0.21520434319972992 0.21393635869026184 0.52851444482803345
0.49521765112876892 0.20546160638332367 0.59358417987823486
0.75987321138381958 0.19102977216243744 0.591541588306427
0.83127427101135254 0.19976669549942017 0.56293869018554688
0.92062640190124512 0.2027788907289505 0.53356587886810303
0.058782465755939484 0.34720295667648315 0.47141376137733459
0.13509237766265869 0.34317392110824585 0.47151535749435425
0.21131303906440735 0.33967065811157227 0.48464289307594299
0.42776671051979065 0.34105974435806274 0.55255627632141113
0.75937139987945557 0.34948518872261047 0.55617254972457886
0.85247242450714111 0.34551435708999634 0.53145474195480347
0.9442209005355835 0.34950137138366699 0.51263415813446045
0.065471947193145752 0.50582915544509888 0.46407490968704224
0.14289964735507965 0.501758873462677 0.46593579649925232
0.21988752484321594 0.50843209028244019 0.46308767795562744
0.42507344484329224 0.5304027795791626 0.498628169298172
0.77365708351135254 0.5454210638999939 0.52890485525131226
0.90206921100616455 0.5399969220161438 0.51417243480682373
0.9802548885345459 0.53670752048492432 0.51383358240127563
0.075484737753868103 0.66410613059997559 0.46651247143745422
0.1570005863904953 0.65895283222198486 0.46637734770774841
0.21606110036373138 0.66239821910858154 0.4632658064365387
0.35366189479827881 0.69107991456985474 0.45828980207443237
0.73191702365875244 0.73471570014953613 0.47041687369346619
0.93217718601226807 0.72892779111862183 0.46108222007751465
0.99547427892684937 0.70983850955963135 0.46616232395172119
0.078312844038009644 0.77132207155227661 0.42765206098556519
0.16456957161426544 0.76784318685531616 0.42415553331375122
0.2232547402381897 0.76687151193618774 0.41757389903068542
0.33617645502090454 0.7921980619430542 0.39048662781715393
0.64501416683197021 0.83751803636550903 0.40258616209030151
0.91269910335540771 0.88222295045852661 0.42254486680030823
0.99786913394927979 0.88298314809799194 0.42779743671417236
0.069893583655357361 0.84981471300125122 0.40000894665718079
0.15875333547592163 0.85261440277099609 0.37853318452835083
0.2192729264497757 0.85527825355529785 0.37978962063789368
0.31010434031486511 0.87421226501464844 0.35781052708625793
0.58103334903717041 0.91626900434494019 0.33165758848190308
0.87925106287002563 0.96386653184890747 0.40400037169456482
0.9965319037437439 0.98062324523925781 0.40696865320205688
0.049311470240354538 0.079366706311702728 0.54550343751907349
0.13229614496231079 0.10925726592540741 0.58569097518920898
0.21043570339679718 0.12078616768121719 0.63836723566055298
0.47484216094017029 0.083007752895355225 0.72555214166641235
0.80305945873260498 0.027119161561131477 0.79017949104309082
0.87349098920822144 0.032120455056428909 0.78269761800765991
0.96021264791488647 0.037914320826530457 0.77789008617401123
0.054755043238401413 0.22425118088722229 0.56613063812255859
0.13713458180427551 0.22402919828891754 0.57497960329055786
0.20844781398773193 0.21913762390613556 0.61095684766769409
0.41479802131652832 0.20778748393058777 0.69825547933578491
0.77224171161651611 0.16513074934482574 0.77653348445892334
0.86849576234817505 0.15621878206729889 0.77857542037963867
0.94475406408309937 0.16714778542518616 0.76122218370437622
0.061467576771974564 0.33945146203041077 0.58666950464248657
0.1396513432264328 0.33526569604873657 0.58622753620147705
0.2179667055606842 0.33007463812828064 0.59003078937530518
0.32012364268302917 0.32798194885253906 0.66113787889480591
0.73865950107574463 0.31086361408233643 0.76920956373214722
0.86954975128173828 0.29628714919090271 0.76754128932952881
0.94520413875579834 0.3104533851146698 0.74452012777328491
0.066676393151283264 0.49486252665519714 0.57061529159545898
0.1417364776134491 0.49127322435379028 0.5704658031463623
0.21939755976200104 0.48815396428108215 0.57761210203170776
0.28987413644790649 0.48589101433753967 0.6155737042427063
0.65685313940048218 0.50734603404998779 0.73218232393264771
0.88111096620559692 0.51510703563690186 0.75649887323379517
0.95691388845443726 0.51465851068496704 0.73886048793792725
0.079261153936386108 0.65703099966049194 0.59845852851867676
0.15643884241580963 0.65362823009490967 0.59330624341964722
0.22313009202480316 0.65601319074630737 0.59704309701919556
0.30839985609054565 0.67727142572402954 0.61549311876296997
0.61652088165283203 0.72250461578369141 0.68830156326293945
0.90051907300949097 0.73898988962173462 0.73747503757476807
0.97924411296844482 0.73023331165313721 0.73374241590499878
0.091511927545070648 0.7811352014541626 0.60881102085113525
0.17312213778495789 0.77736014127731323 0.60551291704177856
0.24099813401699066 0.77788877487182617 0.60503852367401123
0.31247618794441223 0.79760116338729858 0.60992014408111572
0.54937946796417236 0.8452494740486145 0.64802759885787964
0.8978847861289978 0.89001214504241943 0.68966621160507202
0.99319124221801758 0.8922075629234314 0.69242042303085327
0.088087059557437897 0.87077546119689941 0.59983563423156738
0.17489384114742279 0.86801356077194214 0.58549988269805908
0.24000199139118195 0.8709108829498291 0.59271258115768433
0.26552197337150574 0.88502836227416992 0.58089256286621094
0.50069957971572876 0.9246935248374939 0.60794264078140259
0.85154390335083008 0.96780312061309814 0.65369445085525513
0.9924425482749939 0.98560446500778198 0.65936475992202759
0.048472192138433456 0.087732397019863129 0.63877779245376587
0.12922936677932739 0.10570643097162247 0.67537093162536621
0.21398922801017761 0.11722297221422195 0.72669875621795654
0.4347527027130127 0.095124229788780212 0.80233043432235718
0.77348726987838745 0.036332808434963226 0.87175363302230835
0.8836175799369812 0.027246797457337379 0.87809950113296509
0.97372394800186157 0.02497183158993721 0.88037109375
0.054656863212585449 0.21841779351234436 0.65613448619842529
0.13348287343978882 0.21833892166614532 0.66589915752410889
0.21093696355819702 0.21759109199047089 0.70003443956375122
0.37637260556221008 0.21934564411640167 0.77335590124130249
0.75345689058303833 0.16656073927879333 0.86507213115692139
0.87473642826080322 0.13857826590538025 0.87430691719055176
0.96030932664871216 0.15149599313735962 0.87629467248916626
0.060681600123643875 0.33492085337638855 0.67611902952194214
0.13804267346858978 0.33246698975563049 0.67589491605758667
0.20921389758586884 0.32701721787452698 0.68480932712554932
0.30899414420127869 0.32702100276947021 0.74159306287765503
0.69782209396362305 0.30571684241294861 0.85648518800735474
0.89726787805557251 0.2829536497592926 0.88716036081314087
0.95705711841583252 0.29322931170463562 0.88179129362106323
0.066304884850978851 0.4828798770904541 0.66044104099273682
0.14362744987010956 0.47993090748786926 0.66367548704147339
0.22224231064319611 0.47897177934646606 0.66642981767654419
0.29338264465332031 0.47232729196548462 0.70629215240478516
0.59756410121917725 0.49170428514480591 0.82546532154083252
0.91258573532104492 0.49811360239982605 0.89573144912719727
0.9719541072845459 0.49074164032936096 0.89045041799545288
0.075846649706363678 0.64203500747680664 0.68426120281219482
0.15203440189361572 0.63952732086181641 0.67835766077041626
0.22860708832740784 0.64177590608596802 0.67947030067443848
0.29814049601554871 0.65754014253616333 0.70421332120895386
0.51787954568862915 0.6989021897315979 0.78457427024841309
0.88998961448669434 0.72671341896057129 0.8872530460357666
0.96797704696655273 0.71859920024871826 0.88796430826187134
0.091034233570098877 0.77787375450134277 0.72066366672515869
0.16852542757987976 0.77245515584945679 0.71802699565887451
0.24437248706817627 0.77133333683013916 0.715892493724823
0.31816813349723816 0.78584903478622437 0.7308354377746582
0.49157488346099854 0.83880758285522461 0.78190416097640991
0.87964582443237305 0.90483421087265015 0.8913608193397522
0.98764914274215698 0.90614348649978638 0.8991096019744873
0.091464519500732422 0.87192726135253906 0.72671234607696533
0.17007753252983093 0.86543184518814087 0.71626174449920654
0.23327735066413879 0.86321651935577393 0.71582233905792236
0.27290859818458557 0.87690490484237671 0.7287975549697876
0.46037924289703369 0.92472672462463379 0.7774655818939209
0.86286634206771851 0.98674958944320679 0.88558131456375122
0.99788171052932739 0.9963492751121521 0.90608912706375122
0.044261813163757324 0.087840095162391663 0.75164449214935303
0.13138312101364136 0.11078654229640961 0.78053152561187744
0.20575496554374695 0.11988263577222824 0.82247036695480347
0.38350012898445129 0.10136286169290543 0.88876557350158691
0.74951237440109253 0.04043121263384819 0.96628201007843018
0.89503705501556396 0.021440617740154266 0.98096168041229248
0.98009705543518066 0.015186953358352184 0.97996324300765991
0.054416447877883911 0.21336762607097626 0.76228487491607666
0.13750478625297546 0.22229015827178955 0.77096837759017944
0.21280279755592346 0.22152997553348541 0.79654830694198608
0.33899948000907898 0.2182191014289856 0.86383712291717529
0.69607627391815186 0.17431576550006866 0.95131731033325195
0.86623555421829224 0.15195004642009735 0.97313344478607178
0.96232134103775024 0.15108473598957062 0.97542303800582886
0.061152618378400803 0.32965373992919922 0.77930933237075806
0.13964670896530151 0.3299916684627533 0.77650648355484009
0.20965658128261566 0.32914647459983826 0.78593134880065918
0.28992453217506409 0.32963603734970093 0.83629894256591797
0.61282575130462646 0.31606253981590271 0.92878931760787964
0.87589418888092041 0.29696750640869141 0.97666102647781372
0.9611850380897522 0.30127868056297302 0.98066002130508423
0.066004417836666107 0.47199341654777527 0.77030527591705322
0.14360061287879944 0.47041311860084534 0.76969122886657715
0.21863304078578949 0.47197335958480835 0.77232688665390015
0.28031179308891296 0.46964547038078308 0.81212896108627319
0.54053115844726562 0.48870047926902771 0.90956747531890869
0.88065063953399658 0.49845212697982788 0.98288232088088989
0.96661782264709473 0.49292901158332825 0.98430150747299194
0.07261783629655838 0.62914365530014038 0.77399963140487671
0.14964695274829865 0.63093382120132446 0.77441173791885376
0.21917742490768433 0.63393121957778931 0.77664494514465332
0.29399809241294861 0.64753413200378418 0.79945331811904907
0.5269513726234436 0.69376242160797119 0.88388454914093018
0.88214206695556641 0.72325921058654785 0.98038595914840698
0.97604119777679443 0.71819460391998291 0.98208224773406982
0.084802113473415375 0.76318055391311646 0.80388849973678589
0.16371114552021027 0.76311075687408447 0.81277096271514893
0.23440457880496979 0.76449030637741089 0.81190973520278931
0.3167259693145752 0.78329598903656006 0.83054167032241821
0.50696790218353271 0.8371279239654541 0.88765627145767212
0.88021588325500488 0.90512239933013916 0.98429948091506958
0.99627113342285156 0.92063391208648682 0.99271887540817261
0.087602309882640839 0.85811585187911987 0.81785762310028076
0.16424518823623657 0.85799086093902588 0.81806010007858276
0.2340177446603775 0.85838115215301514 0.82026153802871704
0.31001678109169006 0.87750852108001709 0.83930277824401855
0.47059306502342224 0.9259636402130127 0.88588470220565796
0.86002606153488159 0.98613399267196655 0.97763258218765259
0.99849480390548706 0.99735850095748901 0.99613195657730103
