assets/lut/editingcorpw Summer Sparkle.cube
LUT_3D_SIZE 6
DOMAIN_MIN 0.0 0.0 0.0
DOMAIN_MAX 1.0 1.0 1.0
0.000000 0.000000 0.000000
0.026514 0.000000 0.000000
0.456129 0.000000 0.000000
0.823543 0.000000 0.000000
1.000000 0.000000 0.000000
0.000000 0.000000 0.000000
0.389413 0.011283 0.000000
0.774387 0.008487 0.000000
0.993549 0.011351 0.000000
0.758730 0.032935 0.000000
0.000139 0.067327 0.000000
0.311702 0.050382 0.000000
0.828616 0.354027 0.000000
0.998632 0.390036 0.000000
0.000000 0.421161 0.000000
0.084046 0.407206 0.000000
0.471165 0.406461 0.000000
0.816927 0.402658 0.000000
0.080239 0.754554 0.000000
0.415725 0.761716 0.000000
0.750834 0.754695 0.000000
0.995652 0.748523 0.000000
0.000000 0.817815 0.000000
0.048250 0.798583 0.000000
0.368075 0.996802 0.000000
0.640778 0.992084 0.000000
0.868535 0.990243 0.000000
0.470533 0.984090 0.000000
0.291152 0.999521 0.000000
0.577334 0.999951 0.000000
0.000000 0.000000 0.000000
0.159921 0.000000 0.000000
0.603835 0.000000 0.000000
0.923230 0.000000 0.000000
1.000000 0.000000 0.000000
0.000000 0.000000 0.000000
0.684907 0.524004 0.043684
0.280029 0.544707 0.009752
0.373386 0.557606 0.046314
0.420169 0.571754 0.040676
0.443813 0.565266 0.008970
0.662864 0.578021 0.043479
0.734760 0.813091 0.049622
0.265095 0.863179 0.014896
0.463256 0.840704 0.039160
0.379777 0.865996 0.044582
0.485685 0.862049 0.033125
0.738224 0.850382 0.054182
0.185054 1.000000 0.127720
0.368502 1.000000 0.096601
0.605636 0.999983 0.074007
0.421738 0.999743 0.112596
0.586990 0.999639 0.065247
0.164943 1.000000 0.141867
0.237798 0.000000 0.045320
0.521946 0.000000 0.035644
0.814084 0.000000 0.027250
0.598639 0.000000 0.034431
0.630649 0.000000 0.046719
0.214147 0.000000 0.051414
0.563226 0.106985 0.028556
0.831706 0.108088 0.043481
0.579576 0.144662 0.039596
0.570822 0.159632 0.041116
0.212709 0.183497 0.025073
0.494020 0.163092 0.030214
0.491744 0.489839 0.061979
0.809375 0.485760 0.081086
0.549642 0.523366 0.082476
0.560738 0.531478 0.092698
0.174487 0.556895 0.016689
0.443461 0.542910 0.045713
0.826264 0.602319 0.317047
0.935142 0.616594 0.341250
0.244101 0.658763 0.307617
0.097796 0.660282 0.274073
0.433102 0.651909 0.249610
0.779332 0.643342 0.277276
0.821697 0.864058 0.265553
0.941714 0.857697 0.309327
0.201097 0.934662 0.343957
0.188945 0.932829 0.326792
0.520232 0.917740 0.305767
0.794515 0.902458 0.246342
0.835802 1.000000 0.288664
0.934801 0.999902 0.296401
0.025965 1.000000 0.412300
0.249310 1.000000 0.386439
0.546063 1.000000 0.363707
0.811197 1.000000 0.324923
0.977703 0.000000 0.444396
0.958730 0.000012 0.447410
0.011548 0.000091 0.522590
0.285570 0.000000 0.516596
0.713699 0.000000 0.474547
0.967722 0.000000 0.447947
0.984422 0.166255 0.371203
0.241270 0.224150 0.403890
0.027559 0.228956 0.417115
0.366407 0.207555 0.410148
0.749449 0.198570 0.366518
0.973395 0.220190 0.369146
0.930375 0.552810 0.381317
0.241306 0.600373 0.367627
0.050083 0.605438 0.343172
0.340915 0.605130 0.323084
0.719534 0.595435 0.350947
0.958018 0.604695 0.386119
0.742523 0.625409 0.689145
0.965878 0.633104 0.678231
0.248865 0.692133 0.698867
0.035875 0.702681 0.698163
0.286827 0.697881 0.695099
0.672138 0.678843 0.681845
0.699687 0.897060 0.639072
0.944861 0.881760 0.641980
0.248365 0.959748 0.736819
0.093098 0.961008 0.713304
0.372821 0.953773 0.696103
0.688150 0.930029 0.647193
0.778225 1.000000 0.653565
0.777241 0.974095 0.629802
0.054150 0.958729 0.785060
0.194399 0.958730 0.741062
0.467121 0.958730 0.715100
0.748891 0.958730 0.674209
0.943820 0.000000 0.868406
0.771057 0.000679 0.870605
0.044584 0.001730 0.897903
0.204433 0.001090 0.897694
0.638816 0.000043 0.879036
0.935994 0.000000 0.858166
0.904126 0.209034 0.773260
0.757132 0.244051 0.779668
0.042547 0.282649 0.797770
0.134114 0.273281 0.791635
0.533444 0.262528 0.786012
0.865794 0.263438 0.771180
0.911882 0.577932 0.742411
0.757256 0.608192 0.745446
0.042050 0.656326 0.757361
0.169051 0.647690 0.749847
0.540745 0.638140 0.755766
0.875661 0.625466 0.737685
0.682661 0.680205 0.975583
0.917920 0.674195 0.970323
0.399880 0.726777 0.976531
0.067513 0.747707 0.981271
0.296308 0.737276 0.976023
0.625247 0.726277 0.974462
0.654681 0.925233 0.962267
0.898018 0.902769 0.941027
0.395923 0.954896 0.964915
0.104535 0.990754 0.995624
0.326867 0.977149 0.980719
0.608214 0.959548 0.962947
0.763733 0.958730 0.943942
0.942306 0.958730 0.919526
0.400257 0.466032 0.954225
0.160193 0.241270 0.998413
0.521789 0.241270 0.994181
0.846721 0.241270 0.986805
0.931517 0.000401 1.000000
0.674235 0.007887 1.000000
0.182201 0.015061 1.000000
0.195673 0.014260 1.000000
0.599212 0.006541 1.000000
0.913313 0.005384 1.000000
0.906875 0.279528 0.999225
0.674051 0.312250 0.999429
0.002298 0.338892 0.999801
0.204080 0.338300 0.999270
0.587704 0.332763 0.999728
0.899182 0.336520 0.998292
0.922789 0.631876 0.995697
0.400000 0.680378 0.993866
0.010232 0.701569 0.998360
0.218185 0.695927 0.992891
0.574973 0.685554 0.997366
0.879252 0.673902 0.994144
0.004562 0.748211 1.000000
0.265132 0.747954 1.000000
0.625396 0.730336 1.000000
0.899213 0.718664 1.000000
1.000000 0.718187 1.000000
0.000000 0.802701 1.000000
0.032828 0.986557 1.000000
0.299841 0.980153 1.000000
0.613866 0.956023 1.000000
0.867793 0.933541 1.000000
1.000000 0.922248 1.000000
0.009552 0.999780 1.000000
0.017907 0.241270 0.241270
0.074610 0.241270 0.241270
0.143636 0.241270 0.241270
0.204451 0.241270 0.241270
0.241251 0.241270 0.241270
0.000000 0.000000 0.000000
0.000000 0.000000 0.000000
0.000000 0.000000 0.000000
0.000000 0.000000 0.000000
0.000000 0.000000 0.000000
0.000000 0.000000 0.000000
0.000000 0.000000 0.000000
0.000000 0.000000 0.000000
0.000000 0.000000 0.000000
0.000000 0.000000 0.000000
0.000000 0.000000 0.000000
0.000000 0.000000 0.000000
0.000000 0.000000 0.000000
0.000000 0.000000 0.000000
0.000000 0.000000 0.000000
0.000000 0.000000 0.000000
0.000000 0.000000 0.000000
0.000000 0.000000 0.000000
0.000000 0.000000 0.000000
