assets/lut/editingcorp culor.cube
# Created by: G'MIC (https://gmic.eu)
TITLE "culor"
# LUT size
LUT_3D_SIZE 7
# Data domain
DOMAIN_MIN 0.0 0.0 0.0
DOMAIN_MAX 1.0 1.0 1.0
# LUT data points
0.032513651996850967 0.031538736075162888 0.033440310508012772
0.18849186599254608 0.041856233030557632 0.020365845412015915
0.39633607864379883 0.046684533357620239 0.0054174684919416904
0.57807403802871704 0.047520101070404053 0.0014492857735604048
0.68801069259643555 0.032817751169204712 0
0.75368702411651611 0.03438447043299675 0
0.80395448207855225 0.042032711207866669 0
0.0080721238628029823 0.14076222479343414 0.056507498025894165
0.11557812988758087 0.15108746290206909 0.038519572466611862
0.31495282053947449 0.18248039484024048 0.017535803839564323
0.5486443042755127 0.20723423361778259 0.0059373741969466209
0.70161145925521851 0.20941850543022156 0
0.78749209642410278 0.21731346845626831 0
0.85135078430175781 0.22947125136852264 0
0.0041932947933673859 0.27627286314964294 0.082915395498275757
0.08465634286403656 0.2900749146938324 0.058754462748765945
0.2850131094455719 0.33023643493652344 0.02644958533346653
0.53277689218521118 0.36775016784667969 0.00083773746155202389
0.7227509617805481 0.38707935810089111 0
0.83434337377548218 0.39818203449249268 0
0.90901398658752441 0.40819156169891357 0
0.0012464785249903798 0.40245276689529419 0.12318179756402969
0.043409697711467743 0.42042538523674011 0.097663432359695435
0.23501013219356537 0.45988067984580994 0.053841535001993179
0.51542681455612183 0.50893592834472656 0.010142337530851364
0.72674089670181274 0.53867018222808838 0.001776526914909482
0.86516648530960083 0.55182623863220215 0
0.94747054576873779 0.5579642653465271 0
0 0.50160974264144897 0.18137237429618835
0.0048212688416242599 0.52464389801025391 0.15181334316730499
0.17222802340984344 0.56635850667953491 0.093176886439323425
0.50054991245269775 0.62451434135437012 0.02006714791059494
0.72358590364456177 0.66116517782211304 0.0075654122047126293
0.87693142890930176 0.68074709177017212 0
0.9642566442489624 0.68693321943283081 0
7.0399866672232747e-05 0.58218687772750854 0.25023683905601501
0 0.61027175188064575 0.22420547902584076
0.10432419180870056 0.65628695487976074 0.17755351960659027
0.45551010966300964 0.71620213985443115 0.10578225553035736
0.69946509599685669 0.75763291120529175 0.033874556422233582
0.87491554021835327 0.78376948833465576 0.0018280328949913383
0.96619659662246704 0.79192113876342773 0.0072055291384458542
0.00046557257883250713 0.65187931060791016 0.32630932331085205
0 0.68022936582565308 0.3104509711265564
0.047968458384275436 0.72279840707778931 0.286204993724823
0.39207884669303894 0.78031200170516968 0.23062340915203094
0.66894412040710449 0.82627183198928833 0.17268748581409454
0.85753458738327026 0.8535463809967041 0.078885532915592194
0.95950049161911011 0.86597615480422974 0.045763667672872543
0.098523125052452087 0.033940661698579788 0.16719323396682739
0.29700076580047607 0.043095160275697708 0.14170292019844055
0.48733025789260864 0.034589804708957672 0.103376604616642
0.62633764743804932 0.027416842058300972 0.078213274478912354
0.7218053936958313 0.026118723675608635 0.053835071623325348
0.78286480903625488 0.026921290904283524 0.047886792570352554
0.82992458343505859 0.03416810929775238 0.03552531823515892
0.0055758459493517876 0.15508586168289185 0.19606752693653107
0.12964460253715515 0.1656305193901062 0.17139913141727448
0.35960152745246887 0.19136135280132294 0.1496443897485733
0.58163511753082275 0.19781380891799927 0.11333388090133667
0.72914355993270874 0.19965101778507233 0.075628019869327545
0.81220030784606934 0.20955932140350342 0.048823606222867966
0.87294608354568481 0.22373515367507935 0.042558122426271439
1.4361213516167481e-06 0.29609370231628418 0.23293542861938477
0.063952080905437469 0.30957388877868652 0.21013584733009338
0.30778148770332336 0.34566149115562439 0.18198718130588531
0.56579458713531494 0.37734943628311157 0.13594849407672882
0.74624806642532349 0.39209434390068054 0.093701332807540894
0.85266721248626709 0.40217897295951843 0.068488985300064087
0.92945224046707153 0.41152453422546387 0.042458925396203995
0 0.43019622564315796 0.27469050884246826
0.010921149514615536 0.44942671060562134 0.25280037522315979
0.2329755425453186 0.48891732096672058 0.22113651037216187
0.53217750787734985 0.53209501504898071 0.17974604666233063
0.74649739265441895 0.55535626411437988 0.11130890250205994
0.87369048595428467 0.56579679250717163 0.079358957707881927
0.96308648586273193 0.57098138332366943 0.052520811557769775
0.0010902255307883024 0.53593289852142334 0.32158094644546509
0.0012956507271155715 0.56200718879699707 0.29857140779495239
0.16300083696842194 0.60261648893356323 0.27148053050041199
0.50879371166229248 0.65418380498886108 0.23186096549034119
0.72460407018661499 0.68491435050964355 0.17547658085823059
0.87715613842010498 0.7009395956993103 0.12546172738075256
0.97500240802764893 0.7060731053352356 0.095078669488430023
0.0092656007036566734 0.61613434553146362 0.37119555473327637
0 0.64390116930007935 0.355682373046875
0.081506215035915375 0.68934124708175659 0.340017169713974
0.44472536444664001 0.74815070629119873 0.2968907356262207
0.69513201713562012 0.78602808713912964 0.25040104985237122
0.87493932247161865 0.80687856674194336 0.19214114546775818
0.97327834367752075 0.81435912847518921 0.14190325140953064
0.0029556273948401213 0.68219637870788574 0.43296793103218079
0 0.70907437801361084 0.42558813095092773
0.093050725758075714 0.75415754318237305 0.41061338782310486
0.41224196553230286 0.80950260162353516 0.37239918112754822
0.67459690570831299 0.85198819637298584 0.35185378789901733
0.85513830184936523 0.87760663032531738 0.30806684494018555
0.95993524789810181 0.89152711629867554 0.26917803287506104
0.23113931715488434 0.025544827803969383 0.33780187368392944
0.44390547275543213 0.032392479479312897 0.32033500075340271
0.56122374534606934 0.028521563857793808 0.29175320267677307
0.66841238737106323 0.021008210256695747 0.26724618673324585
0.75222265720367432 0.020890539512038231 0.25306060910224915
0.8089594841003418 0.016597732901573181 0.2400878518819809
0.85379892587661743 0.025460517033934593 0.2200305312871933
0.020865706726908684 0.16121937334537506 0.35564941167831421
0.1747281551361084 0.18218013644218445 0.3472951352596283
0.41365855932235718 0.19572466611862183 0.33240675926208496
0.6288033127784729 0.19823436439037323 0.31397095322608948
0.75999706983566284 0.19458688795566559 0.29308196902275085
0.83648359775543213 0.19875241816043854 0.27197098731994629
0.89175236225128174 0.21903006732463837 0.26276317238807678
0.0033423032145947218 0.31761738657951355 0.39916813373565674
0.067098967730998993 0.33500951528549194 0.38532450795173645
0.34974920749664307 0.36829966306686401 0.37740132212638855
0.59863430261611938 0.39257088303565979 0.35882651805877686
0.77384543418884277 0.40426883101463318 0.33117705583572388
0.87071067094802856 0.41224753856658936 0.31190016865730286
0.94729322195053101 0.42063435912132263 0.28634169697761536
0.0013687133323401213 0.46103867888450623 0.44149914383888245
0.008105977438390255 0.48212292790412903 0.4290669858455658
0.25984644889831543 0.52371019124984741 0.4162348210811615
0.5632699728012085 0.55997586250305176 0.3953934907913208
0.76711618900299072 0.57983648777008057 0.36895793676376343
0.88646817207336426 0.58917045593261719 0.34351268410682678
0.97750014066696167 0.59064459800720215 0.31791272759437561
0.0083854524418711662 0.57147127389907837 0.48109662532806396
0.00068951776484027505 0.5963515043258667 0.46975433826446533
0.15961147844791412 0.64015293121337891 0.45576345920562744
0.52365797758102417 0.68540924787521362 0.43869730830192566
0.74364757537841797 0.71232104301452637 0.41187486052513123
0.89037114381790161 0.72762364149093628 0.37930473685264587
0.98369908332824707 0.73041260242462158 0.36399105191230774
0.0033642188645899296 0.65410071611404419 0.518932044506073
0 0.67921680212020874 0.50787508487701416
0.11677949130535126 0.72841447591781616 0.49486711621284485
0.47207725048065186 0.78596389293670654 0.47268959879875183
0.71079462766647339 0.81838715076446533 0.45783582329750061
0.88144946098327637 0.83633667230606079 0.42806228995323181
0.9761664867401123 0.84539377689361572 0.39338335394859314
0.00099143234547227621 0.71576988697052002 0.55225598812103271
0.004351896233856678 0.7412293553352356 0.55109745264053345
0.1447591632604599 0.7895958423614502 0.54223394393920898
0.42823678255081177 0.84374338388442993 0.52259284257888794
0.6719825267791748 0.88049358129501343 0.50634133815765381
0.85465472936630249 0.9064478874206543 0.48608309030532837
0.96263593435287476 0.91910970211029053 0.45837908983230591
0.38293620944023132 0.0088696051388978958 0.47145640850067139
0.54190516471862793 0.0087238987907767296 0.46474194526672363
0.64047670364379883 0.0039477329701185226 0.44641056656837463
0.7052074670791626 0.020269701257348061 0.41962778568267822
0.77326518297195435 0.021946687251329422 0.41248437762260437
0.82897967100143433 0.0081257838755846024 0.40804702043533325
0.8683963418006897 0.027015864849090576 0.40430864691734314
0.075921334326267242 0.15885493159294128 0.49232351779937744
0.25272214412689209 0.17566484212875366 0.49690747261047363
0.47765442728996277 0.17861971259117126 0.49163898825645447
0.66182368993759155 0.18568168580532074 0.47913679480552673
0.7764207124710083 0.18869514763355255 0.46523800492286682
0.85479837656021118 0.18703708052635193 0.44896811246871948
0.90682762861251831 0.21182940900325775 0.44198265671730042
0.010969034396111965 0.33187249302864075 0.54815304279327393
0.12868790328502655 0.3530941903591156 0.54511028528213501
0.40755340456962585 0.38009315729141235 0.54890018701553345
0.63537335395812988 0.39967817068099976 0.53436803817749023
0.78824812173843384 0.40885710716247559 0.52049344778060913
0.8865896463394165 0.41800925135612488 0.49868160486221313
0.95834970474243164 0.42714482545852661 0.48043909668922424
0.0040903729386627674 0.48968836665153503 0.58887332677841187
0.055811610072851181 0.51211750507354736 0.58711451292037964
0.32446140050888062 0.54910314083099365 0.58803504705429077
0.59236812591552734 0.57851850986480713 0.57642209529876709
0.78623557090759277 0.59529238939285278 0.56255620718002319
0.89923262596130371 0.60194307565689087 0.54318392276763916
0.98522603511810303 0.60549074411392212 0.52431976795196533
0.0063009075820446014 0.60625481605529785 0.62333196401596069
0.0023467119317501783 0.63076353073120117 0.62244081497192383
0.19655963778495789 0.67344850301742554 0.61871623992919922
0.53321260213851929 0.71026545763015747 0.60889750719070435
0.76429671049118042 0.73373317718505859 0.59296536445617676
0.89837443828582764 0.74673020839691162 0.57260513305664062
0.9880521297454834 0.74733400344848633 0.55882400274276733
0 0.69288915395736694 0.64738112688064575
0.00087019975762814283 0.71958702802658081 0.64408087730407715
0.16745345294475555 0.76851266622543335 0.64233303070068359
0.49652227759361267 0.81779211759567261 0.63652366399765015
0.72588759660720825 0.8476942777633667 0.623790442943573
0.88653385639190674 0.86230319738388062 0.6022186279296875
0.98041242361068726 0.8637586236000061 0.58340358734130859
0 0.74913126230239868 0.67096573114395142
0.025930097326636314 0.77839231491088867 0.67385774850845337
0.19359707832336426 0.82747936248779297 0.67253643274307251
0.4594801664352417 0.87699741125106812 0.66743767261505127
0.69149136543273926 0.91298407316207886 0.65760862827301025
0.85938876867294312 0.93569362163543701 0.64365482330322266
0.9638482928276062 0.94239503145217896 0.62591028213500977
0.5443379282951355 0.00039152256795205176 0.56520062685012817
0.64611262083053589 0.0023526807781308889 0.56234985589981079
0.73977202177047729 0.0022961336653679609 0.55911797285079956
0.76510912179946899 0.0039944816380739212 0.54318833351135254
0.79812997579574585 0.004721533041447401 0.53316062688827515
0.84236067533493042 0.00056098488857969642 0.53312259912490845
0.88232302665710449 0.01286971103399992 0.53167510032653809
0.21034003794193268 0.1350863128900528 0.60236304998397827
0.37987300753593445 0.14807869493961334 0.61170995235443115
0.55132687091827393 0.14422595500946045 0.61093777418136597
0.69835513830184937 0.14855889976024628 0.60829687118530273
0.79499298334121704 0.15096718072891235 0.59762090444564819
0.86671042442321777 0.15135399997234344 0.58911949396133423
0.91476815938949585 0.18698006868362427 0.58360326290130615
0.073735557496547699 0.33855262398719788 0.6606903076171875
0.26441043615341187 0.35885417461395264 0.67255640029907227
0.4958861768245697 0.37872588634490967 0.67641031742095947
0.68527722358703613 0.3941987156867981 0.66959899663925171
0.81700098514556885 0.39997959136962891 0.65939182043075562
0.90289014577865601 0.41143590211868286 0.64664864540100098
0.96287113428115845 0.41894242167472839 0.63506686687469482
3.6262063076719642e-05 0.50927644968032837 0.70447492599487305
0.10936661064624786 0.53442132472991943 0.71567761898040771
0.41150692105293274 0.56420379877090454 0.72051358222961426
0.63935399055480957 0.5882033109664917 0.71423423290252686
0.80820304155349731 0.60077011585235596 0.70571821928024292
0.91208302974700928 0.6084367036819458 0.69351595640182495
0.99111980199813843 0.61163848638534546 0.67589056491851807
0 0.63200896978378296 0.73763829469680786
0.017029691487550735 0.65892332792282104 0.74445223808288574
0.29127657413482666 0.69729089736938477 0.75106215476989746
0.59192603826522827 0.72907447814941406 0.7452731728553772
0.79027730226516724 0.74875622987747192 0.73694086074829102
0.90671062469482422 0.75669264793395996 0.71958965063095093
0.99385875463485718 0.76203334331512451 0.70189374685287476
0.00045545989996753633 0.72772359848022461 0.75812828540802002
0.0081160003319382668 0.75484758615493774 0.76056540012359619
0.22896747291088104 0.79793959856033325 0.76588082313537598
0.53432351350784302 0.83747977018356323 0.7664368748664856
0.75344735383987427 0.86416804790496826 0.76031637191772461
0.89312958717346191 0.87576788663864136 0.74681955575942993
0.98506557941436768 0.87889444828033447 0.73246902227401733
3.9672850107308477e-05 0.78295588493347168 0.78026962280273438
0.046988468617200851 0.81445604562759399 0.78180813789367676
0.23637975752353668 0.85935604572296143 0.7849879264831543
0.49115636944770813 0.89807647466659546 0.79162067174911499
0.72511506080627441 0.93249893188476562 0.78806823492050171
0.87585353851318359 0.95540535449981689 0.77450066804885864
0.97152525186538696 0.96207624673843384 0.75732362270355225
0.6921076774597168 3.2866235414985567e-05 0.61637085676193237
0.72704094648361206 0.00037734088255092502 0.61268258094787598
0.76329368352890015 0 0.61100858449935913
0.80951130390167236 0 0.61358964443206787
0.82586848735809326 0 0.60463798046112061
0.85375171899795532 0 0.60714870691299438
0.89698511362075806 0.00080940395127981901 0.60809862613677979
0.38541039824485779 0.10104220360517502 0.6726374626159668
0.49554187059402466 0.1161915510892868 0.67278671264648438
0.61952799558639526 0.11354243010282516 0.67807531356811523
0.73512393236160278 0.10744350403547287 0.68424326181411743
0.81583011150360107 0.10125919431447983 0.68117594718933105
0.87449568510055542 0.093069888651371002 0.68132203817367554
0.91908609867095947 0.15088300406932831 0.67656534910202026
0.25975766777992249 0.34208258986473083 0.7395440936088562
0.4196600615978241 0.35771086812019348 0.74883627891540527
0.58022958040237427 0.36800351738929749 0.75288540124893188
0.72945487499237061 0.3763333261013031 0.75330579280853271
0.83912676572799683 0.3857153058052063 0.75185811519622803
0.91455161571502686 0.3995482325553894 0.74790817499160767
0.96594858169555664 0.4050852358341217 0.7425006628036499
0.070729859173297882 0.52719563245773315 0.78534162044525146
0.29771459102630615 0.55087852478027344 0.79877376556396484
0.51332974433898926 0.57253706455230713 0.80429184436798096
0.70144623517990112 0.58819782733917236 0.8040088415145874
0.83601069450378418 0.59808743000030518 0.80526018142700195
0.92745912075042725 0.6074826717376709 0.8000103235244751
0.99564832448959351 0.60692232847213745 0.78944164514541626
0.013376018963754177 0.65726810693740845 0.81143957376480103
0.16984710097312927 0.68661868572235107 0.82601076364517212
0.42613503336906433 0.7154616117477417 0.83316117525100708
0.64845335483551025 0.73896199464797974 0.836223304271698
0.81885445117950439 0.75335961580276489 0.83413702249526978
0.91895967721939087 0.75982320308685303 0.82756215333938599
0.99663060903549194 0.76227676868438721 0.81852596998214722
6.2112245359458029e-05 0.75764447450637817 0.83299160003662109
0.061862751841545105 0.7895084023475647 0.84214568138122559
0.3489469587802887 0.82307249307632446 0.85010498762130737
0.59801965951919556 0.85565721988677979 0.85428178310394287
0.78830081224441528 0.87350225448608398 0.85378921031951904
0.90258073806762695 0.88486397266387939 0.84889018535614014
0.9930303692817688 0.88764792680740356 0.84308850765228271
0.0014140858547762036 0.82103824615478516 0.85443967580795288
0.085991606116294861 0.85176080465316772 0.85900908708572388
0.30857688188552856 0.88836205005645752 0.86573058366775513
0.55180281400680542 0.92265468835830688 0.87362325191497803
0.75440549850463867 0.94928526878356934 0.87368130683898926
0.88658839464187622 0.96388369798660278 0.86640441417694092
0.98288404941558838 0.97023516893386841 0.85600441694259644
0.79482161998748779 0.00087766459910199046 0.6547095775604248
0.81160217523574829 8.4013096056878567e-05 0.65250474214553833
0.81665605306625366 0 0.6530005931854248
0.84027063846588135 0 0.65141975879669189
0.83924931287765503 0.0014599220594391227 0.64010953903198242
0.86609554290771484 0 0.64627182483673096
0.91783928871154785 0 0.65563398599624634
0.51175165176391602 0.092831254005432129 0.72141563892364502
0.58591145277023315 0.088927552103996277 0.72094976902008057
0.68766993284225464 0.075221151113510132 0.72728198766708374
0.77290809154510498 0.05655568465590477 0.72786194086074829
0.83440744876861572 0.07398330420255661 0.72634804248809814
0.88444733619689941 0.078513503074645996 0.72797375917434692
0.92914855480194092 0.11503542959690094 0.72800147533416748
0.44045034050941467 0.34112462401390076 0.80312836170196533
0.53546583652496338 0.34328761696815491 0.80727100372314453
0.66329813003540039 0.34624916315078735 0.80771398544311523
0.77258747816085815 0.34279406070709229 0.80684828758239746
0.85759377479553223 0.35915085673332214 0.80629944801330566
0.92814528942108154 0.35751917958259583 0.80254936218261719
0.97343623638153076 0.36648625135421753 0.79782581329345703
0.33295705914497375 0.54593151807785034 0.85818195343017578
0.46880188584327698 0.56001549959182739 0.86282807588577271
0.60128897428512573 0.57050895690917969 0.86377215385437012
0.75911188125610352 0.58166342973709106 0.86462908983230591
0.86490225791931152 0.58774757385253906 0.86188322305679321
0.94383424520492554 0.59493589401245117 0.85774540901184082
0.99683809280395508 0.59464424848556519 0.85068851709365845
0.16670788824558258 0.68849819898605347 0.88487416505813599
0.37877339124679565 0.70850133895874023 0.89408886432647705
0.54176265001296997 0.72462397813796997 0.89733374118804932
0.71674829721450806 0.74424928426742554 0.89924317598342896
0.84789752960205078 0.75468534231185913 0.89498269557952881
0.93294566869735718 0.7563362717628479 0.89130872488021851
0.99631476402282715 0.76301091909408569 0.88399863243103027
0.028091639280319214 0.793537437915802 0.90351802110671997
0.21175828576087952 0.8165469765663147 0.91015928983688354
0.46302512288093567 0.83742338418960571 0.91551613807678223
0.6663353443145752 0.86283087730407715 0.91907542943954468
0.8299831748008728 0.87793910503387451 0.91723757982254028
0.92258733510971069 0.88517516851425171 0.91191768646240234
0.99918085336685181 0.88666456937789917 0.90433681011199951
0.024197805672883987 0.85873758792877197 0.92178207635879517
0.18104323744773865 0.8822026252746582 0.92450720071792603
0.42260822653770447 0.90653759241104126 0.92829495668411255
0.62747102975845337 0.93883681297302246 0.9347720742225647
0.78966820240020752 0.96135622262954712 0.93428927659988403
0.90383404493331909 0.96672284603118896 0.92714053392410278
0.99334180355072021 0.97784209251403809 0.91991508007049561
