assets/lut/editingcorpw Misty Morn.cube
LUT_3D_SIZE 6
DOMAIN_MIN 0.0 0.0 0.0
DOMAIN_MAX 1.0 1.0 1.0
0.000000 0.000000 0.000000
0.226667 0.000000 0.000000
0.419608 0.003922 0.001569
0.592941 0.000000 0.015686
0.773333 0.000000 0.022745
0.996078 0.000000 0.000000
0.081569 0.195294 0.007843
0.249054 0.185031 0.009770
0.428706 0.170771 0.013229
0.590589 0.155294 0.019608
0.776470 0.153725 0.029804
0.999216 0.151372 0.011765
0.173334 0.362353 0.041568
0.270797 0.357647 0.044811
0.433486 0.355839 0.046274
0.600000 0.347451 0.058039
0.787451 0.353725 0.056471
1.000000 0.370980 0.012549
0.240000 0.538039 0.080000
0.309019 0.536471 0.081569
0.449412 0.538824 0.078431
0.608866 0.538039 0.079761
0.801778 0.551582 0.047059
1.000000 0.581961 0.002353
0.264314 0.769412 0.009412
0.336470 0.772549 0.001569
0.472941 0.775686 0.001569
0.645491 0.775006 0.000889
0.833725 0.781109 0.003205
0.999216 0.802353 0.001569
0.231373 0.996078 0.000000
0.302745 0.996862 0.000000
0.472157 0.998431 0.003922
0.669804 1.000000 0.000000
0.890196 1.000000 0.000000
1.000000 0.996078 0.000000
0.000784 0.000000 0.203922
0.219541 0.003138 0.211048
0.423634 0.000000 0.202457
0.589020 0.001569 0.199216
0.770196 0.000784 0.199216
1.000000 0.000000 0.194510
0.080919 0.189736 0.213400
0.248547 0.185672 0.213329
0.419078 0.177998 0.208378
0.589020 0.169412 0.210196
0.773692 0.161636 0.205132
0.996078 0.149736 0.200358
0.182536 0.362667 0.209516
0.277121 0.359132 0.210196
0.429465 0.354593 0.204382
0.595608 0.350588 0.210405
0.783425 0.357177 0.206588
0.998222 0.364131 0.191477
0.239216 0.538039 0.201569
0.310521 0.538039 0.210913
0.447634 0.537255 0.206954
0.610674 0.538517 0.204945
0.802144 0.556078 0.198641
0.996863 0.581961 0.171765
0.257255 0.775686 0.167843
0.324347 0.769838 0.167485
0.467765 0.775111 0.162562
0.644601 0.782640 0.152732
0.837714 0.785165 0.138689
1.000000 0.796863 0.098824
0.152941 0.990588 0.000784
0.273793 0.993658 0.000426
0.451870 0.999006 0.000000
0.658824 0.998431 0.000000
0.885490 1.000000 0.003138
1.000000 1.000000 0.000000
0.017255 0.001569 0.387451
0.207948 0.000000 0.383529
0.410980 0.001569 0.389804
0.586667 0.000784 0.367059
0.770196 0.001569 0.374902
1.000000 0.000000 0.378039
0.106823 0.178039 0.392993
0.235862 0.176496 0.386139
0.416199 0.175833 0.385370
0.584209 0.170980 0.380392
0.777359 0.151268 0.375477
0.997542 0.029699 0.367529
0.182917 0.361091 0.383836
0.275281 0.358025 0.382849
0.429067 0.352845 0.380699
0.592941 0.352157 0.381722
0.787451 0.351918 0.377016
0.994203 0.342745 0.366752
0.219608 0.538824 0.364706
0.297621 0.540392 0.366275
0.440478 0.539063 0.364333
0.611525 0.539847 0.361568
0.810196 0.549020 0.355190
0.998431 0.570196 0.346667
0.130981 0.777255 0.330980
0.258928 0.775477 0.334013
0.437953 0.778584 0.330263
0.632157 0.779712 0.322928
0.836437 0.787877 0.321143
1.000000 0.795294 0.300392
0.002353 1.000000 0.269804
0.041673 0.998902 0.261909
0.381109 0.999522 0.264314
0.626666 0.997647 0.258824
0.874510 0.998431 0.254118
0.996863 1.000000 0.253333
0.086274 0.000000 0.541961
0.215686 0.000784 0.546667
0.401568 0.001569 0.542745
0.584313 0.000000 0.542267
0.772549 0.004131 0.551477
0.996078 0.000000 0.574118
0.137255 0.174902 0.541961
0.241860 0.172123 0.543888
0.411660 0.167634 0.541961
0.592702 0.157647 0.544074
0.780706 0.132444 0.546667
0.992941 0.003138 0.560000
0.190588 0.349804 0.541176
0.268235 0.349229 0.540497
0.423051 0.342745 0.540153
0.599216 0.338278 0.542200
0.801569 0.329203 0.547346
0.997647 0.285490 0.548235
0.205012 0.536164 0.545643
0.277102 0.540699 0.542506
0.423291 0.539302 0.538756
0.611975 0.540201 0.540976
0.821256 0.538278 0.538535
0.999522 0.524467 0.537934
0.006850 0.779503 0.537464
0.085386 0.780496 0.531189
0.355712 0.784209 0.517647
0.598419 0.787502 0.511029
0.834460 0.787156 0.510116
0.999320 0.788915 0.503739
0.001569 1.000000 0.494117
0.001569 0.998431 0.487059
0.173333 0.991372 0.489412
0.560000 0.996556 0.481262
0.847948 1.000000 0.476183
0.995294 0.997647 0.478431
0.146667 0.003922 0.745098
0.262745 0.004706 0.745098
0.440000 0.000000 0.745882
0.626771 0.002249 0.743634
0.814902 0.003205 0.750229
0.996862 0.000000 0.743529
0.156078 0.162353 0.746667
0.269871 0.155653 0.745882
0.437647 0.145987 0.746980
0.623059 0.114510 0.745987
0.819966 0.040493 0.747025
0.992157 0.006275 0.749804
0.084706 0.339608 0.752941
0.226039 0.337830 0.753516
0.423597 0.327843 0.752156
0.623634 0.317647 0.752052
0.827451 0.298823 0.753792
1.000000 0.260392 0.749020
0.001098 0.560575 0.753725
0.154248 0.555974 0.759111
0.368941 0.544889 0.754510
0.602165 0.525049 0.758037
0.838050 0.518197 0.757392
1.000000 0.510588 0.757229
0.006274 0.795294 0.758499
0.001636 0.792515 0.752582
0.311866 0.792157 0.751866
0.577560 0.789187 0.754613
0.835007 0.787877 0.754505
0.996862 0.777188 0.752515
0.003138 0.992941 0.741961
0.000784 0.996862 0.755294
0.203921 0.998431 0.749804
0.558798 1.000000 0.764079
0.812975 0.999641 0.737614
1.000000 1.000000 0.754509
0.203922 0.003922 1.000000
0.296471 0.000784 0.989804
0.476863 0.000000 0.997647
0.672157 0.001569 1.000000
0.874510 0.000000 0.999216
0.992157 0.003922 0.996078
0.174902 0.123137 0.996078
0.281502 0.118790 0.996862
0.469856 0.078431 1.000000
0.670588 0.003138 1.000000
0.878431 0.000000 1.000000
1.000000 0.000000 1.000000
0.003137 0.327843 0.992941
0.144732 0.320104 1.000000
0.418278 0.312463 1.000000
0.643922 0.287059 1.000000
0.868236 0.247843 0.996863
0.997647 0.172549 0.997647
0.000000 0.549804 1.000000
0.000784 0.542745 1.000000
0.225882 0.510588 1.000000
0.582334 0.504008 0.998431
0.840994 0.491869 0.999320
1.000000 0.476078 0.996863
0.000784 0.805490 0.996862
0.003138 0.803137 0.996862
0.037647 0.799216 0.991372
0.513987 0.783634 1.000000
0.805557 0.775686 0.998790
0.999216 0.778824 1.000000
0.000000 0.992157 1.000000
0.012549 1.000000 0.995294
0.000000 0.998431 0.991372
0.552157 1.000000 0.992941
0.874510 0.999216 0.985098
1.000000 1.000000 1.000000
