assets/lut/editingcorpw Misty Morn.cube
LUT_3D_SIZE 16
DOMAIN_MIN 0.0 0.0 0.0
DOMAIN_MAX 1.0 1.0 1.0
0.000000 0.000000 0.000000
0.076078 0.000000 0.000000
0.157647 0.000000 0.000000
0.226667 0.000000 0.000000
0.302745 0.003922 0.003922
0.356863 0.000000 0.000000
0.419608 0.003922 0.001569
0.478431 0.000000 0.004706
0.534902 0.003138 0.010981
0.592941 0.000000 0.015686
0.650980 0.000000 0.015686
0.709804 0.002353 0.019608
0.773333 0.000000 0.022745
0.842353 0.000000 0.019608
0.920785 0.000000 0.013333
0.996078 0.000000 0.000000
0.017255 0.060392 0.002353
0.087537 0.055074 0.002831
0.163137 0.054117 0.000000
0.231059 0.047843 0.002249
0.300393 0.040784 0.003922
0.360784 0.032157 0.000000
0.424313 0.024008 0.007537
0.481569 0.016471 0.011765
0.534902 0.010405 0.011085
0.590588 0.002353 0.015686
0.649412 0.001569 0.015686
0.711918 0.001569 0.019062
0.774902 0.000000 0.021176
0.842353 0.001569 0.016471
0.920784 0.000000 0.018039
0.991372 0.002353 0.011765
0.043922 0.123137 0.001569
0.099608 0.127843 0.001569
0.171339 0.125064 0.006992
0.243137 0.122353 0.004706
0.305203 0.116183 0.007059
0.366275 0.107451 0.007843
0.428235 0.098824 0.010981
0.477647 0.094118 0.011765
0.534117 0.084706 0.011765
0.591477 0.080000 0.017830
0.647059 0.072941 0.018039
0.712157 0.072157 0.025098
0.779742 0.069020 0.023171
0.847059 0.065882 0.020392
0.923608 0.062745 0.016941
0.999216 0.060392 0.002353
0.081569 0.195294 0.007843
0.125595 0.191477 0.008993
0.179608 0.193726 0.010981
0.249054 0.185031 0.009770
0.310588 0.182745 0.007059
0.372549 0.173333 0.010981
0.428706 0.170771 0.013229
0.483921 0.163921 0.015686
0.534834 0.159641 0.018039
0.590589 0.155294 0.019608
0.647059 0.151372 0.027451
0.709909 0.151477 0.029124
0.776470 0.153725 0.029804
0.844638 0.150588 0.027025
0.916863 0.152157 0.016471
0.999216 0.151372 0.011765
0.113725 0.254118 0.010196
0.159216 0.250980 0.012549
0.192732 0.251869 0.010980
0.255686 0.252549 0.009412
0.307623 0.243615 0.006513
0.372549 0.241569 0.015686
0.427451 0.236863 0.022745
0.483817 0.229020 0.029699
0.539608 0.225882 0.032157
0.590828 0.223051 0.037475
0.650980 0.221177 0.034510
0.713726 0.221177 0.041569
0.776575 0.219712 0.040889
0.846275 0.226667 0.033726
0.925796 0.225098 0.021416
1.000000 0.232157 0.008628
0.145098 0.309804 0.027451
0.172549 0.303529 0.029020
0.210981 0.306666 0.025882
0.261177 0.306666 0.019608
0.316079 0.308235 0.023529
0.372549 0.301961 0.019608
0.432941 0.295686 0.031373
0.485490 0.289412 0.032157
0.538823 0.286275 0.047843
0.600000 0.286275 0.057255
0.654902 0.286275 0.054902
0.717647 0.286275 0.052549
0.781176 0.287059 0.044706
0.853333 0.293334 0.041569
0.928628 0.298039 0.029020
1.000000 0.298039 0.007843
0.173334 0.362353 0.041568
0.201875 0.362114 0.039455
0.228236 0.360784 0.045490
0.270797 0.357647 0.044811
0.321568 0.360000 0.043921
0.374902 0.358431 0.045490
0.433486 0.355839 0.046274
0.485490 0.352941 0.048627
0.541961 0.349124 0.053334
0.600000 0.347451 0.058039
0.659608 0.347451 0.065882
0.716317 0.351372 0.057972
0.787451 0.353725 0.056471
0.851974 0.361359 0.047268
0.929411 0.367059 0.032157
1.000000 0.370980 0.012549
0.202353 0.416470 0.059608
0.213333 0.417255 0.059608
0.243922 0.412841 0.066107
0.282353 0.411765 0.067451
0.330771 0.416262 0.064209
0.374902 0.414902 0.061177
0.433726 0.412549 0.065098
0.491406 0.414476 0.067025
0.542745 0.411765 0.062745
0.601568 0.408523 0.066667
0.656471 0.411765 0.064314
0.720784 0.413333 0.068235
0.789804 0.420392 0.063955
0.861961 0.429804 0.044706
0.934222 0.434300 0.025203
0.992941 0.441569 0.000000
0.230588 0.472941 0.075294
0.241359 0.473516 0.070588
0.258039 0.477647 0.074510
0.294118 0.477647 0.075877
0.340392 0.476079 0.077647
0.384314 0.474510 0.073726
0.436862 0.474405 0.075869
0.492549 0.470588 0.080000
0.545815 0.470230 0.071238
0.604706 0.473726 0.074510
0.659608 0.477647 0.073726
0.724601 0.479895 0.065778
0.791373 0.488627 0.059608
0.858824 0.498465 0.057681
0.939608 0.503529 0.021177
0.999216 0.510588 0.003138
0.240000 0.538039 0.080000
0.251765 0.540392 0.084706
0.278327 0.538039 0.074823
0.309019 0.536471 0.081569
0.348780 0.534902 0.075055
0.389804 0.536471 0.077647
0.449412 0.538824 0.078431
0.500079 0.538144 0.078431
0.552941 0.537255 0.081569
0.608866 0.538039 0.079761
0.669804 0.538824 0.075294
0.730980 0.549019 0.061177
0.801778 0.551582 0.047059
0.876863 0.565490 0.026667
0.950043 0.573572 0.011287
1.000000 0.581961 0.002353
0.254902 0.607843 0.082353
0.270588 0.609412 0.076863
0.290196 0.607059 0.080000
0.324706 0.610196 0.076862
0.356078 0.605490 0.075294
0.403922 0.607843 0.082353
0.455687 0.607843 0.077647
0.509020 0.610981 0.077647
0.562353 0.610981 0.071372
0.620392 0.613333 0.071373
0.678431 0.615686 0.070588
0.739608 0.618039 0.056471
0.804706 0.625098 0.036079
0.880000 0.637647 0.014118
0.956079 0.647843 0.003922
1.000000 0.654902 0.000000
0.267451 0.685490 0.054118
0.285490 0.685729 0.045117
0.298039 0.685490 0.047843
0.332810 0.686170 0.053699
0.374118 0.681569 0.047059
0.418039 0.686274 0.043922
0.468235 0.687843 0.040239
0.520000 0.687843 0.035294
0.573543 0.691660 0.027190
0.631373 0.693333 0.025098
0.690981 0.693333 0.017255
0.753725 0.695925 0.016538
0.820392 0.698039 0.006274
0.889412 0.704784 0.000680
0.955294 0.714510 0.001569
1.000000 0.729412 0.000000
0.264314 0.769412 0.009412
0.280000 0.772549 0.001569
0.307518 0.769412 0.000000
0.336470 0.772549 0.001569
0.377046 0.772863 0.000889
0.422745 0.775686 0.007059
0.472941 0.775686 0.001569
0.529838 0.773692 0.002779
0.587451 0.775686 0.000000
0.645491 0.775006 0.000889
0.706666 0.779607 0.006274
0.768627 0.781960 0.004706
0.833725 0.781109 0.003205
0.903529 0.784314 0.000784
0.967059 0.790902 0.000000
0.999216 0.802353 0.001569
0.254902 0.857255 0.000000
0.274824 0.857255 0.000000
0.299608 0.865098 0.000000
0.332616 0.857972 0.006274
0.374118 0.859608 0.000000
0.422745 0.860392 0.000784
0.477856 0.861961 0.000680
0.534902 0.865098 0.000000
0.591866 0.867092 0.000000
0.653333 0.865098 0.000000
0.716078 0.864314 0.006274
0.781177 0.867555 0.003138
0.847059 0.872941 0.003138
0.917714 0.872090 0.001143
0.976470 0.869804 0.001569
0.999216 0.877647 0.001569
0.236079 0.945098 0.001569
0.260393 0.942745 0.003137
0.285700 0.941961 0.001778
0.321569 0.946667 0.003138
0.364160 0.947758 0.000000
0.421961 0.945882 0.000000
0.476863 0.947451 0.000000
0.533333 0.947555 0.000000
0.596078 0.949804 0.001569
0.660392 0.949565 0.000239
0.723137 0.949804 0.000000
0.791373 0.948236 0.003137
0.863425 0.951477 0.004602
0.936471 0.949019 0.002353
0.984247 0.947145 0.002898
1.000000 0.948236 0.001569
0.231373 0.996078 0.000000
0.238431 1.000000 0.000000
0.265098 1.000000 0.000000
0.302745 0.996862 0.000000
0.353725 0.997647 0.000000
0.407843 0.992157 0.000000
0.472157 0.998431 0.003922
0.533333 1.000000 0.006274
0.599216 1.000000 0.000000
0.669804 1.000000 0.000000
0.741176 0.996078 0.000000
0.818824 0.998431 0.000000
0.890196 1.000000 0.000000
0.956079 1.000000 0.003138
0.992941 0.998431 0.000000
1.000000 0.996078 0.000000
0.001569 0.003922 0.071372
0.075055 0.000000 0.075294
0.155294 0.000784 0.076078
0.231477 0.000994 0.072052
0.300392 0.001569 0.067451
0.364706 0.000000 0.068235
0.424859 0.000000 0.073487
0.477647 0.001569 0.072941
0.534797 0.000889 0.074510
0.589020 0.000000 0.071373
0.646274 0.002353 0.073726
0.707757 0.000239 0.077169
0.775686 0.000000 0.077647
0.841568 0.000000 0.077647
0.915294 0.003138 0.071373
0.994510 0.000000 0.069804
0.012616 0.055619 0.078671
0.090856 0.059512 0.075878
0.162286 0.055447 0.072157
0.233422 0.049542 0.073953
0.302200 0.042898 0.073486
0.363615 0.033419 0.064792
0.420536 0.025576 0.070282
0.479933 0.023358 0.072702
0.531894 0.018211 0.070043
0.590349 0.011287 0.077341
0.650024 0.006820 0.078432
0.710751 0.004467 0.079263
0.774357 0.000239 0.078842
0.846149 0.003734 0.078494
0.922592 0.001330 0.080172
0.997886 0.002353 0.064313
0.041569 0.127843 0.080784
0.104007 0.126274 0.072224
0.172975 0.125132 0.067743
0.239320 0.120889 0.072523
0.302745 0.118431 0.074405
0.367059 0.109804 0.074510
0.426428 0.103768 0.074749
0.481143 0.099966 0.079574
0.534588 0.089621 0.079425
0.589595 0.083817 0.075974
0.647843 0.080000 0.080785
0.710894 0.075840 0.083204
0.776044 0.070589 0.078499
0.844026 0.068915 0.080105
0.920889 0.063320 0.072627
0.994510 0.054902 0.073726
0.083242 0.191477 0.066405
0.132600 0.192145 0.074153
0.185673 0.189124 0.073935
0.244960 0.190037 0.079895
0.312837 0.184993 0.080680
0.373333 0.176575 0.079216
0.425611 0.173438 0.078923
0.480000 0.166065 0.078327
0.536219 0.162290 0.084330
0.592732 0.159320 0.083137
0.648261 0.153935 0.087739
0.708319 0.153830 0.086170
0.775006 0.152052 0.087059
0.844592 0.151030 0.083662
0.923137 0.154510 0.081150
0.997647 0.158431 0.067660
0.112941 0.251765 0.083921
0.153964 0.251219 0.075466
0.201673 0.249098 0.079268
0.252549 0.248628 0.072052
0.313726 0.246992 0.078260
0.374117 0.240000 0.079216
0.431372 0.236624 0.082353
0.482928 0.229804 0.088523
0.536261 0.227346 0.086275
0.592157 0.223529 0.090913
0.652549 0.221177 0.092549
0.714510 0.221416 0.090913
0.776941 0.221752 0.089098
0.849307 0.225098 0.088209
0.919694 0.227145 0.078603
0.993725 0.232157 0.072941
0.141961 0.305882 0.080000
0.175686 0.307145 0.088321
0.211765 0.308235 0.088628
0.261961 0.305098 0.082353
0.318431 0.302745 0.081569
0.378824 0.303529 0.086275
0.435294 0.297016 0.086753
0.489412 0.291765 0.091764
0.541177 0.292445 0.096000
0.595294 0.286275 0.098824
0.647059 0.284706 0.092549
0.716624 0.286820 0.099914
0.782745 0.287059 0.093333
0.848418 0.292654 0.098980
0.923137 0.297255 0.083137
0.994510 0.303529 0.079215
0.180699 0.363444 0.099914
0.197600 0.365175 0.094682
0.226360 0.361569 0.093333
0.268516 0.360751 0.090662
0.317886 0.362114 0.088082
0.374663 0.356863 0.091697
0.429306 0.354079 0.089517
0.489173 0.352157 0.093266
0.545811 0.350249 0.099587
0.597580 0.346667 0.104859
0.655141 0.349020 0.106667
0.717217 0.351181 0.103462
0.784075 0.353486 0.099063
0.854944 0.360525 0.089264
0.932788 0.366581 0.078432
0.997886 0.372004 0.073009
0.202353 0.413333 0.101177
0.218106 0.417561 0.103051
0.241703 0.414902 0.107227
0.282928 0.416261 0.098719
0.327059 0.416261 0.101072
0.381177 0.413333 0.101961
0.428407 0.409412 0.100086
0.488269 0.413692 0.105031
0.542536 0.414797 0.105778
0.600889 0.414118 0.106771
0.660392 0.410981 0.106667
0.721807 0.414357 0.108235
0.788235 0.420034 0.101042
0.861961 0.429124 0.093438
0.935320 0.434614 0.077281
0.993725 0.440000 0.063529
0.222536 0.471582 0.104523
0.240511 0.472887 0.114027
0.259660 0.473464 0.110902
0.296232 0.474068 0.115145
0.341856 0.473621 0.112052
0.384314 0.474719 0.111373
0.438234 0.472085 0.106259
0.488418 0.470013 0.105412
0.548643 0.472557 0.116168
0.600889 0.470588 0.110798
0.661961 0.477752 0.110484
0.726715 0.483548 0.105170
0.790797 0.486484 0.099033
0.867222 0.495623 0.093568
0.939608 0.502536 0.077490
0.997751 0.511268 0.059922
0.240000 0.536470 0.116078
0.257733 0.536949 0.117169
0.279216 0.538248 0.117438
0.314405 0.533804 0.117438
0.349804 0.535141 0.116863
0.394510 0.537255 0.114510
0.445251 0.536777 0.113487
0.496941 0.537360 0.115608
0.550693 0.538928 0.112052
0.605729 0.539062 0.109259
0.669020 0.544314 0.108235
0.732788 0.547929 0.101483
0.799425 0.555294 0.093124
0.872052 0.562248 0.074980
0.947996 0.574835 0.064620
1.000000 0.580392 0.045490
0.257255 0.608628 0.112941
0.273315 0.601502 0.114883
0.286275 0.609412 0.112157
0.325751 0.604706 0.116235
0.358432 0.608628 0.109020
0.406275 0.603922 0.109020
0.455448 0.608082 0.106121
0.503529 0.612549 0.108235
0.561778 0.611190 0.101490
0.623529 0.611765 0.105098
0.679216 0.614118 0.098824
0.739302 0.617800 0.096231
0.806274 0.625098 0.082353
0.880680 0.637647 0.052340
0.952157 0.646274 0.033726
1.000000 0.653333 0.016471
0.269498 0.685012 0.088628
0.283817 0.684399 0.092740
0.294663 0.686581 0.090503
0.328648 0.685645 0.087855
0.374118 0.687059 0.092549
0.416710 0.688082 0.088560
0.466475 0.687250 0.088006
0.518738 0.691286 0.082114
0.577267 0.691806 0.078620
0.630999 0.693811 0.074749
0.690196 0.691698 0.064075
0.750569 0.698183 0.058852
0.816232 0.699847 0.045184
0.884077 0.707379 0.022413
0.962286 0.717408 0.003003
0.995600 0.725490 0.000717
0.269804 0.770981 0.040784
0.281875 0.775208 0.044228
0.300392 0.773333 0.038790
0.334797 0.771085 0.036863
0.376471 0.771190 0.031373
0.415686 0.771764 0.029804
0.471373 0.775208 0.026188
0.531473 0.775619 0.024739
0.584104 0.777255 0.018928
0.644601 0.779503 0.014797
0.711373 0.780392 0.014118
0.769957 0.780392 0.003070
0.833726 0.783529 0.003922
0.897150 0.785203 0.000889
0.966640 0.791686 0.000680
0.996863 0.800000 0.000784
0.258824 0.859503 0.000418
0.275201 0.858580 0.000565
0.297046 0.857935 0.003922
0.331285 0.858104 0.004476
0.373543 0.859712 0.001359
0.420392 0.858039 0.002928
0.478524 0.862485 0.002165
0.534902 0.862850 0.001464
0.593428 0.863041 0.000296
0.657830 0.865098 0.000000
0.717647 0.865778 0.001778
0.779137 0.866834 0.000021
0.845595 0.869908 0.004811
0.916083 0.870395 0.006787
0.978248 0.869908 0.002928
0.999791 0.876863 0.000105
0.240000 0.945882 0.004706
0.254118 0.947078 0.004945
0.281674 0.944000 0.002039
0.315294 0.948235 0.001569
0.363682 0.947757 0.000000
0.418039 0.945098 0.003138
0.473897 0.944007 0.000239
0.532549 0.946771 0.004026
0.595294 0.944993 0.003137
0.658039 0.946428 0.000545
0.723137 0.948235 0.001569
0.795600 0.950043 0.005490
0.861961 0.951477 0.001569
0.929202 0.950588 0.000680
0.987145 0.951611 0.000000
0.998431 0.946667 0.000000
0.210196 0.996863 0.000000
0.227212 1.000000 0.000478
0.258824 0.998431 0.005490
0.299608 1.000000 0.002353
0.351373 0.998431 0.000000
0.409412 0.998431 0.000000
0.467690 0.998192 0.001569
0.533334 1.000000 0.003137
0.599895 0.999111 0.000889
0.672157 1.000000 0.001569
0.742745 0.997647 0.001569
0.813811 1.000000 0.000239
0.882353 0.998431 0.000000
0.963033 0.999111 0.006274
1.000000 0.997647 0.002353
0.996078 1.000000 0.000000
0.003922 0.000000 0.134902
0.072941 0.000784 0.143529
0.150879 0.002779 0.145882
0.229020 0.000000 0.141961
0.304993 0.000105 0.144889
0.367843 0.000000 0.131765
0.422745 0.000000 0.135686
0.476863 0.003138 0.137972
0.531765 0.000000 0.140392
0.592157 0.000000 0.140967
0.639216 0.003138 0.138824
0.705882 0.000000 0.141176
0.773759 0.000000 0.140818
0.847843 0.000784 0.140392
0.922928 0.005490 0.135111
1.000000 0.000000 0.125490
0.009412 0.058039 0.145098
0.087843 0.054596 0.145643
0.151955 0.052549 0.138689
0.235503 0.045386 0.143738
0.300602 0.039895 0.139608
0.361569 0.038432 0.137255
0.425644 0.036078 0.139062
0.479216 0.029020 0.140818
0.533228 0.026092 0.138824
0.589804 0.019608 0.139712
0.649412 0.016470 0.142745
0.710588 0.009890 0.139369
0.777255 0.005490 0.144314
0.844131 0.002249 0.143791
0.916653 0.000105 0.135111
0.998431 0.000000 0.134117
0.042644 0.123495 0.144381
0.105098 0.124213 0.145949
0.174185 0.122353 0.147016
0.238364 0.124415 0.145524
0.301198 0.118136 0.144551
0.367417 0.114084 0.140750
0.421176 0.106174 0.137972
0.480852 0.102821 0.139617
0.533759 0.097614 0.141177
0.590822 0.091868 0.138038
0.645064 0.091765 0.139608
0.711798 0.086700 0.142812
0.775906 0.081138 0.140316
0.845064 0.076078 0.139675
0.921448 0.062549 0.136693
0.996078 0.054185 0.141737
0.076078 0.192941 0.138824
0.130667 0.193150 0.144000
0.186599 0.187809 0.145165
0.247417 0.185882 0.142745
0.309804 0.182745 0.141490
0.373333 0.177255 0.140392
0.425673 0.174222 0.142536
0.476437 0.169770 0.142319
0.534902 0.164706 0.146734
0.592157 0.160889 0.142745
0.647843 0.158431 0.145098
0.711164 0.156863 0.141856
0.776470 0.155294 0.144381
0.849412 0.151372 0.138824
0.922144 0.153725 0.134118
0.992941 0.156863 0.133333
0.121359 0.246955 0.143320
0.153307 0.249517 0.138457
0.197835 0.253613 0.139205
0.254222 0.247634 0.136575
0.312971 0.246069 0.135320
0.371085 0.237072 0.138928
0.424523 0.233830 0.141961
0.481376 0.232644 0.147871
0.537464 0.229804 0.146980
0.589312 0.223697 0.147568
0.649621 0.221281 0.144418
0.713046 0.222641 0.150118
0.776445 0.222657 0.143547
0.850876 0.228235 0.141647
0.921409 0.228047 0.133635
0.999791 0.231268 0.128732
0.153725 0.301961 0.147451
0.182745 0.306666 0.143529
0.207350 0.309087 0.134275
0.260392 0.302745 0.144313
0.312262 0.300287 0.142065
0.377255 0.302745 0.142745
0.430588 0.296471 0.146666
0.483563 0.291339 0.149804
0.538039 0.290196 0.150588
0.594510 0.286380 0.150693
0.654902 0.286275 0.152941
0.717647 0.286275 0.152941
0.780325 0.290196 0.145389
0.848627 0.288628 0.148235
0.927738 0.301177 0.137255
0.996862 0.297255 0.131765
0.178039 0.361568 0.147451
0.201875 0.359216 0.149976
0.230162 0.359574 0.143955
0.268340 0.358431 0.148131
0.316183 0.358536 0.145202
0.374902 0.356078 0.151373
0.429804 0.357408 0.149019
0.485490 0.354935 0.150947
0.538614 0.349804 0.151582
0.594719 0.349020 0.153046
0.650980 0.349804 0.161569
0.716624 0.351851 0.155839
0.784739 0.356437 0.154084
0.855320 0.360000 0.147346
0.929516 0.366065 0.138823
1.000000 0.368627 0.130980
0.209479 0.412773 0.155003
0.220034 0.411765 0.155362
0.247556 0.414974 0.155366
0.284280 0.416605 0.156863
0.328222 0.416708 0.159647
0.379115 0.411765 0.150095
0.431372 0.410129 0.152448
0.488695 0.414185 0.155290
0.546801 0.411407 0.155362
0.602011 0.410831 0.156095
0.659182 0.411765 0.158431
0.719283 0.417681 0.154151
0.791225 0.420679 0.156432
0.862745 0.425031 0.145882
0.933774 0.433255 0.139923
0.993233 0.443137 0.128493
0.228235 0.476863 0.153725
0.237543 0.470693 0.158327
0.263955 0.471731 0.153793
0.297613 0.473367 0.160426
0.340288 0.473621 0.160105
0.390588 0.476863 0.159216
0.442353 0.472366 0.160105
0.491406 0.471865 0.157714
0.545524 0.472224 0.158431
0.604497 0.472941 0.159216
0.662745 0.474510 0.155294
0.724810 0.481673 0.150118
0.792516 0.488986 0.147384
0.865031 0.501244 0.143888
0.944994 0.500392 0.134902
0.996078 0.513725 0.126274
0.244340 0.534222 0.157856
0.254588 0.539608 0.157542
0.277270 0.536003 0.157415
0.311373 0.533438 0.160105
0.353939 0.534192 0.158381
0.396653 0.535791 0.159216
0.446954 0.536366 0.156758
0.501943 0.538231 0.154843
0.556183 0.538039 0.158432
0.612361 0.538833 0.156842
0.668915 0.541072 0.152262
0.732758 0.546457 0.148340
0.800766 0.556037 0.145803
0.871477 0.566850 0.135477
0.947359 0.572758 0.123901
1.000000 0.581281 0.113987
0.250196 0.605491 0.145882
0.272157 0.608628 0.149019
0.289054 0.605065 0.148235
0.323137 0.605491 0.160000
0.360105 0.607948 0.155399
0.410196 0.610981 0.154510
0.457255 0.607843 0.154510
0.509020 0.609412 0.155294
0.567843 0.611765 0.151373
0.621386 0.611974 0.153360
0.679215 0.614902 0.155294
0.738039 0.621176 0.139608
0.805490 0.627877 0.125423
0.880000 0.639216 0.116078
0.952471 0.646065 0.109229
1.000000 0.658040 0.101177
0.258039 0.688627 0.132549
0.272941 0.687843 0.139608
0.299474 0.685916 0.138331
0.328157 0.687948 0.134745
0.367059 0.687059 0.136261
0.412549 0.690980 0.137255
0.463529 0.689105 0.132243
0.516078 0.690196 0.128628
0.572863 0.690876 0.127268
0.633046 0.694797 0.130980
0.694118 0.693333 0.122353
0.755533 0.697255 0.116250
0.820034 0.700818 0.107810
0.885699 0.705307 0.094065
0.962823 0.715869 0.066510
0.998431 0.727059 0.044706
0.258107 0.774969 0.102028
0.272874 0.770913 0.109019
0.301593 0.772266 0.105663
0.331339 0.774185 0.103238
0.368369 0.772549 0.099549
0.415619 0.768628 0.096538
0.472807 0.775619 0.097322
0.525773 0.775471 0.098241
0.586666 0.778397 0.088762
0.646875 0.779053 0.085057
0.703888 0.779607 0.071574
0.769120 0.782454 0.068078
0.831305 0.782956 0.058546
0.899249 0.782745 0.046499
0.966633 0.791160 0.023245
0.996795 0.800919 0.007305
0.245490 0.859608 0.027451
0.264419 0.859712 0.032732
0.291541 0.860033 0.029804
0.327552 0.858039 0.028235
0.364706 0.860392 0.024314
0.417255 0.859608 0.025882
0.473935 0.861176 0.024314
0.532975 0.861109 0.022745
0.591798 0.863888 0.016896
0.655686 0.864209 0.013647
0.716863 0.867451 0.006274
0.781072 0.866666 0.002928
0.846208 0.870230 0.003138
0.915294 0.868594 0.000000
0.980497 0.869124 0.001673
1.000000 0.870588 0.002353
0.229020 0.942641 0.003242
0.243451 0.942641 0.003817
0.272052 0.944351 0.001549
0.313151 0.946771 0.001464
0.358450 0.944943 0.000155
0.411660 0.946771 0.000889
0.467451 0.942745 0.000000
0.532444 0.945585 0.004818
0.595399 0.945882 0.003817
0.656659 0.951792 0.000000
0.722458 0.949804 0.000000
0.790013 0.952052 0.000784
0.863425 0.949888 0.004667
0.933752 0.947869 0.003347
0.983495 0.953071 0.003108
0.999320 0.948131 0.002249
0.187451 1.000000 0.003922
0.216471 0.998431 0.001569
0.240000 0.999574 0.003205
0.289412 0.996862 0.000000
0.340392 1.000000 0.002249
0.406274 1.000000 0.006274
0.465098 0.997647 0.001569
0.525132 0.999641 0.002779
0.593726 0.999216 0.000000
0.660392 1.000000 0.000000
0.740392 0.996862 0.000000
0.819608 0.999216 0.003138
0.885289 0.996504 0.000359
0.956078 0.998431 0.003138
0.993046 0.999006 0.000889
1.000000 0.996862 0.000000
0.000784 0.000000 0.203922
0.070484 0.000105 0.210301
0.148235 0.000784 0.211765
0.219541 0.003138 0.211048
0.293333 0.003922 0.210981
0.367843 0.000000 0.203922
0.423634 0.000000 0.202457
0.477647 0.000784 0.202353
0.534050 0.000000 0.197939
0.589020 0.001569 0.199216
0.642353 0.000000 0.207843
0.706771 0.002249 0.204601
0.770196 0.000784 0.199216
0.840000 0.003496 0.200067
0.916863 0.002353 0.199216
1.000000 0.000000 0.194510
0.010301 0.057359 0.210510
0.081504 0.050570 0.209088
0.158066 0.050771 0.213699
0.231508 0.044919 0.209979
0.298823 0.037229 0.212026
0.365856 0.032575 0.210092
0.426437 0.028851 0.207825
0.477647 0.032732 0.206274
0.530450 0.037568 0.207913
0.588915 0.038013 0.208314
0.644706 0.033725 0.202353
0.705614 0.025128 0.203390
0.774013 0.012915 0.203817
0.843161 0.001862 0.205072
0.916863 0.004811 0.200994
0.999791 0.002928 0.197333
0.037647 0.126274 0.212549
0.104628 0.124392 0.211503
0.166207 0.124840 0.210779
0.237221 0.118431 0.207641
0.299712 0.116078 0.210876
0.362353 0.112157 0.205490
0.420706 0.111163 0.206484
0.473793 0.109311 0.203070
0.529053 0.109378 0.203921
0.587660 0.106667 0.203347
0.647843 0.103529 0.204706
0.708340 0.095582 0.206379
0.778106 0.088628 0.202286
0.845490 0.077938 0.200717
0.922928 0.061542 0.195190
0.999216 0.044706 0.197647
0.080919 0.189736 0.213400
0.124049 0.188254 0.209658
0.179182 0.187809 0.211698
0.248547 0.185672 0.213329
0.303888 0.181535 0.207059
0.362935 0.182387 0.210487
0.419078 0.177998 0.208378
0.471798 0.174902 0.207059
0.531478 0.171124 0.204782
0.589020 0.169412 0.210196
0.650622 0.161860 0.205490
0.712291 0.164515 0.208532
0.773692 0.161636 0.205132
0.845427 0.155787 0.200928
0.921927 0.153008 0.201210
0.996078 0.149736 0.200358
0.110588 0.252549 0.209412
0.151058 0.250876 0.208418
0.199634 0.247948 0.202876
0.252773 0.247843 0.203631
0.308713 0.243683 0.208149
0.370196 0.241569 0.208628
0.422536 0.239895 0.208523
0.479216 0.236078 0.209412
0.537255 0.231372 0.209344
0.589871 0.228235 0.207843
0.646274 0.228235 0.207843
0.709909 0.228235 0.208157
0.777725 0.225778 0.203817
0.848269 0.227092 0.202846
0.922286 0.226121 0.195055
0.998431 0.227451 0.195294
0.150589 0.305098 0.197647
0.178719 0.304628 0.212131
0.217255 0.305882 0.208628
0.269019 0.300392 0.203922
0.319215 0.298039 0.205490
0.370980 0.299608 0.205490
0.427242 0.298719 0.207164
0.483137 0.294118 0.207843
0.532056 0.290622 0.214610
0.591372 0.291765 0.217255
0.648628 0.289412 0.212549
0.713621 0.291660 0.211660
0.780392 0.293334 0.210196
0.846566 0.290913 0.201501
0.925490 0.301177 0.201569
1.000000 0.297255 0.200785
0.182536 0.362667 0.209516
0.204268 0.361685 0.207352
0.229595 0.361673 0.206954
0.277121 0.359132 0.210196
0.326065 0.358536 0.211765
0.376052 0.355189 0.207634
0.429465 0.354593 0.204382
0.486379 0.353621 0.205700
0.538441 0.353600 0.210940
0.595608 0.350588 0.210405
0.653020 0.352261 0.209046
0.717417 0.353096 0.212876
0.783425 0.357177 0.206588
0.857021 0.361673 0.205155
0.932444 0.366274 0.197543
0.998222 0.364131 0.191477
0.201569 0.414902 0.215686
0.219346 0.414902 0.208523
0.250689 0.415260 0.211115
0.287485 0.418174 0.203428
0.333908 0.412758 0.211556
0.382745 0.411765 0.208627
