assets/lut/editingcorp valsky.cube
# Created by: G'MIC (https://gmic.eu)
TITLE "valsky"
# LUT size
LUT_3D_SIZE 5
# Data domain
DOMAIN_MIN 0.0 0.0 0.0
DOMAIN_MAX 1.0 1.0 1.0
# LUT data points
0.017138373106718063 0.015571295283734798 0.019054323434829712
0.1918514221906662 0.0075092539191246033 0.018368516117334366
0.34976932406425476 0.041130933910608292 0.067170627415180206
0.66105884313583374 0.097660019993782043 0.13415291905403137
0.99562615156173706 0.16949033737182617 0.27889153361320496
0.056852586567401886 0.18197086453437805 0.010514921508729458
0.19371877610683441 0.17556138336658478 0.01746896468102932
0.36906123161315918 0.17312775552272797 0.07391059398651123
0.69129723310470581 0.20768642425537109 0.13617414236068726
0.99623316526412964 0.25446033477783203 0.27711889147758484
0.15903595089912415 0.42751139402389526 0.061386078596115112
0.28930124640464783 0.4396120011806488 0.068425014615058899
0.51842141151428223 0.47899132966995239 0.080374188721179962
0.82553941011428833 0.50921487808227539 0.17111028730869293
0.99906474351882935 0.53841876983642578 0.2792992889881134
0.32411482930183411 0.79929786920547485 0.15841299295425415
0.48358598351478577 0.8276522159576416 0.15517297387123108
0.67555564641952515 0.81621712446212769 0.16003584861755371
0.89089882373809814 0.82437187433242798 0.23825308680534363
0.99676352739334106 0.80589097738265991 0.31331127882003784
0.49707874655723572 0.96157646179199219 0.36977881193161011
0.59895980358123779 0.95349609851837158 0.36822488903999329
0.7358134388923645 0.96304666996002197 0.37743237614631653
0.9009518027305603 0.99213272333145142 0.42670363187789917
0.99980378150939941 0.99366295337677002 0.40077561140060425
0.0041671004146337509 0.0087851127609610558 0.16887220740318298
0.10095247626304626 0.0094675403088331223 0.15576328337192535
0.32471919059753418 0.033701084554195404 0.16420300304889679
0.64372915029525757 0.09579053521156311 0.23482196033000946
0.99445974826812744 0.17241600155830383 0.40472722053527832
0.01381098385900259 0.17308191955089569 0.17040358483791351
0.12013185024261475 0.15344053506851196 0.16057924926280975
0.34482601284980774 0.15922804176807404 0.17211030423641205
0.6804688572883606 0.19208554923534393 0.23924940824508667
0.99615240097045898 0.23181015253067017 0.39060848951339722
0.11123952269554138 0.39473262429237366 0.17549626529216766
0.23903338611125946 0.39601561427116394 0.17484214901924133
0.49460065364837646 0.46441847085952759 0.20159342885017395
0.82063549757003784 0.50318944454193115 0.27406656742095947
0.99835216999053955 0.53181833028793335 0.37652313709259033
0.27555364370346069 0.77091646194458008 0.25055685639381409
0.43788507580757141 0.79502564668655396 0.25008398294448853
0.65180838108062744 0.79785573482513428 0.26111772656440735
0.88034158945083618 0.82237452268600464 0.34608069062232971
0.9973025918006897 0.7982475757598877 0.38109686970710754
0.48094183206558228 0.96147692203521729 0.43770706653594971
0.58435726165771484 0.95395743846893311 0.43565690517425537
0.72536104917526245 0.95619207620620728 0.45320984721183777
0.89419269561767578 0.99013537168502808 0.51041507720947266
0.99797278642654419 0.99850142002105713 0.49108263850212097
0.020711546763777733 0.027745580300688744 0.32192784547805786
0.077416948974132538 0.029710792005062103 0.31894791126251221
0.24718597531318665 0.045598197728395462 0.32327470183372498
0.62922495603561401 0.091597326099872589 0.40495854616165161
0.99204230308532715 0.18138399720191956 0.57754546403884888
0.042814023792743683 0.17389668524265289 0.33257326483726501
0.094931736588478088 0.17456866800785065 0.33832734823226929
0.26928231120109558 0.17287680506706238 0.35090777277946472
0.66540229320526123 0.1716877669095993 0.42368549108505249
0.99577873945236206 0.23409527540206909 0.57287931442260742
0.087114833295345306 0.48462948203086853 0.48220503330230713
0.15077497065067291 0.47759151458740234 0.47614932060241699
0.41133564710617065 0.44700625538825989 0.44810721278190613
0.79053056240081787 0.48241779208183289 0.45996105670928955
0.99735778570175171 0.51624912023544312 0.57194966077804565
0.22467783093452454 0.80885022878646851 0.48960703611373901
0.34447985887527466 0.77541220188140869 0.44678336381912231
0.60862338542938232 0.77253186702728271 0.44435131549835205
0.84719693660736084 0.79234868288040161 0.51224327087402344
0.99780750274658203 0.78632622957229614 0.57699155807495117
0.42108064889907837 0.95146983861923218 0.52376627922058105
0.53304147720336914 0.94885832071304321 0.51458579301834106
0.70673865079879761 0.94903302192687988 0.52174371480941772
0.8799780011177063 0.98217219114303589 0.60485637187957764
0.99796861410140991 0.99638766050338745 0.63309198617935181
0.068251408636569977 0.094936326146125793 0.59166800975799561
0.12938784062862396 0.097247645258903503 0.58934080600738525
0.1954011470079422 0.095757335424423218 0.58574485778808594
0.57734334468841553 0.11814772337675095 0.6508755087852478
0.94328933954238892 0.19426548480987549 0.76966887712478638
0.091916009783744812 0.21829187870025635 0.60862290859222412
0.1507067084312439 0.21570976078510284 0.6104966402053833
0.21553502976894379 0.20486906170845032 0.59360086917877197
0.58714789152145386 0.210518479347229 0.67038226127624512
0.95352905988693237 0.26231050491333008 0.77550292015075684
0.14028042554855347 0.51260077953338623 0.73303961753845215
0.20553591847419739 0.50925266742706299 0.72945457696914673
0.28152742981910706 0.49950936436653137 0.72418451309204102
0.66581690311431885 0.5132826566696167 0.76216131448745728
0.98121011257171631 0.49790099263191223 0.78718358278274536
0.20731619000434875 0.84852820634841919 0.84004390239715576
0.27286052703857422 0.85012233257293701 0.84402471780776978
0.37945467233657837 0.82082414627075195 0.81918084621429443
0.77530521154403687 0.79663431644439697 0.78355103731155396
0.99515038728713989 0.76891237497329712 0.78309887647628784
0.43584349751472473 0.99394869804382324 0.81500363349914551
0.52022749185562134 0.99431824684143066 0.81553328037261963
0.64989614486694336 0.98996436595916748 0.7980533242225647
0.85718202590942383 0.99090290069580078 0.7919921875
0.99484890699386597 0.99322336912155151 0.78090327978134155
0.1101214662194252 0.1650920957326889 0.93429189920425415
0.17751714587211609 0.17067818343639374 0.93421292304992676
0.23226256668567657 0.16897790133953094 0.94351363182067871
0.36195996403694153 0.16689123213291168 0.93593800067901611
0.88036119937896729 0.20511351525783539 0.96975010633468628
0.13084490597248077 0.25780594348907471 0.94757837057113647
0.18951249122619629 0.25880682468414307 0.95427650213241577
0.24532498419284821 0.25690290331840515 0.95904159545898438
0.36935022473335266 0.23607796430587769 0.9303286075592041
0.89887791872024536 0.27083364129066467 0.96318280696868896
0.22462925314903259 0.53431075811386108 0.97460317611694336
0.27708077430725098 0.53579246997833252 0.97866177558898926
0.33160829544067383 0.53290200233459473 0.98599922657012939
0.4313170313835144 0.5203436017036438 0.97328633069992065
0.90391206741333008 0.45273187756538391 0.98123061656951904
0.32414424419403076 0.81308424472808838 0.99203670024871826
0.38503709435462952 0.81185972690582275 0.99436336755752563
0.4422607421875 0.8093065619468689 0.99476432800292969
0.56204968690872192 0.79799604415893555 0.99221992492675781
0.91857767105102539 0.7586747407913208 0.99152857065200806
0.49649825692176819 0.99843841791152954 0.99926471710205078
0.56009751558303833 0.99919235706329346 0.99707281589508057
0.62216043472290039 0.99618315696716309 0.99676525592803955
0.71609079837799072 0.99541938304901123 0.99405825138092041
0.90512007474899292 0.98608273267745972 0.98370933532714844
