assets/lut/editingcorpw Moonlit Promise.cube
LUT_3D_SIZE 6
DOMAIN_MIN 0.0 0.0 0.0
DOMAIN_MAX 1.0 1.0 1.0
0.119814 0.114565 0.127840
0.260508 0.138161 0.141280
0.468947 0.167269 0.141866
0.714724 0.220420 0.158267
0.956738 0.255930 0.182193
1.000000 0.299748 0.219669
0.185653 0.225009 0.150924
0.262349 0.215628 0.153634
0.463972 0.243523 0.160105
0.703733 0.279959 0.174333
0.950993 0.304321 0.191940
1.000000 0.335845 0.224680
0.302135 0.387841 0.200741
0.359268 0.390902 0.202070
0.458841 0.362021 0.206645
0.690201 0.410571 0.210698
0.942236 0.434236 0.217798
1.000000 0.450159 0.242509
0.424390 0.566955 0.230338
0.472134 0.569662 0.231261
0.570747 0.569287 0.226141
0.683395 0.524235 0.239042
0.937797 0.572818 0.241468
1.000000 0.606317 0.268253
0.562439 0.809702 0.226768
0.601752 0.807902 0.226594
0.708199 0.805497 0.221554
0.853193 0.804685 0.206809
0.965068 0.734024 0.249956
1.000000 0.740084 0.298405
0.733028 0.986633 0.306615
0.758944 0.985327 0.307591
0.843406 0.981133 0.308812
0.940868 0.978229 0.301927
1.000000 0.975225 0.291881
1.000000 0.897246 0.340551
0.105720 0.162460 0.257670
0.239947 0.163065 0.253755
0.439045 0.194506 0.250170
0.670365 0.253159 0.271578
0.930721 0.282050 0.279227
1.000000 0.323156 0.296599
0.165090 0.231981 0.252535
0.249608 0.245609 0.255251
0.430988 0.266096 0.264490
0.668440 0.296918 0.273569
0.928559 0.321645 0.281025
1.000000 0.355302 0.298488
0.259637 0.392025 0.273838
0.335038 0.392353 0.275746
0.445077 0.369589 0.274156
0.669526 0.416307 0.282316
0.929068 0.441107 0.289475
1.000000 0.463205 0.307401
0.395317 0.570413 0.287293
0.447313 0.574657 0.289049
0.559732 0.569510 0.284511
0.674451 0.527710 0.290586
0.929837 0.578895 0.298260
1.000000 0.615326 0.323884
0.538373 0.811621 0.285986
0.579743 0.810006 0.285765
0.701735 0.807541 0.283417
0.846149 0.805536 0.271601
0.960853 0.738446 0.300204
1.000000 0.747865 0.345109
0.722683 0.987488 0.356237
0.748812 0.986242 0.357092
0.840819 0.981335 0.358933
0.937148 0.978594 0.352798
1.000000 0.975750 0.343965
1.000000 0.901213 0.382067
0.000000 0.238810 0.442933
0.185464 0.234598 0.439930
0.420663 0.249932 0.423723
0.646506 0.265169 0.430374
0.910819 0.276412 0.420301
1.000000 0.413074 0.464149
0.122153 0.304768 0.431867
0.230067 0.300867 0.429555
0.416497 0.297191 0.415951
0.642022 0.309421 0.425270
0.900333 0.342787 0.427000
1.000000 0.434975 0.463236
0.233153 0.396381 0.419516
0.287820 0.402187 0.420211
0.432674 0.417911 0.415525
0.635962 0.436312 0.421296
0.900090 0.473079 0.441425
1.000000 0.523057 0.466659
0.275762 0.587074 0.438251
0.330250 0.590786 0.432153
0.512877 0.578910 0.420301
0.654563 0.551879 0.418683
0.908852 0.612401 0.442768
1.000000 0.656933 0.476344
0.430439 0.821084 0.437579
0.483502 0.820447 0.437997
0.651180 0.814253 0.437038
0.817630 0.809394 0.429098
0.943432 0.757569 0.439171
1.000000 0.780850 0.488659
0.678694 0.990765 0.505119
0.705539 0.989615 0.505572
0.803485 0.984686 0.506671
0.921489 0.979925 0.505145
1.000000 0.977922 0.498172
1.000000 0.916765 0.517186
0.000000 0.343346 0.663685
0.000000 0.332538 0.655825
0.398018 0.326405 0.634962
0.627017 0.331304 0.611316
0.883967 0.355734 0.625070
1.000000 0.464649 0.640644
0.000000 0.383946 0.643210
0.114905 0.379454 0.641290
0.401753 0.363768 0.624890
0.625128 0.366326 0.606169
0.878461 0.391353 0.621490
1.000000 0.494087 0.641543
0.127080 0.478092 0.624142
0.229875 0.481578 0.623373
0.420410 0.474256 0.606331
0.624377 0.471658 0.593060
0.880397 0.509423 0.621553
1.000000 0.598177 0.650501
0.293023 0.584764 0.604394
0.337665 0.588942 0.604788
0.465600 0.595857 0.596033
0.641837 0.617801 0.589226
0.886087 0.661729 0.617761
1.000000 0.727518 0.668418
0.299671 0.842523 0.684656
0.357406 0.841838 0.677784
0.517757 0.836582 0.646595
0.757537 0.824354 0.620902
0.912540 0.795011 0.620008
1.000000 0.838513 0.685454
0.619989 0.995063 0.707380
0.639674 0.994578 0.703759
0.735228 0.990887 0.703051
0.881060 0.983850 0.704134
0.996957 0.981839 0.701395
1.000000 0.944384 0.710084
0.000000 0.452161 0.873509
0.000000 0.453581 0.871186
0.337362 0.446141 0.865772
0.613509 0.457697 0.855124
0.855507 0.473515 0.842190
1.000000 0.560180 0.843681
0.000000 0.482327 0.869312
0.000000 0.485110 0.869079
0.361184 0.478495 0.862835
0.619848 0.485756 0.851289
0.856261 0.500621 0.840042
1.000000 0.586546 0.843959
0.000000 0.570754 0.859278
0.130388 0.573817 0.859270
0.429508 0.582488 0.852317
0.644329 0.582117 0.844297
0.859932 0.592511 0.834292
1.000000 0.675253 0.846719
0.225147 0.683406 0.853056
0.292089 0.686967 0.852474
0.454226 0.697059 0.847030
0.668652 0.711946 0.836393
0.865136 0.716721 0.828183
1.000000 0.793071 0.856373
0.422591 0.818121 0.851603
0.456076 0.819963 0.850798
0.568767 0.826862 0.846868
0.723235 0.838740 0.838867
0.874491 0.852231 0.825532
1.000000 0.896172 0.867762
0.623725 0.999713 0.932439
0.644881 0.999072 0.929496
0.718874 0.996555 0.917446
0.822965 0.992959 0.895202
0.949869 0.988551 0.879534
1.000000 0.974988 0.883257
0.445533 0.664973 1.000000
0.498442 0.677943 1.000000
0.604931 0.695558 1.000000
0.735579 0.715224 1.000000
0.872874 0.742617 0.999939
0.992645 0.776120 0.995453
0.456006 0.678682 1.000000
0.507108 0.690942 1.000000
0.626462 0.716745 1.000000
0.746049 0.732741 1.000000
0.876358 0.756869 0.999243
0.992444 0.787075 0.995001
0.451899 0.717104 1.000000
0.504457 0.727683 1.000000
0.661492 0.768612 1.000000
0.778167 0.789453 1.000000
0.888034 0.804890 0.997390
0.992376 0.824894 0.994281
0.427948 0.777463 1.000000
0.462110 0.781690 1.000000
0.584228 0.798617 1.000000
0.803048 0.854449 0.999378
0.901246 0.866443 0.996793
0.993408 0.878520 0.994702
0.588476 0.876494 1.000000
0.609667 0.879103 1.000000
0.685752 0.889520 1.000000
0.792990 0.907248 1.000000
0.914550 0.933023 0.998895
0.996624 0.940105 0.997632
0.737301 0.967041 1.000000
0.748965 0.968127 1.000000
0.793088 0.972540 1.000000
0.861125 0.980365 1.000000
0.935790 0.990076 1.000000
1.000000 1.000000 1.000000
