assets/lut/editingcorp colore.cube
# Created by: G'MIC (https://gmic.eu)
TITLE "colore"
# LUT size
LUT_3D_SIZE 13
# Data domain
DOMAIN_MIN 0.0 0.0 0.0
DOMAIN_MAX 1.0 1.0 1.0
# LUT data points
0.008958001621067524 0.010585575364530087 0.013434974476695061
0.063622765243053436 0.007970084436237812 0.012197173200547695
0.16212514042854309 0.011674933135509491 0.0090612974017858505
0.27907291054725647 0.024646220728754997 0.01826915331184864
0.3989107608795166 0.04653104767203331 0.048472147434949875
0.52614110708236694 0.064606636762619019 0.069996669888496399
0.65174359083175659 0.079444661736488342 0.083031825721263885
0.75472754240036011 0.084444217383861542 0.091898836195468903
0.81659078598022461 0.074861384928226471 0.097257860004901886
0.8493613600730896 0.06641070544719696 0.098968192934989929
0.87620550394058228 0.069471053779125214 0.097789868712425232
0.90210556983947754 0.0848502516746521 0.10024319589138031
0.92803281545639038 0.10213638097047806 0.10653848201036453
0.01485869474709034 0.07880719006061554 0.022552475333213806
0.057313073426485062 0.06167043000459671 0.019229574128985405
0.1442081481218338 0.058340050280094147 0.017878558486700058
0.25925377011299133 0.066662207245826721 0.025482237339019775
0.37966492772102356 0.078819006681442261 0.043648183345794678
0.50581985712051392 0.09262530505657196 0.06327490508556366
0.63266366720199585 0.10762828588485718 0.078216090798377991
0.74203377962112427 0.1145404577255249 0.089910127222537994
0.81387120485305786 0.1102384552359581 0.098692812025547028
0.8518645167350769 0.10608342289924622 0.10351954400539398
0.87752449512481689 0.11194828897714615 0.105134017765522
0.90273159742355347 0.1246475949883461 0.10754618793725967
0.92844492197036743 0.13650055229663849 0.10902866721153259
0.023390287533402443 0.17433227598667145 0.029854061082005501
0.056850329041481018 0.15650808811187744 0.025543197989463806
0.12580086290836334 0.1412348747253418 0.021333865821361542
0.23045329749584198 0.13592007756233215 0.02665049210190773
0.34942561388015747 0.13577350974082947 0.039660047739744186
0.47384333610534668 0.14093323051929474 0.056644156575202942
0.60375648736953735 0.15100540220737457 0.073892064392566681
0.7250819206237793 0.15462024509906769 0.08896511048078537
0.8110465407371521 0.15009839832782745 0.10099624842405319
0.85351437330245972 0.14867764711380005 0.10772985965013504
0.87830793857574463 0.15360894799232483 0.1097361221909523
0.90283644199371338 0.16033536195755005 0.11150959879159927
0.92838424444198608 0.16552156209945679 0.10980528593063354
0.031962838023900986 0.26541361212730408 0.040219578891992569
0.056870449334383011 0.25390449166297913 0.033362846821546555
0.10785722732543945 0.2414223849773407 0.028424326330423355
0.19694095849990845 0.23229245841503143 0.031028836965560913
0.31464821100234985 0.2265143096446991 0.038635283708572388
0.43898221850395203 0.22696077823638916 0.049725297838449478
0.5707436203956604 0.22924959659576416 0.067148350179195404
0.70386302471160889 0.22323468327522278 0.085035629570484161
0.80450016260147095 0.21404248476028442 0.09944508969783783
0.85352706909179688 0.21229416131973267 0.10742531716823578
0.8791501522064209 0.21330411732196808 0.1095539927482605
0.90290725231170654 0.21039508283138275 0.10959230363368988
0.92800247669219971 0.20707124471664429 0.10810651630163193
0.042153764516115189 0.36023068428039551 0.057313866913318634
0.060798540711402893 0.35390979051589966 0.049286786466836929
0.097816988825798035 0.34636622667312622 0.043137881904840469
0.16875177621841431 0.33857282996177673 0.040579568594694138
0.28133410215377808 0.33019557595252991 0.040832653641700745
0.41147491335868835 0.32519155740737915 0.047314468771219254
0.54385828971862793 0.32351186871528625 0.062567539513111115
0.67567086219787598 0.31859299540519714 0.07936394214630127
0.78620791435241699 0.31065776944160461 0.094721116125583649
0.85102581977844238 0.3075660765171051 0.10363645106554031
0.88186085224151611 0.30294361710548401 0.10591816902160645
0.90373861789703369 0.29418647289276123 0.10602850466966629
0.92807573080062866 0.28631162643432617 0.10706918686628342
0.052619531750679016 0.46087679266929626 0.075687408447265625
0.07107873260974884 0.45637670159339905 0.071342349052429199
0.10088755190372467 0.45092576742172241 0.065819144248962402
0.15752369165420532 0.4438832700252533 0.059185236692428589
0.25327321887016296 0.43401148915290833 0.053859170526266098
0.38074126839637756 0.4246557354927063 0.05460936576128006
0.51683235168457031 0.42106777429580688 0.061486039310693741
0.64739853143692017 0.42002743482589722 0.075258769094944
0.76514852046966553 0.41662788391113281 0.092056646943092346
0.84670472145080566 0.41227394342422485 0.10246825963258743
0.88608145713806152 0.40491434931755066 0.10591043531894684
0.90762251615524292 0.3971233069896698 0.10639829188585281
0.92944192886352539 0.39090150594711304 0.10685701668262482
0.064944371581077576 0.56298857927322388 0.099586993455886841
0.08529365062713623 0.559406578540802 0.099597111344337463
0.1116311177611351 0.55442732572555542 0.096260666847229004
0.15379849076271057 0.54818379878997803 0.087933950126171112
0.22782041132450104 0.53913795948028564 0.078146882355213165
0.34210154414176941 0.5283927321434021 0.069473922252655029
0.4818761944770813 0.52074450254440308 0.064815133810043335
0.6197437047958374 0.51901471614837646 0.072767890989780426
0.74490171670913696 0.51499724388122559 0.08878471702337265
0.84078824520111084 0.50818395614624023 0.10171104967594147
0.89073491096496582 0.50032526254653931 0.10641159117221832
0.91249531507492065 0.49379613995552063 0.10551483929157257
0.9308769702911377 0.48843550682067871 0.10450008511543274
0.077692575752735138 0.66295689344406128 0.1274215430021286
0.098903179168701172 0.66033774614334106 0.13009926676750183
0.12174616754055023 0.65554952621459961 0.12849819660186768
0.1528630405664444 0.65002155303955078 0.12081222236156464
0.20891700685024261 0.64325094223022461 0.10958661884069443
0.30644279718399048 0.63435947895050049 0.094871655106544495
0.44143721461296082 0.62417429685592651 0.078855104744434357
0.587269127368927 0.6167757511138916 0.07338377833366394
0.72170931100845337 0.611255943775177 0.083803273737430573
0.82748210430145264 0.60298866033554077 0.096759721636772156
0.88643091917037964 0.59370672702789307 0.10274309664964676
0.91155660152435303 0.58612364530563354 0.10288385301828384
0.93014299869537354 0.58134335279464722 0.10460566729307175
0.089696832001209259 0.75548404455184937 0.1525123119354248
0.10960860550403595 0.75333845615386963 0.15671522915363312
0.12916804850101471 0.74879807233810425 0.1567949503660202
0.15337444841861725 0.74422448873519897 0.1520240306854248
0.19609811902046204 0.74058675765991211 0.14336501061916351
0.27265241742134094 0.73658400774002075 0.12965372204780579
0.39085227251052856 0.72947138547897339 0.10940399020910263
0.53968226909637451 0.71878761053085327 0.092480301856994629
0.68626666069030762 0.71046793460845947 0.092911615967750549
0.80679750442504883 0.70091956853866577 0.09981866180896759
0.8775748610496521 0.68980401754379272 0.10455936938524246
0.90812176465988159 0.68051481246948242 0.10726743191480637
0.92868894338607788 0.6747862696647644 0.11286963522434235
0.10025861859321594 0.83012121915817261 0.17246924340724945
0.11911085247993469 0.82895612716674805 0.1779458075761795
0.13642522692680359 0.82505863904953003 0.17967814207077026
0.15677887201309204 0.82153522968292236 0.17757570743560791
0.18881535530090332 0.82119357585906982 0.17370747029781342
0.24349907040596008 0.82329428195953369 0.16655872762203217
0.33515122532844543 0.82437431812286377 0.15319626033306122
0.47586765885353088 0.81634116172790527 0.13547065854072571
0.63610225915908813 0.80575758218765259 0.12500011920928955
0.77664476633071899 0.79523938894271851 0.12127535790205002
0.86545252799987793 0.78413623571395874 0.1219831258058548
0.90662938356399536 0.77590090036392212 0.12664000689983368
0.92949390411376953 0.77100807428359985 0.13399256765842438
0.10729579627513885 0.88036739826202393 0.18723361194133759
0.12618283927440643 0.88088697195053101 0.1933799535036087
0.14369255304336548 0.87898838520050049 0.19492901861667633
0.16312728822231293 0.87738221883773804 0.19395905733108521
0.18992820382118225 0.87763088941574097 0.19303478300571442
0.23153761029243469 0.88170641660690308 0.19171534478664398
0.30235826969146729 0.88666516542434692 0.18625181913375854
0.42655429244041443 0.88469398021697998 0.17417280375957489
0.58701705932617188 0.87874299287796021 0.16296941041946411
0.73734831809997559 0.8721126914024353 0.15573446452617645
0.84600889682769775 0.86206018924713135 0.15038175880908966
0.90264052152633667 0.85823911428451538 0.15338243544101715
0.92949932813644409 0.85821086168289185 0.16121815145015717
0.10985639691352844 0.91336429119110107 0.19665853679180145
0.129205122590065 0.91487616300582886 0.20195148885250092
0.14732049405574799 0.91512078046798706 0.20190368592739105
0.16824012994766235 0.91418969631195068 0.19998590648174286
0.19411179423332214 0.91373372077941895 0.19955325126647949
0.22867865860462189 0.91569554805755615 0.20139229297637939
0.28403303027153015 0.92030012607574463 0.20162920653820038
0.3906276524066925 0.92261278629302979 0.19601298868656158
0.5541655421257019 0.92119932174682617 0.18697668612003326
0.71529275178909302 0.91809350252151489 0.17847649753093719
0.83378612995147705 0.91113418340682983 0.17099238932132721
0.89788848161697388 0.91177469491958618 0.17371067404747009
0.92887526750564575 0.9148106575012207 0.18172433972358704
0.10741068422794342 0.93928080797195435 0.19848965108394623
0.12647917866706848 0.94099646806716919 0.20239840447902679
0.145115926861763 0.94181889295578003 0.20141571760177612
0.16597157716751099 0.94145750999450684 0.19855311512947083
0.18985508382320404 0.94097727537155151 0.19799317419528961
0.21770209074020386 0.94179683923721313 0.20198254287242889
0.26148891448974609 0.94567424058914185 0.20573042333126068
0.35770341753959656 0.94896703958511353 0.20434804260730743
0.52897107601165771 0.94834274053573608 0.19599735736846924
0.69875460863113403 0.94604200124740601 0.18682754039764404
0.81691473722457886 0.94336569309234619 0.18177072703838348
0.88540345430374146 0.94423598051071167 0.18513050675392151
0.92332684993743896 0.94640898704528809 0.19235712289810181
0.010998371057212353 0.011496599763631821 0.072460934519767761
0.068237781524658203 0.011206443421542645 0.06991296261548996
0.16555677354335785 0.01223443727940321 0.066021941602230072
0.28105169534683228 0.021023994311690331 0.071339882910251617
0.40171527862548828 0.037549111992120743 0.092159166932106018
0.52748817205429077 0.054015006870031357 0.10648515075445175
0.6507793664932251 0.065555691719055176 0.11187721788883209
0.75336188077926636 0.062188915908336639 0.11431482434272766
0.81820011138916016 0.047842375934123993 0.11638855189085007
0.85176116228103638 0.039097070693969727 0.11663945764303207
0.87664240598678589 0.041592076420783997 0.11370787024497986
0.90142554044723511 0.058074142783880234 0.11864136159420013
0.92808628082275391 0.077354416251182556 0.13106526434421539
0.016834812238812447 0.069385737180709839 0.072421051561832428
0.061268165707588196 0.063854560256004333 0.070763714611530304
0.14505963027477264 0.061546117067337036 0.065274514257907867
0.26152911782264709 0.067482516169548035 0.068542182445526123
0.38441473245620728 0.077254258096218109 0.083624012768268585
0.50935745239257812 0.089148484170436859 0.097352571785449982
0.63440775871276855 0.10293299704790115 0.10504439473152161
0.74322354793548584 0.10514181107282639 0.11179393529891968
0.81518161296844482 0.096670635044574738 0.1180686354637146
0.85218393802642822 0.092546708881855011 0.12066533416509628
0.87635856866836548 0.099079161882400513 0.12178946286439896
0.90170365571975708 0.11407788097858429 0.12705765664577484
0.92863315343856812 0.1258467435836792 0.13105009496212006
0.023513972759246826 0.16181597113609314 0.070453733205795288
0.054146725684404373 0.15142899751663208 0.065991707146167755
0.12113991379737854 0.14131751656532288 0.057410579174757004
0.23308615386486053 0.13762645423412323 0.060904424637556076
0.35604798793792725 0.13837261497974396 0.074765026569366455
0.47863972187042236 0.14053043723106384 0.089235536754131317
0.60705417394638062 0.14822609722614288 0.10205757617950439
0.72730714082717896 0.15166382491588593 0.11407783627510071
0.81227713823318481 0.1457638293504715 0.12416389584541321
0.85170477628707886 0.14343269169330597 0.1274302750825882
0.87599331140518188 0.14979889988899231 0.12856832146644592
0.90165871381759644 0.1598580926656723 0.13198034465312958
0.92898917198181152 0.16481645405292511 0.1312427818775177
0.032025653868913651 0.25770410895347595 0.072345197200775146
0.053588941693305969 0.24876686930656433 0.066682092845439911
0.10512012988328934 0.24019858241081238 0.060740705579519272
0.20088790357112885 0.23371103405952454 0.062707968056201935
0.32035708427429199 0.23001383244991302 0.068974755704402924
0.43997392058372498 0.22928133606910706 0.076600618660449982
0.57207882404327393 0.22914887964725494 0.093616664409637451
0.70447105169296265 0.22421382367610931 0.11046196520328522
0.80460238456726074 0.21463353931903839 0.12457888573408127
0.85141932964324951 0.20984642207622528 0.1290547251701355
0.87685739994049072 0.21113874018192291 0.12843360006809235
0.90192645788192749 0.21234782040119171 0.12810668349266052
0.92897051572799683 0.21203850209712982 0.12926258146762848
0.042080450803041458 0.35483869910240173 0.083958633244037628
0.059943001717329025 0.3492482602596283 0.078002259135246277
0.097799278795719147 0.34412172436714172 0.072590723633766174
0.17295880615711212 0.33824223279953003 0.06852276623249054
0.28367957472801208 0.33059045672416687 0.064774937927722931
0.40917640924453735 0.32650169730186462 0.068031847476959229
0.54119056463241577 0.32697388529777527 0.084184534847736359
0.67641180753707886 0.32062584161758423 0.10174319893121719
0.78935801982879639 0.31097358465194702 0.11896514892578125
0.85257434844970703 0.30503806471824646 0.12650386989116669
0.88153254985809326 0.30052024126052856 0.12510746717453003
0.90376770496368408 0.29578500986099243 0.12532545626163483
0.92870253324508667 0.29254797101020813 0.12936790287494659
0.053580041974782944 0.45597276091575623 0.10197468101978302
0.071490071713924408 0.45199412107467651 0.098760955035686493
0.10070944577455521 0.44853460788726807 0.093611530959606171
0.15506048500537872 0.44387906789779663 0.084574334323406219
0.24604694545269012 0.43449962139129639 0.075503163039684296
0.37294968962669373 0.42528584599494934 0.073720298707485199
0.51527255773544312 0.42291301488876343 0.081167228519916534
0.65262693166732788 0.42071640491485596 0.096004828810691833
0.77277827262878418 0.41580429673194885 0.11736007034778595
0.85211288928985596 0.40996852517127991 0.12771472334861755
0.88705134391784668 0.40338876843452454 0.12706230580806732
0.90656918287277222 0.39832326769828796 0.1280616968870163
0.92815089225769043 0.39583921432495117 0.12934280931949615
0.066651269793510437 0.55866318941116333 0.12918715178966522
0.08757520467042923 0.55541908740997314 0.12896975874900818
0.11265116930007935 0.55214625597000122 0.1252010315656662
0.1472976952791214 0.54874801635742188 0.11440061777830124
0.2113705575466156 0.54117465019226074 0.10329251736402512
0.32671573758125305 0.53033608198165894 0.094456031918525696
0.4816497266292572 0.52239388227462769 0.089508861303329468
0.62578094005584717 0.51948851346969604 0.096609003841876984
0.75132280588150024 0.51497280597686768 0.11278125643730164
0.84427118301391602 0.50785970687866211 0.12551677227020264
0.88981527090072632 0.50037354230880737 0.13066186010837555
0.90984266996383667 0.49488309025764465 0.13152505457401276
0.9281233549118042 0.49109941720962524 0.12976334989070892
0.07941562682390213 0.65921080112457275 0.15901295840740204
0.10247392952442169 0.65738892555236816 0.1603221595287323
0.12473524361848831 0.65381616353988647 0.15831713378429413
0.14814022183418274 0.65061724185943604 0.14918585121631622
0.19558466970920563 0.64516693353652954 0.13837254047393799
0.29428872466087341 0.63611733913421631 0.12462394684553146
0.44152796268463135 0.62563931941986084 0.10779712349176407
0.59307301044464111 0.61751490831375122 0.099583432078361511
0.72713792324066162 0.6114814281463623 0.10827706754207611
0.83067131042480469 0.60308659076690674 0.12371911108493805
0.8865007758140564 0.59360384941101074 0.13318480551242828
0.90892618894577026 0.58600699901580811 0.1335410475730896
0.92701548337936401 0.58205497264862061 0.13484697043895721
0.09148852527141571 0.75245356559753418 0.18219879269599915
0.11360374838113785 0.75216639041900635 0.18551358580589294
0.13284292817115784 0.74909937381744385 0.18551789224147797
0.15337695181369781 0.7451050877571106 0.18131889402866364
0.19205151498317719 0.74176228046417236 0.17493796348571777
0.27069517970085144 0.73727226257324219 0.16341754794120789
0.39620643854141235 0.72894716262817383 0.14162397384643555
0.54799741506576538 0.71861714124679565 0.12150269746780396
0.692474365234375 0.71114838123321533 0.1217196136713028
0.80821055173873901 0.7023431658744812 0.13352698087692261
0.87655287981033325 0.69042503833770752 0.14198572933673859
0.90603339672088623 0.68006479740142822 0.1446448415517807
0.92782527208328247 0.67459797859191895 0.15116608142852783
0.10238451510667801 0.82805138826370239 0.19920262694358826
0.12343388050794601 0.82895171642303467 0.20566649734973907
0.14175760746002197 0.82666367292404175 0.20819145441055298
0.1612275093793869 0.82250821590423584 0.20792527496814728
0.19284436106681824 0.82085549831390381 0.2068597823381424
0.25182819366455078 0.82161623239517212 0.20246653258800507
0.35163804888725281 0.81971639394760132 0.18663743138313293
0.49157270789146423 0.81340509653091431 0.16664838790893555
0.64430457353591919 0.80708903074264526 0.15824688971042633
0.77570062875747681 0.79901707172393799 0.16027617454528809
0.86250156164169312 0.78656286001205444 0.16481898725032806
0.90545076131820679 0.77605742216110229 0.16984634101390839
0.92946618795394897 0.76987224817276001 0.17775331437587738
0.10935661196708679 0.87800389528274536 0.21390892565250397
0.13030236959457397 0.87972384691238403 0.22153891623020172
0.14949516952037811 0.87926715612411499 0.22385828197002411
0.17004819214344025 0.876209557056427 0.22419393062591553
0.19959810376167297 0.87524139881134033 0.22564907371997833
0.24748770892620087 0.87648552656173706 0.2256736159324646
0.32405701279640198 0.87974452972412109 0.21896038949489594
0.44510820508003235 0.88033580780029297 0.20631846785545349
0.59898453950881958 0.8789217472076416 0.19687545299530029
0.74288088083267212 0.87508845329284668 0.19380803406238556
0.8460889458656311 0.86597394943237305 0.1936163455247879
0.90193957090377808 0.85859483480453491 0.19788607954978943
0.92931550741195679 0.85490304231643677 0.20526088774204254
0.11132404208183289 0.90896201133728027 0.22399856150150299
0.13275773823261261 0.91052186489105225 0.23084168136119843
0.15204238891601562 0.91166061162948608 0.23146696388721466
0.17423005402088165 0.91061031818389893 0.23035493493080139
0.20437905192375183 0.90849000215530396 0.23096787929534912
0.24786484241485596 0.90751641988754272 0.23307879269123077
0.30441340804100037 0.91263788938522339 0.23310878872871399
0.40605968236923218 0.91813462972640991 0.22820605337619781
0.56594717502593994 0.91842532157897949 0.22013275325298309
0.72217607498168945 0.919158935546875 0.21497343480587006
0.83581578731536865 0.91661477088928223 0.21339632570743561
0.89890152215957642 0.91414821147918701 0.21768492460250854
0.93016535043716431 0.91354489326477051 0.22534716129302979
0.10742254555225372 0.93436414003372192 0.22522543370723724
0.12713941931724548 0.93510597944259644 0.23086287081241608
0.14650069177150726 0.93649524450302124 0.23064331710338593
0.16775916516780853 0.9362255334854126 0.22897952795028687
0.19383794069290161 0.93451195955276489 0.2293718159198761
0.22727370262145996 0.93401843309402466 0.2327120304107666
0.27197083830833435 0.93907022476196289 0.23678293824195862
0.36664515733718872 0.94509875774383545 0.23652924597263336
0.53122401237487793 0.94622856378555298 0.22963149845600128
0.69902956485748291 0.9475904107093811 0.22323128581047058
0.8204001784324646 0.94838374853134155 0.2215234637260437
0.890358567237854 0.94939947128295898 0.22681273519992828
0.92786651849746704 0.95070910453796387 0.23468966782093048
0.024779869243502617 0.017697189003229141 0.19453771412372589
0.080044090747833252 0.016802992671728134 0.19100713729858398
0.17004241049289703 0.017307355999946594 0.18175506591796875
0.27915412187576294 0.023618586361408234 0.17834807932376862
0.39732977747917175 0.033628784120082855 0.17877210676670074
0.52137339115142822 0.047546897083520889 0.17667211592197418
0.6439826488494873 0.057830989360809326 0.17018380761146545
0.74963462352752686 0.048098679631948471 0.1638600081205368
0.82006311416625977 0.030074924230575562 0.1597612202167511
0.85559988021850586 0.025502957403659821 0.15779367089271545
0.87883901596069336 0.029376698657870293 0.1543407142162323
0.90280872583389282 0.044960066676139832 0.16061161458492279
0.92869597673416138 0.062657102942466736 0.17607100307941437
0.025971116498112679 0.075090236961841583 0.17756320536136627
0.069344885647296906 0.070561431348323822 0.17755225300788879
0.15017075836658478 0.068022876977920532 0.17131495475769043
0.26210233569145203 0.072289407253265381 0.16616922616958618
0.38373538851737976 0.080675147473812103 0.16579924523830414
0.50737583637237549 0.093800820410251617 0.16389848291873932
0.63069778680801392 0.10803782194852829 0.1592608243227005
0.73968726396560669 0.10489443689584732 0.15803588926792145
0.81398892402648926 0.094022177159786224 0.15838740766048431
0.8527337908744812 0.093131795525550842 0.15645799040794373
0.87718468904495239 0.1015973687171936 0.15610489249229431
0.90274620056152344 0.11359094083309174 0.15952326357364655
0.93003535270690918 0.12094398587942123 0.16378626227378845
0.027539152652025223 0.15880784392356873 0.16080778837203979
0.057322155684232712 0.15179914236068726 0.15841390192508698
0.12492179125547409 0.14472347497940063 0.15259552001953125
0.23541076481342316 0.14301373064517975 0.14914083480834961
0.36202031373977661 0.14529259502887726 0.15087367594242096
0.48547825217247009 0.14996044337749481 0.15298235416412354
0.60957926511764526 0.1557123064994812 0.1548827588558197
0.72533631324768066 0.15544682741165161 0.15793146193027496
0.80847328901290894 0.1503322422504425 0.16075663268566132
0.85074681043624878 0.15075331926345825 0.15950547158718109
0.8766322135925293 0.15729567408561707 0.15813088417053223
0.9028702974319458 0.1637740284204483 0.15904375910758972
0.93083244562149048 0.16602994501590729 0.15844318270683289
0.033146549016237259 0.25247272849082947 0.14881177246570587
0.054169584065675735 0.24766801297664642 0.14336562156677246
0.10547363013029099 0.24310949444770813 0.13845366239547729
0.20101179182529449 0.24037593603134155 0.13586534559726715
0.3301490843296051 0.2357456237077713 0.13485068082809448
0.45472151041030884 0.23324473202228546 0.13619178533554077
0.58021605014801025 0.231292724609375 0.14291435480117798
0.7056153416633606 0.22635073959827423 0.14844918251037598
0.8024829626083374 0.21922191977500916 0.15695810317993164
0.85183417797088623 0.21517336368560791 0.16009822487831116
0.87839961051940918 0.21574848890304565 0.15672761201858521
0.90371781587600708 0.21550023555755615 0.15644159913063049
0.93132150173187256 0.21463321149349213 0.16020843386650085
0.041966099292039871 0.35011529922485352 0.14376997947692871
0.06014067679643631 0.34626480937004089 0.14009544253349304
0.097761385142803192 0.34446617960929871 0.13562685251235962
0.17210495471954346 0.34295091032981873 0.12867030501365662
0.2883983850479126 0.33473947644233704 0.11891938745975494
0.41862267255783081 0.32791560888290405 0.11508718878030777
