assets/lut/editingcorp valsky.cube
# Created by: G'MIC (https://gmic.eu)
TITLE "valsky"
# LUT size
LUT_3D_SIZE 7
# Data domain
DOMAIN_MIN 0.0 0.0 0.0
DOMAIN_MAX 1.0 1.0 1.0
# LUT data points
0.017138373106718063 0.015571295283734798 0.019054323434829712
0.13380119204521179 0.0082577578723430634 0.011987335048615932
0.2406061589717865 0.0094433054327964783 0.030590461567044258
0.34976932406425476 0.041130933910608292 0.067170627415180206
0.53449702262878418 0.080823056399822235 0.11140585690736771
0.79721426963806152 0.11851209402084351 0.16666173934936523
0.99562615156173706 0.16949033737182617 0.27889153361320496
0.036301121115684509 0.12363610416650772 0.008624102920293808
0.13204957544803619 0.11620216816663742 0.0086510749533772469
0.2380998283624649 0.097084790468215942 0.027337003499269485
0.35472303628921509 0.10884134471416473 0.067757114768028259
0.54316681623458862 0.13147345185279846 0.11080224812030792
0.80110734701156616 0.15978111326694489 0.16573376953601837
0.99442207813262939 0.2044176459312439 0.27696114778518677
0.084199301898479462 0.24246498942375183 0.021754020825028419
0.1645280122756958 0.24832405149936676 0.028001433238387108
0.26464807987213135 0.24594822525978088 0.039960719645023346
0.40223208069801331 0.25631707906723022 0.080714568495750427
0.60298222303390503 0.28417155146598816 0.12192279845476151
0.8546176552772522 0.32176440954208374 0.19137084484100342
0.99660199880599976 0.34443262219429016 0.2732989490032196
0.15903595089912415 0.42751139402389526 0.061386078596115112
0.23715789616107941 0.43306860327720642 0.065439470112323761
0.35156720876693726 0.45015150308609009 0.070775739848613739
0.51842141151428223 0.47899132966995239 0.080374188721179962
0.72329336404800415 0.49914324283599854 0.12855152785778046
0.92273920774459839 0.52579587697982788 0.22855284810066223
0.99906474351882935 0.53841876983642578 0.2792992889881134
0.26783442497253418 0.6913335919380188 0.11371923983097076
0.36256852746009827 0.70848947763442993 0.11225283890962601
0.4913904070854187 0.72184270620346069 0.11823570728302002
0.63854426145553589 0.72463476657867432 0.11436253041028976
0.80386883020401001 0.72984743118286133 0.15516580641269684
0.94655627012252808 0.73030948638916016 0.25339734554290771
0.99861466884613037 0.71769356727600098 0.29997247457504272
0.38179910182952881 0.87641537189483643 0.22086963057518005
0.47269394993782043 0.89062827825546265 0.2166450023651123
0.5820356011390686 0.88812172412872314 0.21595121920108795
0.69742268323898315 0.87988752126693726 0.2209755927324295
0.82891231775283813 0.89378422498703003 0.25791516900062561
0.94089257717132568 0.89549964666366577 0.31366565823554993
0.99601221084594727 0.88432168960571289 0.3336847722530365
0.49707874655723572 0.96157646179199219 0.36977881193161011
0.56131184101104736 0.95616483688354492 0.37144896388053894
0.63945925235748291 0.9522559642791748 0.36507353186607361
0.7358134388923645 0.96304666996002197 0.37743237614631653
0.84860700368881226 0.98828017711639404 0.41320639848709106
0.94517815113067627 0.99292761087417603 0.42181158065795898
0.99980378150939941 0.99366295337677002 0.40077561140060425
0.003084713825955987 0.0093269497156143188 0.11625780910253525
0.066089272499084473 0.0089548444375395775 0.10750796645879745
0.20746320486068726 0.007908959873020649 0.098667770624160767
0.33919468522071838 0.035857420414686203 0.12233128398656845
0.52311486005783081 0.080789826810359955 0.16739670932292938
0.78835916519165039 0.11846400052309036 0.22149387001991272
0.99419122934341431 0.17205213010311127 0.35479351878166199
0.0094372918829321861 0.11651675403118134 0.11191482841968536
0.078075170516967773 0.099300548434257507 0.10503377020359039
0.21726438403129578 0.088676825165748596 0.097195707261562347
0.3432270884513855 0.098993368446826935 0.12270905822515488
0.53490382432937622 0.12581440806388855 0.17002911865711212
0.80007654428482056 0.15834477543830872 0.22431313991546631
0.99549651145935059 0.20075209438800812 0.34866604208946228
0.046873308718204498 0.22632047533988953 0.08540324866771698
0.12254979461431503 0.2193404883146286 0.090601794421672821
0.2461366206407547 0.23534779250621796 0.099808007478713989
0.39577186107635498 0.25246700644493103 0.13166745007038116
0.60135513544082642 0.27950116991996765 0.16894043982028961
0.85289400815963745 0.31139978766441345 0.23428452014923096
0.99539637565612793 0.3247770369052887 0.31450673937797546
0.12997491657733917 0.39797207713127136 0.12055102735757828
0.20761947333812714 0.40382483601570129 0.11763989180326462
0.33125817775726318 0.43107089400291443 0.13472108542919159
0.51249581575393677 0.47530627250671387 0.13998892903327942
0.71778303384780884 0.49536862969398499 0.18582949042320251
0.91713768243789673 0.52363032102584839 0.27650955319404602
0.99807155132293701 0.53678363561630249 0.32163584232330322
0.23945051431655884 0.66100931167602539 0.18124775588512421
0.33137074112892151 0.6778717041015625 0.17182992398738861
0.46932432055473328 0.70074105262756348 0.18803296983242035
0.62988072633743286 0.71618711948394775 0.19016395509243011
0.79205083847045898 0.72767543792724609 0.22310309112071991
0.94134008884429932 0.72887468338012695 0.3084850013256073
0.99748176336288452 0.71186923980712891 0.32949712872505188
0.35568726062774658 0.87594771385192871 0.27236419916152954
0.44874513149261475 0.88180434703826904 0.27420881390571594
0.56570899486541748 0.88140666484832764 0.27078336477279663
0.68055695295333862 0.86386311054229736 0.26908871531486511
0.81942129135131836 0.88826119899749756 0.31603005528450012
0.943320631980896 0.9024585485458374 0.37386015057563782
0.9954102635383606 0.88326692581176758 0.3782602846622467
0.48603793978691101 0.96586650609970093 0.41187074780464172
0.551463782787323 0.95867961645126343 0.41247659921646118
0.63155412673950195 0.95069897174835205 0.40489310026168823
0.72828418016433716 0.95747870206832886 0.42245548963546753
0.84259474277496338 0.98355114459991455 0.46522828936576843
0.94300550222396851 0.99574911594390869 0.46701350808143616
0.9987606406211853 0.99732476472854614 0.44765612483024597
0.0076444735750555992 0.0095422035083174706 0.21733655035495758
0.048501662909984589 0.013256477192044258 0.21616427600383759
0.13359221816062927 0.0096103595569729805 0.20377129316329956
0.30007451772689819 0.033113069832324982 0.2124612033367157
0.50786972045898438 0.079063653945922852 0.26197102665901184
0.78675240278244019 0.11396412551403046 0.3171963095664978
0.99242162704467773 0.17227053642272949 0.45623144507408142
0.012348354794085026 0.10458290576934814 0.22121983766555786
0.049738835543394089 0.10477526485919952 0.22298635542392731
0.14082790911197662 0.087809890508651733 0.21156021952629089
0.30585554242134094 0.091634459793567657 0.21874204277992249
0.51671856641769409 0.11561723798513412 0.26391702890396118
0.7932814359664917 0.16151705384254456 0.32636982202529907
0.99434185028076172 0.20389722287654877 0.45637980103492737
0.030858656391501427 0.24519377946853638 0.24420146644115448
0.072558380663394928 0.24215751886367798 0.24108751118183136
0.19264237582683563 0.22478428483009338 0.22865726053714752
0.36739200353622437 0.24289025366306305 0.24265804886817932
0.58851361274719238 0.26431915163993835 0.26935794949531555
0.84053152799606323 0.29690733551979065 0.33707103133201599
0.99531149864196777 0.30164387822151184 0.44052821397781372
0.098822623491287231 0.41744229197502136 0.25780639052391052
0.16226586699485779 0.40385645627975464 0.25476175546646118
0.29373505711555481 0.40423274040222168 0.249747633934021
0.47439378499984741 0.45267099142074585 0.26914685964584351
0.70925289392471313 0.48273974657058716 0.29867643117904663
0.91555815935134888 0.51459813117980957 0.38500913977622986
0.99790924787521362 0.52671164274215698 0.44488859176635742
0.19985818862915039 0.65157914161682129 0.26862844824790955
0.2751975953578949 0.65060395002365112 0.24813860654830933
0.43035426735877991 0.66836357116699219 0.2606489360332489
0.60654425621032715 0.70174121856689453 0.27377662062644958
0.77486908435821533 0.71113210916519165 0.31873321533203125
0.93758904933929443 0.71733635663986206 0.41874811053276062
0.99773281812667847 0.70712739229202271 0.42707771062850952
0.31388509273529053 0.85968339443206787 0.33599412441253662
0.40223851799964905 0.86832141876220703 0.32627922296524048
0.53872781991958618 0.87136292457580566 0.32695463299751282
0.66362094879150391 0.85864865779876709 0.33646047115325928
0.80138188600540161 0.8747333288192749 0.3832404613494873
0.93602609634399414 0.89564186334609985 0.46412244439125061
0.99649828672409058 0.8805052638053894 0.47017547488212585
0.4718153178691864 0.9555925726890564 0.46473807096481323
0.53587937355041504 0.95233160257339478 0.46395766735076904
0.61991316080093384 0.94899392127990723 0.46045312285423279
0.72149229049682617 0.95555210113525391 0.48029333353042603
0.83449840545654297 0.97593718767166138 0.5236470103263855
0.9388124942779541 0.99583989381790161 0.55086934566497803
0.997325599193573 0.99783194065093994 0.53708159923553467
0.020711546763777733 0.027745580300688744 0.32192784547805786
0.061033945530653 0.031724128872156143 0.32111549377441406
0.10407282412052155 0.025890620425343513 0.3127981424331665
0.24718597531318665 0.045598197728395462 0.32327470183372498
0.47464528679847717 0.081080734729766846 0.38242572546005249
0.78352349996566772 0.10514315217733383 0.43234264850616455
0.99204230308532715 0.18138399720191956 0.57754546403884888
0.027278721332550049 0.10369879007339478 0.32236823439598083
0.067138269543647766 0.10687166452407837 0.32518273591995239
0.11057121306657791 0.098050214350223541 0.32228296995162964
0.25718808174133301 0.10407840460538864 0.32912585139274597
0.47588899731636047 0.12357647716999054 0.38821566104888916
0.78784042596817017 0.14694854617118835 0.44579410552978516
0.99439090490341187 0.2161041796207428 0.57564264535903931
0.058342009782791138 0.25659191608428955 0.36770990490913391
0.091619886457920074 0.25685137510299683 0.37198695540428162
0.14073266088962555 0.24806530773639679 0.36651179194450378
0.29956254363059998 0.25487002730369568 0.38659599423408508
0.55977332592010498 0.27509310841560364 0.42019867897033691
0.83899009227752686 0.26939573884010315 0.4643980860710144
0.99628424644470215 0.29598832130432129 0.57234376668930054
0.087114833295345306 0.48462948203086853 0.48220503330230713
0.12779344618320465 0.48121565580368042 0.48119702935218811
0.19766791164875031 0.4590546190738678 0.46385473012924194
0.41133564710617065 0.44700625538825989 0.44810721278190613
0.67695218324661255 0.47166261076927185 0.44856581091880798
0.89621174335479736 0.50073933601379395 0.50525617599487305
0.99735778570175171 0.51624912023544312 0.57194966077804565
0.1793171614408493 0.71057277917861938 0.51733851432800293
0.22967815399169922 0.69988495111465454 0.50322252511978149
0.34645631909370422 0.67008417844772339 0.47536727786064148
0.55976170301437378 0.67444735765457153 0.46449825167655945
0.74480986595153809 0.68775659799575806 0.46617937088012695
0.92416918277740479 0.70535510778427124 0.54624736309051514
0.99769121408462524 0.69642597436904907 0.56589740514755249
0.2702862024307251 0.88628625869750977 0.47058278322219849
0.33339911699295044 0.87408739328384399 0.44666802883148193
0.48697561025619507 0.85948270559310913 0.42484548687934875
0.64055967330932617 0.85130226612091064 0.43391680717468262
0.77917110919952393 0.85648190975189209 0.47839140892028809
0.92493933439254761 0.88829690217971802 0.57261013984680176
0.99777483940124512 0.87328237295150757 0.59422290325164795
0.42108064889907837 0.95146983861923218 0.52376627922058105
0.48441058397293091 0.94911199808120728 0.51420658826828003
0.59218317270278931 0.94843548536300659 0.51571226119995117
0.70673865079879761 0.94903302192687988 0.52174371480941772
0.82025456428527832 0.96846503019332886 0.57107198238372803
0.9329419732093811 0.99508923292160034 0.62782663106918335
0.99796861410140991 0.99638766050338745 0.63309198617935181
0.051555365324020386 0.07056223601102829 0.48150384426116943
0.094656042754650116 0.07483382523059845 0.4820047914981842
0.12536348402500153 0.072971999645233154 0.47821062803268433
0.21189907193183899 0.075537316501140594 0.47819250822067261
0.44225171208381653 0.097695700824260712 0.52515667676925659
0.73035889863967896 0.12190534174442291 0.61858761310577393
0.97342091798782349 0.1882474422454834 0.70467555522918701
0.058366484940052032 0.12720446288585663 0.48292851448059082
0.099407181143760681 0.12753087282180786 0.4844411313533783
0.13381834328174591 0.12611186504364014 0.47983342409133911
0.2207682728767395 0.11715379357337952 0.46751761436462402
0.44048702716827393 0.13348904252052307 0.52065855264663696
0.73653066158294678 0.15987700223922729 0.62353956699371338
0.97330188751220703 0.23043853044509888 0.70652371644973755
0.096457809209823608 0.28738653659820557 0.5290566086769104
0.14032569527626038 0.28317242860794067 0.52774852514266968
0.17838411033153534 0.27995601296424866 0.52697372436523438
0.24380378425121307 0.27418777346611023 0.52433747053146362
0.48580136895179749 0.29581549763679504 0.57830715179443359
0.78226214647293091 0.28637143969535828 0.64610999822616577
0.98252600431442261 0.30355146527290344 0.70851016044616699
0.11124179512262344 0.50329166650772095 0.6490626335144043
0.15339009463787079 0.502360999584198 0.64638864994049072
0.19388757646083832 0.49926957488059998 0.64493459463119507
0.27786484360694885 0.48466825485229492 0.63875728845596313
0.56711435317993164 0.49466416239738464 0.65775924921035767
0.84158474206924438 0.5047605037689209 0.67825120687484741
0.99607276916503906 0.49483665823936462 0.70954239368438721
0.15862381458282471 0.75245398283004761 0.75143080949783325
0.19606105983257294 0.75087285041809082 0.75260472297668457
0.23581722378730774 0.74940961599349976 0.74877297878265381
0.36224114894866943 0.71379202604293823 0.71679079532623291
0.67959296703338623 0.69793057441711426 0.6815640926361084
0.89209353923797607 0.69864434003829956 0.69595253467559814
0.99954187870025635 0.68160480260848999 0.70493447780609131
0.27292162179946899 0.92297762632369995 0.74269390106201172
0.33099809288978577 0.91483879089355469 0.73771840333938599
0.40691888332366943 0.90549111366271973 0.71589547395706177
0.5571131706237793 0.87578785419464111 0.67997020483016968
0.77409887313842773 0.86818748712539673 0.67556232213973999
0.90438413619995117 0.87596076726913452 0.71258378028869629
0.99714648723602295 0.8606075644493103 0.72048360109329224
0.41548311710357666 0.97789877653121948 0.70588606595993042
0.476702481508255 0.97848939895629883 0.70385634899139404
0.56794899702072144 0.97737705707550049 0.69844430685043335
0.68182456493377686 0.9728015661239624 0.68893450498580933
0.81449222564697266 0.98343700170516968 0.71070194244384766
0.91329836845397949 0.99383348226547241 0.73657345771789551
0.99669921398162842 0.99466228485107422 0.73275589942932129
0.085160709917545319 0.12141949683427811 0.7134469747543335
0.12929864227771759 0.12579560279846191 0.71267098188400269
0.1657487154006958 0.12316254526376724 0.71009981632232666
0.20372872054576874 0.12211085110902786 0.70983344316482544
0.37049722671508789 0.12536905705928802 0.71089804172515869
0.71764039993286133 0.13808165490627289 0.78545403480529785
0.92923259735107422 0.20230676233768463 0.84155917167663574
0.089913748204708099 0.16943900287151337 0.71870642900466919
0.12813998758792877 0.1685691773891449 0.71751660108566284
0.16579416394233704 0.16819219291210175 0.71806234121322632
0.20591278374195099 0.16142162680625916 0.71258866786956787
0.3522476851940155 0.15740828216075897 0.69740921258926392
0.72904473543167114 0.17879919707775116 0.79386216402053833
0.92587566375732422 0.24384459853172302 0.84500706195831299
0.13240587711334229 0.32855945825576782 0.75562292337417603
0.17218197882175446 0.32725620269775391 0.75655937194824219
0.21209307014942169 0.3258344829082489 0.75608199834823608
0.24780267477035522 0.31884455680847168 0.74801278114318848
0.36919474601745605 0.30322360992431641 0.73729836940765381
0.74038577079772949 0.28224009275436401 0.81196153163909912
0.93477815389633179 0.30036962032318115 0.85154187679290771
0.17567676305770874 0.5221402645111084 0.82065439224243164
0.21430198848247528 0.52226144075393677 0.81928431987762451
0.26432275772094727 0.52070242166519165 0.81664031744003296
0.30517500638961792 0.51456707715988159 0.81595951318740845
0.41769367456436157 0.50913941860198975 0.81147933006286621
0.7561037540435791 0.51370823383331299 0.84958952665328979
0.95085412263870239 0.49213233590126038 0.86290991306304932
0.20684815943241119 0.73249691724777222 0.88446974754333496
0.24429866671562195 0.73380327224731445 0.88562309741973877
0.2933957576751709 0.73419201374053955 0.88657325506210327
0.33592069149017334 0.7254759669303894 0.88296407461166382
0.45852705836296082 0.70829421281814575 0.87024956941604614
0.78132045269012451 0.70194005966186523 0.87562662363052368
0.9696347713470459 0.68422150611877441 0.86482709646224976
0.29786181449890137 0.91817772388458252 0.915485680103302
0.33213740587234497 0.91952615976333618 0.91181737184524536
0.38509666919708252 0.91634464263916016 0.91416525840759277
0.43658027052879333 0.90547090768814087 0.90107721090316772
0.58548128604888916 0.89062309265136719 0.88637399673461914
0.83888131380081177 0.87517380714416504 0.87282437086105347
0.98766261339187622 0.84967285394668579 0.85553336143493652
0.46524327993392944 0.99769318103790283 0.9043077826499939
0.5080447793006897 0.99905568361282349 0.90441662073135376
0.56380409002304077 0.99731206893920898 0.90891462564468384
0.62468934059143066 0.99702227115631104 0.89545732736587524
0.75874727964401245 0.99242717027664185 0.86895549297332764
0.88826656341552734 0.98911201953887939 0.85430020093917847
0.98990064859390259 0.99127978086471558 0.83359968662261963
0.1101214662194252 0.1650920957326889 0.93429189920425415
0.15589721500873566 0.17214106023311615 0.93556547164916992
0.19927215576171875 0.16862745583057404 0.93572074174880981
0.23226256668567657 0.16897790133953094 0.94351363182067871
0.28499308228492737 0.17251868546009064 0.94294965267181396
0.49296084046363831 0.1560681015253067 0.9307134747505188
0.88036119937896729 0.20511351525783539 0.96975010633468628
0.11708147823810577 0.2063739001750946 0.94307184219360352
0.15858577191829681 0.20751108229160309 0.94404715299606323
0.19816474616527557 0.20877969264984131 0.94578170776367188
0.23823349177837372 0.21359558403491974 0.95347172021865845
0.29926404356956482 0.20519611239433289 0.93580830097198486
0.49624353647232056 0.1948283463716507 0.92994290590286255
0.8935742974281311 0.25422170758247375 0.96469587087631226
0.15877582132816315 0.34608173370361328 0.95654666423797607
0.19667564332485199 0.35285669565200806 0.96317112445831299
0.23489458858966827 0.34847289323806763 0.9645271897315979
0.26981481909751892 0.33898860216140747 0.96960127353668213
0.32671540975570679 0.33358344435691833 0.95651143789291382
0.51358133554458618 0.28075891733169556 0.94265085458755493
0.90132373571395874 0.28831809759140015 0.97029769420623779
0.22462925314903259 0.53431075811386108 0.97460317611694336
0.25856754183769226 0.53645598888397217 0.97872751951217651
0.29788064956665039 0.53559762239456177 0.98020583391189575
0.33160829544067383 0.53290200233459473 0.98599922657012939
0.3827785849571228 0.52811020612716675 0.98051160573959351
0.59024524688720703 0.49928188323974609 0.97749572992324829
0.90391206741333008 0.45273187756538391 0.98123061656951904
0.28735962510108948 0.72275614738464355 0.98645991086959839
0.32837626338005066 0.72092711925506592 0.99083834886550903
0.36550682783126831 0.72018283605575562 0.99102658033370972
0.39985668659210205 0.72076964378356934 0.99105620384216309
0.45375558733940125 0.71123915910720825 0.98987537622451782
0.65343195199966431 0.70222240686416626 0.98563122749328613
0.90808027982711792 0.66929680109024048 0.98978787660598755
0.37002426385879517 0.89529037475585938 0.99638885259628296
0.41244634985923767 0.89747023582458496 0.99658602476119995
0.45134815573692322 0.89496433734893799 0.99556893110275269
0.49079838395118713 0.89409643411636353 0.99692666530609131
0.54117012023925781 0.88622772693634033 0.99608373641967773
0.71769565343856812 0.87363708019256592 0.99247139692306519
0.9248504638671875 0.83699995279312134 0.99203747510910034
0.49649825692176819 0.99843841791152954 0.99926471710205078
0.54122745990753174 0.99926471710205078 0.99847328662872314
0.5807068943977356 0.99853801727294922 0.99688458442687988
0.62216043472290039 0.99618315696716309 0.99676525592803955
0.6759611964225769 0.99660384654998779 0.99711871147155762
0.77818655967712402 0.99357128143310547 0.99531644582748413
0.90512007474899292 0.98608273267745972 0.98370933532714844
