assets/lut/editingcorp dimmer.cube
# Created by: G'MIC (https://gmic.eu)
TITLE "dimmer"
# LUT size
LUT_3D_SIZE 7
# Data domain
DOMAIN_MIN 0.0 0.0 0.0
DOMAIN_MAX 1.0 1.0 1.0
# LUT data points
0.059606991708278656 0.057504929602146149 0.052111398428678513
0.14584934711456299 0.06850164383649826 0.048205386847257614
0.24665872752666473 0.064905725419521332 0.058159742504358292
0.33254054188728333 0.045932170003652573 0.052700940519571304
0.43871885538101196 0.035924140363931656 0.045855861157178879
0.5769956111907959 0.042581371963024139 0.029434608295559883
0.73929852247238159 0.097878493368625641 0.01952107809484005
0.085325278341770172 0.13592515885829926 0.087669789791107178
0.1786583811044693 0.13537976145744324 0.074211210012435913
0.29153084754943848 0.14214950799942017 0.070558659732341766
0.3841005265712738 0.13163729012012482 0.069522261619567871
0.48866349458694458 0.11884996294975281 0.063256897032260895
0.62740904092788696 0.17474851012229919 0.037320844829082489
0.78902918100357056 0.27712377905845642 0.033305972814559937
0.14087113738059998 0.26297098398208618 0.14425873756408691
0.20086587965488434 0.28249189257621765 0.14247755706310272
0.34242039918899536 0.28209522366523743 0.097738929092884064
0.43893009424209595 0.31542536616325378 0.097668483853340149
0.55745518207550049 0.32336729764938354 0.069889441132545471
0.69957035779953003 0.3569716215133667 0.020431099459528923
0.83093559741973877 0.4063015878200531 0.037945274263620377
0.21323564648628235 0.39781114459037781 0.21844139695167542
0.26625910401344299 0.41918143630027771 0.22227272391319275
0.3662477433681488 0.43544566631317139 0.16725333034992218
0.48122102022171021 0.44571730494499207 0.14043231308460236
0.59641385078430176 0.48733079433441162 0.13759316504001617
0.7456699013710022 0.50567066669464111 0.070079371333122253
0.85324978828430176 0.52322101593017578 0.090433739125728607
0.29403799772262573 0.51257461309432983 0.30564999580383301
0.34848508238792419 0.54486680030822754 0.31129881739616394
0.42805612087249756 0.58197993040084839 0.25264072418212891
0.51513564586639404 0.58738195896148682 0.21947850286960602
0.63918519020080566 0.59898602962493896 0.19210539758205414
0.7782367467880249 0.61435037851333618 0.14774493873119354
0.86490142345428467 0.63288915157318115 0.15932729840278625
0.38348609209060669 0.61868846416473389 0.39975613355636597
0.41638422012329102 0.63761246204376221 0.43728315830230713
0.49589475989341736 0.67886084318161011 0.39845466613769531
0.56915640830993652 0.69241780042648315 0.30941244959831238
0.68781375885009766 0.69680148363113403 0.26592695713043213
0.80090814828872681 0.69503140449523926 0.23297277092933655
0.87884217500686646 0.72347187995910645 0.25871947407722473
0.48073515295982361 0.73731738328933716 0.51199877262115479
0.53571820259094238 0.75900793075561523 0.55454623699188232
0.59639650583267212 0.78623175621032715 0.53830760717391968
0.64302974939346313 0.79121655225753784 0.47077545523643494
0.7360873818397522 0.78648018836975098 0.36783063411712646
0.82303571701049805 0.7906649112701416 0.33814936876296997
0.88995867967605591 0.80600035190582275 0.35466885566711426
0.059817325323820114 0.079321108758449554 0.15172548592090607
0.14663660526275635 0.082175053656101227 0.14571592211723328
0.25940796732902527 0.075416117906570435 0.13012558221817017
0.3410031795501709 0.065619118511676788 0.13023188710212708
0.44093969464302063 0.057988200336694717 0.1258130818605423
0.58061546087265015 0.063043795526027679 0.10115022957324982
0.74463200569152832 0.12304513901472092 0.071004591882228851
0.074150934815406799 0.18800167739391327 0.1956603080034256
0.16392906010150909 0.19597449898719788 0.20281104743480682
0.32391068339347839 0.18303556740283966 0.16387616097927094
0.42380574345588684 0.17747756838798523 0.17359107732772827
0.51399797201156616 0.18451042473316193 0.19099651277065277
0.63337188959121704 0.23151831328868866 0.18052467703819275
0.78976505994796753 0.31263095140457153 0.14356024563312531
0.13536128401756287 0.32425025105476379 0.26337838172912598
0.20074044167995453 0.34027683734893799 0.26691433787345886
0.37496805191040039 0.33049789071083069 0.19889524579048157
0.47686833143234253 0.36589547991752625 0.2128261923789978
0.57503902912139893 0.37640231847763062 0.25104054808616638
0.69315439462661743 0.40521827340126038 0.25972941517829895
0.81575226783752441 0.43841657042503357 0.24487514793872833
0.21490581333637238 0.4629693329334259 0.32526054978370667
0.27425375580787659 0.47439450025558472 0.34027579426765442
0.38644066452980042 0.46243828535079956 0.31317397952079773
0.50975769758224487 0.48241180181503296 0.24638901650905609
0.61218559741973877 0.5180925726890564 0.28681734204292297
0.74098336696624756 0.53034287691116333 0.28980094194412231
0.8404276967048645 0.54320287704467773 0.30619725584983826
0.31305640935897827 0.56847763061523438 0.38318169116973877
0.3658212423324585 0.60186576843261719 0.44130274653434753
0.46042153239250183 0.59614980220794678 0.43782874941825867
0.54253226518630981 0.61725795269012451 0.36726954579353333
0.65963065624237061 0.63430720567703247 0.30601972341537476
0.78045308589935303 0.65472859144210815 0.32663264870643616
0.85682767629623413 0.64287203550338745 0.3577226996421814
0.40473672747612 0.66293799877166748 0.45542612671852112
0.4473421573638916 0.69649124145507812 0.50883728265762329
0.53388530015945435 0.71064221858978271 0.52655637264251709
0.60339581966400146 0.7316277027130127 0.47285860776901245
0.69118505716323853 0.74785768985748291 0.41802936792373657
0.80219078063964844 0.75656688213348389 0.39203539490699768
0.87213754653930664 0.75386834144592285 0.42934498190879822
0.4870363175868988 0.77841657400131226 0.57222497463226318
0.53700798749923706 0.79849934577941895 0.61036807298660278
0.60414421558380127 0.80339211225509644 0.63061404228210449
0.67191886901855469 0.79927045106887817 0.61267155408859253
0.74439036846160889 0.82359141111373901 0.52108311653137207
0.83689922094345093 0.83496260643005371 0.46016335487365723
0.88709372282028198 0.83565586805343628 0.4842645525932312
0.038528114557266235 0.099894598126411438 0.31691864132881165
0.096177332103252411 0.079093843698501587 0.37352091073989868
0.23949208855628967 0.088387571275234222 0.30484986305236816
0.35367047786712646 0.099019758403301239 0.22120110690593719
0.42819368839263916 0.088332593441009521 0.19519546627998352
0.57423752546310425 0.13276366889476776 0.21634198725223541
0.72389930486679077 0.21182668209075928 0.23231691122055054
0.084049925208091736 0.23716185986995697 0.3200741708278656
0.13385778665542603 0.22398453950881958 0.38391801714897156
0.32368949055671692 0.22923372685909271 0.33935874700546265
0.4541679322719574 0.25935620069503784 0.30101370811462402
0.53851461410522461 0.2695954442024231 0.30020958185195923
0.64468330144882202 0.30918902158737183 0.32772400975227356
0.77063632011413574 0.36896547675132751 0.34095761179924011
0.13168443739414215 0.34228169918060303 0.37911131978034973
0.18867217004299164 0.39557763934135437 0.43129950761795044
0.35199320316314697 0.39576864242553711 0.40911567211151123
0.50586974620819092 0.41261518001556396 0.37348788976669312
0.60486716032028198 0.43408113718032837 0.39158862829208374
0.70212918519973755 0.44923752546310425 0.40380966663360596
0.8032335638999939 0.46500575542449951 0.40681201219558716
0.22844904661178589 0.50784873962402344 0.45873314142227173
0.28710594773292542 0.55287367105484009 0.4860759973526001
0.40735208988189697 0.54017192125320435 0.46869412064552307
0.54637974500656128 0.52613592147827148 0.40810450911521912
0.64770662784576416 0.55437791347503662 0.42334750294685364
0.74580758810043335 0.55111783742904663 0.44249412417411804
0.83843457698822021 0.56090468168258667 0.4484647810459137
0.3320123553276062 0.62016236782073975 0.47596117854118347
0.38005807995796204 0.65834450721740723 0.52052241563796997
0.47430506348609924 0.65904241800308228 0.53565186262130737
0.5745244026184082 0.6417236328125 0.49898970127105713
0.68294918537139893 0.64887070655822754 0.45789524912834167
0.77829664945602417 0.66319692134857178 0.47360497713088989
0.86684912443161011 0.67036187648773193 0.48511171340942383
0.41370424628257751 0.70421606302261353 0.52143025398254395
0.46506792306900024 0.74237537384033203 0.5774579644203186
0.56219661235809326 0.75749248266220093 0.61062651872634888
0.64146643877029419 0.74379557371139526 0.59278708696365356
0.70618414878845215 0.75766956806182861 0.5507466197013855
0.80280721187591553 0.76838558912277222 0.52148735523223877
0.88806635141372681 0.78368121385574341 0.53656172752380371
0.49595767259597778 0.81070172786712646 0.62160384654998779
0.55202186107635498 0.83620214462280273 0.66472005844116211
0.63117885589599609 0.84134018421173096 0.69323694705963135
0.70416897535324097 0.83182287216186523 0.6789361834526062
0.76433378458023071 0.84601688385009766 0.62702685594558716
0.83504706621170044 0.86462932825088501 0.58657324314117432
0.9044492244720459 0.86865043640136719 0.59168732166290283
0.026938285678625107 0.090062357485294342 0.46809881925582886
0.1144501194357872 0.06873137503862381 0.5084654688835144
0.25123205780982971 0.064223393797874451 0.48738336563110352
0.391977459192276 0.093258924782276154 0.38537517189979553
0.46873688697814941 0.12888950109481812 0.30795547366142273
0.5634797215461731 0.1833900511264801 0.30993357300758362
0.70063412189483643 0.27993127703666687 0.37221106886863708
0.098348997533321381 0.25391492247581482 0.44701108336448669
0.15051478147506714 0.19381777942180634 0.50974339246749878
0.30218601226806641 0.16630829870700836 0.54633969068527222
0.46236163377761841 0.24582692980766296 0.4653908908367157
0.54902058839797974 0.31188878417015076 0.40577366948127747
0.63689345121383667 0.33700186014175415 0.40122094750404358
0.76751446723937988 0.40190622210502625 0.45014229416847229
0.16390474140644073 0.38301113247871399 0.48616346716880798
0.21668791770935059 0.40087082982063293 0.5290648341178894
0.35143387317657471 0.41709312796592712 0.5496591329574585
0.52503329515457153 0.45075303316116333 0.50671017169952393
0.62349158525466919 0.48196941614151001 0.50143986940383911
0.71495956182479858 0.47838839888572693 0.49982517957687378
0.81155580282211304 0.48580899834632874 0.49916231632232666
0.25086075067520142 0.53565317392349243 0.54445743560791016
0.29869917035102844 0.54859387874603271 0.57106095552444458
0.39334812760353088 0.58545422554016113 0.591175377368927
0.55647873878479004 0.57705819606781006 0.55231708288192749
0.67383277416229248 0.58163696527481079 0.53383177518844604
0.76050323247909546 0.56915223598480225 0.53709965944290161
0.84521031379699707 0.57162976264953613 0.55303263664245605
0.34282311797142029 0.65837270021438599 0.59031885862350464
0.39425313472747803 0.68898731470108032 0.62078821659088135
0.47211205959320068 0.71304225921630859 0.63705730438232422
0.59778678417205811 0.69388079643249512 0.61733567714691162
0.70542609691619873 0.68527126312255859 0.56664949655532837
0.79925966262817383 0.69876587390899658 0.58359998464584351
0.88470357656478882 0.69226843118667603 0.6064034104347229
0.42627754807472229 0.75494301319122314 0.63446849584579468
0.47937667369842529 0.77901792526245117 0.66297203302383423
0.5622674822807312 0.80299121141433716 0.69388550519943237
0.66194659471511841 0.78935760259628296 0.69079852104187012
0.74011266231536865 0.78449636697769165 0.66098415851593018
0.82456749677658081 0.8016781210899353 0.63654434680938721
0.91047793626785278 0.81535685062408447 0.66153538227081299
0.51558321714401245 0.84733939170837402 0.6979140043258667
0.56976485252380371 0.87009471654891968 0.72981733083724976
0.6414380669593811 0.88157194852828979 0.76099532842636108
0.72467470169067383 0.87731105089187622 0.76829719543457031
0.79891031980514526 0.87385159730911255 0.74773198366165161
0.85722029209136963 0.88779211044311523 0.71160316467285156
0.92823153734207153 0.89582228660583496 0.70906168222427368
0.078765913844108582 0.099154487252235413 0.61068993806838989
0.20694737136363983 0.065376043319702148 0.62368625402450562
0.32831254601478577 0.069508872926235199 0.60552191734313965
0.43494749069213867 0.097946152091026306 0.54774129390716553
0.52379828691482544 0.14783422648906708 0.47894725203514099
0.6036948561668396 0.21305868029594421 0.46033254265785217
0.71700417995452881 0.31595596671104431 0.52171087265014648
0.15498028695583344 0.30378648638725281 0.58699506521224976
0.23220662772655487 0.22337505221366882 0.63118940591812134
0.37657052278518677 0.20819258689880371 0.67296236753463745
0.48884382843971252 0.25798448920249939 0.65139627456665039
0.6008339524269104 0.35371410846710205 0.57382148504257202
0.67326527833938599 0.38600450754165649 0.53779160976409912
0.7672303318977356 0.4181525707244873 0.55776894092559814
0.2286951094865799 0.46021381020545959 0.61067861318588257
0.27609780430793762 0.45833545923233032 0.64312982559204102
0.39672103524208069 0.41111329197883606 0.68081831932067871
0.51941001415252686 0.39544647932052612 0.71219855546951294
0.64449042081832886 0.47544464468955994 0.63438582420349121
0.72179597616195679 0.49397045373916626 0.59736543893814087
0.8056718111038208 0.49481403827667236 0.58942216634750366
0.28620824217796326 0.56600350141525269 0.63022780418395996
0.33391574025154114 0.58819091320037842 0.66259086132049561
0.41855144500732422 0.59896248579025269 0.68750005960464478
0.55255663394927979 0.58780437707901001 0.69949597120285034
0.69780528545379639 0.60058706998825073 0.66861146688461304
0.77564048767089844 0.60483467578887939 0.64931303262710571
0.84703630208969116 0.59583151340484619 0.64310389757156372
0.35348865389823914 0.66253030300140381 0.67170709371566772
0.41068324446678162 0.69919157028198242 0.70661354064941406
0.47724601626396179 0.71528917551040649 0.73238658905029297
0.57214516401290894 0.72305965423583984 0.7408403754234314
0.71412897109985352 0.73173660039901733 0.72194713354110718
0.82512468099594116 0.73764568567276001 0.70321422815322876
0.89652270078659058 0.72487372159957886 0.71616315841674805
0.43784382939338684 0.7770734429359436 0.7414395809173584
0.49550274014472961 0.80484682321548462 0.76034098863601685
0.56088066101074219 0.82609909772872925 0.78750443458557129
0.63617849349975586 0.8308984637260437 0.79942721128463745
0.75466680526733398 0.82835417985916138 0.78349566459655762
0.84930109977722168 0.83800530433654785 0.75508832931518555
0.9243360161781311 0.83791941404342651 0.77274465560913086
0.54353976249694824 0.89068835973739624 0.8177751898765564
0.59329319000244141 0.90508353710174561 0.82955706119537354
0.64979934692382812 0.91925841569900513 0.85646361112594604
0.70989423990249634 0.92597949504852295 0.87333720922470093
0.80319470167160034 0.92184168100357056 0.86459028720855713
0.8845105767250061 0.9187273383140564 0.82751625776290894
0.94190114736557007 0.92163544893264771 0.8136059045791626
0.19355314970016479 0.13969472050666809 0.75684702396392822
0.33040064573287964 0.10139162838459015 0.7737928032875061
0.41734865307807922 0.11131764203310013 0.75075370073318481
0.50551217794418335 0.15812972187995911 0.7214350700378418
0.60202556848526001 0.22852465510368347 0.65721219778060913
0.68290013074874878 0.29126438498497009 0.6277807354927063
0.77420157194137573 0.37171235680580139 0.6646086573600769
0.24458155035972595 0.37802711129188538 0.74320822954177856
0.35633969306945801 0.30454745888710022 0.78470820188522339
0.47378513216972351 0.28485876321792603 0.81324833631515503
0.57061660289764404 0.32003539800643921 0.80695587396621704
0.6673283576965332 0.39212960004806519 0.73593181371688843
0.73678278923034668 0.42081776261329651 0.69316178560256958
0.80709600448608398 0.44255954027175903 0.70685273408889771
0.29077214002609253 0.51875013113021851 0.74779576063156128
0.36698454618453979 0.49423646926879883 0.78699797391891479
0.48704680800437927 0.42885273694992065 0.8484572172164917
0.60002034902572632 0.42388084530830383 0.86929202079772949
0.70691317319869995 0.46764346957206726 0.81991207599639893
0.77930885553359985 0.49869272112846375 0.76919698715209961
0.84036970138549805 0.50838285684585571 0.76137429475784302
0.32613763213157654 0.59838569164276123 0.75623905658721924
0.38419324159622192 0.62253719568252563 0.78102129697799683
0.47248426079750061 0.61340641975402832 0.81354045867919922
0.58858656883239746 0.56462818384170532 0.86585485935211182
0.72861987352371216 0.54857039451599121 0.88780677318572998
0.81930798292160034 0.60939216613769531 0.82540732622146606
0.86932992935180664 0.62191677093505859 0.78699326515197754
0.37670096755027771 0.68038928508758545 0.77743452787399292
0.43730396032333374 0.71457690000534058 0.79994463920593262
0.50899010896682739 0.73303484916687012 0.82384413480758667
0.58927631378173828 0.7362399697303772 0.84580248594284058
0.72108536958694458 0.74776959419250488 0.86036980152130127
0.84923028945922852 0.76593613624572754 0.84664559364318848
0.91124111413955688 0.76335424184799194 0.82523548603057861
0.45042508840560913 0.77968668937683105 0.8277137279510498
0.51555436849594116 0.81135928630828857 0.84182536602020264
0.58475619554519653 0.83231699466705322 0.86853528022766113
0.6431351900100708 0.83608037233352661 0.88609784841537476
0.7318425178527832 0.8507266640663147 0.89997822046279907
0.85268378257751465 0.86907434463500977 0.88440382480621338
0.94119477272033691 0.8692442774772644 0.87485426664352417
0.56405830383300781 0.90387094020843506 0.90727090835571289
0.61608797311782837 0.91828817129135132 0.91366094350814819
0.67229306697845459 0.93142068386077881 0.92979776859283447
0.72494029998779297 0.93972629308700562 0.93763178586959839
0.79780364036560059 0.94774585962295532 0.94119870662689209
0.89170557260513306 0.95277148485183716 0.92435348033905029
0.95930081605911255 0.94680356979370117 0.90976822376251221
0.35783416032791138 0.25270864367485046 0.89319336414337158
0.47472909092903137 0.18088646233081818 0.89936459064483643
0.56043589115142822 0.23079951107501984 0.89067691564559937
0.63337862491607666 0.26756501197814941 0.89032858610153198
0.70670157670974731 0.33120390772819519 0.84978455305099487
0.77801507711410522 0.39029505848884583 0.81736153364181519
0.84650880098342896 0.42246448993682861 0.81536567211151123
0.38579311966896057 0.43626013398170471 0.92587429285049438
0.50331181287765503 0.38424462080001831 0.93528890609741211
0.59400057792663574 0.35431566834449768 0.93759071826934814
0.6669507622718811 0.3692505955696106 0.93380928039550781
0.74011111259460449 0.41722866892814636 0.89526408910751343
0.80571353435516357 0.45835581421852112 0.85318928956985474
0.86804592609405518 0.48497888445854187 0.85257583856582642
0.38549995422363281 0.54588478803634644 0.91386783123016357
0.48655509948730469 0.5315970778465271 0.93587225675582886
0.59227919578552246 0.49979573488235474 0.95375716686248779
0.69088900089263916 0.48158356547355652 0.95973587036132812
0.78070282936096191 0.50710076093673706 0.93649548292160034
0.84400534629821777 0.53473937511444092 0.90571045875549316
0.89404451847076416 0.55896234512329102 0.89675581455230713
0.41181814670562744 0.65447884798049927 0.900432288646698
0.48830968141555786 0.66070079803466797 0.90693998336791992
0.56801551580429077 0.6610913872718811 0.92334127426147461
0.6738506555557251 0.63219517469406128 0.94557946920394897
0.79987835884094238 0.61865413188934326 0.9509466290473938
0.87544709444046021 0.64806210994720459 0.92647945880889893
0.91346579790115356 0.67081338167190552 0.90834486484527588
0.45027658343315125 0.73868662118911743 0.90986341238021851
0.51457017660140991 0.7601630687713623 0.91767513751983643
0.58137279748916626 0.7688937783241272 0.92801469564437866
0.65697473287582397 0.77706444263458252 0.93772798776626587
0.77546471357345581 0.77088421583175659 0.94141292572021484
0.88748824596405029 0.77890437841415405 0.92899084091186523
0.93576806783676147 0.79347211122512817 0.92224174737930298
0.51667606830596924 0.82590150833129883 0.93838119506835938
0.57448083162307739 0.84264302253723145 0.94137072563171387
0.63202404975891113 0.85085254907608032 0.95112890005111694
0.68868410587310791 0.8660353422164917 0.9608304500579834
0.76619064807891846 0.87710762023925781 0.96316689252853394
0.87239181995391846 0.88211750984191895 0.95467686653137207
0.95892155170440674 0.88548344373703003 0.95125561952590942
0.60258018970489502 0.92264652252197266 0.9848286509513855
0.65049093961715698 0.9269789457321167 0.97585892677307129
0.70085281133651733 0.924632728099823 0.96840590238571167
0.75408875942230225 0.93859702348709106 0.97825545072555542
0.81834334135055542 0.94893789291381836 0.98120540380477905
0.89383518695831299 0.96334457397460938 0.98200654983520508
0.98210638761520386 0.97469609975814819 0.98145991563796997
