assets/lut/editingcorp soldi.cube
# Created by: G'MIC (https://gmic.eu)
TITLE "soldi"
# LUT size
LUT_3D_SIZE 7
# Data domain
DOMAIN_MIN 0.0 0.0 0.0
DOMAIN_MAX 1.0 1.0 1.0
# LUT data points
0.0072215511463582516 0.0048209694214165211 0.0087769599631428719
0.20724937319755554 0.033292148262262344 0.0064710578881204128
0.47612544894218445 0.060257181525230408 0.0073818881064653397
0.69406723976135254 0.043192427605390549 0.0026206222828477621
0.83000743389129639 0.043989997357130051 0.0031860501039773226
0.8563196063041687 0.017546501010656357 0.00020123650028835982
0.907501220703125 0.0042583541944622993 5.834242983837612e-05
0.00010896570893237367 0.11395781487226486 0.0041379891335964203
0.14610210061073303 0.14047957956790924 0.0065313153900206089
0.45237687230110168 0.17732468247413635 0.0015776690561324358
0.67222839593887329 0.14860257506370544 0.0065232519991695881
0.83948838710784912 0.11885817348957062 0.0036884082946926355
0.86552435159683228 0.09850553423166275 0.0034521513152867556
0.91316479444503784 0.087190873920917511 0.0045002656988799572
0.013739671558141708 0.30228498578071594 0.020583746954798698
0.11086364090442657 0.31260928511619568 0.016172312200069427
0.40844079852104187 0.36277639865875244 3.4526750823715702e-05
0.66784918308258057 0.34891790151596069 0.0013632531045004725
0.86656302213668823 0.29313606023788452 0.0012696209596469998
0.90997958183288574 0.27303814888000488 0.003982963040471077
0.95187503099441528 0.26410964131355286 0.0088510848581790924
0.15447390079498291 0.53433132171630859 0.050820518285036087
0.18457745015621185 0.52444100379943848 0.043519128113985062
0.39500811696052551 0.55062496662139893 0.0029585594311356544
0.63042104244232178 0.55892652273178101 0.005295861978083849
0.86333703994750977 0.50572663545608521 0.0073888888582587242
0.9535406231880188 0.47097936272621155 0.0068553849123418331
0.98541879653930664 0.46697628498077393 0.010368167422711849
0.29301732778549194 0.72807210683822632 0.071571215987205505
0.31578323245048523 0.72043681144714355 0.074607416987419128
0.41622760891914368 0.71974503993988037 0.039811376482248306
0.63590747117996216 0.73332858085632324 0.0073165143840014935
0.83082956075668335 0.71649551391601562 0.0062297745607793331
0.96186703443527222 0.68449598550796509 0.0055131199769675732
0.99707162380218506 0.68292975425720215 0.0077467826195061207
0.35508573055267334 0.84671545028686523 0.075291953980922699
0.38088420033454895 0.84759068489074707 0.074283182621002197
0.42512485384941101 0.8376498818397522 0.067262835800647736
0.6334385871887207 0.85135549306869507 0.012196963652968407
0.83890306949615479 0.84893286228179932 0.0067282584495842457
0.95823287963867188 0.85111194849014282 0.0077701793052256107
0.99773281812667847 0.84920918941497803 0.0076112933456897736
0.35928452014923096 0.88589936494827271 0.069488272070884705
0.3834490180015564 0.88730859756469727 0.064445927739143372
0.42748695611953735 0.87925660610198975 0.061062097549438477
0.60748094320297241 0.89631116390228271 0.024856388568878174
0.82537341117858887 0.9145018458366394 0.0076566059142351151
0.94843029975891113 0.91007936000823975 0.006563269067555666
0.99761146306991577 0.90920555591583252 0.0056972727179527283
0.00057054409990087152 0.018538756296038628 0.1207050234079361
0.157356858253479 0.013265407644212246 0.13574603199958801
0.44459453225135803 0.012959125451743603 0.12362056225538254
0.66372835636138916 0.017975691705942154 0.10087564587593079
0.81902021169662476 0.0073339724913239479 0.085219532251358032
0.84425085783004761 0.010782608762383461 0.069583430886268616
0.89768737554550171 0.0099530983716249466 0.068888150155544281
0.001161732361651957 0.13433335721492767 0.11405199766159058
0.1347745805978775 0.1400628387928009 0.10823404788970947
0.43162819743156433 0.1494540274143219 0.092158220708370209
0.65978920459747314 0.1303141862154007 0.074999898672103882
0.82869517803192139 0.091195046901702881 0.060566473752260208
0.85600847005844116 0.0814833864569664 0.053628135472536087
0.91003948450088501 0.078207157552242279 0.056050632148981094
0.015112364664673805 0.29933810234069824 0.10175804048776627
0.10210297256708145 0.30580368638038635 0.085509747266769409
0.40528714656829834 0.35956639051437378 0.060168113559484482
0.66591811180114746 0.34381607174873352 0.046492736786603928
0.866047203540802 0.29205679893493652 0.03355032205581665
0.91077739000320435 0.26681679487228394 0.033858325332403183
0.96521037817001343 0.25729554891586304 0.035869970917701721
0.15819370746612549 0.52825725078582764 0.094762392342090607
0.19220221042633057 0.52117729187011719 0.073107883334159851
0.39174738526344299 0.55006533861160278 0.026499908417463303
0.63135123252868652 0.55775779485702515 0.031504146754741669
0.86112362146377563 0.50383782386779785 0.031545303761959076
0.95552152395248413 0.46708723902702332 0.023658169433474541
0.99495816230773926 0.46343573927879333 0.025279220193624496
0.29215499758720398 0.72479939460754395 0.097678028047084808
0.31103715300559998 0.71926391124725342 0.095863789319992065
0.40995156764984131 0.71683228015899658 0.065942205488681793
0.63200944662094116 0.72913664579391479 0.024663198739290237
0.83017051219940186 0.71104216575622559 0.035741619765758514
0.96392858028411865 0.68123841285705566 0.03074352815747261
0.99925106763839722 0.67783743143081665 0.024108152836561203
0.35363003611564636 0.83967095613479614 0.097238190472126007
0.38276046514511108 0.84585809707641602 0.10010726004838943
0.42811477184295654 0.83615899085998535 0.093148507177829742
0.62364453077316284 0.84695219993591309 0.039468653500080109
0.83615481853485107 0.85850733518600464 0.032798513770103455
0.95598626136779785 0.84689772129058838 0.036017891019582748
0.99559468030929565 0.84976965188980103 0.034215874969959259
0.35398760437965393 0.87876957654953003 0.081893101334571838
0.38723012804985046 0.87905246019363403 0.068810723721981049
0.43103235960006714 0.87789630889892578 0.066755332052707672
0.60504806041717529 0.89534693956375122 0.045828457921743393
0.82190084457397461 0.9158942699432373 0.040025148540735245
0.95381367206573486 0.90471577644348145 0.035395123064517975
0.9992600679397583 0.90578591823577881 0.028101513162255287
0.002053488977253437 0.039405792951583862 0.2767370343208313
0.076389610767364502 0.022986678406596184 0.32254698872566223
0.39729821681976318 0.0044737271964550018 0.3528902530670166
0.60945481061935425 0.0020530552137643099 0.33159500360488892
0.77213591337203979 0.0024329989682883024 0.3092363178730011
0.80639994144439697 0.0011115878587588668 0.28908085823059082
0.85099649429321289 0.0043242508545517921 0.27479410171508789
0.0041723810136318207 0.19326032698154449 0.31043636798858643
0.096707060933113098 0.16952544450759888 0.30890169739723206
0.3783104419708252 0.1306692510843277 0.32398435473442078
0.61370807886123657 0.096888504922389984 0.3001541793346405
0.78000777959823608 0.051599301397800446 0.26298895478248596
0.82328176498413086 0.039243150502443314 0.24343286454677582
0.87559670209884644 0.047756567597389221 0.23520655930042267
0.0092388372868299484 0.3416619598865509 0.33517530560493469
0.072210259735584259 0.33449161052703857 0.32268017530441284
0.37782943248748779 0.35625258088111877 0.32175198197364807
0.64563208818435669 0.33872112631797791 0.27081692218780518
0.84752190113067627 0.27406340837478638 0.21719390153884888
0.90239465236663818 0.23620171844959259 0.18838262557983398
0.95362955331802368 0.23251083493232727 0.18447722494602203
0.092590972781181335 0.51356208324432373 0.28875625133514404
0.12254276871681213 0.50217926502227783 0.27626928687095642
0.36932948231697083 0.54307824373245239 0.26139447093009949
0.62115633487701416 0.5583043098449707 0.20486673712730408
0.8566281795501709 0.50521206855773926 0.16518151760101318
0.95383131504058838 0.46368008852005005 0.12645331025123596
0.99655604362487793 0.45739307999610901 0.12799587845802307
0.24477261304855347 0.70598995685577393 0.21863044798374176
0.26333132386207581 0.69667667150497437 0.20824965834617615
0.37305814027786255 0.70428472757339478 0.18624459207057953
0.62299931049346924 0.7298043966293335 0.11889967322349548
0.82547008991241455 0.71564775705337524 0.090004310011863708
0.9680752158164978 0.6783454418182373 0.088678412139415741
0.99905800819396973 0.67008143663406372 0.0744476318359375
0.32828846573829651 0.84504634141921997 0.15841972827911377
0.36267465353012085 0.84257805347442627 0.15336714684963226
0.4148557186126709 0.8367496132850647 0.1488722562789917
0.61937618255615234 0.84858530759811401 0.069531306624412537
0.83104991912841797 0.85128545761108398 0.040139574557542801
0.95673078298568726 0.84398627281188965 0.057156194001436234
0.99632984399795532 0.85005944967269897 0.069639690220355988
0.32650589942932129 0.88034522533416748 0.12537559866905212
0.38757809996604919 0.88092327117919922 0.068342961370944977
0.42462211847305298 0.88151568174362183 0.073094144463539124
0.59686291217803955 0.89825689792633057 0.062141865491867065
0.81592357158660889 0.91506415605545044 0.057930741459131241
0.95232349634170532 0.90569174289703369 0.039634838700294495
0.99872630834579468 0.90170741081237793 0.044509004801511765
0.0050255721434950829 0.07240721583366394 0.45037764310836792
0.07091955840587616 0.040114011615514755 0.47630628943443298
0.31463953852653503 0.0016937406035140157 0.53035527467727661
0.55439329147338867 0 0.52400553226470947
0.67815017700195312 0.0051822438836097717 0.50846445560455322
0.70828521251678467 0.0047646616585552692 0.49724140763282776
0.7680554986000061 0.0048002805560827255 0.49666884541511536
0.0037485607899725437 0.24738965928554535 0.48606947064399719
0.061598416417837143 0.21980296075344086 0.4755871593952179
0.28947189450263977 0.13614784181118011 0.51915961503982544
0.54963487386703491 0.077761225402355194 0.51299947500228882
0.70225310325622559 0.051698990166187286 0.48319324851036072
0.74299710988998413 0.046793319284915924 0.4652349054813385
0.79980647563934326 0.044878911226987839 0.4690801203250885
0.0050962110981345177 0.39420974254608154 0.54518282413482666
0.057585187256336212 0.39013266563415527 0.53673511743545532
0.29494524002075195 0.38338533043861389 0.54412001371383667
0.578105628490448 0.34478411078453064 0.53762370347976685
0.7906649112701416 0.28232383728027344 0.4926612377166748
0.85170304775238037 0.23656204342842102 0.46049773693084717
0.89804744720458984 0.23400984704494476 0.45425069332122803
0.018341602757573128 0.5600319504737854 0.55171936750411987
0.047313809394836426 0.54733753204345703 0.53693664073944092
0.29620072245597839 0.56225991249084473 0.54239416122436523
0.57992058992385864 0.57704144716262817 0.53244054317474365
0.84359598159790039 0.52500045299530029 0.48103389143943787
0.94563454389572144 0.4756634533405304 0.43596178293228149
0.97804278135299683 0.46761909127235413 0.4261527955532074
0.10833943635225296 0.69825941324234009 0.4844907820224762
0.14203278720378876 0.68684595823287964 0.47407633066177368
0.25184911489486694 0.69990170001983643 0.46908664703369141
0.54805022478103638 0.7467803955078125 0.47207736968994141
0.81174212694168091 0.73427420854568481 0.40828132629394531
0.96910339593887329 0.68617618083953857 0.3601250946521759
0.99794954061508179 0.68044894933700562 0.34959134459495544
0.16395065188407898 0.81995481252670288 0.39511343836784363
0.20813032984733582 0.81562572717666626 0.37863835692405701
0.26548299193382263 0.81622600555419922 0.37600138783454895
0.53192269802093506 0.85607928037643433 0.35651233792304993
0.80183899402618408 0.86609113216400146 0.298277348279953
0.95487922430038452 0.85899871587753296 0.24030798673629761
0.9966474175453186 0.85815751552581787 0.22826279699802399
0.18978239595890045 0.86296373605728149 0.34508818387985229
0.23972170054912567 0.86595422029495239 0.3462580144405365
0.28010264039039612 0.87044608592987061 0.30666372179985046
0.52656161785125732 0.90585511922836304 0.27368882298469543
0.78558909893035889 0.92171907424926758 0.23551596701145172
0.95494967699050903 0.92131423950195312 0.084352366626262665
0.99771767854690552 0.92118942737579346 0.088508382439613342
0.0075338324531912804 0.09009552001953125 0.57031452655792236
0.070114493370056152 0.071689978241920471 0.5690494179725647
0.23735110461711884 0.021641705185174942 0.64285832643508911
0.49067190289497375 0.0030729705467820168 0.64504152536392212
0.68120157718658447 0.0054113948717713356 0.7108728289604187
0.69570797681808472 0.0063401018269360065 0.69932597875595093
0.73946869373321533 0.0060471477918326855 0.68658769130706787
0.0039228699170053005 0.28647667169570923 0.61505353450775146
0.057909753173589706 0.26373764872550964 0.60335534811019897
0.18965406715869904 0.16981174051761627 0.63796621561050415
0.47360014915466309 0.067121990025043488 0.65799033641815186
0.66297686100006104 0.045121975243091583 0.6721491813659668
0.72470307350158691 0.041543353348970413 0.68623894453048706
0.75712120532989502 0.037724513560533524 0.66401243209838867
0.0062799789011478424 0.43597680330276489 0.67373579740524292
0.03846823051571846 0.42921096086502075 0.66424828767776489
0.17306400835514069 0.42275479435920715 0.66869252920150757
0.44483146071434021 0.34886571764945984 0.68981397151947021
0.68687474727630615 0.27210444211959839 0.68982762098312378
0.74780219793319702 0.23419542610645294 0.66487807035446167
0.79916137456893921 0.22637373208999634 0.6604762077331543
0.0075586354359984398 0.58482027053833008 0.74777346849441528
0.032812230288982391 0.57337373495101929 0.73577880859375
0.19006846845149994 0.5833280086517334 0.72833526134490967
0.46128833293914795 0.59469002485275269 0.71170961856842041
0.75478971004486084 0.54385417699813843 0.69995421171188354
0.86763298511505127 0.5012785792350769 0.66531455516815186
0.90844416618347168 0.49222221970558167 0.657875657081604
0.028632668778300285 0.74948513507843018 0.72267007827758789
0.051219776272773743 0.74016177654266357 0.72339940071105957
0.1661512553691864 0.73542338609695435 0.70407044887542725
0.45693030953407288 0.76050609350204468 0.6989438533782959
0.77562040090560913 0.76331335306167603 0.68852066993713379
0.95025813579559326 0.72171765565872192 0.65932708978652954
0.99039709568023682 0.71418595314025879 0.65264719724655151
0.046405792236328125 0.8336944580078125 0.62800371646881104
0.074847236275672913 0.83041280508041382 0.61684644222259521
0.12097401171922684 0.82677030563354492 0.60422104597091675
0.3722417950630188 0.86606240272521973 0.60392206907272339
0.73677754402160645 0.89492553472518921 0.61079758405685425
0.95350837707519531 0.8870166540145874 0.57845461368560791
0.99791401624679565 0.8747144341468811 0.569588303565979
0.06142030656337738 0.87137067317962646 0.59672349691390991
0.085469037294387817 0.86588072776794434 0.58391135931015015
0.11055230349302292 0.85976189374923706 0.56840825080871582
0.32849577069282532 0.90389353036880493 0.56664413213729858
0.69262421131134033 0.94454115629196167 0.56267589330673218
0.94036197662353516 0.95573991537094116 0.4814816415309906
0.99749839305877686 0.95416027307510376 0.45378470420837402
0.0048361537046730518 0.092307105660438538 0.59932571649551392
0.070992730557918549 0.074254311621189117 0.59310454130172729
0.22666209936141968 0.022517260164022446 0.67365086078643799
0.47830107808113098 0.005419114138931036 0.68830060958862305
0.79131108522415161 0.0060358685441315174 0.84738528728485107
0.83956480026245117 0.0074330051429569721 0.87179088592529297
0.90324121713638306 0.0061408844776451588 0.87172538042068481
0.0047871158458292484 0.28534245491027832 0.64671975374221802
0.056573141366243362 0.25886774063110352 0.63793385028839111
0.17666302621364594 0.17128612101078033 0.67433923482894897
0.43765267729759216 0.072713308036327362 0.69563513994216919
0.73542290925979614 0.039858125150203705 0.80695623159408569
0.8456120491027832 0.036748819053173065 0.8695981502532959
0.90946239233016968 0.038517460227012634 0.87815302610397339
0.0054864920675754547 0.44106993079185486 0.7167784571647644
0.038258571177721024 0.43233752250671387 0.71251171827316284
0.1328592449426651 0.42560321092605591 0.71827870607376099
0.37870526313781738 0.34946566820144653 0.75529694557189941
0.67896860837936401 0.25295040011405945 0.80816006660461426
0.86764216423034668 0.20497673749923706 0.89332109689712524
0.92245805263519287 0.20261061191558838 0.88243228197097778
0.0058771767653524876 0.58114004135131836 0.80452817678451538
0.035258542746305466 0.57257378101348877 0.79552465677261353
0.11884394288063049 0.59085965156555176 0.79767787456512451
0.36436387896537781 0.59859991073608398 0.79490000009536743
0.63521164655685425 0.54457575082778931 0.81299704313278198
0.85926693677902222 0.47277173399925232 0.88291805982589722
0.90851300954818726 0.46614477038383484 0.86796742677688599
0.0050545339472591877 0.76016843318939209 0.89635187387466431
0.029449073597788811 0.7519645094871521 0.88985246419906616
0.097671106457710266 0.73671233654022217 0.88353955745697021
0.36483472585678101 0.75658279657363892 0.87506884336471558
0.67552655935287476 0.77288246154785156 0.85006451606750488
0.89451390504837036 0.73083913326263428 0.85916429758071899
0.95380550622940063 0.72227615118026733 0.85465353727340698
0.015749838203191757 0.8880501389503479 0.844856858253479
0.042438581585884094 0.88603347539901733 0.84230262041091919
0.081244044005870819 0.88148957490921021 0.84021997451782227
0.27355483174324036 0.88426226377487183 0.83448505401611328
0.64148300886154175 0.90460789203643799 0.8375820517539978
0.92804670333862305 0.90520548820495605 0.82902896404266357
0.99389505386352539 0.90149009227752686 0.8205835223197937
0.018771931529045105 0.92279052734375 0.82031816244125366
0.040956951677799225 0.92173951864242554 0.81381750106811523
0.058750435709953308 0.91076952219009399 0.79221165180206299
0.19627156853675842 0.93609899282455444 0.79820489883422852
0.57507658004760742 0.9662901759147644 0.79062974452972412
0.91173607110977173 0.98094260692596436 0.7782025933265686
0.99720245599746704 0.98274421691894531 0.77140086889266968
0.0073372935876250267 0.091609403491020203 0.62316900491714478
0.073096558451652527 0.066304363310337067 0.62034732103347778
0.20914137363433838 0.022820865735411644 0.69450634717941284
0.47343742847442627 0.0039890212938189507 0.71625661849975586
0.78795969486236572 0.0070410333573818207 0.86668139696121216
0.84843766689300537 0.0039147320203483105 0.89415675401687622
0.89509028196334839 0.0051418677903711796 0.88714873790740967
0.005038795992732048 0.28089210391044617 0.67308872938156128
0.064149297773838043 0.25157374143600464 0.66172176599502563
0.16796585917472839 0.16538962721824646 0.70102572441101074
0.4346517026424408 0.064572758972644806 0.72890794277191162
0.74098563194274902 0.043846026062965393 0.84198898077011108
0.84338819980621338 0.035719495266675949 0.89239245653152466
0.89825308322906494 0.028331771492958069 0.89097374677658081
0.0052859736606478691 0.43537557125091553 0.74246776103973389
0.042803790420293808 0.42943421006202698 0.7401314377784729
0.1251884251832962 0.42102277278900146 0.74333155155181885
0.36937689781188965 0.34875568747520447 0.7768293023109436
0.66152727603912354 0.24048271775245667 0.81331884860992432
0.87663275003433228 0.19802655279636383 0.91636937856674194
0.91932064294815063 0.18123564124107361 0.9118187427520752
0.0052418280392885208 0.58024048805236816 0.834300696849823
0.036496855318546295 0.57202410697937012 0.82710081338882446
0.11359187215566635 0.59150385856628418 0.82601648569107056
0.34728166460990906 0.59905779361724854 0.81957447528839111
0.63134765625 0.5412871241569519 0.84077078104019165
0.88245904445648193 0.46677795052528381 0.93167471885681152
0.93337893486022949 0.45138958096504211 0.93484455347061157
0.0065504484809935093 0.75683915615081787 0.9215577244758606
0.035124983638525009 0.74172496795654297 0.91572171449661255
0.11477407068014145 0.72898083925247192 0.90852868556976318
0.35141333937644958 0.75680327415466309 0.90977638959884644
0.66105979681015015 0.7683178186416626 0.88508015871047974
0.90291899442672729 0.71533280611038208 0.93597221374511719
0.95502012968063354 0.70032680034637451 0.94406813383102417
0.011968530714511871 0.90579593181610107 0.92175579071044922
0.039385687559843063 0.90160095691680908 0.91637945175170898
0.093756280839443207 0.89336806535720825 0.91875344514846802
0.2811640202999115 0.89902502298355103 0.92750674486160278
0.6350439190864563 0.90828788280487061 0.93580758571624756
0.91276484727859497 0.90981882810592651 0.91787141561508179
0.98961198329925537 0.90456002950668335 0.9265250563621521
0.01371078472584486 0.94017684459686279 0.90673923492431641
0.038246903568506241 0.94902259111404419 0.91801387071609497
0.074320010840892792 0.93952083587646484 0.9035489559173584
0.22137999534606934 0.96312248706817627 0.92613202333450317
0.56068581342697144 0.97847670316696167 0.93183016777038574
0.90588682889938354 0.98429358005523682 0.91478180885314941
0.99456179141998291 0.98764199018478394 0.90996932983398438
