assets/lut/editingcorp litore.cube
# Created by: G'MIC (https://gmic.eu)
TITLE "litore"
# LUT size
LUT_3D_SIZE 13
# Data domain
DOMAIN_MIN 0.0 0.0 0.0
DOMAIN_MAX 1.0 1.0 1.0
# LUT data points
0.00013786765339318663 0.0097318012267351151 0.018522210419178009
0.026941904798150063 0.010655391961336136 0.021043799817562103
0.10427980870008469 0.0073874681256711483 0.01432641688734293
0.1925307959318161 0.0082118166610598564 0.0045105577446520329
0.27982324361801147 0.0054469238966703415 0.00094546150648966432
0.35035201907157898 0.0011529810726642609 0
0.41881439089775085 8.5269704868551344e-05 0
0.48388373851776123 0 0.0001962250389624387
0.53328722715377808 0 0.00028159946668893099
0.56904935836791992 0 0.00031991099240258336
0.60508817434310913 0 0.0022547703702002764
0.65205883979797363 0 0.0031514486763626337
0.70802974700927734 0 0.00034556668833829463
0.00018418255785945803 0.064213559031486511 0.02585938386619091
0.027963452041149139 0.068031013011932373 0.020057378336787224
0.10917425900697708 0.064920864999294281 0.012433788739144802
0.20138955116271973 0.059752326458692551 0.0028492198325693607
0.28678619861602783 0.050228673964738846 0.00020719041640404612
0.3608492910861969 0.039051473140716553 0
0.42933127284049988 0.028005532920360565 0
0.49176353216171265 0.018825860694050789 6.0287175074336119e-06
0.54219239950180054 0.0083202589303255081 9.1403135229484178e-06
0.58253377676010132 0.0033660889603197575 0.00076234107837080956
0.62339526414871216 0.0035996530205011368 0.0040544397197663784
0.6724318265914917 0.00095080205937847495 0.0067871543578803539
0.72797966003417969 0 0.0020808649715036154
0 0.13280461728572845 0.012979619204998016
0.02362569235265255 0.13878624141216278 0.0046728397719562054
0.10423576831817627 0.13776050508022308 0.0026035234332084656
0.20246613025665283 0.13623662292957306 0.00010708079935284331
0.29319685697555542 0.13307064771652222 0
0.3725685179233551 0.13107989728450775 0
0.43949154019355774 0.12048216909170151 0
0.49784952402114868 0.10393880307674408 0
0.54838168621063232 0.085778221487998962 0
0.59133422374725342 0.069422826170921326 0.00044204114237800241
0.63447064161300659 0.060876209288835526 0.0035974241327494383
0.6830107569694519 0.042821891605854034 0.0046311621554195881
0.73687916994094849 0.022662308067083359 0.0012987323570996523
0 0.20519810914993286 0.0018709369469434023
0.017724668607115746 0.20846953988075256 0.00025329590425826609
0.096143253147602081 0.20979279279708862 0.0001678466796875
0.20080839097499847 0.21378029882907867 0
0.29881912469863892 0.21694749593734741 0
0.38130390644073486 0.22066254913806915 0.00024231555289588869
0.44862908124923706 0.2177836149930954 0.00039011638727970421
0.50643330812454224 0.20822729170322418 0.00020449768635444343
0.55837523937225342 0.19970254600048065 0.00087507657008245587
0.60352391004562378 0.18337741494178772 0.0017222086898982525
0.64776366949081421 0.167568638920784 0.0028656304348260164
0.69528317451477051 0.14636330306529999 0.0014676711289212108
0.74745512008666992 0.11868562549352646 2.1003274014219642e-05
0.00019758635608013719 0.28264421224594116 0
0.020420882850885391 0.28444656729698181 0
0.093116357922554016 0.28850305080413818 0
0.19916068017482758 0.29430714249610901 0
0.30258208513259888 0.29730266332626343 0
0.38734939694404602 0.29733723402023315 0.00041073068859986961
0.45575898885726929 0.29527437686920166 0.0026489407755434513
0.51560443639755249 0.2917976975440979 0.0040599149651825428
0.57019615173339844 0.28795883059501648 0.0064296349883079529
0.61835205554962158 0.28011363744735718 0.005763364490121603
0.66467708349227905 0.27027764916419983 0.0037838057614862919
0.71182221174240112 0.257447749376297 0.0020871928427368402
0.76296103000640869 0.23602795600891113 0.00031750247580930591
0.00046596152242273092 0.36379042267799377 0
0.019919091835618019 0.36551183462142944 0
0.088127210736274719 0.36949056386947632 0
0.19544744491577148 0.37496420741081238 0
0.30592173337936401 0.37724468111991882 0
0.39319881796836853 0.37371024489402771 8.2068349001929164e-05
0.46032658219337463 0.36734989285469055 0.00025476195150986314
0.52132940292358398 0.36267438530921936 0.0025519276969134808
0.57848441600799561 0.35945975780487061 0.0063932831399142742
0.62976336479187012 0.35597264766693115 0.0076851937919855118
0.67830187082290649 0.35168877243995667 0.0069213267415761948
0.7273901104927063 0.34554800391197205 0.0051524592563509941
0.77953529357910156 0.33301886916160583 0.0014308405807241797
1.4002182979311328e-05 0.43846231698989868 3.0338062060764059e-05
0.0091981031000614166 0.44021174311637878 0
0.07326749712228775 0.44367489218711853 0
0.18470326066017151 0.44857272505760193 0
0.30471700429916382 0.45050889253616333 0
0.39719352126121521 0.44540020823478699 0.00079559627920389175
0.46473962068557739 0.43615636229515076 0.0011304818326607347
0.52482026815414429 0.4285396933555603 0.00043095607543364167
0.58254778385162354 0.42452022433280945 0.001616309629753232
0.63654798269271851 0.42244908213615417 0.0033130869269371033
0.68755263090133667 0.4207952618598938 0.004364402499049902
0.73960459232330322 0.41747558116912842 0.0039533576928079128
0.79452347755432129 0.40913188457489014 0.0017878812504932284
0 0.50501835346221924 0
0.0010356230195611715 0.50658303499221802 0
0.051429778337478638 0.50914204120635986 0
0.1678500771522522 0.51286298036575317 0
0.29520493745803833 0.51398402452468872 0
0.3951447606086731 0.50959676504135132 0.0008265177602879703
0.46667709946632385 0.50090104341506958 0.0016363105969503522
0.52743047475814819 0.49243101477622986 9.5292634796351194e-06
0.58553612232208252 0.48757448792457581 0
0.64214426279067993 0.4866783618927002 2.1781173927593045e-05
0.69637596607208252 0.48694431781768799 0.0011223438195884228
0.75060123205184937 0.48530513048171997 0.002920995932072401
0.80677765607833862 0.47947189211845398 0.0016938602784648538
0 0.5687180757522583 0
0 0.57062739133834839 0.00011726828233804554
0.037309236824512482 0.57213747501373291 0.00039400588138960302
0.15095587074756622 0.57449382543563843 0.00031115961610339582
0.28079655766487122 0.57518547773361206 0.00053986196871846914
0.38712146878242493 0.57298445701599121 0.0021279128268361092
0.46505433320999146 0.56605988740921021 0.0015072093810886145
0.52869349718093872 0.55781084299087524 2.6448567950865254e-05
0.58824265003204346 0.55270040035247803 0
0.64840155839920044 0.5530962347984314 0.001375355408526957
0.70604038238525391 0.55516809225082397 0.0047225053422152996
0.76148021221160889 0.55461537837982178 0.0055276011116802692
0.81670540571212769 0.54977244138717651 0.0023605795577168465
0 0.63114309310913086 7.0010914896556642e-06
0.0010616227518767118 0.63515001535415649 0.001223829691298306
0.040934603661298752 0.63684797286987305 0.0045601190067827702
0.14035432040691376 0.6368831992149353 0.0065579731017351151
0.26288309693336487 0.63726979494094849 0.0079829199239611626
0.37345623970031738 0.63758891820907593 0.0097371265292167664
0.45970308780670166 0.63269156217575073 0.0072912327013909817
0.52854722738265991 0.6259230375289917 0.0034032035619020462
0.59092289209365845 0.62250494956970215 0.002468363381922245
0.65333747863769531 0.62419664859771729 0.0050723506137728691
0.7129783034324646 0.62622255086898804 0.0071976752951741219
0.76899164915084839 0.62490278482437134 0.0068517047911882401
0.82378756999969482 0.61942654848098755 0.0025337818078696728
0.0021699792705476284 0.68816083669662476 0.00011435116175562143
0.011118077673017979 0.69408780336380005 0.0024834426585584879
0.052484326064586639 0.69639253616333008 0.0096034631133079529
0.13688166439533234 0.69521909952163696 0.013970647938549519
0.24842579662799835 0.69498938322067261 0.014983787201344967
0.35953596234321594 0.69670397043228149 0.015078166499733925
0.4523378312587738 0.69455689191818237 0.01169402152299881
0.52735990285873413 0.69125163555145264 0.00749969482421875
0.5933305025100708 0.69210845232009888 0.0053805033676326275
0.65640085935592651 0.69568967819213867 0.0051593855023384094
0.71620672941207886 0.69596379995346069 0.0064331954345107079
0.77290982007980347 0.69237637519836426 0.0063278200104832649
0.82807266712188721 0.68536651134490967 0.0020897658541798592
0.013671426102519035 0.73915612697601318 0
0.029315829277038574 0.74607682228088379 0.00032166126766242087
0.069058813154697418 0.74888008832931519 0.002314653480425477
0.14212845265865326 0.7475239634513855 0.0051879435777664185
0.24236968159675598 0.74738407135009766 0.0090711405500769615
0.3502291738986969 0.74960696697235107 0.011749402619898319
0.4468817412853241 0.74954915046691895 0.0093818968161940575
0.52619296312332153 0.74848878383636475 0.0045991637744009495
0.5946270227432251 0.75196212530136108 0.0022513146977871656
0.6584509015083313 0.75768297910690308 0.0026774837169796228
0.71852856874465942 0.75833910703659058 0.0048193987458944321
0.77553647756576538 0.75350821018218994 0.0056373747065663338
0.83163845539093018 0.74541258811950684 0.0027000876143574715
0.0270511694252491 0.78973710536956787 0
0.04832419753074646 0.79652303457260132 0
0.088748157024383545 0.80000978708267212 0
0.15516142547130585 0.80024588108062744 0
0.24625225365161896 0.80080866813659668 0.00041318408329971135
0.34823232889175415 0.80271100997924805 0.0024341358803212643
0.44458696246147156 0.8031955361366272 0.0022042517084628344
0.52545624971389771 0.80288493633270264 0.00023347443493548781
0.59556633234024048 0.80639433860778809 8.6167283370741643e-06
0.66031897068023682 0.81215596199035645 0.00073354382766410708
0.72111606597900391 0.81351929903030396 0.0023973053321242332
0.77900105714797974 0.80945736169815063 0.0036356758791953325
0.83640444278717041 0.80247163772583008 0.0023953157942742109
0.00017053940973710269 0.010736009106040001 0.053342137485742569
0.023580992594361305 0.011609036475419998 0.05372205376625061
0.10042999684810638 0.0055519253946840763 0.048843502998352051
0.19006821513175964 0.0036735385656356812 0.034185193479061127
0.27425035834312439 0.0024188919924199581 0.021876690909266472
0.34540203213691711 0.0022123747039586306 0.0054186652414500713
0.41673830151557922 0.00032564051798544824 0.0034692951012402773
0.48194417357444763 0 0.0026147281751036644
0.53263950347900391 0 0.00019549201533664018
0.5726771354675293 4.8229740059468895e-05 0
0.61188781261444092 0.00091519823763519526 8.526970304956194e-06
0.66011911630630493 0.0016166686546057463 0.00035181979183107615
0.71738827228546143 0.0017557181417942047 0.00012350644101388752
0.00052490236703306437 0.066771350800991058 0.071955554187297821
0.031984217464923859 0.070979967713356018 0.071870677173137665
0.11550189554691315 0.065368741750717163 0.063222683966159821
0.21147377789020538 0.054510768502950668 0.041663661599159241
0.29491943120956421 0.047757752239704132 0.022634632885456085
0.36727145314216614 0.04352734237909317 0.0078512756153941154
0.43590071797370911 0.033952929079532623 0.0034851972013711929
0.49933558702468872 0.022450286895036697 0.00093193800421431661
0.55077177286148071 0.012825162149965763 1.3164445817892556e-06
0.59198498725891113 0.0091290343552827835 0
0.63331502676010132 0.0062306122854351997 4.100425576325506e-05
0.68316346406936646 0.00075761385960504413 0.0015886792680248618
0.740528404712677 0 0.0011388591956347227
0 0.13178351521492004 0.066116005182266235
0.026869934052228928 0.14516876637935638 0.056599710136651993
0.11246080696582794 0.14770379662513733 0.046494800597429276
0.21665669977664948 0.14034256339073181 0.025949679315090179
0.30595389008522034 0.13774454593658447 0.0097791338339447975
0.38146898150444031 0.13594505190849304 0.002089077839627862
0.4474371075630188 0.12877407670021057 0.00016639559180475771
0.50732332468032837 0.11314071714878082 2.3037780465529067e-06
0.55957233905792236 0.092986449599266052 0
0.60113245248794556 0.078211948275566101 0
0.64243537187576294 0.064562506973743439 0.0006187887629494071
0.69182902574539185 0.041950419545173645 0.0012717302888631821
0.74700486660003662 0.026056760922074318 0.00012618419714272022
0 0.20696957409381866 0.039937246590852737
0.022883247584104538 0.21799106895923615 0.034953728318214417
0.10522051155567169 0.22301231324672699 0.025575511157512665
0.21551616489887238 0.22456377744674683 0.010657171718776226
0.31235027313232422 0.22630976140499115 0.0029577517416328192
0.38979670405387878 0.2280372828245163 0.00020499136007856578
0.45602411031723022 0.22494076192378998 0
0.51543283462524414 0.21414920687675476 9.424546078662388e-06
0.56737220287322998 0.20067587494850159 6.8126006226520985e-05
0.61101651191711426 0.18630523979663849 8.6167283370741643e-06
0.655303955078125 0.17120133340358734 0.00044510784209705889
0.70384353399276733 0.15527532994747162 0.00056672940263524652
0.75664734840393066 0.13296857476234436 0
0 0.28445819020271301 0.014155174605548382
0.01837361603975296 0.29265224933624268 0.016802918165922165
0.095560871064662933 0.30127012729644775 0.0071081873029470444
0.21080328524112701 0.3073103129863739 0.00037407968193292618
0.31431317329406738 0.30782896280288696 2.6328891635785112e-06
0.39443483948707581 0.30512240529060364 0
0.4629044234752655 0.30124583840370178 8.1873877206817269e-05
0.52471935749053955 0.29498764872550964 0.0012432172661647201
0.57925432920455933 0.28939560055732727 0.0025831034872680902
0.62634646892547607 0.28232684731483459 0.0013769710203632712
0.67410063743591309 0.27207425236701965 0.0019861706532537937
0.72158843278884888 0.26456877589225769 0.0039940327405929565
0.77288544178009033 0.24754944443702698 0.001596607849933207
0 0.36378109455108643 0.011685688979923725
0.0097794923931360245 0.37217700481414795 0.0077921696938574314
0.079174458980560303 0.38204842805862427 0.001164664514362812
0.19817115366458893 0.38884285092353821 0
0.31435257196426392 0.38816773891448975 0
0.39999669790267944 0.38169834017753601 0
0.46718922257423401 0.37438309192657471 0
0.52923274040222168 0.36790615320205688 0.00027087342459708452
0.58715975284576416 0.36320415139198303 0.0013361164601519704
0.6384778618812561 0.35926416516304016 0.002582490211352706
0.68737185001373291 0.35432028770446777 0.0060054706409573555
0.7367212176322937 0.34912258386611938 0.007184645626693964
0.79057455062866211 0.33764031529426575 0.0048657883889973164
0 0.43874350190162659 0.01101334486156702
0.0026328740641474724 0.44614389538764954 0.0022985569667071104
0.060757402330636978 0.45495820045471191 2.7316224077367224e-05
0.1819673478603363 0.4611457884311676 0
0.31001371145248413 0.46083325147628784 0
0.40314438939094543 0.45367521047592163 0
0.46996289491653442 0.44392409920692444 0.00012135224824305624
0.53144502639770508 0.43530729413032532 0
0.59044688940048218 0.43011206388473511 3.470626552370959e-06
0.64589148759841919 0.42758709192276001 0.0003836837422568351
0.69691067934036255 0.42532980442047119 0.0024953356478363276
0.74799299240112305 0.42177480459213257 0.0038489548023790121
0.80419743061065674 0.41346070170402527 0.0024170370306819677
0 0.50615036487579346 0.0041476082988083363
0.00021096023556310683 0.51198726892471313 6.8993664172012359e-05
0.045887921005487442 0.51816612482070923 0
0.16605202853679657 0.52278095483779907 0
0.29858207702636719 0.52314954996109009 0
0.39955437183380127 0.51883614063262939 0
0.47099804878234863 0.50985908508300781 0.0012135225115343928
0.53306752443313599 0.49972918629646301 0
0.59373044967651367 0.49429687857627869 0
0.65251427888870239 0.49345317482948303 0
0.7064507007598877 0.4935184121131897 0.00012696209887508303
0.75901621580123901 0.49104011058807373 0.0018852533539757133
0.8152773380279541 0.48489871621131897 0.0014920253306627274
0 0.57021528482437134 0.00016141404921654612
0 0.5760766863822937 0
0.036653362214565277 0.58064711093902588 0
0.14875005185604095 0.58304113149642944 0
0.28141948580741882 0.58384132385253906 0
0.39113423228263855 0.5831107497215271 1.1309455658192746e-05
0.47049567103385925 0.57630985975265503 2.3696002244832925e-05
0.53508096933364868 0.56648379564285278 0
0.59728199243545532 0.56084668636322021 0
0.65997517108917236 0.5608716607093811 0.00024286906409543008
0.71728122234344482 0.5620046854019165 0.0018643547082319856
0.77131819725036621 0.56069374084472656 0.0048970989882946014
0.82638221979141235 0.55539035797119141 0.003079582704231143
0 0.63125759363174438 0
6.2037448515184224e-05 0.64018160104751587 0
0.033234570175409317 0.64548832178115845 2.6373769287602045e-05
0.13295826315879822 0.64531731605529785 0.00028617709176614881
0.26251220703125 0.64586037397384644 0.00045981313451193273
0.37901580333709717 0.6495743989944458 0.0017143249278888106
0.46659743785858154 0.6444973349571228 0.0011653077090159059
0.53545761108398438 0.6364980936050415 0.00039022110286168754
0.5991244912147522 0.63247925043106079 0.0010037890169769526
0.66348129510879517 0.63218981027603149 0.00320585654117167
0.72345542907714844 0.63293373584747314 0.0053294161334633827
0.77949267625808716 0.63122773170471191 0.0065809809602797031
0.83438992500305176 0.62526422739028931 0.0033487656619399786
1.3972263332107104e-05 0.68643736839294434 0
0.0027263716328889132 0.69803732633590698 0
0.036684613674879074 0.7052915096282959 0.0012101117754355073
0.12400437891483307 0.70414000749588013 0.0038869970012456179
0.2447543740272522 0.7036857008934021 0.0049824584275484085
0.36312705278396606 0.70793873071670532 0.0059852898120880127
0.45797380805015564 0.70611310005187988 0.0039874506182968616
0.53248727321624756 0.70219361782073975 0.0044595156796276569
0.59876978397369385 0.70207405090332031 0.0078076831996440887
0.66321426630020142 0.70306730270385742 0.0074048209935426712
0.72462642192840576 0.70336979627609253 0.0063905157148838043
0.78198802471160889 0.70043611526489258 0.0051855947822332382
0.83776950836181641 0.69275754690170288 0.0017964232247322798
0.0044112862087786198 0.73680514097213745 0
0.014710729010403156 0.74875766038894653 0
0.050430029630661011 0.75610339641571045 5.8716417697723955e-05
0.12544548511505127 0.7565845251083374 0.00087539071682840586
0.23329760134220123 0.75647628307342529 0.0043237423524260521
0.34823125600814819 0.75876164436340332 0.0076268366537988186
0.4479215145111084 0.75841677188873291 0.0057006236165761948
0.52777397632598877 0.75588530302047729 0.0043823090381920338
0.59763807058334351 0.75910276174545288 0.007048498373478651
0.66392725706100464 0.76475197076797485 0.0082316678017377853
0.7257695198059082 0.76653045415878296 0.0073749618604779243
0.78411036729812622 0.76296114921569824 0.0060421661473810673
0.84125715494155884 0.75496476888656616 0.0033094070386141539
0.015581527724862099 0.78871959447860718 0
0.031241877004504204 0.79927241802215576 0
0.068584829568862915 0.80655539035797119 0
0.13631574809551239 0.80900353193283081 0
0.23296800255775452 0.8097769021987915 0.00024126838252414018
0.34118208289146423 0.81059342622756958 0.0023421342484652996
0.44110512733459473 0.81025451421737671 0.0028481725603342056
0.52426797151565552 0.80793380737304688 0.0010552798630669713
0.59719520807266235 0.81234335899353027 0.0024574131239205599
0.66519337892532349 0.81985604763031006 0.0061906701885163784
0.7280040979385376 0.82222765684127808 0.0073296790942549706
0.78747552633285522 0.81928843259811401 0.0075193070806562901
0.84650522470474243 0.81336545944213867 0.0054472382180392742
0.0003362318966537714 0.010032325051724911 0.10299145430326462
0.023340232670307159 0.01259797066450119 0.10802006721496582
0.10005897283554077 0.0058929291553795338 0.10934081673622131
0.19074463844299316 0.0018534043338149786 0.096522040665149689
0.27405118942260742 0.00022529152920469642 0.083192594349384308
0.34939867258071899 0.00017000085790641606 0.062890134751796722
0.42038238048553467 2.1541820842685411e-06 0.052230626344680786
0.48147940635681152 0 0.039059508591890335
0.52918237447738647 0 0.023170230910181999
0.57161039113998413 0.00076817529043182731 0.012766175903379917
0.61573952436447144 0.0025614271871745586 0.0082762027159333229
0.66131556034088135 0.0014927883166819811 0.0054956022650003433
0.71270442008972168 0.00098987657111138105 0.001143915462307632
0.00044789034291170537 0.067881010472774506 0.12748929858207703
0.0315997414290905 0.07285754382610321 0.13848914206027985
0.11458315700292587 0.065579116344451904 0.13642247021198273
0.21427719295024872 0.04899202287197113 0.11664760857820511
0.3018057644367218 0.039268121123313904 0.093562602996826172
0.3785763680934906 0.034237701445817947 0.069560691714286804
0.44882923364639282 0.024390276521444321 0.052698157727718353
0.51183843612670898 0.013681014999747276 0.030813524499535561
0.56155109405517578 0.0068840626627206802 0.015088489279150963
0.60068225860595703 0.0078368540853261948 0.010945428162813187
0.64364564418792725 0.003958085086196661 0.0076824561692774296
0.69006097316741943 5.8581783378031105e-05 0.0077894022688269615
0.74382996559143066 0 0.0050048227421939373
0 0.13500295579433441 0.13273170590400696
0.026153264567255974 0.1468634307384491 0.137795090675354
0.11271525174379349 0.14734490215778351 0.1309669017791748
0.2210637629032135 0.13819165527820587 0.10713908076286316
0.31567376852035522 0.13250698149204254 0.079027660191059113
0.3941064178943634 0.12977740168571472 0.051059737801551819
0.46164190769195557 0.12429127097129822 0.029665285721421242
0.52465754747390747 0.10888592898845673 0.011660377494990826
0.58054536581039429 0.083555974066257477 0.0024913563393056393
0.62121808528900146 0.072190709412097931 0.0019627590663731098
0.66017889976501465 0.056428167968988419 0.0017848295392468572
0.70372945070266724 0.030210636556148529 0.0023479836527258158
0.75568848848342896 0.02091033011674881 0.0023648429196327925
0 0.20773935317993164 0.11703802645206451
0.019208677113056183 0.21960748732089996 0.12002190947532654
0.10399902611970901 0.22745853662490845 0.107465960085392
0.22116683423519135 0.22929121553897858 0.082511678338050842
0.32307401299476624 0.22860436141490936 0.059329837560653687
0.4013863205909729 0.22764822840690613 0.035850152373313904
0.46787425875663757 0.22660712897777557 0.015777258202433586
0.52936327457427979 0.21789856255054474 0.0049863778986036777
0.58213448524475098 0.2024800181388855 0.0011171826627105474
0.62734138965606689 0.18574242293834686 0
0.6682279109954834 0.16979454457759857 0
0.71356624364852905 0.15427783131599426 6.283030870690709e-06
0.76582998037338257 0.13956794142723083 2.8722426577587612e-05
0 0.28394919633865356 0.089554913341999054
0.0090988306328654289 0.29433906078338623 0.095072187483310699
0.086147397756576538 0.30849805474281311 0.074733316898345947
0.21494711935520172 0.31703361868858337 0.036389697343111038
0.32444053888320923 0.31632429361343384 0.022676730528473854
0.40256309509277344 0.3110886812210083 0.018658731132745743
0.47097641229629517 0.30823388695716858 0.0077962088398635387
0.53359109163284302 0.30185893177986145 0.00058197323232889175
0.58798485994338989 0.29514554142951965 0.0001068115234375
0.63617932796478271 0.28726965188980103 0
0.6795353889465332 0.2782212495803833 4.3682025534508284e-06
0.72808349132537842 0.26871821284294128 0.00063904409762471914
0.78036868572235107 0.25548595190048218 0.00026614620583131909
0 0.36173227429389954 0.077430799603462219
0.0015265969559550285 0.37529280781745911 0.07497735321521759
0.056354448199272156 0.39283034205436707 0.053035378456115723
0.19257183372974396 0.40296182036399841 0.016042657196521759
0.32518523931503296 0.40123623609542847 0.0037400040309876204
0.41053149104118347 0.39228886365890503 0.0050688199698925018
0.4768405556678772 0.38430631160736084 0.0023368834517896175
0.53663796186447144 0.37692719697952271 1.8849092157324776e-05
0.59185010194778442 0.37073913216590881 0
0.6452447772026062 0.36547821760177612 0
0.69117027521133423 0.35943847894668579 7.9674813605379313e-05
0.74107533693313599 0.35253772139549255 0.00067131192190572619
0.79902464151382446 0.3409963846206665 0.00092791387578472495
0 0.4362654983997345 0.0687713623046875
6.3683008193038404e-05 0.44868180155754089 0.052335131913423538
0.03859303891658783 0.46467986702919006 0.029999347403645515
