assets/lut/editingcorp vubes.cube
# Created by: G'MIC (https://gmic.eu)
TITLE "vubes"
# LUT size
LUT_3D_SIZE 5
# Data domain
DOMAIN_MIN 0.0 0.0 0.0
DOMAIN_MAX 1.0 1.0 1.0
# LUT data points
0.041070301085710526 0.038392789661884308 0.027921924367547035
0.22218233346939087 0.03030790388584137 0.018990743905305862
0.4455166757106781 0.053861640393733978 0.044057734310626984
0.61195385456085205 0.065633468329906464 0.054180953651666641
0.72621017694473267 0.061120517551898956 0.05056622251868248
0.079826176166534424 0.20821221172809601 0.050242211669683456
0.23462341725826263 0.21153552830219269 0.058804411441087723
0.45307838916778564 0.21792525053024292 0.075387321412563324
0.65459239482879639 0.22782377898693085 0.092474855482578278
0.77073723077774048 0.2265942245721817 0.096444137394428253
0.10190833359956741 0.4243074357509613 0.088186629116535187
0.23121863603591919 0.42296263575553894 0.093527264893054962
0.5053601861000061 0.4649803638458252 0.13088558614253998
0.76060521602630615 0.50681209564208984 0.19542330503463745
0.8604729175567627 0.49609619379043579 0.1980661004781723
0.17029672861099243 0.6641312837600708 0.15451920032501221
0.2928270697593689 0.6640351414680481 0.16058339178562164
0.56525218486785889 0.729259192943573 0.24105048179626465
0.80694746971130371 0.75806498527526855 0.30895307660102844
0.93589115142822266 0.75919133424758911 0.32700860500335693
0.2164178341627121 0.81320035457611084 0.18596319854259491
0.32796669006347656 0.80927318334579468 0.19215059280395508
0.5396953821182251 0.85233849287033081 0.25818684697151184
0.81609737873077393 0.92034173011779785 0.36148831248283386
0.97801053524017334 0.93959897756576538 0.39420598745346069
0.018476642668247223 0.02792702428996563 0.18537969887256622
0.24758262932300568 0.037550952285528183 0.20756538212299347
0.46880659461021423 0.051560524851083755 0.20927873253822327
0.63387644290924072 0.051079470664262772 0.19078090786933899
0.7387959361076355 0.032887209206819534 0.16311825811862946
0.074658803641796112 0.21154995262622833 0.19305042922496796
0.2449660450220108 0.22234374284744263 0.20728893578052521
0.47214961051940918 0.22680485248565674 0.20776520669460297
0.67640906572341919 0.24282650649547577 0.22387993335723877
0.78982830047607422 0.24450688064098358 0.23171655833721161
0.10284076631069183 0.42168200016021729 0.20352712273597717
0.23905353248119354 0.43076083064079285 0.21246524155139923
0.50395673513412476 0.47219884395599365 0.24485477805137634
0.75878936052322388 0.50556838512420654 0.30158010125160217
0.87026673555374146 0.5052039623260498 0.30731084942817688
0.17545141279697418 0.6586909294128418 0.26187443733215332
0.28654655814170837 0.66520345211029053 0.25969955325126648
0.55639183521270752 0.72222977876663208 0.33522361516952515
0.80330926179885864 0.75936728715896606 0.40265533328056335
0.93335729837417603 0.7620815634727478 0.42586761713027954
0.22714191675186157 0.80434185266494751 0.29068472981452942
0.33061528205871582 0.80537843704223633 0.29445815086364746
0.54235023260116577 0.85129755735397339 0.3581940233707428
0.81901425123214722 0.92352974414825439 0.46673867106437683
0.97594243288040161 0.94264096021652222 0.49903181195259094
0.05972830206155777 0.040542736649513245 0.39402517676353455
0.29349851608276367 0.069826938211917877 0.44703200459480286
0.56754648685455322 0.1057417169213295 0.48148262500762939
0.71530485153198242 0.090110108256340027 0.46189719438552856
0.81753873825073242 0.10102908313274384 0.44610309600830078
0.11113062500953674 0.2385028600692749 0.4177384078502655
0.28077685832977295 0.25985974073410034 0.43880754709243774
0.54693412780761719 0.28943675756454468 0.46616947650909424
0.74002176523208618 0.29685050249099731 0.46821081638336182
0.84240972995758057 0.29881888628005981 0.46208584308624268
0.12217400968074799 0.44486472010612488 0.42124080657958984
0.25833737850189209 0.45968970656394958 0.43090179562568665
0.55777716636657715 0.51937401294708252 0.48633089661598206
0.78139233589172363 0.54303795099258423 0.51670485734939575
0.89277690649032593 0.53983199596405029 0.51607459783554077
0.20365878939628601 0.69610559940338135 0.46087172627449036
0.3089815080165863 0.69049900770187378 0.45271581411361694
0.56226003170013428 0.73485749959945679 0.50057220458984375
0.8111342191696167 0.77391839027404785 0.56341326236724854
0.93890100717544556 0.77299207448959351 0.57229799032211304
0.24307575821876526 0.81889182329177856 0.45286259055137634
0.34771743416786194 0.82444030046463013 0.44845452904701233
0.55531436204910278 0.86247855424880981 0.49940627813339233
0.81416314840316772 0.92733371257781982 0.58933895826339722
0.9781305193901062 0.94778668880462646 0.62228888273239136
0.081577077507972717 0.054772306233644485 0.54960906505584717
0.30224084854125977 0.06208038330078125 0.61149084568023682
0.62677466869354248 0.18666365742683411 0.70471572875976562
0.77412301301956177 0.19107769429683685 0.70311599969863892
0.86971390247344971 0.18291929364204407 0.6870306134223938
0.15904669463634491 0.28818514943122864 0.63366192579269409
0.33294838666915894 0.30215668678283691 0.6625831127166748
0.62213772535324097 0.3632449209690094 0.71534258127212524
0.79668140411376953 0.37236025929450989 0.72543990612030029
0.88919049501419067 0.3585229218006134 0.70228368043899536
0.18300847709178925 0.5097886323928833 0.67311704158782959
0.34441319108009338 0.53604382276535034 0.69933462142944336
0.61601424217224121 0.57280051708221436 0.73371070623397827
0.80796462297439575 0.59155571460723877 0.74895703792572021
0.91908323764801025 0.58594602346420288 0.73675554990768433
0.2515978217124939 0.72495847940444946 0.6974867582321167
0.37323033809661865 0.73524928092956543 0.70142292976379395
0.59582078456878662 0.76369303464889526 0.73789322376251221
0.82398796081542969 0.79437285661697388 0.77130895853042603
0.95198673009872437 0.79890120029449463 0.7726936936378479
0.2928861677646637 0.85687047243118286 0.6904720664024353
0.40123313665390015 0.86498177051544189 0.69234687089920044
0.58070641756057739 0.88779842853546143 0.72305440902709961
0.83126813173294067 0.94434887170791626 0.7803415060043335
0.98633491992950439 0.96136939525604248 0.80013597011566162
0.041282773017883301 0.040263351052999496 0.6534760594367981
0.28939634561538696 0.092331171035766602 0.70665264129638672
0.61493015289306641 0.19108383357524872 0.80041086673736572
0.78336822986602783 0.21111480891704559 0.81628870964050293
0.88173764944076538 0.20394186675548553 0.81262952089309692
0.15839898586273193 0.29255214333534241 0.74073499441146851
0.34621205925941467 0.31405177712440491 0.76972585916519165
0.61892145872116089 0.36201772093772888 0.82203847169876099
0.80275505781173706 0.38470578193664551 0.84366214275360107
0.90680533647537231 0.38796511292457581 0.84250754117965698
0.20515184104442596 0.52036935091018677 0.79852795600891113
0.37668505311012268 0.55343103408813477 0.82821959257125854
0.62823331356048584 0.58487731218338013 0.86328035593032837
0.82477372884750366 0.61282259225845337 0.89331638813018799
0.94292664527893066 0.61360037326812744 0.89472818374633789
0.28010433912277222 0.74573796987533569 0.85014373064041138
0.39837411046028137 0.75020694732666016 0.85456198453903198
0.61815881729125977 0.78392559289932251 0.89708292484283447
0.82986760139465332 0.80870670080184937 0.92187321186065674
0.96070712804794312 0.81198477745056152 0.92702174186706543
0.32372394204139709 0.88677769899368286 0.8705904483795166
0.44407498836517334 0.89277297258377075 0.88382053375244141
0.61945414543151855 0.92197173833847046 0.91705536842346191
0.84249812364578247 0.95480167865753174 0.94680100679397583
0.98881739377975464 0.96648049354553223 0.9576718807220459
