assets/lut/editingcorp ampio.cube
# Created by: G'MIC (https://gmic.eu)
TITLE "ampio"
# LUT size
LUT_3D_SIZE 7
# Data domain
DOMAIN_MIN 0.0 0.0 0.0
DOMAIN_MAX 1.0 1.0 1.0
# LUT data points
0.015338478609919548 0.022954843938350677 0.026747863739728928
0.1961645781993866 0.035825736820697784 0.032996546477079391
0.41132506728172302 0.038743950426578522 0.040998540818691254
0.6289483904838562 0.063646994531154633 0.070742666721343994
0.78987723588943481 0.063024796545505524 0.081379912793636322
0.88704764842987061 0.047711480408906937 0.081118173897266388
0.98644876480102539 0.08868204802274704 0.089970216155052185
0.0093691358342766762 0.15580025315284729 0.02898680791258812
0.16032783687114716 0.15983031690120697 0.027188783511519432
0.39823168516159058 0.16705557703971863 0.028644276782870293
0.62117099761962891 0.18309655785560608 0.058566957712173462
0.78563916683197021 0.19218102097511292 0.079740829765796661
0.89224755764007568 0.19306589663028717 0.083764784038066864
0.98740202188491821 0.21672786772251129 0.087621204555034637
0.011372001841664314 0.30791845917701721 0.040674757212400436
0.10907293856143951 0.31107765436172485 0.0339851975440979
0.33486297726631165 0.32006329298019409 0.030173476785421371
0.6127011775970459 0.33344763517379761 0.039151016622781754
0.79356485605239868 0.34037226438522339 0.051129899919033051
0.89893049001693726 0.3403606116771698 0.059961851686239243
0.98920929431915283 0.35361993312835693 0.071067929267883301
0.014827802777290344 0.48799958825111389 0.048843637108802795
0.087712273001670837 0.48884832859039307 0.045456890016794205
0.26329496502876282 0.49963629245758057 0.042672909796237946
0.56861615180969238 0.51366120576858521 0.041259974241256714
0.790732741355896 0.5151790976524353 0.037340588867664337
0.9016038179397583 0.51108890771865845 0.038977410644292831
0.99007350206375122 0.51343482732772827 0.052290882915258408
0.022373318672180176 0.67386704683303833 0.063940204679965973
0.088698729872703552 0.67110526561737061 0.063764087855815887
0.18027658760547638 0.67785370349884033 0.055195242166519165
0.45144149661064148 0.69865846633911133 0.050849661231040955
0.77320247888565063 0.70434427261352539 0.056937601417303085
0.90740323066711426 0.69148731231689453 0.056474588811397552
0.99060958623886108 0.68506503105163574 0.057579219341278076
0.035132881253957748 0.81390488147735596 0.077995523810386658
0.11846244335174561 0.81275534629821777 0.081214070320129395
0.18627728521823883 0.81506210565567017 0.071613401174545288
0.36356627941131592 0.83534699678421021 0.061695381999015808
0.69902396202087402 0.85070526599884033 0.07304045557975769
0.90345603227615356 0.84837263822555542 0.080271027982234955
0.99550759792327881 0.84296566247940063 0.079413063824176788
0.029074531048536301 0.91948586702346802 0.079773955047130585
0.12552827596664429 0.91680485010147095 0.080137036740779877
0.19444403052330017 0.91550767421722412 0.071724787354469299
0.28675729036331177 0.92977231740951538 0.056972235441207886
0.64274007081985474 0.95211738348007202 0.073386833071708679
0.90222495794296265 0.96483492851257324 0.090243682265281677
0.99973160028457642 0.96899509429931641 0.093014508485794067
0.020076317712664604 0.023161944001913071 0.2006354033946991
0.19223779439926147 0.021811751648783684 0.19768032431602478
0.42592903971672058 0.023997573181986809 0.18398953974246979
0.632518470287323 0.036761235445737839 0.18223196268081665
0.78441864252090454 0.037529110908508301 0.18234024941921234
0.88583838939666748 0.039335947483778 0.18407799303531647
0.98287761211395264 0.060411371290683746 0.18899945914745331
0.011145513504743576 0.16516187787055969 0.18359452486038208
0.1488478034734726 0.16285432875156403 0.17386525869369507
0.4085552990436554 0.16485752165317535 0.15541614592075348
0.62918531894683838 0.17853529751300812 0.16431741416454315
0.79096859693527222 0.19461627304553986 0.18863765895366669
0.89437341690063477 0.20638324320316315 0.19120848178863525
0.98682940006256104 0.21557047963142395 0.19742225110530853
0.014549405314028263 0.31685605645179749 0.16319653391838074
0.11221034079790115 0.31866544485092163 0.1562158614397049
0.34291517734527588 0.32270887494087219 0.14543728530406952
0.62640470266342163 0.3345760703086853 0.14041666686534882
0.80465400218963623 0.34789380431175232 0.15449787676334381
0.90321809053421021 0.35548487305641174 0.17313499748706818
0.99091500043869019 0.36393824219703674 0.19007523357868195
0.023400923237204552 0.48970866203308105 0.1531892716884613
0.098451845347881317 0.48948928713798523 0.14988811314105988
0.23748296499252319 0.49645024538040161 0.14748270809650421
0.55582737922668457 0.50805443525314331 0.14150041341781616
0.7927861213684082 0.51209884881973267 0.13227486610412598
0.90374946594238281 0.51658588647842407 0.14210663735866547
0.99089705944061279 0.51735049486160278 0.15533317625522614
0.03879445418715477 0.67095649242401123 0.16275449097156525
0.10788138955831528 0.67234545946121216 0.16071581840515137
0.17859536409378052 0.6762387752532959 0.15365374088287354
0.45297402143478394 0.69465380907058716 0.14925014972686768
0.765857994556427 0.70129472017288208 0.15640938282012939
0.90503525733947754 0.69222325086593628 0.15521547198295593
0.98949652910232544 0.68335115909576416 0.15323556959629059
0.048668220639228821 0.8136061429977417 0.16362959146499634
0.13244090974330902 0.81799852848052979 0.16922275722026825
0.19194617867469788 0.82031834125518799 0.1647104024887085
0.37421971559524536 0.83472144603729248 0.16182927787303925
0.70692896842956543 0.84878194332122803 0.17655061185359955
0.90486651659011841 0.84949320554733276 0.18122819066047668
0.99305689334869385 0.84104132652282715 0.18173739314079285
0.03739064559340477 0.91863566637039185 0.15405090153217316
0.12724673748016357 0.91806483268737793 0.15919524431228638
0.19623871147632599 0.91890883445739746 0.15872038900852203
0.34402400255203247 0.93016594648361206 0.15616236627101898
0.66235709190368652 0.94797319173812866 0.17053651809692383
0.89661473035812378 0.96367591619491577 0.18829433619976044
0.99783617258071899 0.96474295854568481 0.19602373242378235
0.0068695517256855965 0.024561190977692604 0.3952755331993103
0.14715166389942169 0.022368920966982841 0.40454334020614624
0.40426927804946899 0.022873986512422562 0.39694583415985107
0.63781410455703735 0.022201612591743469 0.36085408926010132
0.78767120838165283 0.024573247879743576 0.33635136485099792
0.88637769222259521 0.026854107156395912 0.32745057344436646
0.98160731792449951 0.030311839655041695 0.32242515683174133
0.0083601856604218483 0.17364625632762909 0.38471794128417969
0.11770828813314438 0.16497352719306946 0.38515421748161316
0.36964225769042969 0.15509188175201416 0.36959156394004822
0.62272143363952637 0.16194137930870056 0.33625662326812744
0.78821885585784912 0.17800207436084747 0.32303094863891602
0.88621604442596436 0.18100945651531219 0.31436553597450256
0.9846566915512085 0.19177524745464325 0.32421976327896118
0.019777828827500343 0.34409862756729126 0.35877671837806702
0.092675961554050446 0.3368302583694458 0.35139435529708862
0.28221812844276428 0.33004233241081238 0.33719989657402039
0.61046713590621948 0.33422678709030151 0.30642896890640259
0.79800593852996826 0.35624980926513672 0.31523594260215759
0.90000313520431519 0.36463940143585205 0.32562929391860962
0.99233627319335938 0.37035521864891052 0.33507278561592102
0.027592035010457039 0.51733803749084473 0.33003935217857361
0.1042381152510643 0.5116957426071167 0.31794369220733643
0.22161741554737091 0.50729912519454956 0.30254930257797241
0.54693245887756348 0.51235389709472656 0.28918841481208801
0.7951473593711853 0.52159863710403442 0.28240206837654114
0.90726351737976074 0.53003162145614624 0.29264563322067261
0.99376833438873291 0.52874863147735596 0.29326403141021729
0.038235951215028763 0.68421691656112671 0.30605384707450867
0.11921196430921555 0.67961680889129639 0.29205530881881714
0.19750188291072845 0.67654514312744141 0.27743628621101379
0.43661636114120483 0.69356423616409302 0.26988333463668823
0.76771557331085205 0.70516461133956909 0.27223861217498779
0.90662360191345215 0.69611537456512451 0.2640916109085083
0.99109798669815063 0.68563163280487061 0.27246555685997009
0.041181840002536774 0.81563800573348999 0.27472209930419922
0.12680581212043762 0.81397175788879395 0.2700439989566803
0.19762441515922546 0.81424909830093384 0.26637202501296997
0.34284409880638123 0.83029830455780029 0.26348847150802612
0.69344246387481689 0.84839552640914917 0.27075612545013428
0.90450155735015869 0.84623992443084717 0.27181610465049744
0.99315589666366577 0.8362460732460022 0.28651708364486694
0.028806110844016075 0.91729086637496948 0.24669335782527924
0.11987270414829254 0.91577398777008057 0.25390267372131348
0.20425905287265778 0.91666579246520996 0.25724074244499207
0.3422602117061615 0.92974305152893066 0.24876540899276733
0.6494637131690979 0.94888591766357422 0.2440265566110611
0.88696569204330444 0.95925986766815186 0.25664559006690979
0.99342989921569824 0.95783019065856934 0.29107296466827393
0.004832039587199688 0.020885542035102844 0.57655614614486694
0.11602164059877396 0.022046945989131927 0.5929025411605835
0.33327275514602661 0.021410563960671425 0.5976373553276062
0.61262756586074829 0.019883278757333755 0.58157777786254883
0.79242867231369019 0.021693555638194084 0.55753278732299805
0.89139282703399658 0.021058520302176476 0.54198199510574341
0.98730432987213135 0.023332903161644936 0.53379678726196289
0.011144660413265228 0.16738086938858032 0.58293014764785767
0.11606857925653458 0.15864330530166626 0.58791470527648926
0.29933318495750427 0.14979146420955658 0.59061312675476074
0.59702795743942261 0.14556682109832764 0.57111746072769165
0.79054439067840576 0.15280610322952271 0.52334070205688477
0.88994830846786499 0.15482017397880554 0.51075655221939087
0.98577535152435303 0.16471724212169647 0.5055232048034668
0.021125463768839836 0.34838271141052246 0.57202863693237305
0.11869090795516968 0.34707656502723694 0.56565660238265991
0.22169739007949829 0.3321879506111145 0.56309837102890015
0.57739222049713135 0.32816359400749207 0.54793673753738403
0.79009592533111572 0.33624306321144104 0.49453705549240112
0.89434045553207397 0.34243819117546082 0.48537808656692505
0.99000108242034912 0.35558339953422546 0.49654871225357056
0.02510102279484272 0.53669208288192749 0.54502731561660767
0.11869890987873077 0.53791660070419312 0.53777593374252319
0.18404345214366913 0.53093451261520386 0.52632135152816772
0.46218371391296387 0.52608513832092285 0.5182260274887085
0.7885623574256897 0.53631496429443359 0.49212738871574402
0.90278053283691406 0.54554259777069092 0.49380823969841003
0.99240195751190186 0.55937272310256958 0.50631970167160034
0.024944035336375237 0.70988720655441284 0.50241219997406006
0.11564873903989792 0.70478034019470215 0.48652598261833191
0.18078377842903137 0.70169258117675781 0.47371000051498413
0.34603142738342285 0.7017066478729248 0.46415618062019348
0.75385802984237671 0.71634370088577271 0.46628621220588684
0.90978217124938965 0.71104973554611206 0.45931890606880188
0.99194550514221191 0.70903635025024414 0.47538274526596069
0.024233141914010048 0.83422505855560303 0.45115679502487183
0.11300518363714218 0.82704716920852661 0.43200930953025818
0.20835746824741364 0.8257453441619873 0.42196214199066162
0.36002671718597412 0.83454608917236328 0.41365540027618408
0.69225573539733887 0.85112679004669189 0.42798388004302979
0.89952188730239868 0.85275918245315552 0.43393304944038391
0.99431627988815308 0.84678190946578979 0.44945460557937622
0.014859577640891075 0.93045699596405029 0.41462960839271545
0.10221792757511139 0.92699283361434937 0.41060671210289001
0.1875891387462616 0.92633795738220215 0.40200349688529968
0.32453635334968567 0.93605095148086548 0.38081198930740356
0.64151567220687866 0.9530407190322876 0.37266796827316284
0.89175164699554443 0.9647144079208374 0.38619711995124817
0.99818044900894165 0.96690911054611206 0.42457550764083862
0.017421094700694084 0.015922786667943001 0.72327876091003418
0.14489436149597168 0.022812832146883011 0.74011778831481934
0.31614294648170471 0.023364735767245293 0.74848735332489014
0.57927107810974121 0.020192733034491539 0.75371676683425903
0.79111552238464355 0.022161895409226418 0.74656862020492554
0.8910481333732605 0.023161765187978745 0.73517394065856934
0.98814821243286133 0.023988597095012665 0.72699368000030518
0.02029743604362011 0.15395297110080719 0.74048572778701782
0.12610727548599243 0.15039561688899994 0.74593442678451538
0.26222705841064453 0.14643044769763947 0.75158941745758057
0.53714436292648315 0.13744628429412842 0.75714594125747681
0.77851754426956177 0.14033293724060059 0.73513191938400269
0.89573627710342407 0.14779520034790039 0.72382795810699463
0.98827409744262695 0.155668705701828 0.71206653118133545
0.021348690614104271 0.33265775442123413 0.74321460723876953
0.11844566464424133 0.33188417553901672 0.7383648157119751
0.20563581585884094 0.32012033462524414 0.73955386877059937
0.48436406254768372 0.30772927403450012 0.74643290042877197
0.7723315954208374 0.3103192150592804 0.71424770355224609
0.89510881900787354 0.31969299912452698 0.69806987047195435
0.991313636302948 0.32724961638450623 0.70033597946166992
0.02109140157699585 0.52641856670379639 0.73154586553573608
0.12970259785652161 0.52955979108810425 0.72788876295089722
0.23126965761184692 0.52510499954223633 0.72677934169769287
0.35043394565582275 0.51298779249191284 0.72666740417480469
0.77095639705657959 0.52551454305648804 0.71179872751235962
0.89712649583816528 0.54054147005081177 0.70064812898635864
0.99232399463653564 0.54613792896270752 0.70153969526290894
0.018949860706925392 0.71390825510025024 0.70514488220214844
0.12029030174016953 0.71600669622421265 0.70192784070968628
0.22656972706317902 0.71980863809585571 0.70055145025253296
0.3101869523525238 0.71835577487945557 0.69503128528594971
0.68578606843948364 0.72634673118591309 0.695731520652771
0.90454357862472534 0.73339062929153442 0.68986457586288452
0.99235838651657104 0.73142421245574951 0.69339877367019653
0.018484646454453468 0.85238105058670044 0.67170107364654541
0.10944648832082748 0.85646939277648926 0.66215366125106812
0.19704054296016693 0.85260200500488281 0.6476399302482605
0.29261019825935364 0.85446399450302124 0.63745516538619995
0.62956327199935913 0.86171609163284302 0.65186476707458496
0.89467746019363403 0.86875104904174805 0.65941637754440308
0.99343192577362061 0.86675858497619629 0.66549515724182129
0.0099507654085755348 0.9501761794090271 0.63644301891326904
0.090365268290042877 0.94886296987533569 0.62939286231994629
0.15506240725517273 0.94779813289642334 0.61267924308776855
0.23004689812660217 0.94976961612701416 0.58724892139434814
0.55650264024734497 0.95795989036560059 0.59313106536865234
0.89309674501419067 0.97729331254959106 0.61471027135848999
0.99767643213272095 0.98170721530914307 0.63329964876174927
0.027079025283455849 0.016623582690954208 0.83091086149215698
0.14517416059970856 0.021482355892658234 0.84552896022796631
0.29534736275672913 0.023169543594121933 0.85277050733566284
0.54302334785461426 0.021068064495921135 0.85920941829681396
0.77557694911956787 0.020928626880049706 0.85878103971481323
0.89232313632965088 0.020093999803066254 0.85332125425338745
0.98755323886871338 0.019989117980003357 0.8503715991973877
0.023568650707602501 0.15147246420383453 0.84695529937744141
0.12667736411094666 0.1503826230764389 0.85287046432495117
0.27096307277679443 0.14706835150718689 0.85831832885742188
0.52166914939880371 0.13879984617233276 0.86329007148742676
0.76626569032669067 0.13796409964561462 0.85943537950515747
0.89178657531738281 0.14137768745422363 0.85116523504257202
0.98432075977325439 0.14820562303066254 0.84755033254623413
0.019153086468577385 0.32686036825180054 0.8498539924621582
0.11521552503108978 0.32378458976745605 0.84911561012268066
0.22918444871902466 0.31258112192153931 0.85335648059844971
0.44035413861274719 0.29520341753959656 0.85901886224746704
0.74739688634872437 0.29788327217102051 0.85628998279571533
0.88701963424682617 0.30224236845970154 0.84770506620407104
0.98441332578659058 0.30856841802597046 0.84558117389678955
0.018624309450387955 0.51208680868148804 0.85271257162094116
0.11382241547107697 0.51102763414382935 0.85095340013504028
0.21870431303977966 0.50222653150558472 0.8528326153755188
0.32215923070907593 0.48466536402702332 0.86000639200210571
0.718330979347229 0.49652233719825745 0.86408388614654541
0.8927384614944458 0.50151240825653076 0.85678279399871826
0.98458945751190186 0.51142853498458862 0.84933644533157349
0.020452762022614479 0.6963086724281311 0.85154032707214355
0.10924907028675079 0.69682973623275757 0.85311222076416016
0.22408580780029297 0.69499766826629639 0.85292142629623413
0.29684433341026306 0.6964603066444397 0.8576386570930481
0.62824320793151855 0.70925474166870117 0.86488741636276245
0.89840412139892578 0.7201693058013916 0.86136364936828613
0.98700004816055298 0.72072583436965942 0.85433143377304077
0.022011760622262955 0.85198646783828735 0.8487129807472229
0.11483359336853027 0.85738074779510498 0.84973037242889404
0.21698987483978271 0.85588735342025757 0.84225684404373169
0.30296561121940613 0.86070102453231812 0.84171563386917114
0.55446380376815796 0.86913472414016724 0.84610474109649658
0.89193284511566162 0.87886488437652588 0.85263299942016602
0.99157834053039551 0.87799394130706787 0.85541611909866333
0.010930139571428299 0.96044778823852539 0.82994294166564941
0.099800467491149902 0.9579472541809082 0.83378511667251587
0.18362933397293091 0.96050453186035156 0.82797116041183472
0.24613475799560547 0.96090364456176758 0.8152768611907959
0.46440654993057251 0.97119110822677612 0.81649279594421387
0.88428980112075806 0.98569625616073608 0.83430880308151245
0.99315750598907471 0.99060213565826416 0.84505629539489746
0.02514171227812767 0.023894740268588066 0.91878300905227661
0.13688525557518005 0.020036764442920685 0.93357640504837036
0.28975099325180054 0.021577902138233185 0.94275557994842529
0.53447157144546509 0.023161765187978745 0.9440186619758606
0.77614796161651611 0.02162017859518528 0.9406164288520813
0.8998834490776062 0.016911765560507774 0.9409288763999939
0.99043911695480347 0.017149802297353745 0.94545727968215942
0.0199419055134058 0.15794198215007782 0.93525511026382446
0.12336952239274979 0.14677204191684723 0.94203239679336548
0.27612975239753723 0.1455872654914856 0.94644224643707275
0.515308678150177 0.14262402057647705 0.94687575101852417
0.75693392753601074 0.13958700001239777 0.94493019580841064
0.88465172052383423 0.1399213969707489 0.9395872950553894
0.98098641633987427 0.14817182719707489 0.94504600763320923
0.01918945275247097 0.32451978325843811 0.94321578741073608
0.11862578988075256 0.31728997826576233 0.94299924373626709
0.24271582067012787 0.30814972519874573 0.94614684581756592
0.43248692154884338 0.29592710733413696 0.94895124435424805
0.74131268262863159 0.29631161689758301 0.94844692945480347
0.88134253025054932 0.30067381262779236 0.9451671838760376
0.9783700704574585 0.30990332365036011 0.95016348361968994
0.017855940386652946 0.50885802507400513 0.94661277532577515
0.11410629004240036 0.50641113519668579 0.94410067796707153
0.22436524927616119 0.4974883496761322 0.94751572608947754
0.29786387085914612 0.48080006241798401 0.95455425977706909
0.69615888595581055 0.48753336071968079 0.9574427604675293
0.88768500089645386 0.49459993839263916 0.95631223917007446
0.98014217615127563 0.50212389230728149 0.95907866954803467
0.01839599572122097 0.69297915697097778 0.94886612892150879
0.11036340892314911 0.69186699390411377 0.9480135440826416
0.21154370903968811 0.6879996657371521 0.94820511341094971
0.29012265801429749 0.68241477012634277 0.95371383428573608
0.59601366519927979 0.69413524866104126 0.9633832573890686
0.89328575134277344 0.70941942930221558 0.96490317583084106
0.98255747556686401 0.70824730396270752 0.96793138980865479
0.017620235681533813 0.85032486915588379 0.9560580849647522
0.11129894107580185 0.85026925802230835 0.95927047729492188
0.20919123291969299 0.85130912065505981 0.95517295598983765
0.28887945413589478 0.85095012187957764 0.96121454238891602
0.4711422324180603 0.86535751819610596 0.96651911735534668
0.89247119426727295 0.88098359107971191 0.97447896003723145
0.99022912979125977 0.87852847576141357 0.98170053958892822
0.0064591802656650543 0.96703755855560303 0.95966440439224243
0.098015174269676208 0.96529877185821533 0.96858841180801392
0.19519557058811188 0.9663623571395874 0.96864503622055054
0.28305491805076599 0.9639962911605835 0.9671977162361145
0.41070330142974854 0.97270864248275757 0.96615082025527954
0.87153047323226929 0.98426085710525513 0.97696197032928467
0.99438828229904175 0.99136734008789062 0.98842263221740723
