assets/lut/editingcorp farkling.cube
# Created by: G'MIC (https://gmic.eu)
TITLE "farkling"
# LUT size
LUT_3D_SIZE 7
# Data domain
DOMAIN_MIN 0.0 0.0 0.0
DOMAIN_MAX 1.0 1.0 1.0
# LUT data points
0.060005456209182739 0.069673545658588409 0.08354206383228302
0.16147978603839874 0.08160274475812912 0.092939414083957672
0.29257538914680481 0.098061293363571167 0.10428705811500549
0.44767576456069946 0.12410429120063782 0.11886361986398697
0.58354794979095459 0.14873948693275452 0.13319414854049683
0.70429825782775879 0.16764360666275024 0.14538003504276276
0.81719779968261719 0.1847323477268219 0.1516319066286087
0.070165731012821198 0.16976211965084076 0.090091913938522339
0.17362213134765625 0.1762564480304718 0.096265695989131927
0.31520694494247437 0.19245396554470062 0.10498935729265213
0.48395895957946777 0.22361132502555847 0.12184217572212219
0.61659097671508789 0.25108137726783752 0.13914991915225983
0.72888278961181641 0.26482462882995605 0.15072304010391235
0.83584505319595337 0.27875396609306335 0.15334095060825348
0.078082546591758728 0.27169781923294067 0.098402343690395355
0.18130366504192352 0.27685806155204773 0.10127470642328262
0.33064514398574829 0.28989958763122559 0.10428684949874878
0.50124174356460571 0.31765595078468323 0.11914063990116119
0.6296272873878479 0.34650292992591858 0.14091485738754272
0.74287873506546021 0.36089435219764709 0.14985483884811401
0.85105031728744507 0.37323307991027832 0.15105567872524261
0.087642759084701538 0.37424656748771667 0.11213713884353638
0.18873500823974609 0.38321718573570251 0.11701926589012146
0.33310991525650024 0.40886509418487549 0.12582036852836609
0.52509653568267822 0.42600581049919128 0.12097283452749252
0.64392364025115967 0.44249352812767029 0.13610725104808807
0.75465017557144165 0.45797061920166016 0.14385639131069183
0.86308211088180542 0.4734271764755249 0.14887583255767822
0.11090334504842758 0.49189931154251099 0.13777849078178406
0.21776296198368073 0.50971382856369019 0.14673024415969849
0.35703864693641663 0.54866945743560791 0.16043801605701447
0.5409930944442749 0.57303059101104736 0.15142838656902313
0.67055356502532959 0.55989760160446167 0.1377851814031601
0.76945310831069946 0.56482529640197754 0.14113810658454895
0.8717072606086731 0.58671480417251587 0.1565176248550415
0.16137611865997314 0.63775664567947388 0.18194498121738434
0.27364405989646912 0.6613277792930603 0.19488987326622009
0.41152432560920715 0.69299691915512085 0.20486587285995483
0.56576919555664062 0.72433245182037354 0.20573697984218597
0.68574661016464233 0.72400391101837158 0.19317068159580231
0.77875375747680664 0.70470112562179565 0.17930068075656891
0.87664538621902466 0.70353555679321289 0.17799997329711914
0.21642036736011505 0.78215456008911133 0.22741632163524628
0.33044642210006714 0.80359739065170288 0.23831009864807129
0.45828598737716675 0.82308006286621094 0.24215355515480042
0.58742719888687134 0.83860981464385986 0.23770807683467865
0.69552856683731079 0.84379541873931885 0.23005732893943787
0.78699398040771484 0.83095383644104004 0.21710152924060822
0.88035154342651367 0.81559842824935913 0.20303918421268463
0.059276536107063293 0.069657988846302032 0.17305596172809601
0.15322311222553253 0.078919157385826111 0.17887909710407257
0.27463206648826599 0.094808138906955719 0.18968439102172852
0.42778328061103821 0.11872761696577072 0.20261117815971375
0.57509857416152954 0.14581327140331268 0.21683515608310699
0.70188760757446289 0.16780297458171844 0.22839827835559845
0.8175780177116394 0.18801236152648926 0.23662683367729187
0.070504508912563324 0.1724061518907547 0.18070138990879059
0.16196121275424957 0.17761082947254181 0.18553318083286285
0.29742559790611267 0.19604501128196716 0.19434519112110138
0.47880753874778748 0.22269579768180847 0.2102753221988678
0.61631900072097778 0.24958798289299011 0.22559930384159088
0.72655028104782104 0.26566803455352783 0.23354315757751465
0.83360046148300171 0.28257116675376892 0.2378726452589035
0.081312455236911774 0.28051340579986572 0.19330233335494995
0.1701648086309433 0.28236150741577148 0.19583827257156372
0.30619716644287109 0.29036948084831238 0.19696076214313507
0.49809759855270386 0.31742984056472778 0.21105290949344635
0.63152843713760376 0.34906855225563049 0.23022913932800293
0.74404120445251465 0.36449068784713745 0.23477226495742798
0.85008364915847778 0.38047003746032715 0.23631373047828674
0.10025703907012939 0.39550870656967163 0.21607473492622375
0.18201525509357452 0.39166346192359924 0.21388567984104156
0.29475268721580505 0.40320253372192383 0.21804755926132202
0.51735275983810425 0.42343634366989136 0.20969420671463013
0.65119975805282593 0.44218370318412781 0.22072941064834595
0.75782734155654907 0.46047094464302063 0.22746762633323669
0.86321687698364258 0.48272043466567993 0.23421381413936615
0.12910519540309906 0.51916742324829102 0.24508211016654968
0.21306638419628143 0.51890897750854492 0.24442870914936066
0.31751662492752075 0.5477481484413147 0.26063969731330872
0.51504701375961304 0.5794990062713623 0.25655421614646912
0.6739192008972168 0.57150602340698242 0.23530453443527222
0.77240550518035889 0.57365435361862183 0.2327762097120285
0.87318342924118042 0.59387040138244629 0.24334706366062164
0.17186887562274933 0.65518486499786377 0.28037217259407043
0.26999318599700928 0.6682732105255127 0.28941041231155396
0.3906693160533905 0.69484639167785645 0.30248415470123291
0.54812347888946533 0.72500932216644287 0.30256694555282593
0.68587768077850342 0.72852414846420288 0.2857958972454071
0.78420710563659668 0.71120923757553101 0.26864650845527649
0.87975084781646729 0.70765620470046997 0.26467692852020264
0.22116760909557343 0.79089462757110596 0.32056605815887451
0.32900214195251465 0.80758106708526611 0.33138111233711243
0.45040702819824219 0.82226133346557617 0.33520165085792542
0.58233857154846191 0.83349061012268066 0.32668796181678772
0.69747829437255859 0.84306472539901733 0.31782358884811401
0.79066747426986694 0.83756279945373535 0.30684447288513184
0.8828853964805603 0.82470393180847168 0.29488855600357056
0.067019686102867126 0.079115971922874451 0.26211225986480713
0.15395215153694153 0.083339676260948181 0.26465067267417908
0.25339153409004211 0.091249503195285797 0.27119535207748413
0.39360266923904419 0.10989589244127274 0.28174355626106262
0.56100493669509888 0.14054448902606964 0.29764008522033691
0.70262992382049561 0.16992516815662384 0.31246733665466309
0.82205432653427124 0.19387277960777283 0.32399776577949524
0.074426420032978058 0.17637315392494202 0.26963698863983154
0.16269169747829437 0.18139573931694031 0.27405574917793274
0.26647791266441345 0.19228905439376831 0.28097748756408691
0.42870673537254333 0.21342405676841736 0.29225549101829529
0.60251474380493164 0.24353238940238953 0.30812335014343262
0.72771447896957397 0.26908785104751587 0.31994503736495972
0.83507102727890015 0.28996393084526062 0.32741159200668335
0.082883067429065704 0.27805173397064209 0.28211531043052673
0.17154280841350555 0.28482592105865479 0.28723689913749695
0.27066501975059509 0.2951408326625824 0.29453665018081665
0.46646770834922791 0.3194308876991272 0.30200368165969849
0.63199436664581299 0.34934735298156738 0.31764903664588928
0.74839842319488525 0.37128022313117981 0.32470998167991638
0.85133737325668335 0.38984793424606323 0.32806211709976196
0.11295714974403381 0.40777215361595154 0.31368827819824219
0.20151719450950623 0.41143456101417542 0.31592395901679993
0.29329293966293335 0.41754519939422607 0.31984150409698486
0.48343905806541443 0.43022328615188599 0.30823338031768799
0.65331351757049561 0.45384520292282104 0.31478330492973328
0.76379877328872681 0.47332057356834412 0.32137787342071533
0.86611378192901611 0.49334543943405151 0.32642379403114319
0.16295413672924042 0.55671232938766479 0.36234286427497864
0.24891878664493561 0.55386918783187866 0.35996195673942566
0.33422455191612244 0.55559200048446655 0.36009854078292847
0.48868677020072937 0.58828651905059814 0.36319729685783386
0.67315983772277832 0.58858299255371094 0.33408898115158081
0.77816540002822876 0.58876043558120728 0.3289543092250824
0.87505459785461426 0.60135722160339355 0.33428454399108887
0.205983966588974 0.68892121315002441 0.39723151922225952
0.29771101474761963 0.69329375028610229 0.40051275491714478
0.39545232057571411 0.70207595825195312 0.4037443995475769
0.53289830684661865 0.72556799650192261 0.40089809894561768
0.68264222145080566 0.73669761419296265 0.3801916241645813
0.78759807348251343 0.71908056735992432 0.35922223329544067
0.87986201047897339 0.7132454514503479 0.35417503118515015
0.24169938266277313 0.80743652582168579 0.42649617791175842
0.34185436367988586 0.81683629751205444 0.43155112862586975
0.44835510849952698 0.82303440570831299 0.42993614077568054
0.57421189546585083 0.83133494853973389 0.41843992471694946
0.69721823930740356 0.84284377098083496 0.4063267707824707
0.79273790121078491 0.84079974889755249 0.39631098508834839
0.88327205181121826 0.83103543519973755 0.38691112399101257
0.076693274080753326 0.097871594130992889 0.36471959948539734
0.16123519837856293 0.097856737673282623 0.36301413178443909
0.24818877875804901 0.096685595810413361 0.3607647716999054
0.37209987640380859 0.10849323868751526 0.36660200357437134
0.5517393946647644 0.13894526660442352 0.38212078809738159
0.70531147718429565 0.17034511268138885 0.39895448088645935
0.82158756256103516 0.19451051950454712 0.41277268528938293
0.083728581666946411 0.19514305889606476 0.37238457798957825
0.17269971966743469 0.20009492337703705 0.37475258111953735
0.25419360399246216 0.19697107374668121 0.37336078286170959
0.37675133347511292 0.20645357668399811 0.3770110011100769
0.5852658748626709 0.23836128413677216 0.39267098903656006
0.72728848457336426 0.2704731822013855 0.41109219193458557
0.83360010385513306 0.2934630811214447 0.42146044969558716
0.083999380469322205 0.28273993730545044 0.3734908401966095
0.17756123840808868 0.29384458065032959 0.38129943609237671
0.27323919534683228 0.30371677875518799 0.39408299326896667
0.39422500133514404 0.31790223717689514 0.39943119883537292
0.61668652296066284 0.344899982213974 0.40355077385902405
0.74736583232879639 0.37723872065544128 0.42259573936462402
0.85081583261489868 0.39691251516342163 0.4283234179019928
0.10033109784126282 0.39105445146560669 0.39076542854309082
0.19638924300670624 0.40519571304321289 0.40248879790306091
0.29512819647789001 0.42555475234985352 0.42147815227508545
0.42810884118080139 0.45443832874298096 0.43595173954963684
0.64855104684829712 0.47120678424835205 0.41904360055923462
0.76875394582748413 0.49214661121368408 0.42782658338546753
0.8686642050743103 0.50359869003295898 0.43267461657524109
0.17075836658477783 0.56388813257217407 0.45936456322669983
0.27031829953193665 0.57512372732162476 0.46656960248947144
0.36635306477546692 0.58692038059234619 0.47347211837768555
0.48420917987823486 0.60942453145980835 0.48729640245437622
0.67444860935211182 0.61458343267440796 0.44832292199134827
0.78389221429824829 0.60991555452346802 0.43612432479858398
0.8770909309387207 0.61389732360839844 0.43867617845535278
0.23110243678092957 0.7118040919303894 0.50662541389465332
0.32559427618980408 0.71827149391174316 0.51221442222595215
0.41414612531661987 0.72079157829284668 0.51249092817306519
0.52620816230773926 0.73031431436538696 0.5081474781036377
0.68186086416244507 0.74262291193008423 0.48444122076034546
0.7885318398475647 0.72465837001800537 0.45697098970413208
0.87719559669494629 0.7247200608253479 0.45462614297866821
0.25967904925346375 0.82034236192703247 0.53085601329803467
0.35596492886543274 0.82795089483261108 0.53421759605407715
0.44899150729179382 0.82792490720748901 0.52945452928543091
0.56692707538604736 0.83354586362838745 0.51673758029937744
0.69748872518539429 0.8462522029876709 0.50448095798492432
0.79196721315383911 0.84236860275268555 0.49507424235343933
0.88191789388656616 0.8366694450378418 0.48607566952705383
0.092249386012554169 0.12310729920864105 0.47696077823638916
0.17571017146110535 0.11931347101926804 0.47320455312728882
0.26026648283004761 0.11414757370948792 0.46663486957550049
0.35971727967262268 0.11678718030452728 0.46682211756706238
0.52642053365707397 0.13761916756629944 0.47454196214675903
0.70415610074996948 0.1678062230348587 0.4872189462184906
0.81746131181716919 0.19085149466991425 0.50284075736999512
0.10274636000394821 0.22299790382385254 0.48610281944274902
0.19129030406475067 0.22577796876430511 0.48762425780296326
0.27533611655235291 0.2211432009935379 0.48483046889305115
0.35657843947410583 0.21745936572551727 0.48372778296470642
0.54286748170852661 0.2369220107793808 0.48906221985816956
0.72014594078063965 0.26728945970535278 0.50423890352249146
0.82875686883926392 0.29073566198348999 0.51562923192977905
0.10614772140979767 0.31363651156425476 0.48873183131217957
0.20056979358196259 0.32521724700927734 0.49868378043174744
0.30069974064826965 0.33619976043701172 0.5105552077293396
0.38766381144523621 0.33740198612213135 0.51424670219421387
0.56649547815322876 0.35020101070404053 0.50873458385467529
0.73840051889419556 0.37867897748947144 0.51846551895141602
0.84592509269714355 0.39865711331367493 0.52636003494262695
0.1168786883354187 0.41530603170394897 0.50084400177001953
0.21439149975776672 0.43138426542282104 0.5147775411605835
0.32188791036605835 0.45348909497261047 0.53380846977233887
0.42829602956771851 0.47209537029266357 0.55078750848770142
0.61476808786392212 0.48902294039726257 0.53677207231521606
0.76427918672561646 0.50775289535522461 0.53549027442932129
0.86600703001022339 0.51471567153930664 0.53881609439849854
0.15008881688117981 0.54417723417282104 0.53616225719451904
0.26305541396141052 0.56965982913970947 0.55383497476577759
0.37200158834457397 0.5915338397026062 0.5688820481300354
0.47805941104888916 0.60763710737228394 0.58237731456756592
0.6521909236907959 0.63440132141113281 0.57568085193634033
0.77969270944595337 0.63936728239059448 0.56357085704803467
0.87734138965606689 0.63220226764678955 0.55569887161254883
0.21510614454746246 0.69482463598251343 0.58411049842834473
0.31998273730278015 0.71112638711929321 0.59679055213928223
0.4172934889793396 0.72161918878555298 0.60307604074478149
0.52196240425109863 0.73228532075881958 0.60773783922195435
0.67243534326553345 0.75617074966430664 0.60438448190689087
0.7891465425491333 0.74484837055206299 0.57893294095993042
0.88094401359558105 0.73834884166717529 0.56977903842926025
0.25695639848709106 0.81583964824676514 0.61424475908279419
0.35394316911697388 0.82460105419158936 0.62027108669281006
0.44590860605239868 0.827736496925354 0.62049436569213867
0.5523415207862854 0.83524197340011597 0.61922711133956909
0.68643182516098022 0.85268318653106689 0.61668193340301514
0.79741597175598145 0.85266256332397461 0.60465848445892334
0.88726997375488281 0.84533464908599854 0.59202128648757935
0.11690559983253479 0.15439882874488831 0.59471726417541504
0.19827902317047119 0.14787259697914124 0.59099942445755005
0.28237822651863098 0.14316000044345856 0.58592683076858521
0.36919552087783813 0.14147096872329712 0.58307701349258423
0.47843050956726074 0.14318305253982544 0.58109235763549805
0.68783366680145264 0.1714293360710144 0.58652579784393311
0.82018530368804932 0.19318288564682007 0.59925585985183716
0.13125869631767273 0.25558987259864807 0.60513240098953247
0.21938814222812653 0.25647187232971191 0.60638236999511719
0.30679720640182495 0.25463441014289856 0.60553216934204102
0.38586139678955078 0.25343137979507446 0.60532611608505249
0.49319517612457275 0.25383558869361877 0.60362464189529419
0.71528691053390503 0.27441534399986267 0.60352480411529541
0.83566510677337646 0.29164242744445801 0.60988277196884155
0.14065136015415192 0.35296651721000671 0.61428332328796387
0.2326321005821228 0.36148521304130554 0.6207963228225708
0.32798883318901062 0.36822566390037537 0.62698161602020264
0.4162711501121521 0.37172818183898926 0.63204514980316162
0.5323786735534668 0.37516868114471436 0.62945264577865601
0.72857683897018433 0.38096857070922852 0.61186456680297852
0.84312885999679565 0.39690929651260376 0.61895632743835449
0.15068739652633667 0.45462331175804138 0.62513595819473267
0.24461054801940918 0.46616631746292114 0.63408875465393066
0.3443019688129425 0.47898545861244202 0.64419865608215332
0.44578850269317627 0.4914233386516571 0.6554185152053833
0.58295059204101562 0.51064926385879517 0.65898841619491577
0.76150667667388916 0.5080639123916626 0.62878942489624023
0.86902368068695068 0.51624184846878052 0.63448089361190796
0.16439265012741089 0.56060868501663208 0.63825148344039917
0.26961013674736023 0.57816654443740845 0.65062791109085083
0.3739573061466217 0.59380924701690674 0.66164934635162354
0.47903314232826233 0.61087477207183838 0.67701226472854614
0.63274252414703369 0.64318841695785522 0.69134271144866943
0.78281271457672119 0.65101164579391479 0.67476284503936768
0.88486510515213013 0.64331209659576416 0.66627603769302368
0.20520332455635071 0.68442350625991821 0.66425520181655884
0.30931887030601501 0.69981247186660767 0.67470961809158325
0.40860775113105774 0.71160447597503662 0.68269175291061401
0.50677132606506348 0.72243928909301758 0.6942330002784729
0.64583581686019897 0.74966418743133545 0.71136456727981567
0.78502219915390015 0.76273077726364136 0.69665473699569702
0.88723742961883545 0.75280731916427612 0.68559473752975464
0.24669642746448517 0.80424618721008301 0.69037353992462158
0.34355980157852173 0.81402111053466797 0.69751501083374023
0.4358161985874176 0.82056897878646851 0.7022894024848938
0.52905648946762085 0.82789582014083862 0.71074610948562622
0.65168756246566772 0.84709793329238892 0.72296947240829468
0.79834467172622681 0.8604845404624939 0.70789259672164917
0.8931698203086853 0.8547673225402832 0.6957048773765564
0.14553865790367126 0.18813897669315338 0.71256572008132935
0.22806745767593384 0.18191136419773102 0.70995831489562988
0.31159487366676331 0.17689590156078339 0.70611369609832764
0.39445611834526062 0.1749308705329895 0.70344823598861694
0.47167617082595825 0.17004100978374481 0.69932407140731812
0.64291006326675415 0.18440245091915131 0.69851922988891602
0.81780475378036499 0.1998542845249176 0.70110851526260376
0.16014321148395538 0.28793817758560181 0.7237553596496582
0.24830083549022675 0.28803613781929016 0.72408801317214966
0.3370615541934967 0.28686270117759705 0.72292888164520264
0.42479118704795837 0.28733059763908386 0.7229803204536438
0.509482741355896 0.28540721535682678 0.7197490930557251
0.67433959245681763 0.28647077083587646 0.70791304111480713
0.82977509498596191 0.29635870456695557 0.70752471685409546
0.17007306218147278 0.38493034243583679 0.73294103145599365
0.26056650280952454 0.39033377170562744 0.7359548807144165
0.35143193602561951 0.39244869351387024 0.73748493194580078
0.4407181441783905 0.39187970757484436 0.7388114333152771
0.54610210657119751 0.40119993686676025 0.74185585975646973
0.72231775522232056 0.39671862125396729 0.71772998571395874
0.8428376317024231 0.39993387460708618 0.71594929695129395
0.17986381053924561 0.48494306206703186 0.74133628606796265
0.27188128232955933 0.49240231513977051 0.74521076679229736
0.36536842584609985 0.49741357564926147 0.74888527393341064
0.46358165144920349 0.50409144163131714 0.75535500049591064
0.57681137323379517 0.52956235408782959 0.77011305093765259
0.74532860517501831 0.52846461534500122 0.74512851238250732
0.86638820171356201 0.52394914627075195 0.73617231845855713
0.19548854231834412 0.59197640419006348 0.74968916177749634
0.29042771458625793 0.59817534685134888 0.75397557020187378
0.38532343506813049 0.60431975126266479 0.75906217098236084
0.48029640316963196 0.61277687549591064 0.76874959468841553
0.60688316822052002 0.63834315538406372 0.78141885995864868
0.77233332395553589 0.65877985954284668 0.77455174922943115
0.88417589664459229 0.65140736103057861 0.76524084806442261
0.21995252370834351 0.69919800758361816 0.76099646091461182
0.31587177515029907 0.70631343126296997 0.7662084698677063
0.40912353992462158 0.71302449703216553 0.77188950777053833
0.49996063113212585 0.71990776062011719 0.78078508377075195
0.63409924507141113 0.74388879537582397 0.7917102575302124
0.78322994709014893 0.7657773494720459 0.78982806205749512
0.88739645481109619 0.76176744699478149 0.78357946872711182
0.24596758186817169 0.80307883024215698 0.77519005537033081
0.34021922945976257 0.81191337108612061 0.78216910362243652
0.43024095892906189 0.8184196949005127 0.78880608081817627
0.52123159170150757 0.82588130235671997 0.79867786169052124
0.63796347379684448 0.84306877851486206 0.81165927648544312
0.79487061500549316 0.86123067140579224 0.8036380410194397
0.8923262357711792 0.86054664850234985 0.79382652044296265
