assets/lut/editingcorp litore.cube
# Created by: G'MIC (https://gmic.eu)
TITLE "litore"
# LUT size
LUT_3D_SIZE 7
# Data domain
DOMAIN_MIN 0.0 0.0 0.0
DOMAIN_MAX 1.0 1.0 1.0
# LUT data points
0.00013786765339318663 0.0097318012267351151 0.018522210419178009
0.10427980870008469 0.0073874681256711483 0.01432641688734293
0.27982324361801147 0.0054469238966703415 0.00094546150648966432
0.41881439089775085 8.5269704868551344e-05 0
0.53328722715377808 0 0.00028159946668893099
0.60508817434310913 0 0.0022547703702002764
0.70802974700927734 0 0.00034556668833829463
0 0.13280461728572845 0.012979619204998016
0.10423576831817627 0.13776050508022308 0.0026035234332084656
0.29319685697555542 0.13307064771652222 0
0.43949154019355774 0.12048216909170151 0
0.54838168621063232 0.085778221487998962 0
0.63447064161300659 0.060876209288835526 0.0035974241327494383
0.73687916994094849 0.022662308067083359 0.0012987323570996523
0.00019758635608013719 0.28264421224594116 0
0.093116357922554016 0.28850305080413818 0
0.30258208513259888 0.29730266332626343 0
0.45575898885726929 0.29527437686920166 0.0026489407755434513
0.57019615173339844 0.28795883059501648 0.0064296349883079529
0.66467708349227905 0.27027764916419983 0.0037838057614862919
0.76296103000640869 0.23602795600891113 0.00031750247580930591
1.4002182979311328e-05 0.43846231698989868 3.0338062060764059e-05
0.07326749712228775 0.44367489218711853 0
0.30471700429916382 0.45050889253616333 0
0.46473962068557739 0.43615636229515076 0.0011304818326607347
0.58254778385162354 0.42452022433280945 0.001616309629753232
0.68755263090133667 0.4207952618598938 0.004364402499049902
0.79452347755432129 0.40913188457489014 0.0017878812504932284
0 0.5687180757522583 0
0.037309236824512482 0.57213747501373291 0.00039400588138960302
0.28079655766487122 0.57518547773361206 0.00053986196871846914
0.46505433320999146 0.56605988740921021 0.0015072093810886145
0.58824265003204346 0.55270040035247803 0
0.70604038238525391 0.55516809225082397 0.0047225053422152996
0.81670540571212769 0.54977244138717651 0.0023605795577168465
0.0021699792705476284 0.68816083669662476 0.00011435116175562143
0.052484326064586639 0.69639253616333008 0.0096034631133079529
0.24842579662799835 0.69498938322067261 0.014983787201344967
0.4523378312587738 0.69455689191818237 0.01169402152299881
0.5933305025100708 0.69210845232009888 0.0053805033676326275
0.71620672941207886 0.69596379995346069 0.0064331954345107079
0.82807266712188721 0.68536651134490967 0.0020897658541798592
0.0270511694252491 0.78973710536956787 0
0.088748157024383545 0.80000978708267212 0
0.24625225365161896 0.80080866813659668 0.00041318408329971135
0.44458696246147156 0.8031955361366272 0.0022042517084628344
0.59556633234024048 0.80639433860778809 8.6167283370741643e-06
0.72111606597900391 0.81351929903030396 0.0023973053321242332
0.83640444278717041 0.80247163772583008 0.0023953157942742109
0.0003362318966537714 0.010032325051724911 0.10299145430326462
0.10005897283554077 0.0058929291553795338 0.10934081673622131
0.27405118942260742 0.00022529152920469642 0.083192594349384308
0.42038238048553467 2.1541820842685411e-06 0.052230626344680786
0.52918237447738647 0 0.023170230910181999
0.61573952436447144 0.0025614271871745586 0.0082762027159333229
0.71270442008972168 0.00098987657111138105 0.001143915462307632
0 0.13500295579433441 0.13273170590400696
0.11271525174379349 0.14734490215778351 0.1309669017791748
0.31567376852035522 0.13250698149204254 0.079027660191059113
0.46164190769195557 0.12429127097129822 0.029665285721421242
0.58054536581039429 0.083555974066257477 0.0024913563393056393
0.66017889976501465 0.056428167968988419 0.0017848295392468572
0.75568848848342896 0.02091033011674881 0.0023648429196327925
0 0.28394919633865356 0.089554913341999054
0.086147397756576538 0.30849805474281311 0.074733316898345947
0.32444053888320923 0.31632429361343384 0.022676730528473854
0.47097641229629517 0.30823388695716858 0.0077962088398635387
0.58798485994338989 0.29514554142951965 0.0001068115234375
0.6795353889465332 0.2782212495803833 4.3682025534508284e-06
0.78036868572235107 0.25548595190048218 0.00026614620583131909
0 0.4362654983997345 0.0687713623046875
0.03859303891658783 0.46467986702919006 0.029999347403645515
0.31936013698577881 0.47347888350486755 0.00018490062211640179
0.48054790496826172 0.45522445440292358 5.977855107630603e-05
0.59916204214096069 0.43788912892341614 0
0.70280539989471436 0.43201678991317749 7.3601217991381418e-06
0.80840158462524414 0.41781440377235413 1.1488970812933985e-05
0 0.56883740425109863 0.018540730699896812
0.033802557736635208 0.58547192811965942 0.00045537014375440776
0.28108307719230652 0.59087675809860229 0
0.47602352499961853 0.58351510763168335 0
0.60413128137588501 0.56627529859542847 0
0.72493219375610352 0.56957107782363892 0
0.83109652996063232 0.56126433610916138 0.00015682145021855831
0 0.68447399139404297 0
0.028978655114769936 0.71150249242782593 0
0.24152620136737823 0.71116495132446289 1.2566061968755093e-06
0.46402686834335327 0.71549272537231445 0
0.60282677412033081 0.70942157506942749 0.0014847400598227978
0.72940820455551147 0.70757514238357544 0.00012578029418364167
0.84432476758956909 0.69767612218856812 0
0.0071527967229485512 0.78767597675323486 0
0.049888715147972107 0.81395548582077026 0
0.22115261852741241 0.8209654688835144 9.3886432296130806e-05
0.44264110922813416 0.81992357969284058 0.0012121910694986582
0.60134965181350708 0.82417482137680054 0.0077654221095144749
0.73394095897674561 0.82887154817581177 0.0039510088972747326
0.85598385334014893 0.82096296548843384 0.0040466608479619026
0 0.0055193132720887661 0.21711689233779907
0.093916982412338257 0.0047644223086535931 0.2312309592962265
0.26170337200164795 0.0026294933632016182 0.23382271826267242
0.41636887192726135 2.7286305339657702e-05 0.21538102626800537
0.51452881097793579 0 0.19245906174182892
0.60603505373001099 0.0017683589830994606 0.18220362067222595
0.70403528213500977 0.0016242532292380929 0.14222702383995056
0 0.14706315100193024 0.25124689936637878
0.096634477376937866 0.14541430771350861 0.28449660539627075
0.3103601336479187 0.13013061881065369 0.27061563730239868
0.47742566466331482 0.11247102171182632 0.23298640549182892
0.60321676731109619 0.073419399559497833 0.19281083345413208
0.7014351487159729 0.036918401718139648 0.14857505261898041
0.78758370876312256 0.017098085954785347 0.13282933831214905
0 0.29245811700820923 0.26212212443351746
0.052047204226255417 0.32208964228630066 0.28942269086837769
0.32435822486877441 0.33007365465164185 0.26936495304107666
0.50484573841094971 0.31476548314094543 0.21961317956447601
0.6414293646812439 0.29114887118339539 0.16925780475139618
0.7468574047088623 0.26735779643058777 0.11551176756620407
0.86081600189208984 0.24081042408943176 0.087476141750812531
0 0.43204560875892639 0.25226336717605591
0.019726891070604324 0.45981386303901672 0.26388829946517944
0.29041093587875366 0.49070984125137329 0.22721222043037415
0.5096781849861145 0.48240265250205994 0.15316049754619598
0.6468995213508606 0.45680510997772217 0.12158633768558502
0.77592927217483521 0.44659578800201416 0.086996801197528839
0.87658357620239258 0.43030443787574768 0.067930646240711212
0.0073978947475552559 0.56308954954147339 0.21383962035179138
0.0050471886061131954 0.58206695318222046 0.21978676319122314
0.22571331262588501 0.62343853712081909 0.15783305466175079
0.49472454190254211 0.61787468194961548 0.058690629899501801
0.64224755764007568 0.59356707334518433 0.027378831058740616
0.77778416872024536 0.5928657054901123 0.067581579089164734
0.89515239000320435 0.58486455678939819 0.057136386632919312
0.0033567540813237429 0.67999136447906494 0.13509716093540192
0.0016557133058086038 0.71179747581481934 0.15572614967823029
0.18793569505214691 0.76800715923309326 0.10049889981746674
0.46940869092941284 0.75265330076217651 0.023445414379239082
0.62748038768768311 0.73409938812255859 0.0020635866094380617
0.7694162130355835 0.73648440837860107 0.0076590143144130707
0.88377851247787476 0.72000092267990112 0.02020607702434063
0 0.78577464818954468 0.054115206003189087
0.0085322363302111626 0.81853312253952026 0.051627274602651596
0.18149644136428833 0.86421394348144531 0.035625353455543518
0.45472219586372375 0.8465653657913208 0.0057163015007972717
0.60863721370697021 0.83716994524002075 0.00019315832469146699
0.74838149547576904 0.84204453229904175 0.0012508616782724857
0.86612850427627563 0.82583296298980713 9.645948011893779e-05
0.0020391277503222227 0.0047056460753083229 0.32528656721115112
0.093547224998474121 0.0029880150686949492 0.34205922484397888
0.24624155461788177 0 0.35708224773406982
0.38748756051063538 0.0033913706429302692 0.35040438175201416
0.50335544347763062 8.6346793978009373e-05 0.34878849983215332
0.59093195199966431 0.00012096330465283245 0.33960217237472534
0.69211095571517944 0.00085607788059860468 0.331950843334198
0.0045414944179356098 0.15039335191249847 0.37344205379486084
0.088835395872592926 0.13883203268051147 0.40653583407402039
0.28171968460083008 0.11453540623188019 0.4203149676322937
0.45732566714286804 0.10396052151918411 0.4089946448802948
0.59312897920608521 0.093735575675964355 0.38842451572418213
0.69564896821975708 0.064198106527328491 0.37441781163215637
0.77611875534057617 0.015604026615619659 0.34754917025566101
0 0.30044740438461304 0.3920779824256897
0.048465371131896973 0.31753009557723999 0.42846646904945374
0.27466946840286255 0.31474319100379944 0.45093399286270142
0.49773731827735901 0.31224274635314941 0.43159306049346924
0.64137250185012817 0.30425366759300232 0.39727583527565002
0.75504320859909058 0.2830435037612915 0.37888646125793457
0.87728559970855713 0.2534826397895813 0.34982165694236755
0 0.43253985047340393 0.39766377210617065
0.015939824283123016 0.46112769842147827 0.4293246865272522
0.23234617710113525 0.48873215913772583 0.44898799061775208
0.50463855266571045 0.49046394228935242 0.42709717154502869
0.66394239664077759 0.48042309284210205 0.40958577394485474
0.79524898529052734 0.46869355440139771 0.39586335420608521
0.91487634181976318 0.45525798201560974 0.37312480807304382
0.0042028240859508514 0.55819821357727051 0.38495129346847534
0.00087767955847084522 0.58060687780380249 0.40085190534591675
0.17065851390361786 0.63259041309356689 0.42096084356307983
0.47387543320655823 0.64327913522720337 0.38783097267150879
0.67076283693313599 0.63499939441680908 0.36131104826927185
0.80988550186157227 0.61639547348022461 0.37913504242897034
0.93370276689529419 0.6064831018447876 0.352174311876297
0.0070619024336338043 0.67163902521133423 0.36131101846694946
6.0257258155616e-05 0.69874411821365356 0.36784711480140686
0.12298499047756195 0.76834142208099365 0.37455588579177856
0.45029404759407043 0.78812903165817261 0.34806424379348755
0.65715450048446655 0.79543757438659668 0.29253342747688293
0.8175731897354126 0.77247649431228638 0.28777208924293518
0.94158375263214111 0.75381171703338623 0.29251819849014282
0 0.77600502967834473 0.3274959921836853
0 0.79765892028808594 0.33282953500747681
0.11997010558843613 0.8785552978515625 0.32988423109054565
0.44033205509185791 0.90818369388580322 0.2994026243686676
0.63718783855438232 0.91648715734481812 0.24387863278388977
0.79954445362091064 0.89888936281204224 0.21866829693317413
0.95706194639205933 0.90411603450775146 0.18842184543609619
0.012955953367054462 0.0051325331442058086 0.40809190273284912
0.10333560407161713 0.0023187974002212286 0.44886833429336548
0.24385465681552887 0 0.45944640040397644
0.37485963106155396 0 0.45988792181015015
0.4926585853099823 3.1115962428884814e-06 0.46733930706977844
0.58552378416061401 0.0028630574233829975 0.46917125582695007
0.68232667446136475 0.001314260414801538 0.45824971795082092
0.0060760648921132088 0.15193729102611542 0.48975691199302673
0.096840724349021912 0.13435295224189758 0.52660244703292847
0.27352330088615417 0.10667899996042252 0.54454445838928223
0.43744757771492004 0.061185214668512344 0.54594868421554565
0.5748896598815918 0.056623227894306183 0.54032677412033081
0.66674035787582397 0.040996357798576355 0.51878249645233154
0.75634336471557617 0.017081854864954948 0.50348854064941406
5.7444854064669926e-06 0.30436825752258301 0.51307380199432373
0.058777078986167908 0.31061491370201111 0.56018877029418945
0.25605949759483337 0.30564606189727783 0.58304905891418457
0.47041666507720947 0.28632208704948425 0.58901727199554443
0.62877351045608521 0.28521159291267395 0.5689769983291626
0.74662786722183228 0.26876616477966309 0.54744166135787964
0.86431461572647095 0.24695026874542236 0.53293025493621826
0 0.43203467130661011 0.52360278367996216
0.025197586044669151 0.45736008882522583 0.5700717568397522
0.20408885180950165 0.47725290060043335 0.60254848003387451
0.47006368637084961 0.48069968819618225 0.61497235298156738
0.66566342115402222 0.48233318328857422 0.59495973587036133
0.79819899797439575 0.47496983408927917 0.57882517576217651
0.91423404216766357 0.46369874477386475 0.56360393762588501
2.6448567950865254e-05 0.5532798171043396 0.52456551790237427
0.0030792835168540478 0.58253967761993408 0.55871319770812988
0.15102508664131165 0.62463170289993286 0.59003239870071411
0.44106835126876831 0.63938385248184204 0.59324151277542114
0.67334663867950439 0.6451992392539978 0.59457546472549438
0.82620513439178467 0.63632184267044067 0.58650374412536621
0.94680696725845337 0.62583547830581665 0.57146239280700684
0.0034618452191352844 0.67233866453170776 0.50788587331771851
0 0.69228214025497437 0.51972579956054688
0.093106664717197418 0.7611655592918396 0.54854720830917358
0.41853570938110352 0.78745144605636597 0.55633342266082764
0.65816819667816162 0.80036509037017822 0.55139952898025513
0.82817745208740234 0.78863179683685303 0.54048258066177368
0.95825225114822388 0.77101480960845947 0.54722249507904053
0 0.77559399604797363 0.48885864019393921
6.8455119617283344e-05 0.80184692144393921 0.5026509165763855
0.08522447943687439 0.87342953681945801 0.51908570528030396
0.4015444815158844 0.9066353440284729 0.52888029813766479
0.63736176490783691 0.92222023010253906 0.52983611822128296
0.81711959838867188 0.92007309198379517 0.51019388437271118
0.96284681558609009 0.90545010566711426 0.49959129095077515
0.02633960172533989 0.0017576479585841298 0.47908133268356323
0.11076377332210541 0.0082324007526040077 0.52235263586044312
0.24475251138210297 0.0013447181554511189 0.52029556035995483
0.38067561388015747 0 0.54040932655334473
0.49647858738899231 0.0016376719577237964 0.55233383178710938
0.57186901569366455 0.0039608674123883247 0.54995381832122803
0.66441279649734497 0.00078859517816454172 0.55101615190505981
0.005274409893900156 0.14162042737007141 0.57706743478775024
0.10568743199110031 0.13157035410404205 0.61017841100692749
0.27325943112373352 0.1093360036611557 0.63349831104278564
0.42786237597465515 0.066320456564426422 0.6377074122428894
0.56593745946884155 0.032628122717142105 0.63921940326690674
0.64821040630340576 0.015485726296901703 0.62534040212631226
0.74783927202224731 0.0079352585598826408 0.6238521933555603
0 0.30219095945358276 0.6160932183265686
0.072240687906742096 0.30542773008346558 0.66242134571075439
0.25839576125144958 0.29549837112426758 0.69298708438873291
0.44920176267623901 0.27061247825622559 0.70635509490966797
0.61423420906066895 0.24855203926563263 0.70729309320449829
0.74284243583679199 0.23998910188674927 0.69730114936828613
0.8500969409942627 0.22636833786964417 0.68083900213241577
0 0.42710885405540466 0.62754780054092407
0.04395439475774765 0.44603955745697021 0.68250834941864014
0.20760916173458099 0.46163925528526306 0.72575145959854126
0.43548110127449036 0.46291139721870422 0.74869000911712646
0.64923596382141113 0.4578419029712677 0.75488007068634033
0.792763352394104 0.45639222860336304 0.73697882890701294
0.90952271223068237 0.45221656560897827 0.71878719329833984
0 0.5461391806602478 0.6454465389251709
0.014115322381258011 0.57559669017791748 0.69002193212509155
0.16406650841236115 0.60846966505050659 0.74213868379592896
0.4118686318397522 0.62543022632598877 0.76162296533584595
0.6640511155128479 0.63691252470016479 0.77030003070831299
0.82844358682632446 0.63485342264175415 0.76132994890213013
0.95198053121566772 0.62678259611129761 0.74820941686630249
0.0038168514147400856 0.67547929286956787 0.65623432397842407
8.0781821452546865e-05 0.6966368556022644 0.67808324098587036
0.11258645355701447 0.76342129707336426 0.73665881156921387
0.41030025482177734 0.78551274538040161 0.74658012390136719
0.6618531346321106 0.80004763603210449 0.75555264949798584
0.8422587513923645 0.79928183555603027 0.75666743516921997
0.97646814584732056 0.7864195704460144 0.75206166505813599
0.0015001783613115549 0.77898365259170532 0.64274758100509644
0.00023103601415641606 0.80177611112594604 0.66510385274887085
0.076799832284450531 0.87592464685440063 0.70735305547714233
0.39066058397293091 0.90906614065170288 0.71814429759979248
0.64505434036254883 0.9269939661026001 0.73200350999832153
0.83675020933151245 0.93134546279907227 0.73097234964370728
0.97792321443557739 0.92574280500411987 0.73311430215835571
0.044725112617015839 0.0012562620686367154 0.53177338838577271
0.13078515231609344 0.0032932206522673368 0.58909344673156738
0.25096508860588074 0.00073529413202777505 0.61040008068084717
0.37441220879554749 0 0.62049132585525513
0.49914655089378357 4.9785539886215702e-05 0.63727885484695435
0.57865071296691895 0.00077342614531517029 0.63957667350769043
0.66237008571624756 0.00045545989996753633 0.63441294431686401
0.011518261395394802 0.12849470973014832 0.67065948247909546
0.11668339371681213 0.12561117112636566 0.69794577360153198
0.27473092079162598 0.10676345974206924 0.72291570901870728
0.42175519466400146 0.052966233342885971 0.72965282201766968
0.55664515495300293 0.04414818063378334 0.72279596328735352
0.65065211057662964 0.029330549761652946 0.71993792057037354
0.74768698215484619 0.0049075856804847717 0.71443694829940796
0.0027798071969300508 0.29553195834159851 0.68693453073501587
0.083385810256004333 0.29732182621955872 0.746834397315979
0.25351706147193909 0.29221042990684509 0.77359139919281006
0.4392707347869873 0.26442715525627136 0.79110181331634521
0.60031616687774658 0.24436666071414948 0.79430145025253296
0.72821015119552612 0.23178769648075104 0.79359114170074463
0.85090053081512451 0.21074551343917847 0.79294312000274658
0.00013418759044725448 0.42108747363090515 0.70525491237640381
0.045839749276638031 0.44507715106010437 0.78199940919876099
0.21012292802333832 0.45326155424118042 0.81211501359939575
0.43657657504081726 0.45722699165344238 0.83949899673461914
0.63308101892471313 0.44555830955505371 0.85132557153701782
0.77891802787780762 0.44282093644142151 0.84581845998764038
0.90315920114517212 0.43695899844169617 0.83729410171508789
0 0.54101169109344482 0.7322620153427124
0.020374836400151253 0.5705190896987915 0.78540265560150146
0.17300386726856232 0.58915627002716064 0.83018189668655396
0.40750518441200256 0.61074268817901611 0.85874807834625244
0.64616578817367554 0.62374752759933472 0.88199532032012939
0.8153541088104248 0.62337654829025269 0.87999653816223145
0.94703930616378784 0.61764562129974365 0.87212514877319336
0 0.67394661903381348 0.76033401489257812
0.00077471265103667974 0.71686047315597534 0.80734360218048096
0.13797676563262939 0.75906431674957275 0.85339081287384033
0.40773367881774902 0.77212274074554443 0.87087148427963257
0.64589017629623413 0.79119855165481567 0.88809698820114136
0.83855468034744263 0.79252403974533081 0.89185261726379395
0.9799656867980957 0.79160803556442261 0.88808637857437134
0 0.77440649271011353 0.76361221075057983
0.0013057035394012928 0.80378341674804688 0.78951239585876465
0.12050604820251465 0.88616949319839478 0.85731238126754761
0.39078271389007568 0.90278351306915283 0.86918079853057861
0.63634401559829712 0.92138147354125977 0.88445502519607544
0.8454134464263916 0.92837786674499512 0.89121174812316895
0.97851443290710449 0.93389832973480225 0.9200824499130249
