assets/lut/editingcorp tutto.cube
# Created by: G'MIC (https://gmic.eu)
TITLE "tutto"
# LUT size
LUT_3D_SIZE 13
# Data domain
DOMAIN_MIN 0.0 0.0 0.0
DOMAIN_MAX 1.0 1.0 1.0
# LUT data points
0.019444379955530167 0.015945255756378174 0.01593412458896637
0.13293313980102539 0.016242412850260735 0.016908533871173859
0.2932620644569397 0.013632366433739662 0.018428023904561996
0.43005132675170898 0.015184604562819004 0.022470181807875633
0.54083263874053955 0.016773119568824768 0.019144663587212563
0.64418876171112061 0.016310464590787888 0.0069173029623925686
0.7404334545135498 0.015783436596393585 0.0017033446347340941
0.81875938177108765 0.015860643237829208 0.0012677360791712999
0.87140792608261108 0.015110359527170658 0.002475932938978076
0.90586268901824951 0.013183070346713066 0.0040481565520167351
0.93409538269042969 0.011233131401240826 0.0036061904393136501
0.96157383918762207 0.0093856062740087509 0.0023067847359925508
0.98920869827270508 0.006896553561091423 0.0023276235442608595
0.01381607074290514 0.068619206547737122 0.025290470570325851
0.094938986003398895 0.068027615547180176 0.019029969349503517
0.246323361992836 0.064849600195884705 0.020149635151028633
0.40231025218963623 0.066966339945793152 0.024054761976003647
0.52791053056716919 0.069423764944076538 0.023198924958705902
0.63509982824325562 0.067936994135379791 0.016903791576623917
0.7308691143989563 0.066396020352840424 0.01089915819466114
0.80968040227890015 0.068923026323318481 0.0067382361739873886
0.86534017324447632 0.068318866193294525 0.0072549409233033657
0.90286737680435181 0.06441352516412735 0.011050938628613949
0.93356412649154663 0.06051177904009819 0.0099063348025083542
0.96275538206100464 0.057472798973321915 0.0062602325342595577
0.9904632568359375 0.054384566843509674 0.0059620724059641361
0.0051529975607991219 0.14398370683193207 0.033375877887010574
0.061289049685001373 0.14263288676738739 0.027815904468297958
0.18838338553905487 0.14086736738681793 0.027433926239609718
0.35527133941650391 0.14307095110416412 0.028591934591531754
0.50225383043289185 0.14587315917015076 0.02647959440946579
0.62098842859268188 0.14450976252555847 0.02276885136961937
0.7198607325553894 0.14136281609535217 0.017676079645752907
0.80108308792114258 0.13964003324508667 0.012027920223772526
0.86136221885681152 0.13615028560161591 0.010445388965308666
0.90383404493331909 0.12961839139461517 0.012707160785794258
0.93687182664871216 0.12286984175443649 0.012429420836269855
0.96614104509353638 0.11761549115180969 0.010534458793699741
0.99242913722991943 0.11438141018152237 0.011689743027091026
0.0035981121473014355 0.23238879442214966 0.04564400389790535
0.043872654438018799 0.23030734062194824 0.041087593883275986
0.13355147838592529 0.23079663515090942 0.041223563253879547
0.28927257657051086 0.23552420735359192 0.040462836623191833
0.46054106950759888 0.24084994196891785 0.035217795521020889
0.59921473264694214 0.24325372278690338 0.025128921493887901
0.70783698558807373 0.23982211947441101 0.015596950426697731
0.79476374387741089 0.23157377541065216 0.012554707005620003
0.86136507987976074 0.22196456789970398 0.012339782901108265
0.90864276885986328 0.21200394630432129 0.01150913629680872
0.94309556484222412 0.20226599276065826 0.011188761331140995
0.97101831436157227 0.19433031976222992 0.012266031466424465
0.99473303556442261 0.18984264135360718 0.015961995348334312
0.0077507765963673592 0.33138230443000793 0.063429847359657288
0.041798774152994156 0.32956317067146301 0.059239137917757034
0.10604200512170792 0.33015716075897217 0.060052189975976944
0.23660263419151306 0.33506008982658386 0.06033039465546608
0.41172310709953308 0.34374916553497314 0.055168390274047852
0.57032173871994019 0.35089388489723206 0.038788978010416031
0.69133585691452026 0.35104113817214966 0.016072681173682213
0.78729748725891113 0.3377164900302887 0.013855115510523319
0.86195969581604004 0.32221382856369019 0.015625597909092903
0.91374152898788452 0.30981263518333435 0.012777126394212246
0.94948071241378784 0.29784014821052551 0.010825153440237045
0.97594398260116577 0.28844353556632996 0.011928229592740536
0.99653232097625732 0.28255170583724976 0.01666443794965744
0.017651142552495003 0.43760859966278076 0.086226321756839752
0.048715241253376007 0.43538406491279602 0.082733988761901855
0.10193765908479691 0.43443155288696289 0.082789525389671326
0.2054598331451416 0.43869519233703613 0.082682996988296509
0.36102557182312012 0.44829171895980835 0.080523967742919922
0.53475642204284668 0.45861774682998657 0.069802485406398773
0.66940665245056152 0.46685364842414856 0.027743320912122726
0.77381712198257446 0.45382395386695862 0.012106847018003464
0.85833984613418579 0.43390318751335144 0.014731253497302532
0.91648626327514648 0.41829708218574524 0.012520210817456245
0.9549870491027832 0.40418905019760132 0.010204584337770939
0.98017144203186035 0.3939911425113678 0.010935046710073948
0.99773281812667847 0.38601773977279663 0.015571683645248413
0.029312537983059883 0.54554468393325806 0.10740357637405396
0.059104666113853455 0.54224246740341187 0.10575948655605316
0.10440070927143097 0.53868770599365234 0.10646181553602219
0.184308260679245 0.54121750593185425 0.10567381978034973
0.31222078204154968 0.55152243375778198 0.10425479710102081
0.48718813061714172 0.56155675649642944 0.10605704784393311
0.64436793327331543 0.57077622413635254 0.074895434081554413
0.75804823637008667 0.57106196880340576 0.028985371813178062
0.84818023443222046 0.55491387844085693 0.011299447156488895
0.91657954454421997 0.5323217511177063 0.011107530444860458
0.95898145437240601 0.51700478792190552 0.0081333983689546585
0.98385149240493774 0.50514811277389526 0.0077880709432065487
0.99840360879898071 0.49321934580802917 0.012721865437924862
0.042500440031290054 0.64669734239578247 0.12454377859830856
0.072333842515945435 0.64273297786712646 0.12416766583919525
0.11166746914386749 0.63767474889755249 0.12534594535827637
0.17479568719863892 0.63811182975769043 0.12622383236885071
0.28140270709991455 0.64638257026672363 0.12796293199062347
0.44221639633178711 0.65710729360580444 0.13622361421585083
0.61781990528106689 0.6659122109413147 0.13000407814979553
0.74682861566543579 0.67331975698471069 0.08350391685962677
0.83842509984970093 0.66641509532928467 0.039310455322265625
0.91196954250335693 0.64852225780487061 0.017302883788943291
0.95910543203353882 0.63546615839004517 0.0044361189939081669
0.98471039533615112 0.62065207958221436 0.0036528643686324358
0.99847960472106934 0.60117346048355103 0.01068592444062233
0.056482084095478058 0.72952723503112793 0.13613131642341614
0.087486982345581055 0.72831869125366211 0.13616748154163361
0.12297885119915009 0.72501558065414429 0.13672909140586853
0.17236946523189545 0.72346055507659912 0.13789071142673492
0.25525206327438354 0.72761327028274536 0.14121530950069427
0.39106178283691406 0.73948824405670166 0.14660528302192688
0.56704896688461304 0.75506812334060669 0.14405129849910736
0.71404886245727539 0.7598838210105896 0.12934581935405731
0.81953334808349609 0.75625258684158325 0.099656336009502411
0.89992642402648926 0.75372487306594849 0.046382304280996323
0.95382839441299438 0.7494390606880188 0.0067727332934737206
0.98212260007858276 0.73206853866577148 0.0046713436022400856
0.99767756462097168 0.70827370882034302 0.018016500398516655
0.068482130765914917 0.79224258661270142 0.14329706132411957
0.10028485953807831 0.79380404949188232 0.1443474292755127
0.13345327973365784 0.79289925098419189 0.14418193697929382
0.17239129543304443 0.78969424962997437 0.14416202902793884
0.2348732054233551 0.79022127389907837 0.14486290514469147
0.34287473559379578 0.80016374588012695 0.14633403718471527
0.49963200092315674 0.81578224897384644 0.14768701791763306
0.65707743167877197 0.82283622026443481 0.15377070009708405
0.78485476970672607 0.82149326801300049 0.15439978241920471
0.8791499137878418 0.82603418827056885 0.10900271683931351
0.94156152009963989 0.8318142294883728 0.052519705146551132
0.97571015357971191 0.82380694150924683 0.03896871954202652
0.99587982892990112 0.80551904439926147 0.048589818179607391
0.075044207274913788 0.83954983949661255 0.14827533066272736
0.10594808310270309 0.8406333327293396 0.15065887570381165
0.13569322228431702 0.83949726819992065 0.15043520927429199
0.16937544941902161 0.83592885732650757 0.1487707644701004
0.22211083769798279 0.83413732051849365 0.14700527489185333
0.31058225035667419 0.84226447343826294 0.14487646520137787
0.44209212064743042 0.8580329418182373 0.14418379962444305
0.59922367334365845 0.87102162837982178 0.14662326872348785
0.74565142393112183 0.87388497591018677 0.15794800221920013
0.85427910089492798 0.87353509664535522 0.16002584993839264
0.92595797777175903 0.87903010845184326 0.13398441672325134
0.96854192018508911 0.88554686307907104 0.10701151937246323
0.99469262361526489 0.88019245862960815 0.095807261765003204
0.074106372892856598 0.87745469808578491 0.1505197286605835
0.10329896211624146 0.87780970335006714 0.15350857377052307
0.12981009483337402 0.87594425678253174 0.15316417813301086
0.16024743020534515 0.87186598777770996 0.15158763527870178
0.20605972409248352 0.8687824010848999 0.14882484078407288
0.27678367495536804 0.87415486574172974 0.14737334847450256
0.38638609647750854 0.89095664024353027 0.14449416100978851
0.54272866249084473 0.90871858596801758 0.13847211003303528
0.70699012279510498 0.91734534502029419 0.14527146518230438
0.83362960815429688 0.91561663150787354 0.16800034046173096
0.91674047708511353 0.91826874017715454 0.16861200332641602
0.9677773118019104 0.92826831340789795 0.14715270698070526
0.99671024084091187 0.93190127611160278 0.12778812646865845
0.065324537456035614 0.91206377744674683 0.14841823279857635
0.0926995649933815 0.9120633602142334 0.15155915915966034
0.11717696487903595 0.91060739755630493 0.15217196941375732
0.14474643766880035 0.90724766254425049 0.15154874324798584
0.18344613909721375 0.90530890226364136 0.15068541467189789
0.24076960980892181 0.90886497497558594 0.15191332995891571
0.33625990152359009 0.92356866598129272 0.15049757063388824
0.49146586656570435 0.9414294958114624 0.14228484034538269
0.66757738590240479 0.95397096872329712 0.14147323369979858
0.80987566709518433 0.95737546682357788 0.15320305526256561
0.90502959489822388 0.95974111557006836 0.15747478604316711
0.96511369943618774 0.96694445610046387 0.14795508980751038
0.99727737903594971 0.9727637767791748 0.13473188877105713
0.020527634769678116 0.019525835290551186 0.095292173326015472
0.12521333992481232 0.016810698434710503 0.085168488323688507
0.28813549876213074 0.016173150390386581 0.077257178723812103
0.43334907293319702 0.016433611512184143 0.07752576470375061
0.54324871301651001 0.015099618583917618 0.074464105069637299
0.6458742618560791 0.015733113512396812 0.05843021348118782
0.7461693286895752 0.017272919416427612 0.047531742602586746
0.82871860265731812 0.018046300858259201 0.046767305582761765
0.87896311283111572 0.017328778281807899 0.049695376306772232
0.909598708152771 0.016290672123432159 0.051434967666864395
0.93549895286560059 0.015674710273742676 0.048424873501062393
0.96228832006454468 0.014623978175222874 0.044760175049304962
0.98964041471481323 0.012632527388632298 0.046145450323820114
0.013039308600127697 0.078024245798587799 0.093428730964660645
0.090736359357833862 0.071959011256694794 0.082762010395526886
0.23973856866359711 0.068350695073604584 0.076531417667865753
0.40009802579879761 0.068506471812725067 0.075503915548324585
0.52517706155776978 0.066459536552429199 0.075310230255126953
0.63264214992523193 0.066055327653884888 0.068276375532150269
0.73258322477340698 0.068095505237579346 0.059846360236406326
0.81437039375305176 0.069316104054450989 0.054445333778858185
0.86981946229934692 0.068036638200283051 0.053687240928411484
0.90547120571136475 0.064191751182079315 0.056566290557384491
0.93492805957794189 0.06117573007941246 0.054215226322412491
0.96399492025375366 0.060494996607303619 0.049616299569606781
0.99128091335296631 0.060281235724687576 0.051334261894226074
0.0070151984691619873 0.15208686888217926 0.093154892325401306
0.058278400450944901 0.14690257608890533 0.08314591646194458
0.17983336746692657 0.14367474615573883 0.076831862330436707
0.35170555114746094 0.14665329456329346 0.072267599403858185
0.5015682578086853 0.14670790731906891 0.070949554443359375
0.61994898319244385 0.14605927467346191 0.065107874572277069
0.72036415338516235 0.1431354433298111 0.059456471353769302
0.80336940288543701 0.13878433406352997 0.054719515144824982
0.86479067802429199 0.13328239321708679 0.049997203052043915
0.90601897239685059 0.12574140727519989 0.051557831466197968
0.93815284967422485 0.11919009685516357 0.051608964800834656
0.96769523620605469 0.11656466871500015 0.050888825207948685
0.99367302656173706 0.11684468388557434 0.055657852441072464
0.0086386287584900856 0.23657780885696411 0.098082490265369415
0.047678343951702118 0.23392212390899658 0.090336896479129791
0.1316395103931427 0.2334737628698349 0.086117610335350037
0.2861655056476593 0.23809532821178436 0.080682434141635895
0.45947557687759399 0.24278451502323151 0.073452681303024292
0.5998501181602478 0.2449478805065155 0.061592027544975281
0.70792931318283081 0.23984205722808838 0.054118078202009201
0.79653447866439819 0.2290368378162384 0.052743319422006607
0.86499524116516113 0.21820351481437683 0.047455087304115295
0.91072648763656616 0.20722067356109619 0.044611956924200058
0.94395798444747925 0.19745981693267822 0.045415423810482025
0.97181689739227295 0.19174575805664062 0.04852994903922081
0.99519532918930054 0.19047079980373383 0.056602314114570618
0.013192045502364635 0.33247590065002441 0.10610869526863098
0.049989677965641022 0.33086410164833069 0.1017133817076683
0.10586553812026978 0.33016088604927063 0.10223089158535004
0.22925549745559692 0.33401280641555786 0.099679373204708099
0.41008880734443665 0.34297174215316772 0.091100014746189117
0.57185900211334229 0.35083317756652832 0.072224259376525879
0.69068986177444458 0.34919306635856628 0.052686054259538651
0.78832650184631348 0.33485400676727295 0.054818067699670792
0.86556023359298706 0.3186430037021637 0.051120340824127197
0.91607344150543213 0.30525541305541992 0.044728793203830719
0.94961154460906982 0.29406744241714478 0.04316113144159317
0.97558939456939697 0.28636175394058228 0.046071458607912064
0.99586445093154907 0.28319832682609558 0.054430868476629257
0.019232342019677162 0.43654927611351013 0.12111081928014755
0.051865849643945694 0.43430420756340027 0.12071593105792999
0.099747627973556519 0.43219849467277527 0.12275058776140213
0.19974803924560547 0.43492639064788818 0.12178518623113632
0.36107611656188965 0.44568964838981628 0.11919830739498138
0.53526359796524048 0.45750337839126587 0.10545346140861511
0.66653674840927124 0.46570560336112976 0.062575995922088623
0.77358096837997437 0.4535592794418335 0.047665480524301529
0.86143785715103149 0.43223035335540771 0.049010064452886581
0.91820216178894043 0.41469785571098328 0.045534603297710419
0.95394128561019897 0.40142354369163513 0.043198902159929276
0.97871184349060059 0.39238682389259338 0.044521406292915344
0.99739545583724976 0.38640180230140686 0.051727131009101868
0.029856065288186073 0.54371970891952515 0.14025358855724335
0.059349898248910904 0.53985786437988281 0.14028307795524597
0.10099786520004272 0.53493577241897583 0.14363519847393036
0.17770092189311981 0.53632563352584839 0.14348743855953217
0.30858588218688965 0.5491291880607605 0.14229890704154968
0.4833335280418396 0.56317788362503052 0.14168767631053925
0.64176803827285767 0.57350009679794312 0.10991822928190231
0.75938194990158081 0.57194286584854126 0.067165449261665344
0.8493608832359314 0.55502545833587646 0.046108603477478027
0.91459453105926514 0.53337466716766357 0.042795561254024506
0.95640295743942261 0.51564258337020874 0.042882747948169708
0.98133289813995361 0.5036199688911438 0.042954001575708389
0.99773627519607544 0.4931526780128479 0.048568740487098694
0.043122775852680206 0.64323204755783081 0.15663188695907593
0.071317307651042938 0.63952672481536865 0.15647177398204803
0.10637544840574265 0.63306236267089844 0.15991872549057007
0.16579481959342957 0.63274532556533813 0.16169601678848267
0.27289921045303345 0.64417624473571777 0.1628350168466568
0.4379141628742218 0.65914225578308105 0.17247723042964935
0.61686062812805176 0.66752296686172485 0.17150871455669403
0.74743682146072388 0.6725044846534729 0.12702023983001709
0.83473515510559082 0.67038154602050781 0.068228796124458313
0.90657949447631836 0.65297454595565796 0.046836134046316147
0.95593529939651489 0.63475489616394043 0.041473090648651123
0.98353230953216553 0.6180649995803833 0.039257466793060303
0.99790769815444946 0.6010163426399231 0.047680947929620743
0.057545080780982971 0.72645324468612671 0.16778604686260223
0.085375718772411346 0.72423958778381348 0.16798606514930725
0.11597604304552078 0.71918362379074097 0.17002415657043457
0.16219966113567352 0.71737456321716309 0.17252728343009949
0.24792090058326721 0.72355538606643677 0.17742079496383667
0.39052286744117737 0.73684006929397583 0.18807533383369446
0.56552892923355103 0.74890124797821045 0.19606216251850128
0.71326595544815063 0.75472915172576904 0.18079186975955963
0.81699967384338379 0.7572169303894043 0.13669376075267792
0.89647102355957031 0.75498759746551514 0.085911817848682404
0.95225512981414795 0.7471306324005127 0.047835301607847214
0.98237568140029907 0.73128795623779297 0.039670698344707489
0.99775296449661255 0.70981711149215698 0.054595347493886948
0.070460028946399689 0.78982144594192505 0.17559283971786499
0.098508112132549286 0.78895372152328491 0.17708970606327057
0.12597942352294922 0.78593045473098755 0.17831973731517792
0.16216015815734863 0.78335690498352051 0.17954722046852112
0.22805345058441162 0.78573191165924072 0.18249456584453583
0.34278133511543274 0.79705846309661865 0.18675822019577026
0.49860325455665588 0.81318730115890503 0.19010947644710541
0.65497726202011108 0.82188326120376587 0.19523143768310547
0.78299754858016968 0.82236075401306152 0.19177249073982239
0.8775174617767334 0.82511430978775024 0.15406724810600281
0.94236123561859131 0.83022254705429077 0.097747847437858582
0.97801083326339722 0.82451188564300537 0.075664311647415161
0.99721920490264893 0.80727493762969971 0.083889901638031006
0.078471213579177856 0.8367123007774353 0.18096783757209778
0.10673669725656509 0.83586251735687256 0.18497718870639801
0.13138687610626221 0.83384567499160767 0.1860249787569046
0.16049645841121674 0.83172512054443359 0.18501129746437073
0.2120368480682373 0.8324776291847229 0.18374674022197723
0.30318343639373779 0.84132158756256104 0.18329660594463348
0.43747410178184509 0.85822492837905884 0.18030644953250885
0.59673255681991577 0.87162888050079346 0.18440420925617218
0.7446250319480896 0.87283283472061157 0.20295444130897522
0.85450738668441772 0.87145745754241943 0.20812526345252991
0.92884838581085205 0.87919348478317261 0.17346601188182831
0.97223418951034546 0.88557475805282593 0.14328280091285706
0.99599742889404297 0.88095611333847046 0.13173761963844299
0.078395679593086243 0.87466150522232056 0.18307489156723022
0.1056138277053833 0.87328910827636719 0.1885066032409668
0.1275671124458313 0.87198138236999512 0.19057385623455048
0.15158373117446899 0.8713420033454895 0.18781423568725586
0.1913534551858902 0.87061667442321777 0.18685111403465271
0.26151546835899353 0.876026451587677 0.18521317839622498
0.37792858481407166 0.89133882522583008 0.18010742962360382
0.54091817140579224 0.90797644853591919 0.17599660158157349
0.70704907178878784 0.91423881053924561 0.18913398683071136
0.83407151699066162 0.91202664375305176 0.21240405738353729
0.91873294115066528 0.91627663373947144 0.20914921164512634
0.96941876411437988 0.92702871561050415 0.18710088729858398
0.99742168188095093 0.93229001760482788 0.16637395322322845
0.068822525441646576 0.90990555286407471 0.17963176965713501
0.093551591038703918 0.90895909070968628 0.18506181240081787
0.11386145651340485 0.90875858068466187 0.18715965747833252
0.13566520810127258 0.90896165370941162 0.18652909994125366
0.16779191792011261 0.90773725509643555 0.18706570565700531
0.22304157912731171 0.91117042303085327 0.1881975531578064
0.32546117901802063 0.92326462268829346 0.18517602980136871
0.48850834369659424 0.94002890586853027 0.17652608454227448
0.66436219215393066 0.95020008087158203 0.17967003583908081
0.80639588832855225 0.95210593938827515 0.195461705327034
0.90383678674697876 0.95547980070114136 0.20130071043968201
0.96495652198791504 0.96487772464752197 0.19075492024421692
0.99754035472869873 0.9722476601600647 0.17496666312217712
0.020414479076862335 0.030619572848081589 0.20685924589633942
0.11134639382362366 0.024236073717474937 0.18841610848903656
0.27294215559959412 0.018855584785342216 0.16959841549396515
0.42691135406494141 0.018019672483205795 0.16001535952091217
0.54094702005386353 0.01693510077893734 0.15876193344593048
0.64263558387756348 0.016466611996293068 0.15762025117874146
0.7414557933807373 0.016935894265770912 0.15252237021923065
0.82369637489318848 0.016783082857728004 0.14505326747894287
0.87655794620513916 0.016413506120443344 0.13850422203540802
0.90931588411331177 0.015969594940543175 0.1323532909154892
0.93620955944061279 0.017007401213049889 0.1249927282333374
0.96396279335021973 0.018199248239398003 0.1202143058180809
0.99079376459121704 0.018286477774381638 0.12084920704364777
0.016224296763539314 0.10253532230854034 0.19349083304405212
0.081692546606063843 0.089339233934879303 0.18191768229007721
0.22555714845657349 0.075079284608364105 0.16705445945262909
0.38961067795753479 0.072915412485599518 0.15669779479503632
0.51850521564483643 0.069307319819927216 0.15575568377971649
0.62697058916091919 0.066157005727291107 0.15500399470329285
0.72763192653656006 0.066539466381072998 0.14859700202941895
0.81012749671936035 0.066972874104976654 0.13919191062450409
0.86751067638397217 0.065470539033412933 0.13031457364559174
0.90542697906494141 0.061253774911165237 0.12618640065193176
0.93616193532943726 0.059674624353647232 0.12145677208900452
0.96629828214645386 0.062083076685667038 0.11713336408138275
0.993316650390625 0.064454428851604462 0.12080665677785873
0.013166045770049095 0.1754845529794693 0.17943990230560303
0.0549483522772789 0.16670995950698853 0.17078682780265808
0.16242241859436035 0.15349045395851135 0.16089156270027161
0.33387476205825806 0.15104888379573822 0.15145406126976013
0.49236112833023071 0.14875921607017517 0.14714962244033813
0.61424136161804199 0.14470981061458588 0.14115571975708008
0.71631342172622681 0.14105798304080963 0.13442876935005188
0.80071580410003662 0.13594505190849304 0.12646183371543884
0.8632504940032959 0.13020443916320801 0.11531717330217361
0.90485215187072754 0.12107277661561966 0.11253980547189713
0.9382859468460083 0.11494003236293793 0.11118470877408981
0.96978425979614258 0.11503149569034576 0.11042468249797821
0.99518346786499023 0.11871851235628128 0.11902833729982376
0.01526037510484457 0.25434383749961853 0.17602548003196716
0.048350613564252853 0.25098398327827454 0.17207430303096771
0.12084263563156128 0.24447213113307953 0.16441179811954498
0.27535837888717651 0.24359352886676788 0.15334005653858185
0.45489093661308289 0.24582205712795258 0.14069090783596039
0.59673702716827393 0.24479778110980988 0.12537606060504913
0.70461016893386841 0.23796276748180389 0.11768085509538651
0.79474234580993652 0.22770398855209351 0.11288465559482574
0.86400437355041504 0.21736133098602295 0.10143226385116577
0.90907531976699829 0.20485396683216095 0.097938790917396545
0.94245404005050659 0.19492505490779877 0.098798535764217377
0.9724355936050415 0.19122698903083801 0.10216695815324783
0.99593991041183472 0.19196903705596924 0.11370095610618591
0.017350828275084496 0.34399664402008057 0.17713919281959534
0.053829148411750793 0.34246256947517395 0.17943271994590759
0.10766923427581787 0.33888351917266846 0.17486287653446198
