assets/lut/editingcorpw Sapphire Serenity.cube
LUT_3D_SIZE 16
DOMAIN_MIN 0.0 0.0 0.0
DOMAIN_MAX 1.0 1.0 1.0
0.187808 0.174899 0.161013
0.187808 0.174899 0.161013
0.201346 0.174990 0.162631
0.241715 0.175570 0.169339
0.282445 0.175888 0.173129
0.328466 0.175662 0.174746
0.378802 0.175582 0.176333
0.437800 0.175002 0.177084
0.501036 0.173934 0.176565
0.567455 0.172488 0.175308
0.636469 0.171237 0.173007
0.708888 0.171292 0.171670
0.784250 0.175564 0.171524
0.860789 0.185092 0.169107
0.938543 0.198960 0.163668
1.000000 0.217502 0.163424
0.187808 0.174899 0.161013
0.187808 0.174899 0.161013
0.206521 0.174958 0.163296
0.246412 0.175157 0.167548
0.286595 0.175698 0.170059
0.330907 0.176107 0.172390
0.380779 0.176194 0.173952
0.438854 0.176100 0.174795
0.501083 0.175596 0.174425
0.567038 0.174329 0.173250
0.636402 0.173135 0.171175
0.709200 0.173506 0.170736
0.783875 0.177799 0.170470
0.859122 0.187188 0.167902
0.935906 0.200706 0.162211
1.000000 0.219303 0.161019
0.201718 0.188327 0.161044
0.208839 0.187796 0.161658
0.225941 0.189339 0.160768
0.270550 0.183957 0.156829
0.310332 0.180813 0.157362
0.351403 0.180539 0.160378
0.400215 0.181198 0.162897
0.456388 0.182121 0.164325
0.516393 0.182397 0.164541
0.580409 0.182102 0.164086
0.646638 0.181888 0.165585
0.716704 0.183226 0.166675
0.790551 0.188452 0.165927
0.865939 0.198499 0.162655
0.942691 0.212075 0.156094
1.000000 0.229520 0.150118
0.237033 0.205118 0.163595
0.239263 0.205781 0.163913
0.245416 0.206649 0.164394
0.267817 0.210724 0.163397
0.322345 0.208627 0.150201
0.371685 0.202378 0.147737
0.423877 0.199931 0.144855
0.479959 0.198105 0.143679
0.535697 0.198281 0.149553
0.595811 0.198760 0.154634
0.660505 0.199533 0.157089
0.729396 0.202245 0.157536
0.800735 0.208582 0.155776
0.873410 0.218676 0.151032
0.947991 0.231583 0.142150
1.000000 0.248856 0.127596
0.273570 0.227433 0.174801
0.276579 0.228866 0.175305
0.281341 0.229941 0.175696
0.291386 0.232277 0.176439
0.321260 0.240108 0.174824
0.383062 0.242802 0.158505
0.440589 0.236572 0.150371
0.497766 0.230505 0.148008
0.557617 0.228595 0.144586
0.621962 0.226820 0.139427
0.684992 0.227854 0.139498
0.749552 0.231546 0.139410
0.818406 0.238995 0.135638
0.890025 0.249932 0.127525
0.963233 0.262350 0.113027
1.000000 0.277141 0.084980
0.309361 0.250889 0.186007
0.314580 0.253923 0.187033
0.318102 0.254814 0.187271
0.325725 0.256657 0.187783
0.338195 0.260038 0.188584
0.374670 0.271214 0.186007
0.440778 0.277494 0.168038
0.508019 0.275382 0.151253
0.571466 0.268540 0.145217
0.635993 0.266490 0.138161
0.702327 0.268315 0.128511
0.771371 0.272080 0.112282
0.840250 0.279216 0.092408
0.908068 0.289476 0.059547
0.977533 0.300285 0.001141
1.000000 0.313787 0.000000
0.346667 0.276658 0.195486
0.353500 0.281273 0.196939
0.356219 0.281845 0.197022
0.362178 0.283388 0.197419
0.372495 0.286534 0.198140
0.387097 0.291172 0.199563
0.431617 0.307019 0.195046
0.503184 0.317487 0.172835
0.579521 0.321315 0.145677
0.648898 0.319021 0.131977
0.718709 0.315788 0.117848
0.785250 0.321395 0.097243
0.855368 0.330242 0.022172
0.928535 0.340272 0.000000
0.997430 0.348520 0.000000
1.000000 0.358227 0.000000
0.380426 0.301689 0.202884
0.387342 0.306765 0.204434
0.389801 0.307470 0.204564
0.395380 0.309367 0.205002
0.405177 0.313120 0.205806
0.419513 0.318858 0.207047
0.438416 0.326642 0.209079
0.491912 0.348266 0.201720
0.568459 0.363983 0.174234
0.649100 0.374140 0.136456
0.723897 0.378320 0.101375
0.796594 0.380337 0.036429
0.869698 0.385131 0.000000
0.939669 0.395447 0.000000
0.998354 0.399777 0.000000
1.000000 0.405591 0.000000
0.413574 0.327831 0.209214
0.419121 0.332099 0.210414
0.421505 0.332996 0.210560
0.427031 0.335391 0.211033
0.436339 0.339613 0.211896
0.449952 0.346013 0.213138
0.468321 0.354894 0.214611
0.493263 0.367596 0.216971
0.555392 0.396239 0.205573
0.637542 0.419630 0.170333
0.719911 0.436670 0.116420
0.801237 0.449059 0.000000
0.876529 0.455776 0.000000
0.954223 0.458887 0.000000
1.000000 0.460335 0.000000
1.000000 0.463514 0.000000
0.449171 0.357574 0.214805
0.454394 0.361876 0.215738
0.456460 0.362682 0.215901
0.461802 0.365398 0.216307
0.471151 0.370479 0.216983
0.484615 0.377759 0.218064
0.502344 0.387497 0.219298
0.524185 0.399548 0.220508
0.555374 0.418621 0.222309
0.623472 0.454250 0.203901
0.706288 0.483577 0.157656
0.790491 0.507570 0.035240
0.877686 0.526265 0.000000
0.950972 0.530032 0.000000
0.999644 0.519774 0.000000
1.000000 0.511833 0.000000
0.488411 0.392432 0.217807
0.491646 0.395124 0.218155
0.493782 0.396240 0.218247
0.499406 0.399652 0.218448
0.508934 0.405548 0.219095
0.522759 0.414313 0.219730
0.541155 0.426178 0.220572
0.564025 0.441199 0.221097
0.591394 0.459590 0.221268
0.631488 0.490175 0.220963
0.701228 0.531029 0.192508
0.780899 0.561669 0.124019
0.867271 0.588458 0.000000
0.954656 0.604749 0.000000
1.000000 0.599018 0.000000
1.000000 0.590692 0.000000
0.525023 0.427258 0.215464
0.531701 0.433632 0.215990
0.531000 0.432026 0.215717
0.536597 0.435882 0.215777
0.548589 0.445086 0.216060
0.564569 0.457319 0.216281
0.583693 0.471756 0.215944
0.604900 0.487381 0.215181
0.628548 0.504638 0.213828
0.655889 0.525159 0.212337
0.700423 0.564843 0.209409
0.771470 0.607865 0.165577
0.849533 0.635908 0.006138
0.928463 0.652574 0.000000
0.996752 0.653817 0.000000
1.000000 0.650269 0.000000
0.586358 0.491664 0.206327
0.592333 0.498202 0.206111
0.589891 0.494518 0.206125
0.591872 0.494941 0.205766
0.599568 0.500691 0.205185
0.613904 0.512938 0.203940
0.634680 0.531640 0.202270
0.658864 0.553499 0.199738
0.684663 0.576400 0.196541
0.712198 0.600155 0.192497
0.741225 0.624457 0.189053
0.789863 0.670635 0.181925
0.862156 0.706716 0.080361
0.932972 0.720822 0.000000
0.996157 0.722767 0.000000
1.000000 0.721028 0.000000
0.631867 0.545428 0.183524
0.634707 0.548761 0.183089
0.631758 0.544191 0.183381
0.634992 0.546314 0.182703
0.644854 0.555644 0.180674
0.659248 0.569628 0.177707
0.676972 0.586708 0.173699
0.696774 0.605171 0.168490
0.719000 0.625404 0.161898
0.745566 0.649536 0.153098
0.777823 0.678792 0.140933
0.812497 0.707999 0.130953
0.865931 0.754163 0.116191
0.929091 0.772898 0.000000
0.983592 0.771116 0.000000
1.000000 0.770413 0.000000
0.723140 0.666999 0.105641
0.733583 0.681234 0.097014
0.731708 0.677619 0.098633
0.732790 0.676954 0.097469
0.738703 0.681708 0.090644
0.749508 0.691750 0.067750
0.765079 0.706364 0.033875
0.783716 0.723013 0.016847
0.805165 0.740937 0.007096
0.829604 0.759968 0.000000
0.858055 0.780923 0.000000
0.890710 0.804669 0.000000
0.921923 0.825848 0.000000
0.959875 0.853383 0.000000
0.999458 0.848810 0.000000
1.000000 0.838511 0.000000
0.803006 0.772946 0.000000
0.812125 0.783908 0.000000
0.809885 0.780215 0.000000
0.812418 0.781369 0.000000
0.820725 0.788254 0.000000
0.832151 0.797421 0.000000
0.845957 0.807816 0.000000
0.861857 0.819065 0.000000
0.880229 0.831998 0.000000
0.901878 0.847721 0.000000
0.926299 0.865660 0.000000
0.952367 0.883769 0.000000
0.978802 0.900359 0.000000
0.998914 0.910869 0.088386
1.000000 0.920586 0.197318
1.000000 0.904875 0.000000
0.187539 0.175039 0.161849
0.187549 0.175039 0.161798
0.203049 0.174576 0.163217
0.242850 0.175674 0.169121
0.285790 0.175995 0.170712
0.331682 0.176492 0.172292
0.382128 0.177124 0.173526
0.440710 0.177530 0.174236
0.500893 0.177408 0.175377
0.563028 0.176758 0.177885
0.628730 0.175594 0.179672
0.699858 0.175203 0.180666
0.775930 0.178661 0.180264
0.853093 0.187277 0.177914
0.931396 0.200333 0.172599
1.000000 0.217130 0.164260
0.187555 0.175039 0.161783
0.187532 0.175058 0.161828
0.207972 0.174834 0.163524
0.248749 0.175557 0.166112
0.289281 0.176284 0.167902
0.333954 0.177211 0.169770
0.383965 0.178094 0.171283
0.440999 0.178822 0.172311
0.500545 0.179131 0.174433
0.563141 0.178501 0.177052
0.629280 0.177499 0.178862
0.700873 0.177328 0.179798
0.775859 0.180766 0.179267
0.850963 0.189054 0.176738
0.924090 0.200757 0.171213
1.000000 0.218853 0.162621
0.203823 0.190439 0.162329
0.211138 0.189873 0.163011
0.225985 0.191417 0.162721
0.270926 0.186735 0.157673
0.312007 0.183550 0.157061
0.354064 0.183281 0.159163
0.403052 0.184703 0.163155
0.457038 0.186024 0.167551
0.513836 0.186410 0.170972
0.574710 0.186034 0.173622
0.639450 0.185463 0.175242
0.709567 0.186286 0.175856
0.784211 0.190832 0.174985
0.860093 0.200224 0.171824
0.937343 0.213368 0.165574
1.000000 0.229942 0.155637
0.239962 0.207226 0.170855
0.242323 0.207992 0.171150
0.248176 0.208891 0.171634
0.268360 0.212665 0.170841
0.321952 0.211417 0.159257
0.370952 0.205185 0.158037
0.422343 0.203199 0.157393
0.476530 0.201901 0.158373
0.530845 0.201791 0.162648
0.589879 0.201477 0.165438
0.653774 0.201692 0.166975
0.722751 0.203998 0.167154
0.794423 0.209725 0.165254
0.866832 0.219262 0.160844
0.938174 0.230724 0.152899
1.000000 0.248462 0.139472
0.276988 0.230068 0.182429
0.279954 0.231465 0.182897
0.284765 0.232605 0.183332
0.294288 0.234742 0.184061
0.322272 0.242030 0.182826
0.382872 0.244158 0.168345
0.439228 0.237748 0.161237
0.495356 0.231960 0.158489
0.554051 0.229757 0.155165
0.617069 0.227817 0.150533
0.678816 0.228502 0.150882
0.743993 0.232091 0.150232
0.813751 0.239439 0.146591
0.885804 0.250217 0.139306
0.959614 0.262695 0.126523
1.000000 0.277391 0.105319
0.311876 0.252921 0.191433
0.316976 0.256024 0.192482
0.320486 0.256797 0.192734
0.327947 0.258500 0.193246
0.340098 0.261839 0.194267
0.374841 0.272385 0.191898
0.439740 0.277775 0.174818
0.505366 0.275084 0.159652
0.567820 0.267813 0.153534
0.631202 0.265967 0.147261
0.697590 0.267545 0.138442
0.766891 0.271357 0.124099
0.835290 0.278483 0.109752
0.902927 0.288498 0.094419
0.966630 0.296913 0.048338
1.000000 0.312969 0.000000
0.348394 0.278287 0.199672
0.354865 0.282665 0.201287
0.357642 0.283297 0.201402
0.363564 0.284793 0.201822
0.373770 0.287835 0.202521
0.388269 0.292445 0.203934
0.431918 0.307881 0.199773
0.502595 0.317857 0.178479
0.577807 0.320938 0.153175
0.646048 0.318078 0.140740
0.715296 0.314811 0.127700
0.782197 0.320538 0.109987
0.852902 0.329569 0.061238
0.926335 0.339585 0.000000
0.997021 0.347983 0.000000
1.000000 0.358205 0.000000
0.381852 0.303096 0.206432
0.388740 0.308120 0.208098
0.391300 0.308921 0.208249
0.396835 0.310797 0.208568
0.406475 0.314462 0.209457
0.420414 0.319917 0.210593
0.438464 0.327088 0.212546
0.490897 0.348160 0.205778
0.566597 0.363240 0.179394
0.646690 0.372967 0.143939
0.721310 0.377003 0.113247
0.794148 0.378875 0.073358
0.866887 0.383855 0.000211
0.936281 0.393854 0.000000
0.994453 0.395847 0.000000
1.000000 0.404168 0.000000
0.415079 0.329332 0.212225
0.421042 0.333995 0.213623
0.423700 0.335061 0.213838
0.429185 0.337381 0.214270
0.438391 0.341603 0.215118
0.452010 0.347976 0.216422
0.470281 0.356750 0.217983
0.494583 0.369051 0.220376
0.555607 0.396898 0.209453
0.636787 0.419484 0.175448
0.718705 0.436076 0.125141
0.799965 0.448338 0.000455
0.875576 0.455105 0.000000
0.953385 0.458295 0.000000
1.000000 0.459911 0.000000
1.000000 0.465075 0.000000
0.450493 0.358920 0.217435
0.456625 0.364029 0.218655
0.458988 0.365118 0.218778
0.464255 0.367769 0.219178
0.473401 0.372598 0.219960
0.486421 0.379600 0.220952
0.503557 0.388758 0.222141
0.524855 0.400381 0.223347
0.555415 0.418991 0.225284
0.623040 0.454323 0.207701
0.705724 0.483517 0.163226
0.789772 0.507253 0.060251
0.876452 0.525444 0.000000
0.946454 0.526693 0.000000
0.999010 0.517689 0.000000
1.000000 0.512600 0.000000
0.490578 0.394726 0.220212
0.494541 0.398059 0.220786
0.497021 0.399498 0.220875
0.502626 0.402843 0.221217
0.512075 0.408716 0.221761
0.525835 0.417365 0.222476
0.543971 0.429108 0.223247
0.566294 0.443640 0.223972
0.592787 0.461262 0.224139
0.631839 0.490905 0.223958
0.701015 0.531304 0.196561
0.780669 0.561822 0.131566
0.867176 0.588640 0.000000
0.954370 0.604639 0.000000
1.000000 0.599791 0.000000
1.000000 0.593194 0.000000
0.530011 0.432331 0.217822
0.540138 0.442369 0.218667
0.542114 0.443440 0.218682
0.547557 0.447140 0.218710
0.557321 0.454198 0.218785
0.570703 0.463906 0.218769
0.587766 0.476333 0.218428
0.608368 0.491363 0.217675
0.631194 0.507820 0.216458
0.657950 0.527741 0.215127
0.701864 0.566873 0.212556
0.771872 0.608784 0.170189
0.848537 0.635195 0.025395
0.926815 0.651248 0.000000
0.996400 0.653719 0.000000
1.000000 0.652054 0.000000
0.592616 0.498960 0.208242
0.598695 0.505780 0.208121
0.599497 0.505718 0.207933
0.602976 0.507803 0.207583
0.610424 0.513405 0.206953
0.624343 0.525410 0.205875
0.642549 0.541377 0.204305
0.663548 0.559541 0.202083
0.687038 0.579609 0.199277
0.713397 0.602005 0.195580
0.741970 0.625667 0.192462
0.790499 0.671708 0.186003
0.862635 0.707579 0.097440
0.933557 0.721664 0.000000
0.997075 0.724706 0.000000
1.000000 0.724071 0.000000
0.637680 0.552914 0.184849
0.644964 0.561944 0.183597
0.644021 0.559828 0.183657
0.647003 0.561663 0.182937
0.655108 0.568950 0.181347
0.667594 0.580526 0.178706
0.683218 0.595067 0.175134
0.701523 0.611592 0.170467
0.722809 0.630613 0.164334
0.748965 0.654179 0.155930
0.780918 0.682905 0.144774
0.814649 0.710768 0.136224
0.866550 0.755079 0.123910
0.928896 0.772994 0.000000
0.983882 0.771625 0.000000
1.000000 0.771682 0.000000
0.728602 0.674845 0.106171
0.736404 0.685424 0.100296
0.737561 0.685903 0.099253
0.741089 0.688644 0.096148
0.747682 0.694264 0.087284
0.757984 0.703429 0.066722
0.772189 0.715974 0.035928
0.788933 0.729925 0.017838
0.808281 0.744990 0.010236
0.831167 0.762021 0.000587
0.858945 0.782176 0.000000
0.891415 0.805632 0.000000
0.922438 0.826637 0.000000
0.960271 0.854066 0.000000
0.999637 0.850211 0.000000
1.000000 0.840549 0.000000
0.808182 0.779580 0.000000
0.820587 0.794390 0.000000
0.820155 0.792880 0.000000
0.822455 0.793656 0.000000
0.828963 0.798282 0.000000
0.838389 0.804959 0.000000
0.850370 0.813132 0.000000
0.864973 0.822922 0.000000
0.882729 0.835001 0.000000
0.903906 0.850193 0.000000
0.927886 0.867594 0.000000
0.953304 0.884910 0.000000
0.979140 0.900813 0.000000
0.998914 0.910914 0.088544
1.000000 0.920646 0.197644
1.000000 0.905040 0.000000
0.169314 0.186465 0.201541
0.169434 0.187201 0.201162
0.201668 0.178819 0.201274
0.254252 0.176758 0.195595
0.284775 0.188026 0.196222
0.321361 0.199088 0.205404
0.375698 0.199282 0.208346
0.433045 0.198273 0.209647
0.492121 0.196729 0.210431
0.554785 0.194790 0.211139
0.621375 0.192654 0.211759
0.693660 0.191559 0.211772
0.770839 0.193649 0.211049
0.848828 0.200975 0.208889
0.927785 0.212500 0.204411
1.000000 0.228464 0.198373
0.166651 0.191314 0.199390
0.170489 0.191994 0.200053
0.206473 0.183729 0.199851
0.253594 0.182987 0.195110
0.283145 0.193477 0.198310
0.323218 0.200029 0.204962
0.376664 0.199589 0.206848
0.432996 0.198782 0.208166
0.492419 0.197637 0.209268
0.554983 0.195907 0.210099
0.621930 0.194010 0.210741
0.694493 0.193045 0.210845
0.770538 0.195294 0.209905
0.846467 0.202156 0.207512
0.919651 0.212013 0.202413
1.000000 0.229654 0.196560
0.189620 0.204864 0.200710
0.199221 0.204712 0.200756
0.227505 0.202717 0.199511
0.260577 0.202254 0.199371
0.297179 0.203521 0.201226
0.342609 0.203687 0.202587
0.393564 0.203809 0.204188
0.447590 0.203416 0.205253
0.504980 0.202530 0.206185
0.566392 0.201257 0.207012
0.632023 0.199947 0.207421
0.703434 0.200103 0.207271
0.779169 0.203701 0.206292
0.855870 0.211928 0.203560
0.933814 0.223883 0.198467
1.000000 0.239907 0.191262
0.228794 0.220995 0.197465
0.235943 0.221025 0.198649
0.256207 0.218078 0.200330
0.272803 0.220446 0.201020
0.320436 0.218784 0.195932
0.366905 0.215847 0.195206
0.416000 0.214713 0.195639
0.467226 0.214109 0.196996
0.522039 0.213427 0.198173
0.581761 0.212757 0.199116
0.646585 0.212707 0.199621
0.716687 0.214453 0.199251
0.789313 0.219599 0.197567
0.862535 0.228365 0.193832
0.934195 0.238741 0.187118
1.000000 0.256435 0.178331
0.281534 0.239942 0.205715
0.286610 0.240797 0.206851
0.293503 0.240324 0.207262
0.302385 0.242196 0.208030
0.325067 0.247783 0.207872
0.382319 0.248623 0.197043
0.436346 0.241249 0.191258
0.490925 0.237739 0.189156
0.549586 0.235612 0.186649
0.609814 0.234407 0.185420
0.671677 0.235432 0.185815
0.738340 0.238953 0.184974
0.809126 0.246113 0.182261
0.881919 0.256579 0.176834
0.956381 0.268619 0.167778
1.000000 0.283269 0.154747
0.317534 0.258323 0.209708
0.322627 0.261536 0.211575
0.326113 0.262247 0.211782
0.333371 0.264059 0.212486
0.345400 0.267295 0.213686
0.376129 0.276683 0.212833
0.439517 0.281085 0.198244
0.502968 0.276990 0.186785
0.565231 0.269345 0.180513
0.627681 0.269112 0.176376
0.694600 0.270701 0.169924
0.764143 0.274327 0.160202
0.830828 0.282014 0.154888
0.899193 0.291988 0.145865
0.963430 0.300299 0.131477
1.000000 0.316972 0.106441
0.352050 0.282337 0.214901
0.358351 0.286621 0.216932
0.361093 0.287269 0.217137
0.367138 0.288850 0.217585
0.377351 0.292030 0.218560
0.392322 0.297049 0.220249
0.432505 0.311210 0.217825
0.502292 0.320374 0.199392
0.576324 0.322294 0.179304
0.644099 0.318421 0.169091
0.712756 0.316075 0.159049
0.780109 0.322252 0.147284
0.851331 0.331151 0.126962
0.925127 0.340867 0.081966
0.995370 0.349534 0.009053
1.000000 0.359830 0.000000
0.384573 0.306374 0.219177
0.391234 0.311338 0.221143
0.393868 0.312189 0.221353
0.399561 0.314143 0.221904
0.409263 0.317909 0.222988
0.423209 0.323492 0.224481
0.441196 0.330677 0.226712
0.491246 0.350884 0.221680
0.566322 0.365266 0.198483
0.646370 0.374354 0.169408
0.720178 0.377437 0.147794
0.793515 0.378667 0.126513
0.865366 0.384805 0.092147
0.935022 0.394550 0.006603
0.993721 0.396296 0.000000
1.000000 0.404940 0.000000
0.417283 0.332203 0.223382
0.423159 0.336782 0.224885
0.425753 0.337855 0.225115
0.431256 0.340238 0.225707
0.440669 0.344570 0.226780
0.454379 0.351153 0.228424
0.472747 0.360025 0.230359
0.496478 0.371941 0.233163
0.555827 0.399350 0.224379
0.636574 0.421347 0.194397
0.718626 0.437474 0.153833
0.799323 0.448814 0.094518
0.875437 0.455172 0.003793
0.953351 0.458068 0.000000
1.000000 0.460198 0.000000
1.000000 0.464887 0.000000
0.452329 0.361438 0.227252
0.458382 0.366577 0.228671
0.460790 0.367680 0.228869
0.466122 0.370366 0.229370
0.475296 0.375272 0.230314
0.488314 0.382289 0.231585
0.505377 0.391508 0.233115
0.526726 0.403266 0.234778
0.556365 0.421142 0.237113
0.623317 0.456687 0.222270
0.705821 0.485518 0.183327
0.790055 0.508794 0.118503
0.876487 0.526153 0.000000
0.946111 0.526507 0.000000
0.999052 0.517221 0.000000
1.000000 0.512380 0.000000
0.492067 0.396869 0.229148
0.496034 0.400415 0.229864
0.498459 0.401790 0.230039
0.504107 0.405160 0.230483
0.513728 0.411264 0.231245
0.527569 0.420111 0.232236
0.545782 0.431928 0.233417
0.568075 0.446492 0.234503
0.594446 0.464120 0.235267
0.632513 0.492905 0.236041
0.701191 0.533422 0.212234
0.780863 0.563716 0.157583
0.867642 0.590217 0.000769
0.954955 0.605600 0.000000
1.000000 0.599815 0.000000
1.000000 0.592480 0.000000
0.531722 0.435013 0.226183
0.541430 0.444620 0.227184
0.543633 0.445924 0.227217
0.549055 0.449636 0.227394
0.558619 0.456584 0.227640
0.571901 0.466252 0.227850
0.588874 0.478569 0.227865
0.609412 0.493608 0.227696
0.632119 0.509999 0.227064
0.659302 0.530463 0.226408
0.702715 0.569160 0.225322
0.772295 0.611096 0.188895
0.848774 0.636864 0.089531
0.927153 0.652414 0.000000
0.996608 0.654515 0.000000
1.000000 0.652206 0.000000
0.591897 0.499180 0.216624
0.598422 0.506532 0.216655
0.598989 0.506141 0.216470
0.602467 0.508279 0.216220
0.610981 0.515120 0.215779
0.625707 0.528052 0.215134
0.643836 0.544029 0.214092
0.664330 0.561629 0.212674
0.687719 0.581621 0.210690
0.714012 0.603904 0.208122
0.742911 0.628069 0.206116
0.790957 0.673529 0.202374
0.862906 0.709428 0.137757
0.933774 0.723142 0.000000
0.997164 0.725637 0.000000
1.000000 0.724249 0.000000
0.637791 0.554116 0.193439
0.645125 0.563211 0.192656
0.644345 0.561305 0.192572
0.647475 0.563284 0.192012
0.655709 0.570770 0.190665
0.668242 0.582503 0.188509
0.683910 0.597010 0.185624
0.702033 0.613332 0.181903
0.723401 0.632413 0.177036
0.749811 0.656305 0.170563
0.782095 0.685384 0.162269
0.815685 0.713005 0.156916
0.867018 0.756595 0.150179
0.928975 0.774320 0.000000
0.984067 0.772736 0.000000
1.000000 0.772568 0.000000
0.726975 0.673835 0.125130
0.735173 0.684919 0.120962
0.736374 0.685493 0.120159
0.740042 0.688340 0.118007
0.746856 0.694313 0.113772
0.757653 0.704085 0.106384
0.771904 0.716701 0.095475
0.788595 0.730526 0.070853
0.807839 0.745431 0.034915
0.830935 0.762683 0.017183
0.859353 0.783467 0.008762
0.891997 0.807162 0.001896
0.922908 0.828045 0.005576
0.960282 0.855036 0.021206
0.999584 0.851060 0.000000
1.000000 0.840961 0.000000
0.807547 0.779824 0.000000
0.819831 0.794555 0.000000
0.819515 0.793173 0.000000
0.821855 0.793980 0.000000
0.828253 0.798437 0.000000
0.837534 0.804990 0.000000
0.849534 0.813083 0.000000
0.864259 0.823031 0.000000
0.882275 0.835370 0.000000
0.904002 0.850767 0.000000
0.928173 0.868272 0.000000
0.953524 0.885503 0.000000
0.979325 0.901322 0.000000
0.998901 0.911144 0.087969
1.000000 0.921147 0.200055
1.000000 0.905589 0.001599
0.138228 0.214890 0.245334
0.150136 0.213582 0.245425
0.188962 0.207301 0.245556
0.236865 0.193738 0.244569
0.293961 0.191305 0.236474
0.336333 0.194187 0.232169
0.373034 0.211076 0.238535
0.415132 0.227241 0.251093
0.473291 0.228773 0.255800
0.537549 0.225449 0.256367
0.606049 0.222165 0.256626
0.680653 0.219925 0.256773
0.760171 0.220631 0.256534
0.839804 0.225958 0.255127
0.920165 0.235391 0.252046
1.000000 0.250285 0.248582
0.149579 0.215052 0.241693
0.158737 0.215727 0.243378
0.194273 0.210195 0.243297
0.239048 0.197527 0.242418
0.293682 0.195251 0.235476
0.335011 0.198669 0.232177
0.371084 0.214666 0.239249
0.414533 0.228994 0.251236
0.474064 0.228862 0.254743
0.538176 0.225615 0.255192
0.607017 0.222705 0.255637
0.681463 0.220732 0.255792
0.759585 0.221503 0.255291
0.837269 0.226410 0.253520
0.911164 0.233609 0.249082
1.000000 0.250756 0.246932
0.183302 0.225914 0.244727
0.191392 0.225862 0.244812
0.216342 0.223883 0.243280
0.253154 0.212967 0.241973
0.302337 0.210264 0.237806
0.338921 0.217016 0.238025
0.376101 0.230109 0.247258
0.427329 0.233049 0.252039
0.486320 0.230704 0.252579
0.549444 0.228333 0.252846
0.616912 0.226218 0.253035
0.690642 0.225419 0.253006
0.768629 0.227699 0.252509
0.846970 0.234300 0.250812
0.926295 0.244368 0.247198
1.000000 0.259613 0.243231
0.217554 0.237449 0.241194
0.223434 0.238182 0.242313
0.242892 0.236802 0.241287
0.274340 0.234087 0.239521
0.310359 0.233000 0.239182
0.348133 0.236689 0.242770
0.395872 0.236630 0.244256
0.447943 0.236265 0.245154
0.504188 0.235357 0.245590
0.565545 0.234431 0.246019
0.632127 0.234145 0.246330
0.704226 0.235274 0.246268
0.778830 0.239229 0.245111
0.853681 0.246635 0.242469
0.926061 0.255348 0.237048
1.000000 0.273173 0.233098
0.254569 0.260977 0.241639
0.260400 0.262714 0.242834
0.277799 0.260122 0.241060
0.308425 0.254163 0.241140
0.327802 0.256252 0.242412
0.378701 0.254668 0.236027
0.428150 0.250772 0.234199
0.480530 0.249880 0.234272
0.534973 0.249238 0.234727
0.593697 0.249288 0.235173
0.657248 0.250376 0.235273
0.726607 0.253851 0.234858
0.799390 0.260526 0.233334
0.873706 0.270260 0.229870
0.949503 0.281777 0.223882
1.000000 0.296457 0.216461
0.309056 0.275889 0.238614
0.316137 0.278686 0.241288
0.326742 0.275496 0.241149
0.340715 0.272432 0.241372
0.352625 0.275783 0.243095
0.377337 0.283592 0.244553
0.438648 0.286451 0.233553
0.498234 0.280028 0.225926
0.557648 0.275987 0.222755
0.620331 0.276533 0.220847
0.687813 0.278239 0.217240
0.753566 0.283145 0.215898
0.821543 0.290969 0.213043
0.891287 0.300797 0.207548
0.956487 0.308580 0.198001
1.000000 0.326556 0.187936
0.353841 0.292907 0.239977
0.360683 0.296446 0.242575
0.365765 0.294421 0.242402
0.372314 0.295550 0.243005
0.382720 0.298955 0.244469
0.397839 0.304281 0.246741
0.433039 0.316990 0.246840
0.501608 0.324871 0.232405
0.572409 0.324584 0.219381
0.640213 0.319244 0.210933
0.706868 0.320209 0.205540
0.775555 0.326750 0.198751
0.847748 0.335464 0.187137
0.920807 0.345272 0.171215
0.989753 0.354750 0.156146
1.000000 0.365186 0.135581
0.388818 0.312070 0.240924
0.395353 0.316975 0.243440
0.398033 0.317882 0.243754
0.403813 0.319968 0.244520
0.413642 0.323927 0.245969
0.427719 0.329642 0.248079
