assets/lut/editingcorpw Silken Shadow.cube
LUT_3D_SIZE 16
DOMAIN_MIN 0.0 0.0 0.0
DOMAIN_MAX 1.0 1.0 1.0
0.173678 0.201022 0.222873
0.174118 0.201223 0.223069
0.183511 0.204031 0.226682
0.197580 0.208218 0.231436
0.216104 0.212314 0.235923
0.241703 0.217166 0.241154
0.277195 0.223667 0.247782
0.323741 0.232352 0.256364
0.378686 0.243961 0.267668
0.438349 0.258665 0.283085
0.503593 0.276127 0.301762
0.575598 0.296806 0.324120
0.654816 0.321434 0.352068
0.738491 0.350072 0.386578
0.823606 0.382611 0.428265
0.908598 0.424781 0.482673
0.174362 0.201706 0.223703
0.174936 0.202032 0.223927
0.187622 0.204732 0.225548
0.201282 0.208666 0.230536
0.219730 0.212822 0.235191
0.245200 0.217765 0.240421
0.281059 0.224427 0.247138
0.327393 0.233314 0.255627
0.381143 0.245179 0.267486
0.440696 0.259902 0.282963
0.506182 0.277531 0.301665
0.578657 0.298343 0.324263
0.657245 0.322861 0.352181
0.740067 0.351192 0.386344
0.824350 0.383325 0.427715
0.909672 0.425672 0.482381
0.181405 0.208499 0.231004
0.181664 0.208600 0.231165
0.182951 0.209426 0.232192
0.207205 0.215262 0.230377
0.236037 0.218694 0.232419
0.263603 0.223484 0.238334
0.300580 0.230551 0.245838
0.346061 0.240207 0.255713
0.398890 0.252544 0.268534
0.458048 0.267627 0.284284
0.523125 0.285405 0.303190
0.594161 0.306153 0.325802
0.671782 0.330632 0.354133
0.753699 0.358809 0.388822
0.836320 0.390670 0.430711
0.917644 0.431843 0.484602
0.190231 0.216983 0.240366
0.190423 0.217109 0.240465
0.191252 0.217514 0.241083
0.193322 0.219038 0.243336
0.224524 0.230541 0.242298
0.288158 0.241996 0.237858
0.332436 0.248629 0.244668
0.378440 0.257608 0.255524
0.431153 0.269700 0.268973
0.490033 0.284703 0.285367
0.554961 0.302458 0.304991
0.624130 0.322867 0.328350
0.699024 0.346586 0.357187
0.777535 0.373372 0.392183
0.855817 0.403848 0.434122
0.932726 0.444441 0.488740
0.203269 0.229410 0.254172
0.203538 0.229825 0.254583
0.203844 0.229926 0.254484
0.206199 0.231461 0.256703
0.209688 0.234113 0.260667
0.249399 0.253354 0.262931
0.337484 0.277556 0.256034
0.432864 0.297244 0.252703
0.486050 0.306532 0.267914
0.544840 0.319419 0.285768
0.606183 0.334802 0.306718
0.671101 0.352686 0.331526
0.742169 0.374268 0.361934
0.816480 0.398833 0.398407
0.888145 0.427298 0.441573
0.954955 0.464753 0.495027
0.219242 0.245396 0.271733
0.220310 0.246403 0.272862
0.220206 0.246110 0.272398
0.222037 0.247154 0.273814
0.226175 0.250230 0.278191
0.231785 0.255009 0.284733
0.280046 0.282920 0.293400
0.387011 0.321489 0.287016
0.523833 0.360333 0.274503
0.617096 0.378412 0.281370
0.673182 0.386938 0.305852
0.733773 0.399432 0.334008
0.799179 0.415729 0.366851
0.864762 0.435468 0.405334
0.926012 0.459950 0.449470
0.982727 0.494179 0.503716
0.240537 0.266801 0.295640
0.242431 0.268622 0.297685
0.241935 0.268125 0.296927
0.241994 0.267626 0.296175
0.246747 0.271075 0.300980
0.253678 0.276524 0.308440
0.262227 0.284132 0.319088
0.316682 0.320181 0.336857
0.441564 0.374213 0.332378
0.593297 0.425118 0.320677
0.747292 0.460835 0.303813
0.809291 0.465309 0.334018
0.865875 0.473337 0.372027
0.920610 0.486731 0.414390
0.969523 0.505615 0.460952
1.000000 0.533837 0.514482
0.265788 0.292558 0.324779
0.267979 0.294847 0.327372
0.267515 0.294186 0.326487
0.266737 0.293148 0.324972
0.270211 0.295438 0.327988
0.278159 0.301732 0.336443
0.288221 0.310393 0.348271
0.300073 0.321512 0.363610
0.356851 0.364108 0.392516
0.498375 0.432904 0.390779
0.657185 0.491401 0.383240
0.815907 0.530892 0.373352
0.929777 0.546552 0.377352
0.972816 0.550836 0.423046
0.999626 0.557430 0.465770
1.000000 0.576043 0.515972
0.294639 0.322661 0.359405
0.296612 0.324667 0.361631
0.296071 0.324052 0.360756
0.295368 0.322969 0.359252
0.295501 0.322442 0.358303
0.303893 0.329326 0.367480
0.315099 0.338830 0.380265
0.328742 0.351073 0.396870
0.344285 0.366406 0.417780
0.402155 0.414854 0.458565
0.557525 0.497456 0.463527
0.723538 0.563227 0.464719
0.874843 0.605298 0.464238
0.987348 0.625579 0.460771
1.000000 0.628906 0.481580
1.000000 0.637654 0.530455
0.328014 0.358276 0.400647
0.330003 0.360307 0.403016
0.329342 0.359489 0.401823
0.328524 0.358380 0.400236
0.327816 0.356965 0.398175
0.333330 0.361377 0.403864
0.345274 0.371709 0.417500
0.359795 0.384783 0.434866
0.376879 0.400828 0.456302
0.396587 0.420562 0.482648
0.451655 0.473091 0.537731
0.619111 0.568009 0.550255
0.784104 0.638559 0.558882
0.913328 0.678165 0.560707
0.997432 0.688782 0.546399
1.000000 0.693276 0.536327
0.367681 0.401373 0.450660
0.369085 0.402881 0.452295
0.368420 0.402130 0.451191
0.367785 0.401093 0.449781
0.367065 0.399804 0.447810
0.367742 0.399573 0.447120
0.380761 0.411328 0.462208
0.397260 0.426099 0.481294
0.416846 0.444172 0.504650
0.439283 0.465748 0.532286
0.464149 0.490394 0.563500
0.518724 0.543707 0.620898
0.685719 0.643671 0.639509
0.836179 0.714192 0.651203
0.939739 0.746554 0.648841
1.000000 0.766873 0.649073
0.406696 0.444404 0.499608
0.412434 0.450586 0.506595
0.408744 0.446523 0.501828
0.408167 0.445667 0.500556
0.410003 0.447247 0.501862
0.411414 0.448072 0.502104
0.421468 0.456896 0.512761
0.438485 0.471947 0.531818
0.457281 0.488609 0.552870
0.479544 0.508709 0.577763
0.506273 0.533684 0.607459
0.536616 0.562554 0.640348
0.591155 0.614196 0.691548
0.736464 0.704085 0.709219
0.860027 0.761494 0.711463
0.954907 0.800260 0.718783
0.473951 0.516320 0.579443
0.479397 0.521870 0.585392
0.473739 0.515945 0.578878
0.469537 0.511383 0.573653
0.467487 0.508923 0.570512
0.468189 0.509032 0.570056
0.473284 0.513260 0.574127
0.495396 0.532901 0.596953
0.519007 0.553478 0.620412
0.544020 0.574991 0.644484
0.571618 0.599036 0.670417
0.602116 0.625995 0.698609
0.634688 0.655466 0.728503
0.681670 0.699142 0.770076
0.796468 0.773358 0.786242
0.903508 0.832059 0.798202
0.532537 0.576166 0.640809
0.535071 0.578578 0.643166
0.528672 0.572220 0.636718
0.526151 0.569556 0.633804
0.527439 0.570544 0.634420
0.529796 0.572509 0.635841
0.531753 0.573685 0.636340
0.544545 0.584088 0.647297
0.566455 0.602284 0.666717
0.592358 0.623904 0.689214
0.622919 0.649726 0.715383
0.655758 0.677716 0.743155
0.687338 0.704987 0.769844
0.713717 0.728298 0.792610
0.748120 0.759939 0.821891
0.844254 0.828611 0.846232
0.652900 0.690974 0.747414
0.663382 0.700407 0.755886
0.658791 0.696240 0.752024
0.654381 0.692124 0.748109
0.651973 0.689729 0.745632
0.651319 0.688783 0.744295
0.651833 0.688814 0.743732
0.654208 0.690004 0.744350
0.674416 0.705568 0.759847
0.696256 0.722427 0.776572
0.720180 0.741268 0.795053
0.746361 0.762543 0.815457
0.772544 0.784384 0.836038
0.795305 0.803918 0.854254
0.813262 0.819818 0.869090
0.840702 0.845389 0.891191
0.758663 0.785916 0.830564
0.764431 0.790939 0.834916
0.761605 0.788455 0.832688
0.760641 0.787540 0.831742
0.761990 0.788571 0.832382
0.763821 0.790005 0.833310
0.765725 0.791409 0.834073
0.766635 0.791751 0.833817
0.775455 0.798001 0.839683
0.791592 0.810111 0.851304
0.809598 0.824063 0.864469
0.827988 0.838718 0.878020
0.845677 0.853214 0.891160
0.861643 0.866593 0.903227
0.875932 0.879075 0.914250
0.890227 0.892088 0.925414
0.174270 0.201676 0.223996
0.174843 0.201465 0.224170
0.183346 0.204336 0.227553
0.196606 0.208809 0.232405
0.215526 0.212874 0.236778
0.241050 0.217868 0.242081
0.276137 0.224674 0.249207
0.320856 0.233768 0.258816
0.372917 0.245473 0.271160
0.431474 0.259682 0.286380
0.495961 0.276835 0.304711
0.567972 0.297101 0.326733
0.647531 0.321626 0.354469
0.731824 0.350129 0.388539
0.817604 0.382662 0.429897
0.902000 0.423554 0.482386
0.174848 0.202120 0.224254
0.175887 0.202793 0.225132
0.185689 0.205582 0.227843
0.199682 0.209331 0.232098
0.218314 0.213471 0.236437
0.243725 0.218667 0.241861
0.278867 0.225566 0.249119
0.323190 0.234742 0.258659
0.375455 0.246608 0.271088
0.434269 0.261016 0.286393
0.499097 0.278288 0.304823
0.571287 0.298680 0.326985
0.650112 0.323096 0.354605
0.733149 0.351135 0.388231
0.814071 0.381438 0.426881
0.902948 0.424352 0.482045
0.182760 0.209609 0.232453
0.182974 0.209761 0.232596
0.184505 0.210585 0.233469
0.208625 0.215828 0.232235
0.232556 0.219159 0.235777
0.259680 0.224288 0.241887
0.296087 0.231685 0.249666
0.341233 0.241412 0.259645
0.393195 0.253567 0.272256
0.451620 0.268384 0.287808
0.516045 0.285867 0.306427
0.587328 0.306425 0.328789
0.665514 0.330901 0.356856
0.747959 0.359049 0.391301
0.831327 0.391033 0.432938
0.912764 0.431624 0.485703
0.191707 0.218206 0.241942
0.191923 0.218360 0.242079
0.192590 0.218706 0.242539
0.194731 0.220353 0.244891
0.226692 0.231717 0.244045
0.287150 0.242091 0.240935
0.327314 0.248404 0.248978
0.372935 0.257656 0.259695
0.425061 0.269794 0.273027
0.483437 0.284647 0.289068
0.547932 0.302253 0.308345
0.617434 0.322693 0.331441
0.692728 0.346428 0.359982
0.771459 0.373249 0.394510
0.846945 0.402054 0.433784
0.927874 0.443881 0.489685
0.204861 0.230857 0.255904
0.205104 0.231361 0.256315
0.205357 0.231299 0.256216
0.207600 0.232692 0.258268
0.211084 0.235488 0.262255
0.251569 0.254672 0.264493
0.338841 0.278009 0.258306
0.426964 0.295546 0.257475
0.479569 0.305078 0.272441
0.537953 0.318241 0.289964
0.599403 0.333789 0.310565
0.664941 0.352030 0.335012
0.736886 0.374032 0.365144
0.811799 0.398891 0.401473
0.884382 0.427663 0.444345
0.951887 0.465205 0.497476
0.220773 0.246720 0.273484
0.221805 0.247794 0.274583
0.221658 0.247539 0.274142
0.223101 0.248303 0.275148
0.227517 0.251381 0.279529
0.232895 0.256095 0.286064
0.281710 0.284020 0.294548
0.387618 0.321701 0.288692
0.523280 0.359417 0.276983
0.609998 0.375870 0.286200
0.666785 0.384954 0.310118
0.727866 0.398159 0.337942
0.793777 0.414951 0.370389
0.859943 0.435047 0.408223
0.916000 0.455951 0.447069
0.979132 0.493715 0.505254
0.241963 0.268125 0.297348
0.243835 0.269864 0.299307
0.243357 0.269344 0.298541
0.243076 0.268674 0.297562
0.247814 0.271999 0.302171
0.254622 0.277459 0.309641
0.263331 0.285231 0.320364
0.318307 0.321387 0.337959
0.442562 0.374711 0.333804
0.593337 0.424745 0.322763
0.742685 0.459051 0.308686
0.804464 0.463972 0.338822
0.862035 0.472738 0.376396
0.917423 0.486576 0.418300
0.966824 0.505792 0.464394
1.000000 0.534550 0.517706
0.267244 0.293902 0.326514
0.269372 0.296177 0.329094
0.268901 0.295559 0.328195
0.268108 0.294473 0.326642
0.271132 0.296362 0.329158
0.279019 0.302545 0.337575
0.288930 0.311071 0.349166
0.300692 0.322089 0.364384
0.358038 0.364845 0.392896
0.498888 0.433048 0.391594
0.657214 0.491122 0.384878
0.815617 0.530418 0.375672
0.927116 0.545661 0.381574
0.969532 0.549989 0.426718
0.997099 0.553343 0.463977
1.000000 0.574925 0.517374
0.296104 0.324116 0.361187
0.298243 0.326333 0.363708
0.297823 0.325720 0.362874
0.297032 0.324608 0.361264
0.296799 0.323766 0.359939
0.305119 0.330590 0.369029
0.316315 0.340098 0.381807
0.329811 0.352258 0.398299
0.345223 0.367340 0.418924
0.403525 0.415908 0.459307
0.558459 0.498040 0.464501
0.724170 0.563500 0.466298
0.875225 0.605508 0.466549
0.987468 0.625802 0.463692
1.000000 0.628982 0.485864
1.000000 0.640689 0.537520
0.329473 0.359687 0.402382
0.331728 0.362231 0.405302
0.331216 0.361473 0.404330
0.330364 0.360259 0.402606
0.329385 0.358742 0.400321
0.334442 0.362566 0.405254
0.346194 0.372661 0.418674
0.360558 0.385517 0.435805
0.377542 0.401486 0.457196
0.397207 0.421251 0.483458
0.453214 0.474208 0.538418
0.620110 0.568740 0.551203
0.784499 0.638801 0.560020
0.910959 0.675390 0.558583
0.997197 0.687226 0.545853
1.000000 0.695078 0.541204
0.369873 0.403613 0.453358
0.371276 0.405238 0.455119
0.370805 0.404569 0.454199
0.370044 0.403502 0.452660
0.369139 0.402142 0.450526
0.369250 0.401324 0.449195
0.382413 0.412930 0.464219
0.398618 0.427575 0.483064
0.417888 0.445351 0.506006
0.440112 0.466613 0.533303
0.464827 0.491115 0.564343
0.519634 0.544676 0.621771
0.686971 0.644611 0.640442
0.836714 0.714621 0.652120
0.940755 0.747994 0.651339
1.000000 0.770651 0.655213
0.412179 0.450306 0.506424
0.421164 0.460007 0.517353
0.420077 0.458803 0.515823
0.419103 0.457515 0.514050
0.418323 0.456242 0.512155
0.417024 0.454106 0.509092
0.424945 0.460531 0.516973
0.441712 0.475289 0.535668
0.459913 0.491310 0.555924
0.481740 0.510913 0.580226
0.508222 0.535660 0.609557
0.537744 0.563654 0.641484
0.591163 0.614152 0.691388
0.735973 0.703357 0.708411
0.860384 0.761826 0.712063
0.956402 0.802736 0.722459
0.481278 0.523760 0.587559
0.486179 0.528736 0.592795
0.484107 0.526561 0.590398
0.481536 0.523694 0.587048
0.479105 0.520829 0.583516
0.479092 0.520315 0.582346
0.480981 0.521182 0.582739
0.499897 0.537449 0.601756
0.521388 0.555806 0.622826
0.545432 0.576431 0.645914
0.572680 0.600026 0.671405
0.603346 0.627131 0.699702
0.635799 0.656529 0.729470
0.683046 0.700429 0.771211
0.798987 0.775745 0.788441
0.906279 0.835556 0.802361
0.540021 0.583402 0.648038
0.547571 0.590803 0.655242
0.543331 0.586593 0.651008
0.540369 0.583526 0.647780
0.539599 0.582485 0.646373
0.539634 0.582141 0.645497
0.539216 0.580973 0.643660
0.549864 0.589301 0.652419
0.570803 0.606493 0.670773
0.596246 0.627638 0.692713
0.626424 0.652996 0.718413
0.658204 0.679990 0.745202
0.688415 0.705956 0.770728
0.714084 0.728605 0.792902
0.748980 0.760766 0.822591
0.845851 0.830128 0.847556
0.659671 0.697090 0.752967
0.665978 0.702705 0.757985
0.664947 0.701758 0.757054
0.663741 0.700553 0.755785
0.662169 0.698948 0.754000
0.660836 0.697451 0.752208
0.659783 0.696005 0.750288
0.659865 0.695179 0.749026
0.677629 0.708500 0.762493
0.697929 0.723948 0.777972
0.721193 0.742225 0.795932
0.747248 0.763314 0.816171
0.773256 0.785061 0.836612
0.796035 0.804587 0.854804
0.814588 0.821065 0.870102
0.842886 0.847429 0.892802
0.762692 0.789419 0.833665
0.770570 0.796306 0.839610
0.768953 0.794839 0.838270
0.767743 0.793756 0.837178
0.767832 0.793709 0.836901
0.768301 0.793924 0.836741
0.768983 0.794267 0.836600
0.769161 0.793991 0.835789
0.777359 0.799700 0.841163
0.793301 0.811623 0.852604
0.811063 0.825406 0.865592
0.829051 0.839695 0.878819
0.846222 0.853723 0.891600
0.861836 0.866813 0.903384
0.876137 0.879247 0.914391
0.890532 0.892363 0.925621
0.179873 0.207303 0.232602
0.180216 0.206933 0.232954
0.185118 0.205721 0.234318
0.199184 0.209372 0.238010
0.210657 0.216660 0.244100
0.228373 0.224363 0.252238
0.262077 0.231252 0.260734
0.304995 0.240082 0.271039
0.356123 0.251337 0.283706
0.414364 0.265265 0.299248
0.479017 0.282029 0.317845
0.551674 0.302010 0.340091
0.632706 0.326355 0.367829
0.718443 0.355093 0.401882
0.805921 0.388066 0.443010
0.892503 0.429786 0.495375
0.180959 0.208257 0.232972
0.181394 0.208208 0.233614
0.185849 0.207616 0.235073
0.198732 0.211452 0.238922
0.210022 0.218388 0.245179
0.231143 0.224880 0.252451
0.264685 0.231708 0.260674
0.307623 0.240697 0.270883
0.358973 0.252174 0.283747
0.417222 0.266284 0.299339
0.482118 0.283262 0.318058
0.554920 0.303370 0.340326
0.635225 0.327603 0.367909
0.719662 0.355908 0.401495
0.801547 0.386205 0.439245
0.893425 0.430425 0.494970
0.185171 0.212015 0.235589
0.186149 0.212790 0.236481
0.189417 0.214894 0.239236
0.201738 0.218272 0.242598
0.219697 0.222691 0.247470
0.245686 0.228534 0.253870
0.280585 0.236132 0.262094
0.324386 0.245779 0.272490
0.375824 0.257900 0.285422
0.434104 0.272542 0.301226
0.498761 0.289878 0.320022
0.571147 0.310410 0.342503
0.650752 0.335010 0.370579
0.734732 0.363593 0.404889
0.819889 0.396161 0.446248
0.903506 0.437697 0.498811
0.195766 0.221610 0.246268
0.196652 0.222386 0.247203
0.197511 0.223250 0.248031
0.200411 0.225176 0.250021
0.234776 0.234848 0.250204
0.273379 0.241147 0.254240
0.310247 0.248619 0.262920
0.355300 0.258743 0.273787
0.407101 0.271321 0.287195
0.465463 0.286566 0.303433
0.530345 0.304499 0.322722
0.601412 0.325276 0.345778
0.678162 0.349544 0.374178
0.758479 0.377051 0.408439
0.835282 0.406265 0.446885
0.918993 0.449599 0.502977
0.210218 0.235697 0.262032
0.210660 0.236197 0.262513
0.210542 0.236067 0.262156
0.212040 0.236890 0.263324
0.215836 0.239923 0.267589
0.259883 0.259126 0.269910
0.344699 0.279407 0.266658
0.407683 0.290949 0.274234
0.460452 0.302156 0.288900
0.518997 0.316520 0.306225
0.582052 0.333302 0.326406
0.649304 0.352810 0.350638
0.722886 0.375924 0.380445
0.799566 0.401949 0.416303
0.874091 0.431800 0.458672
0.943576 0.470598 0.511249
0.225846 0.251322 0.279277
0.226927 0.252492 0.280556
0.226709 0.252097 0.280003
0.227036 0.252035 0.279798
0.231538 0.255302 0.284294
0.237326 0.260203 0.291124
0.289682 0.289112 0.299531
0.394873 0.324668 0.296021
0.527322 0.359319 0.288039
0.591894 0.370276 0.305656
0.650239 0.381781 0.328539
0.713021 0.396958 0.355370
0.780564 0.415463 0.387077
0.848694 0.437098 0.424085
0.906428 0.459070 0.461767
0.972113 0.499111 0.520141
0.246790 0.272579 0.303058
0.248559 0.274365 0.305114
0.248130 0.273761 0.304241
0.247426 0.272822 0.302823
0.251285 0.275444 0.306409
0.258446 0.281085 0.314181
0.267377 0.289267 0.325337
0.326022 0.326781 0.342455
0.449686 0.378468 0.340607
0.599311 0.426365 0.332500
0.731224 0.454790 0.328885
0.790982 0.461244 0.359344
0.850475 0.472228 0.395413
0.907754 0.487982 0.436079
0.958707 0.508843 0.480887
1.000000 0.538755 0.532350
0.271685 0.298258 0.332166
0.274033 0.300476 0.334773
0.273503 0.299861 0.333861
0.272667 0.298747 0.332251
0.274068 0.299362 0.332946
0.282133 0.305759 0.341596
0.292331 0.314461 0.353444
0.304350 0.325884 0.369097
0.365381 0.370311 0.397024
0.505729 0.437301 0.397856
0.662953 0.493671 0.393901
0.820171 0.531507 0.387811
0.918736 0.544736 0.402776
0.961334 0.550752 0.446497
0.991465 0.555585 0.481596
1.000000 0.579436 0.533985
0.300533 0.328365 0.366814
0.302611 0.330602 0.369362
0.302082 0.329974 0.368428
0.301253 0.328784 0.366767
0.300299 0.327257 0.364526
0.307851 0.333384 0.372628
0.319330 0.343110 0.385685
0.333033 0.355542 0.402466
0.348634 0.370907 0.423407
0.410382 0.421337 0.463462
0.564816 0.502449 0.470476
0.729462 0.566588 0.474766
0.878677 0.607730 0.477618
0.988804 0.627816 0.477914
1.000000 0.631149 0.505328
1.000000 0.643686 0.553518
0.333698 0.363841 0.407900
0.336022 0.366413 0.410866
0.335478 0.365680 0.409872
0.334608 0.364414 0.408104
0.333423 0.362796 0.405734
0.336770 0.364986 0.408483
0.348644 0.375267 0.422046
0.363241 0.388365 0.439430
0.380523 0.404644 0.461115
0.400559 0.424807 0.487899
0.460343 0.479855 0.542196
0.626210 0.573162 0.556488
0.788858 0.642065 0.566960
0.913177 0.677676 0.566676
0.997423 0.689570 0.555706
1.000000 0.697847 0.553664
0.373925 0.407788 0.458747
0.375409 0.409467 0.460653
0.374891 0.408711 0.459680
0.374166 0.407641 0.458061
0.373237 0.406213 0.455949
0.372155 0.404230 0.453004
0.384688 0.415439 0.467314
0.401091 0.430191 0.486400
0.420579 0.448161 0.509499
0.443103 0.469675 0.537019
0.468123 0.494533 0.568310
0.524374 0.549115 0.626049
0.692515 0.648828 0.644554
0.840105 0.717730 0.657384
0.942478 0.750295 0.657314
1.000000 0.772530 0.661518
0.417002 0.455243 0.512605
0.425415 0.464264 0.522830
0.424566 0.463319 0.521547
0.423526 0.461928 0.519702
0.422527 0.460475 0.517524
0.420950 0.458164 0.514200
0.426744 0.462535 0.519521
0.443723 0.477375 0.538295
0.461998 0.493460 0.558580
0.484219 0.513490 0.583217
0.511405 0.538779 0.613041
0.541241 0.567086 0.645021
0.595764 0.618191 0.694678
0.740432 0.706839 0.711440
0.863258 0.764472 0.715962
0.957957 0.804971 0.727060
0.484038 0.526305 0.590795
0.489653 0.532043 0.596835
0.487209 0.529464 0.593974
0.484476 0.526470 0.590531
0.482970 0.524578 0.588078
0.483624 0.524731 0.587595
0.483939 0.524130 0.586245
0.501661 0.539261 0.603877
0.523338 0.557747 0.625033
0.547532 0.578403 0.648088
0.575073 0.602320 0.673750
0.606179 0.629807 0.702291
0.638887 0.659403 0.732146
0.686503 0.703635 0.774054
0.802378 0.778473 0.790622
0.908026 0.837168 0.804476
0.543685 0.586793 0.651757
0.551405 0.594300 0.659059
0.547290 0.590215 0.654972
0.544367 0.587260 0.651821
0.543657 0.586280 0.650504
0.543721 0.585915 0.649619
0.543084 0.584627 0.647638
0.551485 0.590931 0.654181
0.572591 0.608251 0.672588
0.598415 0.629704 0.694802
0.629022 0.655411 0.720742
0.660866 0.682400 0.747485
0.690880 0.708219 0.772785
0.716422 0.730787 0.794842
0.751595 0.763160 0.824649
0.848633 0.832462 0.849217
0.661543 0.698570 0.754607
0.668436 0.704773 0.760161
0.667445 0.703863 0.759228
0.666210 0.702624 0.757921
0.664713 0.701061 0.756213
0.663750 0.699903 0.754709
0.662631 0.698431 0.752761
0.661481 0.696632 0.750527
0.678328 0.709178 0.763187
0.698908 0.724831 0.778830
0.722745 0.743629 0.797211
0.748978 0.764905 0.817594
0.774974 0.786637 0.838013
0.797652 0.806078 0.856086
0.816096 0.822418 0.871243
0.844174 0.848623 0.893757
0.764657 0.791031 0.835239
0.772451 0.797863 0.841117
0.770875 0.796460 0.839846
0.769668 0.795347 0.838744
0.769675 0.795230 0.838397
0.769943 0.795310 0.838114
0.770553 0.795556 0.837892
0.770626 0.795242 0.837057
0.777825 0.800218 0.841617
0.794012 0.812344 0.853247
0.812021 0.826285 0.866349
0.830027 0.840620 0.879592
0.847195 0.854594 0.892338
0.862795 0.867686 0.904093
0.877093 0.880146 0.915105
0.891520 0.893309 0.926336
0.186722 0.213815 0.243943
0.186946 0.213593 0.244356
0.189688 0.212993 0.246068
0.198975 0.212205 0.248621
0.219798 0.215820 0.254192
0.239054 0.224729 0.261229
0.257497 0.235845 0.271190
0.280890 0.247705 0.283769
0.326202 0.259399 0.298634
0.383155 0.272812 0.315543
0.447376 0.289110 0.335296
0.520180 0.308807 0.358665
0.603599 0.333034 0.387352
0.691825 0.362184 0.422056
0.782302 0.396240 0.463636
0.873216 0.439729 0.516283
0.187769 0.214940 0.244290
0.188157 0.215037 0.244930
0.190621 0.214590 0.246664
0.199618 0.213998 0.249288
0.219811 0.217753 0.254872
0.238222 0.226426 0.261841
0.256275 0.237141 0.271810
0.281433 0.248610 0.284241
0.329126 0.260030 0.299030
0.386115 0.273528 0.315831
0.450547 0.290091 0.335706
0.523437 0.309907 0.359090
0.605998 0.334067 0.387466
0.693067 0.362742 0.421637
0.777092 0.393499 0.458884
0.874188 0.440205 0.515874
0.193493 0.220545 0.247403
0.194253 0.221168 0.248419
0.196091 0.221754 0.250720
0.202939 0.220901 0.252991
0.221499 0.225271 0.258704
0.237156 0.233513 0.265877
0.257547 0.243027 0.275843
0.295080 0.252654 0.287743
0.344822 0.264183 0.301826
0.402143 0.278467 0.318737
0.466555 0.295521 0.338539
0.539729 0.315953 0.362020
0.621801 0.340769 0.390894
0.708410 0.370094 0.425763
0.796796 0.403987 0.467378
0.884721 0.447392 0.520199
0.198934 0.225437 0.251088
0.199847 0.226121 0.251980
0.202625 0.228308 0.254457
0.207860 0.231282 0.258450
0.224077 0.236064 0.263589
0.247966 0.242422 0.270820
0.281892 0.250724 0.280077
0.324484 0.261146 0.291692
0.374991 0.273986 0.305940
0.432733 0.289436 0.323007
0.497493 0.307606 0.343149
0.570317 0.328781 0.366894
0.649561 0.353826 0.395736
0.732596 0.382578 0.430250
0.812001 0.412748 0.467943
0.901136 0.458957 0.524993
0.214454 0.239011 0.266557
0.215526 0.240125 0.267842
0.217670 0.242200 0.270212
0.219241 0.243714 0.271630
0.224131 0.247250 0.275639
0.274610 0.264032 0.278458
0.329477 0.274745 0.284786
0.374562 0.284799 0.297074
0.426336 0.297982 0.311983
0.484454 0.313833 0.329558
0.548854 0.332022 0.349904
0.618891 0.353333 0.374405
0.695200 0.378260 0.404369
0.774857 0.406414 0.440157
0.853228 0.438436 0.482248
0.926914 0.479396 0.534161
0.233774 0.258384 0.288487
0.235426 0.260001 0.290296
0.235623 0.260323 0.290483
0.235073 0.259635 0.289368
0.238000 0.261584 0.291980
0.244327 0.266984 0.299327
0.304509 0.297075 0.307597
0.409469 0.328152 0.308116
0.498781 0.347958 0.315892
0.557482 0.360615 0.335018
0.618226 0.375702 0.357049
0.683839 0.394072 0.383136
0.754228 0.415705 0.414202
0.825829 0.440119 0.450488
0.886832 0.464024 0.486419
0.957311 0.507549 0.544689
0.255747 0.280842 0.313742
0.257632 0.282713 0.315904
0.257036 0.281990 0.314992
0.255976 0.280950 0.313332
0.256984 0.281192 0.313581
0.264692 0.287291 0.321845
0.274458 0.296236 0.333952
0.340315 0.336115 0.350373
0.463636 0.384494 0.352428
0.611703 0.428161 0.349450
0.703987 0.445322 0.363146
0.764030 0.455812 0.392844
0.827084 0.470836 0.427160
0.888054 0.490194 0.466228
0.942167 0.514130 0.509221
0.990532 0.545629 0.557082
0.280479 0.306469 0.342994
0.282794 0.308850 0.345741
0.282176 0.308156 0.344759
0.281200 0.306930 0.342980
0.280134 0.305410 0.340706
0.287648 0.311297 0.348617
