assets/lut/editingcorpw Toasted Champagne.cube
LUT_3D_SIZE 16
DOMAIN_MIN 0.0 0.0 0.0
DOMAIN_MAX 1.0 1.0 1.0
0.109377 0.098329 0.131472
0.123952 0.098097 0.131594
0.175558 0.097530 0.133364
0.243473 0.095381 0.136055
0.309826 0.091377 0.139382
0.375952 0.083589 0.143313
0.445961 0.059028 0.147176
0.519841 0.028070 0.152724
0.592175 0.000000 0.159945
0.663759 0.000000 0.166537
0.734890 0.000000 0.173678
0.806333 0.000000 0.180087
0.880522 0.000000 0.185775
0.953057 0.000000 0.191281
1.000000 0.000000 0.197030
1.000000 0.000000 0.206485
0.117843 0.108351 0.133974
0.127696 0.108806 0.133860
0.173040 0.114562 0.135334
0.239492 0.113689 0.137927
0.305889 0.109972 0.140941
0.372357 0.104067 0.144393
0.443207 0.094821 0.148311
0.516455 0.080149 0.153893
0.588421 0.049846 0.160973
0.660294 0.012079 0.168008
0.732339 0.001001 0.174331
0.804984 0.000000 0.180497
0.878802 0.000000 0.186267
0.950363 0.000000 0.191596
1.000000 0.000000 0.197184
1.000000 0.000000 0.206412
0.149703 0.146682 0.144424
0.164605 0.145439 0.145330
0.189753 0.147438 0.143547
0.240834 0.157847 0.144754
0.304876 0.159574 0.147923
0.373492 0.155001 0.150753
0.447360 0.150863 0.154820
0.519948 0.145319 0.160704
0.591399 0.139023 0.166915
0.662694 0.131649 0.173149
0.733822 0.123146 0.178823
0.805419 0.114183 0.184383
0.879506 0.106945 0.189344
0.951917 0.102776 0.194307
1.000000 0.106134 0.199605
1.000000 0.121755 0.208151
0.186715 0.187942 0.158541
0.197767 0.187409 0.159172
0.227993 0.181852 0.160563
0.257630 0.191644 0.157441
0.315105 0.206717 0.156154
0.373559 0.216385 0.165548
0.444607 0.215922 0.169457
0.516774 0.213242 0.173649
0.588104 0.210069 0.177941
0.659504 0.206513 0.182691
0.731685 0.202927 0.187039
0.804387 0.200101 0.191033
0.878176 0.198037 0.194897
0.949377 0.197338 0.198770
1.000000 0.198564 0.203319
1.000000 0.206516 0.211740
0.231809 0.237076 0.178530
0.241496 0.238115 0.179373
0.266853 0.231994 0.180091
0.299046 0.229047 0.180951
0.337986 0.245850 0.178784
0.402051 0.268254 0.174551
0.456378 0.276530 0.185371
0.516345 0.285014 0.193427
0.588240 0.283416 0.194943
0.660151 0.281448 0.196823
0.731625 0.279875 0.198806
0.803924 0.278548 0.200833
0.878182 0.278640 0.203225
0.950078 0.279343 0.206042
1.000000 0.280411 0.209559
1.000000 0.284721 0.216813
0.270481 0.279332 0.196139
0.280485 0.283079 0.197830
0.299522 0.277037 0.197763
0.329283 0.266093 0.197702
0.361023 0.272465 0.198080
0.406928 0.295293 0.197147
0.481324 0.330602 0.190652
0.535534 0.338195 0.200247
0.589563 0.350225 0.211539
0.655695 0.355541 0.214060
0.728511 0.355169 0.213596
0.802585 0.355938 0.213455
0.876719 0.356994 0.213675
0.947204 0.357537 0.214896
1.000000 0.357733 0.217099
1.000000 0.361181 0.223606
0.308916 0.322002 0.211801
0.319031 0.327853 0.214397
0.333066 0.321802 0.213885
0.356697 0.310709 0.212835
0.383664 0.296723 0.212324
0.421876 0.317302 0.213877
0.475048 0.347050 0.213516
0.554844 0.390705 0.206892
0.618752 0.406334 0.209666
0.672535 0.417310 0.222143
0.727352 0.431024 0.229611
0.800604 0.433719 0.227903
0.875335 0.435823 0.226344
0.946558 0.437216 0.226025
0.999839 0.436707 0.227338
1.000000 0.437391 0.233170
0.341741 0.360131 0.224033
0.350392 0.366002 0.226236
0.361436 0.360542 0.225575
0.380803 0.350746 0.224710
0.405349 0.336790 0.223352
0.433265 0.332555 0.223789
0.480749 0.362783 0.226536
0.542095 0.400408 0.226698
0.626630 0.451127 0.219664
0.701945 0.477933 0.215360
0.754757 0.487129 0.226908
0.810834 0.501857 0.235966
0.872699 0.515001 0.239853
0.941872 0.515599 0.238086
0.998442 0.512453 0.237748
1.000000 0.511571 0.242246
0.371783 0.396722 0.233646
0.378364 0.401017 0.235053
0.387243 0.396386 0.234542
0.403456 0.387819 0.233816
0.424875 0.375134 0.232566
0.447773 0.358441 0.230882
0.483134 0.371572 0.233394
0.538681 0.409160 0.236488
0.608899 0.455197 0.236519
0.696526 0.510815 0.230168
0.786404 0.553772 0.219370
0.839929 0.562420 0.228253
0.893491 0.575322 0.240313
0.945649 0.590128 0.249405
0.997942 0.593362 0.253066
1.000000 0.589965 0.257975
0.402295 0.435059 0.241520
0.407981 0.439020 0.242620
0.415053 0.434407 0.242113
0.428708 0.426569 0.241346
0.447683 0.415148 0.240276
0.468690 0.399365 0.238596
0.488367 0.381431 0.237103
0.537458 0.415408 0.241321
0.600520 0.459885 0.243689
0.678220 0.513376 0.242267
0.767086 0.572497 0.236661
0.866888 0.629830 0.222391
0.917641 0.635910 0.229676
0.962979 0.642924 0.245929
0.999091 0.648858 0.256774
1.000000 0.659412 0.270365
0.434028 0.476814 0.246464
0.437525 0.478278 0.246684
0.443635 0.474110 0.246220
0.455690 0.467140 0.245658
0.472675 0.456794 0.244743
0.492561 0.442115 0.243381
0.512029 0.423370 0.241105
0.539892 0.422211 0.242082
0.600940 0.467909 0.245896
0.675087 0.522624 0.246561
0.758114 0.582361 0.244419
0.843540 0.641340 0.241782
0.940892 0.704487 0.231821
0.984631 0.705159 0.241795
1.000000 0.705318 0.259397
1.000000 0.711116 0.281041
0.467305 0.521496 0.246488
0.471323 0.524072 0.246832
0.475562 0.518871 0.246392
0.486305 0.512397 0.246001
0.502866 0.503419 0.245254
0.521922 0.490382 0.244303
0.540920 0.472079 0.242464
0.556402 0.448336 0.239630
0.600383 0.472544 0.242471
0.670570 0.526687 0.243999
0.750771 0.587829 0.243131
0.833708 0.649703 0.242661
0.910174 0.704015 0.246801
0.991008 0.759082 0.247746
1.000000 0.756234 0.257210
1.000000 0.756124 0.278709
0.513872 0.585742 0.242160
0.517507 0.588254 0.242423
0.520587 0.582002 0.241943
0.529202 0.573607 0.241445
0.543179 0.562990 0.240703
0.561455 0.549847 0.239689
0.581921 0.533592 0.238526
0.600641 0.512226 0.236510
0.618167 0.492537 0.235443
0.686756 0.546730 0.236765
0.764291 0.608704 0.235868
0.842937 0.670710 0.236323
0.915262 0.725999 0.243949
0.974455 0.767963 0.261748
1.000000 0.809726 0.280837
1.000000 0.812082 0.302366
0.559960 0.651154 0.229215
0.562368 0.651958 0.229154
0.565008 0.645507 0.228845
0.574049 0.638724 0.228387
0.589436 0.631051 0.227800
0.609179 0.620429 0.226786
0.630701 0.605531 0.225607
0.651250 0.585069 0.223978
0.668506 0.559283 0.221972
0.705834 0.568154 0.221683
0.782040 0.631470 0.219101
0.857664 0.693846 0.219293
0.924787 0.747888 0.228244
0.978370 0.788274 0.248996
1.000000 0.815627 0.278575
1.000000 0.848178 0.318065
0.637507 0.762539 0.210373
0.643629 0.768909 0.211395
0.647319 0.763762 0.210144
0.656598 0.757056 0.208645
0.672291 0.749237 0.206752
0.693727 0.739742 0.204556
0.719725 0.727831 0.201657
0.747552 0.712232 0.198221
0.775146 0.692214 0.194277
0.799594 0.666834 0.191252
0.854686 0.706703 0.191672
0.915838 0.759199 0.198230
0.967944 0.802614 0.219950
0.999783 0.833779 0.253600
1.000000 0.854864 0.292050
1.000000 0.872477 0.341503
0.713161 0.869902 0.216251
0.717549 0.873521 0.219760
0.722054 0.870469 0.216916
0.733187 0.867509 0.214267
0.751723 0.864720 0.211911
0.776516 0.860807 0.208682
0.807090 0.855174 0.203995
0.842435 0.847709 0.197519
0.881993 0.839017 0.189834
0.925500 0.830314 0.181985
0.964111 0.825956 0.188510
0.997388 0.855156 0.220383
1.000000 0.878068 0.259410
1.000000 0.895250 0.301592
1.000000 0.907744 0.345324
1.000000 0.917082 0.392706
0.106447 0.100880 0.145693
0.123319 0.099845 0.145460
0.174486 0.096242 0.148656
0.244076 0.088581 0.150197
0.310128 0.083024 0.152497
0.375848 0.068391 0.156015
0.445903 0.045496 0.160343
0.518361 0.016968 0.166185
0.588314 0.000000 0.172202
0.657507 0.000000 0.177864
0.727175 0.000000 0.183487
0.798627 0.000000 0.188415
0.873458 0.000000 0.193617
0.946877 0.000000 0.198130
1.000000 0.000000 0.202839
1.000000 0.000000 0.210160
0.109846 0.111816 0.146378
0.124348 0.111605 0.147216
0.174379 0.110702 0.148918
0.240171 0.108553 0.151200
0.306097 0.104884 0.153842
0.372074 0.099081 0.157103
0.442580 0.090617 0.161719
0.514191 0.070750 0.167256
0.584922 0.039443 0.173240
0.655236 0.006041 0.178782
0.725769 0.000000 0.184004
0.797980 0.000000 0.189146
0.872051 0.000000 0.193960
0.943790 0.000000 0.197995
0.999598 0.000000 0.202488
1.000000 0.000000 0.210218
0.133336 0.151672 0.154971
0.154087 0.150065 0.157116
0.189302 0.150123 0.156635
0.240719 0.158836 0.159182
0.305867 0.157921 0.161755
0.374995 0.153340 0.164847
0.447933 0.148950 0.169152
0.519202 0.143377 0.173661
0.588560 0.136320 0.178738
0.658076 0.127773 0.183667
0.728007 0.118670 0.188090
0.799628 0.108528 0.192484
0.874399 0.098609 0.196781
0.947461 0.089504 0.200932
1.000000 0.093072 0.205537
1.000000 0.110429 0.212755
0.179601 0.192567 0.170210
0.191769 0.192187 0.170914
0.226591 0.185811 0.172253
0.257866 0.194050 0.170790
0.314601 0.208102 0.171193
0.373056 0.216878 0.179817
0.444184 0.215036 0.182345
0.515317 0.211740 0.185418
0.585171 0.207831 0.188781
0.655161 0.203702 0.192097
0.726439 0.199714 0.195480
0.799117 0.196270 0.198833
0.873118 0.193771 0.201860
0.944317 0.192411 0.204878
0.999586 0.193097 0.208089
1.000000 0.200897 0.215642
0.228545 0.242110 0.188980
0.238623 0.243247 0.189858
0.265817 0.236932 0.190407
0.300110 0.231441 0.190852
0.338244 0.247554 0.189617
0.400925 0.268541 0.186494
0.454427 0.276730 0.197290
0.515042 0.283487 0.203411
0.585572 0.281243 0.204196
0.656265 0.279016 0.205057
0.727154 0.276774 0.206463
0.799806 0.275105 0.208180
0.874786 0.275519 0.209729
0.947192 0.276313 0.211973
1.000000 0.277325 0.215030
1.000000 0.281631 0.221243
0.268296 0.283739 0.204050
0.278913 0.287344 0.205603
0.298280 0.281312 0.205492
0.329446 0.269948 0.205045
0.361595 0.274003 0.205692
0.406744 0.296196 0.205063
0.479126 0.329768 0.199991
0.532245 0.336790 0.209190
0.585378 0.348393 0.219515
0.651861 0.352516 0.221076
0.724599 0.352227 0.220108
0.798832 0.352772 0.219806
0.873090 0.353981 0.219482
0.943522 0.354524 0.220195
0.999103 0.353872 0.221226
1.000000 0.358380 0.227488
0.307536 0.325715 0.217883
0.317158 0.331235 0.220285
0.331986 0.325177 0.219628
0.356457 0.313954 0.218518
0.384107 0.298394 0.217355
0.421970 0.318159 0.219262
0.475018 0.347812 0.219707
0.554124 0.390852 0.213947
0.616470 0.405143 0.216968
0.669371 0.415689 0.228478
0.724525 0.428829 0.235239
0.798205 0.431478 0.233110
0.873489 0.433976 0.231454
0.945000 0.435356 0.230978
0.999606 0.435031 0.231954
1.000000 0.436375 0.237317
0.340688 0.363537 0.228893
0.349547 0.369334 0.231029
0.360988 0.363966 0.230355
0.380914 0.353910 0.229214
0.405926 0.339674 0.227767
0.433521 0.333291 0.227763
0.480289 0.362973 0.230598
0.540825 0.399964 0.231331
0.624843 0.450272 0.225222
0.698937 0.475865 0.221399
0.751849 0.485370 0.232708
0.808106 0.500276 0.241148
0.870464 0.513066 0.244202
0.939581 0.513334 0.242202
0.997764 0.509581 0.241131
1.000000 0.509977 0.245990
0.371534 0.400008 0.237568
0.378548 0.404895 0.239204
0.387793 0.400343 0.238668
0.404323 0.391540 0.237745
0.426169 0.378490 0.236245
0.449416 0.361410 0.234265
0.484293 0.373007 0.236802
0.539630 0.410383 0.240195
0.609002 0.455782 0.240669
0.695827 0.510693 0.235012
0.784731 0.552607 0.225101
0.838467 0.561488 0.233489
0.892351 0.574730 0.245163
0.944630 0.589610 0.253940
0.997853 0.592564 0.257001
1.000000 0.590330 0.262581
0.402111 0.438155 0.244829
0.408528 0.443067 0.246069
0.415992 0.438700 0.245664
0.429906 0.430609 0.244803
0.449023 0.418624 0.243547
0.470029 0.402355 0.241615
0.489763 0.383416 0.239528
0.537502 0.415777 0.244003
0.600383 0.460167 0.246676
0.677705 0.513344 0.245743
0.766608 0.572491 0.241173
0.865896 0.629197 0.227676
0.916345 0.635046 0.234460
0.960889 0.641286 0.249489
0.998784 0.647880 0.260125
1.000000 0.659953 0.274873
0.434687 0.480360 0.249137
0.438900 0.482952 0.249715
0.445368 0.478994 0.249242
0.457568 0.471790 0.248688
0.474829 0.461056 0.247677
0.494759 0.446021 0.246091
0.514204 0.426738 0.243744
0.541044 0.423577 0.244239
0.601722 0.468881 0.248299
0.675170 0.523004 0.249263
0.757998 0.582532 0.247776
0.843275 0.641496 0.245859
0.940554 0.704345 0.236645
0.984243 0.705030 0.246239
1.000000 0.705733 0.264061
1.000000 0.712709 0.286631
0.468811 0.525880 0.248914
0.474377 0.530944 0.249635
0.479718 0.526827 0.249293
0.490574 0.519765 0.248703
0.506414 0.509527 0.247952
0.524766 0.494995 0.246670
0.543031 0.475310 0.244429
0.558460 0.451152 0.241590
0.601271 0.473544 0.244319
0.671332 0.527547 0.246163
0.751480 0.588724 0.245885
0.833923 0.650168 0.245625
0.909705 0.703869 0.250260
0.990394 0.758707 0.251435
1.000000 0.756225 0.260899
1.000000 0.757113 0.283883
0.515908 0.591039 0.244356
0.520135 0.594529 0.244632
0.524455 0.589573 0.244244
0.533672 0.581520 0.243711
0.547763 0.570526 0.242949
0.566239 0.556997 0.241859
0.586079 0.539297 0.240333
0.603681 0.516226 0.238217
0.619465 0.494015 0.236965
0.687269 0.547443 0.238389
0.764493 0.609101 0.237981
0.843133 0.671097 0.239030
0.915455 0.726455 0.246975
0.974607 0.768445 0.265544
1.000000 0.810578 0.285809
1.000000 0.813571 0.308878
0.561951 0.656363 0.231051
0.566469 0.660203 0.231192
0.570142 0.655077 0.230833
0.579274 0.648108 0.230322
0.594219 0.639119 0.229492
0.613288 0.627074 0.228402
0.634111 0.610677 0.227070
0.654129 0.589132 0.225300
0.671097 0.562549 0.223084
0.707462 0.569827 0.222952
0.783482 0.633021 0.220772
0.858587 0.694953 0.221336
0.924928 0.748231 0.230675
0.978235 0.788343 0.251625
1.000000 0.815915 0.281734
1.000000 0.848922 0.322464
0.639047 0.767186 0.212898
0.645232 0.773493 0.213852
0.649867 0.769881 0.213062
0.659995 0.764047 0.211441
0.676113 0.756400 0.209468
0.697600 0.746561 0.206838
0.723257 0.733761 0.203532
0.750407 0.716770 0.199742
0.777018 0.695244 0.195721
0.800923 0.668900 0.192114
0.854846 0.707032 0.193246
0.915979 0.759482 0.200288
0.968020 0.802845 0.222066
0.999792 0.834088 0.255970
1.000000 0.855496 0.295403
1.000000 0.873393 0.346128
0.713912 0.872764 0.220536
0.719341 0.877807 0.225770
0.724374 0.875629 0.223739
0.735532 0.872608 0.220921
0.753565 0.869097 0.217801
0.777939 0.864262 0.213632
0.807982 0.857831 0.207856
0.843108 0.849845 0.200766
0.882642 0.840840 0.192746
0.926162 0.831992 0.184524
0.964837 0.826957 0.190573
0.997685 0.855716 0.222408
1.000000 0.878325 0.261243
1.000000 0.895314 0.303054
1.000000 0.907811 0.346818
1.000000 0.917253 0.394745
0.087709 0.113161 0.199338
0.111628 0.108090 0.198717
0.176601 0.104916 0.198464
0.241710 0.098460 0.202633
0.309706 0.088794 0.204580
0.376611 0.066341 0.207370
0.449575 0.007179 0.208170
0.519733 0.000000 0.210276
0.587918 0.000000 0.212564
0.656693 0.000000 0.214864
0.726582 0.000000 0.217172
0.798361 0.000000 0.219696
0.873444 0.000000 0.222066
0.946936 0.000000 0.224567
1.000000 0.000000 0.227234
1.000000 0.000000 0.232560
0.100165 0.130078 0.198216
0.112063 0.122369 0.199633
0.176077 0.115727 0.199246
0.239884 0.112816 0.202767
0.306896 0.105831 0.205199
0.374991 0.092293 0.206756
0.446070 0.059339 0.207939
0.515866 0.025002 0.210410
0.585362 0.002545 0.212898
0.654513 0.000000 0.215271
0.725158 0.000000 0.217575
0.797571 0.000000 0.220105
0.871758 0.000000 0.222274
0.943622 0.000000 0.224366
0.999553 0.000000 0.226137
1.000000 0.000000 0.231976
0.109793 0.165077 0.207891
0.127781 0.165193 0.208944
0.180765 0.161106 0.208720
0.243784 0.157586 0.209773
0.309535 0.153157 0.210673
0.379455 0.148851 0.212719
0.450117 0.142294 0.214413
0.519524 0.133961 0.215854
0.588098 0.124077 0.217293
0.657222 0.111023 0.219165
0.727380 0.093601 0.220870
0.799375 0.062931 0.222716
0.874409 0.036032 0.224736
0.947486 0.024259 0.226748
1.000000 0.023497 0.229148
1.000000 0.049002 0.234474
0.136102 0.206853 0.209357
0.149086 0.207878 0.208972
0.205284 0.203239 0.213358
0.256759 0.202531 0.215395
0.310688 0.213662 0.219952
0.374961 0.215658 0.223264
0.445566 0.211818 0.223493
0.515781 0.207052 0.223834
0.584823 0.201598 0.224315
0.654663 0.195784 0.225034
0.726030 0.190119 0.226112
0.798853 0.184927 0.227363
0.872948 0.180760 0.228532
0.944220 0.178165 0.229589
0.999589 0.177998 0.230807
1.000000 0.186532 0.236509
0.192839 0.258256 0.219834
0.209256 0.260096 0.224403
0.250818 0.253237 0.226746
0.299232 0.241022 0.225279
0.337008 0.253175 0.226779
0.396840 0.270489 0.226759
0.449286 0.278934 0.236416
0.514890 0.280255 0.237107
0.585117 0.277096 0.235959
0.655666 0.273656 0.235126
0.726718 0.270574 0.234636
0.799820 0.268618 0.234629
0.874874 0.268133 0.234882
0.947350 0.268155 0.235423
1.000000 0.268632 0.236701
1.000000 0.273155 0.241213
0.250962 0.296916 0.232096
0.262190 0.301116 0.234642
0.287327 0.294671 0.233571
0.324833 0.282987 0.231933
0.361946 0.278472 0.231551
0.406006 0.300249 0.234153
0.475911 0.330391 0.232679
0.528169 0.337406 0.241186
0.581285 0.348899 0.248991
0.651722 0.348992 0.247115
0.724532 0.348247 0.245274
0.798869 0.348327 0.243749
0.873118 0.348898 0.242573
0.943683 0.348866 0.241731
0.999130 0.348031 0.241292
1.000000 0.352593 0.246495
0.295871 0.337360 0.240052
0.306115 0.342888 0.242895
0.323402 0.336813 0.241918
0.352150 0.325242 0.239876
0.385460 0.309166 0.237187
0.422057 0.321444 0.239773
0.474559 0.350878 0.242799
0.553694 0.393256 0.240885
0.613099 0.404780 0.244188
0.665682 0.415401 0.254122
0.723829 0.426226 0.257885
0.798473 0.428204 0.254870
0.873883 0.430304 0.252553
0.945394 0.431331 0.251080
0.999681 0.430832 0.250955
1.000000 0.432024 0.254682
0.332802 0.373840 0.246533
0.341749 0.379880 0.249070
0.354958 0.374430 0.248158
0.377517 0.364263 0.246585
0.405657 0.349624 0.244324
0.433571 0.335796 0.242770
0.480161 0.365411 0.247324
0.540523 0.402336 0.250259
0.625725 0.453240 0.247235
0.696550 0.475305 0.244803
0.749454 0.485080 0.255415
0.805851 0.500162 0.262451
0.870638 0.510487 0.263526
0.939936 0.510334 0.260623
0.997840 0.506565 0.258453
1.000000 0.507298 0.262445
0.366148 0.409581 0.252049
0.373174 0.414565 0.253882
0.383382 0.409923 0.253253
0.401675 0.400876 0.251958
0.425712 0.387705 0.250075
0.451218 0.370217 0.247546
0.484343 0.374988 0.249293
0.539686 0.412420 0.254186
0.608891 0.457759 0.256770
0.696144 0.512874 0.254302
0.782980 0.552166 0.246641
0.836846 0.561275 0.254893
0.890832 0.574683 0.265136
0.943501 0.589434 0.272372
0.997917 0.590344 0.273358
1.000000 0.587980 0.277701
0.398077 0.446980 0.257018
0.404623 0.452056 0.258484
0.412782 0.447647 0.257949
0.427917 0.439386 0.256821
0.448569 0.427125 0.255175
0.471299 0.410397 0.252787
0.491968 0.389537 0.249739
0.537207 0.417143 0.254672
0.600289 0.461699 0.258755
0.677731 0.515094 0.260258
0.767150 0.574625 0.258414
0.864762 0.629021 0.248471
0.915227 0.634918 0.254245
0.959668 0.641264 0.267813
0.998575 0.648137 0.276924
1.000000 0.660064 0.289793
0.431422 0.488661 0.259514
0.435925 0.491284 0.260106
0.442631 0.487418 0.259758
0.455908 0.479950 0.258815
0.474394 0.469062 0.257672
0.495741 0.453834 0.255747
0.516478 0.434085 0.252968
0.540764 0.424529 0.252439
0.601333 0.469866 0.257759
0.675022 0.524202 0.260490
0.758016 0.583942 0.260875
0.843579 0.643231 0.262087
0.939806 0.704522 0.256355
0.983558 0.705206 0.264095
1.000000 0.705954 0.280764
1.000000 0.713008 0.301164
0.466084 0.534018 0.257892
0.471782 0.539000 0.258677
0.477674 0.534874 0.258220
0.489166 0.527706 0.257574
0.505767 0.517143 0.256521
0.525182 0.502061 0.254918
0.544389 0.482140 0.252448
0.560825 0.457468 0.249054
0.600383 0.473806 0.251590
0.670819 0.528181 0.254650
0.751497 0.589874 0.256045
0.834137 0.651552 0.258115
0.909802 0.705266 0.265258
0.990211 0.759696 0.269162
1.000000 0.756528 0.276883
1.000000 0.757633 0.298534
0.512269 0.597133 0.252326
0.516738 0.600558 0.252539
0.521190 0.595611 0.252146
0.530984 0.587646 0.251416
0.546464 0.577036 0.250401
0.566246 0.563952 0.249176
0.587182 0.545984 0.247248
0.605509 0.522375 0.244721
0.620025 0.496401 0.242541
0.685990 0.547140 0.245055
0.763715 0.609309 0.246074
0.842880 0.671853 0.249027
0.915425 0.727495 0.259111
0.974471 0.769590 0.279346
1.000000 0.811488 0.301041
1.000000 0.813894 0.322315
0.558494 0.661954 0.238313
0.563036 0.665839 0.238516
0.567044 0.660807 0.238032
0.576715 0.653819 0.237351
0.592338 0.644909 0.236427
0.612213 0.632803 0.235074
0.633914 0.616196 0.233253
0.654690 0.594348 0.231085
0.672488 0.567508 0.228418
0.705785 0.569019 0.228239
0.782621 0.632924 0.227331
0.858088 0.695254 0.229530
0.924614 0.748768 0.240389
0.977957 0.789028 0.262647
1.000000 0.816791 0.293747
1.000000 0.850204 0.335911
0.634035 0.770200 0.220652
0.639995 0.776400 0.221908
0.644926 0.772811 0.220838
0.655452 0.767199 0.219202
0.672282 0.759900 0.217045
0.694757 0.750207 0.214084
0.721023 0.737453 0.210615
0.748848 0.720254 0.206363
0.776103 0.698521 0.201718
0.801174 0.672445 0.197294
0.853411 0.706210 0.199148
0.915183 0.759376 0.207356
0.967559 0.803098 0.230095
0.999762 0.834461 0.264631
1.000000 0.855997 0.304703
1.000000 0.873975 0.355945
0.708675 0.874852 0.228654
0.714106 0.879809 0.233884
0.719373 0.877669 0.231757
0.730767 0.874633 0.228806
0.749015 0.871069 0.225720
0.773684 0.866142 0.221170
0.804262 0.859633 0.215264
0.839914 0.851631 0.208024
0.880111 0.842670 0.199874
0.924319 0.833813 0.191455
0.963982 0.826590 0.195279
0.997212 0.855701 0.227362
1.000000 0.878489 0.266531
1.000000 0.895589 0.308906
1.000000 0.908195 0.353303
1.000000 0.917766 0.402197
0.001013 0.130092 0.266154
0.023277 0.121841 0.266242
0.162460 0.116148 0.264615
0.243092 0.108722 0.262800
0.308511 0.104269 0.264863
0.376654 0.096760 0.268009
0.448429 0.060304 0.270966
0.518232 0.000000 0.271228
0.586742 0.000000 0.267996
0.655816 0.000000 0.263427
0.725758 0.000000 0.263243
0.798182 0.000000 0.263497
0.873630 0.000000 0.263869
0.947222 0.000000 0.264106
1.000000 0.000000 0.264294
1.000000 0.000000 0.267198
0.022970 0.144223 0.262712
0.054119 0.137896 0.265309
0.158688 0.126702 0.264143
0.241608 0.121541 0.262119
0.305902 0.118133 0.264176
0.374416 0.111350 0.267566
0.445399 0.091302 0.270034
0.515342 0.019647 0.270142
0.584780 0.000000 0.266877
0.653999 0.000000 0.263430
0.724731 0.000000 0.263440
0.797260 0.000000 0.263671
0.871626 0.000000 0.263825
0.943700 0.000000 0.263567
0.999559 0.000000 0.262945
1.000000 0.000000 0.266714
0.072440 0.197554 0.274984
0.110272 0.194705 0.275113
0.165484 0.174648 0.273244
0.245461 0.162260 0.268973
0.311060 0.160332 0.271191
0.380338 0.153230 0.273700
0.450553 0.139018 0.273723
0.519248 0.114425 0.270657
0.587663 0.067387 0.267177
0.656391 0.029205 0.266291
0.726593 0.005571 0.265791
0.799270 0.000000 0.265776
0.874588 0.000000 0.265860
0.947791 0.000000 0.265778
1.000000 0.000000 0.265752
1.000000 0.000000 0.268829
0.125636 0.223679 0.274026
0.139855 0.225196 0.276194
0.185102 0.223636 0.276462
0.246682 0.217179 0.275696
0.312305 0.211828 0.275896
0.379629 0.206666 0.275634
0.448177 0.200122 0.274544
0.516462 0.193116 0.273199
0.584626 0.184714 0.271651
0.654240 0.175721 0.270291
0.725789 0.166054 0.269571
0.798786 0.156351 0.269097
0.872945 0.146956 0.268451
0.944403 0.139617 0.267429
0.999627 0.136665 0.266477
1.000000 0.148030 0.270137
0.148239 0.275489 0.287374
0.160684 0.278549 0.288880
0.200291 0.275180 0.282428
0.267856 0.266716 0.277631
0.331584 0.261663 0.278978
0.386134 0.273736 0.283531
0.446166 0.275950 0.285196
0.515432 0.271778 0.282581
0.584983 0.266822 0.280050
0.655117 0.261753 0.277687
0.726323 0.256833 0.275778
0.799928 0.253269 0.274422
0.875360 0.250600 0.273290
0.947865 0.249005 0.272241
1.000000 0.248859 0.271466
1.000000 0.253433 0.274003
0.170797 0.317796 0.264103
0.184295 0.323380 0.267765
0.229235 0.318718 0.269396
0.303122 0.307119 0.277882
0.359543 0.289438 0.273088
0.403442 0.307103 0.278251
0.469212 0.330803 0.279682
0.519167 0.338620 0.288911
0.580210 0.343325 0.289578
0.651946 0.341116 0.286297
0.724800 0.339214 0.283641
0.799238 0.338147 0.281296
0.873523 0.337536 0.278785
0.944075 0.336539 0.276686
0.999227 0.335198 0.274407
1.000000 0.340081 0.278166
0.247261 0.358759 0.269921
0.260520 0.365147 0.275182
0.293858 0.359291 0.279595
0.335922 0.347312 0.278099
0.380555 0.330182 0.273769
0.420750 0.326845 0.273597
0.473090 0.356324 0.280202
0.551225 0.395923 0.282579
0.606122 0.404042 0.287155
0.658284 0.414997 0.294365
0.723540 0.420263 0.293478
0.799173 0.421234 0.289930
0.874718 0.422478 0.287028
0.946136 0.422905 0.284528
0.999833 0.421909 0.282955
1.000000 0.422935 0.284708
0.308764 0.394740 0.278915
0.318782 0.401224 0.282182
0.336349 0.395553 0.280967
0.365999 0.384737 0.278534
0.401580 0.369212 0.275125
0.436088 0.348902 0.270529
