assets/lut/editingcorp upglow.cube
# Created by: G'MIC (https://gmic.eu)
TITLE "upglow"
# LUT size
LUT_3D_SIZE 13
# Data domain
DOMAIN_MIN 0.0 0.0 0.0
DOMAIN_MAX 1.0 1.0 1.0
# LUT data points
0.015359123237431049 0.023921787738800049 0.029367633163928986
0.060608673840761185 0.03002726286649704 0.025444360449910164
0.1322658360004425 0.041236292570829391 0.024471955373883247
0.2241082489490509 0.058561064302921295 0.025224963203072548
0.33717656135559082 0.077926710247993469 0.025119168683886528
0.44765439629554749 0.097696281969547272 0.027507707476615906
0.5423508882522583 0.11658955365419388 0.033498682081699371
0.62306743860244751 0.13511662185192108 0.042593233287334442
0.69711178541183472 0.15404412150382996 0.052421987056732178
0.76634007692337036 0.17112576961517334 0.061300747096538544
0.82599800825119019 0.17815332114696503 0.066374562680721283
0.87397712469100952 0.17317685484886169 0.065253749489784241
0.91433387994766235 0.16284547746181488 0.060422636568546295
0.014322602190077305 0.068626508116722107 0.068953223526477814
0.052091412246227264 0.072425380349159241 0.056897915899753571
0.13188496232032776 0.080749541521072388 0.048435825854539871
0.23271918296813965 0.097229123115539551 0.043634947389364243
0.34921208024024963 0.11733455210924149 0.040248915553092957
0.46250653266906738 0.13842734694480896 0.040353618562221527
0.55682724714279175 0.15729822218418121 0.045108914375305176
0.63417714834213257 0.17490038275718689 0.053481981158256531
0.70603388547897339 0.19347478449344635 0.062005691230297089
0.77415287494659424 0.20961551368236542 0.06861896812915802
0.83319246768951416 0.21684533357620239 0.073252297937870026
0.88147175312042236 0.21410983800888062 0.07388528436422348
0.92157524824142456 0.20587852597236633 0.070866815745830536
0.017720211297273636 0.12146597355604172 0.11464251577854156
0.044572971761226654 0.12606148421764374 0.099482245743274689
0.11739946156740189 0.13407747447490692 0.085943616926670074
0.2280467301607132 0.1490342915058136 0.07544892281293869
0.35805726051330566 0.16880354285240173 0.06614888459444046
0.47880464792251587 0.18904812633991241 0.061805125325918198
0.57426393032073975 0.20792737603187561 0.062867335975170135
0.65006536245346069 0.22432735562324524 0.068352237343788147
0.71930456161499023 0.24074439704418182 0.074512645602226257
0.78508615493774414 0.25578165054321289 0.079390838742256165
0.84259015321731567 0.26261451840400696 0.082863524556159973
0.89021509885787964 0.2600649893283844 0.084134764969348907
0.92971593141555786 0.25348234176635742 0.082639254629611969
0.030299855396151543 0.18601910769939423 0.15741690993309021
0.053043082356452942 0.19158218801021576 0.14456681907176971
0.10689806193113327 0.20273426175117493 0.13301904499530792
0.2150818407535553 0.21817237138748169 0.1240864172577858
0.3644070029258728 0.23638996481895447 0.11130373924970627
0.49590957164764404 0.25707420706748962 0.10022177547216415
0.5923159122467041 0.27501171827316284 0.092542834579944611
0.66754770278930664 0.28849601745605469 0.091378770768642426
0.73577237129211426 0.30212050676345825 0.093974128365516663
0.80000948905944824 0.31583783030509949 0.096261762082576752
0.85608738660812378 0.32102575898170471 0.097739681601524353
0.90218925476074219 0.31679800152778625 0.099001176655292511
0.93991857767105103 0.31011718511581421 0.097772873938083649
0.034498192369937897 0.26225712895393372 0.20830142498016357
0.050932746380567551 0.2698667049407959 0.19782659411430359
0.086025625467300415 0.28565853834152222 0.18873989582061768
0.18430128693580627 0.30639952421188354 0.18709714710712433
0.35649600625038147 0.32210245728492737 0.17907482385635376
0.50403511524200439 0.34163329005241394 0.16003778576850891
0.60393619537353516 0.35707080364227295 0.13714522123336792
0.68122148513793945 0.36738353967666626 0.1259276419878006
0.75149691104888916 0.37825095653533936 0.12232457846403122
0.81653863191604614 0.38968345522880554 0.12027592211961746
0.87181127071380615 0.39372313022613525 0.11917378753423691
0.91562092304229736 0.38657304644584656 0.118169866502285
0.95104324817657471 0.37790274620056152 0.11599656939506531
0.028083471581339836 0.34649443626403809 0.26790410280227661
0.042467512190341949 0.35506132245063782 0.2598423957824707
0.066566839814186096 0.37073615193367004 0.24809582531452179
0.15547612309455872 0.39313885569572449 0.24831025302410126
0.33377224206924438 0.41406944394111633 0.25653806328773499
0.49795785546302795 0.43135330080986023 0.23664277791976929
0.60519903898239136 0.44275638461112976 0.19903483986854553
0.68788093328475952 0.4496275782585144 0.17565466463565826
0.763022780418396 0.45771163702011108 0.1614963710308075
0.83092737197875977 0.46743261814117432 0.15184134244918823
0.88653296232223511 0.47102576494216919 0.14545708894729614
0.9285847544670105 0.46359226107597351 0.14062362909317017
0.96180325746536255 0.45332449674606323 0.13618144392967224
0.029085300862789154 0.43170207738876343 0.32331845164299011
0.051533389836549759 0.43786495923995972 0.31738489866256714
0.074531212449073792 0.44824978709220886 0.30239808559417725
0.14305411279201508 0.46520704030990601 0.29589679837226868
0.30463674664497375 0.48721817135810852 0.31123566627502441
0.48071211576461792 0.5069202184677124 0.30724599957466125
0.59877967834472656 0.51848644018173218 0.27279874682426453
0.68676900863647461 0.52452307939529419 0.23740027844905853
0.76903450489044189 0.53081750869750977 0.20797759294509888
0.84056079387664795 0.53823614120483398 0.18747584521770477
0.89709103107452393 0.54134935140609741 0.17454658448696136
0.93868058919906616 0.53699558973312378 0.16551673412322998
0.97074353694915771 0.52858084440231323 0.15745370090007782
0.047532457858324051 0.51254165172576904 0.36390602588653564
0.080780521035194397 0.51718288660049438 0.35682454705238342
0.10600297152996063 0.52263444662094116 0.33985698223114014
0.14656543731689453 0.53111773729324341 0.32618501782417297
0.27845290303230286 0.5488208532333374 0.33873069286346436
0.46097686886787415 0.57134890556335449 0.35047340393066406
0.5926399827003479 0.58611512184143066 0.32974207401275635
0.685577392578125 0.59261178970336914 0.29266065359115601
0.77037966251373291 0.59721386432647705 0.25219911336898804
0.84348732233047485 0.60228604078292847 0.22305186092853546
0.90225458145141602 0.60479724407196045 0.20442204177379608
0.94553136825561523 0.6034311056137085 0.19094091653823853
0.9765632152557373 0.59877270460128784 0.17905595898628235
0.083166308701038361 0.58454108238220215 0.38452574610710144
0.12281341850757599 0.58974248170852661 0.37888225913047791
0.15335038304328918 0.59439325332641602 0.36569422483444214
0.189702108502388 0.60063356161117554 0.35684353113174438
0.29492911696434021 0.61567574739456177 0.36457362771034241
0.45800569653511047 0.63765418529510498 0.37370684742927551
0.59714990854263306 0.65361428260803223 0.36116442084312439
0.69205600023269653 0.66003900766372681 0.32882726192474365
0.76845890283584595 0.66261160373687744 0.28707510232925415
0.83827602863311768 0.66463881731033325 0.25298777222633362
0.90121936798095703 0.66521203517913818 0.22976976633071899
0.94829493761062622 0.66460949182510376 0.21221955120563507
0.98109370470046997 0.66268646717071533 0.19632197916507721
0.12141980975866318 0.64833462238311768 0.39117002487182617
0.16192016005516052 0.65398192405700684 0.38875052332878113
0.19552652537822723 0.65970820188522339 0.38317111134529114
0.23513023555278778 0.6684911847114563 0.38128918409347534
0.32285475730895996 0.68356174230575562 0.38636964559555054
0.46647116541862488 0.70427721738815308 0.38749077916145325
0.60786134004592896 0.72047978639602661 0.37177619338035583
0.70460766553878784 0.72641241550445557 0.34068268537521362
0.77122998237609863 0.72677266597747803 0.30282241106033325
0.83060747385025024 0.7261955738067627 0.26971161365509033
0.89316576719284058 0.72504574060440063 0.24459819495677948
0.94488883018493652 0.72394752502441406 0.22470420598983765
0.98272931575775146 0.7230105996131897 0.20767749845981598
0.15273600816726685 0.70755088329315186 0.38650980591773987
0.19493989646434784 0.7144736647605896 0.38798445463180542
0.23272593319416046 0.72290503978729248 0.3883109986782074
0.27474197745323181 0.73407965898513794 0.39164608716964722
0.34777519106864929 0.74772781133651733 0.39448234438896179
0.47349581122398376 0.76494967937469482 0.38398832082748413
0.61781573295593262 0.77979934215545654 0.35511559247970581
0.71769881248474121 0.78563606739044189 0.32619854807853699
0.77917587757110596 0.78558027744293213 0.30010926723480225
0.83110523223876953 0.7842782735824585 0.27563536167144775
0.88806724548339844 0.78302282094955444 0.25350981950759888
0.94000494480133057 0.78241389989852905 0.23379988968372345
0.9823036789894104 0.78167682886123657 0.21692100167274475
0.17897063493728638 0.76513731479644775 0.37473690509796143
0.22470110654830933 0.77513718605041504 0.37915340065956116
0.27206724882125854 0.78702032566070557 0.38321557641029358
0.32498371601104736 0.79989618062973022 0.38692942261695862
0.39615553617477417 0.81160777807235718 0.38512670993804932
0.50489670038223267 0.82380586862564087 0.36497581005096436
0.63558065891265869 0.83460479974746704 0.32788968086242676
0.72964465618133545 0.83931630849838257 0.30475318431854248
0.7878495454788208 0.83923208713531494 0.29228296875953674
0.83824235200881958 0.83806800842285156 0.27781930565834045
0.89147388935089111 0.83805334568023682 0.2604421079158783
0.94135552644729614 0.83873289823532104 0.24290488660335541
0.98434877395629883 0.83906775712966919 0.22767594456672668
0.20685693621635437 0.82343101501464844 0.35952404141426086
0.25888144969940186 0.83564668893814087 0.36526775360107422
0.31839215755462646 0.84980803728103638 0.37039723992347717
0.38634476065635681 0.8639412522315979 0.37306460738182068
0.46509841084480286 0.8755297064781189 0.36735230684280396
0.56008291244506836 0.88478857278823853 0.34703740477561951
0.66096597909927368 0.89127397537231445 0.31884908676147461
0.74065756797790527 0.89383792877197266 0.30019238591194153
0.79650092124938965 0.89253020286560059 0.29146763682365417
0.8472599983215332 0.89170271158218384 0.28151315450668335
0.90056848526000977 0.89301544427871704 0.26755747199058533
0.9489477276802063 0.89513635635375977 0.25304186344146729
0.98976331949234009 0.89678341150283813 0.24012982845306396
0.014886938035488129 0.025871006771922112 0.059504147619009018
0.056005187332630157 0.031022001057863235 0.054903712123632431
0.12681107223033905 0.04173317551612854 0.056193824857473373
0.22862540185451508 0.059217415750026703 0.05636158213019371
0.35107418894767761 0.080205999314785004 0.054729416966438293
0.46531939506530762 0.1004122868180275 0.055404528975486755
0.55806899070739746 0.11875034123659134 0.059682928025722504
0.63552147150039673 0.13574828207492828 0.066443257033824921
0.7052881121635437 0.15330654382705688 0.073654636740684509
0.76943188905715942 0.166420578956604 0.08037877082824707
0.82557880878448486 0.17081169784069061 0.085205987095832825
0.87205809354782104 0.1654827743768692 0.086396142840385437
0.91166412830352783 0.15471182763576508 0.084039472043514252
0.015427413396537304 0.070343136787414551 0.10311491787433624
0.05182310938835144 0.072720006108283997 0.084690794348716736
0.12794502079486847 0.080582685768604279 0.076497547328472137
0.23141442239284515 0.096915826201438904 0.072656281292438507
0.35534870624542236 0.11797072738409042 0.068796254694461823
0.47442266345024109 0.1393037885427475 0.067690066993236542
0.56967264413833618 0.15754599869251251 0.070675119757652283
0.64536780118942261 0.17448070645332336 0.076690241694450378
0.71342647075653076 0.19227616488933563 0.082601629197597504
0.77674251794815063 0.20602461695671082 0.087617449462413788
0.83232671022415161 0.21114455163478851 0.092414721846580505
0.8783918023109436 0.20677314698696136 0.094544611871242523
0.91739434003829956 0.19713811576366425 0.093812905251979828
0.017167514190077782 0.12197044491767883 0.15301693975925446
0.047273434698581696 0.12553815543651581 0.13285650312900543
0.11310454457998276 0.13321653008460999 0.11783880740404129
0.2210284024477005 0.14858564734458923 0.10631223022937775
0.35869914293289185 0.16886970400810242 0.09554436057806015
0.48624268174171448 0.18899790942668915 0.090312033891677856
0.58303415775299072 0.20756390690803528 0.090103253722190857
0.65731799602508545 0.22332113981246948 0.093446426093578339
0.72430408000946045 0.23969131708145142 0.097260355949401855
0.78668278455734253 0.25378650426864624 0.10032269358634949
0.84152162075042725 0.25874096155166626 0.10362502187490463
0.88663506507873535 0.25433847308158875 0.10589482635259628
0.92456644773483276 0.24564489722251892 0.10587180405855179
0.025482252240180969 0.18406377732753754 0.19756627082824707
0.047194626182317734 0.19034482538700104 0.18632055819034576
0.09325757622718811 0.2013128399848938 0.17360991239547729
0.2023724764585495 0.21751756966114044 0.15895187854766846
0.36039543151855469 0.23684549331665039 0.14423204958438873
0.49920031428337097 0.25757384300231934 0.13263979554176331
0.59617173671722412 0.27492004632949829 0.12355880439281464
0.67025297880172729 0.2881406843662262 0.1206292062997818
0.73779433965682983 0.30260193347930908 0.12049595266580582
0.8008577823638916 0.31572148203849792 0.12016166001558304
0.85482531785964966 0.31944704055786133 0.12105760723352432
0.89861631393432617 0.31371915340423584 0.12214583158493042
0.93506276607513428 0.30465662479400635 0.12214796990156174
0.03064047172665596 0.25917670130729675 0.25227516889572144
0.044193942099809647 0.26687189936637878 0.24436511099338531
0.072634287178516388 0.28143209218978882 0.23048308491706848
0.17016929388046265 0.30171748995780945 0.22196511924266815
0.34416121244430542 0.32270753383636475 0.21686334908008575
0.50090897083282471 0.3439619243144989 0.19953165948390961
0.60317987203598022 0.35896390676498413 0.17499494552612305
0.68072938919067383 0.36834436655044556 0.16142576932907104
0.75160104036331177 0.37909311056137085 0.1544797420501709
0.81648606061935425 0.38954499363899231 0.14876237511634827
0.87102526426315308 0.39244452118873596 0.14501228928565979
0.91348350048065186 0.38512781262397766 0.14344891905784607
0.94764870405197144 0.37448766827583313 0.14233919978141785
0.026166729629039764 0.34494641423225403 0.30987051129341125
0.03604348748922348 0.35337075591087341 0.30238685011863708
0.049605023115873337 0.36707493662834167 0.28448379039764404
0.1297738254070282 0.38844990730285645 0.27956059575080872
0.31187143921852112 0.41321611404418945 0.29478195309638977
0.4894612729549408 0.4329066276550293 0.28164553642272949
0.60338068008422852 0.44488945603370667 0.24602915346622467
0.68719661235809326 0.45127540826797485 0.2188601940870285
0.76236069202423096 0.45838850736618042 0.20073379576206207
0.83025747537612915 0.46663907170295715 0.18631851673126221
0.88652735948562622 0.46917429566383362 0.17489796876907349
0.92876088619232178 0.46275892853736877 0.16795080900192261
0.96121901273727417 0.45121756196022034 0.16412706673145294
0.026722447946667671 0.43044635653495789 0.36091828346252441
0.044718679040670395 0.43733590841293335 0.35532933473587036
0.056801903992891312 0.44659030437469482 0.3367273211479187
0.11361037939786911 0.46183472871780396 0.32630130648612976
0.27609062194824219 0.48555123805999756 0.34502536058425903
0.46541017293930054 0.50810301303863525 0.34877654910087585
0.59610980749130249 0.52072465419769287 0.32040056586265564
0.68671780824661255 0.52628129720687866 0.28509220480918884
0.76639211177825928 0.53183192014694214 0.25465124845504761
0.8389628529548645 0.5385095477104187 0.22929884493350983
0.89840996265411377 0.54121983051300049 0.20948842167854309
0.94184333086013794 0.53732573986053467 0.19566434621810913
0.97376084327697754 0.52802932262420654 0.18691717088222504
0.047638282179832458 0.5107419490814209 0.39897170662879944
0.076964825391769409 0.51668614149093628 0.39338427782058716
0.093597635626792908 0.52185201644897461 0.3746306300163269
0.12256191670894623 0.52874279022216797 0.35813227295875549
0.25035673379898071 0.54730331897735596 0.37066394090652466
0.44099918007850647 0.57236653566360474 0.38849261403083801
0.58610564470291138 0.58821505308151245 0.37624776363372803
0.68157124519348145 0.5941702127456665 0.34382987022399902
0.76386851072311401 0.59855383634567261 0.30621373653411865
0.84079509973526001 0.60359901189804077 0.27236670255661011
0.90366089344024658 0.60631728172302246 0.24564743041992188
0.95002239942550659 0.60461628437042236 0.22615912556648254
0.98255103826522827 0.59929704666137695 0.21201463043689728
0.087560154497623444 0.58469396829605103 0.42272469401359558
0.12284073233604431 0.59000849723815918 0.41671475768089294
0.1457558274269104 0.59405630826950073 0.40197449922561646
0.16822570562362671 0.59815359115600586 0.39056301116943359
0.26605087518692017 0.61314672231674194 0.3988182544708252
0.4348025918006897 0.63699716329574585 0.41383546590805054
0.58621734380722046 0.65494173765182495 0.40898269414901733
0.68515396118164062 0.66118210554122925 0.38246646523475647
0.7639879584312439 0.66409027576446533 0.34438729286193848
0.83889228105545044 0.66697233915328979 0.30724561214447021
0.90393376350402832 0.66773718595504761 0.27655375003814697
0.9532511830329895 0.66722506284713745 0.25256657600402832
0.98726052045822144 0.66453433036804199 0.2344246506690979
0.12723010778427124 0.64987021684646606 0.43096005916595459
0.16145430505275726 0.65482884645462036 0.42827275395393372
0.18535390496253967 0.65905094146728516 0.42099112272262573
0.21313506364822388 0.66547662019729614 0.41711869835853577
0.29211023449897766 0.67978149652481079 0.422647625207901
0.44252565503120422 0.70310920476913452 0.43001207709312439
0.59957742691040039 0.72221726179122925 0.42214062809944153
0.70412647724151611 0.72904688119888306 0.39638221263885498
0.77515172958374023 0.73024892807006836 0.36228656768798828
0.83862811326980591 0.73021745681762695 0.32823163270950317
0.90014386177062988 0.7293238639831543 0.29743292927742004
0.95055842399597168 0.72843474149703979 0.27146270871162415
0.98745357990264893 0.72683197259902954 0.25138789415359497
0.15563884377479553 0.70826840400695801 0.42647638916969299
0.19148324429988861 0.71450501680374146 0.42811292409896851
0.22260372340679169 0.72199779748916626 0.42720144987106323
0.25869613885879517 0.73167693614959717 0.42994719743728638
0.3267066478729248 0.74545025825500488 0.43365946412086487
0.45705848932266235 0.76510310173034668 0.43101212382316589
0.6109434962272644 0.78317797183990479 0.41430938243865967
0.71965152025222778 0.79090547561645508 0.38942375779151917
0.78749722242355347 0.79172158241271973 0.36345794796943665
0.84222054481506348 0.79059761762619019 0.33751437067985535
0.89687716960906982 0.78924906253814697 0.31139975786209106
0.94573795795440674 0.78850966691970825 0.28612411022186279
0.98524779081344604 0.78768640756607056 0.26527389883995056
0.17769835889339447 0.76436996459960938 0.4131280779838562
0.21999666094779968 0.773651123046875 0.41788515448570251
0.26749047636985779 0.78562790155410767 0.42350673675537109
0.32334709167480469 0.79932594299316406 0.42940995097160339
0.39698123931884766 0.81338119506835938 0.43130955100059509
0.50505048036575317 0.82844418287277222 0.42053690552711487
0.63271427154541016 0.84108960628509521 0.39757564663887024
0.73271244764328003 0.84727013111114502 0.37587571144104004
0.79841333627700806 0.84790307283401489 0.35864138603210449
0.85090088844299316 0.84673357009887695 0.34099012613296509
0.90198767185211182 0.84623652696609497 0.3207252025604248
0.94821721315383911 0.84641778469085693 0.2992585301399231
0.98783028125762939 0.8465455174446106 0.28024092316627502
0.20386750996112823 0.82110655307769775 0.3969210684299469
0.25442802906036377 0.83323317766189575 0.40371635556221008
0.31950891017913818 0.84904968738555908 0.41248384118080139
0.39766025543212891 0.86626553535461426 0.41997826099395752
0.4824586808681488 0.88116908073425293 0.4203953742980957
0.57383638620376587 0.89257258176803589 0.4085177481174469
0.66908854246139526 0.90022373199462891 0.38836142420768738
0.7500540018081665 0.9031517505645752 0.3704565167427063
0.81060022115707397 0.9027741551399231 0.35750067234039307
0.8629072904586792 0.90179669857025146 0.34451168775558472
0.91384798288345337 0.90177047252655029 0.3286539614200592
0.95782577991485596 0.90310013294219971 0.31215855479240417
0.99349689483642578 0.90453177690505981 0.29720345139503479
0.013737442903220654 0.02530352957546711 0.08939862996339798
0.051980126649141312 0.031292516738176346 0.086314231157302856
0.11743177473545074 0.041965767741203308 0.089608319103717804
0.21904003620147705 0.059312708675861359 0.09106898307800293
0.34926044940948486 0.081502638757228851 0.089306429028511047
0.46952137351036072 0.10206378251314163 0.088321924209594727
0.56477922201156616 0.11978434771299362 0.090104155242443085
0.64295381307601929 0.13635924458503723 0.094230413436889648
0.71035265922546387 0.15166544914245605 0.098731577396392822
0.77056366205215454 0.1619088351726532 0.1029578298330307
0.82364201545715332 0.16393744945526123 0.10697808116674423
0.86879545450210571 0.15728697180747986 0.10880895704030991
0.90766733884811401 0.14586542546749115 0.10794802010059357
0.012703062035143375 0.068443506956100464 0.14450174570083618
0.049681838601827621 0.072487413883209229 0.12205000966787338
0.11828088015317917 0.080633245408535004 0.11156921088695526
0.21752709150314331 0.096963085234165192 0.10897140204906464
0.34804213047027588 0.11867401748895645 0.10485120117664337
0.47568005323410034 0.1399414986371994 0.1012272983789444
0.57548093795776367 0.15876142680644989 0.101732037961483
0.65247118473052979 0.1752178817987442 0.10500957816839218
0.71826314926147461 0.19128915667533875 0.10823914408683777
0.77775698900222778 0.20296350121498108 0.1113041415810585
0.83011120557785034 0.20556704699993134 0.11527305841445923
0.8741573691368103 0.19900217652320862 0.11764023452997208
0.91201788187026978 0.18797042965888977 0.11746493726968765
0.013750443235039711 0.12062656134366989 0.20035997033119202
0.045376304537057877 0.12502682209014893 0.17511047422885895
0.10761208832263947 0.13282382488250732 0.15576364099979401
0.21100153028964996 0.148429274559021 0.14374718070030212
0.35312694311141968 0.1691126823425293 0.13374489545822144
0.48722085356712341 0.1905544102191925 0.12731099128723145
0.58654356002807617 0.20834709703922272 0.12455933541059494
0.66098010540008545 0.22360056638717651 0.12522105872631073
0.72652995586395264 0.23935289680957794 0.12612348794937134
0.78660356998443604 0.25226747989654541 0.12718920409679413
0.83892512321472168 0.25530335307121277 0.12928873300552368
0.88188868761062622 0.24834977090358734 0.13019807636737823
0.91850680112838745 0.23745004832744598 0.1300412118434906
0.020990649238228798 0.18217600882053375 0.24599666893482208
0.04449685662984848 0.18863430619239807 0.23366297781467438
0.089093469083309174 0.19879676401615143 0.21890279650688171
0.1925329864025116 0.21605673432350159 0.20057210326194763
0.35564371943473816 0.23666603863239288 0.18631306290626526
0.49886924028396606 0.25926616787910461 0.17417173087596893
0.59517806768417358 0.27610394358634949 0.16298696398735046
0.66849333047866821 0.28746470808982849 0.15830978751182556
0.7366446852684021 0.30280822515487671 0.15475843846797943
0.79943442344665527 0.31558001041412354 0.15102072060108185
0.85211485624313354 0.31777799129486084 0.14962193369865417
0.8944627046585083 0.3104211688041687 0.14854073524475098
0.92990380525588989 0.29965093731880188 0.1474483460187912
0.030142661184072495 0.25741463899612427 0.30055034160614014
0.045841068029403687 0.26498746871948242 0.29623198509216309
0.070473872125148773 0.27774035930633545 0.28340813517570496
0.15374696254730225 0.29963058233261108 0.26905319094657898
0.32612872123718262 0.32404157519340515 0.26171910762786865
0.49395161867141724 0.3459714949131012 0.24376432597637177
