assets/lut/editingcorpw Velvet Dream.cube
LUT_3D_SIZE 16
DOMAIN_MIN 0.0 0.0 0.0
DOMAIN_MAX 1.0 1.0 1.0
0.076417 0.082948 0.083833
0.092226 0.084858 0.086171
0.136257 0.091353 0.092012
0.189609 0.101320 0.101100
0.247354 0.110054 0.110604
0.311528 0.117586 0.120302
0.382153 0.124746 0.130440
0.456873 0.134511 0.143191
0.531579 0.151107 0.158639
0.605023 0.173538 0.176223
0.680568 0.197604 0.195315
0.757058 0.221274 0.216873
0.833005 0.245914 0.241794
0.906145 0.272685 0.271800
0.973877 0.303899 0.307567
1.000000 0.341558 0.350561
0.083845 0.096431 0.088020
0.094816 0.097543 0.089231
0.141051 0.103660 0.090785
0.193581 0.111220 0.100191
0.250545 0.118611 0.110040
0.314110 0.125179 0.119399
0.384118 0.132356 0.129683
0.458400 0.142125 0.142623
0.532663 0.158323 0.158325
0.605822 0.180023 0.176202
0.681202 0.203220 0.195291
0.757680 0.226086 0.216618
0.833455 0.250049 0.241541
0.906445 0.276330 0.271779
0.974085 0.306877 0.307258
1.000000 0.343871 0.350341
0.104354 0.140383 0.099269
0.115703 0.139987 0.101634
0.143217 0.142217 0.106405
0.198544 0.149036 0.103341
0.261005 0.152035 0.105782
0.323797 0.155703 0.115816
0.391957 0.161523 0.127278
0.464232 0.171223 0.141131
0.536994 0.185941 0.156863
0.609231 0.205025 0.174795
0.684303 0.225382 0.193814
0.760016 0.245641 0.215483
0.835271 0.266949 0.240602
0.907923 0.290764 0.270813
0.975092 0.319071 0.307059
1.000000 0.354009 0.350146
0.128487 0.192374 0.113362
0.137956 0.191893 0.114582
0.165205 0.191878 0.119552
0.200571 0.194858 0.125105
0.257786 0.201214 0.122597
0.331255 0.207700 0.115645
0.402935 0.212072 0.123101
0.474707 0.219641 0.136422
0.544855 0.231583 0.152699
0.615599 0.247172 0.171199
0.689973 0.263328 0.191073
0.764544 0.279819 0.212834
0.838900 0.297329 0.238690
0.910669 0.317308 0.269422
0.977125 0.341982 0.305864
1.000000 0.373279 0.349426
0.158822 0.250510 0.129860
0.166181 0.250294 0.130939
0.192265 0.248893 0.136072
0.225937 0.250674 0.141549
0.266973 0.254343 0.148214
0.322466 0.259897 0.149892
0.406148 0.272673 0.135329
0.479253 0.280197 0.133969
0.552766 0.290051 0.146222
0.625037 0.301346 0.162994
0.698213 0.313262 0.184158
0.771344 0.325257 0.207509
0.844525 0.338467 0.234504
0.914996 0.354428 0.266307
0.980210 0.374758 0.303848
1.000000 0.401258 0.347949
0.196689 0.315373 0.148745
0.202505 0.315227 0.149813
0.225553 0.314128 0.154409
0.260429 0.313127 0.161648
0.297685 0.316356 0.167282
0.342138 0.320684 0.175509
0.393109 0.324577 0.183279
0.477919 0.342021 0.164792
0.555224 0.353875 0.152749
0.627638 0.362335 0.159616
0.705196 0.371069 0.175418
0.780172 0.378754 0.197879
0.851725 0.387945 0.227378
0.920561 0.399786 0.261131
0.984253 0.415643 0.300407
1.000000 0.436988 0.345800
0.242081 0.385480 0.170046
0.246807 0.385214 0.171133
0.266635 0.384292 0.175049
0.299997 0.382387 0.182905
0.336038 0.383232 0.190160
0.376190 0.386785 0.197299
0.420710 0.391280 0.206432
0.465516 0.392728 0.220161
0.547499 0.412038 0.200633
0.632221 0.425756 0.183048
0.706166 0.431824 0.178952
0.781444 0.437607 0.195993
0.856947 0.443883 0.221221
0.927067 0.451396 0.252857
0.989020 0.462640 0.294113
1.000000 0.479011 0.342272
0.292552 0.456904 0.195334
0.296845 0.456759 0.196111
0.312933 0.455925 0.199717
0.341890 0.454168 0.206867
0.378359 0.452336 0.216899
0.413507 0.454994 0.223545
0.453524 0.458764 0.232220
0.496954 0.463559 0.242748
0.537905 0.462417 0.259613
0.620570 0.480866 0.243525
0.706263 0.493282 0.226102
0.786674 0.499806 0.215768
0.856224 0.503011 0.225081
0.926538 0.508551 0.255639
0.989473 0.514344 0.290754
1.000000 0.524260 0.334063
0.341417 0.529125 0.224576
0.344790 0.528968 0.225377
0.358173 0.528244 0.228644
0.382701 0.526799 0.235152
0.416175 0.524507 0.245066
0.450910 0.524620 0.254386
0.487668 0.527606 0.262278
0.529589 0.531322 0.272170
0.575760 0.535707 0.283851
0.615326 0.531880 0.302794
0.695161 0.547546 0.295421
0.780348 0.558935 0.279659
0.860176 0.565517 0.269916
0.927478 0.568308 0.276121
0.987087 0.571393 0.299868
1.000000 0.578656 0.344134
0.386053 0.601135 0.259806
0.389047 0.600927 0.260353
0.400545 0.600275 0.263500
0.422253 0.598995 0.269322
0.453451 0.597028 0.278328
0.491402 0.594427 0.290642
0.526311 0.596476 0.298521
0.566259 0.599186 0.308157
0.610529 0.602356 0.319356
0.658285 0.606001 0.332749
0.694404 0.598987 0.353234
0.769393 0.612993 0.358356
0.850294 0.623691 0.345112
0.922956 0.629355 0.340186
0.984893 0.629938 0.338115
1.000000 0.632740 0.360815
0.434363 0.670954 0.304479
0.436963 0.670985 0.305315
0.447535 0.670393 0.307933
0.467292 0.669288 0.313194
0.495955 0.667537 0.321556
0.532189 0.665126 0.333074
0.569769 0.664241 0.344537
0.606988 0.666120 0.353808
0.648469 0.668391 0.365051
0.693062 0.671059 0.378204
0.740017 0.674098 0.393286
0.773452 0.666138 0.414789
0.838114 0.677657 0.433601
0.911565 0.688154 0.425507
0.974463 0.692616 0.423817
1.000000 0.696468 0.429694
0.485621 0.734047 0.355969
0.489494 0.735816 0.358796
0.497534 0.734273 0.359899
0.515053 0.733297 0.364857
0.541894 0.732679 0.373632
0.575921 0.731466 0.385461
0.615178 0.729339 0.399790
0.649874 0.730074 0.409880
0.686913 0.731291 0.420309
0.727061 0.732927 0.432925
0.769753 0.735451 0.448005
0.813739 0.738536 0.465307
0.844453 0.731238 0.487826
0.894562 0.738657 0.516970
0.956330 0.747463 0.512791
1.000000 0.755337 0.519743
0.548138 0.798806 0.425824
0.551476 0.799997 0.428347
0.557630 0.798340 0.428857
0.571640 0.796680 0.432136
0.593871 0.795136 0.438982
0.623865 0.793789 0.449842
0.660062 0.792581 0.464535
0.696814 0.792089 0.479767
0.729990 0.793723 0.491356
0.765471 0.795219 0.504237
0.802615 0.797049 0.518676
0.840774 0.799346 0.534831
0.879182 0.802244 0.552752
0.905403 0.795222 0.573215
0.943150 0.800456 0.607643
0.996100 0.813565 0.617975
0.610693 0.853239 0.500792
0.612880 0.853574 0.502119
0.617674 0.852176 0.502098
0.629605 0.851132 0.505593
0.649004 0.850453 0.512914
0.674592 0.849631 0.523302
0.705235 0.848385 0.536163
0.739206 0.846542 0.550910
0.768777 0.846926 0.562493
0.798931 0.848393 0.574383
0.831077 0.850468 0.588287
0.864222 0.852976 0.603959
0.897280 0.855652 0.620297
0.929345 0.858127 0.636526
0.951667 0.852463 0.654757
0.981280 0.859348 0.695210
0.687715 0.909276 0.596088
0.691164 0.910467 0.599538
0.695102 0.909713 0.600037
0.703878 0.908690 0.602447
0.718128 0.907673 0.607424
0.737747 0.906609 0.615106
0.762013 0.905447 0.625406
0.789491 0.904043 0.637753
0.817516 0.903001 0.650637
0.841459 0.904125 0.660709
0.867027 0.905669 0.672358
0.893871 0.907858 0.685856
0.921053 0.910598 0.700867
0.947688 0.913533 0.716363
0.973187 0.916461 0.731621
0.992243 0.914616 0.750826
0.761166 0.957794 0.687739
0.763442 0.958361 0.689876
0.766421 0.957897 0.690492
0.773489 0.957464 0.693251
0.784976 0.957110 0.698280
0.800351 0.956664 0.705318
0.819211 0.956084 0.714314
0.840720 0.955358 0.724794
0.864097 0.954540 0.736819
0.884941 0.955273 0.747592
0.905089 0.957183 0.758633
0.926091 0.959600 0.770981
0.947399 0.962493 0.784597
0.968438 0.965893 0.799210
0.988818 0.969915 0.815037
1.000000 0.975097 0.833127
0.074061 0.082496 0.096352
0.093848 0.083252 0.097028
0.135897 0.091552 0.102580
0.186246 0.104843 0.112864
0.244830 0.113322 0.120922
0.309758 0.120565 0.129756
0.380389 0.128962 0.140466
0.455075 0.140118 0.153182
0.530057 0.156515 0.168267
0.603591 0.178143 0.185477
0.679249 0.201450 0.203836
0.756027 0.224311 0.224263
0.832102 0.248414 0.248378
0.905376 0.275124 0.277707
0.973255 0.306006 0.312708
1.000000 0.343554 0.355144
0.075981 0.098067 0.097768
0.095014 0.098805 0.098950
0.138174 0.104858 0.104103
0.190440 0.113183 0.111997
0.248324 0.120681 0.119905
0.312341 0.128068 0.129289
0.382274 0.136202 0.140327
0.456536 0.147299 0.153162
0.531089 0.163328 0.167993
0.604398 0.184306 0.184945
0.680011 0.206840 0.203274
0.756600 0.229074 0.223814
0.832547 0.252619 0.248290
0.905732 0.278576 0.277634
0.972554 0.308422 0.312185
1.000000 0.346010 0.355232
0.098115 0.142452 0.106846
0.112647 0.141704 0.109236
0.143247 0.143142 0.114335
0.199199 0.149234 0.112003
0.259537 0.152366 0.117082
0.321799 0.157173 0.126748
0.389963 0.164449 0.138561
0.462543 0.174537 0.151554
0.535524 0.189128 0.166565
0.607935 0.208111 0.183535
0.683037 0.227884 0.201993
0.759052 0.247828 0.222467
0.834452 0.269052 0.247241
0.907186 0.292712 0.276727
0.974521 0.320945 0.312202
1.000000 0.355876 0.354744
0.126552 0.193681 0.121290
0.136509 0.193187 0.122550
0.165469 0.192586 0.127726
0.200539 0.195475 0.133009
0.258362 0.202145 0.130586
0.330301 0.207956 0.125956
0.401915 0.212844 0.133956
0.473101 0.220883 0.147122
0.543419 0.233184 0.162613
0.614460 0.248688 0.179837
0.688835 0.264922 0.198483
0.763597 0.281271 0.219804
0.838182 0.298698 0.244847
0.910052 0.318786 0.274974
0.975674 0.343090 0.310509
1.000000 0.374937 0.354050
0.157835 0.251420 0.137117
0.165564 0.251110 0.138172
0.191868 0.249868 0.143114
0.226305 0.251074 0.148570
0.266963 0.254703 0.155052
0.322994 0.260598 0.156213
0.405999 0.273069 0.143338
0.478736 0.280350 0.143110
0.552144 0.290337 0.155132
0.624074 0.301828 0.171844
0.697207 0.313966 0.191674
0.770552 0.325965 0.214137
0.843835 0.339385 0.240589
0.914383 0.355422 0.271788
0.979692 0.375987 0.308822
1.000000 0.402616 0.352592
0.195431 0.316075 0.154782
0.201725 0.315871 0.155652
0.224863 0.314739 0.160137
0.260654 0.313445 0.167394
0.297728 0.316567 0.173126
0.342016 0.320903 0.180814
0.393576 0.325086 0.187929
0.477907 0.342241 0.170554
0.554658 0.353671 0.159784
0.627237 0.362221 0.166818
0.705043 0.370934 0.182736
0.779546 0.378814 0.204837
0.851132 0.388314 0.233612
0.920033 0.400427 0.266824
0.982129 0.415281 0.303815
1.000000 0.437891 0.350048
0.240682 0.385958 0.175146
0.245887 0.385629 0.175973
0.265714 0.384732 0.179875
0.299333 0.382806 0.187485
0.336151 0.383410 0.194839
0.376077 0.386833 0.201693
0.420595 0.391405 0.210952
0.465514 0.393063 0.224057
0.547639 0.412199 0.204933
0.632231 0.425798 0.188078
0.705639 0.431596 0.184656
0.781246 0.437597 0.202140
0.856767 0.443986 0.226811
0.926695 0.451663 0.258393
0.988538 0.462987 0.299147
1.000000 0.479625 0.346293
0.291389 0.457275 0.199504
0.295572 0.457113 0.200333
0.312089 0.456186 0.203961
0.341041 0.454497 0.210863
0.378121 0.452423 0.220950
0.413382 0.455068 0.227505
0.453302 0.458784 0.235957
0.496754 0.463563 0.246435
0.537861 0.462580 0.262942
0.620692 0.480991 0.246943
0.706370 0.493262 0.230149
0.786452 0.499650 0.220448
0.856012 0.502977 0.230159
0.926302 0.508507 0.260367
0.987847 0.513536 0.293723
1.000000 0.524253 0.337628
0.340308 0.529469 0.228425
0.343827 0.529218 0.229052
0.357176 0.528460 0.232387
0.381931 0.526990 0.238749
0.415573 0.524784 0.248554
0.450670 0.524690 0.257935
0.487525 0.527676 0.265767
0.529356 0.531314 0.275600
0.575496 0.535688 0.286989
0.615224 0.531976 0.305870
0.695292 0.547607 0.298277
0.780341 0.558995 0.282884
0.860139 0.565470 0.273472
0.927263 0.568278 0.279846
0.986767 0.571396 0.303488
1.000000 0.579339 0.348260
0.384978 0.601297 0.262996
0.387781 0.601179 0.263751
0.399574 0.600517 0.266589
0.421464 0.599196 0.272486
0.452735 0.597171 0.281494
0.490999 0.594542 0.293567
0.526096 0.596471 0.301514
0.566112 0.599181 0.310894
0.610349 0.602338 0.322346
0.658061 0.606001 0.335440
0.694280 0.599100 0.355742
0.769427 0.613134 0.360694
0.850279 0.623765 0.347576
0.922014 0.628733 0.342052
0.984196 0.629547 0.340392
1.000000 0.633044 0.364170
0.433624 0.671327 0.307469
0.436274 0.671083 0.308069
0.446534 0.670554 0.310795
0.466517 0.669395 0.316041
0.495383 0.667658 0.324237
0.531646 0.665284 0.335869
0.569653 0.664207 0.347151
0.606873 0.666107 0.356474
0.648285 0.668386 0.367572
0.692958 0.671026 0.380611
0.739882 0.674067 0.395575
0.773256 0.666180 0.417064
0.838172 0.677765 0.435472
0.911464 0.688191 0.427337
0.974608 0.692884 0.426123
1.000000 0.697365 0.433088
0.486348 0.735657 0.360138
0.491313 0.738223 0.363820
0.500170 0.737632 0.366130
0.517675 0.736547 0.370956
0.543660 0.735060 0.378666
0.577001 0.732917 0.389396
0.615758 0.730195 0.402990
0.650645 0.730786 0.412976
0.687408 0.731813 0.423237
0.727389 0.733282 0.435550
0.769932 0.735701 0.450409
0.813638 0.738642 0.467432
0.844076 0.731055 0.489521
0.894240 0.738449 0.518029
0.956230 0.747508 0.514250
1.000000 0.755960 0.522246
0.549485 0.800366 0.430267
0.552477 0.801152 0.432181
0.559878 0.800488 0.434137
0.574480 0.799313 0.438151
0.596625 0.797684 0.444872
0.626490 0.796218 0.455431
0.661683 0.794243 0.469089
0.697720 0.792856 0.482977
0.730346 0.794009 0.493793
0.765560 0.795357 0.506277
0.802578 0.797123 0.520529
0.840793 0.799462 0.536664
0.879146 0.802322 0.554298
0.905301 0.795338 0.574879
0.943416 0.800952 0.609452
0.996586 0.814522 0.620506
0.612227 0.854407 0.504608
0.615735 0.855619 0.507737
0.621005 0.854614 0.508498
0.632790 0.853529 0.511812
0.651614 0.852472 0.518386
0.676569 0.851262 0.527928
0.706642 0.849587 0.539818
0.740125 0.847454 0.553953
0.769564 0.847570 0.565122
0.799548 0.848960 0.576717
0.831538 0.850938 0.590586
0.864448 0.853284 0.605706
0.897282 0.855747 0.621576
0.929234 0.858119 0.637551
0.951585 0.852544 0.655859
0.981369 0.859719 0.696480
0.688914 0.910115 0.598934
0.691021 0.910563 0.600628
0.695845 0.910315 0.602386
0.705455 0.909792 0.605909
0.719950 0.908904 0.611145
0.739395 0.907746 0.618611
0.763205 0.906408 0.628464
0.790266 0.904749 0.640125
0.818028 0.903398 0.652462
0.841667 0.904330 0.662031
0.867140 0.905791 0.673469
0.893917 0.907959 0.686892
0.921064 0.910680 0.701761
0.947704 0.913648 0.717190
0.973265 0.916667 0.732635
0.992383 0.915025 0.752120
0.761898 0.958202 0.689510
0.764585 0.959075 0.692332
0.767915 0.958727 0.693300
0.774866 0.958266 0.695895
0.785988 0.957794 0.700585
0.801059 0.957165 0.707204
0.819589 0.956451 0.715703
0.840946 0.955639 0.725970
0.864280 0.954770 0.737821
0.885159 0.955487 0.748618
0.905235 0.957372 0.759524
0.926201 0.959753 0.771781
0.947423 0.962579 0.785202
0.968414 0.965912 0.799637
0.988763 0.969946 0.815434
1.000000 0.975134 0.833506
0.071852 0.079988 0.135220
0.094086 0.080135 0.135676
0.138819 0.084517 0.138072
0.193532 0.093936 0.140979
0.244438 0.115128 0.148750
0.302037 0.137868 0.163583
0.371926 0.150155 0.175708
0.447907 0.159841 0.187385
0.523909 0.173900 0.200539
0.598181 0.192975 0.215230
0.674507 0.213687 0.231986
0.752043 0.234648 0.250395
0.828714 0.257628 0.272753
0.902540 0.283704 0.300029
0.970672 0.314439 0.333516
1.000000 0.351855 0.373980
0.068115 0.095989 0.136732
0.093498 0.096721 0.137112
0.139947 0.100561 0.139248
0.192858 0.109663 0.142327
0.243637 0.128216 0.151571
0.303138 0.145614 0.164817
0.373954 0.155147 0.175585
0.449540 0.164980 0.186905
0.524977 0.179108 0.200166
0.599059 0.197949 0.215098
0.675386 0.218124 0.231389
0.752673 0.238792 0.249832
0.829216 0.261462 0.272355
0.902878 0.287004 0.299931
0.969825 0.316436 0.332386
1.000000 0.354092 0.373848
0.077903 0.144084 0.140767
0.098041 0.144646 0.141460
0.143089 0.146231 0.143476
0.193127 0.152417 0.148116
0.249272 0.159841 0.155737
0.312457 0.167329 0.164024
0.382216 0.175816 0.173893
0.455859 0.186246 0.185201
0.529796 0.200212 0.198370
0.602816 0.217996 0.213367
0.678541 0.236659 0.229810
0.755200 0.255688 0.248575
0.831271 0.276351 0.271212
0.904425 0.300021 0.298993
0.972062 0.328328 0.332572
1.000000 0.363447 0.373364
0.102442 0.198965 0.144603
0.118811 0.198420 0.147021
0.162453 0.196310 0.153416
0.200423 0.197738 0.159068
0.259966 0.204611 0.156845
0.327134 0.209279 0.159565
0.396405 0.215899 0.169177
0.467163 0.225380 0.180893
0.538364 0.238247 0.194286
0.609870 0.253848 0.209520
0.684697 0.270037 0.226176
0.760135 0.286283 0.245335
0.835217 0.303972 0.268699
0.907451 0.324453 0.296970
0.973248 0.348935 0.330324
1.000000 0.381300 0.372574
0.149076 0.254789 0.160789
0.157972 0.254416 0.161744
0.187925 0.253045 0.165812
0.227061 0.252450 0.172166
0.266419 0.255842 0.177697
0.325393 0.263168 0.176958
0.405009 0.273309 0.169173
0.476981 0.280684 0.174112
0.549691 0.291188 0.185792
0.620028 0.303210 0.201891
0.693653 0.315864 0.219287
0.767471 0.328466 0.239909
0.841125 0.342547 0.264279
0.912046 0.359240 0.293466
0.977581 0.380405 0.328628
1.000000 0.407743 0.370645
0.188504 0.318529 0.175534
0.195269 0.318241 0.176443
0.220234 0.317102 0.180248
0.259511 0.315006 0.187510
0.297851 0.317327 0.193152
0.341546 0.321587 0.199918
0.395166 0.327136 0.204655
0.478657 0.342956 0.190951
0.552309 0.352678 0.184516
0.626146 0.361920 0.194466
0.703957 0.370922 0.208853
0.776955 0.379492 0.230890
0.848878 0.389764 0.257043
0.918010 0.402627 0.288078
0.980171 0.418286 0.323128
1.000000 0.441846 0.367840
0.234440 0.387660 0.193439
0.239689 0.387508 0.194273
0.260793 0.386420 0.197768
0.296096 0.384522 0.204667
0.335748 0.383852 0.212642
0.375548 0.387233 0.219078
0.419764 0.391670 0.227444
0.466314 0.394403 0.238462
0.548245 0.412762 0.221419
0.631809 0.425287 0.208164
0.704038 0.430580 0.207127
0.780573 0.437302 0.225521
0.856140 0.444118 0.248582
0.924984 0.452676 0.279911
0.986878 0.464934 0.318560
1.000000 0.482333 0.363756
0.285522 0.458635 0.215743
0.290053 0.458362 0.216567
0.307149 0.457497 0.219826
0.337344 0.455739 0.226263
0.376287 0.453258 0.236195
0.412577 0.455282 0.243022
0.452514 0.458954 0.251036
0.495895 0.463671 0.260900
0.538001 0.463374 0.275998
0.621325 0.481446 0.260213
0.706529 0.493195 0.245796
0.785059 0.498987 0.239136
0.855325 0.502711 0.250041
0.925757 0.508690 0.279486
0.987234 0.514193 0.311046
1.000000 0.526146 0.355110
0.335122 0.530475 0.243011
0.338489 0.530262 0.243689
0.352730 0.529483 0.246727
0.378191 0.528007 0.252657
0.412727 0.525715 0.261965
0.449814 0.524728 0.271911
0.486614 0.527691 0.279478
0.528572 0.531369 0.288659
0.574638 0.535707 0.299823
0.614894 0.532403 0.317914
0.695761 0.548090 0.309355
0.780508 0.559104 0.295673
0.859941 0.565355 0.287488
0.926270 0.568076 0.294932
0.986218 0.571725 0.319754
1.000000 0.580108 0.362951
0.380572 0.602063 0.276254
0.383655 0.601910 0.276797
0.395523 0.601259 0.279642
0.417935 0.599954 0.285083
0.449892 0.597951 0.293642
0.488799 0.595181 0.305396
0.525202 0.596504 0.314002
0.565321 0.599160 0.323107
0.609572 0.602333 0.333960
0.657230 0.605959 0.346733
0.694037 0.599514 0.366496
0.769696 0.613581 0.370159
0.850322 0.624057 0.358071
0.921871 0.628826 0.352744
0.983512 0.629645 0.352577
1.000000 0.633455 0.375654
0.430109 0.671827 0.319158
0.432709 0.671742 0.319662
0.443187 0.671156 0.322336
0.463390 0.669995 0.327462
0.492820 0.668248 0.335288
0.529656 0.665785 0.346343
0.568968 0.664173 0.358321
0.606271 0.666095 0.367358
0.647625 0.668342 0.378127
0.692254 0.670988 0.390798
0.739083 0.674086 0.405292
0.772367 0.666195 0.426502
0.838219 0.678275 0.443555
0.911449 0.688605 0.435649
0.974422 0.693220 0.434675
1.000000 0.697664 0.441388
0.483792 0.736423 0.370600
0.488464 0.738705 0.374008
0.497722 0.738172 0.376232
0.515418 0.737110 0.380931
0.541616 0.735548 0.388401
0.575232 0.733402 0.398772
0.614382 0.730588 0.412117
0.650236 0.730751 0.422581
0.686921 0.731744 0.432391
0.726902 0.733298 0.444480
0.769464 0.735796 0.459193
0.813040 0.738690 0.475941
0.843365 0.731175 0.497475
0.894146 0.738955 0.524415
0.956156 0.747997 0.520518
1.000000 0.756485 0.528657
0.547378 0.800545 0.438443
0.550712 0.801535 0.440799
0.557989 0.800771 0.442452
0.572632 0.799529 0.446232
0.595238 0.798124 0.453201
0.625367 0.796785 0.463804
0.660804 0.794727 0.477021
0.697680 0.792845 0.491038
0.730230 0.794035 0.501676
0.765258 0.795368 0.513747
0.802276 0.797168 0.527578
0.840382 0.799540 0.543418
0.878637 0.802410 0.560636
0.904691 0.795409 0.580681
0.943207 0.801422 0.614319
0.996469 0.814881 0.624543
0.611113 0.854785 0.511509
0.614772 0.855995 0.514540
0.620106 0.855022 0.515319
0.631941 0.853955 0.518591
0.650852 0.852909 0.525034
0.675920 0.851687 0.534339
0.706016 0.850001 0.545913
0.739503 0.847827 0.559634
0.769627 0.847680 0.571135
0.799584 0.849084 0.582598
0.831511 0.851110 0.596084
0.864336 0.853450 0.610931
0.897025 0.855883 0.626382
0.928874 0.858238 0.641980
0.951124 0.852660 0.659943
0.981277 0.860202 0.700027
0.687909 0.910236 0.603270
0.690242 0.910816 0.605202
0.695121 0.910555 0.606891
0.704707 0.910030 0.610293
0.719198 0.909127 0.615479
0.738770 0.908041 0.622911
0.762601 0.906680 0.632494
0.789721 0.904990 0.643986
0.817915 0.903457 0.656357
0.841625 0.904371 0.665870
0.867109 0.905915 0.677247
0.893865 0.908112 0.690467
0.920954 0.910830 0.705080
0.947507 0.913765 0.720222
0.973008 0.916794 0.735381
0.992063 0.915068 0.754505
0.761172 0.958471 0.692341
0.763918 0.959319 0.695072
0.767220 0.958960 0.696088
0.774173 0.958500 0.698611
0.785313 0.958007 0.703209
0.800387 0.957385 0.709724
0.819016 0.956664 0.718079
0.840409 0.955840 0.728237
0.863798 0.954974 0.739980
0.885145 0.955560 0.751028
0.905211 0.957482 0.761801
0.926139 0.959857 0.773880
0.947344 0.962676 0.787115
0.968298 0.966032 0.801412
0.988674 0.970059 0.817029
1.000000 0.975274 0.834983
0.071553 0.075233 0.179904
0.092305 0.076306 0.180240
0.133949 0.080598 0.181782
0.190027 0.090018 0.185139
0.252071 0.099234 0.189182
0.311626 0.117580 0.194382
0.374265 0.143628 0.206845
0.442624 0.170506 0.224682
0.513781 0.196792 0.244305
0.588827 0.213632 0.259120
0.666347 0.231119 0.274199
0.745004 0.250182 0.291450
0.822733 0.272357 0.312126
0.897237 0.298029 0.337620
0.965912 0.328803 0.368984
1.000000 0.366534 0.407074
0.067876 0.093677 0.181411
0.091634 0.094519 0.181753
0.135568 0.098217 0.183153
0.191306 0.105023 0.186228
0.252537 0.112343 0.190041
0.311245 0.129978 0.195510
0.374163 0.153549 0.208488
0.442326 0.179018 0.226467
0.514522 0.201791 0.244752
0.589887 0.217328 0.258679
0.667270 0.234786 0.273675
0.745682 0.253622 0.290940
0.823231 0.275549 0.311894
0.897628 0.300903 0.337548
0.964834 0.330241 0.367652
1.000000 0.368502 0.406880
0.082507 0.140283 0.186084
0.098740 0.140983 0.186391
0.140685 0.143284 0.187588
0.195089 0.147250 0.189697
0.253226 0.153351 0.192844
0.309718 0.169297 0.201160
0.373113 0.188214 0.215553
0.444160 0.204965 0.230838
0.519557 0.217246 0.243457
0.594021 0.232796 0.257073
0.670707 0.249773 0.272216
0.748421 0.267956 0.289540
0.825448 0.288483 0.310542
0.899375 0.312409 0.336449
0.967439 0.341241 0.367983
1.000000 0.377019 0.406564
0.087150 0.198493 0.191709
0.101239 0.198777 0.191867
0.143213 0.199567 0.192545
0.199000 0.200332 0.194103
0.254379 0.206788 0.199044
0.315652 0.215090 0.207480
0.384357 0.223702 0.216948
0.456613 0.234120 0.227640
0.529222 0.247053 0.239859
0.601722 0.262314 0.253591
0.677288 0.278217 0.268964
0.753799 0.294663 0.286662
0.829747 0.312950 0.308037
0.902641 0.334251 0.334446
0.968603 0.359567 0.365267
1.000000 0.393233 0.405295
0.097821 0.261079 0.192939
0.111824 0.260855 0.193177
0.157806 0.259584 0.194976
0.221192 0.256025 0.204193
0.265043 0.257596 0.210347
0.329159 0.265594 0.208675
0.400992 0.271881 0.209699
0.473035 0.281171 0.220130
0.542089 0.292536 0.232767
0.612939 0.305662 0.247055
0.687019 0.319165 0.262880
0.761729 0.332933 0.281531
0.836163 0.348218 0.303773
0.907595 0.366215 0.330982
0.973502 0.388855 0.363533
1.000000 0.417606 0.403322
0.147530 0.323919 0.202676
0.162809 0.323339 0.204732
0.202272 0.321646 0.210521
0.250010 0.319207 0.216775
0.296715 0.318417 0.224221
0.340001 0.322545 0.230216
0.398860 0.329974 0.230898
0.479736 0.342862 0.223359
0.549521 0.350502 0.224481
0.624471 0.360986 0.237364
0.698952 0.370733 0.253172
0.771949 0.380806 0.273348
0.844427 0.392615 0.297056
0.914016 0.407001 0.325564
0.976269 0.424008 0.357729
1.000000 0.449530 0.400256
0.213840 0.391211 0.222679
0.220447 0.391009 0.223344
0.245899 0.389884 0.226250
0.286072 0.387762 0.232272
0.333197 0.384957 0.241433
0.373920 0.387808 0.247700
0.417956 0.391990 0.255246
0.468369 0.396739 0.262466
0.549502 0.413292 0.249519
0.629232 0.423278 0.241873
0.702346 0.429082 0.246934
0.779432 0.436686 0.265151
0.853731 0.444638 0.287671
0.921506 0.454942 0.317825
0.983499 0.468793 0.353514
1.000000 0.487759 0.395608
0.269797 0.461312 0.243294
0.275033 0.461031 0.244017
0.294244 0.460145 0.246831
0.327787 0.458264 0.252491
0.369802 0.455607 0.261526
0.410536 0.455488 0.270027
