assets/lut/editingcorp stringa.cube
# Created by: G'MIC (https://gmic.eu)
TITLE "stringa"
# LUT size
LUT_3D_SIZE 13
# Data domain
DOMAIN_MIN 0.0 0.0 0.0
DOMAIN_MAX 1.0 1.0 1.0
# LUT data points
0.04126962274312973 0.027871090918779373 0.028102336451411247
0.11723725497722626 0.029310040175914764 0.025840848684310913
0.18294885754585266 0.035090591758489609 0.021337412297725677
0.24917064607143402 0.039995711296796799 0.021107647567987442
0.31868022680282593 0.043746829032897949 0.02153308317065239
0.39008939266204834 0.044528227299451828 0.020568907260894775
0.46425604820251465 0.044267438352108002 0.019497277215123177
0.54231059551239014 0.044215783476829529 0.019363284111022949
0.62303119897842407 0.042826108634471893 0.019665108993649483
0.70537745952606201 0.040271129459142685 0.020429978147149086
0.78999549150466919 0.037667561322450638 0.021301448345184326
0.8786846399307251 0.036295544356107712 0.021505199372768402
0.96961688995361328 0.037954606115818024 0.020906830206513405
0.061329349875450134 0.085526637732982635 0.045006353408098221
0.1465471088886261 0.079188339412212372 0.031784716993570328
0.21277926862239838 0.086510315537452698 0.031072534620761871
0.27390462160110474 0.099791146814823151 0.032438945025205612
0.3387245237827301 0.10794399678707123 0.029296800494194031
0.40677282214164734 0.11058614403009415 0.024687463417649269
0.47880363464355469 0.11290733516216278 0.022175762802362442
0.55628758668899536 0.11472418159246445 0.021567655727267265
0.63702297210693359 0.11576478183269501 0.020973924547433853
0.71830743551254272 0.11491325497627258 0.020737443119287491
0.8013729453086853 0.11213640868663788 0.020873155444860458
0.88880681991577148 0.11200999468564987 0.020525883883237839
0.97728818655014038 0.11414941400289536 0.019646244123578072
0.074039384722709656 0.14810790121555328 0.06347433477640152
0.16220968961715698 0.13620994985103607 0.040538232773542404
0.23610468208789825 0.13858817517757416 0.030512042343616486
0.29625266790390015 0.16045340895652771 0.029612477868795395
0.35542804002761841 0.17533811926841736 0.027639096602797508
0.42031985521316528 0.18077816069126129 0.02463766373693943
0.49099177122116089 0.1861354261636734 0.023784443736076355
0.56814402341842651 0.18921943008899689 0.023366307839751244
0.64848875999450684 0.18959882855415344 0.022286778315901756
0.72853368520736694 0.1895386278629303 0.021310320124030113
0.80989092588424683 0.18921568989753723 0.02085399255156517
0.89706015586853027 0.18921568989753723 0.020034415647387505
0.98238456249237061 0.19170205295085907 0.019333723932504654
0.087024182081222534 0.21652916073799133 0.078023575246334076
0.16699002683162689 0.2050844132900238 0.048874471336603165
0.24559664726257324 0.19825603067874908 0.029600165784358978
0.31249859929084778 0.2131836861371994 0.026164514943957329
0.36819508671760559 0.23979766666889191 0.025237603113055229
0.42896825075149536 0.25496301054954529 0.024679819121956825
0.49862197041511536 0.26208579540252686 0.025626687332987785
0.57611465454101562 0.26451361179351807 0.025764929130673409
0.65543609857559204 0.26552340388298035 0.025143776088953018
0.73414880037307739 0.26642155647277832 0.024229161441326141
0.81505435705184937 0.26642155647277832 0.023022416979074478
0.90259212255477905 0.26642155647277832 0.021769849583506584
0.9864201545715332 0.26763859391212463 0.020996034145355225
0.10583334416151047 0.28311160206794739 0.085983172059059143
0.17545850574970245 0.2760334312915802 0.057192441076040268
0.24907620251178741 0.26657390594482422 0.034633368253707886
0.31930384039878845 0.26809599995613098 0.02518807165324688
0.37828764319419861 0.29126402735710144 0.021744746714830399
0.43600755929946899 0.31872990727424622 0.022317893803119659
0.50316077470779419 0.33395838737487793 0.023833509534597397
0.57973414659500122 0.33807605504989624 0.025756731629371643
0.65935629606246948 0.33961832523345947 0.028022542595863342
0.7369610071182251 0.34268200397491455 0.028508353978395462
0.81791883707046509 0.3436274528503418 0.02687041275203228
0.90717089176177979 0.34335985779762268 0.024874847382307053
0.98955845832824707 0.34356209635734558 0.023774465546011925
0.12850117683410645 0.3497660756111145 0.09452163428068161
0.19060923159122467 0.34655264019966125 0.071363411843776703
0.25690171122550964 0.33979517221450806 0.048668656498193741
0.32505732774734497 0.33428296446800232 0.030690241605043411
0.38778239488601685 0.34357920289039612 0.018666958436369896
0.44448965787887573 0.3700832724571228 0.015858011320233345
0.50632083415985107 0.39620751142501831 0.017111834138631821
0.57948386669158936 0.40992569923400879 0.02190755121409893
0.6593967080116272 0.41585913300514221 0.029150869697332382
0.73791724443435669 0.41895455121994019 0.033235691487789154
0.82099926471710205 0.42066940665245056 0.031621597707271576
0.91214871406555176 0.41726309061050415 0.028547009453177452
0.99200975894927979 0.41927841305732727 0.026826910674571991
0.14606307446956635 0.42184340953826904 0.10778822004795074
0.20526111125946045 0.42135798931121826 0.089901745319366455
0.26662316918373108 0.41925755143165588 0.069358095526695251
0.33106905221939087 0.4132312536239624 0.047455403953790665
0.39402413368225098 0.40899884700775146 0.027550507336854935
0.45172944664955139 0.42108452320098877 0.015532280318439007
0.51117932796478271 0.44818446040153503 0.01103394478559494
0.58018821477890015 0.47343462705612183 0.015452859923243523
0.6566084623336792 0.49027463793754578 0.027127031236886978
0.73665082454681396 0.49761486053466797 0.034152626991271973
0.82189351320266724 0.49930241703987122 0.033789824694395065
0.9157748818397522 0.49769362807273865 0.031161513179540634
0.99390923976898193 0.49919226765632629 0.029084928333759308
0.1613246351480484 0.4976036548614502 0.12471536546945572
0.2198605090379715 0.4982965886592865 0.11121266335248947
0.27920645475387573 0.49821242690086365 0.0933823361992836
0.34024479985237122 0.49319726228713989 0.071946345269680023
0.40106716752052307 0.483591228723526 0.048585958778858185
0.45878759026527405 0.48119369149208069 0.026272822171449661
0.51778250932693481 0.49708271026611328 0.010298321023583412
0.58272784948348999 0.52598828077316284 0.0096778273582458496
0.65418028831481934 0.55579972267150879 0.021470731124281883
0.73162776231765747 0.57306432723999023 0.028850061818957329
0.81797057390213013 0.58128958940505981 0.031099475920200348
0.91492486000061035 0.58215922117233276 0.031084846705198288
0.99467730522155762 0.58359265327453613 0.030882352963089943
0.17796733975410461 0.57396602630615234 0.14402538537979126
0.23561446368694305 0.57382524013519287 0.13338764011859894
0.29348033666610718 0.57360243797302246 0.11862029880285263
0.35212808847427368 0.57128828763961792 0.099881626665592194
0.40991389751434326 0.56356239318847656 0.077247858047485352
0.46610713005065918 0.55413001775741577 0.050262123346328735
0.52333223819732666 0.55631136894226074 0.024714885279536247
0.58495253324508667 0.57554268836975098 0.013706999830901623
0.65180492401123047 0.60573667287826538 0.016512298956513405
0.72530430555343628 0.63481318950653076 0.021886952221393585
0.81087577342987061 0.6555478572845459 0.026407698169350624
0.91098767518997192 0.66324925422668457 0.028639834374189377
0.99397909641265869 0.66578108072280884 0.028532259166240692
0.19610989093780518 0.64631021022796631 0.16262753307819366
0.25182643532752991 0.64495670795440674 0.15424825251102448
0.30746567249298096 0.6440964937210083 0.14308568835258484
0.36343342065811157 0.64303606748580933 0.12824946641921997
0.41851302981376648 0.6375962495803833 0.10904234647750854
0.47265461087226868 0.62706935405731201 0.084254167973995209
0.52835869789123535 0.62236684560775757 0.057474788278341293
0.58774113655090332 0.62894916534423828 0.034497249871492386
0.65130698680877686 0.6488569974899292 0.02158171683549881
0.72070413827896118 0.68196529150009155 0.020927188917994499
0.80302417278289795 0.71493279933929443 0.024780856445431709
0.90274941921234131 0.73104143142700195 0.026156855747103691
0.99129194021224976 0.74085122346878052 0.025918504223227501
0.21128697693347931 0.71210241317749023 0.17725299298763275
0.26594981551170349 0.71007758378982544 0.17210011184215546
0.31953462958335876 0.70834684371948242 0.16452459990978241
0.37257865071296692 0.70674479007720947 0.15405015647411346
0.42537158727645874 0.70240062475204468 0.1394118070602417
0.47901025414466858 0.69570040702819824 0.11903803050518036
0.53453850746154785 0.69065672159194946 0.093923710286617279
0.59270042181015015 0.69010812044143677 0.065881989896297455
0.6529802680015564 0.6987844705581665 0.040860719978809357
0.71722793579101562 0.72404521703720093 0.02833862230181694
0.79356729984283447 0.75786441564559937 0.024771986529231071
0.88886445760726929 0.78533935546875 0.023059681057929993
0.98421859741210938 0.80846798419952393 0.02235698327422142
0.22466497123241425 0.77518975734710693 0.18899255990982056
0.27826231718063354 0.77261644601821899 0.18639540672302246
0.33005580306053162 0.77084952592849731 0.18201585114002228
0.38105395436286926 0.76877206563949585 0.1756046861410141
0.43228405714035034 0.76664316654205322 0.16519658267498016
0.48612412810325623 0.76469939947128296 0.14927665889263153
0.54244875907897949 0.76355862617492676 0.12773731350898743
0.59986281394958496 0.76335823535919189 0.10136931389570236
0.65658062696456909 0.76583874225616455 0.07195013016462326
0.71535944938659668 0.77634340524673462 0.04596932977437973
0.78509056568145752 0.80006313323974609 0.028517644852399826
0.87502259016036987 0.83547848463058472 0.02204468660056591
0.97429901361465454 0.87148785591125488 0.020194873213768005
0.23653306066989899 0.83932292461395264 0.19904701411724091
0.28905215859413147 0.83693015575408936 0.19794026017189026
0.33993291854858398 0.83536088466644287 0.19567583501338959
0.39004558324813843 0.83490544557571411 0.19161173701286316
0.44096103310585022 0.83513551950454712 0.18431229889392853
0.49472513794898987 0.83753401041030884 0.17187699675559998
0.55107617378234863 0.84117752313613892 0.15470995008945465
0.60777109861373901 0.84471303224563599 0.1325903981924057
0.66232210397720337 0.84394389390945435 0.10205256193876266
0.71795010566711426 0.84580492973327637 0.068871758878231049
0.78423339128494263 0.86215192079544067 0.042858108878135681
0.86902093887329102 0.89570027589797974 0.028614208102226257
0.96674495935440063 0.93547195196151733 0.023487105965614319
0.028046790510416031 0.046153377741575241 0.079419784247875214
0.10496657341718674 0.044013738632202148 0.085362032055854797
0.17620350420475006 0.045808844268321991 0.063192568719387054
0.24244984984397888 0.047194849699735641 0.062348801642656326
0.31224340200424194 0.046957410871982574 0.073169440031051636
0.3831237256526947 0.046131283044815063 0.078205391764640808
0.45646530389785767 0.044922817498445511 0.080461315810680389
0.53439301252365112 0.044959649443626404 0.083012029528617859
0.61534172296524048 0.043232951313257217 0.085853815078735352
0.69702982902526855 0.03959902748465538 0.089254923164844513
0.78063040971755981 0.035345863550901413 0.092292726039886475
0.87023401260375977 0.033492609858512878 0.093335278332233429
0.96446603536605835 0.035074464976787567 0.092517480254173279
0.03112691268324852 0.11140759289264679 0.11101879179477692
0.11658555269241333 0.1086561307311058 0.10751215368509293
0.19226729869842529 0.10627933591604233 0.09876532107591629
0.26208892464637756 0.10774970054626465 0.094792112708091736
0.33144775032997131 0.10996264219284058 0.092764370143413544
0.39948466420173645 0.10947958379983902 0.089101158082485199
0.47128936648368835 0.1117144301533699 0.087210260331630707
0.54942578077316284 0.11421085149049759 0.088244251906871796
0.63070070743560791 0.11578764021396637 0.088924989104270935
0.71140867471694946 0.11402431130409241 0.090239293873310089
0.79312783479690552 0.11183522641658783 0.092323526740074158
0.88111931085586548 0.11143898963928223 0.09241262823343277
0.97267711162567139 0.112854965031147 0.092378430068492889
0.036946389824151993 0.17052274942398071 0.13606485724449158
0.1239011138677597 0.16527168452739716 0.12187758833169937
0.20765765011310577 0.1590636670589447 0.10660376399755478
0.28062504529953003 0.17148883640766144 0.10256950557231903
0.34623202681541443 0.17848965525627136 0.099718280136585236
0.4134928286075592 0.18050925433635712 0.094452306628227234
0.48483726382255554 0.18531167507171631 0.092944249510765076
0.56292557716369629 0.18906137347221375 0.092977829277515411
0.64408040046691895 0.19014053046703339 0.091709420084953308
0.72353118658065796 0.19026519358158112 0.091596834361553192
0.80301874876022339 0.18921568989753723 0.092411234974861145
0.89025139808654785 0.18924242258071899 0.092401959002017975
0.9791724681854248 0.19252166152000427 0.09222576767206192
0.046156700700521469 0.23034423589706421 0.14991448819637299
0.12679091095924377 0.2250080406665802 0.12804168462753296
0.21519023180007935 0.21522283554077148 0.1048087477684021
0.29310417175292969 0.22594106197357178 0.096733435988426208
0.35875335335731506 0.24446164071559906 0.095404952764511108
0.42418894171714783 0.25611597299575806 0.095475263893604279
0.49521195888519287 0.26218864321708679 0.096398584544658661
0.57279860973358154 0.26466166973114014 0.097197636961936951
0.652382493019104 0.26596680283546448 0.097198128700256348
0.72981840372085571 0.26642155647277832 0.096381530165672302
0.80906015634536743 0.26642155647277832 0.095584943890571594
0.89672303199768066 0.26643413305282593 0.094508647918701172
0.98367977142333984 0.268830806016922 0.094005540013313293
0.067228339612483978 0.29246899485588074 0.15709307789802551
0.13929876685142517 0.28915256261825562 0.13365830481052399
0.2204214483499527 0.2801266610622406 0.10882607102394104
0.3004206120967865 0.27954921126365662 0.092452913522720337
0.36974629759788513 0.29785951972007751 0.08573295921087265
0.43321713805198669 0.32051923871040344 0.088325917720794678
0.50196343660354614 0.33453148603439331 0.09311358630657196
0.57867336273193359 0.33874469995498657 0.096972100436687469
0.6569821834564209 0.33980324864387512 0.10067612677812576
0.73353815078735352 0.34220379590988159 0.1021975502371788
0.81257909536361694 0.3436274528503418 0.10076127946376801
0.9023432731628418 0.34362590312957764 0.09893529862165451
0.98784071207046509 0.34370505809783936 0.098460346460342407
0.094158992171287537 0.35714337229728699 0.16325484216213226
0.1578017920255661 0.35569804906845093 0.14403147995471954
0.23001661896705627 0.34869441390037537 0.11997249722480774
0.30753394961357117 0.34114158153533936 0.095320068299770355
0.37962439656257629 0.34693670272827148 0.077654279768466949
0.44126826524734497 0.37111857533454895 0.075446292757987976
0.50529152154922485 0.39657750725746155 0.080841973423957825
0.57916665077209473 0.41051307320594788 0.089302986860275269
0.65928119421005249 0.4148065447807312 0.09947967529296875
0.73742526769638062 0.41669028997421265 0.10624868422746658
0.81817728281021118 0.41824638843536377 0.10641886293888092
0.90908986330032349 0.41748806834220886 0.10428362339735031
0.99110102653503418 0.4191986620426178 0.10298692435026169
0.11519142240285873 0.42692887783050537 0.17140369117259979
0.17622292041778564 0.42731961607933044 0.15657897293567657
0.2428961843252182 0.42386558651924133 0.13575106859207153
0.31463527679443359 0.41542163491249084 0.10940200090408325
0.38418668508529663 0.41039189696311951 0.084288083016872406
0.44609284400939941 0.42327925562858582 0.070752419531345367
0.50799810886383057 0.44980975985527039 0.067823641002178192
0.57900851964950562 0.4737379252910614 0.075729802250862122
0.65669292211532593 0.48818871378898621 0.091597341001033783
0.73725491762161255 0.49378782510757446 0.10433416813611984
0.82177966833114624 0.49668949842453003 0.10787466913461685
0.91479462385177612 0.49646049737930298 0.10793431848287582
0.99380850791931152 0.49856528639793396 0.10685029625892639
0.13436518609523773 0.50097489356994629 0.18312855064868927
0.19459719955921173 0.50207138061523438 0.17223913967609406
0.25838527083396912 0.50132447481155396 0.15526273846626282
0.32473143935203552 0.49480512738227844 0.13199132680892944
0.38984358310699463 0.48540464043617249 0.10540258139371872
0.45091050863265991 0.48434880375862122 0.081514574587345123
0.51175183057785034 0.49882251024246216 0.064336590468883514
0.57835012674331665 0.5258287787437439 0.063659638166427612
0.65168648958206177 0.55364638566970825 0.079054541885852814
0.73114758729934692 0.57030004262924194 0.094001606106758118
0.81855744123458862 0.57903927564620972 0.10274516046047211
0.91626226902008057 0.5808747410774231 0.10694476962089539
0.99534004926681519 0.5829695463180542 0.10808823257684708
0.15526624023914337 0.57506519556045532 0.19939793646335602
0.21468380093574524 0.57615679502487183 0.19110193848609924
0.27547568082809448 0.57619786262512207 0.17765095829963684
0.33791056275367737 0.57270973920822144 0.15877352654933929
0.39880189299583435 0.56415235996246338 0.13478001952171326
0.45707151293754578 0.55563324689865112 0.10817663371562958
0.51549029350280762 0.5570751428604126 0.083450987935066223
0.57836902141571045 0.57484203577041626 0.070649690926074982
0.64714944362640381 0.60351079702377319 0.073674127459526062
0.7231941819190979 0.63237166404724121 0.08405449241399765
0.81098687648773193 0.65358036756515503 0.094885386526584625
0.91331946849822998 0.66230082511901855 0.10246414691209793
0.99558353424072266 0.66665011644363403 0.10578520596027374
0.17716354131698608 0.64570647478103638 0.2163887619972229
0.23500198125839233 0.64515924453735352 0.21001432836055756
0.29249691963195801 0.64502733945846558 0.2001664787530899
0.3508022129535675 0.6439892053604126 0.18602018058300018
0.40828785300254822 0.63844245672225952 0.16761802136898041
0.46387958526611328 0.62894201278686523 0.14524157345294952
0.51977574825286865 0.62342542409896851 0.12151149660348892
0.57997334003448486 0.62831693887710571 0.098102778196334839
0.64512342214584351 0.64723175764083862 0.083610743284225464
0.71644026041030884 0.67923969030380249 0.083461955189704895
0.80133330821990967 0.71168410778045654 0.090793401002883911
0.9048159122467041 0.73106580972671509 0.097524471580982208
0.99302023649215698 0.74336045980453491 0.10147427022457123
0.1962357759475708 0.71017438173294067 0.23041574656963348
0.25197622179985046 0.70828127861022949 0.22628483176231384
0.30723941326141357 0.70780056715011597 0.2200373113155365
0.36236613988876343 0.70767563581466675 0.21081940829753876
0.4167938232421875 0.70484304428100586 0.19741709530353546
0.47121360898017883 0.69864010810852051 0.18041685223579407
0.52675729990005493 0.69241118431091309 0.15920652449131012
0.58518379926681519 0.69023716449737549 0.13254940509796143
0.64634400606155396 0.69809997081756592 0.10849463939666748
0.71182644367218018 0.72187751531600952 0.09610525518655777
0.79029321670532227 0.75548619031906128 0.093133337795734406
0.88889515399932861 0.78705614805221558 0.093949668109416962
0.98562973737716675 0.81368440389633179 0.095761664211750031
0.21285480260848999 0.77241021394729614 0.24150286614894867
0.26710855960845947 0.76936542987823486 0.23956725001335144
0.3201238214969635 0.76828098297119141 0.23617243766784668
0.37251430749893188 0.76910769939422607 0.23065134882926941
0.42519903182983398 0.76934754848480225 0.22181716561317444
0.47964045405387878 0.76811188459396362 0.20883350074291229
0.53581136465072632 0.76646339893341064 0.19063131511211395
0.5931822657585144 0.76362407207489014 0.16724741458892822
0.65018564462661743 0.76360881328582764 0.14048604667186737
0.70924609899520874 0.77395528554916382 0.1172584667801857
0.77957403659820557 0.80077153444290161 0.10120818018913269
0.87054502964019775 0.83949989080429077 0.09357750415802002
0.97292065620422363 0.88004690408706665 0.092346712946891785
0.22682204842567444 0.83627164363861084 0.2511584460735321
0.2796207070350647 0.83348733186721802 0.25050157308578491
0.33117374777793884 0.83303582668304443 0.24913452565670013
0.38203924894332886 0.83480548858642578 0.24594281613826752
0.43414527177810669 0.83724546432495117 0.23996694386005402
0.48841935396194458 0.84028804302215576 0.23019373416900635
0.54480963945388794 0.84344100952148438 0.21620649099349976
0.60121458768844604 0.84475308656692505 0.19653609395027161
0.65543407201766968 0.84213179349899292 0.16965471208095551
0.71016514301300049 0.84404593706130981 0.13972721993923187
0.7754252552986145 0.86288809776306152 0.11519443243741989
0.86023855209350586 0.89963871240615845 0.10058130323886871
0.96180605888366699 0.94351744651794434 0.094526998698711395
0.027939680963754654 0.058011777698993683 0.10274689644575119
0.095290794968605042 0.053492572158575058 0.13417227566242218
0.17118106782436371 0.053709980100393295 0.12182427197694778
0.23962648212909698 0.056446779519319534 0.097090192139148712
0.3065507709980011 0.053176835179328918 0.10911636054515839
0.37581691145896912 0.04806886613368988 0.12532243132591248
0.44742381572723389 0.046944651752710342 0.13708682358264923
0.52511471509933472 0.046638667583465576 0.14498202502727509
0.60612815618515015 0.044689763337373734 0.15125703811645508
0.68689620494842529 0.039551574736833572 0.15869615972042084
0.76961743831634521 0.032959207892417908 0.16640190780162811
0.86093020439147949 0.029922904446721077 0.16958644986152649
0.95915555953979492 0.032087706029415131 0.16960784792900085
0.023677796125411987 0.12375599145889282 0.14441344141960144
0.096898160874843597 0.12652629613876343 0.15688280761241913
0.17610789835453033 0.12184713035821915 0.15827645361423492
0.25178718566894531 0.11479981243610382 0.13855041563510895
0.32135105133056641 0.11080453544855118 0.13864508271217346
0.38951569795608521 0.10782939195632935 0.14610829949378967
0.46130964159965515 0.1103929877281189 0.1515478789806366
0.53980350494384766 0.11355409771203995 0.15554657578468323
0.62125509977340698 0.11474766582250595 0.15876135230064392
0.70112830400466919 0.11270204186439514 0.16320739686489105
0.78257697820663452 0.10964318364858627 0.16832497715950012
0.87235057353973389 0.10860676318407059 0.16960784792900085
0.96800285577774048 0.11115779727697372 0.16957575082778931
0.023555172607302666 0.18479225039482117 0.18492914736270905
0.10162809491157532 0.18686458468437195 0.18593423068523407
0.18268993496894836 0.18096789717674255 0.17766700685024261
0.26187455654144287 0.17920003831386566 0.16630598902702332
0.33362680673599243 0.17941290140151978 0.16303542256355286
0.40310150384902954 0.18037955462932587 0.16237230598926544
0.47545194625854492 0.18426364660263062 0.16437184810638428
0.55403155088424683 0.18795579671859741 0.16603085398674011
0.63480931520462036 0.18922486901283264 0.16645911335945129
0.71360617876052856 0.18921972811222076 0.16789704561233521
0.79354053735733032 0.18908420205116272 0.17015235126018524
0.88253384828567505 0.1890077143907547 0.17012988030910492
0.97551625967025757 0.19146235287189484 0.16960732638835907
0.024632666260004044 0.24288667738437653 0.21122650802135468
0.099782995879650116 0.24390098452568054 0.20471943914890289
0.18401642143726349 0.235757976770401 0.18878914415836334
0.2705722451210022 0.23524773120880127 0.1732393205165863
0.34559822082519531 0.24616596102714539 0.17014147341251373
0.4155438244342804 0.25637978315353394 0.17206984758377075
0.48821619153022766 0.26217418909072876 0.1742996871471405
0.56646567583084106 0.26301860809326172 0.17516008019447327
0.64603030681610107 0.26494097709655762 0.1751033216714859
0.72339177131652832 0.26636043190956116 0.17491143941879272
0.80299121141433716 0.26642155647277832 0.17472904920578003
0.89183700084686279 0.26642265915870667 0.17364075779914856
0.98133248090744019 0.26839053630828857 0.17299742996692657
0.038644976913928986 0.30307605862617493 0.2258269190788269
0.10764875262975693 0.3035048246383667 0.21643261611461639
0.18866384029388428 0.2959606945514679 0.19744879007339478
0.27694928646087646 0.28915324807167053 0.1748490184545517
