assets/lut/editingcorp huesio.cube
# Created by: G'MIC (https://gmic.eu)
TITLE "huesio"
# LUT size
LUT_3D_SIZE 7
# Data domain
DOMAIN_MIN 0.0 0.0 0.0
DOMAIN_MAX 1.0 1.0 1.0
# LUT data points
0.075135968625545502 0.08023332804441452 0.081673592329025269
0.18393963575363159 0.10283146053552628 0.070766478776931763
0.3124312162399292 0.13540126383304596 0.072038732469081879
0.41487255692481995 0.1639629453420639 0.083269856870174408
0.5054355263710022 0.20225599408149719 0.10206881910562515
0.58160072565078735 0.24607706069946289 0.11338828504085541
0.63688766956329346 0.28066939115524292 0.12867647409439087
0.068221084773540497 0.1328081488609314 0.0942344069480896
0.19734100997447968 0.15372905135154724 0.08217475563287735
0.35207796096801758 0.19359327852725983 0.074238859117031097
0.47139295935630798 0.24202163517475128 0.096272699534893036
0.55372494459152222 0.26497748494148254 0.11678607761859894
0.60324209928512573 0.26854050159454346 0.12099842727184296
0.64930647611618042 0.29535886645317078 0.12616132199764252
0.073760688304901123 0.19673411548137665 0.10940611362457275
0.16557995975017548 0.23057551681995392 0.10289785265922546
0.38746750354766846 0.2714577317237854 0.096776105463504791
0.51860594749450684 0.31416842341423035 0.11794348061084747
0.62551975250244141 0.35858368873596191 0.13954302668571472
0.67548197507858276 0.35521066188812256 0.13998118042945862
0.67431211471557617 0.32568970322608948 0.13338693976402283
0.078107468783855438 0.26234737038612366 0.1138019934296608
0.12603229284286499 0.28395560383796692 0.11034469306468964
0.39092102646827698 0.38843432068824768 0.14132179319858551
0.55602419376373291 0.39713776111602783 0.14544126391410828
0.673561692237854 0.4257514476776123 0.15735884010791779
0.74077725410461426 0.44542276859283447 0.16187140345573425
0.72686481475830078 0.3876250684261322 0.14824645221233368
0.092474855482578278 0.34400653839111328 0.11732765287160873
0.12156786769628525 0.35841202735900879 0.11043757945299149
0.22391019761562347 0.40130433440208435 0.11559400707483292
0.52606523036956787 0.52354264259338379 0.18892011046409607
0.71341216564178467 0.52280348539352417 0.18627986311912537
0.78524315357208252 0.52741986513137817 0.18127596378326416
0.80476045608520508 0.51933640241622925 0.17909948527812958
0.095997020602226257 0.41133555769920349 0.1433778703212738
0.1199791431427002 0.42412838339805603 0.12789075076580048
0.17094254493713379 0.44117379188537598 0.12325975298881531
0.26280495524406433 0.48162242770195007 0.13024546205997467
0.65985113382339478 0.62968635559082031 0.22694723308086395
0.80924147367477417 0.6120983362197876 0.2021087110042572
0.83307641744613647 0.59558552503585815 0.19648319482803345
0.10312392562627792 0.4663049578666687 0.16249276697635651
0.12072951346635818 0.47651344537734985 0.15311001241207123
0.16557705402374268 0.49302715063095093 0.14538377523422241
0.22991943359375 0.51921355724334717 0.13924455642700195
0.34128963947296143 0.5639919638633728 0.14694370329380035
0.76943767070770264 0.71199649572372437 0.25727209448814392
0.84357112646102905 0.6573830246925354 0.21427090466022491
0.056438416242599487 0.10467235743999481 0.15675187110900879
0.14262282848358154 0.11375618726015091 0.15249033272266388
0.26563563942909241 0.14483253657817841 0.1469082236289978
0.41272157430648804 0.19915726780891418 0.14407682418823242
0.52883350849151611 0.2459568977355957 0.15438763797283173
0.61278879642486572 0.27669414877891541 0.14700129628181458
0.6510816216468811 0.28903788328170776 0.13816076517105103
0.0548081174492836 0.14086605608463287 0.15846133232116699
0.14814002811908722 0.16310116648674011 0.17022407054901123
0.33410751819610596 0.20402495563030243 0.15027241408824921
0.47263446450233459 0.25254726409912109 0.14833025634288788
0.56396710872650146 0.27728936076164246 0.14712217450141907
0.62311041355133057 0.28499642014503479 0.14431151747703552
0.65226238965988159 0.2919275164604187 0.13673928380012512
0.061867553740739822 0.21314935386180878 0.18350224196910858
0.12078710645437241 0.22904399037361145 0.17466610670089722
0.35552665591239929 0.28650346398353577 0.17314518988132477
0.52019989490509033 0.33198302984237671 0.16737280786037445
0.63397926092147827 0.3711414635181427 0.17173472046852112
0.66481560468673706 0.33462652564048767 0.15295153856277466
0.67803984880447388 0.3193417489528656 0.14312145113945007
0.07336801290512085 0.28030809760093689 0.19506798684597015
0.10198120772838593 0.28716364502906799 0.17966738343238831
0.30513659119606018 0.36601278185844421 0.18410961329936981
0.55109864473342896 0.41887405514717102 0.19433164596557617
0.68555307388305664 0.44639861583709717 0.18933381140232086
0.75828570127487183 0.45588415861129761 0.18187335133552551
0.72598528861999512 0.37951985001564026 0.15708376467227936
0.094231747090816498 0.35625940561294556 0.17545950412750244
0.11431699246168137 0.36685019731521606 0.16463391482830048
0.18809790909290314 0.39824247360229492 0.15680931508541107
0.49040523171424866 0.51734912395477295 0.20634452998638153
0.72306281328201294 0.54259753227233887 0.2090250700712204
0.79844152927398682 0.53730994462966919 0.19603592157363892
0.81623351573944092 0.53593021631240845 0.19440233707427979
0.10098260641098022 0.41805577278137207 0.17291729152202606
0.1206517219543457 0.43383169174194336 0.15933185815811157
0.15920527279376984 0.44987496733665466 0.15195575356483459
0.23825842142105103 0.48134025931358337 0.14922921359539032
0.65922969579696655 0.64125615358352661 0.2433362603187561
0.81816303730010986 0.62319040298461914 0.21529084444046021
0.84065884351730347 0.60544359683990479 0.20883797109127045
0.11205205321311951 0.47527119517326355 0.19039048254489899
0.1228131428360939 0.48833030462265015 0.18268927931785583
0.16003009676933289 0.50234717130661011 0.17432799935340881
0.21641179919242859 0.52392363548278809 0.16594833135604858
0.32327523827552795 0.56105625629425049 0.16315123438835144
0.7614365816116333 0.71535193920135498 0.26661261916160583
0.84707015752792358 0.66703087091445923 0.22114084661006927
0.056840591132640839 0.14405784010887146 0.22911837697029114
0.091396883130073547 0.1482539027929306 0.21956786513328552
0.19996485114097595 0.16731597483158112 0.21444886922836304
0.3746243417263031 0.20837303996086121 0.19859541952610016
0.53179651498794556 0.27642002701759338 0.21350899338722229
0.6455005407333374 0.31178918480873108 0.21334159374237061
0.70181208848953247 0.31789061427116394 0.19549976289272308
0.055160939693450928 0.17144507169723511 0.23196850717067719
0.088923029601573944 0.1882999986410141 0.24842847883701324
0.23547281324863434 0.22898830473423004 0.25443318486213684
0.43728691339492798 0.2769310474395752 0.24450801312923431
0.57874095439910889 0.31978127360343933 0.24078989028930664
0.67225009202957153 0.33400741219520569 0.22244627773761749
0.71679568290710449 0.33608844876289368 0.19725057482719421
0.057813651859760284 0.2107885479927063 0.24253873527050018
0.086650505661964417 0.23175646364688873 0.26011130213737488
0.25268381834030151 0.29946109652519226 0.30016586184501648
0.51514089107513428 0.36809346079826355 0.30225235223770142
0.64865249395370483 0.38698264956474304 0.26669988036155701
0.70821303129196167 0.36200141906738281 0.22888053953647614
0.72454792261123657 0.34645757079124451 0.19135783612728119
0.078976020216941833 0.30325508117675781 0.29384353756904602
0.098397262394428253 0.31795498728752136 0.29398170113563538
0.20124872028827667 0.35598143935203552 0.28631749749183655
0.52783465385437012 0.45384126901626587 0.31164780259132385
0.71991938352584839 0.48895916342735291 0.28176233172416687
0.78472673892974854 0.47262465953826904 0.23783496022224426
0.73262184858322144 0.36819177865982056 0.18062463402748108
0.10878214985132217 0.39495077729225159 0.31576699018478394
0.1188182458281517 0.39819464087486267 0.29954361915588379
0.14283078908920288 0.40812575817108154 0.28080615401268005
0.40391808748245239 0.5089111328125 0.27746030688285828
0.73572319746017456 0.57293277978897095 0.26385384798049927
0.81792384386062622 0.56206738948822021 0.23179338872432709
0.82851189374923706 0.54888790845870972 0.21654495596885681
0.10945639759302139 0.43767634034156799 0.24903196096420288
0.12363854050636292 0.44642183184623718 0.22087733447551727
0.14773537218570709 0.46284571290016174 0.21571767330169678
0.20896601676940918 0.48679894208908081 0.19057263433933258
0.65094220638275146 0.64930576086044312 0.26141327619552612
0.82727646827697754 0.6363445520401001 0.23272565007209778
0.84992283582687378 0.6205132007598877 0.22116044163703918
0.11192070692777634 0.48329001665115356 0.23603382706642151
0.12687081098556519 0.49619290232658386 0.22095464169979095
0.15018521249294281 0.50634604692459106 0.2091316282749176
0.20317944884300232 0.53253638744354248 0.19496616721153259
0.33162093162536621 0.57610756158828735 0.19348803162574768
0.77222013473510742 0.72969985008239746 0.28609943389892578
0.85481631755828857 0.67882907390594482 0.23836421966552734
0.066786639392375946 0.19275893270969391 0.30109584331512451
0.089751362800598145 0.19451123476028442 0.28525444865226746
0.13583588600158691 0.20561249554157257 0.27403593063354492
0.3149297833442688 0.24219860136508942 0.25240057706832886
0.51343327760696411 0.28127145767211914 0.23097895085811615
0.6506839394569397 0.33394825458526611 0.26996538043022156
0.74520069360733032 0.33834558725357056 0.29970693588256836
0.068791106343269348 0.22085514664649963 0.31333258748054504
0.091156437993049622 0.23101651668548584 0.32129743695259094
0.14824102818965912 0.24581931531429291 0.30800220370292664
0.35510021448135376 0.28859436511993408 0.2885819673538208
0.55275923013687134 0.3235761821269989 0.26519057154655457
0.68389928340911865 0.36110180616378784 0.29888918995857239
0.77496880292892456 0.36530834436416626 0.3259795606136322
0.064527310431003571 0.23945288360118866 0.31245443224906921
0.091701492667198181 0.26860132813453674 0.33887222409248352
0.15855099260807037 0.30262663960456848 0.36876487731933594
0.41977035999298096 0.38496190309524536 0.39006191492080688
0.63516461849212646 0.4138888418674469 0.36683529615402222
0.73159468173980713 0.40228089690208435 0.35278120636940002
0.80491119623184204 0.39720603823661804 0.35255485773086548
0.072095148265361786 0.28410005569458008 0.33238840103149414
0.094089895486831665 0.30762022733688354 0.35283705592155457
0.14459986984729767 0.34707552194595337 0.3824026882648468
0.43748319149017334 0.47855681180953979 0.46177452802658081
0.7298850417137146 0.54002159833908081 0.46532878279685974
0.82177853584289551 0.51080822944641113 0.41843065619468689
0.82819896936416626 0.44045418500900269 0.36544138193130493
0.12702539563179016 0.42011874914169312 0.41848653554916382
0.14185337722301483 0.43592095375061035 0.42299628257751465
0.1685703843832016 0.45533892512321472 0.43011519312858582
0.32232478260993958 0.51946896314620972 0.43395411968231201
0.74870604276657104 0.63994932174682617 0.42443650960922241
0.86462819576263428 0.64096462726593018 0.39121547341346741
0.87227457761764526 0.60552287101745605 0.34243279695510864
0.16047060489654541 0.50383257865905762 0.42572081089019775
0.16921837627887726 0.5112723708152771 0.41641181707382202
0.17989753186702728 0.52173918485641479 0.40783575177192688
0.19473883509635925 0.52930426597595215 0.39100122451782227
0.59668254852294922 0.67197120189666748 0.36361819505691528
0.84612870216369629 0.67209160327911377 0.29398980736732483
0.86190295219421387 0.64533162117004395 0.25551697611808777
0.13018010556697845 0.50774621963500977 0.30487656593322754
0.13329361379146576 0.50926250219345093 0.28818684816360474
0.15033672749996185 0.51908749341964722 0.27192375063896179
0.1893177330493927 0.54461699724197388 0.25671011209487915
0.31203457713127136 0.58232015371322632 0.23262752592563629
0.7870938777923584 0.74414408206939697 0.30997854471206665
0.86089777946472168 0.69401460886001587 0.25364914536476135
0.085563257336616516 0.25603100657463074 0.37647134065628052
0.099855430424213409 0.2586311399936676 0.36401164531707764
0.13164938986301422 0.26542171835899353 0.35214173793792725
0.23136208951473236 0.30026307702064514 0.35852420330047607
0.49911481142044067 0.3345741331577301 0.33137822151184082
0.63805019855499268 0.34610387682914734 0.33235946297645569
0.73510748147964478 0.35229694843292236 0.37594014406204224
0.081243239343166351 0.27281004190444946 0.39289161562919617
0.09941941499710083 0.28057160973548889 0.39627662301063538
0.13546887040138245 0.29005521535873413 0.38269942998886108
0.23841919004917145 0.3260517418384552 0.38942283391952515
0.52647131681442261 0.37112990021705627 0.38029614090919495
0.66813302040100098 0.37370598316192627 0.37269842624664307
0.76193612813949585 0.38232901692390442 0.41453802585601807
0.083113938570022583 0.29842451214790344 0.40198034048080444
0.10538165271282196 0.31679198145866394 0.42141613364219666
0.13675621151924133 0.33106899261474609 0.43579304218292236
0.28278043866157532 0.3838706910610199 0.45764464139938354
0.55694907903671265 0.42226144671440125 0.45456728339195251
0.70240128040313721 0.40215185284614563 0.41969633102416992
0.7975231409072876 0.42060312628746033 0.4718431830406189
0.088212795555591583 0.32153695821762085 0.41217577457427979
0.10594907402992249 0.34223273396492004 0.4291083812713623
0.14478057622909546 0.37483397126197815 0.45992085337638855
0.30618518590927124 0.45492768287658691 0.53136914968490601
0.65015166997909546 0.53664970397949219 0.58418846130371094
0.77635979652404785 0.49982267618179321 0.54115498065948486
0.82051527500152588 0.45640060305595398 0.51827776432037354
0.11334452778100967 0.38635474443435669 0.44633907079696655
0.13267660140991211 0.40738251805305481 0.46325084567070007
0.15535889565944672 0.43129453063011169 0.4851652979850769
0.24316553771495819 0.49413403868675232 0.53265351057052612
0.69812142848968506 0.69837713241577148 0.66552191972732544
0.86956250667572021 0.72910106182098389 0.66836702823638916
0.89232778549194336 0.6837698221206665 0.65350747108459473
0.18879285454750061 0.52091598510742188 0.53205299377441406
0.21011944115161896 0.54218602180480957 0.5485265851020813
0.22747901082038879 0.56065243482589722 0.56067228317260742
0.25325533747673035 0.58388686180114746 0.57929301261901855
0.51534533500671387 0.71971613168716431 0.62168115377426147
0.87323778867721558 0.78961199522018433 0.57626157999038696
0.9027363657951355 0.77220648527145386 0.54658782482147217
0.21974828839302063 0.60221421718597412 0.53738927841186523
0.23193545639514923 0.61490648984909058 0.54347467422485352
0.23832729458808899 0.62163537740707397 0.54005587100982666
0.24875134229660034 0.63363158702850342 0.54309630393981934
0.27971836924552917 0.64778995513916016 0.52572113275527954
0.75225371122360229 0.79922890663146973 0.48839938640594482
0.88979274034500122 0.76175683736801147 0.39884829521179199
0.1005779504776001 0.32018402218818665 0.45838886499404907
0.11362598091363907 0.32168111205101013 0.45215290784835815
0.13719379901885986 0.32455655932426453 0.44566920399665833
0.18255357444286346 0.33860072493553162 0.44805121421813965
0.40896809101104736 0.41458749771118164 0.52161651849746704
0.64378088712692261 0.4214763343334198 0.54066866636276245
0.74398225545883179 0.40486794710159302 0.53939765691757202
0.099382899701595306 0.32606238126754761 0.46397796273231506
0.11468860507011414 0.33399677276611328 0.47139275074005127
0.14410056173801422 0.34310734272003174 0.46762934327125549
0.18466940522193909 0.35650637745857239 0.46931463479995728
0.43787205219268799 0.43879544734954834 0.55266326665878296
0.66669023036956787 0.44419348239898682 0.57206380367279053
0.76653021574020386 0.42515620589256287 0.57182180881500244
0.10172858089208603 0.34189528226852417 0.47525286674499512
0.11442916095256805 0.34756207466125488 0.48465994000434875
0.1403217613697052 0.35830491781234741 0.49158936738967896
0.19329611957073212 0.37796738743782043 0.49678713083267212
0.46726822853088379 0.46114349365234375 0.58810174465179443
0.69815099239349365 0.46365338563919067 0.60630446672439575
0.78702235221862793 0.44818207621574402 0.60570496320724487
0.1109277755022049 0.36876177787780762 0.48798617720603943
0.1214391365647316 0.37792414426803589 0.49711725115776062
0.14649122953414917 0.39728027582168579 0.51870018243789673
0.20866331458091736 0.42196258902549744 0.54248923063278198
0.52374899387359619 0.51515316963195801 0.65518021583557129
0.73012876510620117 0.49665865302085876 0.6505589485168457
0.80850470066070557 0.47598814964294434 0.63090807199478149
0.13063167035579681 0.41505971550941467 0.51030188798904419
0.1479448676109314 0.43356382846832275 0.52581393718719482
0.16753819584846497 0.45266446471214294 0.54279196262359619
0.22148396074771881 0.49009352922439575 0.57816404104232788
0.60877519845962524 0.67765802145004272 0.75904279947280884
0.8199346661567688 0.68512964248657227 0.7630842924118042
0.86210572719573975 0.61131769418716431 0.72345906496047974
0.17067976295948029 0.48424342274665833 0.54939943552017212
0.19199986755847931 0.5052986741065979 0.56631851196289062
0.21228663623332977 0.52576887607574463 0.58617866039276123
0.23568339645862579 0.54711258411407471 0.60512471199035645
0.43962681293487549 0.67036336660385132 0.70510697364807129
0.85627979040145874 0.84930247068405151 0.81653487682342529
0.91184628009796143 0.86713671684265137 0.82531410455703735
0.22898374497890472 0.57984441518783569 0.61265629529953003
0.24556460976600647 0.59840267896652222 0.6297152042388916
0.26125425100326538 0.61144131422042847 0.64283949136734009
0.27973723411560059 0.62907701730728149 0.66060304641723633
0.31175997853279114 0.65403121709823608 0.67951035499572754
0.70297700166702271 0.84784132242202759 0.78723436594009399
0.90987598896026611 0.88214683532714844 0.76833921670913696
0.11049488931894302 0.34834146499633789 0.49556991457939148
0.11995401978492737 0.36046043038368225 0.5129585862159729
0.14090277254581451 0.36485698819160461 0.51395326852798462
0.18980976939201355 0.38015255331993103 0.52111279964447021
0.34118154644966125 0.44429302215576172 0.60177451372146606
0.62439888715744019 0.46733483672142029 0.67661923170089722
0.75024735927581787 0.4458758533000946 0.67002862691879272
0.11821258813142776 0.37162816524505615 0.52226155996322632
0.1271837055683136 0.37910810112953186 0.5336909294128418
0.14315640926361084 0.38257136940956116 0.53266865015029907
0.18357597291469574 0.39529174566268921 0.53951174020767212
0.37796169519424438 0.47076946496963501 0.63543117046356201
0.66165840625762939 0.48996612429618835 0.70665168762207031
0.75519776344299316 0.46794062852859497 0.68728411197662354
0.12007468938827515 0.3806820809841156 0.5285334587097168
0.1292555034160614 0.38650381565093994 0.53676706552505493
0.14365172386169434 0.39263695478439331 0.5458415150642395
0.18320322036743164 0.40466320514678955 0.55433470010757446
0.41505187749862671 0.49354764819145203 0.66868740320205688
0.69107508659362793 0.50699847936630249 0.72752851247787476
0.78573572635650635 0.47741931676864624 0.69808530807495117
0.12711600959300995 0.39708796143531799 0.53918099403381348
0.13325577974319458 0.39484718441963196 0.54113978147506714
0.1449592113494873 0.40345519781112671 0.55303889513015747
0.18386010825634003 0.41365242004394531 0.56221097707748413
0.44057503342628479 0.51628535985946655 0.696388840675354
0.71846181154251099 0.53053241968154907 0.75251966714859009
0.81004494428634644 0.51019591093063354 0.73613429069519043
0.1455988734960556 0.43911626935005188 0.56314742565155029
0.15804502367973328 0.44846042990684509 0.57125681638717651
0.16991594433784485 0.45862844586372375 0.58339154720306396
0.19270610809326172 0.47482207417488098 0.60256755352020264
0.47895899415016174 0.59935909509658813 0.7519991397857666
0.76521509885787964 0.60913830995559692 0.79624968767166138
0.84165972471237183 0.5612175464630127 0.76182407140731812
0.18343037366867065 0.50296199321746826 0.5907822847366333
0.19727766513824463 0.51916450262069702 0.60799926519393921
0.21513091027736664 0.53762030601501465 0.62053197622299194
0.23554499447345734 0.55483126640319824 0.64157259464263916
0.36544749140739441 0.63482791185379028 0.7154044508934021
0.84482616186141968 0.84460175037384033 0.87392348051071167
0.9050445556640625 0.83970433473587036 0.87179046869277954
0.21920453011989594 0.55914241075515747 0.62347382307052612
0.23024606704711914 0.57361483573913574 0.6381676197052002
0.24827845394611359 0.59149378538131714 0.65190285444259644
0.26258581876754761 0.60123938322067261 0.66795283555984497
0.28046011924743652 0.61530190706253052 0.68433904647827148
0.62808650732040405 0.79795253276824951 0.82089352607727051
0.90981632471084595 0.90588235855102539 0.88631129264831543
