assets/lut/editingcorpw Crystal Clear.cube
LUT_3D_SIZE 6
DOMAIN_MIN 0.0 0.0 0.0
DOMAIN_MAX 1.0 1.0 1.0
0.070588 0.066667 0.047059
0.189804 0.054902 0.054118
0.341177 0.043137 0.040784
0.535687 0.030588 0.033726
0.759216 0.003922 0.009412
0.984314 0.000000 0.003922
0.095686 0.170196 0.062745
0.197580 0.174118 0.045423
0.337673 0.173908 0.057150
0.539608 0.180392 0.032941
0.764706 0.185098 0.000000
1.000000 0.179608 0.001569
0.117647 0.307451 0.064314
0.202771 0.314405 0.065307
0.370741 0.349020 0.001569
0.571765 0.363922 0.000000
0.757647 0.375686 0.036078
0.996863 0.388236 0.001569
0.143529 0.485490 0.030588
0.224314 0.490980 0.038431
0.379608 0.523921 0.003138
0.599216 0.575619 0.001330
0.826092 0.606484 0.006745
0.997647 0.599216 0.000000
0.117647 0.723921 0.000000
0.217255 0.725490 0.000000
0.388235 0.736471 0.003922
0.588130 0.780601 0.007634
0.826241 0.819608 0.000000
1.000000 0.823529 0.000784
0.133333 0.976471 0.011765
0.243921 0.973333 0.000000
0.421961 0.978824 0.010980
0.600784 0.992157 0.004706
0.793726 1.000000 0.003138
1.000000 1.000000 0.003922
0.075294 0.058824 0.160784
0.187025 0.057255 0.159574
0.338823 0.047059 0.159582
0.534118 0.003138 0.139608
0.767059 0.000000 0.133333
0.999216 0.000784 0.125490
0.093692 0.168986 0.161994
0.191802 0.171048 0.157364
0.349441 0.165940 0.148908
0.544246 0.153725 0.147025
0.766992 0.146017 0.136963
0.998431 0.123339 0.113726
0.114196 0.306196 0.148967
0.198427 0.317864 0.156335
0.366053 0.343135 0.124715
0.555189 0.354824 0.149438
0.773334 0.363346 0.142379
0.993935 0.370406 0.086745
0.105882 0.487843 0.135686
0.204638 0.494118 0.132056
0.368523 0.521883 0.119791
0.598670 0.576164 0.010263
0.824157 0.600314 0.008575
0.994510 0.596078 0.153726
0.013334 0.722353 0.040000
0.187809 0.723854 0.050622
0.379712 0.735791 0.087372
0.586666 0.783634 0.001464
0.825882 0.821535 0.000000
0.998431 0.826667 0.000000
0.038432 0.975687 0.056470
0.217613 0.980034 0.096403
0.421177 0.983739 0.156392
0.601568 0.991372 0.134118
0.799216 1.000000 0.000784
1.000000 1.000000 0.003922
0.098824 0.059608 0.281569
0.192941 0.058040 0.296261
0.344859 0.044706 0.304792
0.516078 0.005490 0.307451
0.752157 0.000784 0.328628
0.992157 0.004706 0.317647
0.098876 0.155608 0.286693
0.185202 0.158159 0.297062
0.350206 0.158088 0.310009
0.527163 0.136366 0.313412
0.765595 0.004706 0.313046
0.999791 0.000889 0.295686
0.071305 0.305337 0.284333
0.169743 0.312714 0.292037
0.352176 0.323013 0.305003
0.551066 0.314988 0.301281
0.787518 0.319761 0.300938
0.997886 0.315122 0.303119
0.003138 0.485490 0.272942
0.116653 0.490091 0.280470
0.342028 0.506599 0.291048
0.585882 0.565490 0.275773
0.808627 0.577359 0.308444
0.999216 0.585098 0.351373
0.003138 0.720784 0.239216
0.005438 0.726954 0.247059
0.333333 0.734663 0.269804
0.568732 0.768732 0.274405
0.824672 0.820392 0.241076
0.999216 0.817255 0.267451
0.002353 0.980392 0.257255
0.020811 0.980287 0.274144
0.364534 0.983768 0.307212
0.596078 0.989020 0.363921
0.789804 1.000000 0.216471
0.997647 0.997647 0.213333
0.116078 0.053333 0.454902
0.200000 0.044706 0.458039
0.347451 0.013333 0.480000
0.538891 0.000239 0.508302
0.737150 0.002353 0.512836
0.977255 0.004706 0.542745
0.081569 0.144314 0.456471
0.187160 0.140818 0.461670
0.350745 0.129412 0.484706
0.540631 0.105643 0.510110
0.741281 0.014379 0.518431
0.992157 0.000000 0.539608
0.005490 0.283137 0.440000
0.117647 0.288732 0.457778
0.315055 0.286514 0.478125
0.550110 0.292243 0.506839
0.761464 0.281464 0.515190
0.996078 0.227451 0.528628
0.000239 0.470349 0.454357
0.007977 0.475600 0.459436
0.270110 0.488934 0.474032
0.540775 0.521310 0.506428
0.796053 0.535842 0.525055
1.000000 0.540392 0.533161
0.001569 0.695687 0.441150
0.004235 0.704314 0.447268
0.112784 0.720680 0.453333
0.529882 0.748882 0.493653
0.817933 0.812252 0.516961
0.999320 0.806274 0.561150
0.000000 0.988235 0.449412
0.005490 0.982745 0.445490
0.091765 0.991372 0.472941
0.553793 0.989259 0.527843
0.789072 0.997751 0.535477
0.997647 0.998431 0.518431
0.108235 0.000000 0.686275
0.201569 0.000784 0.684706
0.369411 0.001569 0.703530
0.559895 0.003817 0.728941
0.762353 0.000000 0.749871
0.984314 0.000784 0.765490
0.008627 0.112941 0.684706
0.165849 0.105456 0.691272
0.353412 0.078222 0.703321
0.553255 0.009778 0.729987
0.771048 0.000784 0.755653
0.978824 0.005490 0.755294
0.000000 0.258039 0.685490
0.000994 0.251556 0.683346
0.288456 0.248389 0.703291
0.535320 0.248052 0.733647
0.775193 0.245849 0.761995
0.995294 0.193725 0.767843
0.003138 0.458719 0.676549
0.000784 0.457046 0.674510
0.044131 0.445961 0.684706
0.473979 0.457981 0.733188
0.773414 0.494812 0.756562
0.997751 0.495007 0.765647
0.005916 0.685423 0.680493
0.003429 0.691899 0.687059
0.000852 0.696538 0.690398
0.395472 0.711425 0.701940
0.771904 0.765343 0.767269
1.000000 0.791507 0.787809
0.000000 0.990588 0.694902
0.003137 0.980392 0.691764
0.005490 0.992157 0.690196
0.318431 1.000000 0.695843
0.771541 0.996862 0.757221
0.999216 0.996862 0.783529
0.000000 0.000000 0.972549
0.183530 0.003138 0.967058
0.381176 0.000000 0.973333
0.579608 0.002353 0.984314
0.784314 0.000000 0.991373
0.992157 0.000000 1.000000
0.003138 0.018823 0.969411
0.092616 0.003922 0.968986
0.355085 0.000105 0.972078
0.570981 0.001569 0.983529
0.784314 0.000000 0.997647
0.996862 0.003138 1.000000
0.000000 0.223530 0.977255
0.004497 0.218928 0.980287
0.238670 0.210024 0.986734
0.529412 0.179608 0.996078
0.776471 0.160784 0.998431
0.997647 0.127843 0.997647
0.004706 0.445490 0.989020
0.004706 0.432157 0.985882
0.006274 0.400000 0.993725
0.424314 0.406820 0.999522
0.744993 0.435765 0.991686
0.995294 0.469804 1.000000
0.001569 0.719216 0.998431
0.004706 0.709804 1.000000
0.003138 0.697255 0.997647
0.075974 0.672262 0.995189
0.700459 0.695754 0.999283
1.000000 0.746667 1.000000
0.000000 0.996078 0.988235
0.000000 0.999216 0.999216
0.003922 1.000000 1.000000
0.000000 0.998431 1.000000
0.609412 1.000000 0.996862
1.000000 1.000000 1.000000
