assets/lut/editingcorpw Velvet Dream.cube
LUT_3D_SIZE 6
DOMAIN_MIN 0.0 0.0 0.0
DOMAIN_MAX 1.0 1.0 1.0
0.076417 0.082948 0.083833
0.189609 0.101320 0.101100
0.382153 0.124746 0.130440
0.605023 0.173538 0.176223
0.833005 0.245914 0.241794
1.000000 0.341558 0.350561
0.128487 0.192374 0.113362
0.200571 0.194858 0.125105
0.402935 0.212072 0.123101
0.615599 0.247172 0.171199
0.838900 0.297329 0.238690
1.000000 0.373279 0.349426
0.242081 0.385480 0.170046
0.299997 0.382387 0.182905
0.420710 0.391280 0.206432
0.632221 0.425756 0.183048
0.856947 0.443883 0.221221
1.000000 0.479011 0.342272
0.386053 0.601135 0.259806
0.422253 0.598995 0.269322
0.526311 0.596476 0.298521
0.658285 0.606001 0.332749
0.850294 0.623691 0.345112
1.000000 0.632740 0.360815
0.548138 0.798806 0.425824
0.571640 0.796680 0.432136
0.660062 0.792581 0.464535
0.765471 0.795219 0.504237
0.879182 0.802244 0.552752
0.996100 0.813565 0.617975
0.761166 0.957794 0.687739
0.773489 0.957464 0.693251
0.819211 0.956084 0.714314
0.884941 0.955273 0.747592
0.947399 0.962493 0.784597
1.000000 0.975097 0.833127
0.071553 0.075233 0.179904
0.190027 0.090018 0.185139
0.374265 0.143628 0.206845
0.588827 0.213632 0.259120
0.822733 0.272357 0.312126
1.000000 0.366534 0.407074
0.087150 0.198493 0.191709
0.199000 0.200332 0.194103
0.384357 0.223702 0.216948
0.601722 0.262314 0.253591
0.829747 0.312950 0.308037
1.000000 0.393233 0.405295
0.213840 0.391211 0.222679
0.286072 0.387762 0.232272
0.417956 0.391990 0.255246
0.629232 0.423278 0.241873
0.853731 0.444638 0.287671
1.000000 0.487759 0.395608
0.370700 0.603629 0.300257
0.410098 0.601421 0.308528
0.523453 0.596444 0.337017
0.655597 0.605835 0.367799
0.850439 0.624505 0.377780
1.000000 0.634058 0.397821
0.543036 0.801015 0.454320
0.568911 0.800068 0.461946
0.658642 0.795440 0.491880
0.764792 0.795380 0.528043
0.877619 0.802577 0.572776
0.996301 0.815636 0.632460
0.759573 0.958953 0.697725
0.772653 0.958967 0.703831
0.817684 0.957098 0.722820
0.885102 0.955767 0.755742
0.947144 0.962914 0.790917
1.000000 0.975531 0.837772
0.003369 0.049793 0.355419
0.183833 0.064655 0.357292
0.382761 0.079401 0.363700
0.593382 0.109382 0.385543
0.809313 0.261470 0.441124
1.000000 0.437434 0.556292
0.000000 0.180437 0.368416
0.182950 0.182195 0.368442
0.390368 0.189567 0.370174
0.594428 0.222001 0.390247
0.808352 0.328908 0.453523
0.998076 0.474021 0.569706
0.000000 0.397824 0.389215
0.156150 0.396931 0.388646
0.400497 0.390158 0.383595
0.600897 0.423061 0.419987
0.824061 0.464945 0.474230
1.000000 0.533833 0.560730
0.185414 0.617730 0.403936
0.282413 0.613860 0.409768
0.492032 0.600688 0.448494
0.641837 0.603456 0.477604
0.849561 0.624352 0.482930
1.000000 0.644901 0.536645
0.505419 0.806467 0.542017
0.537529 0.806367 0.549589
0.637778 0.800385 0.570932
0.759952 0.795220 0.603964
0.871248 0.803157 0.638253
0.997479 0.819952 0.676688
0.743166 0.962561 0.727492
0.757127 0.962420 0.732744
0.805568 0.960376 0.749419
0.880361 0.958166 0.780872
0.945446 0.964282 0.812791
1.000000 0.977154 0.854654
0.000000 0.000000 0.586724
0.169148 0.000000 0.586184
0.389994 0.000000 0.583201
0.586002 0.000000 0.583582
0.807181 0.002274 0.602967
1.000000 0.286626 0.637384
0.000000 0.159915 0.594785
0.148843 0.158087 0.593850
0.390184 0.153620 0.589429
0.588912 0.166750 0.587679
0.808723 0.192678 0.603923
1.000000 0.346604 0.642502
0.000000 0.379865 0.616628
0.000000 0.375404 0.614802
0.375956 0.369138 0.607215
0.596010 0.377625 0.599526
0.814419 0.398559 0.611209
0.998367 0.525664 0.680075
0.000000 0.614221 0.634196
0.000000 0.613476 0.633598
0.366645 0.607975 0.628299
0.606169 0.591457 0.613276
0.819808 0.627836 0.657662
0.995331 0.680453 0.717606
0.284808 0.824841 0.651439
0.348328 0.825021 0.653949
0.510933 0.816596 0.657209
0.729426 0.799311 0.697503
0.858698 0.801752 0.724772
1.000000 0.822046 0.741139
0.660047 0.973834 0.759151
0.693115 0.972276 0.771724
0.766709 0.969079 0.792620
0.858209 0.965623 0.818549
0.940815 0.967065 0.849266
1.000000 0.980518 0.884697
0.000000 0.000000 0.816636
0.136458 0.000000 0.815954
0.386200 0.000000 0.812875
0.591791 0.000000 0.806011
0.801314 0.000000 0.801726
1.000000 0.000000 0.804099
0.000000 0.091199 0.819632
0.057706 0.078922 0.818829
0.378836 0.048801 0.815494
0.590916 0.048666 0.808133
0.800367 0.086793 0.800886
1.000000 0.190399 0.804401
0.000000 0.342520 0.828739
0.000000 0.342637 0.827787
0.343649 0.344501 0.823804
0.586848 0.348727 0.815272
0.806873 0.354340 0.806560
1.000000 0.390397 0.805877
0.000000 0.589530 0.838487
0.000000 0.589648 0.839660
0.317210 0.583148 0.837640
0.587037 0.572143 0.824510
0.812503 0.567394 0.809337
1.000000 0.594689 0.810690
0.000000 0.814234 0.842910
0.168426 0.814943 0.843754
0.416846 0.813329 0.842666
0.633961 0.807187 0.837932
0.825783 0.785422 0.819989
0.989906 0.834650 0.863468
0.540722 0.987890 0.850700
0.566523 0.987938 0.852348
0.649255 0.986743 0.856078
0.773733 0.982934 0.865164
0.922370 0.975307 0.900166
1.000000 0.986572 0.930950
0.000000 0.000000 0.989075
0.000000 0.000000 0.988793
0.357275 0.000000 0.987805
0.577344 0.000000 0.985644
0.792813 0.000000 0.981549
1.000000 0.000000 0.979797
0.000000 0.000000 0.989130
0.000000 0.000000 0.989112
0.343452 0.000000 0.987927
0.572584 0.000000 0.985418
0.790722 0.000000 0.980763
1.000000 0.018439 0.979065
0.000000 0.265702 0.992108
0.000000 0.266492 0.991797
0.280741 0.271625 0.990463
0.556064 0.282928 0.987787
0.789163 0.299778 0.983139
1.000000 0.341100 0.980566
0.000000 0.519164 0.993335
0.000000 0.517020 0.993381
0.056501 0.508500 0.992551
0.535614 0.517326 0.989306
0.789580 0.529335 0.984043
1.000000 0.556518 0.980835
0.000000 0.766012 0.992047
0.000000 0.766287 0.992054
0.364506 0.767111 0.991797
0.606570 0.769327 0.990989
0.815302 0.768897 0.986731
1.000000 0.779971 0.984717
0.475410 0.983948 0.991547
0.501011 0.983960 0.991516
0.595264 0.984448 0.991736
0.730269 0.985840 0.992352
0.871776 0.989142 0.993744
0.998627 0.997711 0.998230
