assets/lut/editingcorp boyado.cube
# Created by: G'MIC (https://gmic.eu)
TITLE "boyado"
# LUT size
LUT_3D_SIZE 5
# Data domain
DOMAIN_MIN 0.0 0.0 0.0
DOMAIN_MAX 1.0 1.0 1.0
# LUT data points
0.013826661743223667 0.018182672560214996 0.010980509221553802
0.33268734812736511 0.014900910668075085 0.0128529267385602
0.70636773109436035 0.012575710192322731 0.0095655405893921852
0.88946992158889771 0.0070717008784413338 0.0047341291792690754
0.99476057291030884 0.003152002114802599 0.0017342959763482213
0.01375102624297142 0.21019655466079712 0.057388022541999817
0.2535851001739502 0.229225754737854 0.01469847746193409
0.67584705352783203 0.20713147521018982 0.0085564106702804565
0.88114547729492188 0.16401983797550201 0.0077411876991391182
0.99096304178237915 0.16397289931774139 0.013361822813749313
0.019143003970384598 0.49911165237426758 0.054796226322650909
0.17555084824562073 0.49606320261955261 0.043361183255910873
0.62222546339035034 0.56778901815414429 0.009481482207775116
0.90006512403488159 0.51302421092987061 0.013398563489317894
0.99447143077850342 0.49771562218666077 0.014237377792596817
0.06268947571516037 0.78744572401046753 0.066881172358989716
0.17549729347229004 0.78097790479660034 0.069559909403324127
0.49028864502906799 0.82462286949157715 0.034965798258781433
0.87090754508972168 0.8475077748298645 0.018528882414102554
0.99729049205780029 0.84174162149429321 0.014669246040284634
0.036823377013206482 0.93654823303222656 0.06719575822353363
0.11784026026725769 0.93401378393173218 0.076623477041721344
0.3754551112651825 0.94793045520782471 0.054665122181177139
0.82288718223571777 0.99262082576751709 0.011154653504490852
1 1 0.0012401057174429297
0.011208687908947468 0.028480770066380501 0.20576521754264832
0.27645707130432129 0.021671893075108528 0.21857915818691254
0.67983412742614746 0.014448756352066994 0.23166416585445404
0.86480635404586792 0.0072952569462358952 0.20878878235816956
0.98309421539306641 0.01479689683765173 0.20772355794906616
0.0079274047166109085 0.21093834936618805 0.2150864452123642
0.24565954506397247 0.23206518590450287 0.21870501339435577
0.66580402851104736 0.2138029932975769 0.19698750972747803
0.88123208284378052 0.17017564177513123 0.16803738474845886
0.98568981885910034 0.17248719930648804 0.16870209574699402
0.030543219298124313 0.48248541355133057 0.1958463191986084
0.18178634345531464 0.49008375406265259 0.18593734502792358
0.6121220588684082 0.56087237596511841 0.13365262746810913
0.89463919401168823 0.50696051120758057 0.1142110750079155
0.99617516994476318 0.49082228541374207 0.1272999495267868
0.066663019359111786 0.78877788782119751 0.16790588200092316
0.17668181657791138 0.77944862842559814 0.17674730718135834
0.48914530873298645 0.81262385845184326 0.13791060447692871
0.86206686496734619 0.84512150287628174 0.10908465087413788
0.99316161870956421 0.83456701040267944 0.10737121850252151
0.066115163266658783 0.92088258266448975 0.16247761249542236
0.1400616317987442 0.92355585098266602 0.15904206037521362
0.3788658082485199 0.94256174564361572 0.13802723586559296
0.82358807325363159 0.99023854732513428 0.11874029040336609
0.99873453378677368 0.99826383590698242 0.1073613315820694
0.016201378777623177 0.027096737176179886 0.49228134751319885
0.2267194390296936 0.017228025943040848 0.49248623847961426
0.59920769929885864 0.025803031399846077 0.48226910829544067
0.76201421022415161 0.021387092769145966 0.47375774383544922
0.87649309635162354 0.018742460757493973 0.46455651521682739
0.011890186928212643 0.24872899055480957 0.49331516027450562
0.1969405859708786 0.26539933681488037 0.52920031547546387
0.59563916921615601 0.22031290829181671 0.49094158411026001
0.80125010013580322 0.19000838696956635 0.46629813313484192
0.91456794738769531 0.18787190318107605 0.4485817551612854
0.046177420765161514 0.47543981671333313 0.50264120101928711
0.18311816453933716 0.48758721351623535 0.51572948694229126
0.59690862894058228 0.56266659498214722 0.53259903192520142
0.8813474178314209 0.52539104223251343 0.49438023567199707
0.98897635936737061 0.51197993755340576 0.47311151027679443
0.072828672826290131 0.74624127149581909 0.46039697527885437
0.17068824172019958 0.74857360124588013 0.44812765717506409
0.48467862606048584 0.80763125419616699 0.43023037910461426
0.87247759103775024 0.84617972373962402 0.36630821228027344
0.99761635065078735 0.82646733522415161 0.34771022200584412
0.075972475111484528 0.91032272577285767 0.38383230566978455
0.14283657073974609 0.9109911322593689 0.36569812893867493
0.37661886215209961 0.94255632162094116 0.32512900233268738
0.82022666931152344 0.98932987451553345 0.24735236167907715
0.99597692489624023 0.99451839923858643 0.20850971341133118
0.013873321004211903 0.018108353018760681 0.64688789844512939
0.21185721457004547 0.030821766704320908 0.65852469205856323
0.57690727710723877 0.025179903954267502 0.66632115840911865
0.74813497066497803 0.033158935606479645 0.66156244277954102
0.85912346839904785 0.044122088700532913 0.66365844011306763
0.019345676526427269 0.25238797068595886 0.69174373149871826
0.19122658669948578 0.25868427753448486 0.71532535552978516
0.53721046447753906 0.20312349498271942 0.68963766098022461
0.75788360834121704 0.17681212723255157 0.66568046808242798
0.8688768744468689 0.18023201823234558 0.66234666109085083
0.068534180521965027 0.49968698620796204 0.7443651556968689
0.18714310228824615 0.5060155987739563 0.75686156749725342
0.5336042046546936 0.55481040477752686 0.78393256664276123
0.82218039035797119 0.53652608394622803 0.76493316888809204
0.94303947687149048 0.52546679973602295 0.75272238254547119
0.092553801834583282 0.7365492582321167 0.75852352380752563
0.18944492936134338 0.72614890336990356 0.75505566596984863
0.44050070643424988 0.76204991340637207 0.7755400538444519
0.83555811643600464 0.81151264905929565 0.79124611616134644
0.9887775182723999 0.8194236159324646 0.7922930121421814
0.094281770288944244 0.87690919637680054 0.74303829669952393
0.18537648022174835 0.87145203351974487 0.7294919490814209
0.37990957498550415 0.90860557556152344 0.73920881748199463
0.79355758428573608 0.97759705781936646 0.73646306991577148
0.99717706441879272 0.99083924293518066 0.73349153995513916
0.01225490216165781 0.011442176997661591 0.74922442436218262
0.20340333878993988 0.018081516027450562 0.75439184904098511
0.56351584196090698 0.034184563905000687 0.77270054817199707
0.75235140323638916 0.0093641988933086395 0.76503479480743408
0.85526841878890991 0.0088967271149158478 0.7726781964302063
0.01620190218091011 0.24392367899417877 0.79535233974456787
0.19020511209964752 0.25527751445770264 0.81649458408355713
0.53131413459777832 0.20198152959346771 0.7879873514175415
0.76504111289978027 0.17377404868602753 0.77893942594528198
0.86311841011047363 0.17530511319637299 0.78456473350524902
0.054462581872940063 0.49488592147827148 0.85258543491363525
0.19325324892997742 0.50879782438278198 0.86950069665908813
0.52202504873275757 0.5573040246963501 0.90848386287689209
0.81077301502227783 0.52976763248443604 0.88492214679718018
0.93282580375671387 0.5133398175239563 0.87929648160934448
0.093864679336547852 0.73430079221725464 0.88939660787582397
0.19389861822128296 0.72466528415679932 0.88856303691864014
0.43404051661491394 0.75940239429473877 0.92057704925537109
0.8065495491027832 0.7965509295463562 0.93999147415161133
0.96497398614883423 0.79698669910430908 0.94577288627624512
0.0901046022772789 0.87513315677642822 0.90928530693054199
0.19011090695858002 0.86987823247909546 0.90193885564804077
0.3806270956993103 0.89583814144134521 0.91578364372253418
0.76348406076431274 0.9431949257850647 0.94566100835800171
0.97621762752532959 0.96156579256057739 0.96039700508117676
