assets/lut/editingcorp sino.cube
# Created by: G'MIC (https://gmic.eu)
TITLE "sino"
# LUT size
LUT_3D_SIZE 7
# Data domain
DOMAIN_MIN 0.0 0.0 0.0
DOMAIN_MAX 1.0 1.0 1.0
# LUT data points
0.029263244941830635 0.041969344019889832 0.038926608860492706
0.16768048703670502 0.092392757534980774 0.089991442859172821
0.37692016363143921 0.13211716711521149 0.12889741361141205
0.61649066209793091 0.15654881298542023 0.1555020809173584
0.84174758195877075 0.21589766442775726 0.2252957671880722
0.95615732669830322 0.36412417888641357 0.37191340327262878
0.96558821201324463 0.59503650665283203 0.59451675415039062
0.05353691428899765 0.13421502709388733 0.056960519403219223
0.18415297567844391 0.16252692043781281 0.089766420423984528
0.38950124382972717 0.20770740509033203 0.1339627206325531
0.62524306774139404 0.23171994090080261 0.16217422485351562
0.84791052341461182 0.26039004325866699 0.22832496464252472
0.95974820852279663 0.38455390930175781 0.38081067800521851
0.96595108509063721 0.59919005632400513 0.60116487741470337
0.082261346280574799 0.24309481680393219 0.08552086353302002
0.21630570292472839 0.26645758748054504 0.098390378057956696
0.41121092438697815 0.30988955497741699 0.1421031653881073
0.61456787586212158 0.35863456130027771 0.18062734603881836
0.82593399286270142 0.38491049408912659 0.22935150563716888
0.94908368587493896 0.45673111081123352 0.38410830497741699
0.96427083015441895 0.62372076511383057 0.61129438877105713
0.11177757382392883 0.3662266731262207 0.12274817377328873
0.23687243461608887 0.39147424697875977 0.12424539029598236
0.43231591582298279 0.4338066577911377 0.15448877215385437
0.6279299259185791 0.48026266694068909 0.20943035185337067
0.79041588306427002 0.52270710468292236 0.25031888484954834
0.93809908628463745 0.55904573202133179 0.37295711040496826
0.96543848514556885 0.66363197565078735 0.59316498041152954
0.13413813710212708 0.51389056444168091 0.16300822794437408
0.25069940090179443 0.5355459451675415 0.16535398364067078
0.42884472012519836 0.58115029335021973 0.17554190754890442
0.63345605134963989 0.61745333671569824 0.22123533487319946
0.77849507331848145 0.65312504768371582 0.27260372042655945
0.90756261348724365 0.68492138385772705 0.37418726086616516
0.96538954973220825 0.72547030448913574 0.55616819858551025
0.15995199978351593 0.68718606233596802 0.19792370498180389
0.25983166694641113 0.70055341720581055 0.20257341861724854
0.41607445478439331 0.73085176944732666 0.20492552220821381
0.60109227895736694 0.76315277814865112 0.22199001908302307
0.76008129119873047 0.79019999504089355 0.25921481847763062
0.90788120031356812 0.80428528785705566 0.34374967217445374
0.96499699354171753 0.81363427639007568 0.48771056532859802
0.18730488419532776 0.87530362606048584 0.2281784862279892
0.27235180139541626 0.88292241096496582 0.23246333003044128
0.39977830648422241 0.90060752630233765 0.23281824588775635
0.56085824966430664 0.92156410217285156 0.23509544134140015
0.72048068046569824 0.93281209468841553 0.2542608380317688
0.87031078338623047 0.94048070907592773 0.22635582089424133
0.96343427896499634 0.93018215894699097 0.32350426912307739
0.021873010322451591 0.077750518918037415 0.10317514091730118
0.14797294139862061 0.098640814423561096 0.13091382384300232
0.40556100010871887 0.14304745197296143 0.17869125306606293
0.64234215021133423 0.16899499297142029 0.20252276957035065
0.85035425424575806 0.22496905922889709 0.25763753056526184
0.95716267824172974 0.3751046359539032 0.3853783905506134
0.96470588445663452 0.60640746355056763 0.6091729998588562
0.031689319759607315 0.13629384338855743 0.13206158578395844
0.12461160123348236 0.14494715631008148 0.13720613718032837
0.36160022020339966 0.20599544048309326 0.19305729866027832
0.61447948217391968 0.24360230565071106 0.23033380508422852
0.84347957372665405 0.27780881524085999 0.27686470746994019
0.95602875947952271 0.38537910580635071 0.39118024706840515
0.96376854181289673 0.60353875160217285 0.60672414302825928
0.043810483068227768 0.23689618706703186 0.15896856784820557
0.15424260497093201 0.24636124074459076 0.15646913647651672
0.36290860176086426 0.30092644691467285 0.19538296759128571
0.57331377267837524 0.35778015851974487 0.25271701812744141
0.80760520696640015 0.39588922262191772 0.29321026802062988
0.94894880056381226 0.45322161912918091 0.3900587260723114
0.96339899301528931 0.62519210577011108 0.61001980304718018
0.090501077473163605 0.36470112204551697 0.18436378240585327
0.20334050059318542 0.38087165355682373 0.18748992681503296
0.39795947074890137 0.42870080471038818 0.20651626586914062
0.59559184312820435 0.47885823249816895 0.266937255859375
0.76268452405929565 0.52143508195877075 0.31162694096565247
0.93021553754806519 0.56700032949447632 0.41263240575790405
0.964458167552948 0.66998732089996338 0.60541737079620361
0.12325791269540787 0.51047617197036743 0.22207744419574738
0.23423689603805542 0.52374553680419922 0.22434064745903015
0.40777871012687683 0.56909501552581787 0.23380871117115021
0.61563599109649658 0.61935347318649292 0.27496033906936646
0.76470601558685303 0.65209484100341797 0.33222588896751404
0.89697390794754028 0.68548417091369629 0.41651073098182678
0.96683603525161743 0.72746473550796509 0.58020073175430298
0.15542419254779816 0.68051588535308838 0.25675180554389954
0.25529360771179199 0.68882960081100464 0.26069143414497375
0.40466096997261047 0.72053742408752441 0.2695644199848175
0.58484733104705811 0.76364082098007202 0.28217139840126038
0.75755870342254639 0.79201799631118774 0.31751590967178345
0.90543943643569946 0.80583876371383667 0.4035956859588623
0.96605837345123291 0.81953281164169312 0.54343551397323608
0.1851956695318222 0.87563091516494751 0.29000699520111084
0.27035847306251526 0.88118582963943481 0.29575148224830627
0.39860415458679199 0.89551907777786255 0.30215978622436523
0.56181466579437256 0.91762709617614746 0.30266958475112915
0.72292304039001465 0.93001097440719604 0.32325085997581482
0.86948424577713013 0.94077455997467041 0.30798837542533875
0.96279966831207275 0.93067145347595215 0.39774933457374573
0.032882437109947205 0.11508785933256149 0.16255177557468414
0.093879044055938721 0.12871739268302917 0.18629591166973114
0.41663345694541931 0.16407875716686249 0.24653103947639465
0.69779056310653687 0.19116845726966858 0.29869833588600159
0.87548840045928955 0.24783943593502045 0.35862964391708374
0.96048951148986816 0.391571044921875 0.45635554194450378
0.96470588445663452 0.60076749324798584 0.61881989240646362
0.04118659719824791 0.15745557844638824 0.18977077305316925
0.065511904656887054 0.16924038529396057 0.20155720412731171
0.3446902334690094 0.20595176517963409 0.2452574223279953
0.65363317728042603 0.26522436738014221 0.32353013753890991
0.84493201971054077 0.30232807993888855 0.37838080525398254
0.95015954971313477 0.40558719635009766 0.46043902635574341
0.96408957242965698 0.61149799823760986 0.62740409374237061
0.035506065934896469 0.23827339708805084 0.23205973207950592
0.057545188814401627 0.25471007823944092 0.24334895610809326
0.26998224854469299 0.26972505450248718 0.25037619471549988
0.55698662996292114 0.3540794849395752 0.33289209008216858
0.76423078775405884 0.39444282650947571 0.38722947239875793
0.93058454990386963 0.47597315907478333 0.47589412331581116
0.96406835317611694 0.63241320848464966 0.63148254156112671
0.054623547941446304 0.35851284861564636 0.27940139174461365
0.11826600879430771 0.3782469630241394 0.28727549314498901
0.31110453605651855 0.39986667037010193 0.28639712929725647
0.55870771408081055 0.46983450651168823 0.33584156632423401
0.72548598051071167 0.50901973247528076 0.39412081241607666
0.90922123193740845 0.56361645460128784 0.48126015067100525
0.96987760066986084 0.67276978492736816 0.63118135929107666
0.088375642895698547 0.49992001056671143 0.31399223208427429
0.17860037088394165 0.52153319120407104 0.31941744685173035
0.36389294266700745 0.541218101978302 0.32003229856491089
0.59230345487594604 0.60694438219070435 0.34790313243865967
0.74687379598617554 0.65004295110702515 0.40509164333343506
0.88866710662841797 0.68466955423355103 0.46857497096061707
0.96748560667037964 0.73187434673309326 0.62196046113967896
0.12972459197044373 0.66868841648101807 0.34300339221954346
0.21985168755054474 0.68199938535690308 0.34835329651832581
0.37843760848045349 0.70428812503814697 0.36145517230033875
0.56495469808578491 0.74833709001541138 0.36895117163658142
0.7496260404586792 0.78977656364440918 0.39427831768989563
0.90221256017684937 0.81056344509124756 0.46444571018218994
0.96412152051925659 0.82599616050720215 0.59632217884063721
0.16494949162006378 0.87149876356124878 0.37494602799415588
0.24638563394546509 0.88259965181350708 0.37990805506706238
0.38160493969917297 0.89257222414016724 0.39459517598152161
0.54539114236831665 0.90944129228591919 0.40612924098968506
0.715354323387146 0.92806673049926758 0.43166792392730713
0.8679201602935791 0.94128894805908203 0.39623600244522095
0.9630892276763916 0.93359285593032837 0.47846397757530212
0.037988759577274323 0.14297755062580109 0.22096581757068634
0.044627543538808823 0.16086190938949585 0.24612048268318176
0.34266307950019836 0.19387753307819366 0.29458606243133545
0.73416978120803833 0.23779554665088654 0.37769663333892822
0.90183568000793457 0.29444527626037598 0.4595521092414856
0.95764940977096558 0.41347607970237732 0.54392826557159424
0.96470588445663452 0.61452788114547729 0.66901713609695435
0.048990841954946518 0.18693073093891144 0.25108522176742554
0.048755958676338196 0.2026822417974472 0.26838946342468262
0.26855814456939697 0.22353222966194153 0.29239919781684875
0.68243956565856934 0.29623335599899292 0.39124947786331177
0.87601786851882935 0.34748014807701111 0.47356590628623962
0.95135802030563354 0.44537582993507385 0.55770593881607056
0.96470588445663452 0.61611348390579224 0.67046499252319336
0.058283727616071701 0.25379696488380432 0.29329836368560791
0.063453778624534607 0.26915055513381958 0.30962824821472168
0.18153887987136841 0.28238379955291748 0.32266709208488464
0.57074105739593506 0.35736072063446045 0.40066155791282654
0.79819947481155396 0.41433590650558472 0.47837716341018677
0.93039840459823608 0.49909564852714539 0.56850332021713257
0.96475768089294434 0.6401863694190979 0.67925149202346802
0.062053591012954712 0.36458995938301086 0.35487407445907593
0.073696568608283997 0.38181555271148682 0.37367734313011169
0.14608599245548248 0.40664002299308777 0.38932701945304871
0.4777858555316925 0.44678342342376709 0.41846632957458496
0.72104024887084961 0.51823854446411133 0.49522691965103149
0.89999759197235107 0.58527177572250366 0.57558411359786987
0.97122740745544434 0.6924431324005127 0.68998587131500244
0.079826846718788147 0.5063592791557312 0.42131081223487854
0.10165650397539139 0.52343380451202393 0.43241438269615173
0.21867327392101288 0.54156768321990967 0.43849751353263855
0.51078623533248901 0.57638752460479736 0.4418729841709137
0.7375410795211792 0.64937514066696167 0.49541845917701721
0.87642925977706909 0.68639016151428223 0.57065063714981079
0.97127759456634521 0.75265121459960938 0.69185090065002441
0.10521838814020157 0.66584724187850952 0.46088394522666931
0.15056091547012329 0.68312907218933105 0.4657653272151947
0.29954296350479126 0.70555394887924194 0.46921151876449585
0.52649128437042236 0.72941356897354126 0.47636783123016357
0.74165499210357666 0.78291040658950806 0.48885142803192139
0.90027338266372681 0.81573450565338135 0.54165136814117432
0.9678579568862915 0.83375829458236694 0.67692393064498901
0.13948473334312439 0.86276692152023315 0.49552595615386963
0.20346136391162872 0.88399273157119751 0.49525222182273865
0.33738106489181519 0.90141290426254272 0.50055873394012451
0.52174478769302368 0.905040442943573 0.51236104965209961
0.71250981092453003 0.9237479567527771 0.53615444898605347
0.86476153135299683 0.94324463605880737 0.51218068599700928
0.96338140964508057 0.93888068199157715 0.59229975938796997
0.046006385236978531 0.16932718455791473 0.27616065740585327
0.042487785220146179 0.19122409820556641 0.30752855539321899
0.23900969326496124 0.2222747802734375 0.33657532930374146
0.70657432079315186 0.27561679482460022 0.42210003733634949
0.91824972629547119 0.35172736644744873 0.53592395782470703
0.96053767204284668 0.4640803337097168 0.632945716381073
0.96496623754501343 0.62302625179290771 0.73414307832717896
0.058114893734455109 0.2195470780134201 0.31579673290252686
0.058296907693147659 0.23174221813678741 0.33225804567337036
0.18821264803409576 0.2539098858833313 0.35275128483772278
0.63697594404220581 0.31812652945518494 0.43226048350334167
0.8865128755569458 0.39806625247001648 0.5523831844329834
0.95550429821014404 0.4911251962184906 0.64841145277023315
0.96470588445663452 0.63061982393264771 0.73750758171081543
0.070762187242507935 0.27625533938407898 0.36223235726356506
0.086159966886043549 0.29333814978599548 0.37790557742118835
0.13639061152935028 0.31383758783340454 0.40220445394515991
0.48339909315109253 0.36353102326393127 0.45493510365486145
0.82697039842605591 0.45904996991157532 0.57096314430236816
0.93816250562667847 0.54833471775054932 0.67074120044708252
0.96575468778610229 0.66357475519180298 0.74786078929901123
0.077188216149806976 0.37354430556297302 0.42217904329299927
0.101601742208004 0.39451485872268677 0.44288039207458496
0.12299768626689911 0.42146983742713928 0.47225061058998108
0.36410456895828247 0.44602116942405701 0.50707191228866577
0.7397531270980835 0.53662562370300293 0.59666258096694946
0.91749876737594604 0.62444782257080078 0.68936777114868164
0.9694254994392395 0.7051045298576355 0.75686955451965332
0.089985325932502747 0.51162075996398926 0.5018002986907959
0.10908523201942444 0.52913916110992432 0.51594597101211548
0.13229705393314362 0.55001246929168701 0.5341794490814209
0.31185051798820496 0.58047652244567871 0.56204622983932495
0.70752567052841187 0.64257091283798218 0.60887038707733154
0.88642138242721558 0.70883119106292725 0.6884501576423645
0.96721440553665161 0.77504187822341919 0.76800930500030518
0.10988812893629074 0.67397719621658325 0.57415342330932617
0.11650547385215759 0.6837085485458374 0.581778883934021
0.16966366767883301 0.70571506023406982 0.59330296516418457
0.36743131279945374 0.72906064987182617 0.60385292768478394
0.70544147491455078 0.7683989405632019 0.61144071817398071
0.89983171224594116 0.82532227039337158 0.64925569295883179
0.96303719282150269 0.84951102733612061 0.76767003536224365
0.13375398516654968 0.85676854848861694 0.62677198648452759
0.15918819606304169 0.87239694595336914 0.62729340791702271
0.24016828835010529 0.89532136917114258 0.62477791309356689
0.44183921813964844 0.90689367055892944 0.62879383563995361
0.6953585147857666 0.92136603593826294 0.65331453084945679
0.86765855550765991 0.937888503074646 0.67531317472457886
0.96544218063354492 0.9451250433921814 0.71529072523117065
0.06245218962430954 0.21271237730979919 0.39477315545082092
0.051978990435600281 0.22747822105884552 0.41851615905761719
0.15583495795726776 0.25070995092391968 0.44217032194137573
0.58652716875076294 0.29984629154205322 0.49391189217567444
0.85216516256332397 0.37476065754890442 0.62038493156433105
0.94696557521820068 0.50141066312789917 0.72944456338882446
0.96797037124633789 0.62858396768569946 0.80690222978591919
0.074839800596237183 0.26498377323150635 0.4364267885684967
0.06773955374956131 0.273418128490448 0.4440133273601532
0.13522329926490784 0.29069721698760986 0.46326464414596558
0.50434297323226929 0.33658212423324585 0.50883132219314575
0.80977326631546021 0.41167467832565308 0.63362544775009155
0.93588936328887939 0.54099094867706299 0.75127661228179932
0.96679669618606567 0.64096415042877197 0.82114219665527344
0.085935689508914948 0.32236364483833313 0.47774532437324524
0.099869593977928162 0.33540213108062744 0.48919495940208435
0.11445173621177673 0.35701978206634521 0.51648962497711182
0.35101187229156494 0.39028021693229675 0.55789172649383545
0.73097461462020874 0.46262353658676147 0.65315312147140503
0.91408056020736694 0.57981985807418823 0.76914411783218384
0.96546554565429688 0.6853753924369812 0.82945400476455688
0.10276304930448532 0.4133341908454895 0.53856140375137329
0.14052192866802216 0.42774626612663269 0.55057770013809204
0.16170910000801086 0.4489494264125824 0.57926493883132935
0.26854211091995239 0.47792348265647888 0.62886255979537964
0.63056433200836182 0.53914183378219604 0.69240128993988037
0.89852774143218994 0.64761042594909668 0.78898811340332031
0.96707940101623535 0.73596113920211792 0.84713804721832275
0.11347421258687973 0.53606075048446655 0.60737097263336182
0.15107783675193787 0.54951506853103638 0.61577135324478149
0.17636248469352722 0.56460857391357422 0.63300579786300659
0.26669681072235107 0.59456729888916016 0.67000925540924072
0.59677785634994507 0.6458776593208313 0.73548930883407593
0.88350182771682739 0.72834122180938721 0.80316400527954102
0.96978044509887695 0.80615603923797607 0.85862499475479126
0.12209545820951462 0.68191349506378174 0.67127454280853271
0.15028563141822815 0.69175368547439575 0.67884016036987305
0.17053835093975067 0.70071160793304443 0.68833839893341064
0.22370536625385284 0.73252487182617188 0.71580773591995239
0.57117491960525513 0.77220231294631958 0.7529977560043335
0.87025928497314453 0.82370811700820923 0.79225194454193115
0.96412020921707153 0.87197196483612061 0.86322546005249023
0.13892297446727753 0.85125595331192017 0.73878210783004761
0.16439048945903778 0.86122363805770874 0.74533486366271973
0.19186893105506897 0.8715590238571167 0.74778157472610474
0.23539692163467407 0.9054950475692749 0.76360607147216797
0.5697861909866333 0.92918264865875244 0.78446632623672485
0.85175043344497681 0.9370996356010437 0.80156999826431274
0.96654772758483887 0.95368462800979614 0.84157347679138184
0.085481815040111542 0.28286463022232056 0.61084777116775513
0.060715321451425552 0.28919351100921631 0.62642592191696167
0.090837188065052032 0.31099286675453186 0.66078400611877441
0.39589869976043701 0.34182456135749817 0.69146126508712769
0.68651223182678223 0.39931389689445496 0.7645149827003479
0.85591739416122437 0.49133986234664917 0.85976642370223999
0.96102094650268555 0.62584584951400757 0.87983262538909912
0.093272462487220764 0.33147707581520081 0.6459205150604248
0.080155946314334869 0.33902183175086975 0.65756720304489136
0.092174038290977478 0.35693979263305664 0.68952149152755737
0.32546356320381165 0.38938257098197937 0.72782474756240845
0.65344589948654175 0.44221204519271851 0.78587448596954346
0.85090750455856323 0.53151565790176392 0.87310242652893066
0.95832425355911255 0.66487658023834229 0.91241496801376343
0.10818484425544739 0.39358842372894287 0.67746835947036743
0.11962639540433884 0.40317413210868835 0.69093739986419678
0.10789348930120468 0.41668826341629028 0.71469271183013916
0.22487448155879974 0.45052447915077209 0.76951920986175537
0.57188522815704346 0.4921659529209137 0.81359279155731201
0.83579438924789429 0.57838135957717896 0.88602763414382935
0.95550203323364258 0.69558721780776978 0.91969436407089233
0.13561557233333588 0.48273473978042603 0.72689950466156006
0.16564606130123138 0.48982232809066772 0.7338184118270874
0.16080333292484283 0.50313222408294678 0.75230264663696289
0.19051235914230347 0.53250783681869507 0.80322849750518799
0.47766634821891785 0.57118856906890869 0.856559157371521
0.81180167198181152 0.64350205659866333 0.90439349412918091
0.95551168918609619 0.75258183479309082 0.92299437522888184
0.15550492703914642 0.59649181365966797 0.78344982862472534
0.1955416202545166 0.60306155681610107 0.78547185659408569
0.21853728592395782 0.61049026250839233 0.79232156276702881
0.2534184455871582 0.63376188278198242 0.82940500974655151
0.48076102137565613 0.67146474123001099 0.88369399309158325
0.80423682928085327 0.73467224836349487 0.91770148277282715
0.95808649063110352 0.81949388980865479 0.94305038452148438
0.15701073408126831 0.72008019685745239 0.8164212703704834
0.20068493485450745 0.72972303628921509 0.81822913885116577
0.24709287285804749 0.73233896493911743 0.82155776023864746
0.28780469298362732 0.75012636184692383 0.84126901626586914
0.53033190965652466 0.78158128261566162 0.88416117429733276
0.80700802803039551 0.83534502983093262 0.93131250143051147
0.95878320932388306 0.89337581396102905 0.95210832357406616
0.1596415787935257 0.86078041791915894 0.85316777229309082
0.20046849548816681 0.86954969167709351 0.86037814617156982
0.24151322245597839 0.87228900194168091 0.86155599355697632
0.23978199064731598 0.8881223201751709 0.8769906759262085
0.34652656316757202 0.93250656127929688 0.92041856050491333
0.80017375946044922 0.95252037048339844 0.9368177056312561
0.95693767070770264 0.96070277690887451 0.9507753849029541
