assets/lut/editingcorp stringa.cube
# Created by: G'MIC (https://gmic.eu)
TITLE "stringa"
# LUT size
LUT_3D_SIZE 7
# Data domain
DOMAIN_MIN 0.0 0.0 0.0
DOMAIN_MAX 1.0 1.0 1.0
# LUT data points
0.04126962274312973 0.027871090918779373 0.028102336451411247
0.18294885754585266 0.035090591758489609 0.021337412297725677
0.31868022680282593 0.043746829032897949 0.02153308317065239
0.46425604820251465 0.044267438352108002 0.019497277215123177
0.62303119897842407 0.042826108634471893 0.019665108993649483
0.78999549150466919 0.037667561322450638 0.021301448345184326
0.96961688995361328 0.037954606115818024 0.020906830206513405
0.074039384722709656 0.14810790121555328 0.06347433477640152
0.23610468208789825 0.13858817517757416 0.030512042343616486
0.35542804002761841 0.17533811926841736 0.027639096602797508
0.49099177122116089 0.1861354261636734 0.023784443736076355
0.64848875999450684 0.18959882855415344 0.022286778315901756
0.80989092588424683 0.18921568989753723 0.02085399255156517
0.98238456249237061 0.19170205295085907 0.019333723932504654
0.10583334416151047 0.28311160206794739 0.085983172059059143
0.24907620251178741 0.26657390594482422 0.034633368253707886
0.37828764319419861 0.29126402735710144 0.021744746714830399
0.50316077470779419 0.33395838737487793 0.023833509534597397
0.65935629606246948 0.33961832523345947 0.028022542595863342
0.81791883707046509 0.3436274528503418 0.02687041275203228
0.98955845832824707 0.34356209635734558 0.023774465546011925
0.14606307446956635 0.42184340953826904 0.10778822004795074
0.26662316918373108 0.41925755143165588 0.069358095526695251
0.39402413368225098 0.40899884700775146 0.027550507336854935
0.51117932796478271 0.44818446040153503 0.01103394478559494
0.6566084623336792 0.49027463793754578 0.027127031236886978
0.82189351320266724 0.49930241703987122 0.033789824694395065
0.99390923976898193 0.49919226765632629 0.029084928333759308
0.17796733975410461 0.57396602630615234 0.14402538537979126
0.29348033666610718 0.57360243797302246 0.11862029880285263
0.40991389751434326 0.56356239318847656 0.077247858047485352
0.52333223819732666 0.55631136894226074 0.024714885279536247
0.65180492401123047 0.60573667287826538 0.016512298956513405
0.81087577342987061 0.6555478572845459 0.026407698169350624
0.99397909641265869 0.66578108072280884 0.028532259166240692
0.21128697693347931 0.71210241317749023 0.17725299298763275
0.31953462958335876 0.70834684371948242 0.16452459990978241
0.42537158727645874 0.70240062475204468 0.1394118070602417
0.53453850746154785 0.69065672159194946 0.093923710286617279
0.6529802680015564 0.6987844705581665 0.040860719978809357
0.79356729984283447 0.75786441564559937 0.024771986529231071
0.98421859741210938 0.80846798419952393 0.02235698327422142
0.23653306066989899 0.83932292461395264 0.19904701411724091
0.33993291854858398 0.83536088466644287 0.19567583501338959
0.44096103310585022 0.83513551950454712 0.18431229889392853
0.55107617378234863 0.84117752313613892 0.15470995008945465
0.66232210397720337 0.84394389390945435 0.10205256193876266
0.78423339128494263 0.86215192079544067 0.042858108878135681
0.96674495935440063 0.93547195196151733 0.023487105965614319
0.027939680963754654 0.058011777698993683 0.10274689644575119
0.17118106782436371 0.053709980100393295 0.12182427197694778
0.3065507709980011 0.053176835179328918 0.10911636054515839
0.44742381572723389 0.046944651752710342 0.13708682358264923
0.60612815618515015 0.044689763337373734 0.15125703811645508
0.76961743831634521 0.032959207892417908 0.16640190780162811
0.95915555953979492 0.032087706029415131 0.16960784792900085
0.023555172607302666 0.18479225039482117 0.18492914736270905
0.18268993496894836 0.18096789717674255 0.17766700685024261
0.33362680673599243 0.17941290140151978 0.16303542256355286
0.47545194625854492 0.18426364660263062 0.16437184810638428
0.63480931520462036 0.18922486901283264 0.16645911335945129
0.79354053735733032 0.18908420205116272 0.17015235126018524
0.97551625967025757 0.19146235287189484 0.16960732638835907
0.038644976913928986 0.30307605862617493 0.2258269190788269
0.18866384029388428 0.2959606945514679 0.19744879007339478
0.35528558492660522 0.30163672566413879 0.16639040410518646
0.49710580706596375 0.33583053946495056 0.17444700002670288
0.65445113182067871 0.33934599161148071 0.17967516183853149
0.81087023019790649 0.34282100200653076 0.18026386201381683
0.98689299821853638 0.34378734230995178 0.17781239748001099
0.084259331226348877 0.43311098217964172 0.23733797669410706
0.21591311693191528 0.43137514591217041 0.21325145661830902
0.36709970235824585 0.41508591175079346 0.15982668101787567
0.50196987390518188 0.45161342620849609 0.1452171802520752
0.65599870681762695 0.48901298642158508 0.16784779727458954
0.82244622707366943 0.49638286232948303 0.1858622282743454
0.99397200345993042 0.49836549162864685 0.18637196719646454
0.13104197382926941 0.57579237222671509 0.25627297163009644
0.25590619444847107 0.57872039079666138 0.24113556742668152
0.38536053895950317 0.56713962554931641 0.20076978206634521
0.50675058364868164 0.56082451343536377 0.15581415593624115
0.6413998007774353 0.6051526665687561 0.14594823122024536
0.80995911359786987 0.65525037050247192 0.17060466110706329
0.99625444412231445 0.66727918386459351 0.18717050552368164
0.17856933176517487 0.70812332630157471 0.28292438387870789
0.29268345236778259 0.70581632852554321 0.27542039752006531
0.40697482228279114 0.70770144462585449 0.25515183806419373
0.51944148540496826 0.69556516408920288 0.22158375382423401
0.63887053728103638 0.6971435546875 0.17669914662837982
0.78387081623077393 0.75512433052062988 0.16644811630249023
0.98744660615921021 0.8153003454208374 0.17582274973392487
0.21575750410556793 0.8331570029258728 0.3015379011631012
0.32036519050598145 0.83058375120162964 0.30051860213279724
0.42561125755310059 0.83905684947967529 0.29199051856994629
0.53743261098861694 0.8436274528503418 0.27121570706367493
0.64734667539596558 0.83938080072402954 0.23177722096443176
0.76336020231246948 0.85966306924819946 0.18717861175537109
0.95800530910491943 0.94584113359451294 0.16873294115066528
0.055546000599861145 0.09009011834859848 0.16333054006099701
0.14498686790466309 0.085927121341228485 0.22008694708347321
0.29844903945922852 0.085349045693874359 0.19274234771728516
0.42894420027732849 0.068120993673801422 0.19819891452789307
0.58222478628158569 0.054827343672513962 0.25144436955451965
0.74748939275741577 0.040629666298627853 0.29499319195747375
0.94489014148712158 0.034045934677124023 0.31762820482254028
0.02811431884765625 0.2050967663526535 0.24118423461914062
0.13495518267154694 0.21224518120288849 0.25905826687812805
0.3139621913433075 0.19714350998401642 0.2586771547794342
0.45059594511985779 0.18479914963245392 0.25738498568534851
0.60864585638046265 0.18692806363105774 0.28879052400588989
0.76835817098617554 0.18756374716758728 0.31605255603790283
0.96296483278274536 0.18989335000514984 0.32887783646583557
0.028764493763446808 0.32338780164718628 0.3214627206325531
0.16527000069618225 0.32768374681472778 0.33200395107269287
0.32544195652008057 0.33092346787452698 0.32343876361846924
0.47886249423027039 0.33212104439735413 0.31479921936988831
0.63907361030578613 0.33819049596786499 0.32965397834777832
0.80317634344100952 0.33970588445663452 0.33693918585777283
0.98306536674499512 0.34445461630821228 0.3359033465385437
0.059562280774116516 0.44757726788520813 0.36336877942085266
0.18045803904533386 0.4541172981262207 0.3642919659614563
0.32939961552619934 0.44471633434295654 0.34067472815513611
0.48082253336906433 0.45199781656265259 0.31769797205924988
0.64709258079528809 0.48862573504447937 0.33869412541389465
0.81939232349395752 0.49794957041740417 0.34682556986808777
0.99307334423065186 0.50063759088516235 0.34080430865287781
0.10219442099332809 0.58387792110443115 0.38279151916503906
0.22008006274700165 0.58970558643341064 0.37918752431869507
0.35004422068595886 0.58648502826690674 0.35714870691299438
0.48168089985847473 0.56810998916625977 0.31351259350776672
0.62313938140869141 0.6007080078125 0.30905821919441223
0.80633056163787842 0.65762495994567871 0.33794879913330078
0.99607002735137939 0.66941851377487183 0.34580430388450623
0.14557935297489166 0.71143233776092529 0.39761030673980713
0.25820651650428772 0.71079832315444946 0.39409747719764709
0.37786859273910522 0.71350151300430298 0.37889513373374939
0.50161862373352051 0.70119702816009521 0.34588891267776489
0.61905169486999512 0.69507914781570435 0.31185171008110046
0.76116251945495605 0.75285822153091431 0.31768655776977539
0.9861571192741394 0.81684666872024536 0.33238577842712402
0.18916159868240356 0.83105605840682983 0.40832418203353882
0.29012686014175415 0.83062952756881714 0.40814322233200073
0.39969396591186523 0.83918017148971558 0.39800828695297241
0.52046746015548706 0.84588116407394409 0.38152351975440979
0.63534724712371826 0.84497302770614624 0.35404187440872192
0.74072587490081787 0.85744798183441162 0.32758119702339172
0.95470255613327026 0.94637250900268555 0.31854483485221863
0.078512705862522125 0.12428943067789078 0.22777006030082703
0.14243513345718384 0.13392442464828491 0.25595054030418396
0.26882168650627136 0.093800172209739685 0.33731403946876526
0.41044476628303528 0.12866613268852234 0.25403758883476257
0.55214327573776245 0.093781791627407074 0.28905516862869263
0.71273553371429443 0.068455681204795837 0.36808693408966064
0.89765256643295288 0.059544149786233902 0.4277462363243103
0.055825565010309219 0.22640621662139893 0.29483810067176819
0.12225823849439621 0.23651491105556488 0.30908626317977905
0.25881081819534302 0.23343920707702637 0.35745254158973694
0.43672031164169312 0.21511538326740265 0.30890575051307678
0.57520431280136108 0.1955455094575882 0.33656534552574158
0.73445171117782593 0.19301408529281616 0.40498256683349609
0.92409390211105347 0.20435260236263275 0.454947829246521
0.034013200551271439 0.34181985259056091 0.38350781798362732
0.13324269652366638 0.3516198992729187 0.39983391761779785
0.28343147039413452 0.36344033479690552 0.4244408905506134
0.45721513032913208 0.34613022208213806 0.4063439667224884
0.60741519927978516 0.3321608304977417 0.41536074876785278
0.76450687646865845 0.33461350202560425 0.45630967617034912
0.95692741870880127 0.34769973158836365 0.47928407788276672
0.073049284517765045 0.46114534139633179 0.46096500754356384
0.18297331035137177 0.46907070279121399 0.46817672252655029
0.32467544078826904 0.47617018222808838 0.48209866881370544
0.46741196513175964 0.47499880194664001 0.47412711381912231
0.62451392412185669 0.47627997398376465 0.46853262186050415
0.7887454628944397 0.48715046048164368 0.49097812175750732
0.98176950216293335 0.49889931082725525 0.49395304918289185
0.10549738258123398 0.59307032823562622 0.50323516130447388
0.20708641409873962 0.59657919406890869 0.50345408916473389
0.32261613011360168 0.59869205951690674 0.50047039985656738
0.46014681458473206 0.58489429950714111 0.48000961542129517
0.61077374219894409 0.59136027097702026 0.46135613322257996
0.79096710681915283 0.64863389730453491 0.49462869763374329
0.99202358722686768 0.66644567251205444 0.49650514125823975
0.12936960160732269 0.7128029465675354 0.52207416296005249
0.23017130792140961 0.71200412511825562 0.51977086067199707
0.34458521008491516 0.71153849363327026 0.51394468545913696
0.48047775030136108 0.7153591513633728 0.4936179518699646
0.60457044839859009 0.69489866495132446 0.45024046301841736
0.7382696270942688 0.7403329610824585 0.46822428703308105
0.9826359748840332 0.81809908151626587 0.49071851372718811
0.16053523123264313 0.82793384790420532 0.53511267900466919
0.25815823674201965 0.82931005954742432 0.53181403875350952
0.36954325437545776 0.83333843946456909 0.52751749753952026
0.49931761622428894 0.84423482418060303 0.51548594236373901
0.62211644649505615 0.84139549732208252 0.48754039406776428
0.71584904193878174 0.84337407350540161 0.46988183259963989
0.93263411521911621 0.93704390525817871 0.4730733335018158
0.10871586203575134 0.16444341838359833 0.28895324468612671
0.15324154496192932 0.17347094416618347 0.3120008111000061
0.23003003001213074 0.17548258602619171 0.35618403553962708
0.40575775504112244 0.10615193843841553 0.44500246644020081
0.53160005807876587 0.16554097831249237 0.3371131420135498
0.67371225357055664 0.12919209897518158 0.38893026113510132
0.83036673069000244 0.10848680138587952 0.4860832691192627
0.10246456414461136 0.2525462806224823 0.34723713994026184
0.15361607074737549 0.26179146766662598 0.36092197895050049
0.22933334112167358 0.27364674210548401 0.39123672246932983
0.41735541820526123 0.23908258974552155 0.47253954410552979
0.56235283613204956 0.2393956333398819 0.39367035031318665
0.68638086318969727 0.22433139383792877 0.43645292520523071
0.85095906257629395 0.22708588838577271 0.52648192644119263
0.051514133810997009 0.363689124584198 0.43556639552116394
0.12760761380195618 0.37328380346298218 0.45386034250259399
0.23538796603679657 0.38556501269340515 0.48041960597038269
0.41430425643920898 0.38547292351722717 0.52011078596115112
0.58331745862960815 0.36297929286956787 0.47266146540641785
0.70610928535461426 0.34581717848777771 0.51290774345397949
0.8828548789024353 0.35301339626312256 0.58404809236526489
0.092049650847911835 0.4805767834186554 0.53681319952011108
0.18817619979381561 0.48848506808280945 0.55074971914291382
0.31693199276924133 0.49545377492904663 0.58449387550354004
0.43349969387054443 0.50827163457870483 0.57757681608200073
0.59397310018539429 0.49405550956726074 0.55495381355285645
0.72679060697555542 0.47895145416259766 0.58404737710952759
0.92759853601455688 0.49180781841278076 0.62844556570053101
0.12538793683052063 0.60585355758666992 0.60191637277603149
0.21999363601207733 0.6059754490852356 0.60838925838470459
0.32832276821136475 0.60935479402542114 0.61961072683334351
0.45530962944030762 0.61554157733917236 0.62816137075424194
0.59636539220809937 0.60398530960083008 0.61288732290267944
0.74851846694946289 0.63022273778915405 0.63751131296157837
0.96925759315490723 0.65425091981887817 0.65628039836883545
0.13739114999771118 0.71907758712768555 0.63485896587371826
0.22824782133102417 0.71605783700942993 0.63492977619171143
0.32820650935173035 0.71596610546112061 0.63759130239486694
0.44993594288825989 0.72028279304504395 0.63900548219680786
0.59771585464477539 0.70762580633163452 0.62300139665603638
0.72480618953704834 0.72625577449798584 0.63303190469741821
0.97732037305831909 0.8115544319152832 0.65938466787338257
0.14982564747333527 0.83421593904495239 0.65366059541702271
0.24082764983177185 0.83379334211349487 0.65242218971252441
0.34424713253974915 0.83559483289718628 0.65555030107498169
0.46922200918197632 0.84722721576690674 0.65680688619613647
0.60862857103347778 0.85362625122070312 0.64351379871368408
0.7066231369972229 0.84103816747665405 0.6270679235458374
0.92450344562530518 0.9310794472694397 0.63559538125991821
0.13093319535255432 0.20200161635875702 0.34850409626960754
0.17122024297714233 0.21136671304702759 0.36699098348617554
0.22983135282993317 0.21700930595397949 0.40389615297317505
0.35219535231590271 0.1871279776096344 0.4988214373588562
0.54374796152114868 0.15912154316902161 0.52796787023544312
0.65189528465270996 0.21060033142566681 0.44384041428565979
0.77449256181716919 0.18555517494678497 0.51336491107940674
0.13984315097332001 0.28218522667884827 0.40240296721458435
0.17946317791938782 0.29127874970436096 0.41809603571891785
0.23350006341934204 0.30424478650093079 0.44397231936454773
0.34234103560447693 0.30297011137008667 0.51404851675033569
0.56655216217041016 0.264505535364151 0.56850260496139526
0.66790390014648438 0.28858804702758789 0.49122399091720581
0.78288382291793823 0.27809286117553711 0.54899114370346069
0.089825935661792755 0.38593015074729919 0.48974969983100891
0.13992124795913696 0.39617043733596802 0.50550979375839233
0.22279523313045502 0.40981423854827881 0.53167510032653809
0.36142313480377197 0.41793602705001831 0.56863009929656982
0.56129938364028931 0.3967168927192688 0.628528892993927
0.68485301733016968 0.39284282922744751 0.56738054752349854
0.80616015195846558 0.38247987627983093 0.62529069185256958
0.10173709690570831 0.50138998031616211 0.60061240196228027
0.18033269047737122 0.50749880075454712 0.61694717407226562
0.28244271874427795 0.51559919118881226 0.64587175846099854
0.40829566121101379 0.52735251188278198 0.65196698904037476
0.55668014287948608 0.52539116144180298 0.6743500828742981
0.68538445234298706 0.50416833162307739 0.63451224565505981
0.83233284950256348 0.49648997187614441 0.68345898389816284
0.14853335916996002 0.61899149417877197 0.68169665336608887
0.23800642788410187 0.62040305137634277 0.69181817770004272
0.33802706003189087 0.62593430280685425 0.70911580324172974
0.45867747068405151 0.62772995233535767 0.72422927618026733
0.56835144758224487 0.63982033729553223 0.70877093076705933
0.68361729383468628 0.61339616775512695 0.69112485647201538
0.86377179622650146 0.62959671020507812 0.7281264066696167
0.16654899716377258 0.72782003879547119 0.72939592599868774
0.24850009381771088 0.72668921947479248 0.7320258617401123
0.33715048432350159 0.72901731729507446 0.74048864841461182
0.44889652729034424 0.72988408803939819 0.75395900011062622
0.57891213893890381 0.73037612438201904 0.75310629606246948
0.69246828556060791 0.72128933668136597 0.75439786911010742
0.9232032299041748 0.78079807758331299 0.77789783477783203
0.16584911942481995 0.84933781623840332 0.7600705623626709
0.25091052055358887 0.84437382221221924 0.76313203573226929
0.34212535619735718 0.846058189868927 0.76954895257949829
0.45330917835235596 0.85534524917602539 0.77866882085800171
0.58135110139846802 0.86260330677032471 0.78721851110458374
0.69357109069824219 0.84739971160888672 0.79512560367584229
0.90495729446411133 0.91201663017272949 0.80046802759170532
0.14236018061637878 0.23443645238876343 0.41353407502174377
0.19048419594764709 0.24607938528060913 0.43056946992874146
0.24095064401626587 0.25532737374305725 0.46203479170799255
0.31798389554023743 0.26181814074516296 0.51576048135757446
0.52575850486755371 0.17178702354431152 0.66751235723495483
0.65319114923477173 0.23490114510059357 0.59636551141738892
0.75453799962997437 0.2516334056854248 0.5710378885269165
0.15313720703125 0.31380736827850342 0.46887892484664917
0.20421388745307922 0.32216107845306396 0.48026606440544128
0.24957180023193359 0.33400660753250122 0.50264382362365723
0.32421910762786865 0.34415295720100403 0.55686402320861816
0.53103619813919067 0.29205483198165894 0.69615978002548218
0.66778534650802612 0.31660792231559753 0.64803552627563477
0.75568228960037231 0.33609703183174133 0.60409772396087646
0.11389290541410446 0.41237667202949524 0.55089771747589111
0.17815212905406952 0.42015641927719116 0.56477266550064087
0.23809884488582611 0.43346461653709412 0.58806705474853516
0.34241577982902527 0.44629240036010742 0.61919271945953369
0.51962286233901978 0.42585945129394531 0.71530753374099731
0.67021274566650391 0.41946896910667419 0.7174033522605896
0.76672238111495972 0.42962652444839478 0.66266542673110962
0.11154790967702866 0.5270037055015564 0.65809351205825806
0.19176162779331207 0.5314563512802124 0.6693044900894165
0.27361318469047546 0.53857231140136719 0.68792283535003662
0.39588630199432373 0.54562824964523315 0.70727646350860596
0.52195459604263306 0.55179291963577271 0.72799289226531982
0.66724491119384766 0.53496295213699341 0.76497447490692139
0.78022843599319458 0.53403776884078979 0.70987099409103394
0.16286648809909821 0.64061254262924194 0.74523669481277466
0.2457306981086731 0.64197039604187012 0.75175464153289795
0.33718866109848022 0.64363968372344971 0.76919710636138916
0.44635534286499023 0.64328670501708984 0.79447406530380249
0.54098093509674072 0.6586032509803772 0.7697259783744812
0.66667765378952026 0.64767903089523315 0.81422960758209229
0.79571706056594849 0.64316767454147339 0.76390552520751953
0.19485151767730713 0.74476563930511475 0.80940216779708862
0.27498120069503784 0.74038195610046387 0.81626474857330322
0.36264345049858093 0.73993325233459473 0.83177369832992554
0.4753563404083252 0.73861110210418701 0.85723930597305298
0.596901535987854 0.74155402183532715 0.85007637739181519
0.67407631874084473 0.74982237815856934 0.85551232099533081
0.81651836633682251 0.74855828285217285 0.8236650824546814
0.20680421590805054 0.85855329036712646 0.87026399374008179
0.28756588697433472 0.85310089588165283 0.87114483118057251
0.37723797559738159 0.85347533226013184 0.87886780500411987
0.49418827891349792 0.85849970579147339 0.89083999395370483
0.62404650449752808 0.86529994010925293 0.90328776836395264
0.72755533456802368 0.87857735157012939 0.92724049091339111
0.84211665391921997 0.88004916906356812 0.92254972457885742
