assets/lut/editingcorp motus.cube
# Created by: G'MIC (https://gmic.eu)
TITLE "motus"
# LUT size
LUT_3D_SIZE 13
# Data domain
DOMAIN_MIN 0.0 0.0 0.0
DOMAIN_MAX 1.0 1.0 1.0
# LUT data points
0.023687025532126427 0.028072237968444824 0.031100763007998466
0.092238195240497589 0.024650288745760918 0.027700595557689667
0.17289689183235168 0.015541750006377697 0.025452347472310066
0.25392904877662659 0.0079450421035289764 0.020633967593312263
0.32947832345962524 0.0070838178507983685 0.010621597990393639
0.39835295081138611 0.009947638027369976 0.0017191419610753655
0.46483752131462097 0.0072988620959222317 0
0.53024601936340332 0.0036166470963507891 0
0.59566468000411987 0.0042010885663330555 0
0.66268420219421387 0.0050222808495163918 6.4625460254319478e-06
0.73009788990020752 0.0054997461847960949 0.00244115199893713
0.797920823097229 0.0076115177944302559 0.0058711031451821327
0.86713099479675293 0.0084339212626218796 0.0010044022928923368
0.019124768674373627 0.092962868511676788 0.032107006758451462
0.088953383266925812 0.093167170882225037 0.026856411248445511
0.17723943293094635 0.08852589875459671 0.021224288269877434
0.26747560501098633 0.081852808594703674 0.013921760022640228
0.34783780574798584 0.07639167457818985 0.0085916556417942047
0.41862273216247559 0.068783149123191833 0.002156171714887023
0.48623311519622803 0.054748788475990295 3.9852366171544418e-05
0.55302798748016357 0.045035418123006821 0.0012336730724200606
0.62003993988037109 0.041942551732063293 0.00028596766060218215
0.68768155574798584 0.036062531173229218 0.00075264723272994161
0.75531482696533203 0.029903052374720573 0.009248681366443634
0.8222847580909729 0.03199227899312973 0.01732972078025341
0.89027518033981323 0.036629050970077515 0.0095055820420384407
0.006823431234806776 0.16278494894504547 0.026216918602585793
0.06606273353099823 0.16788259148597717 0.022702595219016075
0.16894613206386566 0.17233730852603912 0.015633272007107735
0.27601191401481628 0.1772913932800293 0.0086700739338994026
0.36388418078422546 0.1758480966091156 0.0064634885638952255
0.43588623404502869 0.16408698260784149 0.0018445930909365416
0.50396203994750977 0.1511884480714798 1.2925092050863896e-05
0.57354587316513062 0.14102427661418915 0.00040788837941363454
0.64325958490371704 0.12642273306846619 0.00010609345918055624
0.71260350942611694 0.10643769800662994 0.0029676249250769615
0.7809520959854126 0.088577687740325928 0.015371359884738922
0.84804022312164307 0.084930464625358582 0.023812985047698021
0.91518133878707886 0.085932411253452301 0.020157547667622566
0.0012019139248877764 0.23284941911697388 0.010117623955011368
0.045197281986474991 0.24129508435726166 0.010618576779961586
0.15882183611392975 0.25097915530204773 0.006336466409265995
0.28391602635383606 0.26095247268676758 0.0020508409943431616
0.37821713089942932 0.2641805112361908 0.0028558019548654556
0.450336754322052 0.25710198283195496 0.003110294695943594
0.51916646957397461 0.24994562566280365 0.0021855074446648359
0.59137117862701416 0.24261064827442169 0.0038093565963208675
0.66368776559829712 0.22805601358413696 0.0041938181966543198
0.73428303003311157 0.20917616784572601 0.0052485298365354538
0.80338990688323975 0.19390174746513367 0.012662670575082302
0.87150073051452637 0.18254140019416809 0.021304799243807793
0.93941360712051392 0.17099566757678986 0.022315919399261475
0.00012224982492625713 0.30178803205490112 0.0024714150931686163
0.029267808422446251 0.31216570734977722 0.0018506817286834121
0.13876931369304657 0.32472944259643555 0.00052654789760708809
0.27653771638870239 0.33655700087547302 0
0.38255089521408081 0.34295198321342468 9.4724171503912657e-05
0.46235454082489014 0.34036213159561157 0.00085269706323742867
0.53425711393356323 0.33549845218658447 0.0066169141791760921
0.60754531621932983 0.32922381162643433 0.014336829073727131
0.68069988489151001 0.3205183744430542 0.013377469964325428
0.75243133306503296 0.31085759401321411 0.0081284614279866219
0.82286363840103149 0.30314779281616211 0.0091519970446825027
0.89251738786697388 0.29213932156562805 0.016726849600672722
0.96064311265945435 0.27596375346183777 0.018675187602639198
0 0.37079611420631409 0.0040839402936398983
0.011142730712890625 0.38232797384262085 0.00032869225833564997
0.10215655714273453 0.39608907699584961 0
0.24339190125465393 0.40897491574287415 0
0.37028959393501282 0.41742169857025146 0
0.46649336814880371 0.41916671395301819 0.00044281902955844998
0.54539519548416138 0.41567385196685791 0.0054289274848997593
0.62036019563674927 0.41058540344238281 0.013269491493701935
0.69427794218063354 0.40462648868560791 0.013386266306042671
0.76702630519866943 0.3984375 0.010311679914593697
0.83892416954040527 0.3924919068813324 0.011433007195591927
0.90973788499832153 0.38464292883872986 0.016777202486991882
0.9776877760887146 0.3730766773223877 0.016265301033854485
0 0.4394707977771759 0.0051954681985080242
0.0088147632777690887 0.45197933912277222 9.1911766503471881e-05
0.083279222249984741 0.46660184860229492 0
0.21138091385364532 0.48022282123565674 0
0.3456055223941803 0.49036136269569397 0
0.45641216635704041 0.49411129951477051 0.00024892771034501493
0.54597753286361694 0.49400734901428223 0.0037264206912368536
0.62639302015304565 0.49037131667137146 0.0086282622069120407
0.70292371511459351 0.4856170117855072 0.011499636806547642
0.7775033712387085 0.47989183664321899 0.014122862368822098
0.8508191704750061 0.47346222400665283 0.016392337158322334
0.9226527214050293 0.46646016836166382 0.01697063073515892
0.98726439476013184 0.4579789936542511 0.014211826957762241
0.00048968743067234755 0.51006859540939331 0.0037287692539393902
0.015312179923057556 0.52316612005233765 5.9240005612082314e-06
0.075667254626750946 0.53810948133468628 0
0.18399904668331146 0.55193406343460083 0
0.31379908323287964 0.56268978118896484 0
0.43425455689430237 0.56909322738647461 2.7226466045249254e-05
0.53592050075531006 0.57132351398468018 0.0026848139241337776
0.62452661991119385 0.56990301609039307 0.0071022780612111092
0.70571339130401611 0.56607717275619507 0.011477990075945854
0.78271210193634033 0.5608212947845459 0.015636608004570007
0.85755878686904907 0.55419778823852539 0.016110304743051529
0.93121606111526489 0.54665333032608032 0.013092085719108582
0.99251049757003784 0.53958868980407715 0.0097723864018917084
0.0016526465769857168 0.58558320999145508 0.0013570449082180858
0.016005437821149826 0.59853494167327881 0
0.062561735510826111 0.61295652389526367 0
0.15310658514499664 0.62624770402908325 5.1580689614638686e-05
0.27651804685592651 0.63678443431854248 5.4213578550843522e-05
0.40444660186767578 0.64360225200653076 1.0890586963796522e-05
0.51683312654495239 0.6481320858001709 0.0026074429042637348
0.61482042074203491 0.64848101139068604 0.0084993401542305946
0.7016603946685791 0.64681112766265869 0.013563896529376507
0.78214460611343384 0.6427949070930481 0.01568266935646534
0.85880035161972046 0.63680857419967651 0.014493157155811787
0.93488657474517822 0.62951713800430298 0.011109296232461929
0.99437010288238525 0.62311649322509766 0.0089617110788822174
9.5098155725281686e-05 0.66666018962860107 0.00062445848016068339
0.0079151224344968796 0.67828625440597534 0
0.043800909072160721 0.69157546758651733 0.0008374233148060739
0.12050876766443253 0.70349985361099243 0.0057485392317175865
0.23624876141548157 0.71305829286575317 0.0067914924584329128
0.36745434999465942 0.72000288963317871 0.0051492131315171719
0.49033215641975403 0.72521138191223145 0.0074162948876619339
0.59843122959136963 0.7273527979850769 0.013717875815927982
0.6920398473739624 0.72756284475326538 0.01843026839196682
0.77604609727859497 0.72526651620864868 0.017808008939027786
0.8557315468788147 0.72082597017288208 0.014952162280678749
0.93372201919555664 0.71480727195739746 0.012902592308819294
0.99456411600112915 0.70924133062362671 0.010953177697956562
0 0.74989873170852661 0.0012613931903615594
0.003094901330769062 0.76069211959838867 0.00063349405536428094
0.032001137733459473 0.77250516414642334 0.0055685155093669891
0.099790506064891815 0.78278231620788574 0.014303319156169891
0.20404061675071716 0.79147118330001831 0.016419369727373123
0.33158904314041138 0.79834103584289551 0.013871974311769009
0.46165609359741211 0.80365294218063354 0.014030082151293755
0.57878071069717407 0.80696022510528564 0.018216570839285851
0.67780065536499023 0.80798858404159546 0.02130463533103466
0.76537197828292847 0.80738109350204468 0.019543891772627831
0.84808140993118286 0.80451160669326782 0.016438562422990799
0.92855137586593628 0.80041223764419556 0.015405228361487389
0.99332493543624878 0.79628771543502808 0.013187827542424202
2.3336972390097799e-06 0.8344959020614624 0.00050171499606221914
0.0069733113050460815 0.84409528970718384 0.0010948331328108907
0.03771006315946579 0.85427397489547729 0.0068046869710087776
0.097560539841651917 0.863381028175354 0.014898831024765968
0.18928463757038116 0.87115347385406494 0.017421452328562737
0.30720299482345581 0.87790971994400024 0.015542213805019855
0.43611449003219604 0.88308221101760864 0.014450551941990852
0.55636417865753174 0.88689970970153809 0.015588333830237389
0.65911024808883667 0.88859540224075317 0.016237655654549599
0.75085616111755371 0.88910335302352905 0.015993664041161537
0.83748579025268555 0.88772547245025635 0.015180476009845734
0.92088055610656738 0.88543444871902466 0.014932654798030853
0.99107712507247925 0.88330435752868652 0.013581832870841026
0.0012878119014203548 0.92028230428695679 0
0.018707739189267159 0.9284166693687439 2.3696002244832925e-05
0.053015824407339096 0.93701481819152832 0.0013380312593653798
0.10820399224758148 0.94514477252960205 0.0052298898808658123
0.18946062028408051 0.95226770639419556 0.0076009714975953102
0.29534432291984558 0.95843404531478882 0.0064445198513567448
0.41502118110656738 0.9635499119758606 0.0048756171017885208
0.53270119428634644 0.96743482351303101 0.0048345825634896755
0.63806319236755371 0.96932214498519897 0.0050765690393745899
0.73420906066894531 0.97018915414810181 0.005698230117559433
0.82499402761459351 0.97031128406524658 0.0077750561758875847
0.91167753934860229 0.96959704160690308 0.0097946319729089737
0.98714560270309448 0.96917891502380371 0.010048615746200085
0.021599818021059036 0.023126160725951195 0.10348308831453323
0.087878361344337463 0.021981706842780113 0.10438555479049683
0.16852898895740509 0.016537370160222054 0.10138241946697235
0.25008416175842285 0.012884357012808323 0.089727126061916351
0.3258368968963623 0.011857589706778526 0.071061618626117706
0.39552488923072815 0.011399975977838039 0.050177197903394699
0.46222823858261108 0.0089589441195130348 0.029596202075481415
0.52682197093963623 0.0019393472466617823 0.021070621907711029
0.5913015604019165 0.001717675942927599 0.011306703090667725
0.6580500602722168 0.0032054227776825428 0.0086709717288613319
0.72545915842056274 0.0053885667584836483 0.018302768468856812
0.79273027181625366 0.009272497147321701 0.022889724001288414
0.86198556423187256 0.0081538483500480652 0.0062615787610411644
0.017366357147693634 0.090482093393802643 0.10433057695627213
0.084003910422325134 0.092573501169681549 0.1025240570306778
0.17422163486480713 0.092368230223655701 0.093360036611557007
0.26447761058807373 0.091429047286510468 0.075766846537590027
0.34498125314712524 0.083932869136333466 0.062498502433300018
0.41628718376159668 0.069411501288414001 0.044540584087371826
0.48384669423103333 0.052205987274646759 0.025187548249959946
0.55009263753890991 0.031883224844932556 0.027175260707736015
0.61654800176620483 0.028526410460472107 0.019667336717247963
0.68413102626800537 0.0231336560100317 0.013783772476017475
0.75139874219894409 0.017766645178198814 0.020570985972881317
0.81732809543609619 0.024593129754066467 0.030126025900244713
0.88503515720367432 0.02784360945224762 0.019949130713939667
0.010416531935334206 0.16220469772815704 0.097586885094642639
0.069138228893280029 0.16756457090377808 0.091673895716667175
0.16828756034374237 0.17444320023059845 0.080102257430553436
0.27299100160598755 0.18152156472206116 0.064311623573303223
0.36062103509902954 0.17999279499053955 0.053605906665325165
0.43364396691322327 0.17168453335762024 0.033945765346288681
0.50172489881515503 0.15689581632614136 0.013294952921569347
0.57108587026596069 0.13577567040920258 0.01155064906924963
0.64096713066101074 0.12096080183982849 0.0072472067549824715
0.71030604839324951 0.095760583877563477 0.0095166675746440887
0.77899593114852905 0.067763037979602814 0.022728236392140388
0.84511947631835938 0.065246134996414185 0.030473627150058746
0.91140258312225342 0.062961086630821228 0.031269356608390808
0.0063480003736913204 0.23200482130050659 0.0744590163230896
0.048455812036991119 0.23879827558994293 0.070641413331031799
0.15183289349079132 0.24923355877399445 0.055108673870563507
0.27452638745307922 0.26091963052749634 0.039837587624788284
0.37160584330558777 0.26651030778884888 0.041282549500465393
0.44726461172103882 0.26270237565040588 0.035585083067417145
0.51722508668899536 0.2568514347076416 0.018472440540790558
0.58967059850692749 0.24774780869483948 0.0092228911817073822
0.66206538677215576 0.23378893733024597 0.0076900557614862919
0.73285043239593506 0.21146436035633087 0.0081439297646284103
0.80212360620498657 0.1885669082403183 0.016067041084170341
0.87013190984725952 0.16952319443225861 0.026193819940090179
0.93689358234405518 0.14719773828983307 0.034310046583414078
0.0010277243563905358 0.30075362324714661 0.054192084819078445
0.027880067005753517 0.30887678265571594 0.046188682317733765
0.12778690457344055 0.3204292356967926 0.02892792597413063
0.26194870471954346 0.33349466323852539 0.015287750400602818
0.37271258234977722 0.34261214733123779 0.016904523596167564
0.4570772647857666 0.34268841147422791 0.017621014267206192
0.53105604648590088 0.33866983652114868 0.015772607177495956
0.60514724254608154 0.33306920528411865 0.01726919412612915
0.67922705411911011 0.32551071047782898 0.020702436566352844
0.75130361318588257 0.31630519032478333 0.017579695209860802
0.82229149341583252 0.30657845735549927 0.019324688240885735
0.89165925979614258 0.29003673791885376 0.025633629411458969
0.95986080169677734 0.26725116372108459 0.02779356949031353
0 0.37045362591743469 0.049518629908561707
0.011632568202912807 0.38007819652557373 0.02657775953412056
0.095931872725486755 0.39241251349449158 0.010857361368834972
0.23196008801460266 0.40558511018753052 0.0038329928647726774
0.36104282736778259 0.41567748785018921 0.001051480183377862
0.45887747406959534 0.41895973682403564 0.0011481191031634808
0.53930699825286865 0.41671276092529297 0.0037017224822193384
0.61580109596252441 0.41244149208068848 0.0089288298040628433
0.69092416763305664 0.40737208724021912 0.012553435750305653
0.76508891582489014 0.40158101916313171 0.019097123295068741
0.8383105993270874 0.39404058456420898 0.029093530029058456
0.90950053930282593 0.38435754179954529 0.034193631261587143
0.97685188055038452 0.37142041325569153 0.030124349519610405
0 0.43995660543441772 0.042684949934482574
0.0056180767714977264 0.45053189992904663 0.017075527459383011
0.070738784968852997 0.46363735198974609 0.0046562491916120052
0.19857703149318695 0.47703900933265686 0.00057187548372894526
0.33719265460968018 0.48819267749786377 0
0.44814613461494446 0.49377387762069702 0.00049030082300305367
0.53768002986907959 0.494110107421875 0.0045415093190968037
0.61981528997421265 0.4923132061958313 0.0052904617041349411
0.69823932647705078 0.48775556683540344 0.0097339553758502007
0.77438873052597046 0.48138421773910522 0.023485729470849037
0.84941971302032471 0.47396767139434814 0.033813714981079102
0.92176324129104614 0.46629452705383301 0.036956325173377991
0.98634499311447144 0.45767971873283386 0.035319413989782333
0 0.51116073131561279 0.030517337843775749
0.0065126009285449982 0.52219128608703613 0.011841448955237865
0.057556390762329102 0.53554016351699829 0.0043024397455155849
0.1658225953578949 0.54933387041091919 0.00047751032980158925
0.30045747756958008 0.56101298332214355 0
0.42302840948104858 0.56894534826278687 0.0005996404797770083
0.52574759721755981 0.57146108150482178 0.0050719315186142921
0.6168363094329834 0.57141566276550293 0.0051641277968883514
0.70026391744613647 0.56832683086395264 0.011817064136266708
0.77902251482009888 0.56270414590835571 0.024336602538824081
0.85578066110610962 0.55560863018035889 0.030961370095610619
0.92990869283676147 0.54779899120330811 0.033641770482063293
0.99188947677612305 0.5401950478553772 0.034563444554805756
0 0.58713895082473755 0.014850915409624577
0.0056856642477214336 0.59783905744552612 0.0031158446799963713
0.041471876204013824 0.61090022325515747 0.0038737875875085592
0.12416520714759827 0.6244511604309082 0.0051814359612762928
0.24876940250396729 0.63578522205352783 0.0019065408268943429
0.38351652026176453 0.64407539367675781 1.1070102118537761e-05
0.50336134433746338 0.64880228042602539 0.00039517271216027439
0.6060064435005188 0.65063148736953735 0.0063314400613307953
0.69593310356140137 0.64932060241699219 0.016964063048362732
0.77806222438812256 0.645577073097229 0.024697277694940567
0.85720658302307129 0.63938993215560913 0.027684738859534264
0.93436276912689209 0.63154202699661255 0.031565647572278976
0.99411249160766602 0.62438207864761353 0.033876664936542511
0 0.66741836071014404 0.0092821456491947174
0.001357538509182632 0.67780798673629761 0.00085456698434427381
0.022493684664368629 0.68989384174346924 0.008637567050755024
0.083614900708198547 0.70211988687515259 0.020418114960193634
0.19472882151603699 0.71239376068115234 0.016538597643375397
0.33592253923416138 0.72094130516052246 0.0046964758075773716
0.47202232480049133 0.72644233703613281 0.0042905770242214203
0.58850371837615967 0.72966724634170532 0.016348445788025856
0.68596088886260986 0.73008358478546143 0.029232339933514595
0.77180558443069458 0.7287793755531311 0.030403047800064087
0.85273450613021851 0.72436559200286865 0.027991261333227158
0.93233364820480347 0.71736598014831543 0.031153600662946701
0.99412506818771362 0.7108573317527771 0.033024538308382034
0 0.74998778104782104 0.014846876263618469
0.00044730692752636969 0.75996816158294678 0.0082939295098185539
0.016379097476601601 0.77086228132247925 0.018472589552402496
0.065748028457164764 0.78142309188842773 0.029739977791905403
0.16058658063411713 0.79073214530944824 0.027907667681574821
0.29477569460868835 0.79838496446609497 0.017969917505979538
0.43974724411964417 0.80467647314071655 0.016233032569289207
0.56817626953125 0.8085172176361084 0.026960739865899086
0.67250317335128784 0.8105621337890625 0.038004122674465179
0.76207178831100464 0.81035220623016357 0.037727192044258118
0.84572911262512207 0.80779361724853516 0.033642023801803589
0.92701452970504761 0.8028368353843689 0.033756569027900696
0.99297070503234863 0.79785096645355225 0.033654876053333282
3.2312731491401792e-05 0.83450978994369507 0.012152907438576221
0.0054808822460472584 0.84330552816390991 0.012191114015877247
0.026544757187366486 0.85307866334915161 0.02400633879005909
0.070004314184188843 0.86222916841506958 0.033189527690410614
0.14937812089920044 0.87036395072937012 0.032337203621864319
0.26936635375022888 0.87756705284118652 0.025982188060879707
0.41222816705703735 0.88356626033782959 0.022753637284040451
0.54589343070983887 0.88797104358673096 0.028273474425077438
0.65453314781188965 0.89046412706375122 0.035628106445074081
0.74859178066253662 0.89119309186935425 0.037648729979991913
0.83589088916778564 0.8900110125541687 0.037506897002458572
0.91943609714508057 0.88735699653625488 0.037809126079082489
0.9902651309967041 0.8844330906867981 0.03644377738237381
0.0014645594637840986 0.92050826549530029 0.00077472761040553451
0.016524206846952438 0.92837649583816528 0.002699683653190732
0.042615000158548355 0.93678140640258789 0.012865118682384491
0.084949076175689697 0.94461596012115479 0.022003188729286194
0.15496690571308136 0.95191842317581177 0.023465445265173912
0.25999090075492859 0.95829504728317261 0.019536230713129044
0.38975289463996887 0.96377241611480713 0.01540985144674778
0.51849472522735596 0.96801722049713135 0.016268964856863022
0.63153368234634399 0.97005414962768555 0.020880561321973801
0.73118311166763306 0.97130304574966431 0.024940865114331245
0.82310265302658081 0.9712369441986084 0.029078749939799309
0.90991169214248657 0.97067111730575562 0.033462867140769958
0.98615550994873047 0.96965724229812622 0.035663485527038574
0.01375401858240366 0.022138228639960289 0.17661146819591522
0.077285602688789368 0.020987940952181816 0.18159690499305725
0.1598060131072998 0.017194546759128571 0.184022456407547
0.24340109527111053 0.014950158074498177 0.17702844738960266
0.32139810919761658 0.012226494029164314 0.16337032616138458
0.39384672045707703 0.0054136537946760654 0.1524650901556015
0.46133244037628174 0.0050574657507240772 0.13723057508468628
0.52598273754119873 0.0025561314541846514 0.11538256704807281
0.59044933319091797 0.00081197702093049884 0.089411042630672455
0.65705591440200806 0.0032688814681023359 0.070657752454280853
0.72393465042114258 0.0092076770961284637 0.052454914897680283
0.79051011800765991 0.013625694438815117 0.041723094880580902
0.85936671495437622 0.010728858411312103 0.019726920872926712
0.0079538086429238319 0.092349469661712646 0.17943339049816132
0.071181312203407288 0.093843407928943634 0.18268872797489166
0.16527466475963593 0.093854852020740509 0.18222501873970032
0.25664174556732178 0.093648917973041534 0.17225641012191772
0.3387560248374939 0.084675431251525879 0.15979830920696259
0.41380149126052856 0.063059709966182709 0.147822305560112
0.4828650951385498 0.048765070736408234 0.12628358602523804
0.54847413301467896 0.034671708941459656 0.11287163943052292
0.61456680297851562 0.024751236662268639 0.095375865697860718
0.68145376443862915 0.020253963768482208 0.070940293371677399
0.74786472320556641 0.026267467066645622 0.043555945158004761
0.81396961212158203 0.032744105905294418 0.039922855794429779
0.88179212808609009 0.029857965186238289 0.025797002017498016
0.007412345614284277 0.16477334499359131 0.18030889332294464
0.062818668782711029 0.16854934394359589 0.17943233251571655
0.16103217005729675 0.17557215690612793 0.17602832615375519
0.26350387930870056 0.18337088823318481 0.16645500063896179
0.35251110792160034 0.18240220844745636 0.1537395715713501
0.43089142441749573 0.17266151309013367 0.13700908422470093
0.50112682580947876 0.15966333448886871 0.10679185390472412
0.56945252418518066 0.14220990240573883 0.083745189011096954
0.63880306482315063 0.12689711153507233 0.064241521060466766
0.70686596632003784 0.10037250816822052 0.052031110972166061
0.77509069442749023 0.078630886971950531 0.03986111655831337
0.84177476167678833 0.068828195333480835 0.032011713832616806
0.90760797262191772 0.054216109216213226 0.032395292073488235
0.0034818162675946951 0.23430968821048737 0.17206744849681854
0.036026868969202042 0.23894579708576202 0.17064455151557922
0.13576145470142365 0.24930401146411896 0.1590903103351593
0.25700157880783081 0.26269340515136719 0.14889547228813171
0.35809755325317383 0.27046528458595276 0.14219659566879272
0.44190940260887146 0.26969587802886963 0.12711271643638611
0.51577180624008179 0.26317042112350464 0.09920782595872879
0.58801871538162231 0.25457003712654114 0.070896342396736145
0.66032141447067261 0.24598293006420135 0.052134137600660324
0.72985047101974487 0.22503061592578888 0.038047220557928085
0.79959011077880859 0.1961817741394043 0.030908262357115746
0.867451012134552 0.16877549886703491 0.024802159518003464
0.93311494588851929 0.13258688151836395 0.03379599004983902
3.5155051591573283e-05 0.30302625894546509 0.15736091136932373
0.015313944779336452 0.30813741683959961 0.14907033741474152
0.11065932363271713 0.31879296898841858 0.13405530154705048
0.241564080119133 0.3337215781211853 0.1208491176366806
0.3551291823387146 0.34546515345573425 0.1091853454709053
0.44692328572273254 0.34770426154136658 0.092013053596019745
