assets/lut/editingcorp litore.cube
# Created by: G'MIC (https://gmic.eu)
TITLE "litore"
# LUT size
LUT_3D_SIZE 5
# Data domain
DOMAIN_MIN 0.0 0.0 0.0
DOMAIN_MAX 1.0 1.0 1.0
# LUT data points
0.00013786765339318663 0.0097318012267351151 0.018522210419178009
0.1925307959318161 0.0082118166610598564 0.0045105577446520329
0.41881439089775085 8.5269704868551344e-05 0
0.56904935836791992 0 0.00031991099240258336
0.70802974700927734 0 0.00034556668833829463
0 0.20519810914993286 0.0018709369469434023
0.20080839097499847 0.21378029882907867 0
0.44862908124923706 0.2177836149930954 0.00039011638727970421
0.60352391004562378 0.18337741494178772 0.0017222086898982525
0.74745512008666992 0.11868562549352646 2.1003274014219642e-05
1.4002182979311328e-05 0.43846231698989868 3.0338062060764059e-05
0.18470326066017151 0.44857272505760193 0
0.46473962068557739 0.43615636229515076 0.0011304818326607347
0.63654798269271851 0.42244908213615417 0.0033130869269371033
0.79452347755432129 0.40913188457489014 0.0017878812504932284
0 0.63114309310913086 7.0010914896556642e-06
0.14035432040691376 0.6368831992149353 0.0065579731017351151
0.45970308780670166 0.63269156217575073 0.0072912327013909817
0.65333747863769531 0.62419664859771729 0.0050723506137728691
0.82378756999969482 0.61942654848098755 0.0025337818078696728
0.0270511694252491 0.78973710536956787 0
0.15516142547130585 0.80024588108062744 0
0.44458696246147156 0.8031955361366272 0.0022042517084628344
0.66031897068023682 0.81215596199035645 0.00073354382766410708
0.83640444278717041 0.80247163772583008 0.0023953157942742109
0.00025616813218221068 0.0065438961610198021 0.16041272878646851
0.18707373738288879 0.0018441294087097049 0.16902284324169159
0.42299678921699524 0 0.13286936283111572
0.56107503175735474 0.00097645778441801667 0.086058609187602997
0.70425331592559814 4.3756823288276792e-05 0.037046186625957489
0 0.21341410279273987 0.19299069046974182
0.21314705908298492 0.23211397230625153 0.18999528884887695
0.48918050527572632 0.21870540082454681 0.10336083918809891
0.66463273763656616 0.17127270996570587 0.031556252390146255
0.79780042171478271 0.1357838362455368 0.014184450730681419
0 0.43372029066085815 0.16154830157756805
0.15367239713668823 0.48185056447982788 0.11019591987133026
0.49942991137504578 0.47020518779754639 0.022205397486686707
0.67946159839630127 0.445426344871521 0.0055882623419165611
0.82600861787796021 0.42505234479904175 9.2091278929729015e-05
0.0021148682571947575 0.6278882622718811 0.039723504334688187
0.093056052923202515 0.67758381366729736 0.030274948105216026
0.47895196080207825 0.6617739200592041 0
0.6772150993347168 0.64253342151641846 0
0.84960436820983887 0.63776135444641113 0.00016156364290509373
0.0014212664682418108 0.7880014181137085 0.00031356810359284282
0.094902053475379944 0.83468002080917358 0.00038667567423544824
0.44994702935218811 0.82617145776748657 7.0010914896556642e-06
0.67664206027984619 0.83749485015869141 0.0026965572033077478
0.86162197589874268 0.82362610101699829 0.00084324256749823689
0.0020391277503222227 0.0047056460753083229 0.32528656721115112
0.16886405646800995 0.00048289578990079463 0.35216540098190308
0.38748756051063538 0.0033913706429302692 0.35040438175201416
0.54893529415130615 0.00017736098379828036 0.346525639295578
0.69211095571517944 0.00085607788059860468 0.331950843334198
0.00096864887746050954 0.22831301391124725 0.3845939040184021
0.16692556440830231 0.22211337089538574 0.43035516142845154
0.48012128472328186 0.20627467334270477 0.42174801230430603
0.67674469947814941 0.18701539933681488 0.38338544964790344
0.84621125459671021 0.11966060847043991 0.34181302785873413
0 0.43253985047340393 0.39766377210617065
0.098977632820606232 0.47865313291549683 0.44298890233039856
0.50463855266571045 0.49046394228935242 0.42709717154502869
0.73309016227722168 0.47479131817817688 0.40570023655891418
0.91487634181976318 0.45525798201560974 0.37312480807304382
0.0074754753150045872 0.6171422004699707 0.371949702501297
0.029202479869127274 0.67512005567550659 0.38897889852523804
0.46067079901695251 0.71646714210510254 0.3637506365776062
0.7472153902053833 0.70593357086181641 0.32718724012374878
0.9364326000213623 0.67834252119064331 0.33873417973518372
0 0.77600502967834473 0.3274959921836853
0.01839529350399971 0.82892334461212158 0.3398272693157196
0.44033205509185791 0.90818369388580322 0.2994026243686676
0.72158193588256836 0.90918004512786865 0.23131310939788818
0.95706194639205933 0.90411603450775146 0.18842184543609619
0.019342593848705292 0.0050410102121531963 0.44264912605285645
0.17602846026420593 0.0011639314470812678 0.49298727512359619
0.37996017932891846 0 0.50474667549133301
0.52689927816390991 0.0015944985207170248 0.50527304410934448
0.67150264978408813 0.00047296262346208096 0.50821405649185181
0.0014036590000614524 0.23195390403270721 0.55024027824401855
0.17213396728038788 0.21692366898059845 0.60876542329788208
0.44934824109077454 0.16518744826316833 0.62760573625564575
0.65369760990142822 0.13617992401123047 0.6155998706817627
0.8102492094039917 0.10458125919103622 0.59599310159683228
0 0.42962571978569031 0.58105617761611938
0.10821660608053207 0.46140798926353455 0.65611976385116577
0.44750335812568665 0.47060960531234741 0.68828284740447998
0.73420721292495728 0.46909719705581665 0.672995924949646
0.91205090284347534 0.45944440364837646 0.64533835649490356
7.0010914896556642e-06 0.6150626540184021 0.58808201551437378
0.035591740161180496 0.67453515529632568 0.64501363039016724
0.41710540652275085 0.71317422389984131 0.67160528898239136
0.76029378175735474 0.7238650918006897 0.67496752738952637
0.96289128065109253 0.70602935552597046 0.66520041227340698
0 0.77697896957397461 0.56586307287216187
0.010009466670453548 0.82522469758987427 0.59196847677230835
0.39449599385261536 0.90827447175979614 0.62344765663146973
0.74015629291534424 0.93021553754806519 0.63290649652481079
0.97209030389785767 0.91579771041870117 0.62097549438476562
0.044725112617015839 0.0012562620686367154 0.53177338838577271
0.19153282046318054 0.0008392333984375 0.60758751630783081
0.37441220879554749 0 0.62049132585525513
0.53622734546661377 0.0001417721068719402 0.63345634937286377
0.66237008571624756 0.00045545989996753633 0.63441294431686401
0.0037104587536305189 0.21640649437904358 0.68198603391647339
0.18137507140636444 0.20929789543151855 0.7366146445274353
0.43298101425170898 0.15600603818893433 0.76127082109451294
0.63995534181594849 0.13015374541282654 0.76075881719589233
0.8063817024230957 0.077541589736938477 0.75931310653686523
0.00013418759044725448 0.42108747363090515 0.70525491237640381
0.11574962735176086 0.45103585720062256 0.80165082216262817
0.43657657504081726 0.45722699165344238 0.83949899673461914
0.71081864833831787 0.44283533096313477 0.84968608617782593
0.90315920114517212 0.43695899844169617 0.83729410171508789
0 0.60934555530548096 0.74585151672363281
0.061227131634950638 0.66670507192611694 0.82778012752532959
0.40838488936424255 0.69241815805435181 0.86720752716064453
0.74523031711578369 0.71144479513168335 0.89029908180236816
0.96686685085296631 0.70688778162002563 0.88263821601867676
0 0.77440649271011353 0.76361221075057983
0.03030078299343586 0.85056257247924805 0.82724517583847046
0.39078271389007568 0.90278351306915283 0.86918079853057861
0.74513345956802368 0.92510497570037842 0.88802433013916016
0.97851443290710449 0.93389832973480225 0.9200824499130249
