assets/lut/editingcorpw Love Whisper.cube
LUT_3D_SIZE 16
DOMAIN_MIN 0.0 0.0 0.0
DOMAIN_MAX 1.0 1.0 1.0
0.170474 0.131167 0.181674
0.179281 0.133584 0.183676
0.210947 0.143654 0.190537
0.260325 0.151791 0.196206
0.319402 0.152780 0.196866
0.389624 0.149447 0.193942
0.484312 0.141726 0.189816
0.594000 0.133804 0.188040
0.710628 0.118605 0.184268
0.809238 0.113784 0.180362
0.882933 0.131350 0.178103
0.942607 0.153903 0.178817
0.996063 0.169845 0.183737
1.000000 0.178738 0.194583
1.000000 0.185300 0.212491
1.000000 0.197848 0.240696
0.177914 0.141567 0.183835
0.181381 0.141214 0.184151
0.210826 0.152362 0.190047
0.258647 0.160002 0.195031
0.316520 0.161687 0.195603
0.386395 0.159420 0.192770
0.480383 0.154468 0.188521
0.589107 0.149285 0.186658
0.705558 0.138599 0.182833
0.805375 0.134488 0.178703
0.880467 0.147909 0.176388
0.941078 0.167013 0.177037
0.995195 0.180291 0.182083
1.000000 0.187889 0.193016
1.000000 0.193030 0.210735
1.000000 0.203976 0.239396
0.202823 0.177469 0.191086
0.206679 0.176060 0.191120
0.216922 0.173733 0.191209
0.257654 0.187642 0.191036
0.313895 0.192033 0.190270
0.387463 0.193723 0.186795
0.479882 0.195578 0.182637
0.587160 0.197019 0.180126
0.702714 0.193697 0.175641
0.801915 0.192836 0.171047
0.876903 0.200314 0.168783
0.937684 0.210820 0.169733
0.993562 0.218633 0.175519
1.000000 0.221612 0.187465
1.000000 0.223323 0.206283
1.000000 0.229496 0.235380
0.232852 0.217118 0.195499
0.238609 0.216563 0.195356
0.243308 0.212393 0.195428
0.260275 0.210145 0.194885
0.312757 0.227062 0.187129
0.379119 0.242160 0.177389
0.468993 0.250237 0.171693
0.574375 0.257201 0.167632
0.689436 0.260031 0.161547
0.790121 0.261815 0.155638
0.867417 0.266136 0.152853
0.930252 0.271399 0.154268
0.988400 0.273924 0.161295
1.000000 0.272530 0.175030
1.000000 0.269688 0.195846
1.000000 0.270976 0.227146
0.272947 0.265379 0.198959
0.280130 0.266609 0.198539
0.285067 0.262520 0.198835
0.292531 0.256222 0.199255
0.314470 0.253430 0.197974
0.380109 0.274101 0.185391
0.456715 0.297577 0.171759
0.557823 0.313529 0.161033
0.674152 0.323261 0.147279
0.777250 0.330015 0.130973
0.855497 0.334343 0.124062
0.919971 0.336751 0.126286
0.980120 0.336338 0.136102
1.000000 0.332083 0.153804
1.000000 0.325958 0.179250
1.000000 0.322270 0.213547
0.317967 0.313512 0.200351
0.326708 0.317272 0.199887
0.333153 0.313121 0.200131
0.339086 0.307866 0.200729
0.348961 0.300243 0.201187
0.378882 0.299779 0.199496
0.459327 0.325713 0.184439
0.548571 0.351886 0.165121
0.650123 0.377423 0.139144
0.755587 0.388007 0.120095
0.838071 0.395575 0.099580
0.906401 0.401191 0.059675
0.968701 0.400171 0.084443
1.000000 0.394018 0.116243
1.000000 0.385529 0.151198
1.000000 0.378668 0.193118
0.379584 0.372039 0.200595
0.390516 0.377812 0.200413
0.398994 0.373095 0.200493
0.403355 0.368197 0.201026
0.411284 0.361377 0.201829
0.423346 0.352361 0.202719
0.462212 0.354235 0.200085
0.555984 0.382640 0.179031
0.652541 0.409675 0.150555
0.739863 0.436404 0.109222
0.818326 0.452357 0.044709
0.889374 0.459687 0.000000
0.955044 0.462292 0.000000
1.000000 0.457137 0.000000
1.000000 0.447328 0.099183
1.000000 0.437812 0.162204
0.451374 0.433418 0.198910
0.463192 0.439650 0.198252
0.473971 0.435573 0.197852
0.478308 0.430656 0.198720
0.485998 0.425368 0.199533
0.497347 0.418164 0.200382
0.512490 0.408460 0.201503
0.561088 0.412632 0.196557
0.659930 0.441928 0.167837
0.742059 0.466682 0.131278
0.810166 0.491597 0.051307
0.871457 0.515074 0.000000
0.938609 0.520825 0.000000
0.997820 0.518384 0.000000
1.000000 0.509519 0.000000
1.000000 0.498884 0.109493
0.533227 0.497832 0.193167
0.543340 0.502833 0.192426
0.555155 0.500372 0.191212
0.561508 0.494455 0.192551
0.568751 0.490266 0.193289
0.579407 0.484516 0.194388
0.593696 0.476901 0.195377
0.611276 0.466667 0.196559
0.664115 0.472972 0.189440
0.747512 0.500687 0.155244
0.812607 0.524706 0.107430
0.871287 0.548349 0.000000
0.927919 0.569551 0.000000
0.989893 0.577779 0.000000
1.000000 0.570910 0.000000
1.000000 0.559485 0.000000
0.618933 0.567163 0.183962
0.627045 0.571699 0.183254
0.636789 0.569426 0.181764
0.646387 0.563049 0.182775
0.652996 0.559813 0.183765
0.662281 0.555114 0.184867
0.674113 0.548493 0.186402
0.688148 0.539371 0.188041
0.704532 0.527543 0.189499
0.750571 0.534112 0.181702
0.815476 0.559795 0.142006
0.873274 0.582280 0.056090
0.930061 0.601317 0.000000
0.987583 0.616916 0.000000
1.000000 0.630108 0.000000
1.000000 0.621241 0.000000
0.693477 0.640681 0.173678
0.696986 0.642188 0.173404
0.705062 0.640620 0.171127
0.717458 0.635230 0.170797
0.723293 0.632007 0.172354
0.731228 0.628504 0.173587
0.741549 0.623560 0.175558
0.753903 0.616626 0.177487
0.768246 0.607349 0.179312
0.784457 0.595148 0.180679
0.823636 0.600885 0.173648
0.878233 0.619843 0.129097
0.935198 0.636683 0.000000
0.992450 0.649579 0.000000
1.000000 0.661054 0.000000
1.000000 0.669886 0.000000
0.755984 0.722317 0.171872
0.756630 0.720594 0.170535
0.764512 0.720724 0.168382
0.778178 0.718400 0.164157
0.784295 0.711172 0.166568
0.790066 0.706581 0.167666
0.798062 0.700893 0.169110
0.808524 0.694175 0.170651
0.821367 0.685991 0.172093
0.836316 0.675494 0.172991
0.853129 0.662226 0.172623
0.891542 0.664382 0.165747
0.943470 0.674881 0.119064
0.997168 0.686111 0.000000
1.000000 0.695319 0.000000
1.000000 0.701295 0.000000
0.808938 0.794766 0.185830
0.809748 0.793550 0.183823
0.817596 0.793922 0.182417
0.832342 0.793234 0.177375
0.843955 0.786061 0.177771
0.849479 0.781881 0.177865
0.856465 0.775896 0.177343
0.865413 0.768575 0.176393
0.876912 0.760126 0.175613
0.890748 0.750002 0.173971
0.906523 0.737509 0.170437
0.924464 0.722471 0.164353
0.963106 0.719788 0.156311
1.000000 0.722769 0.101401
1.000000 0.728481 0.000000
1.000000 0.731930 0.000000
0.870329 0.863670 0.227091
0.871721 0.863161 0.225552
0.879753 0.863391 0.224773
0.894425 0.862333 0.219381
0.912021 0.856032 0.213471
0.917412 0.850571 0.211764
0.923979 0.845189 0.209303
0.932597 0.838621 0.206215
0.943238 0.830655 0.202131
0.955684 0.820829 0.195552
0.969775 0.808743 0.185489
0.985790 0.794240 0.170353
0.997974 0.777091 0.147523
1.000000 0.770067 0.130899
1.000000 0.766641 0.005474
1.000000 0.765707 0.000000
0.929564 0.919090 0.268797
0.930029 0.917958 0.264878
0.937287 0.917705 0.263084
0.951568 0.916936 0.258437
0.973369 0.915144 0.249479
0.982727 0.906682 0.246458
0.988875 0.901880 0.241706
0.996260 0.895846 0.235145
0.998647 0.888432 0.225974
1.000000 0.879400 0.213308
1.000000 0.868150 0.194430
1.000000 0.854125 0.163147
1.000000 0.837178 0.102885
1.000000 0.817616 0.000000
1.000000 0.806840 0.000000
1.000000 0.800308 0.002026
0.991943 0.971527 0.327703
0.992572 0.970672 0.323290
0.999103 0.970532 0.322222
1.000000 0.969616 0.316997
1.000000 0.967785 0.306163
1.000000 0.959564 0.295750
1.000000 0.955072 0.286528
1.000000 0.949181 0.273728
1.000000 0.941503 0.254752
1.000000 0.931524 0.224899
1.000000 0.918700 0.173190
1.000000 0.902641 0.000000
1.000000 0.884526 0.000000
1.000000 0.866294 0.131508
1.000000 0.850889 0.239701
1.000000 0.841855 0.311650
0.170498 0.137264 0.189957
0.177980 0.135298 0.189351
0.207716 0.144896 0.194716
0.257249 0.153081 0.198172
0.315876 0.156604 0.197150
0.385437 0.155844 0.193600
0.478913 0.153105 0.188739
0.586776 0.151277 0.186442
0.702077 0.141874 0.182642
0.801270 0.137258 0.178582
0.876426 0.148593 0.176199
0.937361 0.165856 0.176808
0.993445 0.179064 0.181911
1.000000 0.185595 0.192804
1.000000 0.190142 0.210652
1.000000 0.199350 0.237980
0.171742 0.143678 0.189448
0.179013 0.143421 0.189660
0.208049 0.152574 0.194669
0.255194 0.160804 0.197676
0.313125 0.164638 0.196212
0.382104 0.165093 0.192746
0.474684 0.164433 0.187586
0.581344 0.164063 0.185170
0.697516 0.156930 0.181208
0.798335 0.153202 0.176946
0.874615 0.162804 0.174532
0.936192 0.177560 0.175225
0.992684 0.188769 0.180315
1.000000 0.194032 0.191106
1.000000 0.197726 0.209194
1.000000 0.205516 0.236581
0.194293 0.177940 0.196774
0.202678 0.177392 0.196580
0.213395 0.174852 0.196961
0.253594 0.187655 0.196295
0.309424 0.193013 0.194197
0.382933 0.197365 0.188673
0.474857 0.202002 0.182798
0.581480 0.205500 0.179307
0.695924 0.203853 0.174146
0.795645 0.202784 0.169556
0.871746 0.208526 0.167098
0.933518 0.217778 0.168082
0.991311 0.224429 0.173859
1.000000 0.226321 0.185810
1.000000 0.226754 0.204821
1.000000 0.231210 0.233522
0.225795 0.216373 0.201824
0.232753 0.216444 0.201648
0.239937 0.212434 0.201816
0.255620 0.210419 0.201908
0.305778 0.226399 0.195471
0.371520 0.240295 0.187239
0.460804 0.249302 0.181308
0.566744 0.258049 0.174414
0.682625 0.263219 0.163851
0.784600 0.265962 0.155031
0.862951 0.270100 0.151505
0.926555 0.275027 0.152854
0.985257 0.277190 0.159851
1.000000 0.275267 0.173399
1.000000 0.272154 0.194537
1.000000 0.271944 0.225065
0.267284 0.264673 0.205551
0.274268 0.266017 0.205258
0.282069 0.262071 0.205427
0.289078 0.255861 0.205900
0.309825 0.253031 0.205169
0.373803 0.272826 0.193128
0.450018 0.295830 0.180070
0.550965 0.311255 0.170764
0.666867 0.321076 0.159034
0.771193 0.328096 0.144439
0.851486 0.334595 0.129418
0.917068 0.338424 0.125018
0.977830 0.338192 0.134677
1.000000 0.333831 0.152484
1.000000 0.327404 0.178015
1.000000 0.323119 0.212425
0.313182 0.313231 0.206290
0.321852 0.316719 0.206076
0.330812 0.312640 0.206097
0.336408 0.307443 0.206510
0.345763 0.299778 0.207198
0.374774 0.299114 0.205874
0.453756 0.324218 0.191457
0.542035 0.349917 0.173145
0.643894 0.374520 0.149868
0.750362 0.385421 0.133309
0.834244 0.393347 0.116121
0.903394 0.399606 0.096044
0.966465 0.400821 0.082732
1.000000 0.394751 0.114538
1.000000 0.386891 0.150497
1.000000 0.379144 0.192044
0.375413 0.371808 0.206340
0.385836 0.377208 0.206222
0.396832 0.372724 0.205964
0.400971 0.367695 0.206606
0.408809 0.360853 0.207302
0.420542 0.351806 0.208134
0.459068 0.353715 0.205884
0.551792 0.381612 0.185961
0.648023 0.408246 0.159043
0.735801 0.434855 0.121484
0.815456 0.450425 0.087024
0.887235 0.458220 0.029574
0.953382 0.461446 0.000144
1.000000 0.457598 0.000000
1.000000 0.447901 0.097774
1.000000 0.438380 0.161808
0.448017 0.433462 0.204392
0.459585 0.439671 0.204037
0.472117 0.436312 0.203270
0.477009 0.430731 0.204102
0.484366 0.425232 0.204909
0.495230 0.417775 0.205782
0.509601 0.407729 0.206889
0.557268 0.411523 0.202534
0.655755 0.440485 0.175208
0.738554 0.465217 0.141009
0.807523 0.490293 0.087327
0.869581 0.513756 0.000000
0.936983 0.519665 0.000000
0.997163 0.517594 0.000000
1.000000 0.510533 0.000000
1.000000 0.499432 0.109338
0.530934 0.498444 0.198899
0.541665 0.503909 0.198338
0.553974 0.501806 0.197045
0.561845 0.495564 0.197994
0.568911 0.491208 0.198828
0.579416 0.485344 0.199931
0.593360 0.477494 0.201023
0.610224 0.466914 0.202247
0.662192 0.472699 0.195785
0.745377 0.499994 0.163349
0.810744 0.523936 0.119947
0.869797 0.547819 0.001620
0.926771 0.569249 0.000000
0.989163 0.577292 0.000000
1.000000 0.571215 0.000000
1.000000 0.559501 0.000000
0.617069 0.567771 0.190279
0.626182 0.573240 0.189912
0.636296 0.571298 0.188353
0.647383 0.564734 0.188850
0.653591 0.561137 0.189885
0.662304 0.555932 0.191242
0.673404 0.548762 0.192666
0.686955 0.539262 0.194143
0.702984 0.527190 0.195685
0.748964 0.533676 0.188547
0.814068 0.559419 0.151536
0.872040 0.581935 0.086566
0.928807 0.601009 0.000000
0.987632 0.617467 0.000000
1.000000 0.630466 0.000000
1.000000 0.621223 0.000000
0.692140 0.641615 0.181234
0.696960 0.644429 0.181260
0.705217 0.643117 0.179235
0.718693 0.638058 0.178036
0.724455 0.634217 0.179690
0.732234 0.630476 0.181332
0.742254 0.625183 0.183140
0.754140 0.617765 0.184933
0.767882 0.607820 0.186595
0.783622 0.595191 0.187845
0.822623 0.600757 0.181631
0.877298 0.619849 0.140233
0.934438 0.636783 0.026108
0.991888 0.649866 0.000000
1.000000 0.661235 0.000000
1.000000 0.669612 0.000000
0.753327 0.720988 0.179693
0.753739 0.718943 0.178212
0.760761 0.717921 0.175737
0.774804 0.716185 0.171146
0.782331 0.709488 0.174063
0.788848 0.705883 0.175565
0.797164 0.700688 0.177064
0.807387 0.693663 0.178476
0.820252 0.685559 0.180113
0.835304 0.675265 0.181208
0.852165 0.662101 0.180990
0.890717 0.664498 0.175002
0.942969 0.675266 0.132906
0.997067 0.686625 0.004377
1.000000 0.695687 0.000000
1.000000 0.701087 0.000000
0.806211 0.793539 0.193237
0.808055 0.793663 0.192900
0.814792 0.792656 0.189722
0.828791 0.791108 0.183866
0.841461 0.784038 0.183807
0.847074 0.780004 0.183891
0.854884 0.775013 0.184577
0.864732 0.768620 0.184966
0.876456 0.760436 0.184634
0.890166 0.750210 0.183178
0.905896 0.737726 0.179889
0.923778 0.722646 0.174153
0.962466 0.720067 0.167075
1.000000 0.723013 0.119468
1.000000 0.728638 0.000000
1.000000 0.731524 0.000000
0.867667 0.862821 0.232892
0.868362 0.861579 0.229904
0.876001 0.861509 0.228446
0.890704 0.860529 0.223281
0.909427 0.855173 0.217566
0.915448 0.849426 0.216812
0.922373 0.844390 0.215212
0.931269 0.838099 0.212903
0.942078 0.830325 0.209346
0.954619 0.820594 0.203384
0.968782 0.808628 0.194035
0.984961 0.794289 0.180191
0.997761 0.777351 0.160018
1.000000 0.770455 0.145901
1.000000 0.767021 0.034079
1.000000 0.765600 0.000000
0.927189 0.918551 0.273405
0.929642 0.919145 0.275086
0.935925 0.918101 0.270815
0.949160 0.916408 0.263460
0.970726 0.914376 0.253634
0.981129 0.905931 0.250494
0.987468 0.901328 0.246299
0.995476 0.895491 0.240551
0.998448 0.888315 0.232741
1.000000 0.879464 0.221284
1.000000 0.868351 0.203687
1.000000 0.854352 0.174749
1.000000 0.837418 0.123392
1.000000 0.817919 0.002005
1.000000 0.806902 0.000000
1.000000 0.799953 0.000000
0.989929 0.971203 0.331444
0.990163 0.970062 0.325526
0.996858 0.969775 0.323779
1.000000 0.968888 0.318637
1.000000 0.967187 0.308630
1.000000 0.959197 0.298985
1.000000 0.954889 0.290970
1.000000 0.949104 0.278923
1.000000 0.941501 0.260984
1.000000 0.931554 0.232218
1.000000 0.918767 0.183371
1.000000 0.902806 0.043130
1.000000 0.884544 0.000000
1.000000 0.866331 0.131462
1.000000 0.850921 0.239821
1.000000 0.841861 0.311662
0.169265 0.157351 0.218070
0.175386 0.152875 0.217459
0.203312 0.149913 0.215289
0.245622 0.156222 0.217875
0.296311 0.166548 0.221216
0.360504 0.174008 0.222336
0.450149 0.175844 0.219723
0.559078 0.175977 0.215920
0.678775 0.170417 0.208972
0.786171 0.168619 0.199620
0.867185 0.180398 0.189639
0.931433 0.197968 0.179335
0.990423 0.207956 0.177490
1.000000 0.209565 0.188512
1.000000 0.208855 0.207469
1.000000 0.212467 0.235917
0.169878 0.163480 0.216501
0.177835 0.161328 0.216023
0.202603 0.156629 0.214375
0.242793 0.164607 0.217791
0.292628 0.174692 0.221585
0.357496 0.180904 0.222119
0.446525 0.182578 0.219006
0.554505 0.183871 0.215228
0.675075 0.179990 0.208425
0.783360 0.178710 0.199168
0.865420 0.189617 0.189158
0.930239 0.205999 0.178706
0.989017 0.215509 0.176083
1.000000 0.216285 0.186945
1.000000 0.215286 0.206062
1.000000 0.217883 0.234394
0.175629 0.183842 0.216427
0.182580 0.183188 0.215937
0.205725 0.182426 0.215940
0.241043 0.190021 0.219041
0.290471 0.197355 0.221219
0.358090 0.203548 0.220515
0.447113 0.208609 0.217359
0.554091 0.213408 0.213568
0.673125 0.213632 0.206606
0.780876 0.214751 0.197333
0.862668 0.223710 0.187223
0.927729 0.236400 0.176838
0.987519 0.244393 0.171347
1.000000 0.243876 0.181640
1.000000 0.240668 0.201701
1.000000 0.241322 0.231499
0.201529 0.218300 0.218725
0.209651 0.218476 0.220204
0.231752 0.216200 0.220508
0.245013 0.214271 0.221478
0.289296 0.227234 0.217669
0.352796 0.237168 0.215052
0.438627 0.246908 0.212706
0.543690 0.256501 0.209259
0.661503 0.262063 0.202341
0.770403 0.266317 0.192985
0.854177 0.274017 0.183106
0.920904 0.283402 0.172679
0.981601 0.289591 0.161960
1.000000 0.287403 0.169355
1.000000 0.282195 0.191636
1.000000 0.279325 0.223258
0.246182 0.263413 0.225918
0.252630 0.264768 0.226172
0.271689 0.262224 0.225175
0.279110 0.256280 0.225754
0.297037 0.253690 0.225938
0.355951 0.270824 0.216282
0.431645 0.291623 0.205263
0.533327 0.305719 0.201694
0.650033 0.316425 0.194665
0.758869 0.324206 0.185154
0.843235 0.331686 0.175480
0.911529 0.339203 0.165303
0.974315 0.343704 0.153300
1.000000 0.341644 0.149520
1.000000 0.334094 0.175075
1.000000 0.328241 0.210693
0.293297 0.310729 0.226194
0.300989 0.314042 0.226645
0.318211 0.311443 0.225544
0.326581 0.305850 0.226003
0.335493 0.298835 0.226760
0.361925 0.298173 0.226835
0.438234 0.321741 0.214192
0.526090 0.346753 0.198037
0.631303 0.368853 0.182342
0.740765 0.380689 0.172412
0.827603 0.389813 0.162539
0.898487 0.397375 0.152229
0.962854 0.400901 0.139829
1.000000 0.398844 0.123741
1.000000 0.391358 0.147669
1.000000 0.382446 0.190451
0.356402 0.369218 0.226311
0.366103 0.374293 0.226900
0.381668 0.371689 0.225656
0.391586 0.365352 0.225848
0.399268 0.358936 0.226652
0.410757 0.350431 0.227754
0.447417 0.352271 0.226884
0.538444 0.379182 0.209677
0.635411 0.405517 0.186799
0.725986 0.432273 0.157106
0.810173 0.446535 0.141317
0.883374 0.455534 0.129629
0.950359 0.459970 0.115991
1.000000 0.458187 0.095595
1.000000 0.450707 0.094572
1.000000 0.440569 0.160136
0.430826 0.431358 0.224718
0.441770 0.437335 0.225136
0.455853 0.434943 0.223901
0.468695 0.428609 0.223849
0.476004 0.423357 0.224671
0.486625 0.416123 0.225719
0.500682 0.406426 0.226942
0.547067 0.410092 0.224106
0.645487 0.438461 0.200950
0.730444 0.463391 0.172747
0.801701 0.488830 0.136114
0.866051 0.511605 0.079685
0.934456 0.517939 0.040016
0.996349 0.516722 0.013371
1.000000 0.511915 0.000000
1.000000 0.500773 0.107372
0.515852 0.497032 0.220506
0.526155 0.502330 0.220675
0.538728 0.500195 0.219349
0.554646 0.493822 0.218872
0.561792 0.489616 0.219778
0.572228 0.483886 0.221002
0.586083 0.476211 0.222299
0.602749 0.465882 0.223687
0.654304 0.471577 0.219268
0.738600 0.498666 0.192079
0.805694 0.522971 0.158300
0.865848 0.547389 0.106865
0.923606 0.569310 0.000000
0.987626 0.576267 0.000000
1.000000 0.571074 0.000000
1.000000 0.560465 0.000000
0.604781 0.566783 0.214495
0.613961 0.572202 0.214823
0.624347 0.570301 0.213335
0.641694 0.564840 0.211826
0.648359 0.560033 0.213151
0.656963 0.554846 0.214545
0.667972 0.547702 0.216046
0.681428 0.538320 0.217699
0.697487 0.526512 0.219222
0.743631 0.533079 0.214552
0.809658 0.559041 0.184138
0.868448 0.581965 0.142260
0.925782 0.601431 0.045171
0.985332 0.618285 0.000000
1.000000 0.631090 0.000000
1.000000 0.621752 0.000000
0.682771 0.641004 0.209244
0.687748 0.643925 0.209686
0.696110 0.642507 0.207921
0.712580 0.640039 0.204679
0.720881 0.633760 0.206723
0.728683 0.630097 0.208286
0.738643 0.624861 0.210198
0.750422 0.617443 0.211974
0.764035 0.607516 0.213724
0.779711 0.595054 0.215145
0.818735 0.600848 0.211246
0.873916 0.620232 0.178837
0.931646 0.637649 0.127499
0.989660 0.650927 0.004307
1.000000 0.662490 0.000000
1.000000 0.670051 0.000000
0.745398 0.720399 0.211413
0.746272 0.718963 0.210143
0.753318 0.717819 0.207916
0.767722 0.716259 0.203817
0.779441 0.709437 0.204447
0.785898 0.705830 0.205855
0.794161 0.700637 0.207427
0.804331 0.693692 0.208854
0.817246 0.685727 0.210693
0.832251 0.675590 0.211914
0.849031 0.662608 0.212219
0.887515 0.665247 0.208915
0.940182 0.676348 0.177119
0.996164 0.687974 0.115090
1.000000 0.697160 0.000041
1.000000 0.702056 0.000000
0.799101 0.793769 0.225902
0.800607 0.793422 0.225073
0.807497 0.792601 0.222669
0.821624 0.791297 0.218038
0.838543 0.784803 0.215298
0.844393 0.780251 0.215743
0.852298 0.775474 0.216696
0.862210 0.769263 0.217462
0.873808 0.761024 0.217289
0.887488 0.750898 0.216382
0.903220 0.738564 0.214069
0.921141 0.723687 0.209777
0.959838 0.721332 0.205638
0.999713 0.724462 0.171667
1.000000 0.730286 0.057846
1.000000 0.732966 0.000000
0.860474 0.863140 0.262730
0.861092 0.861886 0.259926
0.868742 0.861796 0.258624
0.883417 0.860830 0.254383
0.905117 0.857962 0.246872
0.912970 0.849938 0.246561
0.919948 0.844954 0.245242
0.928857 0.838775 0.243598
0.939703 0.831099 0.240906
0.952227 0.821463 0.236291
0.966378 0.809582 0.228756
0.982605 0.795400 0.217801
0.996829 0.778685 0.202562
1.000000 0.772021 0.193857
1.000000 0.768693 0.147767
1.000000 0.766953 0.000000
0.920510 0.919182 0.300774
0.922583 0.919456 0.301485
0.928933 0.918425 0.297542
0.942272 0.916856 0.291153
0.963991 0.914957 0.282772
0.979144 0.906680 0.277917
0.985478 0.902134 0.274423
0.993536 0.896374 0.269618
0.998045 0.889284 0.263143
0.999988 0.880522 0.253805
1.000000 0.869441 0.238965
1.000000 0.855565 0.216093
1.000000 0.838730 0.180443
1.000000 0.819362 0.117667
1.000000 0.808551 0.036432
1.000000 0.800088 0.000000
0.983593 0.971765 0.355352
0.983829 0.970652 0.349758
0.990502 0.970343 0.348164
0.999990 0.969476 0.343429
1.000000 0.967830 0.334486
1.000000 0.961791 0.323723
1.000000 0.955822 0.316588
1.000000 0.950096 0.306180
1.000000 0.942545 0.290343
1.000000 0.932669 0.265562
1.000000 0.919957 0.226286
1.000000 0.904097 0.154582
1.000000 0.884897 0.000000
1.000000 0.866526 0.131967
1.000000 0.851017 0.239984
1.000000 0.841935 0.311931
0.154586 0.177328 0.255155
0.163902 0.174474 0.253806
0.189458 0.163519 0.251888
0.234305 0.162586 0.246559
0.280671 0.168369 0.246403
0.341857 0.178878 0.251475
0.424671 0.188068 0.258354
0.530015 0.191039 0.262509
0.647082 0.188302 0.262659
0.761926 0.182042 0.258479
0.850498 0.190195 0.252769
0.919312 0.207919 0.246597
0.981501 0.223669 0.239258
1.000000 0.231603 0.229823
1.000000 0.231918 0.217237
1.000000 0.229636 0.232902
0.157577 0.182705 0.251898
0.166365 0.180872 0.251444
0.190349 0.170120 0.249198
0.232437 0.169965 0.244410
0.277434 0.175953 0.245552
0.338740 0.186718 0.251651
0.421052 0.195561 0.258463
0.526094 0.198218 0.261861
0.643955 0.195831 0.261898
0.759670 0.190027 0.257573
0.849152 0.197847 0.252030
0.918149 0.215013 0.245871
0.980020 0.229622 0.238463
1.000000 0.236786 0.228814
1.000000 0.237454 0.216469
1.000000 0.234241 0.231429
0.167869 0.202767 0.249486
0.175569 0.202163 0.248648
0.199534 0.197330 0.246137
0.232323 0.193604 0.243624
0.276808 0.201965 0.248440
0.338304 0.212991 0.255619
0.421730 0.219373 0.259544
0.524124 0.223520 0.261201
0.643336 0.221972 0.259455
0.758255 0.220291 0.255136
0.846917 0.227985 0.249724
0.916188 0.242251 0.243883
0.978842 0.254490 0.236853
1.000000 0.260089 0.227782
1.000000 0.259096 0.215204
1.000000 0.255299 0.228506
0.181040 0.225340 0.246122
0.186689 0.225702 0.246503
0.206803 0.225341 0.246093
0.239034 0.227175 0.248106
0.279140 0.232856 0.249130
0.336503 0.240438 0.251530
0.416626 0.249000 0.253358
0.517981 0.257675 0.254663
0.635328 0.262483 0.253099
0.750168 0.265901 0.249109
0.839955 0.274047 0.244372
0.910208 0.285525 0.239141
0.973227 0.294623 0.232485
1.000000 0.297673 0.223540
1.000000 0.295818 0.211899
1.000000 0.289921 0.220420
0.200196 0.269224 0.245346
0.206771 0.270695 0.246756
0.237005 0.268401 0.252001
0.270180 0.263650 0.251968
0.285030 0.260081 0.252500
0.338064 0.272640 0.244595
0.413966 0.286982 0.242458
0.512571 0.300580 0.244500
0.628000 0.311367 0.243367
0.741246 0.319574 0.239849
0.830599 0.328362 0.235788
0.902093 0.338361 0.231402
0.966877 0.345561 0.225782
1.000000 0.347001 0.217952
1.000000 0.343153 0.206225
1.000000 0.335805 0.208101
0.258555 0.312120 0.254899
0.265716 0.315368 0.256221
0.284874 0.313193 0.255000
0.314547 0.308377 0.253191
0.323573 0.301683 0.254265
0.346533 0.300389 0.255625
0.418357 0.320730 0.245298
0.504108 0.343942 0.232134
0.613882 0.361226 0.228439
0.726363 0.374051 0.225550
0.817069 0.384674 0.222476
0.890463 0.394487 0.219067
0.956241 0.400566 0.214371
1.000000 0.400614 0.207276
1.000000 0.396905 0.197525
1.000000 0.387841 0.189120
0.322374 0.368409 0.256879
0.331139 0.373190 0.258401
0.347811 0.370605 0.257009
0.376820 0.365570 0.254760
0.386197 0.358721 0.255761
0.397006 0.350832 0.257252
0.430763 0.352206 0.258131
0.518465 0.377065 0.244524
0.615330 0.402325 0.226338
0.711518 0.427166 0.206652
0.801429 0.440466 0.203368
0.876719 0.451630 0.200892
0.944920 0.458252 0.197673
0.999850 0.458513 0.192436
1.000000 0.453313 0.182581
1.000000 0.444254 0.168954
0.398957 0.430066 0.257415
0.409221 0.435702 0.258887
0.423965 0.433400 0.257609
0.451580 0.428731 0.255196
0.463008 0.421960 0.255927
0.473196 0.414995 0.257265
