assets/lut/editingcorp beati.cube
# Created by: G'MIC (https://gmic.eu)
TITLE "beati"
# LUT size
LUT_3D_SIZE 7
# Data domain
DOMAIN_MIN 0.0 0.0 0.0
DOMAIN_MAX 1.0 1.0 1.0
# LUT data points
0.007692000363022089 0.0060568717308342457 0.022768985480070114
0.22471101582050323 0.037577640265226364 0.036601796746253967
0.4964161217212677 0.1010240912437439 0.081740841269493103
0.64610040187835693 0.12854927778244019 0.12141340970993042
0.73486572504043579 0.14287479221820831 0.13571326434612274
0.76680147647857666 0.14713025093078613 0.13855201005935669
0.80058127641677856 0.16270223259925842 0.14502549171447754
0.062550529837608337 0.14913174510002136 0.06940179318189621
0.19858439266681671 0.15474759042263031 0.073932379484176636
0.45983102917671204 0.16581988334655762 0.097000390291213989
0.62745875120162964 0.20874148607254028 0.13678419589996338
0.73689532279968262 0.22649674117565155 0.15487509965896606
0.77324569225311279 0.22735214233398438 0.15514194965362549
0.80706655979156494 0.22676029801368713 0.15978109836578369
0.20056906342506409 0.38777083158493042 0.16114211082458496
0.24674637615680695 0.37946623563766479 0.16375331580638885
0.41191086173057556 0.37008807063102722 0.18537966907024384
0.59586459398269653 0.35097178816795349 0.19286595284938812
0.73782610893249512 0.32364562153816223 0.18435591459274292
0.78663849830627441 0.31065061688423157 0.18294525146484375
0.81889122724533081 0.2989039421081543 0.1780945360660553
0.21659833192825317 0.57051873207092285 0.19259712100028992
0.26602041721343994 0.55602818727493286 0.20624148845672607
0.37823030352592468 0.55191832780838013 0.22054754197597504
0.55883830785751343 0.53539794683456421 0.24414758384227753
0.73055851459503174 0.50616168975830078 0.2412884384393692
0.80820363759994507 0.47830981016159058 0.2300010621547699
0.83730679750442505 0.45050245523452759 0.22706601023674011
0.16796737909317017 0.73841017484664917 0.17837308347225189
0.21156603097915649 0.73998469114303589 0.18586918711662292
0.30870693922042847 0.72819894552230835 0.20661869645118713
0.49685916304588318 0.7238195538520813 0.24110651016235352
0.70415270328521729 0.70959275960922241 0.26618292927742004
0.83265376091003418 0.67438530921936035 0.26784044504165649
0.86327409744262695 0.63182634115219116 0.26522287726402283
0.13720473647117615 0.82061833143234253 0.18020899593830109
0.18090151250362396 0.82354152202606201 0.17450423538684845
0.25144603848457336 0.82053530216217041 0.18616369366645813
0.42608821392059326 0.83013403415679932 0.21826560795307159
0.63953220844268799 0.83853638172149658 0.24975265562534332
0.82725346088409424 0.84333008527755737 0.27489638328552246
0.88447219133377075 0.82055598497390747 0.27972346544265747
0.16039985418319702 0.86412841081619263 0.17990614473819733
0.1697167307138443 0.86863470077514648 0.17514814436435699
0.15237735211849213 0.86185520887374878 0.17382751405239105
0.38760668039321899 0.85944938659667969 0.22076760232448578
0.59303557872772217 0.87162375450134277 0.24405477941036224
0.78803873062133789 0.88263809680938721 0.26899811625480652
0.87777161598205566 0.88303536176681519 0.27783587574958801
0.021373778581619263 0.027765730395913124 0.15928417444229126
0.19205138087272644 0.030569443479180336 0.15771405398845673
0.48785698413848877 0.080754026770591736 0.18231320381164551
0.64620190858840942 0.10463591665029526 0.19226169586181641
0.73662334680557251 0.11586371064186096 0.1881537139415741
0.7675592303276062 0.11480220407247543 0.18341211974620819
0.79851162433624268 0.13369564712047577 0.18425121903419495
0.036225546151399612 0.14255556464195251 0.17972883582115173
0.14551962912082672 0.1480744332075119 0.15249410271644592
0.45127096772193909 0.16761352121829987 0.16001181304454803
0.62775033712387085 0.2064935714006424 0.17907443642616272
0.73468136787414551 0.22712250053882599 0.19199009239673615
0.77635341882705688 0.2287323921918869 0.1915321946144104
0.80909603834152222 0.2332300990819931 0.1965690404176712
0.18578647077083588 0.38301858305931091 0.20314985513687134
0.23688030242919922 0.37789517641067505 0.20164777338504791
0.4064725935459137 0.3691350519657135 0.2178507000207901
0.59577107429504395 0.34963312745094299 0.21898636221885681
0.74110400676727295 0.32348829507827759 0.21512790024280548
0.78967046737670898 0.3149363100528717 0.21352367103099823
0.82086127996444702 0.30656018853187561 0.21076102554798126
0.21927616000175476 0.5655677318572998 0.23097945749759674
0.25545468926429749 0.56247246265411377 0.23015084862709045
0.37784844636917114 0.54947376251220703 0.25096142292022705
0.55879634618759155 0.53307127952575684 0.27022412419319153
0.73382282257080078 0.50427734851837158 0.2648739218711853
0.81158286333084106 0.47789862751960754 0.2565605640411377
0.84128093719482422 0.44914248585700989 0.25046780705451965
0.16641683876514435 0.73740428686141968 0.21734166145324707
0.21284559369087219 0.7365308403968811 0.217546746134758
0.30496367812156677 0.73051118850708008 0.23354315757751465
0.49712935090065002 0.72207915782928467 0.26436927914619446
0.70283204317092896 0.70954239368438721 0.28839847445487976
0.83499932289123535 0.67461007833480835 0.29208266735076904
0.86549228429794312 0.6355738639831543 0.28784611821174622
0.13135729730129242 0.81607931852340698 0.20740577578544617
0.17912779748439789 0.82066446542739868 0.20436471700668335
0.22910276055335999 0.82100880146026611 0.21129323542118073
0.43163767457008362 0.82717233896255493 0.2468750923871994
0.63905042409896851 0.84008008241653442 0.27347365021705627
0.8265984058380127 0.84439992904663086 0.29622676968574524
0.88390767574310303 0.82141256332397461 0.30419743061065674
0.13538406789302826 0.85671544075012207 0.205680251121521
0.17221711575984955 0.86822652816772461 0.19615258276462555
0.16223546862602234 0.85916352272033691 0.19686010479927063
0.35539481043815613 0.87481868267059326 0.22584028542041779
0.58519226312637329 0.88177460432052612 0.25466087460517883
0.7889588475227356 0.88444334268569946 0.28512147068977356
0.87965840101242065 0.88524985313415527 0.29762834310531616
0.039159469306468964 0.067561224102973938 0.33353748917579651
0.11793538928031921 0.074312798678874969 0.36613121628761292
0.44226863980293274 0.075821533799171448 0.35368895530700684
0.6312142014503479 0.10194220393896103 0.35922038555145264
0.73433715105056763 0.12040854245424271 0.34713047742843628
0.77099126577377319 0.10831683129072189 0.32403847575187683
0.79967910051345825 0.12045666575431824 0.31229931116104126
0.042318157851696014 0.17966379225254059 0.35793331265449524
0.071554102003574371 0.17847414314746857 0.35388645529747009
0.40441432595252991 0.20219643414020538 0.32907411456108093
0.62132221460342407 0.22225524485111237 0.3368440568447113
0.74143826961517334 0.23776747286319733 0.33089441061019897
0.78146398067474365 0.23710998892784119 0.31677719950675964
0.81186699867248535 0.23701569437980652 0.30698427557945251
0.062546990811824799 0.33869668841362 0.35917580127716064
0.088193453848361969 0.33498954772949219 0.34874817728996277
0.35409042239189148 0.3621678352355957 0.32225430011749268
0.59093207120895386 0.35545796155929565 0.31420555710792542
0.74574631452560425 0.33241745829582214 0.30300796031951904
0.79708683490753174 0.32651883363723755 0.29604032635688782
0.82777410745620728 0.32726278901100159 0.29423147439956665
0.18654619157314301 0.54197245836257935 0.34040695428848267
0.23301540315151215 0.54251980781555176 0.33213526010513306
0.35683640837669373 0.54458552598953247 0.32572764158248901
0.55394244194030762 0.53197532892227173 0.33225056529045105
0.7339019775390625 0.50782549381256104 0.32279661297798157
0.8141169548034668 0.48942941427230835 0.31948542594909668
0.844917893409729 0.46465975046157837 0.30628675222396851
0.16029909253120422 0.73285812139511108 0.2946222722530365
0.21290481090545654 0.7322312593460083 0.2907271683216095
0.30384641885757446 0.72897082567214966 0.2887662947177887
0.49430739879608154 0.72410666942596436 0.31036144495010376
0.70239090919494629 0.70823103189468384 0.32640707492828369
0.83650445938110352 0.67669332027435303 0.32790911197662354
0.86865991353988647 0.64504235982894897 0.32916218042373657
0.13373321294784546 0.81529492139816284 0.26181945204734802
0.18249744176864624 0.82026684284210205 0.25885212421417236
0.25875455141067505 0.82445836067199707 0.25970309972763062
0.4315345287322998 0.83297759294509888 0.28074520826339722
0.64035457372665405 0.84458005428314209 0.29993915557861328
0.82810688018798828 0.84574943780899048 0.32296755909919739
0.88526171445846558 0.82623708248138428 0.33120778203010559
0.13575005531311035 0.8652532696723938 0.19126330316066742
0.17899541556835175 0.8677748441696167 0.20148752629756927
0.20944330096244812 0.8705938458442688 0.19883851706981659
0.38374632596969604 0.87153786420822144 0.22586335241794586
0.59509974718093872 0.88137304782867432 0.261649489402771
0.78688633441925049 0.88747859001159668 0.30269217491149902
0.88107198476791382 0.8872373104095459 0.32348093390464783
0.059500481933355331 0.098984047770500183 0.48529937863349915
0.099381297826766968 0.11797083169221878 0.53951334953308105
0.39653253555297852 0.11823281645774841 0.5358283519744873
0.61311876773834229 0.11778747290372849 0.53397470712661743
0.71678543090820312 0.12281287461519241 0.53110218048095703
0.75123101472854614 0.12386004626750946 0.50939309597015381
0.78571432828903198 0.14195872843265533 0.48598858714103699
0.063230790197849274 0.23370929062366486 0.52365976572036743
0.084974147379398346 0.23562000691890717 0.52802354097366333
0.33594778180122375 0.25365772843360901 0.52075308561325073
0.59637898206710815 0.26783052086830139 0.51703751087188721
0.72771185636520386 0.277740478515625 0.51421713829040527
0.77084934711456299 0.26993456482887268 0.49581950902938843
0.80519682168960571 0.25675109028816223 0.46788763999938965
0.058946140110492706 0.33815649151802063 0.52063214778900146
0.074990428984165192 0.33472526073455811 0.51154631376266479
0.24409471452236176 0.35655659437179565 0.50433492660522461
0.5601574182510376 0.37932777404785156 0.48421412706375122
0.73918622732162476 0.36999863386154175 0.47972288727760315
0.79786044359207153 0.35997524857521057 0.46409615874290466
0.8268202543258667 0.35372811555862427 0.44578626751899719
0.084855712950229645 0.5049012303352356 0.50885242223739624
0.10561982542276382 0.50095123052597046 0.49921047687530518
0.24507366120815277 0.51465845108032227 0.4901888370513916
0.52395594120025635 0.53616553544998169 0.47174429893493652
0.73779028654098511 0.53000009059906006 0.47121313214302063
0.82796317338943481 0.51403683423995972 0.45566615462303162
0.86096739768981934 0.5091853141784668 0.45174252986907959
0.12987972795963287 0.71405947208404541 0.46749782562255859
0.18156599998474121 0.71597826480865479 0.46008199453353882
0.28682675957679749 0.71618485450744629 0.45481869578361511
0.49316775798797607 0.72773021459579468 0.45284163951873779
0.70633167028427124 0.71812796592712402 0.45641925930976868
0.8430137038230896 0.69277894496917725 0.45389828085899353
0.88166922330856323 0.67436701059341431 0.45349910855293274
0.11585342139005661 0.80958765745162964 0.42049798369407654
0.16796287894248962 0.81681579351425171 0.40730014443397522
0.26328274607658386 0.8259163498878479 0.40238374471664429
0.44201913475990295 0.84361237287521362 0.4079245924949646
0.64961254596710205 0.85255002975463867 0.4157402515411377
0.83165884017944336 0.85334837436676025 0.41828843951225281
0.89341378211975098 0.83893680572509766 0.4292462170124054
0.12694688141345978 0.86192721128463745 0.35883843898773193
0.17532211542129517 0.86608582735061646 0.34489011764526367
0.23047921061515808 0.86942368745803833 0.34959068894386292
0.40578413009643555 0.88163214921951294 0.37008175253868103
0.61210423707962036 0.88942527770996094 0.3624228835105896
0.78853625059127808 0.89453572034835815 0.37392354011535645
0.89614236354827881 0.89627188444137573 0.3990008533000946
0.075533576309680939 0.11889367550611496 0.58704620599746704
0.12961427867412567 0.18953576683998108 0.65677869319915771
0.35629165172576904 0.22330769896507263 0.69172477722167969
0.60926210880279541 0.19014798104763031 0.68549102544784546
0.72209560871124268 0.13965965807437897 0.68961989879608154
0.75357538461685181 0.13658042252063751 0.67916136980056763
0.78246277570724487 0.13594451546669006 0.65804594755172729
0.079762808978557587 0.27128356695175171 0.65009522438049316
0.12113756686449051 0.28351044654846191 0.66171097755432129
0.28901377320289612 0.31431752443313599 0.68806391954421997
0.57749485969543457 0.31428536772727966 0.67684686183929443
0.72833406925201416 0.29687964916229248 0.68613791465759277
0.76710259914398193 0.29263049364089966 0.66831660270690918
0.7951817512512207 0.28566223382949829 0.64336872100830078
0.077626295387744904 0.35548630356788635 0.66597998142242432
0.099433779716491699 0.35642361640930176 0.66588044166564941
0.2139362096786499 0.37721168994903564 0.67287713289260864
0.50547313690185547 0.40604034066200256 0.67297554016113281
0.72737014293670654 0.40689066052436829 0.67095381021499634
0.78907299041748047 0.40230342745780945 0.6549561619758606
0.82239305973052979 0.39632478356361389 0.62457823753356934
0.073717318475246429 0.49335181713104248 0.67753219604492188
0.083653166890144348 0.48684459924697876 0.66866022348403931
0.19919338822364807 0.50367569923400879 0.66351073980331421
0.45116475224494934 0.53649991750717163 0.67052298784255981
0.72470593452453613 0.55345582962036133 0.66652792692184448
0.82695132493972778 0.55448353290557861 0.65110647678375244
0.86326754093170166 0.54586243629455566 0.63450735807418823
0.083287090063095093 0.69038486480712891 0.66781377792358398
0.11359424889087677 0.69142031669616699 0.66006720066070557
0.21258620917797089 0.6926809549331665 0.6544729471206665
0.44696521759033203 0.71560525894165039 0.65485185384750366
0.7041899561882019 0.73492640256881714 0.6585087776184082
0.86164140701293945 0.73024719953536987 0.65981954336166382
0.89862656593322754 0.71908622980117798 0.64466732740402222
0.093664012849330902 0.80370861291885376 0.62410038709640503
0.12969653308391571 0.80830711126327515 0.61484044790267944
0.21251411736011505 0.81661266088485718 0.60691756010055542
0.43104022741317749 0.84690564870834351 0.6122061014175415
0.66958713531494141 0.87208467721939087 0.62659585475921631
0.84574395418167114 0.87449908256530762 0.62490075826644897
0.91305363178253174 0.86767095327377319 0.62816345691680908
0.10235438495874405 0.85690218210220337 0.57476741075515747
0.13984799385070801 0.8614422082901001 0.56205856800079346
0.19347973167896271 0.86507630348205566 0.55559277534484863
0.40725073218345642 0.89284819364547729 0.57036119699478149
0.65056264400482178 0.91391324996948242 0.6002848744392395
0.82279539108276367 0.91597920656204224 0.60064148902893066
0.91005080938339233 0.91592580080032349 0.60885715484619141
0.079390555620193481 0.12391647696495056 0.6180228590965271
0.12816236913204193 0.18998241424560547 0.68371349573135376
0.33114057779312134 0.23279260098934174 0.72939085960388184
0.59367966651916504 0.20725953578948975 0.72373777627944946
0.7216486930847168 0.13917043805122375 0.73231369256973267
0.75438183546066284 0.13517320156097412 0.73451679944992065
0.78673344850540161 0.13575667142868042 0.73634642362594604
0.085112914443016052 0.27304050326347351 0.68554836511611938
0.1198895201086998 0.28795480728149414 0.70141160488128662
0.26438009738922119 0.31980887055397034 0.73418688774108887
0.559234619140625 0.33296564221382141 0.73740291595458984
0.72508764266967773 0.30872252583503723 0.74603831768035889
0.7706109881401062 0.29646885395050049 0.74621403217315674
0.79873132705688477 0.29547181725502014 0.74835735559463501
0.083309769630432129 0.35879862308502197 0.71839338541030884
0.1113019585609436 0.36408901214599609 0.72220253944396973
0.21389381587505341 0.38680094480514526 0.74043387174606323
0.47500467300415039 0.42359325289726257 0.75816255807876587
0.71588563919067383 0.42445927858352661 0.76611721515655518
0.78979158401489258 0.41841977834701538 0.76862770318984985
0.82466226816177368 0.41384083032608032 0.76292747259140015
0.081706345081329346 0.48572108149528503 0.75245475769042969
0.098950602114200592 0.48376503586769104 0.74933350086212158
0.20810617506504059 0.50467938184738159 0.76201492547988892
0.41260135173797607 0.53823000192642212 0.78916531801223755
0.70610493421554565 0.56938302516937256 0.80898022651672363
0.82598632574081421 0.56578958034515381 0.80499660968780518
0.85343480110168457 0.56650334596633911 0.79315227270126343
0.08107350766658783 0.67511117458343506 0.80304926633834839
0.096150204539299011 0.66509163379669189 0.79677683115005493
0.19260270893573761 0.66860038042068481 0.79777121543884277
0.41339051723480225 0.70045655965805054 0.81512701511383057
0.692268967628479 0.74166446924209595 0.83442908525466919
0.8633112907409668 0.74904680252075195 0.83362889289855957
0.90239542722702026 0.74346077442169189 0.81556940078735352
0.079162493348121643 0.80325627326965332 0.79993188381195068
0.088118657469749451 0.80074083805084229 0.79422664642333984
0.15117065608501434 0.80642569065093994 0.78722608089447021
0.39061620831489563 0.83742958307266235 0.79614603519439697
0.66252654790878296 0.87304461002349854 0.81477099657058716
0.8611152172088623 0.89478844404220581 0.82390290498733521
0.92891174554824829 0.89510726928710938 0.81979894638061523
0.083660349249839783 0.853873610496521 0.76661831140518188
0.097258158028125763 0.85513925552368164 0.75590628385543823
0.11202888935804367 0.85663247108459473 0.75059515237808228
0.35802030563354492 0.88661855459213257 0.76060599088668823
0.64916384220123291 0.91774207353591919 0.78799927234649658
0.85167890787124634 0.93469083309173584 0.80922549962997437
0.93281090259552002 0.93715542554855347 0.81101769208908081
0.082929365336894989 0.12833493947982788 0.64539974927902222
0.12760268151760101 0.17160099744796753 0.70368754863739014
0.29864016175270081 0.23327355086803436 0.75679188966751099
0.56798571348190308 0.21330142021179199 0.75347268581390381
0.7165529727935791 0.15099054574966431 0.76163631677627563
0.7562522292137146 0.13872115314006805 0.76364076137542725
0.78722226619720459 0.14973863959312439 0.7661241888999939
0.087610311806201935 0.2773917019367218 0.71770960092544556
0.11616131663322449 0.28874671459197998 0.72918915748596191
0.24402967095375061 0.31962570548057556 0.76461946964263916
0.52617555856704712 0.34057366847991943 0.77162277698516846
0.71288830041885376 0.31861975789070129 0.77546584606170654
0.77093791961669922 0.29754582047462463 0.78033995628356934
0.80379021167755127 0.30728527903556824 0.78117936849594116
0.089142806828022003 0.35511451959609985 0.74587476253509521
0.10957177728414536 0.35727855563163757 0.74861258268356323
0.21831007301807404 0.3889366090297699 0.7711825966835022
0.44154849648475647 0.42255368828773499 0.7911866307258606
0.69914275407791138 0.42880585789680481 0.79179847240447998
0.79439085721969604 0.42011156678199768 0.80796247720718384
0.82213056087493896 0.41721245646476746 0.80571472644805908
0.086573220789432526 0.47654509544372559 0.77898609638214111
0.099346742033958435 0.46277496218681335 0.77417010068893433
0.2037394642829895 0.49400720000267029 0.79349154233932495
0.41372561454772949 0.53916651010513306 0.82247328758239746
0.68256634473800659 0.57262128591537476 0.83955669403076172
0.82650256156921387 0.57196801900863647 0.84736913442611694
0.85606420040130615 0.57884901762008667 0.84402668476104736
0.086107201874256134 0.64108192920684814 0.82581764459609985
0.10154100507497787 0.63394516706466675 0.82507789134979248
0.19711729884147644 0.64238446950912476 0.8334510326385498
0.41475889086723328 0.68307036161422729 0.86194097995758057
0.68608331680297852 0.74112224578857422 0.89800184965133667
0.85420769453048706 0.75159388780593872 0.90830564498901367
0.90265142917633057 0.75192934274673462 0.90318679809570312
0.082348272204399109 0.80333238840103149 0.86099773645401001
0.084691323339939117 0.79970669746398926 0.86048263311386108
0.1576206386089325 0.80264705419540405 0.86286646127700806
0.38071244955062866 0.83207827806472778 0.88517653942108154
0.66210466623306274 0.87071889638900757 0.91898393630981445
0.85799157619476318 0.89384365081787109 0.93147623538970947
0.91325312852859497 0.87805318832397461 0.91611313819885254
0.080625809729099274 0.84280824661254883 0.85949307680130005
0.082422949373722076 0.85116595029830933 0.85948663949966431
0.11851188540458679 0.85389089584350586 0.86298322677612305
0.34560844302177429 0.87965941429138184 0.87726235389709473
0.63635766506195068 0.91028082370758057 0.90927135944366455
0.84405028820037842 0.92854934930801392 0.91806811094284058
0.89274561405181885 0.90594631433486938 0.88706851005554199
