assets/lut/editingcorpw Winter Whisper.cube
LUT_3D_SIZE 16
DOMAIN_MIN 0.0 0.0 0.0
DOMAIN_MAX 1.0 1.0 1.0
0.054841 0.054841 0.054841
0.225072 0.054841 0.054841
0.315753 0.054841 0.054841
0.391083 0.054841 0.054841
0.458683 0.054841 0.054841
0.521558 0.054841 0.054841
0.582016 0.054841 0.054841
0.640701 0.054841 0.054841
0.698576 0.054841 0.054841
0.755875 0.054841 0.054841
0.812904 0.054841 0.054841
0.869485 0.054841 0.054841
0.895079 0.054841 0.054841
0.895079 0.054841 0.054841
0.895079 0.054841 0.054841
0.895079 0.054841 0.054841
0.054841 0.170082 0.054841
0.135744 0.140343 0.054841
0.271588 0.101711 0.054841
0.362073 0.087036 0.054841
0.436558 0.078873 0.054841
0.503462 0.073808 0.054841
0.566395 0.070130 0.054841
0.626967 0.067197 0.054841
0.685914 0.064923 0.054841
0.744244 0.062899 0.054841
0.801934 0.061132 0.054841
0.859288 0.059697 0.054841
0.895079 0.058276 0.054841
0.895079 0.057252 0.054841
0.895079 0.057014 0.054841
0.895079 0.056865 0.054841
0.054841 0.254077 0.054841
0.067563 0.239793 0.054841
0.209374 0.218368 0.054841
0.322637 0.181591 0.054841
0.408103 0.158336 0.054841
0.481087 0.143510 0.054841
0.547560 0.132947 0.054841
0.610632 0.124998 0.054841
0.671386 0.118670 0.054841
0.730867 0.113528 0.054841
0.789644 0.109234 0.054841
0.847804 0.105431 0.054841
0.893122 0.102313 0.054841
0.895079 0.099630 0.054841
0.895079 0.097563 0.054841
0.895079 0.095979 0.054841
0.054841 0.326955 0.054841
0.056921 0.317798 0.054841
0.139486 0.305057 0.054841
0.276796 0.288845 0.054841
0.375111 0.257182 0.054841
0.454742 0.233663 0.054841
0.525676 0.217239 0.054841
0.591786 0.205185 0.054841
0.654728 0.195860 0.054841
0.715859 0.188362 0.054841
0.775900 0.182302 0.054841
0.835118 0.177282 0.054841
0.888446 0.172925 0.054841
0.895079 0.169835 0.054841
0.895079 0.166883 0.054841
0.895079 0.164355 0.054841
0.054841 0.392858 0.054841
0.054899 0.386221 0.054841
0.100619 0.377039 0.054841
0.219830 0.366299 0.054841
0.338190 0.352962 0.054841
0.426915 0.325437 0.054841
0.501944 0.303003 0.054841
0.571077 0.286609 0.054841
0.636412 0.274240 0.054841
0.699437 0.264406 0.054841
0.760819 0.256671 0.054841
0.821320 0.250246 0.054841
0.880814 0.244875 0.054841
0.895079 0.240992 0.054841
0.895079 0.237774 0.054841
0.895079 0.234942 0.054841
0.054841 0.454317 0.054841
0.054841 0.449016 0.054841
0.079158 0.441948 0.054841
0.177377 0.433434 0.054841
0.290069 0.424352 0.054841
0.395865 0.413194 0.054841
0.477570 0.388925 0.054841
0.549438 0.367952 0.054841
0.617017 0.352261 0.054841
0.681716 0.340021 0.054841
0.744762 0.330190 0.054841
0.806366 0.322444 0.054841
0.866991 0.316037 0.054841
0.895079 0.311241 0.054841
0.895079 0.307814 0.054841
0.895079 0.304489 0.054841
0.054841 0.512671 0.054841
0.054841 0.508251 0.054841
0.065959 0.502460 0.054841
0.146511 0.495649 0.054841
0.251154 0.488032 0.054841
0.354047 0.480121 0.054841
0.450069 0.469827 0.054841
0.527599 0.448956 0.054841
0.597113 0.429798 0.054841
0.663426 0.415090 0.054841
0.727783 0.403339 0.054841
0.790708 0.393976 0.054841
0.852411 0.386376 0.054841
0.894531 0.380557 0.054841
0.895079 0.376676 0.054841
0.895079 0.373139 0.054841
0.054841 0.569583 0.054841
0.054841 0.565588 0.054841
0.059749 0.560657 0.054841
0.123019 0.554924 0.054841
0.220766 0.548345 0.054841
0.318533 0.541469 0.054841
0.413668 0.534355 0.054841
0.503011 0.525115 0.054841
0.577439 0.506934 0.054841
0.645015 0.489425 0.054841
0.710434 0.475736 0.054841
0.774452 0.464857 0.054841
0.837183 0.456023 0.054841
0.890976 0.448939 0.054841
0.895079 0.444660 0.054841
0.895079 0.440876 0.054841
0.054841 0.625246 0.054841
0.054841 0.621600 0.054841
0.057471 0.617323 0.054841
0.105046 0.612367 0.054841
0.196477 0.606699 0.054841
0.289833 0.600553 0.054841
0.381459 0.594145 0.054841
0.470729 0.587640 0.054841
0.555100 0.579506 0.054841
0.626890 0.563434 0.054841
0.693255 0.547685 0.054841
0.758024 0.535150 0.054841
0.821664 0.524956 0.054841
0.884081 0.516748 0.054841
0.895079 0.511686 0.054841
0.895079 0.507672 0.054841
0.054841 0.680185 0.054841
0.054841 0.676917 0.054841
0.055582 0.673022 0.054841
0.093214 0.668635 0.054841
0.176530 0.663534 0.054841
0.266283 0.658092 0.054841
0.354554 0.652315 0.054841
0.441288 0.646327 0.054841
0.525913 0.640461 0.054841
0.606581 0.633276 0.054841
0.676347 0.618892 0.054841
0.741774 0.604763 0.054841
0.806077 0.593446 0.054841
0.869305 0.584188 0.054841
0.895079 0.578102 0.054841
0.895079 0.573835 0.054841
0.054841 0.734809 0.054841
0.054841 0.731772 0.054841
0.054841 0.728303 0.054841
0.083291 0.724185 0.054841
0.159844 0.719798 0.054841
0.246372 0.714768 0.054841
0.332141 0.709484 0.054841
0.416399 0.703926 0.054841
0.499017 0.698373 0.054841
0.579804 0.692948 0.054841
0.657654 0.686600 0.054841
0.725904 0.673727 0.054841
0.790645 0.661133 0.054841
0.854461 0.650927 0.054841
0.894975 0.643527 0.054841
0.895079 0.639037 0.054841
0.054841 0.789361 0.054841
0.054841 0.786410 0.054841
0.054841 0.783213 0.054841
0.075332 0.779549 0.054841
0.145678 0.775473 0.054841
0.229450 0.770934 0.054841
0.312934 0.766049 0.054841
0.395201 0.760980 0.054841
0.476034 0.755683 0.054841
0.555394 0.750480 0.054841
0.633073 0.745283 0.054841
0.708150 0.739314 0.054841
0.775525 0.728248 0.054841
0.839782 0.717093 0.054841
0.893061 0.708242 0.054841
0.895079 0.703594 0.054841
0.054841 0.844052 0.054841
0.054841 0.841335 0.054841
0.054841 0.838272 0.054841
0.069685 0.834857 0.054841
0.133213 0.831053 0.054841
0.214863 0.826918 0.054841
0.296382 0.822312 0.054841
0.376858 0.817636 0.054841
0.456193 0.812739 0.054841
0.534178 0.807710 0.054841
0.610723 0.802684 0.054841
0.685949 0.797684 0.054841
0.758671 0.792101 0.054841
0.825440 0.782516 0.054841
0.888622 0.772513 0.054841
0.895079 0.767273 0.054841
0.054841 0.898727 0.054841
0.054841 0.896109 0.054841
0.054841 0.893234 0.054841
0.064712 0.890052 0.054841
0.122348 0.886452 0.054841
0.201821 0.882673 0.054841
0.281832 0.878512 0.054841
0.360832 0.874006 0.054841
0.438746 0.869418 0.054841
0.515626 0.864693 0.054841
0.591164 0.859888 0.054841
0.665517 0.855087 0.054841
0.738508 0.850435 0.054841
0.809382 0.845097 0.054841
0.875524 0.836657 0.054841
0.895079 0.830632 0.054841
0.054841 0.932549 0.054841
0.054841 0.932220 0.054841
0.054841 0.931859 0.054841
0.061415 0.931488 0.054841
0.112545 0.931033 0.054841
0.190395 0.930567 0.054841
0.269116 0.930034 0.054841
0.346721 0.929343 0.054841
0.423327 0.925806 0.054841
0.499065 0.921278 0.054841
0.573715 0.916691 0.054841
0.647158 0.912125 0.054841
0.719574 0.907621 0.054841
0.790803 0.903178 0.054841
0.860204 0.898141 0.054841
0.894576 0.892591 0.054841
0.054841 0.932769 0.054841
0.054841 0.932769 0.054841
0.054841 0.932769 0.054841
0.059767 0.932769 0.054841
0.104359 0.932769 0.054841
0.180530 0.932769 0.054841
0.258306 0.932769 0.054841
0.335275 0.932769 0.054841
0.411070 0.932769 0.054841
0.485839 0.932769 0.054841
0.559721 0.932769 0.054841
0.632449 0.932769 0.054841
0.704213 0.932769 0.054841
0.774861 0.932769 0.054841
0.844458 0.932769 0.054841
0.893339 0.932769 0.054841
0.054841 0.054841 0.258297
0.211228 0.054841 0.229421
0.319675 0.054841 0.162008
0.396302 0.054841 0.125973
0.463387 0.054841 0.106528
0.525991 0.054841 0.096478
0.586176 0.054841 0.089164
0.644559 0.054841 0.083707
0.702224 0.054841 0.079342
0.759321 0.054841 0.075700
0.816015 0.054841 0.072667
0.872693 0.054841 0.070182
0.895079 0.054841 0.068179
0.895079 0.054841 0.066350
0.895079 0.054841 0.064578
0.895079 0.054841 0.062977
0.054841 0.155250 0.161645
0.128323 0.132290 0.135695
0.288925 0.097920 0.100928
0.373566 0.086451 0.088716
0.445011 0.079558 0.081173
0.510374 0.074186 0.075309
0.572212 0.070038 0.070898
0.632068 0.066617 0.067468
0.690630 0.063982 0.064777
0.748405 0.061634 0.062343
0.805868 0.059800 0.060506
0.862971 0.058251 0.058876
0.895079 0.057542 0.058093
0.895079 0.057317 0.057842
0.895079 0.057111 0.057614
0.895079 0.056938 0.057405
0.054841 0.251726 0.078949
0.058620 0.242820 0.059697
0.206244 0.215299 0.056171
0.332392 0.172090 0.057204
0.417489 0.150247 0.058053
0.489084 0.137081 0.058357
0.554496 0.127773 0.058365
0.616639 0.120649 0.058267
0.676814 0.115130 0.058113
0.735862 0.110358 0.057905
0.794199 0.106313 0.057692
0.851997 0.102926 0.057462
0.894644 0.099890 0.057228
0.895079 0.097956 0.056974
0.895079 0.096323 0.056742
0.895079 0.094706 0.056498
0.054841 0.326249 0.058552
0.055099 0.319784 0.055437
0.121501 0.306788 0.054841
0.274418 0.286380 0.054841
0.380243 0.251097 0.054841
0.461525 0.226832 0.054841
0.532393 0.210947 0.054841
0.598005 0.199414 0.054841
0.660539 0.190647 0.054844
0.721217 0.183699 0.054857
0.780833 0.178043 0.054864
0.839679 0.173222 0.054853
0.890130 0.169205 0.054841
0.895079 0.166308 0.054841
0.895079 0.163566 0.054841
0.895079 0.161137 0.054841
0.054841 0.392661 0.055434
0.054841 0.387482 0.054841
0.087531 0.378955 0.054841
0.208561 0.367011 0.054841
0.336677 0.351364 0.054841
0.429941 0.321422 0.054841
0.506688 0.298178 0.054841
0.576393 0.281669 0.054841
0.641825 0.269356 0.054841
0.704605 0.259871 0.054841
0.765901 0.252372 0.054841
0.826002 0.246298 0.054841
0.884512 0.241101 0.054841
0.895079 0.237627 0.054841
0.895079 0.234513 0.054841
0.895079 0.231723 0.054841
0.054841 0.454288 0.054841
0.054841 0.449841 0.054841
0.069379 0.443526 0.054841
0.164157 0.434782 0.054841
0.282795 0.424638 0.054841
0.394815 0.412095 0.054841
0.479547 0.385979 0.054841
0.552923 0.364252 0.054841
0.621278 0.348324 0.054841
0.686374 0.335986 0.054841
0.749292 0.326413 0.054841
0.811003 0.318793 0.054841
0.871444 0.312413 0.054841
0.895079 0.308026 0.054841
0.895079 0.304618 0.054841
0.895079 0.301543 0.054841
0.054841 0.512857 0.054841
0.054841 0.509019 0.054841
0.060465 0.503805 0.054841
0.133647 0.497008 0.054841
0.241523 0.488889 0.054841
0.348927 0.480070 0.054841
0.449162 0.468891 0.054841
0.529023 0.446648 0.054841
0.599831 0.426832 0.054841
0.666929 0.411739 0.054841
0.731697 0.400007 0.054841
0.794722 0.390651 0.054841
0.856490 0.383108 0.054841
0.895053 0.377457 0.054841
0.895079 0.373742 0.054841
0.895079 0.370289 0.054841
0.054841 0.569631 0.054841
0.054841 0.566251 0.054841
0.057819 0.561758 0.054841
0.111371 0.556198 0.054841
0.210471 0.549514 0.054841
0.311283 0.542007 0.054841
0.409916 0.534169 0.054841
0.502309 0.524377 0.054841
0.578285 0.505101 0.054841
0.647087 0.487001 0.054841
0.713349 0.473013 0.054841
0.777755 0.461989 0.054841
0.840751 0.453118 0.054841
0.891899 0.446125 0.054841
0.895079 0.441869 0.054841
0.895079 0.438111 0.054841
0.054841 0.625428 0.054841
0.054841 0.622202 0.054841
0.055778 0.618255 0.054841
0.096864 0.613452 0.054841
0.186358 0.607651 0.054841
0.281809 0.601292 0.054841
0.375865 0.594485 0.054841
0.467734 0.587462 0.054841
0.554434 0.578839 0.054841
0.627572 0.561809 0.054841
0.694900 0.545621 0.054841
0.760402 0.532789 0.054841
0.824499 0.522555 0.054841
0.886757 0.514147 0.054841
0.895079 0.509218 0.054841
0.895079 0.505145 0.054841
0.054841 0.680384 0.054841
0.054841 0.677401 0.054841
0.054841 0.673860 0.054841
0.085879 0.669554 0.054841
0.166950 0.664661 0.054841
0.257866 0.659031 0.054841
0.348172 0.652871 0.054841
0.436813 0.646553 0.054841
0.523395 0.640236 0.054841
0.605981 0.632646 0.054841
0.676800 0.617528 0.054841
0.743104 0.603030 0.054841
0.808015 0.591433 0.054841
0.871791 0.582035 0.054841
0.895079 0.575915 0.054841
0.895079 0.571490 0.054841
0.054841 0.735022 0.054841
0.054841 0.732219 0.054841
0.054841 0.728977 0.054841
0.076970 0.725116 0.054841
0.150796 0.720676 0.054841
0.238078 0.715655 0.054841
0.325127 0.710201 0.054841
0.411081 0.704425 0.054841
0.495344 0.698540 0.054841
0.577775 0.692561 0.054841
0.657053 0.685971 0.054841
0.726193 0.672593 0.054841
0.791787 0.659550 0.054841
0.856157 0.649149 0.054841
0.895079 0.641664 0.054841
0.895079 0.637152 0.054841
0.054841 0.789574 0.054841
0.054841 0.786866 0.054841
0.054841 0.783853 0.054841
0.070745 0.780322 0.054841
0.137055 0.776375 0.054841
0.221292 0.771814 0.054841
0.305812 0.766767 0.054841
0.389332 0.761475 0.054841
0.471497 0.756089 0.054841
0.552226 0.750481 0.054841
0.631258 0.744955 0.054841
0.707547 0.738681 0.054841
0.775790 0.727194 0.054841
0.840731 0.715788 0.054841
0.893239 0.706778 0.054841
0.895079 0.701985 0.054841
0.054841 0.844260 0.054841
0.054841 0.841755 0.054841
0.054841 0.838912 0.054841
0.065466 0.835591 0.054841
0.125265 0.831905 0.054841
0.206992 0.827782 0.054841
0.289231 0.823181 0.054841
0.370602 0.818319 0.054841
0.451127 0.813181 0.054841
0.530264 0.807877 0.054841
0.608065 0.802570 0.054841
0.684390 0.797441 0.054841
0.758106 0.791492 0.054841
0.825610 0.781553 0.054841
0.889150 0.771301 0.054841
0.895079 0.766061 0.054841
0.054841 0.898781 0.054841
0.054841 0.896400 0.054841
0.054841 0.893692 0.054841
0.061580 0.890612 0.054841
0.114766 0.887271 0.054841
0.194261 0.883403 0.054841
0.274881 0.879251 0.054841
0.354541 0.874751 0.054841
0.433351 0.869996 0.054841
0.511185 0.865080 0.054841
0.587816 0.860046 0.054841
0.663129 0.855033 0.054841
0.737086 0.850109 0.054841
0.808877 0.844525 0.054841
0.875591 0.835888 0.054841
0.895079 0.829670 0.054841
0.054841 0.932549 0.054841
0.054841 0.932275 0.054841
0.054841 0.931939 0.054841
0.059831 0.931546 0.054841
0.105599 0.931143 0.054841
0.183115 0.930658 0.054841
0.262234 0.930131 0.054841
0.340365 0.929490 0.054841
0.417752 0.926443 0.054841
0.494352 0.921844 0.054841
0.569856 0.917060 0.054841
0.644260 0.912214 0.054841
0.717502 0.907510 0.054841
0.789588 0.902781 0.054841
0.859727 0.897646 0.054841
0.894591 0.891891 0.054841
0.054841 0.932769 0.054841
0.054841 0.932769 0.054841
0.054841 0.932769 0.054841
0.058289 0.932769 0.054841
0.098979 0.932769 0.054841
0.173476 0.932769 0.054841
0.251674 0.932769 0.054841
0.329064 0.932769 0.054841
0.405461 0.932769 0.054841
0.480863 0.932769 0.054841
0.555607 0.932769 0.054841
0.629124 0.932769 0.054841
0.701596 0.932769 0.054841
0.773121 0.932769 0.054841
0.843290 0.932769 0.054841
0.893339 0.932769 0.054841
0.054841 0.054841 0.360650
0.160008 0.054841 0.355539
0.299507 0.054841 0.325919
0.392348 0.054841 0.277090
0.463391 0.054841 0.239193
0.527417 0.054841 0.213213
0.588179 0.054841 0.194353
0.646928 0.054841 0.180092
0.704631 0.054841 0.168905
0.761803 0.054841 0.159764
0.818627 0.054841 0.152193
0.875146 0.054841 0.145647
0.895079 0.054841 0.140474
0.895079 0.054841 0.135897
0.895079 0.054841 0.131749
0.895079 0.054841 0.127951
0.054841 0.120692 0.315079
0.115267 0.117617 0.326327
0.276759 0.095088 0.300285
0.377154 0.085048 0.239520
0.449961 0.079658 0.204182
0.515116 0.075556 0.182335
0.576605 0.071618 0.167077
0.636143 0.068008 0.155050
0.694376 0.064859 0.145619
0.752099 0.061832 0.137628
0.809323 0.059976 0.131074
0.866213 0.059622 0.126004
0.895079 0.059279 0.121736
0.895079 0.058937 0.118183
0.895079 0.058624 0.114855
0.895079 0.058313 0.111654
0.054841 0.237432 0.247214
0.057361 0.229226 0.238248
0.200499 0.207951 0.214036
0.348277 0.178475 0.183682
0.428344 0.167760 0.172471
0.497285 0.160554 0.164748
0.561185 0.155287 0.158918
0.622396 0.150875 0.154244
0.681907 0.147310 0.150444
0.740489 0.144127 0.147186
0.798451 0.141601 0.144379
0.855959 0.138830 0.141495
0.895027 0.134927 0.137496
0.895079 0.131323 0.133859
0.895079 0.128035 0.130492
0.895079 0.125138 0.127545
0.054841 0.321864 0.171915
0.054841 0.317694 0.143671
0.108241 0.309357 0.113412
0.272068 0.283855 0.090787
0.389391 0.246646 0.104383
0.470555 0.227039 0.113244
0.540310 0.215137 0.117278
0.604819 0.206536 0.118882
0.666500 0.199702 0.119213
0.726624 0.194505 0.118887
0.785825 0.189707 0.118091
0.844256 0.185783 0.117115
0.891775 0.182255 0.115815
0.895079 0.179570 0.114493
0.895079 0.177120 0.113189
0.895079 0.174758 0.111799
0.054841 0.390520 0.121233
0.054841 0.386926 0.100327
0.076393 0.380620 0.079119
0.191880 0.368644 0.064513
0.334927 0.349482 0.062277
0.434951 0.315924 0.065103
0.513211 0.293040 0.070753
0.582950 0.277860 0.075641
0.648021 0.266810 0.079184
0.710358 0.258534 0.082585
0.771125 0.252019 0.084726
0.830946 0.246644 0.086045
0.886869 0.242114 0.086976
0.895079 0.239074 0.087330
0.895079 0.236350 0.087512
0.895079 0.233762 0.087381
0.054841 0.453020 0.093967
0.054841 0.449713 0.076969
0.062249 0.444656 0.063533
0.147280 0.436687 0.059092
0.272192 0.425260 0.054910
0.393422 0.410642 0.054841
0.482454 0.381981 0.055557
0.557656 0.359670 0.057986
0.626609 0.343685 0.059962
0.691650 0.331898 0.061608
0.754597 0.322647 0.062864
0.815919 0.315506 0.063740
0.876170 0.309506 0.064463
0.895079 0.305348 0.064934
0.895079 0.302255 0.065555
0.895079 0.299317 0.066094
0.054841 0.512045 0.075637
0.054841 0.508994 0.063856
0.058327 0.504700 0.059085
0.118558 0.498569 0.055499
0.228687 0.490160 0.054841
0.341922 0.480281 0.054841
0.448160 0.467832 0.054841
0.530847 0.443909 0.054841
0.603247 0.423188 0.054841
0.671120 0.407895 0.054841
0.736270 0.396006 0.054841
0.799382 0.386869 0.055713
0.861084 0.379555 0.056738
0.895079 0.374276 0.057554
0.895079 0.370668 0.058240
0.895079 0.367346 0.058865
0.054841 0.569112 0.063706
0.054841 0.566254 0.059553
0.055836 0.562493 0.056225
0.100413 0.557389 0.054841
0.197856 0.550773 0.054841
0.302075 0.542810 0.054841
0.404997 0.534238 0.054841
0.501372 0.523419 0.054841
0.579634 0.502889 0.054841
0.649770 0.484121 0.054841
0.716752 0.469790 0.054841
0.781627 0.458744 0.054841
0.844831 0.449864 0.054841
0.892958 0.443011 0.054841
0.895079 0.438821 0.054841
0.895079 0.435230 0.054841
0.054841 0.625014 0.059795
0.054841 0.622358 0.057009
0.054841 0.618899 0.054931
0.088121 0.614480 0.054841
0.174625 0.609006 0.054841
0.271907 0.602373 0.054841
0.368965 0.594966 0.054841
0.463999 0.587262 0.054841
0.553637 0.577975 0.054841
0.628531 0.560028 0.054841
0.697031 0.543261 0.054841
0.763300 0.530109 0.054841
0.827769 0.519726 0.054841
0.888218 0.511383 0.054841
0.895079 0.506583 0.054841
0.895079 0.502420 0.054841
0.054841 0.680132 0.057414
0.054841 0.677558 0.055171
0.054841 0.674366 0.054841
0.078284 0.670435 0.054841
0.156192 0.665734 0.054841
0.247943 0.660113 0.054841
0.340309 0.653724 0.054841
0.431430 0.646851 0.054841
0.520496 0.640012 0.054841
0.605214 0.631835 0.054841
0.677518 0.615953 0.054841
0.744851 0.601073 0.054841
0.810395 0.589148 0.054841
0.874634 0.579514 0.054841
0.895079 0.573526 0.054841
0.895079 0.569128 0.054841
0.054841 0.734809 0.055359
0.054841 0.732410 0.054841
0.054841 0.729408 0.054841
0.071524 0.725902 0.054841
0.140854 0.721706 0.054841
0.228583 0.716706 0.054841
0.316968 0.711116 0.054841
0.404708 0.705029 0.054841
0.490941 0.698653 0.054841
0.575304 0.692348 0.054841
0.656412 0.685309 0.054841
0.726699 0.671304 0.054841
0.793106 0.657883 0.054841
0.858133 0.647178 0.054841
0.895079 0.639688 0.054841
0.895079 0.634979 0.054841
0.054841 0.789417 0.054841
0.054841 0.787053 0.054841
0.054841 0.784279 0.054841
0.066023 0.781013 0.054841
0.127998 0.777246 0.054841
0.212324 0.772693 0.054841
0.297695 0.767714 0.054841
0.382394 0.762232 0.054841
0.466306 0.756440 0.054841
0.548659 0.750560 0.054841
0.629297 0.744714 0.054841
0.706929 0.738042 0.054841
0.776159 0.726016 0.054841
0.841827 0.714337 0.054841
0.893425 0.705200 0.054841
0.895079 0.700155 0.054841
0.054841 0.844252 0.054841
0.054841 0.841869 0.054841
0.054841 0.839273 0.054841
0.061763 0.836192 0.054841
0.116842 0.832644 0.054841
0.198498 0.828661 0.054841
0.281317 0.824053 0.054841
0.363687 0.819169 0.054841
0.445277 0.813805 0.054841
0.525916 0.808267 0.054841
0.605046 0.802671 0.054841
0.682653 0.797052 0.054841
0.757495 0.790884 0.054841
0.825859 0.780523 0.054841
0.889773 0.770041 0.054841
0.895079 0.764529 0.054841
0.054841 0.898781 0.054841
0.054841 0.896598 0.054841
0.054841 0.894088 0.054841
0.059879 0.891261 0.054841
0.106953 0.887948 0.054841
0.186263 0.884272 0.054841
0.267210 0.880083 0.054841
0.347557 0.875527 0.054841
0.427284 0.870632 0.054841
0.506230 0.865522 0.054841
0.584041 0.860277 0.054841
0.660552 0.854934 0.054841
0.735548 0.849797 0.054841
0.808329 0.843951 0.054841
0.875732 0.834900 0.054841
0.895079 0.828435 0.054841
0.054841 0.932549 0.054841
0.054841 0.932277 0.054841
0.054841 0.931969 0.054841
0.058236 0.931629 0.054841
0.099513 0.931226 0.054841
0.175437 0.930762 0.054841
0.254817 0.930229 0.054841
0.333509 0.929655 0.054841
0.411635 0.927153 0.054841
0.488924 0.922319 0.054841
0.565487 0.917434 0.054841
0.640955 0.912423 0.054841
0.715277 0.907404 0.054841
0.788163 0.902539 0.054841
0.859163 0.897064 0.054841
0.894620 0.890969 0.054841
0.054841 0.932769 0.054841
0.054841 0.932769 0.054841
0.054841 0.932769 0.054841
0.056746 0.932769 0.054841
0.093352 0.932769 0.054841
0.166225 0.932769 0.054841
0.244441 0.932769 0.054841
0.322329 0.932769 0.054841
0.399334 0.932769 0.054841
0.475526 0.932769 0.054841
0.550906 0.932769 0.054841
0.625252 0.932769 0.054841
0.698708 0.932769 0.054841
0.771004 0.932769 0.054841
0.841952 0.932769 0.054841
0.893339 0.932769 0.054841
0.054841 0.054841 0.444538
0.134180 0.054841 0.443686
0.260637 0.054841 0.431697
0.374337 0.054841 0.407655
0.457299 0.054841 0.368616
0.524940 0.054841 0.334209
0.587463 0.054841 0.308181
0.647327 0.054841 0.288223
0.705612 0.054841 0.272524
0.763215 0.054841 0.259685
0.820170 0.054841 0.249261
0.876886 0.054841 0.240351
0.895079 0.054841 0.233397
0.895079 0.054841 0.227445
0.895079 0.054841 0.222096
0.895079 0.054841 0.217340
0.054841 0.105860 0.414957
0.110537 0.112561 0.422216
0.231812 0.098561 0.417486
0.358941 0.082720 0.390470
0.446341 0.074372 0.344323
0.515058 0.069397 0.307847
0.578149 0.065913 0.282318
0.638240 0.062601 0.263279
0.696869 0.060367 0.248563
0.754612 0.059690 0.237160
0.811910 0.059321 0.227801
0.868742 0.058990 0.220033
0.895079 0.058681 0.213963
0.895079 0.058383 0.208886
0.895079 0.058089 0.204318
0.895079 0.057837 0.200004
0.054841 0.207954 0.373268
0.060203 0.195149 0.379942
0.189465 0.195369 0.390060
0.337991 0.173176 0.366146
0.432022 0.163228 0.312992
0.502009 0.158184 0.281345
0.565863 0.153907 0.261667
0.626784 0.150252 0.247764
0.685965 0.147009 0.237161
0.744365 0.143869 0.228513
0.802091 0.141033 0.221626
0.859442 0.138200 0.215781
0.895079 0.135552 0.210870
0.895079 0.132992 0.206862
0.895079 0.130657 0.203053
0.895079 0.128254 0.199575
0.054841 0.309926 0.323182
0.054841 0.304342 0.317252
0.105388 0.297917 0.309567
0.267303 0.277644 0.287172
0.404480 0.251614 0.260144
0.481056 0.242272 0.250167
0.548327 0.235819 0.243279
0.611442 0.230964 0.237949
0.672327 0.226817 0.233673
0.731731 0.223352 0.229943
0.790446 0.220574 0.226883
0.848610 0.217117 0.223244
0.893395 0.213453 0.219436
0.895079 0.210403 0.216303
0.895079 0.207363 0.213167
0.895079 0.204557 0.210255
0.054841 0.385991 0.262414
0.054841 0.382800 0.245765
0.068957 0.378764 0.220871
0.184201 0.371234 0.195526
0.333957 0.347804 0.172006
0.443772 0.315858 0.185534
0.522151 0.299139 0.193957
0.590802 0.288568 0.197682
0.654814 0.281088 0.199214
0.716427 0.275039 0.199589
0.776604 0.270174 0.199235
0.835881 0.266109 0.198640
0.888673 0.262634 0.197569
0.895079 0.259917 0.196583
0.895079 0.257368 0.195335
0.895079 0.254997 0.193942
0.054841 0.450270 0.213855
0.054841 0.447595 0.194309
0.060981 0.444190 0.169361
0.154034 0.438261 0.162007
0.262574 0.427010 0.136005
0.392628 0.409292 0.129675
0.487399 0.379541 0.139585
0.564064 0.359339 0.149292
0.633057 0.345868 0.156367
0.697852 0.336239 0.161235
0.760246 0.328930 0.164482
0.821244 0.323112 0.166510
0.881120 0.318296 0.167913
0.895079 0.315028 0.168671
0.895079 0.312249 0.169040
0.895079 0.309698 0.169210
0.054841 0.510154 0.177621
0.054841 0.507748 0.158658
0.056768 0.504606 0.135938
0.132146 0.499672 0.138061
0.221059 0.491956 0.117117
0.334198 0.480873 0.100494
0.447163 0.466520 0.099561
0.533843 0.441255 0.106977
0.607946 0.421047 0.115534
0.676442 0.406789 0.122879
0.741563 0.396163 0.128818
0.804596 0.388164 0.133510
0.866048 0.381684 0.137052
0.895079 0.377165 0.139794
0.895079 0.373936 0.141781
0.895079 0.371006 0.143418
0.054841 0.567815 0.149837
0.054841 0.565467 0.131883
0.054841 0.562454 0.112851
0.112533 0.558300 0.117172
0.192392 0.552333 0.101790
0.292162 0.544011 0.082907
