assets/lut/editingcorp ensaya.cube
# Created by: G'MIC (https://gmic.eu)
TITLE "ensaya"
# LUT size
LUT_3D_SIZE 5
# Data domain
DOMAIN_MIN 0.0 0.0 0.0
DOMAIN_MAX 1.0 1.0 1.0
# LUT data points
0.018927285447716713 0.016480794176459312 0.016065813601016998
0.29151821136474609 0.04131610319018364 0.034077513962984085
0.63198757171630859 0.041321173310279846 0.054376520216464996
0.84629607200622559 0.016515454277396202 0.051838278770446777
0.9948076605796814 0.00048576804692856967 0.050003860145807266
0.050933253020048141 0.22979404032230377 0.017048494890332222
0.25285160541534424 0.22999502718448639 0.02623290941119194
0.58821123838424683 0.21837598085403442 0.04752209410071373
0.84460675716400146 0.19908536970615387 0.053556092083454132
0.99062490463256836 0.19148041307926178 0.047573328018188477
0.099919892847537994 0.52320241928100586 0.027497684583067894
0.25506281852722168 0.5122489333152771 0.030786387622356415
0.55251157283782959 0.50747382640838623 0.056711472570896149
0.85570663213729858 0.4875064492225647 0.064935781061649323
0.99446475505828857 0.47236058115959167 0.054026167839765549
0.042323272675275803 0.81679940223693848 0.016661625355482101
0.19426882266998291 0.81380575895309448 0.022563336417078972
0.46782359480857849 0.80275994539260864 0.038772627711296082
0.80983877182006836 0.81240779161453247 0.038974449038505554
0.99331367015838623 0.79808336496353149 0.030729586258530617
0.024321597069501877 0.97140616178512573 0.004282049834728241
0.17614863812923431 0.96645641326904297 0.015264772810041904
0.39260849356651306 0.97570431232452393 0.015899254009127617
0.7682228684425354 0.98884260654449463 0.016599647700786591
0.99652379751205444 0.99690902233123779 0.010881910100579262
0.014072208665311337 0.020033936947584152 0.16071523725986481
0.21509277820587158 0.026890624314546585 0.2005397230386734
0.62075483798980713 0.052115362137556076 0.25562423467636108
0.83906084299087524 0.046278994530439377 0.2402486652135849
0.98454612493515015 0.010173543356359005 0.24491432309150696
0.024798449128866196 0.20451939105987549 0.17449226975440979
0.20161297917366028 0.2128375917673111 0.19034862518310547
0.59830403327941895 0.22435687482357025 0.22487369179725647
0.84307217597961426 0.20942549407482147 0.22303050756454468
0.98520171642303467 0.20169699192047119 0.22072881460189819
0.076246298849582672 0.51884961128234863 0.19070930778980255
0.23308731615543365 0.51039236783981323 0.18563723564147949
0.54311472177505493 0.50432884693145752 0.19942325353622437
0.85104560852050781 0.4837125837802887 0.20910640060901642
0.9929959774017334 0.463174968957901 0.21294181048870087
0.065093085169792175 0.80863314867019653 0.17472484707832336
0.20838911831378937 0.80808264017105103 0.1634921133518219
0.46687498688697815 0.80815571546554565 0.16315814852714539
0.81876516342163086 0.81808888912200928 0.16396860778331757
0.99401319026947021 0.79376339912414551 0.16944454610347748
0.043510571122169495 0.9689299464225769 0.13547787070274353
0.17603318393230438 0.96835362911224365 0.14807280898094177
0.41573593020439148 0.9755968451499939 0.13949395716190338
0.7727668285369873 0.98456233739852905 0.14909712970256805
0.99320501089096069 0.99463671445846558 0.15001434087753296
0.020023075863718987 0.053873937577009201 0.45079028606414795
0.14532929658889771 0.060450281947851181 0.45739981532096863
0.4443417489528656 0.078950695693492889 0.54863470792770386
0.82818925380706787 0.086152471601963043 0.55187499523162842
0.97758209705352783 0.042948149144649506 0.53168022632598877
0.017469532787799835 0.22768892347812653 0.43591740727424622
0.14635930955410004 0.22270877659320831 0.42785343527793884
0.41359171271324158 0.24259096384048462 0.51893413066864014
0.8403627872467041 0.26887243986129761 0.52929884195327759
0.98031449317932129 0.25151234865188599 0.51668542623519897
0.016844445839524269 0.48526111245155334 0.43422409892082214
0.1507919579744339 0.4716789722442627 0.42714774608612061
0.44545209407806396 0.50416165590286255 0.47479799389839172
0.83872658014297485 0.51963907480239868 0.51812601089477539
0.98877030611038208 0.51095473766326904 0.51187503337860107
0.019783305004239082 0.82142430543899536 0.45892500877380371
0.14999368786811829 0.81707215309143066 0.44457858800888062
0.44024160504341125 0.80681800842285156 0.45101606845855713
0.82216507196426392 0.81811904907226562 0.45357343554496765
0.99535006284713745 0.80094951391220093 0.46011939644813538
0.027937885373830795 0.97414636611938477 0.40003937482833862
0.16134889423847198 0.96793609857559204 0.40838813781738281
0.41261383891105652 0.97410756349563599 0.39540278911590576
0.77682620286941528 0.98617088794708252 0.40719163417816162
0.99189257621765137 0.99245691299438477 0.37108621001243591
0.016791205853223801 0.072134830057621002 0.68681293725967407
0.14753219485282898 0.080362789332866669 0.68558692932128906
0.28341200947761536 0.1022074967622757 0.74107354879379272
0.86442035436630249 0.021005474030971527 0.84021729230880737
0.98868274688720703 0.025020748376846313 0.84800821542739868
0.016953980550169945 0.24949334561824799 0.70645666122436523
0.15180438756942749 0.25025749206542969 0.70965063571929932
0.29208335280418396 0.26413723826408386 0.71874099969863892
0.85033464431762695 0.19159284234046936 0.84092456102371216
0.98659563064575195 0.19949489831924438 0.83139646053314209
0.017838062718510628 0.50936233997344971 0.7135511040687561
0.14822615683078766 0.50100505352020264 0.71254152059555054
0.29680180549621582 0.50248223543167114 0.71147477626800537
0.81376856565475464 0.50879180431365967 0.83614760637283325
0.9851536750793457 0.51244658231735229 0.81655395030975342
0.016402106732130051 0.81174701452255249 0.79309523105621338
0.14285776019096375 0.81486672163009644 0.79265373945236206
0.39508333802223206 0.81312471628189087 0.79674810171127319
0.80443120002746582 0.82227987051010132 0.82437002658843994
0.99210232496261597 0.81601172685623169 0.82568752765655518
0.017616944387555122 0.97977358102798462 0.78478813171386719
0.15377514064311981 0.98045241832733154 0.77956652641296387
0.40239456295967102 0.98606973886489868 0.78047168254852295
0.77424675226211548 0.99210017919540405 0.79679036140441895
0.99192899465560913 0.99465835094451904 0.80347990989685059
0.009024481289088726 0.07864069938659668 0.85873353481292725
0.1510336846113205 0.076282963156700134 0.85369312763214111
0.29111543297767639 0.097210749983787537 0.87398755550384521
0.84228026866912842 0.027059413492679596 0.98738676309585571
0.99511152505874634 0.0099480273202061653 0.99905878305435181
0.011957161128520966 0.25516042113304138 0.87265098094940186
0.14865437150001526 0.24973863363265991 0.87431472539901733
0.27560111880302429 0.26462528109550476 0.88501578569412231
0.82053053379058838 0.2117006927728653 0.97898894548416138
0.99017989635467529 0.19999848306179047 0.99254083633422852
0.015042293816804886 0.4957999587059021 0.8787848949432373
0.14567103981971741 0.48856270313262939 0.87818789482116699
0.29238355159759521 0.50023561716079712 0.88263803720474243
0.74249470233917236 0.51432830095291138 0.97244518995285034
0.99285769462585449 0.49570557475090027 0.99231874942779541
0.012566644698381424 0.78131753206253052 0.92540425062179565
0.13610062003135681 0.78807693719863892 0.93366867303848267
0.36865407228469849 0.79523801803588867 0.9493287205696106
0.78757405281066895 0.81798011064529419 0.98772764205932617
0.99229967594146729 0.81917017698287964 0.99305206537246704
0.0076248617842793465 0.97585761547088623 0.96983075141906738
0.13371801376342773 0.98153203725814819 0.97702586650848389
0.39154008030891418 0.98608899116516113 0.98346298933029175
0.78051269054412842 0.9922141432762146 0.98950207233428955
0.99480706453323364 0.99343043565750122 0.99074000120162964
