assets/lut/editingcorp ideo.cube
# Created by: G'MIC (https://gmic.eu)
TITLE "ideo"
# LUT size
LUT_3D_SIZE 13
# Data domain
DOMAIN_MIN 0.0 0.0 0.0
DOMAIN_MAX 1.0 1.0 1.0
# LUT data points
0.0058760251849889755 0.0061589260585606098 0.058877144008874893
0.031438175588846207 0.01630655862390995 0.060370128601789474
0.12312597781419754 0.031689077615737915 0.07087002694606781
0.20760168135166168 0.057972881942987442 0.09159030020236969
0.30242630839347839 0.08288109302520752 0.11896268278360367
0.41220250725746155 0.12021684646606445 0.15785177052021027
0.51211440563201904 0.14259347319602966 0.19759735465049744
0.58608555793762207 0.1576417088508606 0.22622218728065491
0.63250792026519775 0.15908175706863403 0.24054780602455139
0.66307038068771362 0.15326781570911407 0.24621093273162842
0.69017261266708374 0.14929275214672089 0.24912235140800476
0.71981972455978394 0.14703176915645599 0.2526489794254303
0.75252056121826172 0.14305344223976135 0.25749951601028442
0.012173701077699661 0.050947599112987518 0.059450875967741013
0.025762476027011871 0.05538298562169075 0.060194291174411774
0.11627498269081116 0.069785505533218384 0.0715370774269104
0.20794309675693512 0.095949776470661163 0.092553459107875824
0.30105936527252197 0.12411292642354965 0.11772172152996063
0.40751415491104126 0.14967469871044159 0.15360508859157562
0.50638401508331299 0.16517315804958344 0.19423045217990875
0.58412289619445801 0.18335629999637604 0.22611171007156372
0.63592654466629028 0.19347885251045227 0.24358503520488739
0.66909867525100708 0.19423936307430267 0.25177678465843201
0.69587647914886475 0.19415444135665894 0.25551360845565796
0.72494292259216309 0.19395940005779266 0.25936314463615417
0.75774455070495605 0.19117352366447449 0.26386699080467224
0.01062062568962574 0.12538208067417145 0.059340205043554306
0.013904048129916191 0.12782496213912964 0.058174777776002884
0.10496129095554352 0.13201883435249329 0.070377081632614136
0.21433225274085999 0.14073871076107025 0.090029172599315643
0.30865827202796936 0.16048088669776917 0.11409565061330795
0.41045227646827698 0.17891271412372589 0.14760012924671173
0.50614398717880249 0.19309364259243011 0.18853266537189484
0.58505779504776001 0.21718904376029968 0.2206043004989624
0.64111864566802979 0.23535540699958801 0.24043963849544525
0.67696565389633179 0.23979571461677551 0.25137791037559509
0.70326942205429077 0.24264374375343323 0.25679224729537964
0.73173177242279053 0.24416822195053101 0.26144272089004517
0.76482957601547241 0.2428230494260788 0.26606202125549316
0.016455542296171188 0.20626156032085419 0.061722848564386368
0.022427622228860855 0.21227571368217468 0.059622056782245636
0.094255052506923676 0.21555113792419434 0.065887361764907837
0.21044975519180298 0.21206897497177124 0.084239155054092407
0.32000976800918579 0.21460831165313721 0.11154449731111526
0.42187559604644775 0.22603419423103333 0.14567960798740387
0.51445430517196655 0.25028157234191895 0.182703897356987
0.59396755695343018 0.28180885314941406 0.21187418699264526
0.65267175436019897 0.30292046070098877 0.23151369392871857
0.6890716552734375 0.30539107322692871 0.24430687725543976
0.71435314416885376 0.30699026584625244 0.25064975023269653
0.74069511890411377 0.30858007073402405 0.25502169132232666
0.77123135328292847 0.30715087056159973 0.25840047001838684
0.030431276187300682 0.2839418351650238 0.07027936726808548
0.036492068320512772 0.29077747464179993 0.067981824278831482
0.084575548768043518 0.29733079671859741 0.065421715378761292
0.19526605308055878 0.29985031485557556 0.072412438690662384
0.32244065403938293 0.29272288084030151 0.099242627620697021
0.43507042527198792 0.28848463296890259 0.1432923823595047
0.5297207236289978 0.31490042805671692 0.18068528175354004
0.60846865177154541 0.35276052355766296 0.20585927367210388
0.66684192419052124 0.37850901484489441 0.22216622531414032
0.70243138074874878 0.38293159008026123 0.2325054407119751
0.72632664442062378 0.38267689943313599 0.23812960088253021
0.74938452243804932 0.3831656277179718 0.24112062156200409
0.77626568078994751 0.38029807806015015 0.24335841834545135
0.037324417382478714 0.35729417204856873 0.079552397131919861
0.034839913249015808 0.36243873834609985 0.077128753066062927
0.062414687126874924 0.36918443441390991 0.071646623313426971
0.16493652760982513 0.38027679920196533 0.067474976181983948
0.31189945340156555 0.38587412238121033 0.085491731762886047
0.44331538677215576 0.37904244661331177 0.13346609473228455
0.54320293664932251 0.38948175311088562 0.1758793443441391
0.61944204568862915 0.41271668672561646 0.20169083774089813
0.67503511905670166 0.43348652124404907 0.21592089533805847
0.71129143238067627 0.44716975092887878 0.22179847955703735
0.73478806018829346 0.45280277729034424 0.22398398816585541
0.75532853603363037 0.452798992395401 0.22653339803218842
0.77988982200622559 0.4475862979888916 0.22921127080917358
0.042394556105136871 0.4298701286315918 0.084387011826038361
0.038061447441577911 0.43418160080909729 0.081770740449428558
0.060038294643163681 0.43826296925544739 0.07816721498966217
0.15123538672924042 0.44893929362297058 0.074727155268192291
0.2949184775352478 0.4652768075466156 0.086034201085567474
0.43487679958343506 0.47602173686027527 0.12113898992538452
0.54284852743148804 0.48142126202583313 0.16208070516586304
0.62090682983398438 0.47979405522346497 0.19206587970256805
0.6777719259262085 0.48305550217628479 0.21089163422584534
0.71684986352920532 0.50199407339096069 0.21535027027130127
0.74040299654006958 0.51249039173126221 0.21418540179729462
0.75977545976638794 0.51022136211395264 0.21630381047725677
0.78310739994049072 0.50320005416870117 0.22050756216049194
0.053932055830955505 0.49673837423324585 0.095455929636955261
0.057018637657165527 0.5028461217880249 0.089459933340549469
0.085392609238624573 0.50384354591369629 0.086349263787269592
0.16163158416748047 0.5059814453125 0.085520774126052856
0.27972999215126038 0.51711481809616089 0.088269613683223724
0.40927243232727051 0.53886646032333374 0.10652625560760498
0.5241628885269165 0.56507629156112671 0.13638931512832642
0.60980051755905151 0.56443661451339722 0.16448400914669037
0.67559558153152466 0.55299502611160278 0.19703148305416107
0.72353112697601318 0.55893731117248535 0.21818186342716217
0.74658876657485962 0.56509631872177124 0.21732126176357269
0.76402908563613892 0.56087243556976318 0.2164594978094101
0.78700709342956543 0.5535731315612793 0.21923354268074036
0.065818503499031067 0.56106317043304443 0.10907267779111862
0.076141566038131714 0.56740999221801758 0.10244695842266083
0.10881292074918747 0.56493306159973145 0.10045475512742996
0.17319044470787048 0.56276202201843262 0.098340712487697601
0.26614347100257874 0.56971460580825806 0.092106148600578308
0.37848523259162903 0.59047925472259521 0.093971788883209229
0.48984676599502563 0.62506198883056641 0.10487817227840424
0.58096897602081299 0.64914727210998535 0.11965701729059219
0.66002357006072998 0.64582574367523193 0.16200439631938934
0.72698831558227539 0.63030397891998291 0.21958163380622864
0.755462646484375 0.62377762794494629 0.23293693363666534
0.77012830972671509 0.61654752492904663 0.22711169719696045
0.79157936573028564 0.61050450801849365 0.22462700307369232
0.070243090391159058 0.63302558660507202 0.10650914162397385
0.082305639982223511 0.63822442293167114 0.10312754660844803
0.11187006533145905 0.63431233167648315 0.10454221069812775
0.16502572596073151 0.63410156965255737 0.10412042587995529
0.2444140762090683 0.64326703548431396 0.099160179495811462
0.34746840596199036 0.66100198030471802 0.09720243513584137
0.45692005753517151 0.68908292055130005 0.097145289182662964
0.54797166585922241 0.71799558401107788 0.09761810302734375
0.62675625085830688 0.72737914323806763 0.12312892824411392
0.70450586080551147 0.71679830551147461 0.18466012179851532
0.75420409440994263 0.70159280300140381 0.22744937241077423
0.77363389730453491 0.68968868255615234 0.22939278185367584
0.79518604278564453 0.68487679958343506 0.22633616626262665
0.072093680500984192 0.69458854198455811 0.1003435030579567
0.081608988344669342 0.69978809356689453 0.1001918688416481
0.09949532151222229 0.69909960031509399 0.10407059639692307
0.13525642454624176 0.70265001058578491 0.10655341297388077
0.20245958864688873 0.71393042802810669 0.10621260106563568
0.30645781755447388 0.72991418838500977 0.10764419287443161
0.42661884427070618 0.75264805555343628 0.10836724936962128
0.52250289916992188 0.76947742700576782 0.10504847764968872
0.59452474117279053 0.78020596504211426 0.10584423691034317
0.66493844985961914 0.78844362497329712 0.12451005727052689
0.72878348827362061 0.77863335609436035 0.16832171380519867
0.76697194576263428 0.7664298415184021 0.19501754641532898
0.79347091913223267 0.76310771703720093 0.20682112872600555
0.073430068790912628 0.73791086673736572 0.099728979170322418
0.081472091376781464 0.74150079488754272 0.10395605117082596
0.084188051521778107 0.74463057518005371 0.10771366208791733
0.09786243736743927 0.75091272592544556 0.10982031375169754
0.14757439494132996 0.76079773902893066 0.1117047443985939
0.25742876529693604 0.77502942085266113 0.1145906001329422
0.39577367901802063 0.79136377573013306 0.11641253530979156
0.50690364837646484 0.8025822639465332 0.11270986497402191
0.5814937949180603 0.81321525573730469 0.10313862562179565
0.6445574164390564 0.82407951354980469 0.09678380936384201
0.70618462562561035 0.8219330906867981 0.11197512596845627
0.75379776954650879 0.81738108396530151 0.13941498100757599
0.78639495372772217 0.81790655851364136 0.16151812672615051
0.069026768207550049 0.77426087856292725 0.097470708191394806
0.073946364223957062 0.77695780992507935 0.10395679622888565
0.071408919990062714 0.7810942530632019 0.10804812610149384
0.076661549508571625 0.78694295883178711 0.11002694070339203
0.11893430352210999 0.79457730054855347 0.11204025894403458
0.23002202808856964 0.80570107698440552 0.11484202742576599
0.37762564420700073 0.8172728419303894 0.11701905727386475
0.49908462166786194 0.82652568817138672 0.11480721831321716
0.57657277584075928 0.83543699979782104 0.10651900619268417
0.63730102777481079 0.8435673713684082 0.0946832075715065
0.69353878498077393 0.84752017259597778 0.089465074241161346
0.74021536111831665 0.85013997554779053 0.099478520452976227
0.77626150846481323 0.85366189479827881 0.11535840481519699
0.0071044322103261948 0.015662398189306259 0.1083574965596199
0.042168576270341873 0.019831489771604538 0.106680728495121
0.13613688945770264 0.024576717987656593 0.10923980921506882
0.22282248735427856 0.039801623672246933 0.12315190583467484
0.31424638628959656 0.061495102941989899 0.1443357914686203
0.4160187840461731 0.097876891493797302 0.17684923112392426
0.51278245449066162 0.1207544207572937 0.21275535225868225
0.58940225839614868 0.14842240512371063 0.24259136617183685
0.6371312141418457 0.15782596170902252 0.2588716447353363
0.66687262058258057 0.15522848069667816 0.26435810327529907
0.69244349002838135 0.15460194647312164 0.26621058583259583
0.7210814356803894 0.15460087358951569 0.26939213275909424
0.75315886735916138 0.15006768703460693 0.27546554803848267
0.013246588408946991 0.059347998350858688 0.1069924458861351
0.027314713224768639 0.061240896582603455 0.10668017715215683
0.11850404739379883 0.076612286269664764 0.11022675782442093
0.21322636306285858 0.10297227650880814 0.12245757132768631
0.30345016717910767 0.12445777654647827 0.14113453030586243
0.40709617733955383 0.1497914046049118 0.17185264825820923
0.50627416372299194 0.16365349292755127 0.21002554893493652
0.58688300848007202 0.18450412154197693 0.24281790852546692
0.63915032148361206 0.19584996998310089 0.26222917437553406
0.67145818471908569 0.19815881550312042 0.26997101306915283
0.6973876953125 0.20049843192100525 0.2723909318447113
0.72571045160293579 0.20214861631393433 0.27537927031517029
0.75823807716369629 0.19704724848270416 0.28104674816131592
0.015238653868436813 0.12185961008071899 0.10256006568670273
0.017486527562141418 0.12534928321838379 0.10077529400587082
0.10743254423141479 0.13610216975212097 0.10194002091884613
0.21815522015094757 0.14626812934875488 0.11632753163576126
0.30770957469940186 0.1615237295627594 0.13745509088039398
0.40810990333557129 0.17817744612693787 0.1656840443611145
0.50480371713638306 0.19341513514518738 0.20385371148586273
0.58582079410552979 0.21715763211250305 0.23771029710769653
0.64275097846984863 0.2369740754365921 0.25914797186851501
0.67841649055480957 0.24462966620922089 0.26986092329025269
0.70470333099365234 0.24842415750026703 0.27449202537536621
0.73303192853927612 0.24908590316772461 0.27855947613716125
0.76524275541305542 0.24554632604122162 0.28322935104370117
0.020653877407312393 0.20193210244178772 0.094148807227611542
0.020850582048296928 0.21000339090824127 0.090542599558830261
0.083517454564571381 0.21950355172157288 0.086920075118541718
0.21152909100055695 0.2125387042760849 0.10578444600105286
0.32264658808708191 0.21184635162353516 0.13669580221176147
0.42205828428268433 0.22503088414669037 0.16447447240352631
0.5145912766456604 0.24811144173145294 0.19821450114250183
0.59388846158981323 0.27903705835342407 0.22886253893375397
0.65288239717483521 0.3042336106300354 0.25049915909767151
0.68995404243469238 0.31240305304527283 0.2626383900642395
0.71581429243087769 0.31241545081138611 0.26887080073356628
0.74233156442642212 0.31123685836791992 0.27257677912712097
0.7723923921585083 0.30827581882476807 0.27596184611320496
0.034669540822505951 0.28156089782714844 0.095542475581169128
0.040271565318107605 0.28823038935661316 0.091616794466972351
0.082699641585350037 0.2967388927936554 0.083089791238307953
0.19572417438030243 0.29676055908203125 0.090102627873420715
0.32682576775550842 0.28812283277511597 0.12237998843193054
0.43938067555427551 0.28919157385826111 0.16204233467578888
0.53307336568832397 0.31182762980461121 0.19711469113826752
0.60889500379562378 0.34814465045928955 0.22233778238296509
0.66677874326705933 0.37896454334259033 0.24011856317520142
0.70385849475860596 0.38881793618202209 0.2511289119720459
0.72806578874588013 0.38709279894828796 0.25654315948486328
0.75146043300628662 0.38632148504257202 0.25884467363357544
0.77813923358917236 0.38319331407546997 0.26009151339530945
0.040025688707828522 0.35374194383621216 0.10477267950773239
0.044860407710075378 0.35743594169616699 0.10017635673284531
0.075949966907501221 0.36622375249862671 0.09026704728603363
0.17224778234958649 0.37900948524475098 0.081414274871349335
0.31391918659210205 0.38246297836303711 0.10239263623952866
0.44642001390457153 0.37827125191688538 0.1518104076385498
0.54602265357971191 0.38553118705749512 0.19378381967544556
0.62023961544036865 0.40736490488052368 0.21809272468090057
0.67632418870925903 0.43538740277290344 0.23229944705963135
0.71367758512496948 0.45245853066444397 0.2389511913061142
0.73723036050796509 0.45564821362495422 0.24213236570358276
0.7583547830581665 0.4551655650138855 0.24392080307006836
0.78244757652282715 0.45076030492782593 0.24581484496593475
0.045076139271259308 0.42850163578987122 0.10288432985544205
0.046009346842765808 0.42962008714675903 0.1039535254240036
0.068803004920482635 0.43534660339355469 0.099876314401626587
0.15234479308128357 0.44849100708961487 0.09120737761259079
0.29216295480728149 0.4622759222984314 0.10230392962694168
0.43405821919441223 0.47174012660980225 0.1388830840587616
0.54306662082672119 0.47378048300743103 0.17889271676540375
0.62155014276504517 0.4730231761932373 0.20873114466667175
0.68037152290344238 0.48729941248893738 0.2283400297164917
0.71932649612426758 0.50854307413101196 0.23197996616363525
0.74273347854614258 0.51555919647216797 0.23194119334220886
0.76263821125030518 0.51214176416397095 0.23401777446269989
0.78588169813156128 0.5055844783782959 0.23755720257759094
0.055000904947519302 0.49696409702301025 0.11239194869995117
0.058647572994232178 0.49873489141464233 0.11246155202388763
0.081026159226894379 0.5010496973991394 0.1108163595199585
0.15237781405448914 0.50676476955413818 0.10567190498113632
0.27426925301551819 0.51811087131500244 0.10669185966253281
0.40830951929092407 0.53651732206344604 0.12326929718255997
0.52361702919006348 0.55665081739425659 0.14955618977546692
0.61287868022918701 0.56227403879165649 0.18317274749279022
0.68100124597549438 0.55815339088439941 0.22242215275764465
0.72470551729202271 0.56617063283920288 0.23615670204162598
0.74752336740493774 0.56855964660644531 0.23445482552051544
0.7656857967376709 0.5622711181640625 0.23421487212181091
0.78914964199066162 0.55561238527297974 0.23727130889892578
0.065448805689811707 0.55703538656234741 0.13421082496643066
0.075219951570034027 0.56077700853347778 0.13092412054538727
0.10257946699857712 0.56197977066040039 0.12651276588439941
0.16361634433269501 0.56580269336700439 0.11901714652776718
0.26200023293495178 0.57388412952423096 0.1126483678817749
0.3790631890296936 0.59113931655883789 0.1124393418431282
0.49170169234275818 0.62112283706665039 0.11873248219490051
0.58836185932159424 0.65312999486923218 0.14298638701438904
0.66844218969345093 0.65240031480789185 0.19564811885356903
0.72508019208908081 0.63982832431793213 0.23532888293266296
0.75313884019851685 0.62761062383651733 0.24549776315689087
0.77006310224533081 0.61777383089065552 0.24275524914264679
0.79372227191925049 0.61260652542114258 0.24324904382228851
0.069191858172416687 0.62936508655548096 0.13426145911216736
0.079848542809486389 0.63461601734161377 0.13051755726337433
0.10779868066310883 0.63500392436981201 0.1294698566198349
0.16081023216247559 0.63706380128860474 0.12647093832492828
0.24266298115253448 0.64509105682373047 0.12153594195842743
0.34770765900611877 0.66038471460342407 0.11745439469814301
0.45684003829956055 0.68631118535995483 0.11481282860040665
0.55213755369186401 0.7188534140586853 0.12268180400133133
0.63139623403549194 0.73187565803527832 0.15061052143573761
0.70163345336914062 0.72372102737426758 0.19689340889453888
0.75227934122085571 0.70562165975570679 0.24082866311073303
0.77482002973556519 0.69246375560760498 0.24770632386207581
0.79792177677154541 0.6870725154876709 0.24776151776313782
0.071879655122756958 0.69606941938400269 0.12560148537158966
0.079448670148849487 0.70252853631973267 0.12353549897670746
0.098993562161922455 0.70244711637496948 0.12773604691028595
0.13821160793304443 0.70492124557495117 0.13066984713077545
0.20817269384860992 0.71382015943527222 0.13053447008132935
0.31109482049942017 0.72966629266738892 0.12985436618328094
0.42563501000404358 0.75120854377746582 0.12784233689308167
0.52198410034179688 0.77054977416992188 0.12433283030986786
0.59446287155151367 0.78404331207275391 0.12316210567951202
0.66374027729034424 0.78999984264373779 0.14250671863555908
0.73166424036026001 0.78012627363204956 0.19490180909633636
0.76974713802337646 0.77134203910827637 0.22257670760154724
0.79509431123733521 0.76938104629516602 0.23269359767436981
0.076633289456367493 0.74239194393157959 0.12559369206428528
0.084174931049346924 0.74621409177780151 0.12911207973957062
0.089773781597614288 0.74884712696075439 0.1333094984292984
0.11028092354536057 0.75379884243011475 0.13623508810997009
0.16804908215999603 0.76302051544189453 0.13747702538967133
0.27329495549201965 0.77762597799301147 0.13853783905506134
0.40009394288063049 0.79323339462280273 0.13784134387969971
0.50689280033111572 0.80450433492660522 0.13465388119220734
0.58211123943328857 0.8134084939956665 0.12955230474472046
0.6463770866394043 0.82254552841186523 0.12866169214248657
0.70868980884552002 0.82406866550445557 0.14684052765369415
0.75494706630706787 0.82365095615386963 0.17046085000038147
0.78613841533660889 0.82439577579498291 0.18646851181983948
0.075311966240406036 0.77930492162704468 0.12421917170286179
0.081036299467086792 0.78206014633178711 0.13061943650245667
0.081437580287456512 0.78533178567886353 0.13503596186637878
0.093970715999603271 0.79040640592575073 0.13727672398090363
0.14570075273513794 0.79812705516815186 0.13810235261917114
0.2503775954246521 0.80935287475585938 0.13883788883686066
0.38326787948608398 0.82078498601913452 0.13913556933403015
0.49833905696868896 0.82881391048431396 0.1383272260427475
0.57798665761947632 0.83502840995788574 0.13697746396064758
0.6394273042678833 0.84266698360443115 0.12906095385551453
0.69489073753356934 0.84919852018356323 0.12253395467996597
0.74005621671676636 0.85455453395843506 0.12785990536212921
0.77499377727508545 0.85885179042816162 0.13765127956867218
0.019034979864954948 0.032586250454187393 0.16973771154880524
0.049100898206233978 0.038178328424692154 0.16978515684604645
0.157347172498703 0.030469199642539024 0.16436600685119629
0.25570002198219299 0.039215642958879471 0.16877779364585876
0.34382268786430359 0.049541279673576355 0.18338727951049805
0.43351113796234131 0.064886890351772308 0.20632900297641754
0.52171754837036133 0.095739401876926422 0.23543260991573334
0.59485268592834473 0.14065565168857574 0.26351761817932129
0.64220672845840454 0.15641579031944275 0.27990779280662537
0.67200678586959839 0.15763998031616211 0.2853645384311676
0.69672286510467529 0.15826933085918427 0.28621917963027954
0.72375190258026123 0.15882022678852081 0.28860455751419067
0.75542604923248291 0.15554705262184143 0.29583153128623962
0.022461850196123123 0.07669232040643692 0.17321765422821045
0.042287357151508331 0.080449514091014862 0.17193937301635742
0.14025609195232391 0.09688810259103775 0.16710256040096283
0.2413705438375473 0.11394165456295013 0.16773092746734619
0.32605910301208496 0.12159831076860428 0.1789516806602478
0.42066076397895813 0.1404678076505661 0.20191919803619385
0.51360821723937988 0.1607363373041153 0.23379664123058319
0.59069883823394775 0.18455536663532257 0.2647518515586853
0.64202201366424561 0.19457155466079712 0.28376311063766479
0.67394286394119263 0.19801430404186249 0.2907901406288147
0.6993834376335144 0.20143121480941772 0.29176574945449829
0.72728919982910156 0.20391060411930084 0.29370525479316711
0.75955468416213989 0.19965982437133789 0.29994559288024902
0.021802222356200218 0.12415415793657303 0.17242084443569183
0.026775060221552849 0.12674155831336975 0.17254731059074402
0.10327491164207458 0.14215727150440216 0.1672588586807251
0.22276641428470612 0.15550006926059723 0.16446398198604584
0.31722730398178101 0.1631050705909729 0.17204104363918304
0.41462752223014832 0.1768699437379837 0.19170704483985901
0.50805497169494629 0.19448830187320709 0.2257484644651413
0.58661955595016479 0.21528215706348419 0.25873848795890808
0.64252603054046631 0.2309926301240921 0.28069272637367249
0.67792248725891113 0.24076032638549805 0.29054099321365356
0.70430487394332886 0.24533364176750183 0.29366916418075562
0.73304378986358643 0.24659374356269836 0.29667997360229492
0.7657349705696106 0.24398188292980194 0.3017747700214386
0.023573452606797218 0.1979173868894577 0.15169733762741089
0.018028050661087036 0.20138327777385712 0.15262173116207123
0.065393321216106415 0.2129879891872406 0.14616112411022186
0.20611047744750977 0.21863117814064026 0.14736102521419525
0.32631123065948486 0.22128044068813324 0.16577605903148651
0.42198640108108521 0.22970828413963318 0.18569354712963104
0.51288026571273804 0.24908767640590668 0.21635812520980835
0.59167057275772095 0.2746250331401825 0.24674887955188751
0.65083199739456177 0.29740235209465027 0.26990938186645508
0.68820351362228394 0.30856716632843018 0.28240016102790833
0.71396422386169434 0.30900278687477112 0.28780773282051086
0.74161702394485474 0.30807110667228699 0.29110237956047058
0.77254462242126465 0.30392348766326904 0.29459002614021301
0.033209078013896942 0.28126317262649536 0.13784004747867584
0.033754058182239532 0.28184288740158081 0.13230392336845398
0.065668679773807526 0.29307806491851807 0.11914843320846558
0.18443939089775085 0.30270016193389893 0.11598802357912064
0.32724878191947937 0.29324772953987122 0.14779244363307953
0.4388582706451416 0.29166537523269653 0.18239487707614899
