assets/lut/editingcorpw Soft Sparkle.cube
LUT_3D_SIZE 16
DOMAIN_MIN 0.0 0.0 0.0
DOMAIN_MAX 1.0 1.0 1.0
0.100374 0.108125 0.113375
0.100374 0.108125 0.113375
0.112776 0.109236 0.115853
0.218955 0.116396 0.139358
0.305913 0.129329 0.147390
0.391699 0.150546 0.141268
0.480299 0.173953 0.125533
0.561029 0.201150 0.127517
0.640693 0.227445 0.156173
0.725966 0.252238 0.183352
0.811093 0.276066 0.209995
0.894426 0.302275 0.236167
0.978826 0.335046 0.263096
1.000000 0.374988 0.290288
1.000000 0.419238 0.319134
1.000000 0.476448 0.362341
0.100374 0.108125 0.113375
0.100374 0.108125 0.113375
0.118377 0.109722 0.116984
0.215893 0.121539 0.138315
0.297187 0.141363 0.145216
0.383087 0.160501 0.139675
0.469527 0.181585 0.124518
0.550015 0.206176 0.128668
0.629151 0.231544 0.156814
0.715028 0.255537 0.183707
0.802994 0.279167 0.209952
0.889325 0.305356 0.236391
0.973805 0.336951 0.262715
1.000000 0.375157 0.288845
1.000000 0.417823 0.316648
1.000000 0.476191 0.360467
0.105922 0.145181 0.126589
0.106423 0.148890 0.127995
0.148702 0.156582 0.130447
0.213291 0.167319 0.133104
0.294468 0.183239 0.136132
0.382519 0.200082 0.127889
0.464063 0.216105 0.124731
0.542172 0.235122 0.145092
0.621413 0.256005 0.169366
0.706914 0.276950 0.193559
0.794345 0.297838 0.216922
0.880429 0.321160 0.241034
0.967381 0.351247 0.266236
1.000000 0.388695 0.291962
1.000000 0.430573 0.319888
1.000000 0.484254 0.360845
0.132271 0.211295 0.149270
0.147412 0.214079 0.150758
0.188316 0.215719 0.154885
0.235862 0.229257 0.143209
0.283817 0.228995 0.138323
0.358453 0.241446 0.142403
0.432699 0.254109 0.148144
0.510753 0.269644 0.164215
0.590384 0.287068 0.184065
0.675914 0.305618 0.204830
0.767642 0.325060 0.225773
0.859403 0.346694 0.247680
0.949593 0.373938 0.270490
1.000000 0.407587 0.293674
1.000000 0.445932 0.319446
1.000000 0.498863 0.360748
0.193448 0.287870 0.196676
0.207182 0.294256 0.201504
0.236252 0.292485 0.204350
0.275908 0.292534 0.204657
0.314938 0.298003 0.187205
0.344445 0.285954 0.174374
0.413304 0.295360 0.178137
0.484972 0.307852 0.188715
0.558522 0.322398 0.201797
0.643267 0.339771 0.218980
0.735128 0.358111 0.236735
0.830000 0.378350 0.255697
0.926288 0.404568 0.276298
1.000000 0.437531 0.298380
1.000000 0.474262 0.323275
1.000000 0.520018 0.360101
0.236759 0.337987 0.235904
0.252262 0.350072 0.245182
0.272361 0.347594 0.246256
0.305913 0.344189 0.249186
0.338341 0.344847 0.241947
0.374273 0.348455 0.223545
0.394189 0.332208 0.208469
0.456294 0.340203 0.211594
0.528435 0.354138 0.221830
0.604578 0.369634 0.232895
0.688502 0.386877 0.244572
0.789847 0.409558 0.261991
0.891892 0.435944 0.280412
0.985003 0.467115 0.300017
1.000000 0.501533 0.322411
1.000000 0.546715 0.358801
0.286265 0.396497 0.280437
0.304848 0.413641 0.293282
0.318960 0.410175 0.292854
0.344374 0.405117 0.293157
0.378759 0.400348 0.295749
0.403851 0.400470 0.280894
0.435030 0.400630 0.261213
0.452100 0.383513 0.243394
0.499347 0.383203 0.239931
0.574862 0.400000 0.249852
0.657826 0.418006 0.259837
0.751316 0.439773 0.270468
0.850572 0.465748 0.283048
0.953779 0.499661 0.301469
1.000000 0.535763 0.323137
1.000000 0.577404 0.356530
0.328563 0.449647 0.315886
0.345717 0.467431 0.327095
0.356964 0.464478 0.326780
0.378630 0.460586 0.327288
0.409851 0.457396 0.329668
0.442957 0.455329 0.329204
0.467144 0.455398 0.312746
0.495745 0.453514 0.292787
0.509940 0.434786 0.273929
0.540589 0.423728 0.263034
0.622266 0.444239 0.272203
0.718772 0.470079 0.281957
0.820313 0.498373 0.292552
0.918173 0.529096 0.303889
0.997387 0.559811 0.316399
1.000000 0.601886 0.345641
0.368341 0.504631 0.346471
0.381272 0.519244 0.354488
0.391056 0.517175 0.354418
0.410386 0.514760 0.355362
0.438891 0.512724 0.357579
0.474775 0.511247 0.361370
0.504688 0.511191 0.355578
0.530403 0.511167 0.338821
0.559861 0.509162 0.319120
0.574156 0.490317 0.300802
0.594507 0.471607 0.285710
0.684163 0.496716 0.291339
0.789969 0.529877 0.301351
0.895649 0.565980 0.312500
0.986391 0.600930 0.324731
1.000000 0.640394 0.347546
0.411121 0.570538 0.377264
0.423321 0.584864 0.384194
0.431445 0.582081 0.383820
0.449481 0.580305 0.384694
0.477605 0.580113 0.387334
0.513555 0.579871 0.391009
0.554786 0.579067 0.395333
0.579242 0.577599 0.382176
0.603685 0.574499 0.363150
0.632158 0.570393 0.341771
0.647596 0.551922 0.323326
0.666849 0.531580 0.307489
0.753563 0.555215 0.306949
0.860059 0.592657 0.316179
0.951315 0.625366 0.324780
1.000000 0.666828 0.344604
0.460426 0.644526 0.409216
0.468000 0.651264 0.412842
0.475819 0.649348 0.412634
0.493733 0.649030 0.414075
0.521465 0.649964 0.417066
0.557977 0.651728 0.421485
0.601435 0.653755 0.427313
0.644605 0.655219 0.430127
0.669355 0.655433 0.412946
0.696528 0.653187 0.392206
0.726192 0.649165 0.368597
0.741811 0.630219 0.348058
0.760818 0.608862 0.330120
0.838505 0.628125 0.321526
0.940392 0.669794 0.332061
1.000000 0.717006 0.356939
0.514867 0.715425 0.442231
0.525637 0.724525 0.448134
0.529176 0.719331 0.445607
0.545928 0.719449 0.447271
0.575543 0.723892 0.452700
0.612867 0.728225 0.459248
0.655084 0.730785 0.465940
0.698585 0.730608 0.471838
0.731006 0.728665 0.465377
0.754007 0.726855 0.443864
0.783072 0.726448 0.421064
0.815979 0.726079 0.395908
0.833540 0.709398 0.372112
0.850915 0.687056 0.348052
0.904449 0.691022 0.328054
1.000000 0.745772 0.351641
0.611865 0.813688 0.509904
0.621821 0.820040 0.517116
0.621447 0.813862 0.511297
0.631076 0.809610 0.508813
0.651954 0.808309 0.510659
0.684413 0.810733 0.517821
0.725833 0.815994 0.529994
0.770104 0.820692 0.543348
0.813593 0.823348 0.555866
0.839511 0.824006 0.540811
0.862907 0.823825 0.513628
0.890307 0.824011 0.483866
0.920863 0.824365 0.451621
0.937691 0.808575 0.418028
0.958890 0.791754 0.384953
1.000000 0.805856 0.372558
0.686262 0.876640 0.581249
0.690774 0.878583 0.585182
0.689568 0.873803 0.577598
0.699302 0.872137 0.577088
0.720053 0.873755 0.583830
0.748013 0.876420 0.594342
0.780055 0.878829 0.606481
0.813665 0.880088 0.618110
0.848037 0.880662 0.630025
0.882281 0.882071 0.642602
0.903905 0.885472 0.624225
0.928148 0.889080 0.601036
0.954411 0.891595 0.571028
0.981201 0.891556 0.531020
0.996741 0.878761 0.488035
1.000000 0.879679 0.472724
0.799539 0.944384 0.748898
0.809216 0.947932 0.764138
0.808967 0.946286 0.758711
0.812994 0.944761 0.755475
0.822692 0.943875 0.756687
0.837552 0.943523 0.761947
0.856353 0.943606 0.770547
0.877108 0.943581 0.780018
0.898883 0.943415 0.790060
0.921138 0.943329 0.800968
0.940587 0.944226 0.804947
0.955681 0.946927 0.789707
0.973692 0.949709 0.770355
0.994247 0.951552 0.741634
1.000000 0.951767 0.700004
1.000000 0.946471 0.671644
0.875486 0.976959 0.868650
0.879368 0.978003 0.873356
0.879588 0.977386 0.871623
0.882804 0.977032 0.871831
0.889317 0.977014 0.874339
0.898009 0.976959 0.877775
0.908434 0.976825 0.881565
0.920427 0.976569 0.885698
0.933935 0.976330 0.890568
0.948797 0.976428 0.896818
0.964355 0.976959 0.904509
0.974328 0.979223 0.900597
0.985248 0.981842 0.893022
0.998242 0.984356 0.882481
1.000000 0.986786 0.869187
1.000000 0.987091 0.858793
0.100374 0.108125 0.113375
0.100374 0.108125 0.113375
0.111408 0.109148 0.115528
0.216824 0.116320 0.138904
0.302517 0.131752 0.146921
0.387756 0.154434 0.140731
0.472886 0.178555 0.131589
0.550743 0.204664 0.150776
0.627174 0.229874 0.173977
0.708309 0.252972 0.196612
0.792544 0.275578 0.219016
0.877496 0.300416 0.242338
0.964831 0.331852 0.267352
1.000000 0.370671 0.292910
1.000000 0.414442 0.320249
1.000000 0.467347 0.358032
0.100374 0.108125 0.113375
0.100374 0.108125 0.113375
0.116246 0.109762 0.116586
0.213524 0.120597 0.137936
0.293952 0.142547 0.144797
0.378812 0.163666 0.139406
0.461327 0.185321 0.133627
0.538661 0.208839 0.151005
0.616937 0.233610 0.174064
0.700212 0.256635 0.196965
0.786803 0.279105 0.219458
0.873917 0.303759 0.242895
0.960348 0.333960 0.267117
1.000000 0.370308 0.291010
1.000000 0.410237 0.315794
1.000000 0.466711 0.355961
0.105616 0.144479 0.126247
0.106647 0.148247 0.127877
0.150598 0.155812 0.129202
0.215090 0.167310 0.133318
0.294532 0.184533 0.136861
0.378635 0.202115 0.139288
0.457919 0.218530 0.147981
0.535468 0.237391 0.164424
0.611765 0.257228 0.184599
0.694043 0.277024 0.205095
0.780467 0.297118 0.225579
0.867747 0.319797 0.247434
0.957140 0.349120 0.271145
1.000000 0.385834 0.295516
1.000000 0.427527 0.322128
1.000000 0.479031 0.359856
0.137329 0.210141 0.155034
0.150997 0.213491 0.158371
0.187948 0.215258 0.163836
0.232574 0.227677 0.156726
0.280959 0.228936 0.153554
0.354500 0.241821 0.158044
0.428038 0.254625 0.163572
0.505246 0.269994 0.177882
0.582558 0.286864 0.195551
0.665459 0.304489 0.213827
0.755958 0.323441 0.232646
0.848234 0.344708 0.253186
0.939569 0.371111 0.274560
1.000000 0.403563 0.296184
1.000000 0.439752 0.319387
1.000000 0.492863 0.358976
0.196225 0.288652 0.207293
0.209174 0.294993 0.212320
0.237380 0.293227 0.214854
0.275646 0.292483 0.215039
0.312592 0.296967 0.197796
0.342190 0.285434 0.184704
0.410489 0.295103 0.188348
0.481016 0.307324 0.197727
0.553117 0.321280 0.209586
0.635697 0.338005 0.225674
0.726172 0.355967 0.242279
0.821693 0.376307 0.260324
0.919543 0.402562 0.280423
0.998604 0.435357 0.301789
1.000000 0.472292 0.325923
1.000000 0.517977 0.361635
0.239042 0.339659 0.243790
0.254337 0.351353 0.253133
0.273848 0.348633 0.253829
0.306443 0.344848 0.256039
0.337974 0.344845 0.248918
0.372180 0.347491 0.230362
0.391184 0.330655 0.214559
0.452742 0.338656 0.217210
0.523335 0.351983 0.226616
0.598013 0.367082 0.236987
0.681385 0.384253 0.248454
0.782770 0.407079 0.265689
0.884934 0.433154 0.283549
0.978186 0.463498 0.302223
1.000000 0.495011 0.321975
1.000000 0.543279 0.359063
0.288048 0.397908 0.286069
0.305593 0.413924 0.298023
0.319612 0.410645 0.297649
0.344720 0.405485 0.297843
0.378505 0.400462 0.299869
0.403202 0.400135 0.285317
0.433972 0.400086 0.265729
0.450508 0.382726 0.247728
0.497419 0.382318 0.243976
0.571433 0.398458 0.253420
0.653056 0.416049 0.263050
0.746764 0.437881 0.273585
0.847077 0.464326 0.286236
0.950880 0.498208 0.304445
1.000000 0.534640 0.325861
1.000000 0.577430 0.359490
0.330100 0.451205 0.320090
0.347146 0.468970 0.331311
0.358550 0.466234 0.331086
0.379969 0.462168 0.331316
0.410654 0.458447 0.333278
0.443002 0.455396 0.332403
0.465679 0.454187 0.315318
0.493045 0.451437 0.295082
0.506626 0.432455 0.276175
0.537899 0.422063 0.265516
0.618987 0.442546 0.274680
0.715088 0.468244 0.284352
0.816129 0.496139 0.294698
0.913207 0.526070 0.305531
0.993750 0.554680 0.316733
1.000000 0.600236 0.347286
0.370308 0.507418 0.350404
0.384353 0.523418 0.359086
0.394443 0.521818 0.359336
0.413712 0.519128 0.360013
0.442055 0.516695 0.362009
0.477768 0.514745 0.365496
0.507464 0.513988 0.359536
0.531884 0.512656 0.342190
0.559530 0.509065 0.321793
0.572487 0.489238 0.303070
0.592837 0.470583 0.287911
0.682651 0.495919 0.293679
0.788693 0.529258 0.303678
0.894405 0.565298 0.314804
0.985754 0.600590 0.327158
1.000000 0.643067 0.351982
0.412997 0.573288 0.380601
0.427151 0.590475 0.388897
0.435959 0.588527 0.388886
0.453982 0.586299 0.389554
0.481531 0.585023 0.391674
0.516554 0.583344 0.394643
0.556253 0.580777 0.398051
0.579453 0.577892 0.384441
0.602968 0.573923 0.365051
0.630966 0.569492 0.343647
0.646224 0.551090 0.325209
0.665522 0.530720 0.309257
0.751809 0.554119 0.308782
0.855530 0.589452 0.317223
0.948551 0.623194 0.326008
1.000000 0.668603 0.348028
0.464173 0.649457 0.413422
0.474186 0.658796 0.418523
0.482708 0.657726 0.418727
0.500512 0.657101 0.419995
0.527995 0.657425 0.422754
0.564287 0.658473 0.426905
0.607207 0.659515 0.432175
0.649085 0.659270 0.434282
0.671400 0.657268 0.415758
0.696804 0.653455 0.394222
0.725551 0.648731 0.370300
0.741045 0.629726 0.349768
0.760292 0.608549 0.331912
0.838405 0.628091 0.323515
0.941917 0.671159 0.334582
1.000000 0.721193 0.362121
0.521620 0.722707 0.448304
0.538307 0.737465 0.458225
0.545150 0.735601 0.457820
0.561506 0.735055 0.459096
0.588046 0.736094 0.462554
0.621824 0.736696 0.466809
0.660790 0.736248 0.471483
0.702809 0.734629 0.476420
0.734009 0.731419 0.469141
0.756080 0.728766 0.446890
0.784535 0.727860 0.423637
0.816206 0.726448 0.397848
0.832179 0.708287 0.373373
0.848819 0.685326 0.349055
0.904290 0.690899 0.329689
1.000000 0.748548 0.355367
0.621229 0.821069 0.519672
0.633234 0.828852 0.529179
0.636702 0.825726 0.526476
0.647301 0.822561 0.524899
0.667387 0.820812 0.526283
0.698573 0.822384 0.532979
0.736292 0.824935 0.542520
0.776261 0.826297 0.552188
0.816442 0.826205 0.561296
0.840820 0.825341 0.544405
0.863387 0.824449 0.516170
0.890681 0.824501 0.486204
0.921120 0.824764 0.453706
0.937992 0.809001 0.420053
0.960575 0.793596 0.387861
1.000000 0.809603 0.377611
0.693970 0.881730 0.592249
0.704305 0.887215 0.603688
0.705681 0.884340 0.599093
0.714648 0.882494 0.597995
0.732509 0.882394 0.601961
0.757252 0.883145 0.609246
0.786262 0.883668 0.617970
0.817672 0.883600 0.627063
0.850695 0.883350 0.637258
0.884265 0.884273 0.649234
0.905373 0.887289 0.630084
0.928919 0.890183 0.605393
0.954473 0.891892 0.573416
0.980954 0.891421 0.532288
0.996916 0.878972 0.489845
1.000000 0.880483 0.475721
0.804388 0.946387 0.758277
0.814104 0.949875 0.773489
0.815463 0.948940 0.771020
0.820209 0.947848 0.769475
0.829593 0.947031 0.770761
0.843309 0.946441 0.774790
0.860486 0.945977 0.780984
0.879571 0.945263 0.787471
0.899964 0.944385 0.794507
0.921442 0.943801 0.803429
0.940717 0.944451 0.806851
0.955671 0.947091 0.791452
0.973627 0.949842 0.772034
0.994117 0.951709 0.743527
1.000000 0.952267 0.703644
1.000000 0.947630 0.678426
0.877653 0.977630 0.872007
0.882775 0.979034 0.878240
0.883665 0.978665 0.877494
0.886672 0.978295 0.877568
0.892386 0.978045 0.879112
0.900212 0.977783 0.881456
0.909892 0.977434 0.884312
0.921371 0.977044 0.887794
0.934600 0.976743 0.892304
0.949260 0.976799 0.898332
0.964685 0.977325 0.905797
0.974529 0.979466 0.901761
0.985281 0.981952 0.893830
0.998206 0.984356 0.882930
1.000000 0.986786 0.869608
1.000000 0.987152 0.859476
0.100703 0.112209 0.127633
0.100691 0.112434 0.128339
0.131541 0.111664 0.136242
0.224821 0.114722 0.157356
0.300942 0.141035 0.172140
0.378234 0.174533 0.189334
0.457407 0.198804 0.200675
0.536376 0.222065 0.213791
0.613878 0.244830 0.228633
0.697428 0.266233 0.243936
0.785006 0.287334 0.259971
0.873048 0.310958 0.277578
0.962450 0.341028 0.297418
1.000000 0.378834 0.318718
1.000000 0.421780 0.342581
1.000000 0.474787 0.378057
0.100899 0.111854 0.126093
0.100810 0.112946 0.130011
0.135263 0.111748 0.137966
0.219380 0.123483 0.158468
0.290682 0.154302 0.173628
0.368928 0.181691 0.189049
0.447602 0.202675 0.198816
0.526108 0.224675 0.211356
0.605958 0.247720 0.227333
0.690039 0.268983 0.243019
0.779568 0.290205 0.259378
0.869257 0.313742 0.277464
0.957484 0.342567 0.296483
1.000000 0.377871 0.316310
1.000000 0.416701 0.337422
1.000000 0.473675 0.375514
0.072395 0.147167 0.151924
0.094415 0.150258 0.153958
0.150308 0.157224 0.160046
0.213450 0.173930 0.171995
0.289530 0.194480 0.186436
0.368189 0.212786 0.197078
0.446387 0.229696 0.205901
0.523529 0.248283 0.218236
0.601244 0.267750 0.232582
0.685280 0.286788 0.247511
0.774186 0.306276 0.262876
0.864092 0.328413 0.280058
0.955206 0.356979 0.299370
1.000000 0.393039 0.320040
1.000000 0.434097 0.343561
1.000000 0.485933 0.379305
0.126550 0.212393 0.179640
0.145163 0.215790 0.187041
0.185100 0.217721 0.195619
0.225592 0.226158 0.193503
0.277602 0.232607 0.194447
0.348073 0.246271 0.201002
0.421798 0.260129 0.208549
0.498809 0.276361 0.221121
0.576034 0.293275 0.235147
0.659841 0.311064 0.249781
0.751821 0.330046 0.265313
0.845616 0.351110 0.282128
0.937948 0.377221 0.300080
1.000000 0.409273 0.318799
1.000000 0.444987 0.339318
1.000000 0.498736 0.377373
0.197874 0.287577 0.235123
0.210477 0.293952 0.241102
0.235782 0.292177 0.242271
0.271897 0.290446 0.243221
0.305373 0.294304 0.228347
0.338244 0.286325 0.216515
0.406005 0.297230 0.221400
0.475904 0.310056 0.229455
0.549613 0.324873 0.240585
0.632723 0.342017 0.254899
0.724086 0.360292 0.269397
0.820820 0.381032 0.285376
0.919354 0.407379 0.303163
0.998619 0.440072 0.322402
1.000000 0.476856 0.344615
1.000000 0.522892 0.378919
0.239756 0.337755 0.264134
0.254526 0.349021 0.273831
0.272731 0.346691 0.274080
0.303462 0.343508 0.275545
0.334986 0.343124 0.270578
0.367272 0.345605 0.253190
0.387995 0.330850 0.237607
0.451042 0.340387 0.241046
0.521001 0.353959 0.249628
0.595712 0.369325 0.259132
0.681770 0.387579 0.270579
0.783395 0.410423 0.286370
0.885531 0.436575 0.302926
0.978720 0.466880 0.320218
1.000000 0.498423 0.338566
1.000000 0.547649 0.375427
0.287713 0.395980 0.300801
0.304448 0.411165 0.312355
0.317873 0.408082 0.311777
0.342302 0.403480 0.311651
0.375423 0.399154 0.313269
0.400636 0.398633 0.301043
0.430285 0.398575 0.282485
0.446955 0.381828 0.265032
0.497007 0.383883 0.262056
0.570643 0.400024 0.270836
0.652506 0.417846 0.279951
0.746769 0.440002 0.289875
0.848848 0.467106 0.302596
0.952521 0.501101 0.320373
1.000000 0.537425 0.341011
1.000000 0.579847 0.373583
0.329710 0.450007 0.331251
0.346146 0.467105 0.342345
0.357454 0.464686 0.342101
0.378618 0.460990 0.342301
0.408873 0.457604 0.343965
0.442021 0.454466 0.344179
0.463748 0.453117 0.327362
0.490362 0.450210 0.307650
0.503464 0.431228 0.289193
0.538351 0.423535 0.279342
0.619883 0.444337 0.288357
0.715994 0.470004 0.297794
0.816791 0.497848 0.307819
0.913695 0.527654 0.318213
0.994173 0.556706 0.329572
1.000000 0.603247 0.360888
0.370286 0.507183 0.359726
0.383871 0.522809 0.368392
0.393842 0.521021 0.368472
0.412858 0.518463 0.369021
0.441094 0.516395 0.370992
0.476599 0.514663 0.374236
0.507112 0.513726 0.369367
0.530733 0.512149 0.352156
0.557555 0.508175 0.331994
0.570166 0.488251 0.313374
0.592874 0.471378 0.298451
0.684380 0.497789 0.304985
0.790356 0.531067 0.315004
0.895713 0.566983 0.326106
0.986269 0.601819 0.338070
1.000000 0.643758 0.362370
0.412910 0.573495 0.388693
0.427051 0.590511 0.397100
0.435873 0.588685 0.397099
0.453708 0.586534 0.397662
0.481144 0.585197 0.399607
0.515689 0.583304 0.402299
0.555001 0.580558 0.405453
0.578816 0.577402 0.392767
0.601858 0.573351 0.373490
0.629602 0.568964 0.352388
0.644957 0.550716 0.334121
0.665433 0.531113 0.317876
0.753638 0.555795 0.318366
0.856777 0.590750 0.326773
0.949847 0.624619 0.335609
1.000000 0.670014 0.357774
0.464252 0.649940 0.420844
0.474448 0.659594 0.426132
0.482744 0.658265 0.426236
0.500453 0.657623 0.427454
0.528257 0.658338 0.430290
0.564605 0.659504 0.434455
0.607189 0.660382 0.439531
0.649739 0.659785 0.442314
0.671145 0.657238 0.423511
0.695950 0.653114 0.401938
0.724648 0.648469 0.378051
0.740198 0.629501 0.357620
0.760093 0.608688 0.339626
0.840337 0.629770 0.332041
0.943058 0.672300 0.343308
1.000000 0.721639 0.370708
0.522626 0.724349 0.455960
0.539255 0.738902 0.466059
0.546323 0.737283 0.465741
0.562529 0.736545 0.466883
0.588577 0.737229 0.470044
0.622000 0.737507 0.474015
0.660425 0.736693 0.478346
0.702061 0.734846 0.483009
0.733977 0.731461 0.476559
0.756041 0.728969 0.454203
0.784636 0.728312 0.431041
0.816026 0.726701 0.405115
0.831481 0.708074 0.380348
0.848261 0.685052 0.355749
0.905678 0.692081 0.336994
1.000000 0.749769 0.363508
0.619458 0.820178 0.525437
0.631685 0.828117 0.535155
0.634827 0.824821 0.532185
0.645753 0.821902 0.530822
0.667329 0.821331 0.533549
0.699594 0.823872 0.541452
0.737146 0.826383 0.550984
0.776235 0.827142 0.559729
0.815856 0.826677 0.568230
0.840640 0.825521 0.552199
0.863084 0.824614 0.523849
0.890418 0.824805 0.493815
0.920726 0.824943 0.460964
0.937453 0.808931 0.426765
0.959945 0.793208 0.394064
1.000000 0.809368 0.383364
0.693789 0.882167 0.599039
0.704190 0.887709 0.610709
0.705704 0.884965 0.606307
0.714767 0.883191 0.605297
0.732696 0.883189 0.609372
0.757361 0.883945 0.616700
0.786199 0.884409 0.625185
0.817293 0.884124 0.633747
0.850175 0.883829 0.643717
0.883951 0.884805 0.656236
0.905328 0.887854 0.638137
0.928620 0.890633 0.613112
0.953956 0.892102 0.580509
0.980347 0.891443 0.538859
0.996639 0.878955 0.496122
1.000000 0.880619 0.481993
0.803312 0.946100 0.761441
0.813000 0.949534 0.776282
0.814414 0.948614 0.773909
0.819368 0.947633 0.772774
0.829126 0.946982 0.774720
0.843109 0.946535 0.779191
0.860227 0.946102 0.785273
0.879154 0.945325 0.791397
0.899385 0.944401 0.797985
0.920861 0.943845 0.806796
0.940511 0.944612 0.811548
0.955324 0.947270 0.796468
0.973072 0.949978 0.777130
0.993441 0.951786 0.748599
1.000000 0.952244 0.708635
1.000000 0.947468 0.682627
0.877653 0.977679 0.873985
0.882811 0.979065 0.880079
0.883725 0.978715 0.879405
0.886706 0.978338 0.879449
0.892341 0.978100 0.880918
0.900072 0.977813 0.883073
0.909691 0.977456 0.885810
0.921167 0.977075 0.889232
0.934374 0.976800 0.893699
0.949065 0.976898 0.899714
0.964483 0.977441 0.907115
0.974467 0.979549 0.903533
0.985112 0.982013 0.895632
0.997929 0.984399 0.884861
1.000000 0.986842 0.871761
1.000000 0.987225 0.861827
0.095461 0.134176 0.200107
0.095756 0.134448 0.201104
0.145526 0.127966 0.206338
0.220637 0.113732 0.214835
0.295462 0.137120 0.227126
0.377941 0.174563 0.242991
0.456797 0.211106 0.260304
0.530214 0.238332 0.274164
0.605160 0.263210 0.288227
0.690120 0.283000 0.299460
0.780172 0.302635 0.311156
0.871099 0.325419 0.324748
0.961885 0.354825 0.340706
1.000000 0.391802 0.358362
1.000000 0.434006 0.379010
1.000000 0.487861 0.412311
0.096697 0.132830 0.194909
0.099000 0.133794 0.200043
0.150186 0.126616 0.205412
0.217429 0.123164 0.212656
0.289178 0.152153 0.225971
0.370344 0.185341 0.242383
0.446456 0.216058 0.257829
0.520991 0.241758 0.272090
0.598399 0.265719 0.286564
0.683703 0.285099 0.297926
0.775784 0.305067 0.310292
0.867192 0.327621 0.323997
0.956480 0.355635 0.339171
1.000000 0.390108 0.355351
1.000000 0.427972 0.372829
1.000000 0.486189 0.409396
0.120159 0.160248 0.213154
0.132737 0.163064 0.214518
0.166010 0.167679 0.215874
0.217796 0.176799 0.221438
0.294430 0.201698 0.240414
0.369686 0.225709 0.255497
0.442477 0.244558 0.266198
0.516411 0.263819 0.277678
0.594558 0.282278 0.288733
0.679770 0.300375 0.299793
0.770663 0.319073 0.311482
0.862998 0.340930 0.325145
0.955161 0.369211 0.340985
1.000000 0.404785 0.358534
1.000000 0.445423 0.378993
1.000000 0.498135 0.412868
0.128255 0.214462 0.222865
0.140703 0.219120 0.227319
0.175793 0.224591 0.231491
0.225795 0.232321 0.238355
0.283115 0.242847 0.244215
0.349698 0.256582 0.253743
0.421184 0.270932 0.263170
0.495820 0.287006 0.274317
0.572694 0.303846 0.285802
0.657496 0.321475 0.297678
0.751044 0.340371 0.310356
0.845703 0.361340 0.324191
0.938361 0.387230 0.339123
1.000000 0.418976 0.355069
1.000000 0.454268 0.372769
1.000000 0.509656 0.409842
0.175040 0.289731 0.257341
0.188453 0.296212 0.264064
0.225831 0.294945 0.272049
0.268090 0.292606 0.277126
0.299478 0.294223 0.266620
0.339939 0.292221 0.259619
0.404492 0.302817 0.264554
0.473705 0.316095 0.272646
0.549628 0.332267 0.284785
0.632720 0.349480 0.297007
0.724934 0.367856 0.309372
0.822825 0.389064 0.323443
0.921641 0.415772 0.339299
0.999162 0.448485 0.356596
1.000000 0.485247 0.376815
1.000000 0.532214 0.409960
0.230875 0.338298 0.287120
0.248311 0.349071 0.299206
0.269994 0.346918 0.302187
0.299585 0.344088 0.302820
0.332581 0.342719 0.301339
0.361895 0.344756 0.285576
0.386215 0.333090 0.270815
0.451083 0.344772 0.276658
0.519985 0.358371 0.284309
0.594611 0.373902 0.292787
0.685841 0.393976 0.305699
0.787371 0.416906 0.320117
0.888819 0.443054 0.335197
0.981080 0.473386 0.351066
1.000000 0.504733 0.367932
1.000000 0.555621 0.404901
0.285953 0.395061 0.323386
0.301582 0.409279 0.334558
0.314423 0.406210 0.333531
0.338231 0.402038 0.333045
0.370545 0.398434 0.334106
0.397493 0.397443 0.325693
0.425540 0.397299 0.308402
0.442040 0.380928 0.291840
0.498248 0.387598 0.291193
0.571233 0.403629 0.299198
0.653296 0.421721 0.307700
0.748332 0.444216 0.317182
0.853960 0.472822 0.331339
0.956580 0.506955 0.348570
1.000000 0.542964 0.368433
1.000000 0.584953 0.399922
0.328309 0.449427 0.350064
0.344075 0.465751 0.361099
0.355118 0.463518 0.360741
0.375977 0.460124 0.360629
0.405709 0.456958 0.361806
0.440184 0.453664 0.363403
