assets/lut/editingcorpw Angelic Aura.cube
LUT_3D_SIZE 6
DOMAIN_MIN 0.0 0.0 0.0
DOMAIN_MAX 1.0 1.0 1.0
0.010723 0.010351 0.012765
0.133260 0.010562 0.007428
0.236103 0.000000 0.000000
0.432194 0.030698 0.014182
0.629674 0.051044 0.032447
0.825226 0.071191 0.042538
0.000000 0.088673 0.000000
0.118901 0.106607 0.000000
0.244329 0.106470 0.000000
0.430337 0.144111 0.002485
0.619702 0.159018 0.017770
0.804600 0.177853 0.026713
0.000000 0.237729 0.003121
0.098899 0.221703 0.000000
0.232454 0.203778 0.000000
0.405790 0.223955 0.000000
0.603026 0.270387 0.000000
0.785649 0.296755 0.008633
0.000000 0.372012 0.015579
0.092592 0.364277 0.003062
0.247196 0.384047 0.001014
0.421535 0.391085 0.003100
0.597670 0.377673 0.000177
0.779447 0.402053 0.003897
0.000000 0.474584 0.006846
0.095807 0.485621 0.000430
0.280130 0.534669 0.025810
0.456777 0.559974 0.043181
0.617075 0.569223 0.042278
0.786493 0.585617 0.043815
0.000000 0.597411 0.009753
0.135220 0.629172 0.015918
0.322527 0.677416 0.053925
0.486894 0.708574 0.078698
0.639746 0.724790 0.080598
0.795873 0.752712 0.089006
0.010923 0.028226 0.158174
0.147650 0.042533 0.168164
0.272665 0.042920 0.155797
0.447761 0.047957 0.164583
0.652802 0.081456 0.193011
0.847909 0.109342 0.207649
0.000000 0.140741 0.159804
0.143390 0.165150 0.175165
0.272411 0.150260 0.144964
0.456317 0.170730 0.153803
0.662967 0.207497 0.183244
0.844214 0.232805 0.197200
0.000000 0.280722 0.169150
0.129044 0.295752 0.181411
0.264227 0.265389 0.141906
0.441333 0.288566 0.139148
0.646732 0.317206 0.160900
0.825208 0.343195 0.175951
0.000000 0.394372 0.169630
0.120291 0.416430 0.186644
0.258357 0.403076 0.163787
0.436403 0.415550 0.154209
0.630609 0.437776 0.164185
0.821901 0.500025 0.189269
0.000000 0.501636 0.165474
0.112205 0.523281 0.183202
0.270835 0.536179 0.179609
0.462152 0.571676 0.191764
0.640122 0.595915 0.200566
0.813530 0.620591 0.213838
0.000000 0.624989 0.177770
0.149894 0.670573 0.212525
0.328605 0.696059 0.223010
0.504621 0.730116 0.242800
0.662298 0.750536 0.246905
0.812304 0.772753 0.250921
0.022934 0.054962 0.324877
0.148226 0.060175 0.328384
0.286076 0.068047 0.324343
0.449249 0.079080 0.332357
0.642337 0.105989 0.370468
0.842375 0.138428 0.390702
0.005917 0.186573 0.335014
0.148636 0.197924 0.350224
0.284577 0.198668 0.345374
0.442952 0.209935 0.331169
0.658711 0.249692 0.368054
0.859028 0.282001 0.385243
0.000000 0.300986 0.335012
0.134247 0.322166 0.354651
0.281646 0.336648 0.359622
0.449706 0.333312 0.326812
0.671929 0.374859 0.351144
0.865206 0.415859 0.378531
0.000000 0.413706 0.326939
0.120771 0.443637 0.347663
0.276054 0.464737 0.356602
0.440311 0.450137 0.322073
0.657832 0.488447 0.337350
0.862581 0.549186 0.381263
0.000000 0.530972 0.325584
0.118356 0.559446 0.346237
0.283571 0.583789 0.358412
0.450575 0.591183 0.348761
0.655529 0.628633 0.365540
0.835161 0.661924 0.390581
0.000000 0.656408 0.339144
0.139577 0.695636 0.370963
0.325366 0.719999 0.380963
0.491214 0.740325 0.387339
0.669989 0.774043 0.404856
0.821339 0.794097 0.415717
0.031094 0.072986 0.474833
0.170064 0.088303 0.492362
0.306857 0.101424 0.503341
0.464676 0.110971 0.499614
0.660385 0.132349 0.520740
0.861849 0.177042 0.564921
0.015018 0.204930 0.481986
0.172571 0.232986 0.517950
0.309972 0.238144 0.524204
0.463774 0.255019 0.520499
0.660153 0.279341 0.529637
0.879091 0.339596 0.583087
0.000000 0.311774 0.475113
0.152006 0.359810 0.517966
0.299254 0.370582 0.530021
0.456849 0.382374 0.529846
0.654571 0.408506 0.528302
0.888449 0.481737 0.583734
0.000000 0.437960 0.475550
0.133432 0.468328 0.510521
0.285402 0.487114 0.523597
0.440922 0.499013 0.521494
0.643820 0.509121 0.503583
0.874255 0.576843 0.547959
0.000000 0.559983 0.477370
0.137193 0.599361 0.515572
0.300584 0.631135 0.537143
0.452864 0.632217 0.522542
0.641058 0.636529 0.504303
0.847900 0.687525 0.533810
0.000000 0.692778 0.490651
0.153206 0.730327 0.527221
0.321025 0.756970 0.543934
0.486624 0.759773 0.533639
0.656396 0.782856 0.539939
0.830322 0.807498 0.547237
0.041407 0.093503 0.632332
0.184868 0.112455 0.652370
0.323042 0.126797 0.668385
0.490064 0.158851 0.700104
0.692868 0.191199 0.726097
0.902336 0.240581 0.751463
0.021595 0.217234 0.629139
0.181751 0.250680 0.668591
0.325629 0.261510 0.682006
0.494046 0.296910 0.708457
0.693711 0.340487 0.739717
0.906920 0.399706 0.765293
0.000000 0.329921 0.618079
0.156170 0.375733 0.663273
0.317650 0.396831 0.688465
0.488591 0.422752 0.703494
0.674698 0.459177 0.722307
0.892335 0.518170 0.748313
0.000000 0.452547 0.616260
0.141706 0.491865 0.659428
0.303005 0.521868 0.682925
0.475481 0.545625 0.695872
0.647976 0.561418 0.696650
0.866559 0.612329 0.716771
0.000000 0.593824 0.622214
0.155687 0.631738 0.667552
0.320233 0.655099 0.692025
0.469346 0.659186 0.686435
0.634389 0.666102 0.675234
0.850596 0.710112 0.688150
0.000000 0.729450 0.631649
0.184955 0.771272 0.681179
0.355886 0.800080 0.706974
0.490958 0.793611 0.691091
0.663649 0.809151 0.690331
0.847872 0.835279 0.697127
0.048549 0.105841 0.784253
0.190080 0.125861 0.803631
0.336431 0.145327 0.828013
0.521270 0.195763 0.886856
0.736324 0.255758 0.938900
0.942525 0.312671 0.971205
0.026662 0.224855 0.774253
0.187804 0.262349 0.816638
0.339865 0.279925 0.836416
0.525004 0.324104 0.877619
0.734916 0.391844 0.931724
0.928820 0.449324 0.964059
0.006055 0.353969 0.767210
0.163836 0.389274 0.809066
0.338536 0.420380 0.844388
0.524905 0.456943 0.869480
0.718597 0.509974 0.906754
0.904924 0.559044 0.933740
0.000000 0.469657 0.759209
0.153440 0.518598 0.804929
0.321499 0.545435 0.829240
0.519702 0.583682 0.857709
0.695629 0.612804 0.872424
0.879695 0.657726 0.896067
0.000000 0.614525 0.760604
0.167091 0.651101 0.806121
0.335019 0.672562 0.828404
0.511690 0.697782 0.841432
0.666319 0.707540 0.837778
0.855751 0.749011 0.861205
0.010806 0.758509 0.770887
0.202450 0.793825 0.818488
0.369833 0.811897 0.843488
0.522982 0.819329 0.844932
0.666036 0.822509 0.834617
0.854853 0.860990 0.854189
