assets/lut/editingcorpw Starlight Satin.cube
LUT_3D_SIZE 16
DOMAIN_MIN 0.0 0.0 0.0
DOMAIN_MAX 1.0 1.0 1.0
0.161807 0.146670 0.172396
0.177761 0.148696 0.174191
0.232175 0.157955 0.182150
0.301952 0.170547 0.193453
0.373468 0.180777 0.203018
0.454322 0.191958 0.213535
0.540069 0.204660 0.225748
0.629645 0.220243 0.240073
0.724654 0.238083 0.255497
0.820163 0.259177 0.271635
0.903838 0.286229 0.289067
0.975629 0.319805 0.309550
1.000000 0.363036 0.335515
1.000000 0.415119 0.368780
1.000000 0.475160 0.412018
1.000000 0.556146 0.480446
0.169015 0.159970 0.174227
0.183992 0.161721 0.176026
0.231242 0.170768 0.185879
0.299302 0.181431 0.195553
0.370162 0.190219 0.204438
0.450001 0.200491 0.214719
0.534894 0.212474 0.226559
0.624339 0.227644 0.240677
0.719231 0.245081 0.256015
0.815606 0.265404 0.272023
0.901079 0.291606 0.289543
0.974194 0.325156 0.310101
1.000000 0.366983 0.335863
1.000000 0.417386 0.368402
1.000000 0.475815 0.410808
1.000000 0.557104 0.480031
0.195645 0.206363 0.181527
0.208582 0.207728 0.182621
0.254959 0.212784 0.187347
0.312008 0.216696 0.200013
0.377030 0.226347 0.213429
0.457374 0.235471 0.222892
0.541456 0.246526 0.234273
0.630574 0.260251 0.247809
0.725195 0.276266 0.262237
0.819895 0.295140 0.277496
0.902989 0.318846 0.294334
0.974288 0.349179 0.314677
1.000000 0.388827 0.340693
1.000000 0.437142 0.374297
1.000000 0.493721 0.418110
1.000000 0.570019 0.486482
0.224668 0.258646 0.185751
0.234696 0.260404 0.185928
0.271259 0.264072 0.187216
0.339275 0.275490 0.190257
0.409391 0.275058 0.203941
0.458863 0.285801 0.235844
0.539368 0.297399 0.247719
0.629099 0.310445 0.259589
0.723936 0.325144 0.272387
0.817979 0.342631 0.286358
0.901177 0.364056 0.302818
0.972635 0.391317 0.323118
1.000000 0.426642 0.349401
1.000000 0.469579 0.383238
1.000000 0.520668 0.427612
1.000000 0.594189 0.499211
0.260850 0.327520 0.184909
0.271281 0.331756 0.184105
0.300350 0.331168 0.184106
0.357138 0.339213 0.183839
0.438583 0.352569 0.184031
0.518102 0.349395 0.201780
0.578646 0.359684 0.246148
0.636465 0.374599 0.278909
0.731238 0.390095 0.289220
0.822687 0.406965 0.301697
0.901909 0.425592 0.317412
0.970865 0.449320 0.337505
1.000000 0.480586 0.364928
1.000000 0.519243 0.401359
1.000000 0.565808 0.449103
1.000000 0.629401 0.519957
0.292485 0.389105 0.178897
0.303190 0.397772 0.177371
0.326964 0.395850 0.177212
0.369177 0.394189 0.176455
0.441614 0.411438 0.174264
0.534051 0.431861 0.173800
0.626813 0.433667 0.195462
0.701869 0.444953 0.245164
0.748202 0.460017 0.300230
0.822330 0.478480 0.322167
0.899351 0.496132 0.337499
0.967309 0.517608 0.358904
1.000000 0.544506 0.387872
1.000000 0.577026 0.426270
1.000000 0.616901 0.476368
1.000000 0.673884 0.550408
0.329076 0.461713 0.168716
0.340487 0.474629 0.166315
0.360296 0.471274 0.166542
0.395389 0.465844 0.166407
0.451092 0.471483 0.164565
0.537194 0.498173 0.158328
0.640015 0.527104 0.152893
0.745504 0.537720 0.173647
0.817510 0.544045 0.236426
0.866978 0.555807 0.303541
0.898979 0.572686 0.365020
0.961948 0.591842 0.390033
1.000000 0.615557 0.422753
1.000000 0.644598 0.466394
1.000000 0.679117 0.520741
1.000000 0.724648 0.591253
0.361834 0.536321 0.149655
0.372347 0.550555 0.144572
0.389756 0.547100 0.145094
0.421414 0.541710 0.145552
0.464674 0.535453 0.144889
0.539604 0.559808 0.135128
0.639557 0.598079 0.113686
0.747164 0.632701 0.093415
0.846091 0.640153 0.142066
0.906566 0.636979 0.229750
0.951855 0.644568 0.313213
0.975242 0.661911 0.402787
0.999978 0.687966 0.472098
1.000000 0.711170 0.517784
1.000000 0.736292 0.567765
1.000000 0.772268 0.633472
0.393371 0.616620 0.107399
0.402115 0.627760 0.098468
0.417534 0.625022 0.099455
0.446700 0.620476 0.100612
0.487461 0.614486 0.100410
0.543261 0.617823 0.091994
0.631408 0.653283 0.023645
0.734554 0.693816 0.000000
0.836293 0.725522 0.009690
0.921541 0.726547 0.141101
0.975641 0.720393 0.248094
1.000000 0.724888 0.351248
1.000000 0.742803 0.457915
1.000000 0.773738 0.571301
1.000000 0.797608 0.633484
1.000000 0.825120 0.692915
0.426850 0.698988 0.000000
0.434947 0.708111 0.000000
0.448858 0.704916 0.000000
0.475378 0.701092 0.000000
0.513620 0.696676 0.000000
0.559924 0.690157 0.000000
0.630833 0.709027 0.000000
0.720967 0.742822 0.000000
0.818164 0.777557 0.000000
0.907921 0.800964 0.011245
0.978033 0.795694 0.190463
1.000000 0.790572 0.305251
1.000000 0.793630 0.418892
1.000000 0.809560 0.533416
1.000000 0.833262 0.645595
1.000000 0.865006 0.741152
0.464576 0.776974 0.000000
0.469813 0.780612 0.000000
0.482082 0.778329 0.000000
0.506181 0.775778 0.000000
0.541052 0.772567 0.000000
0.584558 0.768124 0.000000
0.635681 0.764725 0.000000
0.717873 0.794369 0.000000
0.805777 0.824137 0.000000
0.895097 0.851523 0.000000
0.970520 0.865721 0.167849
1.000000 0.854380 0.289738
1.000000 0.851206 0.409253
1.000000 0.854270 0.523650
1.000000 0.868455 0.638031
1.000000 0.892607 0.745510
0.504436 0.844382 0.000000
0.510335 0.848256 0.000000
0.519331 0.845013 0.000000
0.540392 0.843135 0.000000
0.572554 0.842134 0.000000
0.612732 0.839811 0.000000
0.658408 0.835113 0.000000
0.718808 0.841871 0.000000
0.796063 0.863620 0.000000
0.875697 0.884229 0.000000
0.953515 0.903069 0.176858
1.000000 0.910833 0.293031
1.000000 0.899123 0.414232
1.000000 0.896927 0.533507
1.000000 0.898300 0.628400
1.000000 0.914421 0.741647
0.559442 0.911498 0.000000
0.564472 0.913712 0.000000
0.570969 0.910685 0.000000
0.586721 0.907701 0.000000
0.612568 0.904978 0.000000
0.647559 0.902757 0.000000
0.689829 0.900689 0.000000
0.736474 0.897675 0.000000
0.803367 0.910184 0.000000
0.874544 0.923898 0.107559
0.942754 0.935693 0.237595
0.999228 0.945990 0.344976
1.000000 0.948377 0.463624
1.000000 0.938091 0.580414
1.000000 0.937560 0.686579
1.000000 0.943767 0.777157
0.609906 0.955590 0.000000
0.612968 0.956184 0.000000
0.617429 0.954004 0.000000
0.631061 0.952460 0.000000
0.653999 0.951590 0.000000
0.684553 0.950518 0.000000
0.720891 0.948814 0.000000
0.761448 0.946028 0.000000
0.809386 0.945364 0.000000
0.873222 0.953905 0.174326
0.935069 0.961553 0.290032
0.989052 0.967945 0.402512
1.000000 0.973216 0.517361
1.000000 0.972395 0.626772
1.000000 0.964463 0.724904
1.000000 0.966564 0.818527
0.692354 0.998072 0.282286
0.699025 0.998884 0.295510
0.702206 0.998613 0.289110
0.711358 0.997435 0.283483
0.727532 0.996268 0.279821
0.750613 0.995001 0.277451
0.779702 0.993624 0.275459
0.813386 0.991883 0.271470
0.850720 0.989808 0.264505
0.898309 0.989918 0.319329
0.948632 0.991156 0.422572
0.990694 0.992178 0.531079
1.000000 0.992998 0.636618
1.000000 0.993714 0.730533
1.000000 0.990251 0.804901
1.000000 0.985412 0.864823
0.782101 1.000000 0.487495
0.785891 1.000000 0.494545
0.788388 1.000000 0.491286
0.795615 1.000000 0.490345
0.808139 1.000000 0.492403
0.825132 1.000000 0.494728
0.846366 1.000000 0.497176
0.871732 1.000000 0.498909
0.901036 1.000000 0.500658
0.934753 1.000000 0.515764
0.971435 1.000000 0.611139
0.997900 1.000000 0.705781
1.000000 1.000000 0.781912
1.000000 1.000000 0.843083
1.000000 0.999487 0.888981
1.000000 0.994995 0.923003
0.162216 0.147085 0.178512
0.176903 0.147258 0.180736
0.231097 0.154802 0.187160
0.300543 0.167930 0.197335
0.371272 0.179628 0.206871
0.450916 0.191605 0.217728
0.535449 0.205500 0.230020
0.624031 0.222018 0.244388
0.716425 0.239045 0.259175
0.809963 0.258750 0.274251
0.894041 0.284135 0.290629
0.967405 0.316816 0.310287
1.000000 0.359137 0.335553
1.000000 0.410673 0.367892
1.000000 0.470393 0.409949
1.000000 0.546557 0.473305
0.165309 0.158389 0.179722
0.180236 0.160326 0.182464
0.230647 0.168630 0.189961
0.297614 0.179264 0.199236
0.367914 0.188968 0.208250
0.446383 0.200386 0.218741
0.529835 0.213282 0.230869
0.617928 0.228811 0.244888
0.711706 0.245842 0.259590
0.807100 0.265236 0.274760
0.892528 0.289918 0.291380
0.966753 0.322111 0.311087
1.000000 0.363404 0.335931
1.000000 0.412517 0.367214
1.000000 0.468818 0.407250
1.000000 0.547224 0.472499
0.190993 0.205930 0.187668
0.204994 0.207340 0.188921
0.252491 0.211778 0.193031
0.307459 0.216550 0.206607
0.375669 0.226217 0.217710
0.454870 0.235952 0.227520
0.538557 0.247658 0.239023
0.626852 0.261374 0.252165
0.718973 0.276339 0.265733
0.812253 0.294023 0.280175
0.895550 0.316711 0.296198
0.968151 0.346398 0.315751
1.000000 0.385845 0.341279
1.000000 0.433948 0.374197
1.000000 0.490334 0.417315
1.000000 0.564292 0.482554
0.223059 0.258594 0.191859
0.232918 0.260669 0.192129
0.269406 0.263548 0.193079
0.337026 0.274112 0.196210
0.405439 0.274362 0.211389
0.454469 0.286264 0.241685
0.536556 0.297354 0.251687
0.625062 0.310069 0.263181
0.717987 0.324080 0.275264
0.811119 0.340780 0.288549
0.894607 0.361210 0.304396
0.967172 0.388266 0.324088
1.000000 0.423337 0.349622
1.000000 0.465560 0.382406
1.000000 0.515133 0.424633
1.000000 0.587851 0.494329
0.260250 0.328889 0.190424
0.270166 0.333093 0.190039
0.299687 0.332453 0.189752
0.356154 0.339023 0.189215
0.436637 0.351110 0.189731
0.514570 0.347551 0.208150
0.572454 0.358600 0.252782
0.632937 0.373426 0.281662
0.726173 0.387952 0.291556
0.816932 0.404336 0.303583
0.896562 0.422615 0.318588
0.966668 0.446470 0.338329
1.000000 0.478049 0.365528
1.000000 0.516956 0.401516
1.000000 0.563656 0.448726
1.000000 0.627051 0.518813
0.291508 0.391168 0.183395
0.302320 0.399593 0.182133
0.326198 0.397416 0.181827
0.368458 0.394879 0.180702
0.440589 0.411123 0.178965
0.532122 0.430219 0.178665
0.622492 0.430602 0.200899
0.695867 0.441763 0.250181
0.740362 0.456720 0.303717
0.816878 0.474954 0.323128
0.894883 0.492775 0.338054
0.963713 0.514466 0.359164
1.000000 0.541520 0.387656
1.000000 0.573760 0.425200
1.000000 0.611690 0.472369
1.000000 0.670631 0.547753
0.327648 0.463709 0.172930
0.338845 0.475733 0.170995
0.359083 0.472443 0.170833
0.394662 0.466807 0.170522
0.449943 0.471253 0.168830
0.535745 0.497342 0.163446
0.638691 0.525781 0.158393
0.742955 0.535526 0.179490
0.813862 0.541380 0.241530
0.862088 0.553063 0.307432
0.895676 0.570075 0.365910
0.959627 0.589601 0.390441
1.000000 0.613928 0.423144
1.000000 0.643169 0.466665
1.000000 0.678099 0.520929
1.000000 0.724408 0.592042
0.360937 0.538301 0.153672
0.371197 0.552602 0.148970
0.388955 0.549287 0.149269
0.420936 0.543789 0.149638
0.464550 0.536952 0.149021
0.538529 0.559458 0.140134
0.637592 0.596375 0.121445
0.744305 0.629853 0.108671
0.842885 0.636725 0.149354
0.903235 0.633922 0.233899
0.948871 0.642336 0.316179
0.972236 0.660131 0.405007
0.999632 0.685931 0.471461
1.000000 0.708876 0.516218
1.000000 0.733021 0.564305
1.000000 0.771129 0.632726
0.392688 0.619524 0.112026
0.401837 0.631754 0.103180
0.417734 0.629245 0.104034
0.447324 0.624438 0.104632
0.488364 0.618205 0.104772
0.543866 0.620031 0.097784
0.632318 0.655097 0.041040
0.734902 0.694633 0.000000
0.835764 0.725054 0.017572
0.920443 0.725168 0.147551
0.974173 0.718892 0.251454
1.000000 0.724003 0.354265
1.000000 0.742471 0.460727
1.000000 0.773542 0.573042
1.000000 0.797395 0.634170
1.000000 0.826529 0.696106
0.426345 0.701313 0.000000
0.435150 0.712289 0.000000
0.449371 0.709731 0.000000
0.476327 0.705555 0.000000
0.514537 0.700405 0.000000
0.560804 0.692930 0.000000
0.630440 0.709730 0.000000
0.720308 0.742648 0.000000
0.817367 0.776914 0.000000
0.907036 0.800202 0.018859
0.977448 0.795055 0.194773
1.000000 0.789858 0.307862
1.000000 0.793009 0.420851
1.000000 0.808243 0.533148
1.000000 0.832587 0.645957
1.000000 0.865719 0.743179
0.464747 0.780337 0.000000
0.471034 0.785355 0.000000
0.483648 0.783563 0.000000
0.507934 0.780798 0.000000
0.542883 0.777278 0.000000
0.586609 0.772299 0.000000
0.637278 0.767611 0.000000
0.718781 0.796233 0.000000
0.806054 0.824815 0.000000
0.894974 0.851504 0.000000
0.970086 0.865403 0.172891
1.000000 0.854147 0.292603
1.000000 0.851078 0.412094
1.000000 0.854354 0.526404
1.000000 0.869084 0.641169
1.000000 0.894279 0.750600
0.505951 0.847979 0.000000
0.513846 0.854398 0.000000
0.524134 0.852653 0.000000
0.544901 0.850506 0.000000
0.576111 0.847979 0.000000
0.615439 0.843892 0.000000
0.660140 0.837853 0.000000
0.719613 0.843415 0.000000
0.796556 0.864522 0.000000
0.876069 0.884768 0.000000
0.953721 0.903379 0.183324
1.000000 0.910908 0.296599
1.000000 0.898863 0.415879
1.000000 0.896547 0.534189
1.000000 0.898343 0.630071
1.000000 0.915318 0.745283
0.561822 0.914487 0.000000
0.567622 0.917360 0.000000
0.575200 0.915484 0.000000
0.591497 0.912861 0.000000
0.617124 0.909970 0.000000
0.651836 0.907509 0.000000
0.693070 0.904475 0.000000
0.738465 0.900072 0.000000
0.804040 0.911140 0.000000
0.874614 0.924230 0.119398
0.942624 0.935784 0.241422
0.999223 0.946070 0.348224
1.000000 0.948442 0.466527
1.000000 0.938229 0.583122
1.000000 0.938028 0.690171
1.000000 0.944610 0.781337
0.612351 0.957574 0.029323
0.617735 0.959564 0.055246
0.623274 0.958013 0.040303
0.636562 0.956428 0.021175
0.658444 0.954966 0.006753
0.687879 0.953247 0.000000
0.723163 0.950840 0.000000
0.762980 0.947575 0.000000
0.810231 0.946353 0.000000
0.873902 0.954625 0.182064
0.935584 0.962048 0.295254
0.989137 0.968196 0.406670
1.000000 0.973265 0.519711
1.000000 0.972378 0.628097
1.000000 0.964552 0.726497
1.000000 0.966792 0.820220
0.694907 0.998780 0.292806
0.701888 0.999106 0.306367
0.705993 0.998964 0.302635
0.715485 0.998734 0.298246
0.731577 0.997711 0.294566
0.754032 0.996350 0.291158
0.782271 0.994755 0.287552
0.814958 0.992705 0.280921
0.851399 0.990297 0.271196
0.898295 0.990088 0.322438
0.948509 0.991216 0.424638
0.990550 0.992208 0.532883
1.000000 0.993028 0.638217
1.000000 0.993747 0.731851
1.000000 0.990358 0.806668
1.000000 0.985643 0.866974
0.783701 1.000000 0.493629
0.788562 1.000000 0.503601
0.791584 1.000000 0.501741
0.798624 1.000000 0.500570
0.810506 1.000000 0.501135
0.826817 1.000000 0.502178
0.847410 1.000000 0.503164
0.872359 1.000000 0.503788
0.901424 1.000000 0.505168
0.934899 1.000000 0.519224
0.971478 1.000000 0.614050
0.997744 1.000000 0.707299
1.000000 1.000000 0.782718
1.000000 1.000000 0.843473
1.000000 0.999492 0.889298
1.000000 0.995001 0.923284
0.162558 0.149337 0.201864
0.177021 0.146261 0.203717
0.229124 0.148534 0.210577
0.299496 0.160638 0.217671
0.370255 0.173816 0.223911
0.447920 0.193392 0.235208
0.530301 0.211307 0.247968
0.618124 0.227022 0.260857
0.709859 0.242588 0.273903
0.804417 0.260703 0.287633
0.890080 0.284764 0.303105
0.964803 0.317747 0.321634
1.000000 0.360245 0.346022
1.000000 0.412240 0.377711
1.000000 0.472463 0.419274
1.000000 0.549590 0.482319
0.167786 0.156123 0.202159
0.180736 0.157360 0.204680
0.230064 0.161984 0.211308
0.297994 0.172977 0.217797
0.367391 0.185836 0.224699
0.443353 0.204270 0.236593
0.525439 0.218536 0.248213
0.612960 0.233491 0.260967
0.706528 0.249224 0.274217
0.801795 0.266788 0.287959
0.888565 0.290731 0.303504
0.963980 0.322823 0.322253
1.000000 0.364150 0.346274
1.000000 0.413783 0.376806
1.000000 0.470396 0.416002
1.000000 0.549998 0.481250
0.182890 0.203642 0.209714
0.196943 0.205044 0.211566
0.242361 0.208459 0.217349
0.301292 0.216840 0.225604
0.373052 0.227916 0.234980
0.450380 0.238945 0.244795
0.533395 0.250783 0.255453
0.620587 0.263782 0.267264
0.712850 0.277931 0.279535
0.807055 0.294567 0.292823
0.891726 0.316744 0.307966
0.965637 0.346891 0.326742
1.000000 0.386542 0.351499
1.000000 0.435292 0.383803
1.000000 0.492239 0.426309
1.000000 0.567113 0.491475
0.207479 0.259853 0.209347
0.222322 0.261544 0.212848
0.263306 0.262724 0.215924
0.328693 0.269476 0.218329
0.389307 0.274814 0.239004
0.450084 0.287294 0.256660
0.532356 0.298340 0.265868
0.620422 0.310618 0.276382
0.712881 0.323913 0.287663
0.806805 0.339921 0.300232
0.891355 0.360521 0.315443
0.964766 0.388007 0.334470
1.000000 0.423458 0.359392
1.000000 0.466421 0.391527
1.000000 0.516474 0.433104
1.000000 0.590288 0.502870
0.252336 0.329464 0.212318
0.262029 0.333832 0.212367
0.292895 0.332863 0.211170
0.348079 0.335246 0.209510
0.428419 0.345268 0.210013
0.503832 0.342764 0.230867
0.554028 0.357478 0.275518
0.628263 0.372053 0.292764
0.721541 0.386368 0.302348
0.812952 0.402573 0.313959
0.893632 0.421273 0.328667
0.964687 0.445877 0.348147
1.000000 0.478295 0.374954
1.000000 0.517831 0.410433
1.000000 0.565108 0.457294
1.000000 0.629080 0.526738
0.282878 0.392096 0.201639
0.292863 0.400392 0.201195
0.318527 0.398355 0.200265
0.362344 0.394911 0.198194
0.433979 0.407811 0.196630
0.525859 0.425110 0.197476
0.614163 0.424513 0.221351
0.684464 0.438178 0.271376
0.728557 0.455135 0.319602
0.813873 0.473058 0.332598
0.892582 0.491304 0.347375
0.961928 0.513746 0.368199
1.000000 0.541283 0.396433
1.000000 0.574278 0.433549
1.000000 0.612868 0.480367
1.000000 0.672602 0.555389
0.318858 0.465021 0.190059
0.329666 0.476577 0.189231
0.351103 0.473343 0.188683
0.388610 0.468009 0.187520
0.443471 0.468373 0.185198
0.530021 0.493782 0.181639
0.633228 0.520827 0.179571
0.736582 0.529354 0.201665
0.806742 0.537311 0.261835
0.852236 0.550561 0.325814
0.892342 0.568845 0.375726
0.958159 0.589005 0.398990
1.000000 0.613972 0.431532
1.000000 0.643878 0.474826
1.000000 0.679100 0.528329
1.000000 0.725129 0.597770
0.352425 0.540407 0.171527
0.362716 0.554226 0.168260
0.381581 0.551083 0.168056
0.415328 0.545675 0.167463
0.460860 0.538942 0.165900
0.532925 0.556576 0.159900
0.632725 0.593055 0.146622
0.740374 0.625968 0.139885
0.838985 0.632276 0.174891
0.899026 0.630673 0.252779
0.943378 0.641020 0.334105
0.966312 0.660884 0.420591
0.999313 0.686072 0.479341
1.000000 0.709327 0.523445
1.000000 0.733731 0.570725
1.000000 0.772477 0.638842
0.384971 0.622278 0.135496
0.394067 0.634206 0.129583
0.410890 0.631538 0.129746
0.441818 0.626749 0.129549
0.484461 0.620643 0.128351
0.538745 0.618084 0.124322
0.628153 0.653018 0.103802
0.731652 0.692449 0.062944
0.833111 0.722496 0.080420
0.918621 0.722677 0.171925
0.971747 0.716801 0.267521
1.000000 0.723933 0.370123
1.000000 0.744048 0.477183
1.000000 0.775235 0.583874
1.000000 0.797887 0.639340
1.000000 0.826770 0.699791
0.419616 0.703912 0.029439
0.428627 0.714697 0.015204
0.443320 0.712244 0.015574
0.471198 0.708092 0.015270
0.510783 0.702795 0.012316
0.558137 0.695139 0.007683
0.626028 0.707931 0.001041
0.716791 0.740874 0.000000
0.814858 0.775309 0.000000
0.905349 0.798731 0.092423
0.976744 0.794048 0.213184
1.000000 0.789027 0.322305
1.000000 0.793583 0.435873
1.000000 0.809622 0.546541
1.000000 0.834335 0.656107
1.000000 0.866265 0.746758
0.459193 0.782474 0.000000
0.465749 0.787661 0.000000
0.478318 0.785740 0.000000
0.503319 0.783003 0.000000
0.539367 0.779584 0.000000
0.584094 0.774667 0.000000
0.634942 0.768871 0.000000
0.715788 0.795291 0.000000
0.803676 0.823827 0.000000
0.893171 0.850591 0.046890
0.968982 0.864719 0.193698
1.000000 0.853886 0.306783
1.000000 0.851152 0.425136
1.000000 0.855236 0.538849
1.000000 0.870176 0.650417
1.000000 0.895360 0.757308
0.501207 0.850189 0.000000
0.509291 0.856509 0.000000
0.519994 0.854805 0.000000
0.541218 0.852567 0.000000
0.572901 0.849812 0.000000
0.612794 0.845542 0.000000
0.657995 0.839287 0.000000
0.716280 0.842459 0.000000
0.794142 0.863750 0.000000
0.874353 0.884259 0.059857
0.952603 0.903120 0.201577
1.000000 0.910722 0.310117
1.000000 0.898914 0.427824
1.000000 0.896816 0.544151
1.000000 0.899050 0.638802
1.000000 0.916184 0.751589
0.557335 0.915070 0.000000
0.563369 0.917947 0.000000
0.570996 0.915992 0.000000
0.587589 0.913462 0.000000
0.614140 0.911033 0.000000
0.649658 0.908922 0.000000
0.691449 0.905818 0.000000
0.736716 0.900957 0.000000
0.801667 0.910717 0.000000
0.872778 0.923850 0.143112
0.941475 0.935559 0.253599
0.998932 0.945973 0.359177
1.000000 0.948427 0.476738
1.000000 0.938417 0.591847
1.000000 0.938367 0.696850
1.000000 0.944933 0.785363
0.609573 0.958279 0.077794
0.615078 0.960251 0.104824
0.620720 0.958759 0.088321
0.634201 0.957186 0.073168
0.656319 0.955750 0.065055
0.685921 0.954026 0.055471
0.721505 0.951564 0.034851
0.761449 0.948196 0.002294
0.808094 0.946289 0.001419
0.872266 0.954519 0.194761
0.934530 0.962035 0.304843
0.988318 0.968166 0.415333
1.000000 0.973242 0.527366
1.000000 0.972401 0.634684
1.000000 0.964702 0.731981
1.000000 0.967059 0.823798
0.692763 0.998796 0.304724
0.699756 0.999110 0.317785
0.703872 0.998968 0.314151
0.713612 0.998749 0.310063
0.729945 0.997867 0.307104
0.752652 0.996577 0.304112
0.780907 0.994962 0.300355
0.813633 0.992876 0.293370
0.850072 0.990427 0.283234
0.896663 0.989997 0.327971
0.947426 0.991205 0.430469
0.989756 0.992207 0.538359
1.000000 0.993010 0.643144
1.000000 0.993745 0.735958
1.000000 0.990380 0.809707
1.000000 0.985687 0.868931
0.782888 1.000000 0.502049
0.787806 1.000000 0.511850
0.790857 1.000000 0.510047
0.797882 1.000000 0.508916
0.809660 1.000000 0.509354
0.825883 1.000000 0.509917
0.846448 1.000000 0.510582
0.871385 1.000000 0.511216
0.900487 1.000000 0.512466
0.933756 1.000000 0.522960
0.970654 1.000000 0.617035
0.997261 1.000000 0.709952
1.000000 1.000000 0.785012
1.000000 1.000000 0.845308
1.000000 0.999512 0.890742
1.000000 0.995056 0.924413
0.166372 0.152126 0.228354
0.177921 0.149676 0.229927
0.220260 0.144153 0.236399
0.288701 0.152350 0.246279
0.366428 0.164922 0.254738
0.445991 0.180673 0.262229
0.528658 0.196010 0.270192
0.613927 0.213360 0.279890
0.703161 0.236082 0.293795
0.797964 0.253831 0.306808
0.885087 0.278422 0.321605
0.961554 0.312804 0.339570
1.000000 0.357689 0.363246
1.000000 0.411577 0.394023
1.000000 0.473580 0.434827
1.000000 0.553124 0.497859
0.174192 0.153872 0.227995
0.184342 0.154876 0.230786
0.223194 0.157806 0.236952
0.289678 0.165090 0.246636
0.365049 0.176568 0.254601
0.442699 0.191011 0.261726
0.524276 0.205045 0.269576
0.609610 0.222999 0.280196
0.700430 0.243286 0.294125
0.795863 0.260122 0.306995
0.884058 0.284549 0.321831
0.960625 0.318118 0.340073
1.000000 0.361321 0.363176
1.000000 0.412807 0.392910
1.000000 0.471097 0.431120
1.000000 0.553310 0.496645
0.199535 0.199052 0.238590
0.209362 0.200744 0.240533
0.241124 0.203250 0.245556
0.301120 0.206158 0.252803
0.373589 0.217469 0.259559
0.449366 0.229100 0.266542
0.529957 0.242819 0.275869
0.614377 0.258567 0.287440
0.706086 0.272017 0.298896
0.800879 0.288097 0.311377
0.886944 0.310825 0.326017
0.962442 0.342399 0.344337
1.000000 0.384032 0.368475
1.000000 0.434705 0.400019
1.000000 0.493384 0.441878
1.000000 0.570622 0.506927
0.210239 0.255938 0.245116
0.219923 0.258217 0.246923
0.253838 0.261055 0.250380
0.312619 0.263440 0.255933
0.374316 0.273875 0.267652
0.447536 0.284239 0.276114
0.528517 0.294546 0.285311
0.614889 0.306030 0.295211
0.706815 0.318530 0.305922
0.801478 0.334088 0.318099
0.887242 0.355389 0.333003
0.961700 0.383960 0.351553
1.000000 0.421089 0.375831
1.000000 0.465600 0.407174
1.000000 0.517261 0.448081
1.000000 0.593550 0.517861
0.209673 0.332358 0.236275
0.219990 0.336442 0.238147
0.267435 0.333731 0.244571
0.332060 0.330565 0.245376
0.414687 0.335995 0.244489
0.480490 0.340122 0.275956
0.535997 0.355327 0.301291
0.622806 0.367537 0.309768
0.715607 0.381036 0.319350
0.807645 0.396998 0.330824
0.889504 0.416397 0.345281
0.961850 0.442457 0.364745
1.000000 0.476495 0.391197
1.000000 0.517603 0.426193
1.000000 0.566578 0.472416
1.000000 0.631834 0.540983
0.253648 0.394647 0.231388
0.265691 0.402687 0.233691
0.299245 0.400266 0.234474
0.348728 0.396886 0.230496
0.419827 0.401693 0.226850
0.514592 0.416315 0.228770
0.599304 0.415043 0.256586
0.657816 0.432259 0.308656
0.720294 0.450734 0.337468
0.809663 0.468409 0.348426
0.889293 0.487520 0.363427
0.959312 0.511080 0.384154
1.000000 0.539978 0.412079
1.000000 0.574241 0.448676
1.000000 0.614135 0.494779
1.000000 0.675251 0.568988
0.297045 0.468100 0.221274
0.307428 0.479195 0.221835
0.332207 0.475777 0.220548
0.374768 0.470556 0.217774
0.429983 0.464668 0.213620
0.518196 0.487186 0.212089
0.623517 0.512146 0.212915
0.725062 0.518548 0.237829
0.793068 0.530645 0.298341
0.832566 0.546694 0.358576
0.888609 0.565742 0.391289
0.955667 0.587360 0.414487
1.000000 0.613608 0.447106
1.000000 0.644732 0.489956
1.000000 0.680421 0.541818
1.000000 0.726316 0.608571
0.333008 0.544831 0.202424
0.342874 0.558298 0.201328
0.364285 0.555166 0.200463
0.402043 0.549776 0.198731
0.451942 0.542983 0.195747
0.521050 0.551003 0.191318
