assets/lut/editingcorpw Sweet Symphony.cube
LUT_3D_SIZE 6
DOMAIN_MIN 0.0 0.0 0.0
DOMAIN_MAX 1.0 1.0 1.0
0.198886 0.108186 0.129549
0.254166 0.113490 0.146248
0.391254 0.129708 0.163040
0.578838 0.166903 0.212290
0.815958 0.198539 0.267619
1.000000 0.263371 0.337438
0.232877 0.189035 0.144246
0.262532 0.192273 0.153738
0.420211 0.191089 0.142021
0.598156 0.209685 0.195401
0.828724 0.235319 0.253294
1.000000 0.289225 0.323845
0.304673 0.323949 0.204672
0.336679 0.319186 0.211960
0.389807 0.344345 0.230823
0.620253 0.377679 0.177139
0.873742 0.368281 0.181446
1.000000 0.390423 0.258634
0.380042 0.446192 0.246592
0.402914 0.443315 0.250821
0.461320 0.444573 0.264062
0.565623 0.506102 0.292747
0.843376 0.591835 0.244831
1.000000 0.552495 0.161306
0.504900 0.612488 0.269206
0.518698 0.603615 0.270625
0.582821 0.588193 0.281117
0.689147 0.642816 0.307799
0.834468 0.732570 0.354094
1.000000 0.806461 0.359600
0.738735 0.889342 0.303044
0.757461 0.888957 0.307481
0.825925 0.884001 0.322563
0.922423 0.885142 0.358764
0.995099 0.925707 0.455079
1.000000 0.956146 0.573297
0.177621 0.109878 0.229300
0.268455 0.106564 0.230218
0.382325 0.176066 0.247317
0.547559 0.235723 0.299006
0.794572 0.251733 0.334134
1.000000 0.303557 0.386914
0.210232 0.212456 0.235720
0.269725 0.211546 0.236195
0.394180 0.228652 0.256056
0.571489 0.249696 0.284674
0.809892 0.271146 0.321725
1.000000 0.321168 0.375558
0.289433 0.342853 0.254512
0.328908 0.337179 0.259545
0.392015 0.351725 0.277377
0.615876 0.370257 0.244643
0.868332 0.373276 0.261216
1.000000 0.402115 0.322016
0.373965 0.461423 0.277375
0.400736 0.459525 0.281372
0.464069 0.449286 0.291215
0.568961 0.510664 0.321511
0.848289 0.590737 0.282848
1.000000 0.550878 0.228406
0.502081 0.627289 0.290977
0.522842 0.624122 0.293427
0.592212 0.607386 0.302256
0.690909 0.645532 0.326666
0.837803 0.736477 0.375425
1.000000 0.809467 0.383973
0.731240 0.897032 0.321483
0.753798 0.899431 0.328955
0.820542 0.890312 0.338621
0.922839 0.886976 0.371029
0.995007 0.926671 0.467557
1.000000 0.957012 0.587103
0.121315 0.151394 0.392590
0.233624 0.151284 0.393268
0.405661 0.150480 0.387877
0.566535 0.163999 0.385030
0.781665 0.279450 0.432228
1.000000 0.457698 0.523399
0.194489 0.257137 0.392911
0.236349 0.229486 0.395567
0.404681 0.220286 0.386854
0.565152 0.242756 0.389690
0.778362 0.338958 0.442135
1.000000 0.467007 0.519706
0.205802 0.381973 0.394457
0.259230 0.383862 0.395974
0.401715 0.372734 0.386834
0.587795 0.392056 0.406313
0.828512 0.426049 0.438879
1.000000 0.482563 0.483615
0.255136 0.521151 0.359495
0.336604 0.518637 0.375115
0.464388 0.482658 0.377471
0.583621 0.529104 0.408817
0.867168 0.579295 0.388326
1.000000 0.559518 0.386779
0.449428 0.671879 0.364354
0.485229 0.673965 0.368053
0.578295 0.649399 0.370317
0.689354 0.649156 0.386412
0.846145 0.747618 0.447434
1.000000 0.809016 0.453018
0.671400 0.913549 0.375665
0.697737 0.914586 0.381706
0.778677 0.905072 0.388118
0.912317 0.890986 0.408949
0.992392 0.928252 0.508801
1.000000 0.959716 0.636383
0.000000 0.204148 0.551842
0.171237 0.201859 0.548366
0.403626 0.188860 0.536861
0.595195 0.160980 0.526878
0.802047 0.005112 0.531761
1.000000 0.251389 0.570617
0.007544 0.280332 0.542806
0.161218 0.256956 0.544759
0.399809 0.242984 0.535243
0.597280 0.220196 0.526906
0.798176 0.165515 0.527695
1.000000 0.312888 0.569164
0.103604 0.450316 0.536710
0.212435 0.443978 0.538520
0.376198 0.381845 0.534038
0.603255 0.365346 0.525226
0.815894 0.376008 0.534049
1.000000 0.522884 0.602698
0.171134 0.569604 0.531333
0.241054 0.572629 0.533511
0.402258 0.567053 0.529600
0.608232 0.554265 0.521807
0.844392 0.586421 0.550201
1.000000 0.638671 0.596603
0.000000 0.759072 0.493301
0.117457 0.764231 0.492375
0.406008 0.742445 0.475399
0.675545 0.682179 0.483889
0.854266 0.762376 0.554854
1.000000 0.796504 0.554867
0.419648 0.951519 0.462385
0.497547 0.949909 0.478652
0.656432 0.941211 0.493396
0.843342 0.923392 0.503106
0.983840 0.929154 0.576401
1.000000 0.965271 0.723909
0.000000 0.263847 0.737605
0.000000 0.260759 0.736263
0.385923 0.243988 0.731118
0.650186 0.192886 0.721374
0.852532 0.063827 0.707205
1.000000 0.000000 0.710244
0.000000 0.321877 0.736091
0.000000 0.303072 0.738225
0.376846 0.287022 0.732279
0.646527 0.244623 0.720344
0.842197 0.173045 0.698224
1.000000 0.000000 0.709596
0.000000 0.503302 0.729837
0.047248 0.487722 0.732483
0.314422 0.412453 0.733467
0.635102 0.385233 0.724257
0.855870 0.343364 0.706932
1.000000 0.304988 0.707193
0.000000 0.663950 0.725248
0.000000 0.669506 0.732763
0.354913 0.658105 0.730060
0.581679 0.564077 0.721026
0.848511 0.525464 0.697742
1.000000 0.544524 0.705970
0.000000 0.806716 0.731219
0.181142 0.812157 0.737066
0.409061 0.812224 0.738626
0.634308 0.804903 0.734668
0.859739 0.778374 0.713613
1.000000 0.847419 0.794051
0.256364 0.993463 0.728963
0.337339 0.993831 0.729585
0.492762 0.989450 0.718664
0.671866 0.977467 0.691543
0.942685 0.937854 0.693328
1.000000 0.975756 0.852018
0.000000 0.369696 0.958556
0.000000 0.367193 0.957909
0.327416 0.355688 0.956139
0.634229 0.327807 0.953271
0.885039 0.273826 0.948308
1.000000 0.225345 0.946136
0.000000 0.402600 0.953924
0.000000 0.392969 0.955146
0.310895 0.381214 0.953069
0.626247 0.353571 0.949457
0.878450 0.299614 0.942729
1.000000 0.256968 0.941906
0.000000 0.555206 0.952404
0.000000 0.541198 0.953008
0.245313 0.484042 0.955303
0.609396 0.465902 0.953461
0.871920 0.432083 0.949106
1.000000 0.405078 0.947363
0.000000 0.729610 0.945238
0.167436 0.725339 0.946550
0.410060 0.700897 0.948032
0.552543 0.613953 0.953389
0.843915 0.588293 0.949136
1.000000 0.577026 0.948998
0.300529 0.870720 0.956664
0.348631 0.870593 0.957104
0.487272 0.869033 0.957653
0.671181 0.867221 0.957785
0.846957 0.819168 0.960725
1.000000 0.818772 0.959662
0.581567 0.995575 0.975189
0.598425 0.995080 0.974914
0.677974 0.993964 0.975915
0.801175 0.992065 0.978009
0.922393 0.990546 0.981170
0.998444 0.994598 0.992004
