assets/lut/editingcorpw Angelic Aura.cube
LUT_3D_SIZE 16
DOMAIN_MIN 0.0 0.0 0.0
DOMAIN_MAX 1.0 1.0 1.0
0.010723 0.010351 0.012765
0.059188 0.013528 0.015070
0.100571 0.015135 0.014799
0.133260 0.010562 0.007428
0.163214 0.006144 0.000443
0.194323 0.001471 0.000000
0.236103 0.000000 0.000000
0.295879 0.002257 0.000000
0.365374 0.016522 0.005045
0.432194 0.030698 0.014182
0.498604 0.040274 0.022099
0.564030 0.046065 0.027791
0.629674 0.051044 0.032447
0.696872 0.057141 0.036528
0.762737 0.064191 0.039701
0.825226 0.071191 0.042538
0.003359 0.044179 0.007805
0.054585 0.053593 0.010689
0.098881 0.054287 0.011196
0.133301 0.047179 0.004725
0.164481 0.041891 0.000000
0.197347 0.038394 0.000000
0.241308 0.037900 0.000000
0.304046 0.044978 0.000000
0.370242 0.058708 0.004451
0.435000 0.071874 0.013016
0.499929 0.079806 0.020111
0.563463 0.084489 0.025059
0.628361 0.089276 0.029487
0.694292 0.095421 0.033181
0.758427 0.102001 0.036136
0.819519 0.108784 0.038815
0.000000 0.063224 0.000000
0.042898 0.077088 0.003979
0.090768 0.088816 0.005960
0.129955 0.085889 0.000959
0.162909 0.076619 0.000000
0.197651 0.071710 0.000000
0.244472 0.073310 0.000000
0.307563 0.083121 0.000000
0.371222 0.097292 0.001677
0.434440 0.109570 0.009407
0.497662 0.115782 0.015645
0.560615 0.120110 0.020459
0.625184 0.124821 0.024738
0.689898 0.130666 0.028106
0.752525 0.137282 0.030942
0.812722 0.143822 0.033584
0.000000 0.088673 0.000000
0.027773 0.095990 0.000018
0.074683 0.103544 0.000429
0.118901 0.106607 0.000000
0.157035 0.106719 0.000000
0.195454 0.105012 0.000000
0.244329 0.106470 0.000000
0.305069 0.117189 0.000000
0.367791 0.132881 0.000000
0.430337 0.144111 0.002485
0.492564 0.149659 0.008366
0.555621 0.154006 0.013486
0.619702 0.159018 0.017770
0.683501 0.164967 0.021073
0.745114 0.171477 0.023976
0.804600 0.177853 0.026713
0.000000 0.133023 0.000000
0.016667 0.134709 0.000000
0.061623 0.132260 0.000000
0.107205 0.127848 0.000000
0.149345 0.124913 0.000000
0.190070 0.125160 0.000000
0.239084 0.134471 0.000000
0.297567 0.149474 0.000000
0.360375 0.165901 0.000000
0.423562 0.177793 0.000000
0.486171 0.183807 0.000777
0.549994 0.188647 0.005342
0.613481 0.194260 0.009972
0.676615 0.200434 0.013602
0.737698 0.207273 0.016899
0.797144 0.213615 0.019960
0.000000 0.182662 0.000000
0.012830 0.184182 0.000000
0.054763 0.179122 0.000000
0.101315 0.169222 0.000000
0.145300 0.158966 0.000000
0.187007 0.153073 0.000000
0.233716 0.158432 0.000000
0.288090 0.172359 0.000000
0.350259 0.190634 0.000000
0.415056 0.207092 0.000000
0.479424 0.218284 0.000000
0.544178 0.225999 0.000000
0.607895 0.232963 0.002123
0.671005 0.239399 0.006587
0.731883 0.245913 0.010364
0.790504 0.252551 0.013915
0.000000 0.237729 0.003121
0.012433 0.238657 0.006947
0.053952 0.232500 0.002653
0.098899 0.221703 0.000000
0.144126 0.212008 0.000000
0.187281 0.203883 0.000000
0.232454 0.203778 0.000000
0.284207 0.208857 0.000000
0.342827 0.215199 0.000000
0.405790 0.223955 0.000000
0.470350 0.237874 0.000000
0.537126 0.255842 0.000000
0.603026 0.270387 0.000000
0.666116 0.281127 0.000625
0.726814 0.289220 0.004485
0.785649 0.296755 0.008633
0.000000 0.291669 0.011691
0.012845 0.293128 0.016430
0.054786 0.286514 0.010498
0.097587 0.275433 0.000758
0.142979 0.268581 0.000000
0.189219 0.266505 0.000000
0.235935 0.265932 0.000000
0.286543 0.264749 0.000000
0.342121 0.261884 0.000000
0.403211 0.260655 0.000000
0.465244 0.263382 0.000000
0.528373 0.272463 0.000000
0.594719 0.289593 0.000000
0.661206 0.312797 0.000000
0.723697 0.330828 0.000435
0.783323 0.342836 0.005181
0.000000 0.335219 0.015675
0.012167 0.337422 0.020167
0.053267 0.331518 0.013654
0.095161 0.323378 0.002941
0.141719 0.322022 0.000000
0.190405 0.326040 0.000000
0.240626 0.328785 0.000000
0.293667 0.329102 0.000000
0.349869 0.327176 0.000000
0.407681 0.322371 0.000000
0.467674 0.316135 0.000000
0.529016 0.314137 0.000000
0.591780 0.318537 0.000000
0.655726 0.331491 0.000000
0.720002 0.354061 0.000000
0.782351 0.379194 0.004967
0.000000 0.372012 0.015579
0.009580 0.374097 0.019066
0.050026 0.369170 0.011915
0.092592 0.364277 0.003062
0.140328 0.368544 0.000000
0.192566 0.377120 0.000220
0.247196 0.384047 0.001014
0.303212 0.388339 0.001417
0.363127 0.390982 0.002559
0.421535 0.391085 0.003100
0.477749 0.388181 0.002826
0.537243 0.383145 0.001334
0.597670 0.377673 0.000177
0.657977 0.376802 0.000000
0.718393 0.383845 0.000142
0.779447 0.402053 0.003897
0.000000 0.406232 0.013203
0.006876 0.407577 0.015219
0.046367 0.403356 0.007883
0.090366 0.402687 0.001237
0.140246 0.411567 0.000327
0.196809 0.424754 0.004264
0.256133 0.435933 0.008639
0.315786 0.444119 0.011945
0.377226 0.450085 0.015680
0.435942 0.452602 0.017571
0.490907 0.452466 0.017309
0.545777 0.452179 0.015500
0.604411 0.450157 0.012521
0.664046 0.446426 0.008817
0.721306 0.441493 0.006530
0.778417 0.442671 0.007720
0.000000 0.439785 0.010086
0.003116 0.440231 0.009754
0.043875 0.438526 0.003412
0.090908 0.442625 0.000292
0.144022 0.454784 0.002365
0.205497 0.471845 0.009998
0.268127 0.486383 0.018019
0.328499 0.496776 0.023477
0.389070 0.504018 0.028695
0.447122 0.507920 0.031243
0.501813 0.509311 0.031198
0.555290 0.510729 0.029959
0.609362 0.513315 0.029278
0.666811 0.515321 0.027742
0.726115 0.515581 0.025743
0.782862 0.513394 0.023896
0.000000 0.474584 0.006846
0.001690 0.474922 0.004497
0.044224 0.477132 0.000440
0.095807 0.485621 0.000430
0.151919 0.499535 0.005218
0.215972 0.517854 0.015530
0.280130 0.534669 0.025810
0.340848 0.546964 0.033842
0.400185 0.555396 0.039743
0.456777 0.559974 0.043181
0.511263 0.562645 0.043580
0.564289 0.564905 0.042362
0.617075 0.569223 0.042278
0.671041 0.575438 0.043783
0.727568 0.581812 0.044571
0.786493 0.585617 0.043815
0.000000 0.511555 0.004913
0.002718 0.513839 0.001898
0.050356 0.521389 0.000954
0.106047 0.532053 0.003449
0.163094 0.545136 0.009480
0.227033 0.563245 0.020859
0.293008 0.581777 0.033706
0.353730 0.595671 0.043639
0.410671 0.604972 0.050918
0.465815 0.610201 0.054462
0.519604 0.613955 0.055491
0.572046 0.616935 0.054608
0.624922 0.621986 0.054439
0.678261 0.629700 0.056075
0.732267 0.639121 0.059000
0.787797 0.648171 0.062113
0.000000 0.551742 0.005364
0.009888 0.559808 0.005189
0.063172 0.570620 0.006552
0.119066 0.579486 0.008043
0.176082 0.591446 0.014739
0.239207 0.609075 0.027543
0.306966 0.628963 0.042916
0.367464 0.643385 0.054165
0.422641 0.653373 0.062164
0.475328 0.659426 0.066329
0.527993 0.664056 0.067583
0.579920 0.668088 0.067224
0.632403 0.673634 0.067273
0.685275 0.681654 0.068810
0.738360 0.691554 0.071803
0.791714 0.702508 0.076168
0.000000 0.597411 0.009753
0.018328 0.611300 0.013236
0.079085 0.621695 0.014706
0.135220 0.629172 0.015918
0.191887 0.640409 0.023360
0.253948 0.657170 0.036965
0.322527 0.677416 0.053925
0.382758 0.691997 0.066372
0.436156 0.701414 0.074813
0.486894 0.708574 0.078698
0.537454 0.714006 0.080253
0.588198 0.719068 0.080458
0.639746 0.724790 0.080598
0.691869 0.732925 0.082144
0.744232 0.742209 0.084877
0.795873 0.752712 0.089006
0.006415 0.013045 0.057564
0.054381 0.016615 0.060749
0.101628 0.020642 0.062133
0.142731 0.021688 0.059549
0.178867 0.018744 0.051508
0.211725 0.014917 0.043692
0.249461 0.011353 0.039080
0.304236 0.012271 0.043126
0.372264 0.020936 0.052008
0.439750 0.034028 0.061687
0.507600 0.046195 0.071416
0.576608 0.055147 0.079382
0.643839 0.061729 0.085032
0.710484 0.068598 0.089574
0.775426 0.076222 0.093006
0.836812 0.083991 0.096003
0.001731 0.051075 0.055357
0.050723 0.055249 0.058919
0.098993 0.057337 0.058872
0.142115 0.058539 0.056524
0.178770 0.054546 0.048870
0.213495 0.051051 0.041745
0.253086 0.049223 0.037483
0.310308 0.053174 0.042056
0.378126 0.063673 0.051510
0.444793 0.078055 0.061399
0.511710 0.089177 0.070678
0.578964 0.097050 0.077786
0.645079 0.102900 0.082990
0.710001 0.109762 0.087183
0.773152 0.116971 0.090393
0.833469 0.124167 0.093273
0.000000 0.078164 0.049488
0.044166 0.089556 0.055049
0.094204 0.097048 0.056220
0.139554 0.095838 0.052736
0.176702 0.088916 0.044832
0.212690 0.084979 0.038184
0.255251 0.084867 0.034555
0.314339 0.091828 0.039363
0.380793 0.103712 0.048981
0.446511 0.118528 0.059120
0.512314 0.128880 0.067834
0.577893 0.134956 0.074201
0.643161 0.140518 0.079169
0.706712 0.147304 0.083041
0.768609 0.154108 0.086137
0.827886 0.161064 0.088963
0.000000 0.105207 0.043593
0.034238 0.115176 0.049785
0.084229 0.125022 0.052891
0.131833 0.131081 0.049432
0.171595 0.126068 0.040071
0.208813 0.117896 0.032127
0.254513 0.118261 0.029126
0.313651 0.126793 0.033425
0.378846 0.140379 0.043210
0.444226 0.155241 0.053796
0.509133 0.164608 0.062104
0.574119 0.170475 0.068306
0.638072 0.176046 0.073260
0.701231 0.182732 0.077051
0.761993 0.189510 0.080204
0.820682 0.196374 0.083095
0.000000 0.151116 0.044855
0.027346 0.155090 0.050079
0.074236 0.156328 0.051784
0.119119 0.153998 0.045556
0.161385 0.149898 0.034319
0.202423 0.148737 0.024773
0.251489 0.152919 0.022154
0.308986 0.160243 0.024983
0.372992 0.174971 0.034617
0.438388 0.189688 0.045297
0.502815 0.198036 0.053334
0.567646 0.204075 0.059942
0.631040 0.210552 0.065228
0.693966 0.217367 0.069334
0.754348 0.224484 0.072919
0.812781 0.231474 0.076154
0.000000 0.201959 0.049267
0.023511 0.206416 0.055352
0.068888 0.205314 0.056572
0.110986 0.195238 0.048534
0.153514 0.180810 0.033512
0.196923 0.173600 0.021029
0.245678 0.177298 0.017563
0.300795 0.190482 0.018358
0.364199 0.209343 0.026156
0.430525 0.223753 0.036166
0.495899 0.233127 0.044232
0.560816 0.239546 0.051090
0.624306 0.246592 0.056716
0.687017 0.254125 0.061359
0.747259 0.261329 0.065537
0.805306 0.268845 0.069378
0.000000 0.253694 0.055400
0.022021 0.259906 0.063446
0.066994 0.259097 0.064764
0.109412 0.249438 0.056717
0.152070 0.233899 0.041572
0.196661 0.221531 0.028209
0.243366 0.217593 0.020462
0.294491 0.224141 0.019063
0.353389 0.236389 0.021720
0.419760 0.251272 0.029042
0.487249 0.265983 0.036969
0.553215 0.278148 0.044144
0.618392 0.286806 0.049289
0.681410 0.294928 0.054135
0.741591 0.302425 0.058949
0.799732 0.309945 0.063460
0.000000 0.301185 0.060733
0.021409 0.309517 0.070589
0.066697 0.309456 0.071962
0.108727 0.300133 0.063613
0.150996 0.286887 0.049707
0.197710 0.279436 0.038914
0.246035 0.278259 0.031868
0.296133 0.279113 0.027709
0.350642 0.280478 0.026441
0.413449 0.283458 0.027898
0.478543 0.289664 0.032101
0.544020 0.302872 0.038533
0.611217 0.321347 0.044541
0.676305 0.337206 0.050108
0.737237 0.348681 0.055126
0.796164 0.357991 0.060015
0.000000 0.341626 0.063397
0.020093 0.350901 0.074069
0.064446 0.350992 0.075032
0.106282 0.342255 0.065891
0.148743 0.332371 0.054181
0.197116 0.331215 0.046952
0.248637 0.335815 0.043526
0.302394 0.339914 0.041317
0.358035 0.340856 0.039276
0.416287 0.339543 0.038670
0.478091 0.337235 0.038267
0.541024 0.338970 0.039847
0.605413 0.346884 0.043053
0.670729 0.364005 0.048580
0.734613 0.388471 0.056190
0.795774 0.408771 0.063474
0.000000 0.378817 0.064751
0.017466 0.387374 0.075051
0.060927 0.387128 0.074863
0.103056 0.378995 0.065207
0.146461 0.373507 0.056328
0.196329 0.377348 0.052237
0.251520 0.386495 0.052232
0.309299 0.394106 0.052708
0.368884 0.398498 0.052572
0.428427 0.401265 0.053907
0.485863 0.401350 0.054296
0.546528 0.399381 0.052653
0.608282 0.397559 0.051150
0.669710 0.401257 0.052331
0.731405 0.413520 0.056886
0.792968 0.436757 0.064476
0.000000 0.414647 0.065230
0.015241 0.422243 0.074365
0.057045 0.420874 0.072733
0.099810 0.413953 0.063261
0.145257 0.413616 0.057237
0.196853 0.421696 0.056155
0.256199 0.434431 0.059576
0.318658 0.445496 0.063103
0.380964 0.453764 0.065845
0.441085 0.458801 0.068036
0.497544 0.461208 0.068925
0.553583 0.463336 0.068873
0.612750 0.463211 0.066975
0.673028 0.461385 0.064476
0.731725 0.461964 0.064307
0.790610 0.469564 0.067331
0.000000 0.450559 0.065834
0.011306 0.457074 0.073249
0.053698 0.455023 0.070000
0.098808 0.450921 0.061696
0.146752 0.455184 0.058581
0.201322 0.466191 0.060328
0.264942 0.482242 0.066926
0.329706 0.495827 0.072706
0.391589 0.505759 0.077035
0.451003 0.511656 0.080067
0.506927 0.514992 0.080961
0.562028 0.518799 0.081408
0.616960 0.522841 0.081685
0.674988 0.526500 0.081488
0.734620 0.528353 0.080522
0.791991 0.528381 0.080071
0.000000 0.487201 0.066461
0.009207 0.492845 0.072020
0.052455 0.491194 0.067472
0.101698 0.492129 0.062313
0.153344 0.500315 0.061931
0.210803 0.513246 0.066706
0.275443 0.529227 0.074026
0.341054 0.544946 0.082083
0.402144 0.556087 0.087713
0.459855 0.562634 0.091142
0.515304 0.566718 0.092367
0.570206 0.571173 0.092819
0.624388 0.576854 0.093703
0.678958 0.584438 0.096172
0.735803 0.592461 0.098494
0.795011 0.597681 0.099333
0.000000 0.525033 0.067821
0.008545 0.530506 0.071896
0.055519 0.531733 0.067624
0.111296 0.539437 0.066950
0.165193 0.548539 0.068323
0.222826 0.560788 0.073961
0.287444 0.576187 0.081918
0.353649 0.593490 0.091774
0.413239 0.605568 0.098696
0.469204 0.612812 0.102788
0.523807 0.617326 0.104068
0.577754 0.622149 0.104602
0.631665 0.628444 0.105634
0.685836 0.637534 0.108594
0.740507 0.648409 0.112875
0.796273 0.658684 0.117189
0.000000 0.565365 0.071176
0.012056 0.572508 0.074783
0.066843 0.580380 0.074241
0.126005 0.590373 0.075183
0.180767 0.598303 0.076752
0.237844 0.609997 0.083454
0.301947 0.625256 0.092640
0.368031 0.642690 0.103691
0.426220 0.655153 0.111153
0.480017 0.662666 0.115632
0.533273 0.667794 0.117417
0.585654 0.672952 0.117884
0.638968 0.679529 0.119107
0.692699 0.689009 0.121754
0.746136 0.700132 0.126020
0.799366 0.711501 0.131163
0.000000 0.610167 0.077511
0.019430 0.621638 0.082975
0.085173 0.635199 0.086368
0.144950 0.643710 0.087081
0.200304 0.651163 0.089482
0.256816 0.662514 0.097093
0.319693 0.677239 0.106704
0.385060 0.694272 0.118253
0.441856 0.705988 0.126173
0.493458 0.713300 0.130341
0.543826 0.718617 0.131715
0.594617 0.723858 0.131993
0.646513 0.730586 0.133355
0.699609 0.740064 0.136052
0.751361 0.749872 0.139160
0.802335 0.760281 0.143272
0.006591 0.017763 0.104088
0.051085 0.021621 0.108333
0.098794 0.026690 0.111513
0.145462 0.031608 0.112269
0.186265 0.032431 0.108420
0.224164 0.028748 0.100233
0.263463 0.023890 0.092535
0.313438 0.023021 0.093064
0.378926 0.028262 0.100824
0.446760 0.036475 0.109335
0.513791 0.048640 0.119905
0.583091 0.061394 0.129950
0.653157 0.070930 0.137780
0.720247 0.078841 0.142677
0.784605 0.087392 0.146477
0.844980 0.096032 0.149692
0.001059 0.058338 0.103906
0.049384 0.063090 0.109399
0.097205 0.066871 0.112392
0.144248 0.070203 0.112574
0.186078 0.069772 0.108180
0.224641 0.064694 0.097909
0.265060 0.060972 0.089996
0.317104 0.062616 0.090737
0.383966 0.070144 0.099396
0.452212 0.080543 0.108651
0.519808 0.093692 0.119447
0.588752 0.105414 0.128889
0.656811 0.114207 0.135879
0.721902 0.121879 0.140530
0.784511 0.129777 0.144145
0.843578 0.138108 0.147327
0.000000 0.092836 0.102589
0.046493 0.102562 0.109669
0.095293 0.107219 0.113085
0.143014 0.108258 0.111608
0.186402 0.106204 0.104985
0.224056 0.098912 0.093527
0.265349 0.095698 0.085587
0.319654 0.100415 0.086947
0.387118 0.109936 0.096268
0.455191 0.122569 0.106395
0.523158 0.136353 0.117343
0.591384 0.146611 0.126283
0.657643 0.154434 0.132560
0.721013 0.162006 0.137065
0.782193 0.169522 0.140648
0.840187 0.177545 0.143803
0.000000 0.123813 0.099626
0.040264 0.135487 0.107918
0.090821 0.144885 0.112344
0.139869 0.149547 0.111122
0.184129 0.143661 0.101496
0.221157 0.132794 0.087781
0.263599 0.129628 0.080109
0.319293 0.135653 0.081506
0.385930 0.146994 0.090568
0.454597 0.161765 0.101861
0.522325 0.175056 0.112764
0.589883 0.183880 0.120955
0.654316 0.191265 0.127016
0.716655 0.198761 0.131610
0.776805 0.206316 0.135204
0.834148 0.213984 0.138567
0.000000 0.168526 0.100146
0.034518 0.175714 0.107970
0.084427 0.180552 0.111783
0.132084 0.183268 0.110425
0.176842 0.180673 0.099467
0.215068 0.170538 0.084136
0.260313 0.165210 0.075323
0.316126 0.170594 0.075578
0.381625 0.182217 0.083052
0.450437 0.198173 0.094965
0.517580 0.210735 0.105528
0.584232 0.218511 0.113035
0.647964 0.225938 0.119227
0.710109 0.233566 0.123954
0.769801 0.241578 0.127984
0.827006 0.249351 0.131854
0.000000 0.220194 0.104281
0.031694 0.226998 0.112313
0.080625 0.229079 0.116241
0.124592 0.224035 0.112817
0.166305 0.211587 0.098680
0.208153 0.200700 0.082110
0.255855 0.201484 0.073069
0.310349 0.208386 0.071104
0.374217 0.219741 0.076719
0.443323 0.235295 0.087687
0.511184 0.246523 0.097461
0.577301 0.253725 0.104451
0.640389 0.261025 0.110480
0.702518 0.268907 0.115472
0.762509 0.277258 0.120178
0.819882 0.285526 0.124725
0.000000 0.268138 0.109388
0.029360 0.276089 0.117724
0.077910 0.279600 0.122401
0.121261 0.275204 0.119294
0.162482 0.262105 0.106811
0.205859 0.245769 0.089078
0.253038 0.238112 0.076753
0.303466 0.240847 0.071135
0.363915 0.256488 0.074551
0.432381 0.274142 0.083739
0.501628 0.285473 0.092129
0.568705 0.294059 0.098513
0.633243 0.301025 0.103795
0.695651 0.308513 0.108378
0.755590 0.316629 0.113278
0.813187 0.325051 0.118147
0.000000 0.310276 0.112412
0.026856 0.319672 0.121540
0.075770 0.324942 0.127241
0.119485 0.321990 0.124943
0.161034 0.311140 0.113818
0.205620 0.298182 0.098714
0.253591 0.291044 0.087339
0.303703 0.289939 0.080083
0.359666 0.296599 0.079236
0.423162 0.306086 0.082648
0.492049 0.318008 0.089252
0.559020 0.332707 0.096551
0.625404 0.345525 0.101831
0.689550 0.354982 0.106263
0.750091 0.363507 0.110779
0.808273 0.371940 0.115746
0.000000 0.348445 0.113932
0.024649 0.358869 0.123690
0.073860 0.365750 0.130680
0.117186 0.362928 0.127846
0.158945 0.353170 0.117192
0.203990 0.344357 0.104954
0.253520 0.341751 0.096260
0.307149 0.345906 0.092333
0.364910 0.350645 0.090685
0.424240 0.353698 0.090389
0.488368 0.356929 0.092510
0.553482 0.363931 0.096696
0.619745 0.377572 0.102246
0.685640 0.397407 0.108610
0.748325 0.414844 0.115070
0.808307 0.427839 0.121158
0.000000 0.385835 0.114855
0.021715 0.396087 0.124581
0.070397 0.402795 0.131943
0.113699 0.400000 0.128377
0.156686 0.392126 0.117983
0.202228 0.386871 0.108815
0.253546 0.388621 0.102959
0.310901 0.396640 0.102271
0.372498 0.403922 0.102470
0.433785 0.409275 0.103279
0.493257 0.412232 0.104951
0.555571 0.413788 0.105441
0.619467 0.417303 0.106797
0.682401 0.427213 0.110560
0.745376 0.446157 0.117519
0.807567 0.472424 0.126620
0.000000 0.422218 0.115204
0.019135 0.432268 0.124814
0.065839 0.437793 0.131566
0.110091 0.434576 0.126852
0.155090 0.429587 0.117852
0.201262 0.428311 0.111621
0.254719 0.434041 0.108748
0.316103 0.445043 0.111037
0.381536 0.455598 0.113527
0.444271 0.463435 0.116011
0.503306 0.468754 0.118393
0.560720 0.472707 0.119892
0.621417 0.474444 0.119371
0.682633 0.475658 0.118798
0.742661 0.482480 0.122036
0.803554 0.497679 0.128529
0.000000 0.458504 0.115419
0.015602 0.468194 0.124987
0.061724 0.472709 0.129940
0.107886 0.469772 0.124696
0.155609 0.468067 0.118124
0.203691 0.471068 0.114691
0.260453 0.481161 0.115632
0.325116 0.494070 0.119923
0.391370 0.506747 0.124503
0.453114 0.515317 0.127672
0.511756 0.521107 0.130227
0.568419 0.526861 0.132068
0.625109 0.532386 0.133724
0.684031 0.537279 0.134889
0.744031 0.540513 0.135514
0.802505 0.544911 0.138158
0.000000 0.495504 0.115966
0.012993 0.504769 0.125386
0.059397 0.508672 0.128967
0.108663 0.507555 0.124115
0.159875 0.510256 0.120505
0.211582 0.517424 0.120428
0.270506 0.529352 0.123822
0.336092 0.543145 0.129348
0.401648 0.557031 0.135534
0.462051 0.566223 0.139332
0.519714 0.572110 0.141868
0.576139 0.578477 0.143657
0.631927 0.585701 0.145977
0.687889 0.594502 0.149549
0.745505 0.603425 0.153787
0.804377 0.609407 0.155883
0.000000 0.533325 0.117499
0.011468 0.542908 0.127053
0.060176 0.547440 0.129764
0.115346 0.550882 0.127321
0.171170 0.558292 0.127375
0.225227 0.567153 0.129355
0.284027 0.578650 0.133857
0.348987 0.592864 0.140241
0.413547 0.607523 0.147915
0.472149 0.617096 0.152380
0.528305 0.623127 0.154892
0.583974 0.629526 0.156496
0.639330 0.637165 0.158783
0.694674 0.647370 0.162735
0.749671 0.658759 0.168658
0.804846 0.668978 0.173964
0.000000 0.573484 0.121586
0.013411 0.584783 0.131933
0.067793 0.592476 0.135733
0.130524 0.602476 0.137366
0.188805 0.611005 0.138747
0.243819 0.619545 0.142001
0.301565 0.630955 0.147745
0.365150 0.644698 0.154894
0.428875 0.659471 0.163393
0.485009 0.669101 0.168375
0.539041 0.675112 0.170469
0.592773 0.680833 0.171534
0.646898 0.688155 0.173400
0.701073 0.698054 0.176666
0.754246 0.708953 0.181470
0.806420 0.719786 0.186565
0.000000 0.617967 0.128761
0.019068 0.632534 0.141326
0.085025 0.646408 0.148603
0.151966 0.659378 0.152708
0.210827 0.666566 0.154223
0.265938 0.674691 0.158387
0.322791 0.685650 0.164797
0.384281 0.699023 0.172404
0.446738 0.713468 0.181697
0.501361 0.722518 0.186831
0.551960 0.728000 0.188171
0.602878 0.732864 0.187868
0.655082 0.739789 0.189001
0.706922 0.748219 0.191045
0.757765 0.757084 0.193649
0.807656 0.766431 0.196873
0.010923 0.028226 0.158174
0.053748 0.031232 0.161106
0.100121 0.036308 0.165154
0.147650 0.042533 0.168164
0.194040 0.047827 0.167592
0.234178 0.046573 0.162312
0.272665 0.042920 0.155797
0.319612 0.041087 0.153190
0.381701 0.042837 0.157462
0.447761 0.047957 0.164583
0.513530 0.056564 0.173268
0.581786 0.070128 0.183756
0.652802 0.081456 0.193011
0.721727 0.091548 0.200077
0.786558 0.100395 0.204247
0.847909 0.109342 0.207649
0.005270 0.071733 0.160129
0.052727 0.074663 0.164436
0.099957 0.078852 0.168890
0.146911 0.083629 0.171739
0.193612 0.087147 0.170754
0.234003 0.085182 0.163828
0.272247 0.080548 0.154500
0.320941 0.079664 0.150218
0.384684 0.083916 0.155070
0.452142 0.091041 0.162859
0.518702 0.101895 0.172712
0.588561 0.115524 0.183075
0.659294 0.126399 0.191720
0.725933 0.135453 0.197619
0.789230 0.144318 0.201628
0.849049 0.152850 0.205206
0.000762 0.110451 0.161131
0.050368 0.116926 0.166688
0.098486 0.121192 0.171325
0.145770 0.124303 0.173990
0.192273 0.125756 0.172121
0.232969 0.121964 0.163179
0.272274 0.115783 0.150512
0.322142 0.116161 0.145369
0.386709 0.122333 0.150540
0.455233 0.131832 0.159377
0.523437 0.145251 0.170218
0.593647 0.158528 0.180603
0.663038 0.168748 0.188589
0.727779 0.177299 0.194001
0.789517 0.186009 0.198325
0.847733 0.194188 0.201982
0.000000 0.140741 0.159804
0.044893 0.152166 0.167089
0.095368 0.161155 0.172868
0.143390 0.165150 0.175165
0.189721 0.163656 0.170896
0.232337 0.157573 0.158415
0.272411 0.150260 0.144964
0.322926 0.151251 0.139465
0.386474 0.159005 0.143850
0.456317 0.170730 0.153803
0.525491 0.185554 0.165547
0.595684 0.198105 0.176037
0.662967 0.207497 0.183244
0.726335 0.216089 0.188921
0.786794 0.224737 0.193159
0.844214 0.232805 0.197200
0.000000 0.183361 0.161573
0.038269 0.191485 0.167919
0.089425 0.199039 0.173443
0.138559 0.204697 0.175523
0.185210 0.204627 0.170171
0.228755 0.194772 0.154282
0.271948 0.186485 0.139894
0.322675 0.187051 0.134513
0.384257 0.194093 0.136596
0.454888 0.207642 0.146871
0.524602 0.222896 0.158982
0.593511 0.233981 0.168361
0.658726 0.242804 0.175373
0.721033 0.251415 0.181002
0.780986 0.260230 0.185681
0.837846 0.268651 0.190292
0.000000 0.235605 0.166112
0.034304 0.243017 0.171667
0.085224 0.247973 0.176851
0.132800 0.247841 0.177216
0.177619 0.243100 0.170920
0.222489 0.234953 0.154533
0.268209 0.227736 0.139168
0.319486 0.225617 0.131748
0.379190 0.231444 0.131760
0.449748 0.245144 0.140605
0.521028 0.259957 0.151877
0.589060 0.269300 0.159930
0.653061 0.277464 0.166419
0.714612 0.286431 0.172005
0.773901 0.295281 0.177080
0.830910 0.304583 0.182555
0.000000 0.280722 0.169150
0.030514 0.289203 0.175140
0.081538 0.295035 0.180114
0.129044 0.295752 0.181411
0.172723 0.288672 0.174849
0.216337 0.274852 0.158748
0.264227 0.265389 0.141906
0.314344 0.265867 0.132164
0.372170 0.274161 0.131289
0.441333 0.288566 0.139148
0.513071 0.301469 0.148799
0.581976 0.309838 0.155429
0.646732 0.317206 0.160900
0.708695 0.325170 0.165490
0.768163 0.333854 0.170008
0.825208 0.343195 0.175951
0.000000 0.320704 0.170411
0.026434 0.330536 0.177111
0.078359 0.337676 0.182678
0.126026 0.339995 0.185032
0.170652 0.334618 0.179530
0.215026 0.323517 0.166789
