assets/lut/editingcorp partia.cube
# Created by: G'MIC (https://gmic.eu)
TITLE "partia"
# LUT size
LUT_3D_SIZE 5
# Data domain
DOMAIN_MIN 0.0 0.0 0.0
DOMAIN_MAX 1.0 1.0 1.0
# LUT data points
0.0216203723102808 0.024188591167330742 0.01173216849565506
0.48026373982429504 0.10972359031438828 0.11584373563528061
0.81146645545959473 0.23495548963546753 0.2254088819026947
0.91623824834823608 0.2792913019657135 0.27851760387420654
0.98995095491409302 0.27674052119255066 0.28737595677375793
0.027375195175409317 0.2834109365940094 0.043127231299877167
0.27451956272125244 0.27893719077110291 0.049457039684057236
0.74949079751968384 0.35459965467453003 0.16567070782184601
0.91497880220413208 0.40165528655052185 0.25869309902191162
0.99129700660705566 0.41196882724761963 0.27785265445709229
0.059858899563550949 0.58777093887329102 0.10573744028806686
0.16619937121868134 0.58239316940307617 0.10646770894527435
0.59897518157958984 0.58594363927841187 0.10718148946762085
0.90706270933151245 0.61501598358154297 0.17520672082901001
0.99198675155639648 0.61420518159866333 0.21013878285884857
0.10221008956432343 0.84202182292938232 0.16984701156616211
0.17108446359634399 0.83392804861068726 0.1737820953130722
0.43169119954109192 0.84404176473617554 0.16975612938404083
0.85400092601776123 0.83417463302612305 0.16357223689556122
0.99201607704162598 0.83823686838150024 0.19919976592063904
0.11956706643104553 0.96819370985031128 0.18635042011737823
0.1911383718252182 0.96320319175720215 0.18422456085681915
0.35513108968734741 0.98266023397445679 0.19987937808036804
0.77942532300949097 0.98193377256393433 0.18719190359115601
0.98680984973907471 0.99356740713119507 0.20630909502506256
0.04884319007396698 0.021434620022773743 0.28540301322937012
0.42208161950111389 0.046400360763072968 0.30877703428268433
0.79663169384002686 0.16523744165897369 0.3678499162197113
0.91561400890350342 0.26634243130683899 0.39535102248191833
0.99074757099151611 0.28840211033821106 0.39887356758117676
0.029353765770792961 0.28858458995819092 0.24083471298217773
0.26446449756622314 0.2734408974647522 0.2243490070104599
0.74201673269271851 0.35425961017608643 0.29616221785545349
0.91350722312927246 0.40508762001991272 0.35761180520057678
0.99145686626434326 0.42027190327644348 0.37159734964370728
0.062967918813228607 0.59299027919769287 0.22882543504238129
0.1595379114151001 0.58033722639083862 0.21146497130393982
0.59079062938690186 0.58108192682266235 0.18356077373027802
0.90502029657363892 0.61083269119262695 0.24896839261054993
0.99085569381713867 0.6174854040145874 0.28508126735687256
0.11261939257383347 0.83682167530059814 0.25909700989723206
0.17424197494983673 0.83583241701126099 0.25083380937576294
0.423552006483078 0.84588998556137085 0.25091063976287842
0.85290461778640747 0.83529692888259888 0.24447232484817505
0.98972350358963013 0.82872074842453003 0.27258935570716858
0.11739549785852432 0.97381532192230225 0.25070151686668396
0.16177858412265778 0.96533679962158203 0.26154235005378723
0.29802355170249939 0.97758400440216064 0.29460373520851135
0.77992695569992065 0.98830634355545044 0.25156691670417786
0.98798507452011108 0.99514526128768921 0.2846522331237793
0.1315714418888092 0.032147098332643509 0.60892874002456665
0.40458276867866516 0.026161208748817444 0.61780202388763428
0.75784814357757568 0.099183879792690277 0.62984776496887207
0.90413796901702881 0.14061287045478821 0.63297313451766968
0.98768573999404907 0.19667752087116241 0.62995737791061401
0.089275136590003967 0.27744102478027344 0.58173263072967529
0.2852497398853302 0.26156866550445557 0.56784981489181519
0.70785892009735107 0.2914615273475647 0.59020847082138062
0.90726393461227417 0.36157217621803284 0.61623579263687134
0.98767966032028198 0.36725607514381409 0.61679399013519287
0.073392800986766815 0.60454797744750977 0.53181320428848267
0.15942747890949249 0.59600722789764404 0.52662163972854614
0.57856184244155884 0.58568155765533447 0.50671350955963135
0.89886152744293213 0.63259613513946533 0.56168836355209351
0.99074751138687134 0.6372685432434082 0.57548707723617554
0.11351333558559418 0.84725058078765869 0.47324374318122864
0.17590892314910889 0.8472132682800293 0.46609461307525635
0.40926721692085266 0.85194557905197144 0.45755138993263245
0.84441590309143066 0.83344531059265137 0.4380633533000946
0.98793035745620728 0.83400064706802368 0.45880693197250366
0.12557941675186157 0.97145891189575195 0.43146276473999023
0.17461307346820831 0.97062450647354126 0.42694520950317383
0.3265748918056488 0.98316580057144165 0.44025826454162598
0.77651137113571167 0.98806482553482056 0.40403765439987183
0.99696952104568481 0.99546569585800171 0.42047604918479919
0.17913194000720978 0.04798850417137146 0.79448986053466797
0.40579038858413696 0.040836170315742493 0.80411750078201294
0.72924959659576416 0.083855770528316498 0.80968362092971802
0.89855837821960449 0.11899831146001816 0.8099358081817627
0.98137253522872925 0.11118466407060623 0.81384158134460449
0.14769311249256134 0.26137658953666687 0.79745733737945557
0.33546817302703857 0.25901675224304199 0.80286842584609985
0.69309812784194946 0.24084977805614471 0.82132160663604736
0.90035492181777954 0.28767713904380798 0.81482124328613281
0.98138648271560669 0.30628621578216553 0.81455987691879272
0.10517510771751404 0.58443892002105713 0.81902086734771729
0.21165984869003296 0.57325249910354614 0.81318801641464233
0.58890026807785034 0.57124698162078857 0.79905080795288086
0.89164870977401733 0.59993058443069458 0.81048405170440674
0.9902496337890625 0.61646068096160889 0.81798160076141357
0.11950767040252686 0.86239594221115112 0.78992271423339844
0.18696513772010803 0.85870069265365601 0.78847342729568481
0.41617730259895325 0.85323846340179443 0.77020937204360962
0.83891099691390991 0.84317302703857422 0.76332670450210571
0.98687267303466797 0.84992069005966187 0.78000825643539429
0.15429332852363586 0.97990697622299194 0.74829083681106567
0.22416016459465027 0.98033809661865234 0.74318379163742065
0.38512298464775085 0.99005639553070068 0.74353128671646118
0.8004525899887085 0.99526774883270264 0.73575669527053833
0.99291735887527466 0.99578720331192017 0.75283163785934448
0.18845438957214355 0.029237112030386925 0.89009422063827515
0.40852698683738708 0.023741165176033974 0.8989102840423584
0.72421693801879883 0.074456311762332916 0.90980911254882812
0.89728933572769165 0.077280975878238678 0.90519261360168457
0.98033088445663452 0.071566469967365265 0.9053804874420166
0.16409985721111298 0.25524884462356567 0.89930158853530884
0.35434463620185852 0.25365650653839111 0.90467590093612671
0.67203527688980103 0.24172373116016388 0.91511517763137817
0.89316678047180176 0.27397200465202332 0.91367161273956299
0.98174846172332764 0.29812508821487427 0.91687864065170288
0.12189657241106033 0.56318944692611694 0.91773140430450439
0.25721734762191772 0.5560186505317688 0.91167807579040527
0.58791792392730713 0.56884157657623291 0.91623955965042114
0.88776969909667969 0.57001376152038574 0.9242938756942749
0.99149566888809204 0.5707816481590271 0.93079274892807007
0.12288882583379745 0.85717928409576416 0.94665682315826416
0.20527017116546631 0.85164505243301392 0.94663965702056885
0.45031154155731201 0.84131360054016113 0.94297391176223755
0.84153831005096436 0.83602637052536011 0.94022202491760254
0.99087458848953247 0.84488856792449951 0.95455402135848999
0.17554701864719391 0.98181241750717163 0.9447481632232666
0.26038873195648193 0.98395341634750366 0.95008498430252075
0.43373382091522217 0.99445647001266479 0.9591519832611084
0.8123052716255188 0.99223488569259644 0.95326727628707886
0.99523603916168213 0.9947020411491394 0.97028285264968872
