assets/lut/editingcorp ideo.cube
# Created by: G'MIC (https://gmic.eu)
TITLE "ideo"
# LUT size
LUT_3D_SIZE 7
# Data domain
DOMAIN_MIN 0.0 0.0 0.0
DOMAIN_MAX 1.0 1.0 1.0
# LUT data points
0.0058760251849889755 0.0061589260585606098 0.058877144008874893
0.12312597781419754 0.031689077615737915 0.07087002694606781
0.30242630839347839 0.08288109302520752 0.11896268278360367
0.51211440563201904 0.14259347319602966 0.19759735465049744
0.63250792026519775 0.15908175706863403 0.24054780602455139
0.69017261266708374 0.14929275214672089 0.24912235140800476
0.75252056121826172 0.14305344223976135 0.25749951601028442
0.01062062568962574 0.12538208067417145 0.059340205043554306
0.10496129095554352 0.13201883435249329 0.070377081632614136
0.30865827202796936 0.16048088669776917 0.11409565061330795
0.50614398717880249 0.19309364259243011 0.18853266537189484
0.64111864566802979 0.23535540699958801 0.24043963849544525
0.70326942205429077 0.24264374375343323 0.25679224729537964
0.76482957601547241 0.2428230494260788 0.26606202125549316
0.030431276187300682 0.2839418351650238 0.07027936726808548
0.084575548768043518 0.29733079671859741 0.065421715378761292
0.32244065403938293 0.29272288084030151 0.099242627620697021
0.5297207236289978 0.31490042805671692 0.18068528175354004
0.66684192419052124 0.37850901484489441 0.22216622531414032
0.72632664442062378 0.38267689943313599 0.23812960088253021
0.77626568078994751 0.38029807806015015 0.24335841834545135
0.042394556105136871 0.4298701286315918 0.084387011826038361
0.060038294643163681 0.43826296925544739 0.07816721498966217
0.2949184775352478 0.4652768075466156 0.086034201085567474
0.54284852743148804 0.48142126202583313 0.16208070516586304
0.6777719259262085 0.48305550217628479 0.21089163422584534
0.74040299654006958 0.51249039173126221 0.21418540179729462
0.78310739994049072 0.50320005416870117 0.22050756216049194
0.065818503499031067 0.56106317043304443 0.10907267779111862
0.10881292074918747 0.56493306159973145 0.10045475512742996
0.26614347100257874 0.56971460580825806 0.092106148600578308
0.48984676599502563 0.62506198883056641 0.10487817227840424
0.66002357006072998 0.64582574367523193 0.16200439631938934
0.755462646484375 0.62377762794494629 0.23293693363666534
0.79157936573028564 0.61050450801849365 0.22462700307369232
0.072093680500984192 0.69458854198455811 0.1003435030579567
0.09949532151222229 0.69909960031509399 0.10407059639692307
0.20245958864688873 0.71393042802810669 0.10621260106563568
0.42661884427070618 0.75264805555343628 0.10836724936962128
0.59452474117279053 0.78020596504211426 0.10584423691034317
0.72878348827362061 0.77863335609436035 0.16832171380519867
0.79347091913223267 0.76310771703720093 0.20682112872600555
0.069026768207550049 0.77426087856292725 0.097470708191394806
0.071408919990062714 0.7810942530632019 0.10804812610149384
0.11893430352210999 0.79457730054855347 0.11204025894403458
0.37762564420700073 0.8172728419303894 0.11701905727386475
0.57657277584075928 0.83543699979782104 0.10651900619268417
0.69353878498077393 0.84752017259597778 0.089465074241161346
0.77626150846481323 0.85366189479827881 0.11535840481519699
0.019034979864954948 0.032586250454187393 0.16973771154880524
0.157347172498703 0.030469199642539024 0.16436600685119629
0.34382268786430359 0.049541279673576355 0.18338727951049805
0.52171754837036133 0.095739401876926422 0.23543260991573334
0.64220672845840454 0.15641579031944275 0.27990779280662537
0.69672286510467529 0.15826933085918427 0.28621917963027954
0.75542604923248291 0.15554705262184143 0.29583153128623962
0.021802222356200218 0.12415415793657303 0.17242084443569183
0.10327491164207458 0.14215727150440216 0.1672588586807251
0.31722730398178101 0.1631050705909729 0.17204104363918304
0.50805497169494629 0.19448830187320709 0.2257484644651413
0.64252603054046631 0.2309926301240921 0.28069272637367249
0.70430487394332886 0.24533364176750183 0.29366916418075562
0.7657349705696106 0.24398188292980194 0.3017747700214386
0.033209078013896942 0.28126317262649536 0.13784004747867584
0.065668679773807526 0.29307806491851807 0.11914843320846558
0.32724878191947937 0.29324772953987122 0.14779244363307953
0.529887855052948 0.31248652935028076 0.2113010585308075
0.66360759735107422 0.37541651725769043 0.25581562519073486
0.72692620754241943 0.38673180341720581 0.2747042179107666
0.77892410755157471 0.38080236315727234 0.27892971038818359
0.04540189728140831 0.41896617412567139 0.12905004620552063
0.062986217439174652 0.42902421951293945 0.12321210652589798
0.28917902708053589 0.46525344252586365 0.12062413990497589
0.54380649328231812 0.47928041219711304 0.19924589991569519
0.68094408512115479 0.49423989653587341 0.24279209971427917
0.74492031335830688 0.51583278179168701 0.25135752558708191
0.7884831428527832 0.50702232122421265 0.25489842891693115
0.064879581332206726 0.55534201860427856 0.15379716455936432
0.098176412284374237 0.56191980838775635 0.14826066792011261
0.26144087314605713 0.57897359132766724 0.12897883355617523
0.49545979499816895 0.62370342016220093 0.1405828446149826
0.67348587512969971 0.65340584516525269 0.22552540898323059
0.75352102518081665 0.62715905904769897 0.26158353686332703
0.7947278618812561 0.61362278461456299 0.2595975399017334
0.07221260666847229 0.70025008916854858 0.14821439981460571
0.10057470202445984 0.70580190420150757 0.15143798291683197
0.21313029527664185 0.71607375144958496 0.1498444676399231
0.42881250381469727 0.75622636079788208 0.14776673913002014
0.59498059749603271 0.78573018312454224 0.14128232002258301
0.73115497827529907 0.77988404035568237 0.21248801052570343
0.7929384708404541 0.76306867599487305 0.23806416988372803
0.077747777104377747 0.78425699472427368 0.14795191586017609
0.088326424360275269 0.79012399911880493 0.15860126912593842
0.16474208235740662 0.79990577697753906 0.15939344465732574
0.3900703489780426 0.82410651445388794 0.15462623536586761
0.57894682884216309 0.83732140064239502 0.15629372000694275
0.69294089078903198 0.85096281766891479 0.14519533514976501
0.76969724893569946 0.85791730880737305 0.14786702394485474
0.038602042943239212 0.075121589004993439 0.30237060785293579
0.14295034110546112 0.061783511191606522 0.29527008533477783
0.42159873247146606 0.094480566680431366 0.29140159487724304
0.57329350709915161 0.16660301387310028 0.32097986340522766
0.66515034437179565 0.18910963833332062 0.34646981954574585
0.71443700790405273 0.18391786515712738 0.34738335013389587
0.76898044347763062 0.18416181206703186 0.35849189758300781
0.03789316862821579 0.16624681651592255 0.30077868700027466
0.088813930749893188 0.180482417345047 0.3084254264831543
0.3929390013217926 0.21383278071880341 0.2984795868396759
0.55180531740188599 0.22616417706012726 0.31662830710411072
0.6617855429649353 0.24819348752498627 0.34676507115364075
0.71555554866790771 0.24933549761772156 0.35269051790237427
0.77440387010574341 0.25521332025527954 0.35740587115287781
0.038993041962385178 0.29011356830596924 0.32125368714332581
0.036295618861913681 0.29404735565185547 0.3173486590385437
0.31970280408859253 0.34053817391395569 0.30218961834907532
0.54025113582611084 0.33385434746742249 0.30459487438201904
0.66635596752166748 0.35808613896369934 0.32094022631645203
0.7276076078414917 0.36806020140647888 0.32759439945220947
0.78048992156982422 0.36556407809257507 0.33040472865104675
0.04643617570400238 0.4296782910823822 0.29942041635513306
0.05216648057103157 0.41848143935203552 0.27453139424324036
0.24589017033576965 0.4750465452671051 0.21416959166526794
0.55064219236373901 0.49618044495582581 0.25433820486068726
0.68038725852966309 0.50515162944793701 0.28690052032470703
0.74766385555267334 0.52755218744277954 0.29097500443458557
0.79257893562316895 0.52323460578918457 0.29549711942672729
0.057596199214458466 0.52740061283111572 0.24347853660583496
0.073404662311077118 0.52839392423629761 0.23077607154846191
0.24322079122066498 0.57434749603271484 0.19139540195465088
0.49847429990768433 0.62956976890563965 0.18023271858692169
0.66547626256942749 0.65003156661987305 0.2363828718662262
0.757915198802948 0.62721866369247437 0.29464572668075562
0.79993647336959839 0.62096798419952393 0.29650118947029114
0.072961814701557159 0.70292633771896362 0.19440202414989471
0.08707408607006073 0.70324087142944336 0.18776002526283264
0.18007442355155945 0.71670627593994141 0.17312198877334595
0.43418413400650024 0.74700653553009033 0.18005596101284027
0.60245531797409058 0.79047828912734985 0.17711041867733002
0.73610401153564453 0.78451240062713623 0.24625048041343689
0.79757297039031982 0.76532405614852905 0.27360802888870239
0.0799994096159935 0.78846639394760132 0.17978128790855408
0.084448374807834625 0.79198682308197021 0.19561445713043213
0.14674398303031921 0.7968938946723938 0.18943387269973755
0.38169547915458679 0.82078820466995239 0.18670468032360077
0.57654213905334473 0.84609252214431763 0.18947693705558777
0.69371724128723145 0.85406166315078735 0.18052394688129425
0.76423949003219604 0.85434830188751221 0.17484405636787415
0.055768344551324844 0.16266211867332458 0.45203503966331482
0.11908741295337677 0.14714692533016205 0.43583190441131592
0.42584463953971863 0.20804446935653687 0.41706204414367676
0.61219280958175659 0.24337340891361237 0.42163458466529846
0.69749319553375244 0.26174157857894897 0.44859078526496887
0.74488824605941772 0.27020555734634399 0.45840641856193542
0.79447954893112183 0.27042248845100403 0.47141137719154358
0.052914921194314957 0.23473119735717773 0.44890263676643372
0.063405893743038177 0.23752386868000031 0.44842424988746643
0.3832840621471405 0.28685349225997925 0.42727327346801758
0.59915328025817871 0.30207821726799011 0.41855981945991516
0.70076900720596313 0.33146867156028748 0.45027679204940796
0.75050860643386841 0.3335416316986084 0.45600727200508118
0.79982948303222656 0.33588224649429321 0.46890553832054138
0.053520604968070984 0.30478760600090027 0.45737221837043762
0.05051860585808754 0.30987828969955444 0.46328878402709961
0.23672974109649658 0.35419502854347229 0.48690152168273926
0.59144264459609985 0.39347520470619202 0.45453479886054993
0.69732284545898438 0.39806914329528809 0.47078117728233337
0.75954151153564453 0.39836066961288452 0.47218230366706848
0.80497777462005615 0.39937382936477661 0.47593498229980469
0.052785493433475494 0.45811852812767029 0.50226128101348877
0.057963605970144272 0.45927107334136963 0.50012964010238647
0.10283011943101883 0.47639673948287964 0.4978223443031311
0.56573837995529175 0.54790985584259033 0.48837888240814209
0.70989161729812622 0.55090951919555664 0.49294745922088623
0.77611905336380005 0.54856330156326294 0.47352346777915955
0.82164329290390015 0.54043424129486084 0.47220081090927124
0.058678705245256424 0.5815853476524353 0.49383759498596191
0.062741249799728394 0.56771492958068848 0.47706294059753418
0.10526563227176666 0.56427311897277832 0.4362415075302124
0.50014883279800415 0.64818763732910156 0.34556689858436584
0.68480265140533447 0.66734182834625244 0.3650054931640625
0.77564519643783569 0.65783238410949707 0.40438002347946167
0.81652641296386719 0.65150260925292969 0.40230482816696167
0.070678114891052246 0.70577055215835571 0.38369882106781006
0.075314357876777649 0.70180588960647583 0.35611596703529358
0.10283929854631424 0.70803475379943848 0.31770512461662292
0.39145299792289734 0.7773328423500061 0.23833295702934265
0.60798043012619019 0.79406857490539551 0.23468585312366486
0.75028234720230103 0.78844738006591797 0.30863803625106812
0.81002897024154663 0.7740667462348938 0.35258740186691284
0.078282013535499573 0.79559987783432007 0.29835805296897888
0.07604498416185379 0.79559057950973511 0.31966957449913025
0.096940077841281891 0.80115294456481934 0.28723695874214172
0.31043845415115356 0.83657276630401611 0.21713121235370636
0.58686822652816772 0.8598441481590271 0.2264343798160553
0.7046012282371521 0.86106908321380615 0.20112627744674683
0.77545100450515747 0.85673809051513672 0.20785242319107056
0.060209821909666061 0.237788125872612 0.57405960559844971
0.10552724450826645 0.23806795477867126 0.55768948793411255
0.40371048450469971 0.29169562458992004 0.54290878772735596
0.63808608055114746 0.34224656224250793 0.55534082651138306
0.73155957460403442 0.36407363414764404 0.6029086709022522
0.77363014221191406 0.36965590715408325 0.61508256196975708
0.81899219751358032 0.37235653400421143 0.62164413928985596
0.054619103670120239 0.29514116048812866 0.57631701231002808
0.04758840799331665 0.29133203625679016 0.57212531566619873
0.32253247499465942 0.33999887108802795 0.56128394603729248
0.62043052911758423 0.39334824681282043 0.55575191974639893
0.730460524559021 0.42687174677848816 0.60263305902481079
0.77513575553894043 0.42136135697364807 0.60487484931945801
0.81932848691940308 0.43279185891151428 0.61414599418640137
0.064837917685508728 0.35213556885719299 0.58875381946563721
0.060075033456087112 0.35708659887313843 0.5938982367515564
0.18347086012363434 0.38215970993041992 0.61931437253952026
0.60130727291107178 0.44355389475822449 0.59477543830871582
0.72952538728713989 0.48156642913818359 0.60853970050811768
0.78382188081741333 0.48913443088531494 0.62306958436965942
0.82819861173629761 0.49357849359512329 0.62895345687866211
0.066476859152317047 0.4424748420715332 0.62775284051895142
0.078131958842277527 0.44981330633163452 0.62943905591964722
0.078332431614398956 0.47512871026992798 0.66214174032211304
0.4884437620639801 0.54139047861099243 0.6890256404876709
0.74367672204971313 0.59720522165298462 0.67010730504989624
0.80144304037094116 0.60248416662216187 0.66727358102798462
0.84956127405166626 0.60300326347351074 0.67334246635437012
0.067527651786804199 0.60398012399673462 0.68404227495193481
0.07270648330450058 0.60686039924621582 0.67611604928970337
0.088835321366786957 0.61774200201034546 0.67102217674255371
0.3092711865901947 0.64816814661026001 0.66892725229263306
0.73623383045196533 0.72360724210739136 0.66622841358184814
0.82756906747817993 0.7273331880569458 0.6826595664024353
0.86924290657043457 0.71894806623458862 0.67386722564697266
0.073294602334499359 0.7397228479385376 0.66777396202087402
0.078883975744247437 0.74351918697357178 0.65495502948760986
0.11767037957906723 0.75061357021331787 0.63587599992752075
0.20273569226264954 0.7683100700378418 0.53654336929321289
0.66161239147186279 0.82836467027664185 0.49340686202049255
0.80010294914245605 0.81576156616210938 0.5528215765953064
0.85737752914428711 0.80423665046691895 0.59363996982574463
0.078431375324726105 0.81609416007995605 0.6298559308052063
0.082009844481945038 0.82065653800964355 0.62147808074951172
0.10009858012199402 0.81853568553924561 0.58675801753997803
0.17406857013702393 0.84081506729125977 0.45343923568725586
0.59009933471679688 0.89118528366088867 0.40973511338233948
0.75908702611923218 0.88550728559494019 0.39823746681213379
0.83049523830413818 0.88468116521835327 0.42755353450775146
0.062823906540870667 0.26042640209197998 0.62781310081481934
0.079059943556785583 0.25310590863227844 0.61318659782409668
0.37995609641075134 0.3083241879940033 0.59820723533630371
0.64038556814193726 0.37522101402282715 0.62956303358078003
0.74700403213500977 0.40720587968826294 0.68820494413375854
0.79808121919631958 0.42287141084671021 0.71623390913009644
0.84957742691040039 0.43411695957183838 0.7378050684928894
0.069983191788196564 0.3214317262172699 0.64997774362564087
0.056592363864183426 0.32122510671615601 0.65180158615112305
0.29664593935012817 0.36188700795173645 0.63719135522842407
0.63402897119522095 0.42536160349845886 0.64219653606414795
0.74695771932601929 0.46558180451393127 0.69149327278137207
0.80475246906280518 0.47311076521873474 0.71741920709609985
0.85445606708526611 0.48389232158660889 0.73710793256759644
0.073447585105895996 0.38148337602615356 0.67558437585830688
0.058102298527956009 0.383931964635849 0.68682861328125
0.12835520505905151 0.3977372944355011 0.70212525129318237
0.54782330989837646 0.44531694054603577 0.71534818410873413
0.77197462320327759 0.50246304273605347 0.72021651268005371
0.82992732524871826 0.51392406225204468 0.74336826801300049
0.87240231037139893 0.52379727363586426 0.75121128559112549
0.075319774448871613 0.46839472651481628 0.72164285182952881
0.089231260120868683 0.47339028120040894 0.72560769319534302
0.092932678759098053 0.48586508631706238 0.74488407373428345
0.38907358050346375 0.52286875247955322 0.77893340587615967
0.75735878944396973 0.57916855812072754 0.78345853090286255
0.84418076276779175 0.59967279434204102 0.77686387300491333
0.87859523296356201 0.61843222379684448 0.78368836641311646
0.078078053891658783 0.5733141303062439 0.76971018314361572
0.085903793573379517 0.5755811333656311 0.76924365758895874
0.093394577503204346 0.58400708436965942 0.7723613977432251
0.24729754030704498 0.61554455757141113 0.79609668254852295
0.71776777505874634 0.708984375 0.8292427659034729
0.85475367307662964 0.74086868762969971 0.82056516408920288
0.89420175552368164 0.7478940486907959 0.82519859075546265
0.077685892581939697 0.70046579837799072 0.8022419810295105
0.075958847999572754 0.7021673321723938 0.79759544134140015
0.10085175186395645 0.71134114265441895 0.79611921310424805
0.12923809885978699 0.74202138185501099 0.79301220178604126
0.56514269113540649 0.81758838891983032 0.78776311874389648
0.84878623485565186 0.85650849342346191 0.79881936311721802
0.90267574787139893 0.85297167301177979 0.81213128566741943
0.078312940895557404 0.76874607801437378 0.8026239275932312
0.077693209052085876 0.77650648355484009 0.79915428161621094
0.095612227916717529 0.7889055609703064 0.79285794496536255
0.098209619522094727 0.8196597695350647 0.77533799409866333
0.46389931440353394 0.88754212856292725 0.73257666826248169
0.82678645849227905 0.92142033576965332 0.73975759744644165
0.89531785249710083 0.91962134838104248 0.74459612369537354
0.059341594576835632 0.26135161519050598 0.67470699548721313
0.080403119325637817 0.27448335289955139 0.66156959533691406
0.34824267029762268 0.32037538290023804 0.65083533525466919
0.64545881748199463 0.38665017485618591 0.6774715781211853
0.75626850128173828 0.41561010479927063 0.72956651449203491
0.81620103120803833 0.41543599963188171 0.76105815172195435
0.87664943933486938 0.42930114269256592 0.79752618074417114
0.085779152810573578 0.33046445250511169 0.70006418228149414
0.075989633798599243 0.33438530564308167 0.69695442914962769
0.273651123046875 0.36904126405715942 0.6858246922492981
0.61637681722640991 0.42853760719299316 0.70463275909423828
0.761435866355896 0.4670502245426178 0.73979812860488892
0.83039861917495728 0.47456461191177368 0.77393573522567749
0.8853992223739624 0.48710611462593079 0.8083336353302002
0.080607995390892029 0.3900846540927887 0.72066134214401245
0.07284843921661377 0.39066103100776672 0.73027777671813965
0.14250652492046356 0.40862828493118286 0.74514234066009521
0.50821775197982788 0.4483591616153717 0.77510756254196167
0.77177560329437256 0.49883094429969788 0.77866178750991821
0.84799277782440186 0.5165935754776001 0.79859769344329834
0.89620399475097656 0.53322750329971313 0.82445240020751953
0.074566982686519623 0.47380951046943665 0.76472246646881104
0.069216303527355194 0.47825887799263 0.76962375640869141
0.084445297718048096 0.48927995562553406 0.78635144233703613
0.36046683788299561 0.52764356136322021 0.82738417387008667
0.73776274919509888 0.57538402080535889 0.84597837924957275
0.86110067367553711 0.59564632177352905 0.84366905689239502
0.89748895168304443 0.61829984188079834 0.8532375693321228
0.081255987286567688 0.56953907012939453 0.807403564453125
0.083006285130977631 0.57475489377975464 0.80862510204315186
0.1182941198348999 0.58405649662017822 0.81416904926300049
0.27590847015380859 0.61423182487487793 0.84038978815078735
0.68827658891677856 0.69301688671112061 0.87931478023529053
0.86863917112350464 0.72449570894241333 0.883464515209198
0.9120868444442749 0.73758924007415771 0.89562892913818359
0.082250066101551056 0.67063039541244507 0.83770883083343506
0.081993669271469116 0.67540979385375977 0.83627855777740479
0.12132001668214798 0.68107730150222778 0.83741956949234009
0.15627944469451904 0.70261663198471069 0.8461536169052124
0.5452263355255127 0.77784496545791626 0.88692295551300049
0.8609086275100708 0.85524952411651611 0.90764236450195312
0.91999906301498413 0.8661380410194397 0.91814839839935303
0.07468578964471817 0.732452392578125 0.86110007762908936
0.073518179357051849 0.74036979675292969 0.85442423820495605
0.10121282190084457 0.74978631734848022 0.85573506355285645
0.11157502979040146 0.78027647733688354 0.87035435438156128
0.42598631978034973 0.84659963846206665 0.89775437116622925
0.83792316913604736 0.92334413528442383 0.91488081216812134
0.93034058809280396 0.94451183080673218 0.91691356897354126
