assets/lut/editingcorpw Frosted Silver.cube
LUT_3D_SIZE 6
DOMAIN_MIN 0.0 0.0 0.0
DOMAIN_MAX 1.0 1.0 1.0
0.164187 0.128634 0.166262
0.223569 0.129561 0.174325
0.363244 0.132973 0.182529
0.531133 0.155905 0.211027
0.739156 0.184421 0.244798
1.000000 0.237003 0.289372
0.221335 0.187607 0.175643
0.248752 0.189988 0.180491
0.401559 0.184352 0.176003
0.557409 0.194786 0.203307
0.760121 0.219084 0.236238
1.000000 0.267522 0.278794
0.332616 0.300560 0.213504
0.357891 0.298177 0.217804
0.402270 0.317767 0.227575
0.589615 0.356420 0.200859
0.828075 0.355044 0.196967
1.000000 0.382568 0.225376
0.427704 0.409565 0.238602
0.443860 0.407964 0.241258
0.485567 0.416620 0.249396
0.563928 0.464059 0.265690
0.796051 0.558229 0.242460
1.000000 0.565374 0.163009
0.557501 0.558935 0.246512
0.564765 0.551471 0.247698
0.609017 0.545408 0.255345
0.696719 0.604617 0.272361
0.817701 0.683689 0.306367
0.997656 0.787747 0.332103
0.801938 0.832120 0.234440
0.814975 0.832486 0.238621
0.862174 0.829124 0.251982
0.922326 0.854392 0.293938
0.983929 0.901756 0.385547
1.000000 0.938476 0.495644
0.151175 0.141738 0.239036
0.251364 0.134898 0.239699
0.370444 0.166934 0.241607
0.502216 0.230034 0.279061
0.715044 0.243073 0.302764
0.986254 0.281590 0.341289
0.209506 0.215246 0.241366
0.266701 0.212714 0.242052
0.379319 0.226034 0.254996
0.531039 0.239900 0.271740
0.738047 0.259289 0.295138
0.999187 0.301584 0.332516
0.323360 0.323799 0.251366
0.355921 0.319545 0.254669
0.409731 0.327492 0.264437
0.591952 0.353944 0.250204
0.823305 0.360208 0.256407
1.000000 0.393798 0.289807
0.426591 0.427706 0.263587
0.445679 0.427082 0.266363
0.490386 0.422782 0.273062
0.569086 0.470143 0.291855
0.804242 0.560636 0.276033
1.000000 0.563488 0.225752
0.559388 0.575776 0.266025
0.573013 0.573671 0.267789
0.620162 0.561462 0.274359
0.699637 0.608348 0.292426
0.821834 0.688615 0.330823
1.000000 0.793723 0.363105
0.798953 0.842924 0.257182
0.816005 0.847332 0.264400
0.860036 0.838108 0.272237
0.923556 0.857449 0.311863
0.983893 0.903039 0.402177
1.000000 0.939605 0.511736
0.142672 0.193631 0.377392
0.229440 0.182672 0.377418
0.410656 0.174323 0.370295
0.539294 0.169150 0.359376
0.715078 0.238220 0.385371
0.954961 0.373931 0.460279
0.234143 0.268920 0.374412
0.260447 0.247745 0.377018
0.412428 0.227027 0.368879
0.543138 0.219030 0.360324
0.716382 0.291346 0.391836
0.953352 0.425048 0.474562
0.283479 0.372949 0.373103
0.318860 0.374453 0.374954
0.422799 0.359827 0.366570
0.551719 0.382384 0.383026
0.763108 0.418067 0.416072
1.000000 0.475182 0.463235
0.340248 0.498599 0.341549
0.381514 0.498554 0.347168
0.494521 0.469249 0.356936
0.588935 0.493359 0.377943
0.835587 0.563226 0.382015
1.000000 0.567787 0.384902
0.531107 0.629236 0.340307
0.555659 0.632177 0.343956
0.618025 0.612360 0.345165
0.702409 0.615719 0.358819
0.832161 0.703167 0.415376
1.000000 0.800905 0.452195
0.758621 0.865208 0.326793
0.776978 0.867686 0.332782
0.830193 0.858148 0.336478
0.920025 0.860164 0.364722
0.981417 0.905372 0.455794
1.000000 0.943254 0.568798
0.007257 0.263816 0.548772
0.160680 0.241599 0.546027
0.396141 0.229073 0.533760
0.585838 0.204406 0.521199
0.748374 0.177209 0.519977
0.976769 0.126107 0.548266
0.190711 0.317063 0.537896
0.223238 0.298339 0.540362
0.395114 0.268215 0.531857
0.587726 0.246244 0.521345
0.746880 0.223273 0.517117
0.970633 0.214756 0.543728
0.259938 0.451284 0.532922
0.304527 0.446174 0.535252
0.405428 0.395711 0.529987
0.592527 0.366918 0.521163
0.768901 0.353128 0.521362
0.989271 0.431618 0.563935
0.330387 0.556684 0.526810
0.360724 0.559528 0.529767
0.457610 0.552426 0.525131
0.606776 0.536896 0.516417
0.782113 0.573831 0.544310
0.998726 0.637055 0.597972
0.363375 0.732293 0.508350
0.400384 0.738105 0.508939
0.494720 0.719996 0.480589
0.697326 0.671685 0.484877
0.841576 0.722153 0.538837
1.000000 0.803864 0.581341
0.631727 0.912157 0.464899
0.657056 0.912111 0.466576
0.744529 0.905499 0.470699
0.874848 0.893265 0.479366
0.973437 0.907110 0.537208
1.000000 0.950585 0.670088
0.000000 0.348955 0.746713
0.000000 0.329478 0.746622
0.352503 0.307643 0.743181
0.597012 0.284267 0.735616
0.805238 0.237390 0.718859
0.992206 0.190707 0.733394
0.000000 0.392281 0.744833
0.048779 0.376669 0.747421
0.349838 0.339024 0.744205
0.595259 0.315803 0.734458
0.796601 0.268597 0.709625
0.994758 0.236798 0.733866
0.270967 0.524938 0.739400
0.297364 0.515272 0.741911
0.374815 0.460667 0.743140
0.593518 0.422308 0.738051
0.810062 0.386391 0.718717
1.000000 0.363594 0.734635
0.292818 0.662738 0.734909
0.339725 0.668855 0.742731
0.456218 0.655790 0.741285
0.598248 0.583216 0.733268
0.810961 0.533267 0.711149
1.000000 0.524702 0.722882
0.419197 0.786395 0.740177
0.451555 0.791711 0.746041
0.540195 0.792353 0.747506
0.680040 0.788560 0.744824
0.844465 0.762540 0.722105
0.999502 0.844949 0.795936
0.620734 0.972509 0.779080
0.642406 0.973411 0.779219
0.692373 0.970795 0.762915
0.770744 0.960512 0.719514
0.937578 0.926955 0.696256
1.000000 0.964611 0.823856
0.183688 0.496925 0.962524
0.218363 0.486726 0.962634
0.381585 0.467061 0.962469
0.600805 0.461073 0.960638
0.803018 0.449165 0.957403
0.984894 0.436561 0.954528
0.239390 0.520440 0.957867
0.269998 0.512765 0.959331
0.384672 0.484111 0.959499
0.599239 0.475786 0.957062
0.799294 0.458904 0.952373
0.983093 0.446436 0.950701
0.410444 0.621661 0.957091
0.422311 0.614262 0.957537
0.468862 0.581687 0.959550
0.618491 0.556337 0.960424
0.810095 0.543707 0.958035
0.987182 0.530084 0.955871
0.499733 0.746682 0.952721
0.521046 0.744762 0.953857
0.589155 0.730680 0.955004
0.653833 0.679544 0.959305
0.816622 0.655198 0.958554
0.990307 0.651649 0.958105
0.645435 0.880131 0.964629
0.657516 0.880498 0.964972
0.701403 0.880818 0.965505
0.778228 0.880034 0.966123
0.875289 0.847565 0.969400
0.993640 0.841410 0.968346
0.812467 0.990784 0.980957
0.816367 0.990649 0.980762
0.839371 0.991253 0.981903
0.882884 0.992377 0.984204
0.942974 0.993463 0.987414
0.998627 0.994873 0.992096
