assets/lut/editingcorp seges.cube
# Created by: G'MIC (https://gmic.eu)
TITLE "seges"
# LUT size
LUT_3D_SIZE 5
# Data domain
DOMAIN_MIN 0.0 0.0 0.0
DOMAIN_MAX 1.0 1.0 1.0
# LUT data points
0.037768837064504623 0.034465566277503967 0.065512731671333313
0.30798143148422241 0.069486550986766815 0.068571306765079498
0.53762316703796387 0.11002257466316223 0.077703945338726044
0.66589027643203735 0.1386311799287796 0.077989764511585236
0.79976946115493774 0.15923124551773071 0.10099776089191437
0.066414713859558105 0.28529936075210571 0.0019324208842590451
0.2768397331237793 0.261466383934021 0.00048703959328122437
0.52994942665100098 0.27230903506278992 0.021627508103847504
0.68300002813339233 0.28931957483291626 0.053164344280958176
0.81269484758377075 0.28825947642326355 0.082823842763900757
0.1132567897439003 0.50714230537414551 0
0.28849342465400696 0.4852670431137085 0
0.49453672766685486 0.45902106165885925 0.0014554491499438882
0.68179810047149658 0.43508720397949219 0.046412494033575058
0.82325470447540283 0.42762821912765503 0.061148371547460556
0.13054926693439484 0.69666767120361328 0
0.31192222237586975 0.67729687690734863 0
0.46491691470146179 0.66547077894210815 0.0022033690474927425
0.68260252475738525 0.64702737331390381 0.0064112944528460503
0.8392598032951355 0.6212725043296814 0.036298878490924835
0.093307122588157654 0.87221682071685791 0
0.28978434205055237 0.85108309984207153 0
0.43472087383270264 0.84076327085494995 0.0039561851881444454
0.64129328727722168 0.82087475061416626 0
0.83406782150268555 0.83352994918823242 0
0.035016108304262161 0.026826746761798859 0.29555657505989075
0.24494390189647675 0.017822818830609322 0.29820606112480164
0.54625415802001953 0.036658074706792831 0.302663654088974
0.67875397205352783 0.080452531576156616 0.31285545229911804
0.80152666568756104 0.12516427040100098 0.29518559575080872
0.0087007861584424973 0.28156107664108276 0.27824079990386963
0.26101809740066528 0.27730229496955872 0.27662047743797302
0.54570776224136353 0.29978740215301514 0.29952254891395569
0.70980268716812134 0.32324734330177307 0.31608599424362183
0.8453870415687561 0.32501330971717834 0.30388057231903076
0.099256746470928192 0.52745264768600464 0.057485200464725494
0.30056276917457581 0.50800371170043945 0.027816817164421082
0.51028060913085938 0.47008097171783447 0.030042536556720734
0.7075771689414978 0.44618901610374451 0.044692754745483398
0.84431546926498413 0.44105017185211182 0.066621743142604828
0.1305883377790451 0.72354423999786377 0
0.33790606260299683 0.70406836271286011 0
0.48113057017326355 0.68536514043807983 0
0.70173579454421997 0.66380912065505981 0.017925022169947624
0.85909748077392578 0.62953931093215942 0
0.076773084700107574 0.89697098731994629 0
0.29512575268745422 0.88104343414306641 0
0.44753047823905945 0.86762166023254395 0.0010382259497419
0.6711387038230896 0.85092490911483765 0.0061467038467526436
0.86054050922393799 0.8502124547958374 0
0.027302879840135574 0.047581735998392105 0.50302606821060181
0.16603623330593109 0.031945951282978058 0.50190514326095581
0.47964894771575928 0.017839843407273293 0.49526989459991455
0.68760991096496582 0.069990195333957672 0.49029174447059631
0.82711148262023926 0.077815786004066467 0.46504580974578857
0.019102508202195168 0.24458655714988708 0.48991504311561584
0.17164136469364166 0.23504708707332611 0.4980427622795105
0.50828224420547485 0.24048519134521484 0.50392240285873413
0.71890348196029663 0.31486701965332031 0.486042320728302
0.85860294103622437 0.32244253158569336 0.47422909736633301
0.0026294782292097807 0.50058132410049438 0.45086902379989624
0.18532343208789825 0.50616848468780518 0.44652217626571655
0.50957483053207397 0.50504547357559204 0.4666016697883606
0.73917621374130249 0.514690101146698 0.48753446340560913
0.87671273946762085 0.51425027847290039 0.48316851258277893
0.049621820449829102 0.72427618503570557 0.32852807641029358
0.32208666205406189 0.728748619556427 0.3012394905090332
0.49548104405403137 0.71841228008270264 0.29249173402786255
0.72877562046051025 0.68934661149978638 0.37525054812431335
0.8876526951789856 0.66578316688537598 0.37465947866439819
0.028488831594586372 0.90105175971984863 0.118203304708004
0.28996026515960693 0.90127825736999512 0.073825344443321228
0.46120202541351318 0.88744115829467773 0.040805473923683167
0.68661081790924072 0.87296628952026367 0.13574677705764771
0.88778054714202881 0.87888997793197632 0.36389574408531189
0.02758229523897171 0.050908572971820831 0.66427212953567505
0.18338410556316376 0.027701927348971367 0.6661686897277832
0.36338895559310913 0.0072287763468921185 0.66296333074569702
0.67338794469833374 0.00017130235210061073 0.65280598402023315
0.82275724411010742 0.015238518826663494 0.64977806806564331
0.0056366417557001114 0.22823965549468994 0.68563878536224365
0.17785823345184326 0.2161736786365509 0.7073744535446167
0.32582888007164001 0.21760064363479614 0.71116352081298828
0.70784473419189453 0.10539929568767548 0.69099128246307373
0.86665046215057373 0.14336903393268585 0.68444246053695679
0.0087017584592103958 0.46162310242652893 0.67639702558517456
0.17963884770870209 0.46158835291862488 0.698050856590271
0.33095470070838928 0.45912492275238037 0.71226233243942261
0.7361147403717041 0.45558813214302063 0.73512893915176392
0.89383184909820557 0.47638550400733948 0.70462179183959961
0.0031854368280619383 0.68821769952774048 0.63661205768585205
0.23858499526977539 0.69911950826644897 0.65305125713348389
0.42448776960372925 0.70676916837692261 0.64981919527053833
0.74178427457809448 0.72357404232025146 0.69910377264022827
0.91461265087127686 0.72376173734664917 0.70487046241760254
0.0038233587983995676 0.86850237846374512 0.55460816621780396
0.20666807889938354 0.88421177864074707 0.55994701385498047
0.44302758574485779 0.9011918306350708 0.5536649227142334
0.71059560775756836 0.9094310998916626 0.59787046909332275
0.91723769903182983 0.90232568979263306 0.62430953979492188
0.039153363555669785 0.050626523792743683 0.82227206230163574
0.18214014172554016 0.02260621078312397 0.8198997974395752
0.28605622053146362 0.025272294878959656 0.82062548398971558
0.66547983884811401 0.0060183657333254814 0.80473417043685913
0.81829887628555298 0 0.80156224966049194
0.025296678766608238 0.22106781601905823 0.84637242555618286
0.18691143393516541 0.21821883320808411 0.86434423923492432
0.31527495384216309 0.21451644599437714 0.87068021297454834
0.69985842704772949 0.13281546533107758 0.85400223731994629
0.85994178056716919 0.06991182267665863 0.84384280443191528
0.0015942591708153486 0.44279009103775024 0.84039473533630371
0.14045986533164978 0.44356432557106018 0.86411023139953613
0.30271834135055542 0.44673708081245422 0.88321965932846069
0.7176666259765625 0.43905967473983765 0.90858250856399536
0.90528041124343872 0.40363740921020508 0.89240032434463501
0.027485581114888191 0.66864496469497681 0.81963634490966797
0.23815520107746124 0.67339527606964111 0.83467882871627808
0.4316253662109375 0.67818868160247803 0.8520466685295105
0.69691085815429688 0.70041131973266602 0.91171526908874512
0.92566984891891479 0.69215917587280273 0.9259263277053833
0.0018887389451265335 0.85010981559753418 0.81877148151397705
0.14544813334941864 0.86348468065261841 0.83397245407104492
0.38027527928352356 0.87499678134918213 0.84955036640167236
0.66443228721618652 0.9050600528717041 0.89245891571044922
0.91723662614822388 0.91681456565856934 0.92162024974822998
