assets/lut/editingcorpw Blush Blossom.cube
LUT_3D_SIZE 16
DOMAIN_MIN 0.0 0.0 0.0
DOMAIN_MAX 1.0 1.0 1.0
0.000000 0.000000 0.000000
0.000000 0.000000 0.000000
0.000000 0.000000 0.000000
0.000000 0.000000 0.000000
0.098167 0.000000 0.000000
0.273818 0.000000 0.000000
0.444584 0.000000 0.000000
0.604081 0.000000 0.000000
0.745713 0.000000 0.001282
0.871872 0.000000 0.020386
0.972534 0.000000 0.018296
1.000000 0.000000 0.016353
1.000000 0.000000 0.019657
0.999463 0.000000 0.025594
0.998850 0.000000 0.030031
0.998596 0.000000 0.034195
0.000000 0.000000 0.000000
0.000000 0.000000 0.000000
0.000000 0.000000 0.000000
0.013040 0.000000 0.000000
0.151597 0.000000 0.000000
0.303213 0.000000 0.000000
0.445726 0.001138 0.000000
0.585699 0.003353 0.000000
0.715382 0.005066 0.000000
0.841980 0.004413 0.001893
0.957731 0.003292 0.018671
0.993194 0.007015 0.024942
0.998864 0.011471 0.028786
0.999995 0.012990 0.032738
0.999460 0.010940 0.036869
0.998692 0.007037 0.041293
0.000000 0.000000 0.000000
0.000000 0.000000 0.000000
0.000000 0.000000 0.000000
0.031903 0.009161 0.000000
0.162530 0.037526 0.000000
0.268419 0.037248 0.000000
0.387754 0.022219 0.000000
0.511200 0.008737 0.000000
0.633509 0.001769 0.000000
0.748307 0.000007 0.000000
0.845233 0.002291 0.008598
0.920502 0.016794 0.025511
0.973247 0.019931 0.035647
0.999870 0.021458 0.043324
0.999745 0.024646 0.048418
0.998962 0.026603 0.052706
0.000000 0.042066 0.000000
0.000000 0.063365 0.000000
0.015154 0.087587 0.000000
0.047074 0.086162 0.000000
0.131000 0.071927 0.000000
0.239731 0.041722 0.000000
0.336541 0.019480 0.000000
0.442878 0.019952 0.000000
0.553841 0.009405 0.000000
0.671353 0.000000 0.002179
0.788227 0.000000 0.015992
0.890294 0.000000 0.035660
0.966837 0.000000 0.046265
0.995777 0.006426 0.055757
0.999860 0.017324 0.061971
0.599432 0.065119 0.037720
0.000000 0.165134 0.000000
0.013871 0.197339 0.000000
0.004210 0.193603 0.000000
0.028307 0.188386 0.000000
0.182308 0.183512 0.000000
0.292998 0.174693 0.000000
0.395641 0.161829 0.000000
0.500867 0.137660 0.000000
0.604368 0.066070 0.000000
0.707109 0.044385 0.000412
0.808975 0.030378 0.020499
0.910527 0.000000 0.027912
0.973949 0.000000 0.047008
0.998308 0.000000 0.071272
0.999708 0.000000 0.076425
0.000000 0.196547 0.000000
0.000000 0.264006 0.000000
0.006063 0.287243 0.000000
0.000000 0.288997 0.000000
0.043693 0.287630 0.000000
0.174155 0.285597 0.000000
0.294392 0.287759 0.000000
0.404083 0.276753 0.000000
0.512692 0.260745 0.000000
0.618136 0.242599 0.000000
0.722370 0.220004 0.000000
0.826205 0.169817 0.003845
0.923332 0.087137 0.018510
0.979711 0.057229 0.028696
1.000000 0.006365 0.048004
0.999033 0.000000 0.089949
0.000000 0.292261 0.000000
0.000000 0.358138 0.000000
0.000000 0.377693 0.000000
0.000000 0.397265 0.000000
0.000909 0.393465 0.000000
0.084548 0.393081 0.000000
0.265589 0.396673 0.000000
0.409420 0.399578 0.000000
0.527699 0.388720 0.000000
0.638168 0.373193 0.000000
0.744382 0.357221 0.000000
0.847837 0.335426 0.000000
0.938125 0.303379 0.000536
0.990723 0.245189 0.000000
1.000000 0.166317 0.011450
0.999881 0.099030 0.028036
0.000000 0.392980 0.000000
0.000000 0.449405 0.000000
0.000518 0.488470 0.000000
0.000000 0.511273 0.000000
0.000000 0.507066 0.000000
0.000114 0.510996 0.000000
0.123301 0.517740 0.000000
0.374708 0.525261 0.000000
0.526198 0.531465 0.000000
0.648638 0.525325 0.000000
0.757267 0.509452 0.000000
0.858032 0.490412 0.000000
0.941328 0.465628 0.000000
0.996424 0.431302 0.000000
1.000000 0.379052 0.000000
1.000000 0.309636 0.000000
0.000000 0.487991 0.000000
0.000000 0.554467 0.000000
0.012132 0.613863 0.000000
0.000000 0.626750 0.000000
0.000000 0.627024 0.000000
0.000000 0.632881 0.000000
0.106181 0.639467 0.000000
0.328659 0.646174 0.000000
0.502972 0.653424 0.000000
0.636231 0.657354 0.000000
0.752702 0.654053 0.000000
0.852024 0.638554 0.000000
0.942088 0.619211 0.000000
0.992436 0.588788 0.000000
0.999508 0.544777 0.000000
0.999899 0.490355 0.000000
0.000000 0.583733 0.000000
0.000000 0.682530 0.000000
0.022499 0.739053 0.000000
0.000000 0.735314 0.000000
0.000000 0.736444 0.000000
0.000000 0.740811 0.000000
0.010710 0.745758 0.000000
0.216068 0.751151 0.000000
0.472321 0.755958 0.000000
0.613998 0.760954 0.000000
0.732974 0.761580 0.000000
0.841024 0.759221 0.000000
0.933995 0.746621 0.000000
0.979546 0.721039 0.000000
0.998139 0.686166 0.000000
0.996990 0.638733 0.000000
0.000000 0.707670 0.000000
0.001399 0.799430 0.000000
0.016064 0.829040 0.000000
0.000000 0.825226 0.000000
0.000000 0.827107 0.000000
0.000000 0.830804 0.000000
0.000000 0.834907 0.000000
0.210912 0.838665 0.000000
0.442150 0.841836 0.000000
0.593289 0.844531 0.000000
0.709933 0.846862 0.000000
0.817888 0.846515 0.000000
0.912338 0.841927 0.000000
0.974240 0.826567 0.000000
0.991753 0.797367 0.000000
0.991371 0.758893 0.000000
0.000000 0.818224 0.000000
0.018833 0.895867 0.000000
0.008318 0.900192 0.000000
0.000000 0.898073 0.000000
0.000000 0.900278 0.000000
0.000000 0.902571 0.000000
0.008766 0.904774 0.000000
0.175004 0.906846 0.000000
0.387470 0.909539 0.000000
0.561169 0.912264 0.000000
0.682826 0.915292 0.000000
0.788787 0.916919 0.000000
0.884559 0.914474 0.000000
0.959488 0.905917 0.000000
0.978475 0.883821 0.000000
0.983956 0.853666 0.000000
0.002592 0.905823 0.000000
0.022675 0.947860 0.000000
0.001350 0.944874 0.000000
0.000000 0.943980 0.000000
0.000000 0.944595 0.000000
0.000000 0.945983 0.000000
0.000000 0.948008 0.000000
0.063921 0.949990 0.000000
0.348012 0.953039 0.000000
0.519338 0.955642 0.000000
0.645879 0.956849 0.000000
0.755218 0.955068 0.000000
0.853634 0.953354 0.000000
0.928066 0.950529 0.000000
0.967478 0.943890 0.000000
0.974308 0.924822 0.000000
0.021335 0.953030 0.000000
0.014711 0.955923 0.000000
0.000000 0.955020 0.000000
0.000000 0.955258 0.000000
0.000000 0.956003 0.000000
0.000000 0.957427 0.000000
0.000000 0.959624 0.000000
0.066637 0.963150 0.000000
0.299764 0.967123 0.000000
0.460609 0.970518 0.000000
0.588625 0.979191 0.000000
0.700598 0.989417 0.000000
0.804047 0.990818 0.000000
0.893504 0.993859 0.000000
0.955752 0.990262 0.000000
0.962141 0.966772 0.000000
0.021756 0.956264 0.000000
0.006631 0.955193 0.000000
0.000000 0.954885 0.000000
0.000000 0.954742 0.000000
0.000000 0.955120 0.000000
0.000000 0.955948 0.000000
0.000000 0.957375 0.000000
0.038457 0.959248 0.000000
0.196705 0.962242 0.000000
0.402860 0.967195 0.000000
0.519972 0.982021 0.000000
0.627760 0.992955 0.000000
0.730917 1.000000 0.000000
0.833975 1.000000 0.000000
0.910400 0.999668 0.000000
0.963932 0.995140 0.000000
0.013680 0.954707 0.000000
0.000000 0.954452 0.000000
0.000000 0.954435 0.000000
0.000000 0.954496 0.000000
0.000000 0.954739 0.000000
0.000000 0.955573 0.000000
0.000000 0.956588 0.000000
0.000000 0.959461 0.000000
0.065480 0.964285 0.000000
0.232311 0.970308 0.000000
0.378456 0.978479 0.000000
0.501640 0.996572 0.000000
0.616550 1.000000 0.000000
0.726958 1.000000 0.000000
0.829622 1.000000 0.000000
0.904630 1.000000 0.000000
0.000000 0.000000 0.000000
0.000000 0.000000 0.000000
0.000000 0.000000 0.000000
0.000000 0.000000 0.000000
0.101491 0.000000 0.000000
0.275413 0.000000 0.000000
0.440993 0.000000 0.000000
0.595362 0.000000 0.004709
0.733446 0.000000 0.033070
0.857142 0.000000 0.059342
0.963250 0.000000 0.072649
0.999875 0.000000 0.084996
1.000000 0.000000 0.090594
0.999448 0.000000 0.078848
0.998850 0.000000 0.075256
0.998593 0.000000 0.076019
0.000000 0.000000 0.000000
0.000000 0.000000 0.000000
0.000000 0.000000 0.000000
0.011192 0.000000 0.000000
0.149446 0.000000 0.000000
0.308018 0.000000 0.000000
0.461376 0.000000 0.000000
0.614923 0.000000 0.000835
0.753777 0.000000 0.013463
0.879981 0.000000 0.037838
0.984525 0.000000 0.056020
0.997492 0.000000 0.061441
0.998942 0.000000 0.063212
1.000000 0.000000 0.065063
0.999410 0.000094 0.070855
0.998669 0.000690 0.076624
0.000000 0.000000 0.000000
0.000000 0.000000 0.000000
0.000000 0.000000 0.000000
0.027928 0.004021 0.000000
0.173847 0.003108 0.000000
0.308112 0.000000 0.000000
0.437896 0.000000 0.000000
0.557821 0.000000 0.000109
0.667219 0.000000 0.003874
0.765719 0.000000 0.018751
0.855818 0.000459 0.033906
0.926766 0.005629 0.053105
0.976665 0.013131 0.069192
0.999974 0.017992 0.080535
0.999486 0.023757 0.085880
0.998833 0.026738 0.090722
0.000000 0.008128 0.000000
0.000000 0.064635 0.000000
0.000000 0.080221 0.000000
0.006288 0.083682 0.000000
0.091435 0.054704 0.000000
0.224927 0.019466 0.000000
0.327672 0.020368 0.000000
0.438695 0.020886 0.000010
0.554290 0.010274 0.001157
0.669530 0.000000 0.017883
0.781198 0.000000 0.041140
0.886137 0.000000 0.063844
0.968190 0.000000 0.081525
0.996417 0.002199 0.092516
0.999811 0.016383 0.099737
0.998838 0.017387 0.104030
0.000000 0.115289 0.000000
0.000000 0.173873 0.000000
0.000000 0.183755 0.000000
0.000000 0.195070 0.000000
0.098237 0.188372 0.000000
0.239111 0.179371 0.000000
0.345280 0.173046 0.000000
0.454034 0.154606 0.000000
0.562916 0.106878 0.000014
0.671301 0.050035 0.006572
0.778714 0.046009 0.019660
0.882361 0.008205 0.048185
0.968107 0.000000 0.087841
0.994637 0.000000 0.105829
0.999999 0.000000 0.112197
0.998713 0.000000 0.116691
0.000000 0.211467 0.000000
0.000000 0.254030 0.000000
0.000000 0.276952 0.000000
0.002947 0.300123 0.000000
0.074368 0.294984 0.000000
0.209264 0.296761 0.000000
0.345117 0.294306 0.000000
0.464209 0.281761 0.000000
0.576395 0.264516 0.000000
0.687341 0.245171 0.000000
0.796405 0.211804 0.000000
0.899904 0.132968 0.010565
0.972733 0.071915 0.031156
0.997218 0.029300 0.028946
1.000000 0.000000 0.086894
0.998732 0.000000 0.125334
0.000000 0.291199 0.001619
0.000000 0.343789 0.000968
0.000000 0.396887 0.000000
0.000000 0.414009 0.000000
0.005504 0.409482 0.000000
0.157512 0.413489 0.000000
0.321902 0.418054 0.000000
0.466080 0.416220 0.000000
0.587688 0.401772 0.000000
0.701009 0.384672 0.000000
0.810047 0.365753 0.000000
0.913119 0.338930 0.000000
0.975145 0.283717 0.000000
1.000000 0.214436 0.000000
1.000000 0.136220 0.020924
0.999809 0.074850 0.016769
0.000000 0.383492 0.003697
0.000000 0.469615 0.001184
0.007171 0.534520 0.000000
0.000000 0.533770 0.000000
0.000000 0.533198 0.000208
0.010013 0.537994 0.000622
0.237644 0.543859 0.000443
0.445095 0.549699 0.000000
0.588533 0.551832 0.000000
0.704538 0.536581 0.000000
0.813510 0.518577 0.000000
0.912132 0.498165 0.000000
0.980546 0.468260 0.000000
1.000000 0.421728 0.000000
1.000000 0.359929 0.000000
1.000000 0.280541 0.000000
0.000000 0.500984 0.003213
0.000000 0.607987 0.000339
0.014070 0.656941 0.000169
0.000000 0.650941 0.000898
0.000000 0.652487 0.001563
0.014299 0.657040 0.001350
0.194345 0.661657 0.000417
0.397772 0.666662 0.000000
0.565853 0.670028 0.000000
0.694631 0.671806 0.000000
0.802121 0.660487 0.000000
0.900224 0.643851 0.000000
0.978840 0.621855 0.000000
0.997397 0.581051 0.000000
0.999925 0.530121 0.000000
0.999584 0.472597 0.000000
0.000000 0.635844 0.001826
0.007986 0.739776 0.001939
0.010770 0.758575 0.000795
0.000000 0.752641 0.000285
0.000000 0.754528 0.000295
0.000000 0.757568 0.000061
0.055551 0.761125 0.000000
0.356455 0.764296 0.000000
0.539488 0.767960 0.000000
0.670567 0.770656 0.000000
0.783780 0.770802 0.000000
0.887667 0.762970 0.000000
0.965053 0.745777 0.000000
0.992995 0.716896 0.000000
0.997261 0.672165 0.000000
0.996948 0.619087 0.000000
0.000000 0.759422 0.003525
0.025129 0.845041 0.000553
0.005326 0.839613 0.000000
0.000000 0.837232 0.000000
0.000000 0.838610 0.000000
0.000000 0.841331 0.000000
0.069540 0.844317 0.000000
0.337767 0.847174 0.000000
0.509865 0.850841 0.000015
0.644193 0.853001 0.000045
0.759252 0.854577 0.000000
0.864327 0.851598 0.000000
0.941704 0.841698 0.000000
0.987783 0.821550 0.000000
0.990530 0.787904 0.000000
0.991879 0.742772 0.000000
0.010227 0.860796 0.000707
0.018996 0.909177 0.000000
0.000000 0.905159 0.000000
0.000000 0.905307 0.000000
0.000000 0.906300 0.000000
0.000000 0.907739 0.000287
0.028228 0.909860 0.000437
0.220554 0.912630 0.000430
0.471561 0.916168 0.000319
0.611765 0.918724 0.000006
0.728848 0.920513 0.000000
0.833053 0.920118 0.000000
0.924518 0.915397 0.000000
0.971449 0.900607 0.000000
0.981876 0.876012 0.000000
0.984464 0.842518 0.000000
0.025427 0.930464 0.000000
0.010940 0.946722 0.000000
0.000000 0.945536 0.000000
0.000000 0.945430 0.000441
0.000000 0.946223 0.000938
0.000000 0.947859 0.000864
0.000000 0.949430 0.000109
0.153118 0.952119 0.000063
0.428489 0.955320 0.000000
0.573800 0.958453 0.000000
0.690557 0.958289 0.000000
0.796494 0.957101 0.000000
0.890306 0.954958 0.000000
0.945797 0.949959 0.000000
0.972767 0.938272 0.000000
0.974704 0.917773 0.000000
0.017944 0.953591 0.000000
0.002821 0.953589 0.000632
0.000000 0.953426 0.000463
0.000000 0.953415 0.000000
0.000000 0.954419 0.000000
0.000000 0.956263 0.000000
0.000000 0.958888 0.000000
0.145791 0.962541 0.000000
0.349631 0.966076 0.000044
0.529111 0.971096 0.000000
0.641746 0.979175 0.000000
0.746821 0.987402 0.000000
0.846346 0.994120 0.000000
0.932211 0.994152 0.000000
0.957414 0.978984 0.000000
0.849235 0.957364 0.000000
0.008818 0.953704 0.001042
0.000000 0.953190 0.000015
0.000000 0.953153 0.000000
0.000000 0.953285 0.000000
0.000000 0.953698 0.000000
0.000000 0.954892 0.000000
0.000000 0.956522 0.000000
0.024529 0.958618 0.000000
0.274185 0.961524 0.000136
0.463028 0.968136 0.000390
0.575127 0.978246 0.000000
0.673889 0.995529 0.000000
0.775540 1.000000 0.000000
0.871876 0.999994 0.000000
0.942068 0.998655 0.000000
0.840079 0.984212 0.000000
0.001792 0.952940 0.000000
0.000000 0.953101 0.000000
0.000000 0.953260 0.000000
0.000000 0.953432 0.000000
0.000000 0.953763 0.000000
0.000000 0.954498 0.000000
0.000000 0.957046 0.000000
0.006158 0.962027 0.000000
0.132746 0.966926 0.000308
0.296725 0.972977 0.003838
0.449616 0.985236 0.004908
0.565717 0.999418 0.000843
0.673981 1.000000 0.000000
0.777060 1.000000 0.000000
0.872210 1.000000 0.000000
0.805226 0.869841 0.000000
0.000000 0.000000 0.000000
0.000000 0.000000 0.000000
0.005705 0.000000 0.000000
0.061549 0.000000 0.010846
0.225425 0.000000 0.012431
0.384510 0.000000 0.025661
0.535883 0.000000 0.048598
0.677848 0.000000 0.074023
0.804520 0.000000 0.094762
0.915883 0.000000 0.109661
0.992206 0.000000 0.120485
0.998239 0.000000 0.121203
0.999692 0.000000 0.113140
0.998881 0.000000 0.106338
0.755181 0.000000 0.077978
0.124268 0.000000 0.012930
0.000000 0.000000 0.000000
0.000000 0.000000 0.000000
0.020388 0.000000 0.000314
0.107989 0.000000 0.003304
0.276289 0.000000 0.004115
0.438086 0.000000 0.015669
0.591444 0.000000 0.027861
0.730604 0.000000 0.044404
0.853532 0.000000 0.066537
0.949032 0.000000 0.083925
0.997739 0.000000 0.096023
0.999592 0.000000 0.101665
0.999796 0.000042 0.104692
0.999363 0.000372 0.108332
0.755237 0.000257 0.082530
0.124272 0.000013 0.013876
0.000000 0.000000 0.000000
0.000000 0.000000 0.000367
0.025294 0.000866 0.000407
0.144243 0.000509 0.000000
0.290241 0.000000 0.000000
0.425782 0.000000 0.006401
0.542818 0.000000 0.013947
0.652837 0.000000 0.035707
0.757373 0.000000 0.059276
0.856119 0.001033 0.076485
0.931294 0.004460 0.092577
0.983343 0.012939 0.106053
0.998128 0.017908 0.114028
0.999654 0.022838 0.118273
0.755251 0.025700 0.095614
0.124278 0.014086 0.019618
0.000000 0.012661 0.002638
0.000000 0.072788 0.008765
0.003080 0.079916 0.006719
0.051684 0.066608 0.000000
0.188711 0.021939 0.000000
0.319990 0.022871 0.002362
0.436592 0.023523 0.005051
0.556912 0.011822 0.019976
0.673362 0.000000 0.042322
0.784911 0.000000 0.072763
0.887310 0.000000 0.096640
0.960334 0.000000 0.112493
0.999315 0.001896 0.121128
0.999620 0.010500 0.122084
0.755496 0.045432 0.110902
0.124280 0.107353 0.055981
0.000000 0.123267 0.017781
0.000000 0.181316 0.017026
0.004277 0.201065 0.005504
0.047930 0.206269 0.000000
0.191485 0.193810 0.000591
0.321376 0.184995 0.001953
0.438669 0.168909 0.001897
0.553423 0.134142 0.000581
0.664996 0.075057 0.007063
0.774523 0.046686 0.025513
0.878926 0.021471 0.051170
0.956680 0.000000 0.095621
0.995002 0.000000 0.119599
0.999433 0.000000 0.122918
0.755618 0.055038 0.116505
0.124270 0.187846 0.073703
0.000000 0.220670 0.035911
0.000000 0.285138 0.020263
0.000000 0.315673 0.001401
0.013064 0.318625 0.007414
0.113895 0.314430 0.008914
0.295442 0.310978 0.008419
0.437818 0.300072 0.003748
0.559394 0.284739 0.000000
0.674290 0.266810 0.000000
0.784786 0.232447 0.000000
0.888339 0.176171 0.002648
0.965750 0.094506 0.022630
0.993856 0.041261 0.034819
0.999784 0.005246 0.069201
0.755628 0.076627 0.114542
0.124292 0.264912 0.087846
0.000000 0.316793 0.047039
0.000143 0.421786 0.013246
0.000000 0.440444 0.013946
0.012541 0.433677 0.015500
0.141559 0.434619 0.015389
0.321522 0.436823 0.016341
0.476531 0.431504 0.008537
0.603930 0.417829 0.000259
0.719337 0.402048 0.000000
0.830505 0.382533 0.000000
0.929739 0.352866 0.000000
0.982766 0.299021 0.000000
1.000000 0.227507 0.000380
1.000000 0.145834 0.013842
0.756042 0.158348 0.046063
0.000000 0.404505 0.084309
0.003293 0.464031 0.027961
0.013425 0.562253 0.018079
0.000000 0.555935 0.031589
0.000189 0.553290 0.041590
0.037438 0.556653 0.037418
0.251701 0.560068 0.019790
0.459907 0.563959 0.004063
0.601178 0.562262 0.000479
0.730609 0.548421 0.000162
0.838848 0.531725 0.000000
0.932668 0.509903 0.000000
0.983372 0.473635 0.000000
1.000000 0.423642 0.000000
1.000000 0.358548 0.000000
0.733333 0.356231 0.031487
0.002602 0.537534 0.074276
0.004195 0.597793 0.037933
0.011766 0.672114 0.038329
0.000000 0.666946 0.041238
0.003714 0.667457 0.039197
0.050845 0.669913 0.031382
0.226478 0.673471 0.016344
0.428271 0.676981 0.006204
0.593631 0.680922 0.005266
0.714982 0.680571 0.002732
0.822803 0.668407 0.000061
0.917687 0.651861 0.000000
0.982548 0.626991 0.000000
0.997851 0.583002 0.000000
0.999794 0.530024 0.000000
0.733052 0.528935 0.032115
0.006708 0.664222 0.071584
0.019064 0.720004 0.043336
0.009021 0.766338 0.027788
0.000000 0.763689 0.017608
0.000000 0.764870 0.019967
0.012244 0.766998 0.017694
0.124646 0.770209 0.008604
0.382275 0.772881 0.008641
0.563873 0.776021 0.008840
0.693385 0.777953 0.007454
0.804923 0.776246 0.002086
0.901009 0.767409 0.000000
0.970716 0.748590 0.000000
0.991529 0.715868 0.000000
0.996957 0.669974 0.000000
0.731109 0.666914 0.027746
0.004862 0.772006 0.062872
0.014598 0.805679 0.024204
0.004015 0.844553 0.011413
0.000000 0.844607 0.017732
0.000000 0.845219 0.023608
0.019847 0.847926 0.021512
0.114000 0.850983 0.018364
0.354604 0.853836 0.016955
0.530379 0.856367 0.017286
0.667924 0.857923 0.012938
0.780316 0.858355 0.004672
0.876512 0.854743 0.000101
0.947483 0.843195 0.000000
0.987692 0.821339 0.000000
0.990449 0.784755 0.000000
0.731547 0.780941 0.014248
0.010165 0.862774 0.035466
0.008966 0.877560 0.016061
0.000000 0.909254 0.025656
0.000000 0.909550 0.034793
0.000000 0.909863 0.048784
0.002036 0.911530 0.046896
0.051989 0.914195 0.032553
0.249610 0.917146 0.018420
0.489990 0.919701 0.012531
0.634108 0.921689 0.004395
0.747801 0.922826 0.000253
0.846737 0.922423 0.000000
0.927144 0.914769 0.000000
0.972764 0.899985 0.000000
0.981571 0.874024 0.000000
0.727580 0.869006 0.017971
0.016247 0.926749 0.025345
0.002951 0.929262 0.031042
0.000000 0.945878 0.049711
0.000000 0.946065 0.045125
0.000000 0.946937 0.040217
0.000000 0.948490 0.031430
0.045251 0.949867 0.016467
0.189706 0.952221 0.008025
0.451534 0.955369 0.005693
0.592940 0.958407 0.002856
0.705280 0.959719 0.000567
0.806942 0.959285 0.000000
0.895892 0.956380 0.000000
0.947810 0.949398 0.000000
0.972829 0.936191 0.000000
0.719100 0.928009 0.028258
0.013216 0.951520 0.043178
0.000000 0.951160 0.050070
0.000000 0.952028 0.010952
0.000000 0.952360 0.000979
0.000000 0.953231 0.001523
0.000000 0.955106 0.006714
0.021693 0.957767 0.008179
0.175132 0.961017 0.010593
0.412403 0.964602 0.016166
0.564496 0.969644 0.014368
0.675232 0.978310 0.004914
0.789961 0.991185 0.000020
0.884455 0.995183 0.000000
0.947113 0.989844 0.000000
0.961202 0.969260 0.000000
0.247551 0.952329 0.042872
0.001437 0.951984 0.037355
0.000000 0.952080 0.005037
0.000000 0.951948 0.003005
0.000000 0.952021 0.006930
0.000000 0.952600 0.008993
0.000000 0.953854 0.012221
0.000000 0.955786 0.019669
0.091275 0.958293 0.019527
0.345709 0.961621 0.017950
0.501539 0.967202 0.021143
0.617895 0.978692 0.006518
0.717749 0.992667 0.000000
0.815732 0.999011 0.000000
0.902104 0.999884 0.000000
0.957901 0.995377 0.000000
0.240897 0.959969 0.001720
0.000250 0.951693 0.004083
0.000000 0.951930 0.005382
0.000000 0.952240 0.000000
0.000000 0.952380 0.000000
0.000000 0.953063 0.000000
0.000000 0.955019 0.000000
0.000000 0.959815 0.000000
0.021493 0.965227 0.009200
0.139824 0.971270 0.028798
0.315839 0.978393 0.054654
0.479507 0.989411 0.048231
0.626996 0.998745 0.033720
0.734641 1.000000 0.015555
0.829914 1.000000 0.000000
0.690222 0.775238 0.000000
0.226369 0.243810 0.000000
0.000000 0.000000 0.000000
0.000000 0.000000 0.000000
0.034711 0.000000 0.022751
0.198091 0.000000 0.046062
0.347668 0.000000 0.039754
0.495281 0.000000 0.049190
0.636044 0.000000 0.068998
0.763103 0.000000 0.086434
0.882923 0.000000 0.102062
0.969608 0.000000 0.114310
0.995001 0.000000 0.121152
0.999807 0.000000 0.122688
0.998839 0.000000 0.122183
0.998635 0.000000 0.122131
0.325252 0.000000 0.048458
0.000000 0.000000 0.013859
0.000000 0.000000 0.017027
0.012842 0.000000 0.020612
0.087054 0.000000 0.033956
0.244332 0.000000 0.028928
0.393896 0.000000 0.025036
0.542971 0.000000 0.041431
0.680431 0.000000 0.065198
0.804797 0.000000 0.087293
0.919383 0.000000 0.105221
0.983853 0.000000 0.116941
0.999141 0.000000 0.122629
0.999932 0.000000 0.122817
0.999330 0.000407 0.122260
0.998714 0.001004 0.122065
0.325257 0.000054 0.065874
0.000000 0.000000 0.034512
0.000000 0.000000 0.047143
0.036760 0.000000 0.043086
0.108487 0.001645 0.046103
0.253155 0.000000 0.026889
0.389060 0.000000 0.021159
0.509787 0.000000 0.045093
0.625386 0.000000 0.064176
0.734992 0.000000 0.079901
0.839731 0.000000 0.094857
0.928696 0.003114 0.107941
0.983254 0.011642 0.117117
0.998436 0.017294 0.121567
0.999671 0.023421 0.122137
0.998675 0.026484 0.121741
0.325268 0.032975 0.098584
0.000000 0.022708 0.084459
0.000000 0.015375 0.088484
0.008715 0.024097 0.078099
0.014089 0.082692 0.087357
0.170855 0.022979 0.038795
0.314265 0.025406 0.039163
0.432403 0.025354 0.055211
0.553446 0.015070 0.046818
0.666209 0.000000 0.034637
0.774109 0.000000 0.055284
0.877673 0.000000 0.094902
0.957906 0.000000 0.113722
0.998864 0.000252 0.121100
0.999628 0.006836 0.122489
0.998843 0.014929 0.122210
0.325266 0.088712 0.125148
0.000000 0.119121 0.121550
0.000000 0.133270 0.118520
0.000000 0.151634 0.104436
0.019988 0.217777 0.089395
0.156609 0.203526 0.067656
0.301805 0.196438 0.069782
0.429935 0.178981 0.063506
0.548834 0.142483 0.034017
0.656874 0.092465 0.007999
0.766196 0.063795 0.006103
0.872681 0.032304 0.035897
0.962180 0.000000 0.076689
0.998221 0.000000 0.111459
0.999770 0.000000 0.121044
0.999028 0.000000 0.122087
0.325257 0.149428 0.144794
0.000000 0.220994 0.147939
0.000000 0.250897 0.125323
0.000000 0.278484 0.097183
0.000000 0.330688 0.098485
0.051905 0.326135 0.097340
0.263694 0.323704 0.087248
0.426948 0.310967 0.077221
0.554091 0.296961 0.048163
0.668399 0.284461 0.013191
0.780623 0.261784 0.005544
0.886779 0.205514 0.001617
0.969517 0.127364 0.013004
0.996401 0.077498 0.020726
1.000000 0.012683 0.054577
0.999502 0.000000 0.103236
0.325358 0.211522 0.155695
0.000000 0.319876 0.158499
0.000000 0.372499 0.117854
0.000000 0.389909 0.104309
0.000000 0.447788 0.127264
0.027127 0.448267 0.106223
0.202751 0.450381 0.082190
0.399434 0.447525 0.071727
0.551261 0.438051 0.048479
0.673792 0.424762 0.025304
0.788060 0.407570 0.015227
0.892474 0.387469 0.000135
0.967861 0.352289 0.000000
0.995448 0.290979 0.000000
1.000000 0.197323 0.000783
0.714275 0.205467 0.072884
0.325629 0.311093 0.132694
0.006866 0.454502 0.160539
0.004831 0.498452 0.133449
0.000000 0.505975 0.130545
0.000000 0.566954 0.140456
0.012028 0.569260 0.126465
0.140797 0.573430 0.097009
0.383319 0.575805 0.069467
0.552224 0.573878 0.053887
0.688105 0.565624 0.041864
