assets/lut/editingcorpw Twilight Twinkle.cube
LUT_3D_SIZE 16
DOMAIN_MIN 0.0 0.0 0.0
DOMAIN_MAX 1.0 1.0 1.0
0.131044 0.122194 0.159640
0.151309 0.124678 0.161599
0.215451 0.134041 0.168045
0.297972 0.143814 0.173702
0.375146 0.151376 0.174807
0.447150 0.159884 0.174258
0.525652 0.173825 0.174093
0.609571 0.194797 0.177188
0.694002 0.217508 0.181088
0.775973 0.239768 0.185135
0.850828 0.260533 0.190372
0.920544 0.280503 0.196512
0.987604 0.300609 0.203934
1.000000 0.320531 0.212912
1.000000 0.339867 0.223783
1.000000 0.361852 0.240269
0.141543 0.137435 0.162655
0.156773 0.136957 0.163356
0.216903 0.146127 0.169396
0.295986 0.155177 0.174640
0.371710 0.161606 0.175856
0.443695 0.168765 0.175094
0.522360 0.181950 0.174935
0.605310 0.201519 0.178168
0.689222 0.223202 0.182133
0.771762 0.244509 0.186192
0.847911 0.264689 0.191183
0.918925 0.284290 0.197183
0.985941 0.303719 0.204334
1.000000 0.323001 0.212973
1.000000 0.341628 0.223406
1.000000 0.363623 0.240140
0.177450 0.188699 0.173403
0.193122 0.188760 0.173624
0.231135 0.183216 0.175104
0.301141 0.191461 0.178098
0.373598 0.196701 0.178769
0.445417 0.202298 0.178464
0.525367 0.214425 0.179400
0.606719 0.230962 0.183267
0.690052 0.249071 0.186752
0.771713 0.267046 0.190592
0.847166 0.284025 0.194888
0.917545 0.300966 0.200481
0.985106 0.318545 0.207302
1.000000 0.336320 0.215772
1.000000 0.353684 0.226297
1.000000 0.373480 0.242014
0.217575 0.242961 0.182694
0.231778 0.243535 0.182787
0.264367 0.242917 0.182458
0.303992 0.231272 0.184965
0.373665 0.239738 0.186083
0.444556 0.251200 0.186813
0.520432 0.260840 0.188986
0.600153 0.273625 0.192183
0.682890 0.287738 0.194832
0.764745 0.302016 0.197814
0.841392 0.315813 0.201615
0.913517 0.329784 0.206434
0.981542 0.344576 0.212484
1.000000 0.359382 0.219990
1.000000 0.373999 0.229658
1.000000 0.391998 0.245402
0.265952 0.303472 0.195389
0.278436 0.305668 0.195693
0.305744 0.304598 0.195522
0.345263 0.304046 0.195127
0.380006 0.286528 0.199432
0.448908 0.296184 0.200138
0.520685 0.310543 0.202088
0.598040 0.323816 0.204096
0.680094 0.335264 0.205621
0.761385 0.346535 0.207509
0.837027 0.357110 0.210507
0.909230 0.368143 0.214382
0.978358 0.380350 0.219777
1.000000 0.392806 0.226899
1.000000 0.404757 0.236277
1.000000 0.418713 0.250480
0.311192 0.357702 0.208347
0.323271 0.363323 0.209360
0.346588 0.361083 0.209274
0.375970 0.359484 0.208579
0.416700 0.357891 0.207340
0.445441 0.335760 0.213291
0.518510 0.348748 0.214987
0.593628 0.364666 0.216495
0.674257 0.382294 0.216953
0.754336 0.392987 0.218130
0.830381 0.402136 0.220310
0.904228 0.411921 0.223637
0.973791 0.422095 0.227933
1.000000 0.431800 0.234422
1.000000 0.440845 0.242979
1.000000 0.452369 0.257298
0.359179 0.416016 0.221658
0.371863 0.424436 0.223872
0.392254 0.421491 0.223652
0.416707 0.418628 0.222628
0.450047 0.415956 0.221225
0.488850 0.411188 0.220560
0.516987 0.387898 0.227084
0.592847 0.401437 0.227977
0.671588 0.418947 0.228572
0.750507 0.435924 0.229270
0.825822 0.449653 0.230716
0.899545 0.458700 0.233181
0.969760 0.468055 0.237446
1.000000 0.476577 0.243768
1.000000 0.483421 0.252421
1.000000 0.491469 0.266032
0.404266 0.472017 0.233133
0.416344 0.481007 0.235041
0.433316 0.478403 0.234966
0.457879 0.475501 0.234279
0.487216 0.473683 0.232816
0.524956 0.471821 0.231156
0.561231 0.463528 0.231881
0.591283 0.440261 0.238942
0.669811 0.454631 0.238786
0.745565 0.471054 0.239641
0.820859 0.487355 0.241080
0.895803 0.504669 0.243233
0.965721 0.515964 0.247070
1.000000 0.522805 0.253120
1.000000 0.528382 0.262394
1.000000 0.534465 0.276390
0.449604 0.529876 0.241978
0.459364 0.537144 0.243423
0.474076 0.535162 0.243242
0.499749 0.532449 0.243121
0.525984 0.531217 0.241730
0.560345 0.530138 0.240171
0.601627 0.529148 0.238031
0.635030 0.516854 0.240808
0.667665 0.493934 0.248859
0.745106 0.507655 0.249410
0.819450 0.524614 0.250932
0.893614 0.542034 0.253225
0.963525 0.558736 0.257724
1.000000 0.572027 0.264761
1.000000 0.576340 0.274587
1.000000 0.580481 0.289458
0.496944 0.592139 0.250022
0.505534 0.598657 0.251428
0.518149 0.596522 0.251273
0.543387 0.594007 0.251157
0.569325 0.593364 0.250271
0.601013 0.592975 0.248539
0.639109 0.592223 0.246552
0.681951 0.590761 0.243777
0.710380 0.572657 0.249223
0.743302 0.548576 0.258230
0.818735 0.561413 0.259702
0.892513 0.579974 0.262715
0.961346 0.596521 0.267724
1.000000 0.610041 0.275618
1.000000 0.621408 0.288075
1.000000 0.627783 0.304063
0.545769 0.658686 0.257023
0.550683 0.661298 0.257768
0.562158 0.659687 0.257530
0.585419 0.658192 0.257487
0.613514 0.657600 0.257139
0.643366 0.658289 0.255589
0.679823 0.659101 0.253849
0.721688 0.659608 0.251389
0.767581 0.659705 0.248001
0.793417 0.637074 0.257487
0.827573 0.612116 0.268162
0.896282 0.621057 0.272673
0.963299 0.637470 0.279045
1.000000 0.650178 0.288341
1.000000 0.660115 0.302092
1.000000 0.668238 0.319860
0.598603 0.733785 0.265458
0.601444 0.733877 0.265614
0.612328 0.733124 0.265538
0.633627 0.731920 0.265619
0.663535 0.730478 0.265462
0.690223 0.730446 0.263883
0.723160 0.730347 0.261880
0.761560 0.730213 0.259096
0.804415 0.730135 0.255655
0.849370 0.728547 0.252816
0.873167 0.702016 0.266044
0.907698 0.676251 0.279184
0.966453 0.678986 0.288997
1.000000 0.690641 0.300875
1.000000 0.699374 0.316342
1.000000 0.706148 0.335295
0.649421 0.807889 0.279124
0.651940 0.807926 0.279257
0.661668 0.807247 0.279288
0.680912 0.806071 0.279274
0.709883 0.804395 0.279432
0.736910 0.803818 0.278190
0.767012 0.803677 0.276335
0.802443 0.803502 0.273886
0.842379 0.803461 0.270956
0.885936 0.803250 0.267251
0.926983 0.797757 0.266673
0.949364 0.768144 0.282278
0.981324 0.739878 0.297783
1.000000 0.733893 0.313881
1.000000 0.739630 0.331740
1.000000 0.745107 0.352392
0.694423 0.874186 0.302507
0.696603 0.874125 0.302538
0.705312 0.873536 0.302499
0.722464 0.872544 0.302623
0.748552 0.871126 0.302941
0.777188 0.869938 0.302739
0.804156 0.869544 0.301206
0.836026 0.869035 0.299070
0.872150 0.868455 0.296572
0.911904 0.867848 0.293437
0.954522 0.867247 0.290043
0.990006 0.856558 0.293332
1.000000 0.825876 0.309066
1.000000 0.795451 0.325713
1.000000 0.782646 0.346281
1.000000 0.784121 0.369494
0.734506 0.931097 0.339935
0.736701 0.931369 0.340833
0.744072 0.930728 0.340359
0.759063 0.929797 0.340513
0.781945 0.928487 0.340986
0.811630 0.926818 0.341522
0.835322 0.926334 0.340280
0.863546 0.925716 0.338584
0.895860 0.925009 0.336472
0.931668 0.924254 0.333927
0.970330 0.923430 0.331060
1.000000 0.922636 0.327816
1.000000 0.906977 0.333908
1.000000 0.876231 0.347760
1.000000 0.845059 0.364127
1.000000 0.828037 0.388373
0.771084 0.980285 0.388464
0.772805 0.980279 0.388885
0.779281 0.979931 0.389001
0.792264 0.979229 0.389526
0.812228 0.978210 0.390435
0.839109 0.976776 0.391821
0.863005 0.976019 0.391443
0.887773 0.975506 0.390002
0.916326 0.974963 0.388348
0.948284 0.974365 0.386450
0.983124 0.973816 0.384283
1.000000 0.973273 0.381903
1.000000 0.972833 0.379419
1.000000 0.953228 0.387335
1.000000 0.923699 0.399548
1.000000 0.893004 0.417151
0.132247 0.128530 0.176894
0.150439 0.128247 0.176551
0.210741 0.136757 0.181153
0.291207 0.148491 0.186796
0.367794 0.156779 0.188417
0.439777 0.165749 0.188320
0.518506 0.180256 0.189161
0.601207 0.201085 0.192961
0.683967 0.222194 0.196204
0.765076 0.242765 0.199298
0.840305 0.262315 0.202945
0.911422 0.281563 0.207673
0.980279 0.301300 0.213713
1.000000 0.320889 0.221298
1.000000 0.340078 0.230851
1.000000 0.360827 0.244980
0.136610 0.139544 0.176813
0.153236 0.141431 0.176966
0.211679 0.149446 0.182350
0.289328 0.158503 0.187177
0.364752 0.165718 0.188737
0.436266 0.174223 0.188979
0.514685 0.187937 0.190089
0.596285 0.207208 0.193729
0.679739 0.227562 0.196911
0.762157 0.247641 0.199935
0.838464 0.266680 0.203614
0.910439 0.285379 0.208288
0.978821 0.304419 0.214092
1.000000 0.323139 0.221146
1.000000 0.341821 0.230512
1.000000 0.362489 0.244611
0.164758 0.191080 0.185590
0.185818 0.190711 0.185826
0.228391 0.186455 0.186949
0.296827 0.194196 0.190348
0.367944 0.199673 0.191854
0.440057 0.206640 0.192701
0.519051 0.219270 0.194759
0.600010 0.235245 0.197910
0.681865 0.252151 0.200643
0.763092 0.269029 0.203428
0.838696 0.285283 0.206641
0.910291 0.301793 0.210968
0.979423 0.319306 0.216828
1.000000 0.336869 0.224112
1.000000 0.354149 0.233508
1.000000 0.373376 0.247565
0.211029 0.243979 0.194516
0.225716 0.244665 0.194734
0.261467 0.243497 0.194736
0.301425 0.233631 0.196759
0.369203 0.242342 0.198947
0.439445 0.253390 0.200079
0.514795 0.263143 0.202065
0.593890 0.275665 0.204833
0.675520 0.289094 0.207008
0.757076 0.302771 0.209110
0.833984 0.316073 0.211976
0.906981 0.329993 0.215992
0.976051 0.344625 0.221050
1.000000 0.359242 0.227530
1.000000 0.374166 0.236368
1.000000 0.391528 0.250365
0.263268 0.304854 0.206373
0.275162 0.307079 0.206910
0.305004 0.305539 0.206992
0.343509 0.304723 0.206273
0.377714 0.288024 0.209819
0.445237 0.297405 0.210717
0.516376 0.311650 0.212709
0.593135 0.324225 0.214437
0.674127 0.335207 0.215681
0.754975 0.346302 0.217170
0.830789 0.356752 0.219620
0.903976 0.367873 0.222865
0.974351 0.380336 0.227563
1.000000 0.392950 0.234126
1.000000 0.405060 0.242792
1.000000 0.419103 0.256252
0.309173 0.358941 0.217270
0.320992 0.364408 0.218531
0.345944 0.361832 0.218611
0.375039 0.359937 0.217520
0.414931 0.358125 0.216418
0.443494 0.336376 0.221415
0.514952 0.348791 0.223114
0.589016 0.364252 0.224595
0.668634 0.381205 0.225195
0.748564 0.391746 0.226012
0.825046 0.401025 0.227976
0.899566 0.411117 0.230861
0.969743 0.421469 0.234926
1.000000 0.431263 0.240675
1.000000 0.441174 0.249217
1.000000 0.452350 0.262370
0.357151 0.417030 0.229231
0.369369 0.424840 0.231442
0.390069 0.421976 0.231209
0.415839 0.418836 0.230215
0.448898 0.416026 0.228601
0.487681 0.411451 0.227549
0.515720 0.388292 0.233563
0.590525 0.401567 0.234586
0.668420 0.418577 0.235360
0.746757 0.435297 0.236043
0.821882 0.448688 0.237345
0.896270 0.458042 0.239707
0.967312 0.467750 0.243678
1.000000 0.476477 0.249785
1.000000 0.483732 0.258249
1.000000 0.492224 0.271681
0.402701 0.473021 0.239439
0.414531 0.481937 0.241656
0.431771 0.479471 0.241493
0.457605 0.476281 0.240729
0.486738 0.474139 0.239368
0.523915 0.471904 0.237294
0.559718 0.463290 0.237624
0.588942 0.439642 0.244241
0.666612 0.453710 0.244209
0.742253 0.470090 0.245155
0.817697 0.486605 0.246814
0.892999 0.504044 0.248868
0.963173 0.515235 0.252501
1.000000 0.522175 0.258254
1.000000 0.528914 0.268052
1.000000 0.535181 0.281967
0.448569 0.531404 0.247628
0.458884 0.539352 0.249333
0.473832 0.537603 0.249293
0.500605 0.534603 0.249064
0.526979 0.533145 0.247764
0.561263 0.531869 0.245934
0.602295 0.530536 0.243784
0.635347 0.517910 0.246276
0.666915 0.494292 0.253841
0.743481 0.507414 0.254384
0.817527 0.524192 0.256025
0.891946 0.541827 0.258462
0.962252 0.558796 0.262997
1.000000 0.572115 0.269968
1.000000 0.576871 0.280064
1.000000 0.581147 0.294712
0.496012 0.593479 0.255313
0.505503 0.601370 0.257167
0.518539 0.599650 0.257047
0.543894 0.596930 0.256890
0.570526 0.595638 0.255965
0.601743 0.594534 0.254213
0.639105 0.592928 0.251916
0.681268 0.590883 0.248885
0.709517 0.572651 0.253976
0.742148 0.548474 0.262582
0.817474 0.561331 0.264322
0.891229 0.579861 0.267445
0.959918 0.596321 0.272302
1.000000 0.610465 0.280603
1.000000 0.621981 0.293016
1.000000 0.628377 0.309065
0.545245 0.660700 0.262345
0.551599 0.664960 0.263607
0.563444 0.663780 0.263471
0.586845 0.662088 0.263405
0.615818 0.661071 0.263079
0.645429 0.661420 0.261594
0.681714 0.661797 0.259562
0.722924 0.661520 0.256918
0.767864 0.660582 0.253367
0.793112 0.637435 0.262074
0.826804 0.612201 0.272392
0.895534 0.621171 0.277045
0.962742 0.637738 0.283564
1.000000 0.650570 0.292957
1.000000 0.660644 0.306752
1.000000 0.668958 0.324504
0.597114 0.734072 0.270285
0.600520 0.734900 0.270736
0.611100 0.733718 0.270476
0.632374 0.732447 0.270521
0.663274 0.731227 0.270664
0.690431 0.731378 0.269283
0.723261 0.731145 0.267164
0.761150 0.730474 0.264149
0.803904 0.730190 0.260740
0.848944 0.728732 0.257756
0.872819 0.702307 0.270663
0.907274 0.676550 0.283412
0.966052 0.679277 0.293237
1.000000 0.691030 0.305127
1.000000 0.699825 0.320568
1.000000 0.706740 0.339558
0.648032 0.808200 0.284023
0.651747 0.809811 0.285309
0.660997 0.808368 0.284668
0.679837 0.806551 0.284182
0.708847 0.804797 0.284361
0.736554 0.804129 0.283246
0.767069 0.804448 0.281678
0.802772 0.804550 0.279512
0.842526 0.804202 0.276447
0.885673 0.803591 0.272546
0.926763 0.798092 0.271581
0.949072 0.768401 0.286787
0.981066 0.740180 0.301904
1.000000 0.734236 0.317877
1.000000 0.740093 0.335683
1.000000 0.745713 0.356460
0.693257 0.874429 0.307115
0.695576 0.874459 0.307380
0.704276 0.873914 0.307440
0.721508 0.872931 0.307475
0.747614 0.871448 0.307803
0.776898 0.870137 0.307545
0.803773 0.869698 0.306021
0.835644 0.869167 0.303935
0.871750 0.868561 0.301282
0.911474 0.867942 0.298260
0.954089 0.867332 0.294816
0.989722 0.856808 0.297916
1.000000 0.826147 0.313230
1.000000 0.795726 0.329582
1.000000 0.783026 0.350020
1.000000 0.784585 0.373143
0.733608 0.931272 0.344240
0.737293 0.932970 0.348643
0.744252 0.931903 0.347176
0.758568 0.930387 0.345817
0.781282 0.928855 0.345814
0.811452 0.927086 0.346386
0.835096 0.926555 0.344916
0.863258 0.925870 0.343068
0.895496 0.925093 0.340782
0.931275 0.924281 0.338198
0.969919 0.923491 0.335334
1.000000 0.922693 0.332148
1.000000 0.907201 0.337918
1.000000 0.876500 0.351577
1.000000 0.845365 0.367734
1.000000 0.828434 0.391890
0.770480 0.980383 0.392426
0.772161 0.980432 0.392947
0.778745 0.980080 0.393138
0.791646 0.979391 0.393624
0.811598 0.978333 0.394416
0.838498 0.976879 0.395752
0.862785 0.976056 0.395465
0.887514 0.975557 0.393927
0.916034 0.975006 0.392279
0.947967 0.974421 0.390378
0.982806 0.973846 0.388110
1.000000 0.973314 0.385786
1.000000 0.972894 0.383245
1.000000 0.953393 0.390935
1.000000 0.923957 0.402966
1.000000 0.893285 0.420350
0.139809 0.151742 0.225199
0.156085 0.150122 0.224737
0.211803 0.150155 0.224054
0.287575 0.153274 0.224796
0.358684 0.163226 0.221968
0.422577 0.190176 0.229398
0.501309 0.206537 0.233966
0.583416 0.223238 0.237259
0.666690 0.239949 0.239154
0.750461 0.257052 0.240549
0.828690 0.274052 0.242484
0.902706 0.291423 0.245065
0.973951 0.309742 0.248976
1.000000 0.328593 0.254299
1.000000 0.347287 0.261464
1.000000 0.368042 0.273436
0.142631 0.161384 0.222770
0.159264 0.161168 0.223254
0.211668 0.160268 0.222690
0.284363 0.165475 0.223563
0.352839 0.178908 0.224436
0.420186 0.197641 0.230226
0.498061 0.211544 0.233664
0.579456 0.227643 0.236844
0.663730 0.244251 0.239084
0.747958 0.260957 0.240584
0.827083 0.277674 0.242516
0.901675 0.294789 0.245263
0.972322 0.312539 0.248886
1.000000 0.330460 0.253749
1.000000 0.348775 0.260773
1.000000 0.369493 0.272806
0.162728 0.195048 0.226759
0.177190 0.196837 0.226896
0.223880 0.201354 0.225499
0.286703 0.207077 0.227831
0.353263 0.214708 0.230814
0.425772 0.224657 0.234031
0.503052 0.236514 0.236758
0.583296 0.250438 0.239457
0.666112 0.264872 0.241243
0.749682 0.279702 0.242634
0.827906 0.294427 0.244329
0.902114 0.309907 0.246973
0.973414 0.326562 0.250849
1.000000 0.343635 0.256085
1.000000 0.360670 0.263256
1.000000 0.380157 0.275451
0.194757 0.250153 0.232156
0.207174 0.251405 0.231594
0.252394 0.249363 0.229975
0.296863 0.244734 0.231232
0.358807 0.253529 0.234913
0.426903 0.262740 0.237443
0.501265 0.272791 0.239908
0.580317 0.284726 0.242271
0.662198 0.297031 0.243877
0.745551 0.309753 0.245108
0.824459 0.322623 0.246976
0.899510 0.336059 0.249616
0.970353 0.350372 0.253177
1.000000 0.364802 0.257900
1.000000 0.379797 0.264964
1.000000 0.397399 0.277280
0.248073 0.309028 0.239575
0.260195 0.311483 0.240838
0.296093 0.308796 0.240698
0.336668 0.306914 0.239752
0.371248 0.294301 0.241076
0.434778 0.303499 0.243339
0.505193 0.317572 0.245771
0.581762 0.328470 0.247540
0.663070 0.339279 0.248718
0.745178 0.350210 0.249717
0.822610 0.360707 0.251408
0.897583 0.372082 0.253907
0.969465 0.384666 0.257589
1.000000 0.397408 0.262843
1.000000 0.409759 0.269953
1.000000 0.424247 0.282048
0.296300 0.360314 0.245908
0.307678 0.365655 0.248285
0.334321 0.363039 0.247914
0.369543 0.360268 0.247035
0.408258 0.358699 0.245299
0.437677 0.340087 0.248288
0.507063 0.352252 0.250698
0.580650 0.367652 0.252781
0.660095 0.383479 0.253924
0.740890 0.393746 0.254738
0.818466 0.403418 0.256400
0.894136 0.413777 0.258922
0.965430 0.424450 0.262314
1.000000 0.434554 0.267085
1.000000 0.445018 0.274687
1.000000 0.456672 0.286748
0.345353 0.417409 0.254693
0.356985 0.424868 0.257569
0.378063 0.422057 0.257111
0.410553 0.418123 0.256157
0.443262 0.415703 0.254234
0.483146 0.412644 0.252379
0.510761 0.390547 0.256967
0.584200 0.403539 0.258721
0.661847 0.420500 0.260071
0.740575 0.437368 0.261221
0.816386 0.449852 0.262854
0.891894 0.459743 0.265204
0.963840 0.469916 0.269036
1.000000 0.479101 0.274659
1.000000 0.486808 0.282257
1.000000 0.495751 0.294615
0.392001 0.473291 0.261875
0.403427 0.481894 0.264658
0.421140 0.479594 0.264351
0.452405 0.475755 0.263820
0.482020 0.473715 0.262252
0.518960 0.471524 0.260156
0.556226 0.464385 0.259333
0.584856 0.441066 0.264696
0.661659 0.454927 0.265423
0.737493 0.471559 0.267074
0.813543 0.488411 0.269347
0.889394 0.506071 0.272087
0.960111 0.516775 0.275858
1.000000 0.524179 0.281280
1.000000 0.531487 0.290612
1.000000 0.538307 0.303771
0.439195 0.531919 0.268167
0.449050 0.539698 0.270322
0.464480 0.537851 0.270139
0.493291 0.534670 0.269844
0.522903 0.532860 0.268772
0.557252 0.531672 0.267028
0.598281 0.530392 0.264761
0.632580 0.518970 0.266121
0.663585 0.495418 0.272612
0.739589 0.508500 0.273938
0.814055 0.525566 0.276274
0.889036 0.543620 0.279544
0.959826 0.560972 0.284621
1.000000 0.574028 0.291779
1.000000 0.579082 0.301277
1.000000 0.583847 0.315255
0.487505 0.594078 0.274777
0.496992 0.601866 0.277119
0.510336 0.600182 0.276941
0.536130 0.597519 0.276689
0.567072 0.595523 0.276033
0.598186 0.594356 0.274234
0.635456 0.592675 0.271943
0.677602 0.590585 0.268971
0.707084 0.573511 0.272582
0.739496 0.549503 0.280363
0.814762 0.562605 0.282838
0.888863 0.581405 0.286667
0.957759 0.598129 0.292130
1.000000 0.612677 0.300711
1.000000 0.624590 0.313116
1.000000 0.630753 0.328401
0.537695 0.661360 0.281462
0.544159 0.665746 0.282934
0.556097 0.664444 0.282771
0.579820 0.662772 0.282712
0.612868 0.661352 0.282631
0.642701 0.661756 0.281328
0.678929 0.662079 0.279518
0.720035 0.661649 0.276842
0.764870 0.660494 0.273408
0.791059 0.638336 0.280532
0.824637 0.613220 0.289707
0.893507 0.622548 0.294885
0.960992 0.639435 0.301944
1.000000 0.652521 0.311553
1.000000 0.662960 0.325332
1.000000 0.671607 0.342754
0.590093 0.734613 0.289333
0.593940 0.735946 0.290131
0.604656 0.734722 0.289784
0.626268 0.733356 0.289748
0.658739 0.731826 0.289880
0.687803 0.731565 0.288734
0.720628 0.731256 0.286619
0.758505 0.730496 0.283759
0.801344 0.730251 0.280539
0.847027 0.729383 0.277396
0.871247 0.703368 0.288678
0.905587 0.677641 0.300490
0.964414 0.680695 0.310266
1.000000 0.692737 0.322351
1.000000 0.701857 0.337760
1.000000 0.709106 0.356535
0.641843 0.808657 0.302890
0.645334 0.809848 0.303900
0.654729 0.808552 0.303338
0.673906 0.806996 0.303000
0.703385 0.805305 0.303144
0.734226 0.804422 0.302551
0.764957 0.804866 0.301262
0.800670 0.804942 0.299193
0.840289 0.804393 0.296008
0.883447 0.803731 0.292288
0.925353 0.799019 0.290692
0.947730 0.769500 0.304566
0.979645 0.741387 0.318510
1.000000 0.735693 0.333985
1.000000 0.741889 0.351644
1.000000 0.747783 0.372210
0.688119 0.874863 0.325308
0.690365 0.874898 0.325575
0.699175 0.874359 0.325534
0.716511 0.873376 0.325653
0.742851 0.871908 0.325908
0.774876 0.870250 0.325960
0.801777 0.869846 0.324373
0.833641 0.869308 0.322325
0.869783 0.868711 0.319868
0.909538 0.868104 0.317009
0.952153 0.867526 0.313727
0.988427 0.857692 0.316016
1.000000 0.827182 0.330006
1.000000 0.796901 0.345195
1.000000 0.784491 0.364983
1.000000 0.786440 0.387855
0.729426 0.931585 0.361042
0.732894 0.932999 0.364743
0.739847 0.931954 0.363319
0.754409 0.930564 0.362193
0.777368 0.929181 0.362511
0.808137 0.927388 0.363127
0.833524 0.926659 0.362053
0.861662 0.925981 0.360202
0.893819 0.925219 0.357962
0.929557 0.924437 0.355522
0.968172 0.923640 0.352670
1.000000 0.922893 0.349532
1.000000 0.908035 0.354449
1.000000 0.877516 0.367038
1.000000 0.846586 0.382293
1.000000 0.829962 0.405714
0.767263 0.980627 0.407465
0.768983 0.980676 0.408005
0.775556 0.980322 0.408196
0.788531 0.979639 0.408546
0.808442 0.978607 0.409369
0.835386 0.977160 0.410455
0.861647 0.976123 0.410504
0.886272 0.975610 0.409125
0.914720 0.975081 0.407465
0.946577 0.974523 0.405578
0.981311 0.973962 0.403509
1.000000 0.973455 0.401212
1.000000 0.973041 0.398645
1.000000 0.954214 0.405608
1.000000 0.924942 0.416807
1.000000 0.894518 0.433411
0.134987 0.174142 0.280546
0.150686 0.172199 0.280113
0.207056 0.170698 0.279289
0.281011 0.172047 0.276558
0.351497 0.179412 0.274195
0.421754 0.191311 0.272471
0.495638 0.205423 0.271672
0.567795 0.239664 0.282023
0.647748 0.258722 0.287926
0.732646 0.273076 0.290176
0.813437 0.288024 0.291990
0.890532 0.304155 0.294451
0.964518 0.321824 0.297844
1.000000 0.340228 0.302159
1.000000 0.358925 0.307979
1.000000 0.380627 0.318651
0.141361 0.182538 0.275734
0.157130 0.182440 0.277119
0.208471 0.180186 0.276146
0.279205 0.182906 0.273773
0.347758 0.189901 0.272661
0.418172 0.200495 0.271805
0.490762 0.215117 0.272205
0.563851 0.245805 0.282562
0.645338 0.262617 0.287759
0.730698 0.276312 0.289775
0.812347 0.291136 0.291857
0.889491 0.307124 0.294361
0.962701 0.324140 0.297427
1.000000 0.341671 0.301223
1.000000 0.360301 0.307044
1.000000 0.381697 0.317711
0.169835 0.216555 0.277668
0.183752 0.218176 0.277323
0.225898 0.218938 0.275317
0.284345 0.219148 0.273483
0.350300 0.225448 0.275243
0.419282 0.233619 0.275290
0.489357 0.252451 0.281324
0.565755 0.267468 0.286583
0.647950 0.279802 0.289221
0.732859 0.292481 0.291076
0.813381 0.306047 0.292912
0.890438 0.320851 0.295426
0.964295 0.337159 0.298895
1.000000 0.354257 0.303343
1.000000 0.371573 0.309167
1.000000 0.392005 0.320183
0.204557 0.250549 0.274479
0.214296 0.252849 0.275716
0.246033 0.257225 0.276040
0.296671 0.264537 0.276569
0.353448 0.268950 0.277830
0.416498 0.276403 0.280842
0.487660 0.285828 0.284345
0.564596 0.296474 0.287616
0.645901 0.307437 0.289931
0.730441 0.319126 0.291799
0.811360 0.331526 0.293960
0.888539 0.344804 0.296618
0.961569 0.359099 0.299789
1.000000 0.373775 0.303770
1.000000 0.389536 0.309921
1.000000 0.408246 0.321201
0.234356 0.316373 0.292299
0.244341 0.319291 0.293291
0.273384 0.318218 0.287654
0.325647 0.315157 0.283153
0.366016 0.307300 0.282337
0.424379 0.315349 0.285007
0.492710 0.325755 0.288058
0.567912 0.335248 0.290590
0.648526 0.345484 0.292579
0.731433 0.356053 0.294224
0.810520 0.366754 0.296185
0.887727 0.378566 0.299032
0.961645 0.391662 0.302764
1.000000 0.405023 0.307564
1.000000 0.418150 0.313740
1.000000 0.433894 0.324868
0.271177 0.365649 0.287333
0.281276 0.371117 0.289938
0.308796 0.368934 0.288395
0.356514 0.364625 0.287475
0.399104 0.362203 0.285670
0.431061 0.348095 0.286461
0.496883 0.359537 0.289692
0.569207 0.374413 0.292953
0.647950 0.386749 0.294866
0.729428 0.397262 0.296549
0.808225 0.407459 0.298881
0.885453 0.418396 0.301850
0.958244 0.429697 0.305437
1.000000 0.440557 0.309868
1.000000 0.452174 0.317092
1.000000 0.465059 0.328270
0.320499 0.420529 0.292188
0.331422 0.427563 0.295877
0.354337 0.424752 0.295057
0.394073 0.420229 0.293957
0.434247 0.416829 0.292211
0.474716 0.414787 0.289833
0.503947 0.395785 0.292328
0.574982 0.408184 0.295394
0.651858 0.424783 0.298076
0.730768 0.441642 0.300507
0.807326 0.452286 0.302897
0.884399 0.463069 0.306040
0.957717 0.474108 0.310349
1.000000 0.484189 0.315963
1.000000 0.492821 0.322977
1.000000 0.502857 0.334431
0.369967 0.475362 0.297296
0.380795 0.483629 0.301006
0.399735 0.481421 0.300507
0.434279 0.477544 0.299688
0.473720 0.474030 0.298422
0.510470 0.471893 0.296211
