assets/lut/editingcorp fatos.cube
# Created by: G'MIC (https://gmic.eu)
TITLE "fatos"
# LUT size
LUT_3D_SIZE 5
# Data domain
DOMAIN_MIN 0.0 0.0 0.0
DOMAIN_MAX 1.0 1.0 1.0
# LUT data points
0.011309171095490456 0.0096884332597255707 0.011689533479511738
0.3993394672870636 0.044732920825481415 0.021779334172606468
0.66787177324295044 0.11747781932353973 0.087316177785396576
0.83994603157043457 0.11578840017318726 0.11596719920635223
0.94584321975708008 0.16271869838237762 0.12589098513126373
0.0046500409953296185 0.28458845615386963 0.07833678275346756
0.31099915504455566 0.27686145901679993 0.065356552600860596
0.64245587587356567 0.29400411248207092 0.087471023201942444
0.83246946334838867 0.30329495668411255 0.11695799231529236
0.93635410070419312 0.30522435903549194 0.12500837445259094
0.069849275052547455 0.52589070796966553 0.13854682445526123
0.1811944842338562 0.50980544090270996 0.12730342149734497
0.61606115102767944 0.53782391548156738 0.13868987560272217
0.85629153251647949 0.52696114778518677 0.14849363267421722
0.96274715662002563 0.51931965351104736 0.15066802501678467
0.13831348717212677 0.74476802349090576 0.20988141000270844
0.23394817113876343 0.74717545509338379 0.20481264591217041
0.4240233302116394 0.7386358380317688 0.18569789826869965
0.8423038125038147 0.76266270875930786 0.20414227247238159
0.98460465669631958 0.75777578353881836 0.21967968344688416
0.17486262321472168 0.88240337371826172 0.23945307731628418
0.27186280488967896 0.89064449071884155 0.24254566431045532
0.37568545341491699 0.8798028826713562 0.2277219295501709
0.77577883005142212 0.93178445100784302 0.25171232223510742
0.9851112961769104 0.95312327146530151 0.29757031798362732
0.0097837857902050018 0.042897123843431473 0.30533322691917419
0.37245097756385803 0.034884508699178696 0.26280888915061951
0.66252803802490234 0.082442358136177063 0.23144218325614929
0.83323502540588379 0.089202538132667542 0.23903937637805939
0.93756651878356934 0.11268802732229233 0.24221427738666534
0.022126888856291771 0.30665469169616699 0.28740760684013367
0.2664220929145813 0.29658693075180054 0.27963903546333313
0.64552962779998779 0.29195699095726013 0.22821129858493805
0.82974493503570557 0.3015996515750885 0.23425553739070892
0.94110697507858276 0.30598700046539307 0.24278637766838074
0.08396439254283905 0.53348994255065918 0.28445404767990112
0.18641796708106995 0.51726311445236206 0.26676571369171143
0.58207041025161743 0.53392654657363892 0.2606150209903717
0.85245978832244873 0.52204006910324097 0.24959978461265564
0.95819997787475586 0.51609742641448975 0.25381624698638916
0.14869681000709534 0.75441652536392212 0.3283998966217041
0.24007908999919891 0.75274664163589478 0.32052439451217651
0.43157827854156494 0.74726814031600952 0.30259051918983459
0.84312260150909424 0.76955819129943848 0.3142758309841156
0.9810059666633606 0.75874310731887817 0.32637456059455872
0.17563547194004059 0.88422918319702148 0.3394801914691925
0.27510195970535278 0.89005172252655029 0.34695088863372803
0.38143166899681091 0.88631713390350342 0.33735817670822144
0.76037901639938354 0.93655496835708618 0.36702042818069458
0.99131542444229126 0.96526622772216797 0.4115021824836731
0.024062961339950562 0.049045190215110779 0.58400458097457886
0.30539354681968689 0.042449921369552612 0.55699163675308228
0.65349549055099487 0.065874017775058746 0.50052917003631592
0.83519560098648071 0.10892871022224426 0.458962082862854
0.93993580341339111 0.11544716358184814 0.44846817851066589
0.048316162079572678 0.32805287837982178 0.52450096607208252
0.22729873657226562 0.31311327219009399 0.53335040807723999
0.60741817951202393 0.30136251449584961 0.50877195596694946
0.83188265562057495 0.3021618127822876 0.44334676861763
0.94316351413726807 0.30779525637626648 0.43350359797477722
0.10603760182857513 0.55288892984390259 0.52483206987380981
0.19848766922950745 0.54570060968399048 0.5170782208442688
0.53896415233612061 0.55613178014755249 0.52056705951690674
0.85486096143722534 0.5327448844909668 0.44626310467720032
0.96954786777496338 0.52388346195220947 0.43329271674156189
0.16430601477622986 0.76712864637374878 0.51701939105987549
0.25813570618629456 0.76993745565414429 0.51642686128616333
0.42558470368385315 0.76188147068023682 0.48950988054275513
0.83905458450317383 0.78466498851776123 0.48219957947731018
0.98442655801773071 0.78678685426712036 0.50469624996185303
0.18650481104850769 0.90449553728103638 0.50069147348403931
0.2839432954788208 0.90275222063064575 0.50884163379669189
0.41232311725616455 0.90989220142364502 0.4905642569065094
0.77022886276245117 0.94282466173171997 0.4964526891708374
0.9935683012008667 0.97793936729431152 0.56169211864471436
0.047129716724157333 0.050869390368461609 0.79626566171646118
0.26373663544654846 0.064480803906917572 0.73720788955688477
0.59531950950622559 0.064427241683006287 0.74070906639099121
0.80839329957962036 0.081096231937408447 0.72684121131896973
0.91576558351516724 0.067650556564331055 0.71397072076797485
0.065361350774765015 0.33699619770050049 0.73559242486953735
0.21767920255661011 0.31232216954231262 0.73664402961730957
0.53849160671234131 0.28067341446876526 0.75829786062240601
0.80219364166259766 0.28112834692001343 0.73157256841659546
0.91381818056106567 0.29381376504898071 0.71222305297851562
0.11941782385110855 0.56139916181564331 0.75289547443389893
0.22172299027442932 0.54775136709213257 0.75041991472244263
0.4606325626373291 0.54404515027999878 0.77310150861740112
0.82424086332321167 0.52851706743240356 0.75439810752868652
0.93827325105667114 0.53958237171173096 0.71879327297210693
0.17948107421398163 0.78786766529083252 0.75846797227859497
0.27975994348526001 0.79222029447555542 0.75805342197418213
0.44079822301864624 0.79105305671691895 0.76004195213317871
0.81224638223648071 0.82337576150894165 0.77411270141601562
0.98108518123626709 0.83209711313247681 0.77520507574081421
0.20256088674068451 0.93136274814605713 0.74545961618423462
0.29743838310241699 0.93208140134811401 0.74210816621780396
0.45048084855079651 0.94599032402038574 0.73719602823257446
0.78205317258834839 0.97410064935684204 0.76946806907653809
0.99891597032546997 0.99545395374298096 0.80410021543502808
0.052128482609987259 0.062049627304077148 0.8734167218208313
0.25388294458389282 0.076750978827476501 0.83598458766937256
0.5793113112449646 0.067933909595012665 0.84542179107666016
0.79768037796020508 0.11612872034311295 0.83364641666412354
0.9064706563949585 0.10245205461978912 0.83458024263381958
0.068809628486633301 0.33339020609855652 0.83783483505249023
0.22345435619354248 0.30984103679656982 0.84167414903640747
0.5127333402633667 0.28037619590759277 0.86927670240402222
0.7923087477684021 0.27487444877624512 0.85393530130386353
0.91212010383605957 0.2934933602809906 0.85146266222000122
0.116745725274086 0.55554664134979248 0.86574721336364746
0.22813080251216888 0.54101765155792236 0.86642855405807495
0.45490157604217529 0.53662049770355225 0.88923639059066772
0.80283671617507935 0.52435022592544556 0.91507846117019653
0.94652086496353149 0.54741823673248291 0.91669762134552002
0.18433940410614014 0.78954523801803589 0.90965622663497925
0.28706422448158264 0.78821736574172974 0.91430962085723877
0.46047469973564148 0.78952568769454956 0.92839711904525757
0.81329011917114258 0.83899194002151489 0.97887736558914185
0.98634326457977295 0.84730643033981323 0.98517972230911255
0.21181386709213257 0.94692867994308472 0.9322313666343689
0.31196469068527222 0.94662541151046753 0.93821007013320923
0.48673030734062195 0.96295464038848877 0.96156859397888184
0.79878443479537964 0.99275869131088257 0.99172747135162354
0.99531716108322144 0.99894946813583374 0.99848490953445435
