assets/lut/editingcorp cosa.cube
# Created by: G'MIC (https://gmic.eu)
TITLE "cosa"
# LUT size
LUT_3D_SIZE 7
# Data domain
DOMAIN_MIN 0.0 0.0 0.0
DOMAIN_MAX 1.0 1.0 1.0
# LUT data points
0.010847323574125767 0.015169884078204632 0.012901141308248043
0.16186970472335815 0.015861362218856812 0.015703283250331879
0.37156474590301514 0.02237153984606266 0.010447288863360882
0.57324844598770142 0.028467470780014992 0.0075269662775099277
0.71522641181945801 0.026697615161538124 0.0026110331527888775
0.76864141225814819 0.0069126952439546585 4.9546186346560717e-05
0.80592256784439087 0.0047093410976231098 0
0.019306138157844543 0.14208585023880005 0.0083281723782420158
0.13850808143615723 0.13583163917064667 0.015188823454082012
0.35425767302513123 0.13001459836959839 0.013592155650258064
0.56338763236999512 0.1223137229681015 0.020715048536658287
0.71701502799987793 0.11332754790782928 0.024556403979659081
0.78268253803253174 0.095442421734333038 0.01530882902443409
0.82492208480834961 0.097303144633769989 0.011189030483365059
0.037895683199167252 0.32443657517433167 0.007364609744399786
0.12817998230457306 0.32232362031936646 0.021275375038385391
0.34062990546226501 0.32176598906517029 0.045183818787336349
0.57376444339752197 0.31604215502738953 0.055668625980615616
0.75481975078582764 0.3010823130607605 0.057652253657579422
0.8327677845954895 0.27817854285240173 0.05456605926156044
0.86611801385879517 0.26744410395622253 0.05558471754193306
0.07548096776008606 0.52288758754730225 0.038779418915510178
0.13580922782421112 0.52163338661193848 0.056832704693078995
0.31431835889816284 0.52976715564727783 0.086044952273368835
0.56462806463241577 0.53678339719772339 0.11256930977106094
0.78011101484298706 0.51490741968154907 0.10765614360570908
0.88745296001434326 0.48991400003433228 0.10114248096942902
0.9187285304069519 0.47370132803916931 0.097157329320907593
0.10543131828308105 0.71238702535629272 0.080656178295612335
0.15635956823825836 0.70985543727874756 0.090939708054065704
0.28265884518623352 0.71788591146469116 0.10620390623807907
0.5199924111366272 0.73373168706893921 0.13336612284183502
0.75874924659729004 0.71891945600509644 0.14250671863555908
0.91410660743713379 0.69210362434387207 0.14157475531101227
0.96069455146789551 0.67109322547912598 0.13257575035095215
0.10899130254983902 0.83593279123306274 0.096731700003147125
0.16664570569992065 0.8423607349395752 0.10916664451360703
0.26313385367393494 0.84947991371154785 0.12183037400245667
0.46891653537750244 0.86276769638061523 0.13758213818073273
0.7078545093536377 0.86956608295440674 0.1492336243391037
0.90853375196456909 0.86116170883178711 0.15897031128406525
0.97468286752700806 0.84829902648925781 0.16174758970737457
0.089069396257400513 0.89461219310760498 0.084578029811382294
0.14411488175392151 0.90116292238235474 0.10226792097091675
0.23186534643173218 0.90643668174743652 0.11866233497858047
0.42841175198554993 0.91527563333511353 0.13570304214954376
0.66606265306472778 0.93208056688308716 0.14798197150230408
0.8721926212310791 0.9385368824005127 0.16799935698509216
0.97181570529937744 0.93985038995742798 0.17898412048816681
0.0070433374494314194 0.011741263791918755 0.15222175419330597
0.1772453635931015 0.01631602831184864 0.15395694971084595
0.38876372575759888 0.013587936758995056 0.13742125034332275
0.59071356058120728 0.013822667300701141 0.13160432875156403
0.73115295171737671 0.016765788197517395 0.10192712396383286
0.77874851226806641 0.010634643025696278 0.10134346038103104
0.81795823574066162 0.016045499593019485 0.087488792836666107
0.022768313065171242 0.14892326295375824 0.1331595778465271
0.15030717849731445 0.14914107322692871 0.14719349145889282
0.37032029032707214 0.14348681271076202 0.13204649090766907
0.58260929584503174 0.12929417192935944 0.12371525168418884
0.74077028036117554 0.12499330937862396 0.11686990410089493
0.78889888525009155 0.10572656244039536 0.09832242876291275
0.83566689491271973 0.10731036961078644 0.10345562547445297
0.050210677087306976 0.33813971281051636 0.1133817657828331
0.13168010115623474 0.33781054615974426 0.12079117447137833
0.35014578700065613 0.33800438046455383 0.14006498456001282
0.58134669065475464 0.32828933000564575 0.1295301616191864
0.76588314771652222 0.30852290987968445 0.12648612260818481
0.83998316526412964 0.28610056638717651 0.11743643134832382
0.87646567821502686 0.27953115105628967 0.11882863938808441
0.083395101130008698 0.52880394458770752 0.1067231297492981
0.13599830865859985 0.52615189552307129 0.11658892035484314
0.31843674182891846 0.5349200963973999 0.1432705819606781
0.56870812177658081 0.54190099239349365 0.16708488762378693
0.77994108200073242 0.52131408452987671 0.16500154137611389
0.89016234874725342 0.49235478043556213 0.15224325656890869
0.92666637897491455 0.47947078943252563 0.15350458025932312
0.11434075981378555 0.71927279233932495 0.13000662624835968
0.16356413066387177 0.71757489442825317 0.13609646260738373
0.28455439209938049 0.72393012046813965 0.15661974251270294
0.52044177055358887 0.73603683710098267 0.18557164072990417
0.76086711883544922 0.72206002473831177 0.19777543842792511
0.91459989547729492 0.69084328413009644 0.18985709547996521
0.96304339170455933 0.67308753728866577 0.18221078813076019
0.13346423208713531 0.84210538864135742 0.15132082998752594
0.18355363607406616 0.84916305541992188 0.15496519207954407
0.26097345352172852 0.85761374235153198 0.17876297235488892
0.45930385589599609 0.87008100748062134 0.19992342591285706
0.70798379182815552 0.87617701292037964 0.21251145005226135
0.90351659059524536 0.86783081293106079 0.22265590727329254
0.97679567337036133 0.84611743688583374 0.22350324690341949
0.12075921148061752 0.89205509424209595 0.14115968346595764
0.16775663197040558 0.89984345436096191 0.15467426180839539
0.2468390166759491 0.91340595483779907 0.18120314180850983
0.42757260799407959 0.93102872371673584 0.20692498981952667
0.66732704639434814 0.94590216875076294 0.20853129029273987
0.87184149026870728 0.95246464014053345 0.22967854142189026
0.97335672378540039 0.94657689332962036 0.24999257922172546
0.023320754989981651 0.019454821944236755 0.33608189225196838
0.194798544049263 0.021552545949816704 0.34238365292549133
0.4160551130771637 0.017283331602811813 0.34013792872428894
0.62451422214508057 0.022591086104512215 0.33917218446731567
0.7677721381187439 0.043922737240791321 0.31828480958938599
0.81387674808502197 0.02109730988740921 0.30518719553947449
0.85659325122833252 0.021807845681905746 0.29033741354942322
0.036174699664115906 0.17617602646350861 0.33036342263221741
0.17366941273212433 0.17796067893505096 0.34304049611091614
0.39812040328979492 0.16776522994041443 0.34634149074554443
0.61321622133255005 0.15570865571498871 0.3309025764465332
0.7737545371055603 0.15630471706390381 0.30899548530578613
0.82494240999221802 0.13271439075469971 0.28536659479141235
0.87422466278076172 0.14637179672718048 0.28508049249649048
0.068118184804916382 0.37295258045196533 0.32319846749305725
0.16480119526386261 0.37579405307769775 0.33747100830078125
0.37597477436065674 0.3766116201877594 0.36566317081451416
0.60667651891708374 0.36540281772613525 0.35264724493026733
0.78963977098464966 0.34616896510124207 0.3253205418586731
0.86663126945495605 0.32842901349067688 0.30702304840087891
0.91013145446777344 0.3284417986869812 0.30054667592048645
0.098794154822826385 0.56544721126556396 0.2931000292301178
0.16397747397422791 0.5653376579284668 0.30137902498245239
0.34380057454109192 0.5691906213760376 0.3241269588470459
0.58812564611434937 0.57102382183074951 0.34395864605903625
0.7968103289604187 0.54846948385238647 0.3348478376865387
0.89902520179748535 0.51917779445648193 0.29625400900840759
0.94189226627349854 0.50836324691772461 0.2933063805103302
0.12682409584522247 0.74229955673217773 0.26247712969779968
0.18129990994930267 0.74109464883804321 0.25813844799995422
0.31323021650314331 0.74262404441833496 0.27742680907249451
0.54151695966720581 0.74884915351867676 0.29665237665176392
0.77094197273254395 0.73317629098892212 0.30226337909698486
0.91382533311843872 0.69989752769470215 0.27795091271400452
0.9665026068687439 0.68275505304336548 0.28418198227882385
0.14780400693416595 0.85539710521697998 0.23437327146530151
0.19674354791641235 0.85877305269241333 0.22996418178081512
0.28189074993133545 0.85958617925643921 0.24872481822967529
0.47421008348464966 0.87489926815032959 0.26999858021736145
0.71053379774093628 0.88215118646621704 0.27284803986549377
0.9039616584777832 0.86899328231811523 0.28473559021949768
0.97711873054504395 0.84866589307785034 0.28494083881378174
0.13943684101104736 0.90656542778015137 0.19894075393676758
0.18800558149814606 0.90652066469192505 0.21941432356834412
0.26285988092422485 0.91284084320068359 0.2358090877532959
0.43695059418678284 0.93542706966400146 0.25722017884254456
0.67286068201065063 0.94985461235046387 0.26093295216560364
0.87940859794616699 0.95228117704391479 0.2901705801486969
0.97419852018356323 0.94963103532791138 0.32090955972671509
0.046240951865911484 0.022777557373046875 0.50643068552017212
0.21303610503673553 0.025571964681148529 0.52794069051742554
0.43893450498580933 0.023616267368197441 0.53839951753616333
0.66154122352600098 0.025735128670930862 0.53808856010437012
0.80624067783355713 0.039777584373950958 0.52259284257888794
0.8563959002494812 0.028381422162055969 0.50234305858612061
0.89406019449234009 0.029594376683235168 0.49349191784858704
0.057536974549293518 0.19148287177085876 0.5173991322517395
0.19640679657459259 0.1922709047794342 0.52726000547409058
0.42368364334106445 0.18749396502971649 0.53825664520263672
0.64443957805633545 0.18117359280586243 0.53954261541366577
0.80352199077606201 0.17946524918079376 0.51607954502105713
0.86369198560714722 0.15927010774612427 0.49026495218276978
0.90763282775878906 0.1671411395072937 0.48261800408363342
0.089381784200668335 0.40172308683395386 0.5294073224067688
0.18792149424552917 0.40086796879768372 0.53515505790710449
0.4033786952495575 0.40672144293785095 0.57764524221420288
0.641215980052948 0.40560609102249146 0.59449845552444458
0.82837152481079102 0.39359131455421448 0.55600082874298096
0.90713346004486084 0.37244486808776855 0.53060919046401978
0.94553405046463013 0.36783576011657715 0.51941889524459839
0.13201990723609924 0.61151397228240967 0.52721691131591797
0.20084492862224579 0.61098277568817139 0.53726100921630859
0.37436705827713013 0.61628252267837524 0.57247823476791382
0.61321097612380981 0.6202082633972168 0.61056339740753174
0.81888383626937866 0.60061883926391602 0.58856391906738281
0.93046921491622925 0.57679635286331177 0.55789852142333984
0.96866363286972046 0.56838983297348022 0.55382317304611206
0.15455640852451324 0.78743600845336914 0.48626947402954102
0.21522179245948792 0.78347063064575195 0.48873314261436462
0.34163582324981689 0.78413248062133789 0.50761967897415161
0.56059306859970093 0.78729128837585449 0.54802846908569336
0.78186041116714478 0.76934802532196045 0.54947268962860107
0.93353509902954102 0.73661017417907715 0.52866965532302856
0.98192805051803589 0.72399049997329712 0.52334338426589966
0.16770067811012268 0.89177030324935913 0.4233623743057251
0.22004500031471252 0.88869768381118774 0.42672452330589294
0.30303120613098145 0.89146208763122559 0.43643113970756531
0.49673563241958618 0.90209013223648071 0.47718521952629089
0.71846896409988403 0.90168589353561401 0.47916045784950256
0.90686327219009399 0.88320374488830566 0.46778714656829834
0.98217618465423584 0.86962223052978516 0.44961640238761902
0.16117699444293976 0.93935340642929077 0.37301921844482422
0.2138131856918335 0.93546837568283081 0.39325040578842163
0.27641063928604126 0.94304728507995605 0.39798256754875183
0.44752922654151917 0.95560580492019653 0.42236286401748657
0.68056255578994751 0.96089369058609009 0.44437891244888306
0.87911784648895264 0.9643511176109314 0.44857743382453918
0.97766506671905518 0.96521484851837158 0.45738846063613892
0.047432620078325272 0.029098121449351311 0.62077683210372925
0.21887548267841339 0.030706038698554039 0.64873909950256348
0.44782182574272156 0.033849306404590607 0.67002636194229126
0.67800581455230713 0.039530001580715179 0.67984950542449951
0.82805085182189941 0.053327403962612152 0.67100292444229126
0.88472497463226318 0.052796263247728348 0.6577531099319458
0.92750579118728638 0.07799261063337326 0.6583632230758667
0.064656533300876617 0.20139957964420319 0.64613783359527588
0.20885004103183746 0.19557416439056396 0.65900146961212158
0.43567618727684021 0.20109035074710846 0.68464654684066772
0.66220372915267944 0.20874054729938507 0.70623111724853516
0.82704949378967285 0.21478506922721863 0.69097316265106201
0.89558440446853638 0.19658438861370087 0.6663479208946228
0.94037783145904541 0.2006336897611618 0.66012728214263916
0.11524347215890884 0.41424620151519775 0.68474042415618896
0.21807801723480225 0.41331487894058228 0.6935153603553772
0.43103328347206116 0.42487317323684692 0.73482710123062134
0.65925860404968262 0.43042689561843872 0.76282346248626709
0.84879273176193237 0.41865155100822449 0.74172425270080566
0.93578898906707764 0.39675399661064148 0.7098051905632019
0.9697871208190918 0.38676565885543823 0.69444572925567627
0.16988806426525116 0.63464081287384033 0.71911269426345825
0.23431997001171112 0.63236397504806519 0.72617322206497192
0.40188148617744446 0.63480770587921143 0.75772291421890259
0.63222986459732056 0.63967978954315186 0.79415148496627808
0.83445757627487183 0.62823182344436646 0.78243148326873779
0.94716155529022217 0.61284124851226807 0.75430977344512939
0.98712939023971558 0.6041485071182251 0.74892061948776245
0.17792843282222748 0.81952947378158569 0.6996580958366394
0.23762017488479614 0.81495207548141479 0.7028624415397644
0.35451769828796387 0.81277012825012207 0.7186506986618042
0.57511264085769653 0.81034213304519653 0.76179617643356323
0.79076290130615234 0.79736250638961792 0.77608639001846313
0.93755865097045898 0.77824026346206665 0.76406949758529663
0.99125421047210693 0.7674567699432373 0.7570837140083313
0.1833169013261795 0.92484390735626221 0.65283602476119995
0.2327408492565155 0.92431193590164185 0.649058997631073
0.30311733484268188 0.92693805694580078 0.65127372741699219
0.50833642482757568 0.92896264791488647 0.69134730100631714
0.7350151538848877 0.92319512367248535 0.72364068031311035
0.90906965732574463 0.90681689977645874 0.71951115131378174
0.9859853982925415 0.8939470648765564 0.70908516645431519
0.17683678865432739 0.97170877456665039 0.61460483074188232
0.22617550194263458 0.97033786773681641 0.61800664663314819
0.27884426712989807 0.97689187526702881 0.61736428737640381
0.46081963181495667 0.98352509737014771 0.64694350957870483
0.70092505216598511 0.98540443181991577 0.68509048223495483
0.88478988409042358 0.98207896947860718 0.6855466365814209
0.97978949546813965 0.98192989826202393 0.6830182671546936
0.035893488675355911 0.034790277481079102 0.67927294969558716
0.21232746541500092 0.043920733034610748 0.69691061973571777
0.44393113255500793 0.049390994012355804 0.71749025583267212
0.67294007539749146 0.049766167998313904 0.73507332801818848
0.83191049098968506 0.060872439295053482 0.7399832010269165
0.89144760370254517 0.053476326167583466 0.73957020044326782
0.93956142663955688 0.074818961322307587 0.74449551105499268
0.060844525694847107 0.20073789358139038 0.7094154953956604
0.20356002449989319 0.20046107470989227 0.71748709678649902
0.42998507618904114 0.20978443324565887 0.74486184120178223
0.65781378746032715 0.21798272430896759 0.76873189210891724
0.83744734525680542 0.23504972457885742 0.77692270278930664
0.91266947984695435 0.21861213445663452 0.76653856039047241
0.95725256204605103 0.22596289217472076 0.7682262659072876
0.12263310700654984 0.40879836678504944 0.7544211745262146
0.21553875505924225 0.40875902771949768 0.75762134790420532
0.43600603938102722 0.42720580101013184 0.80522662401199341
0.66175615787506104 0.43881356716156006 0.84397429227828979
0.85595279932022095 0.42864310741424561 0.85001754760742188
0.94638597965240479 0.40455612540245056 0.83047127723693848
0.97785460948944092 0.39838403463363647 0.82059782743453979
0.18220947682857513 0.63129043579101562 0.80818444490432739
0.24780198931694031 0.62788456678390503 0.81977099180221558
0.41273200511932373 0.63288813829421997 0.85170590877532959
0.63808691501617432 0.64170384407043457 0.89048463106155396
0.83944261074066162 0.63307702541351318 0.89813435077667236
0.95620083808898926 0.61941826343536377 0.89037811756134033
0.99136978387832642 0.6113705039024353 0.88513708114624023
0.19020566344261169 0.82440859079360962 0.846183180809021
0.25191527605056763 0.82009518146514893 0.84672093391418457
0.36413827538490295 0.81754940748214722 0.85938805341720581
0.58425033092498779 0.81244963407516479 0.89673858880996704
0.79710525274276733 0.80216562747955322 0.91579300165176392
0.94424045085906982 0.79062682390213013 0.91626638174057007
0.99752730131149292 0.78196424245834351 0.90413475036621094
0.18687359988689423 0.93191158771514893 0.83265644311904907
0.23969897627830505 0.92806947231292725 0.83193504810333252
0.32139661908149719 0.9330105185508728 0.83607560396194458
0.51725244522094727 0.93183928728103638 0.86259621381759644
0.73957592248916626 0.93151485919952393 0.89186602830886841
0.90985280275344849 0.92022037506103516 0.90151077508926392
0.98491597175598145 0.9113384485244751 0.89428257942199707
0.17821919918060303 0.98050969839096069 0.82261103391647339
0.23344138264656067 0.9771992564201355 0.8177492618560791
0.30185571312904358 0.97793281078338623 0.816459059715271
0.47437494993209839 0.98275852203369141 0.83338630199432373
0.70809745788574219 0.99481594562530518 0.86716079711914062
0.8918755054473877 0.9911658763885498 0.88221949338912964
0.97641360759735107 0.99189591407775879 0.8892706036567688
0.031496129930019379 0.030075088143348694 0.71716415882110596
0.20898193120956421 0.033345285803079605 0.73061078786849976
0.43908971548080444 0.035014074295759201 0.74949401617050171
0.66630661487579346 0.030907515436410904 0.77028453350067139
0.83272933959960938 0.039771091192960739 0.78358358144760132
0.89403289556503296 0.072016097605228424 0.78539562225341797
0.9398881196975708 0.045733656734228134 0.78186434507369995
0.064419813454151154 0.19491422176361084 0.74972856044769287
0.20608675479888916 0.19440338015556335 0.75835293531417847
0.43048012256622314 0.2022206038236618 0.78250217437744141
0.65349382162094116 0.209843710064888 0.80577945709228516
0.82980853319168091 0.21972464025020599 0.81845277547836304
0.90620607137680054 0.21805201470851898 0.80683690309524536
0.95957189798355103 0.21245642006397247 0.80872964859008789
0.135783851146698 0.40140584111213684 0.79610246419906616
0.23177309334278107 0.40392971038818359 0.80434465408325195
0.43168747425079346 0.42506614327430725 0.84356307983398438
0.65565788745880127 0.43952584266662598 0.88047486543655396
0.84746032953262329 0.43096619844436646 0.89278441667556763
0.93781101703643799 0.40079358220100403 0.87431734800338745
0.97749048471450806 0.39014950394630432 0.86648070812225342
0.18667460978031158 0.62174099683761597 0.85052824020385742
0.26010802388191223 0.61744487285614014 0.85912579298019409
0.41913950443267822 0.62641876935958862 0.88883090019226074
0.63498592376708984 0.63705074787139893 0.92479389905929565
0.83284926414489746 0.63052523136138916 0.93791383504867554
0.9525836706161499 0.61625272035598755 0.93710881471633911
0.98726063966751099 0.60602498054504395 0.93218624591827393
0.1951180100440979 0.8172905445098877 0.88872933387756348
0.2575090229511261 0.81477522850036621 0.89371663331985474
0.37328389286994934 0.81247538328170776 0.90752983093261719
0.58729404211044312 0.80723726749420166 0.94156432151794434
0.7994767427444458 0.79874533414840698 0.96378594636917114
0.94254714250564575 0.79103362560272217 0.97279483079910278
0.99514532089233398 0.78110480308532715 0.97089129686355591
0.18033760786056519 0.92695313692092896 0.8942839503288269
0.237474724650383 0.93024551868438721 0.90498179197311401
0.32725852727890015 0.93184202909469604 0.91296720504760742
0.51763314008712769 0.93412423133850098 0.93637657165527344
0.73765438795089722 0.93438386917114258 0.96445667743682861
0.90772944688796997 0.92401790618896484 0.98345601558685303
0.98307561874389648 0.91475945711135864 0.98515778779983521
0.17195484042167664 0.97048079967498779 0.89764171838760376
0.22324484586715698 0.9764743447303772 0.90887355804443359
0.29011961817741394 0.97650212049484253 0.90580660104751587
0.46226763725280762 0.98208022117614746 0.92569160461425781
0.69509094953536987 0.99284631013870239 0.96292692422866821
0.88960611820220947 0.98954647779464722 0.98036617040634155
0.97697025537490845 0.98983705043792725 0.99066627025604248
