assets/lut/editingcorpw Golden Hour.cube
LUT_3D_SIZE 16
DOMAIN_MIN 0.0 0.0 0.0
DOMAIN_MAX 1.0 1.0 1.0
0.027686 0.053772 0.066017
0.066120 0.042894 0.061236
0.103803 0.040392 0.054285
0.160860 0.044676 0.051381
0.252489 0.047123 0.054399
0.360655 0.053537 0.050748
0.472589 0.071026 0.044132
0.569857 0.086958 0.037945
0.645479 0.096319 0.032970
0.710312 0.100926 0.031150
0.768488 0.104081 0.031038
0.819105 0.108136 0.031729
0.866072 0.113208 0.033268
0.910705 0.119382 0.035549
0.954387 0.126207 0.038349
0.998625 0.132893 0.041339
0.025713 0.089853 0.073471
0.071065 0.094440 0.066286
0.119333 0.089841 0.061373
0.183865 0.088763 0.058250
0.280369 0.092903 0.057960
0.390946 0.103770 0.053455
0.499639 0.121747 0.047292
0.588056 0.136222 0.042485
0.659424 0.144872 0.038393
0.721526 0.149474 0.037376
0.775767 0.152505 0.037825
0.823110 0.156017 0.038569
0.868203 0.160494 0.040105
0.911928 0.166147 0.042452
0.955144 0.172408 0.045295
0.998108 0.178692 0.048266
0.027491 0.117892 0.085956
0.080439 0.118874 0.079485
0.132202 0.124738 0.070889
0.202302 0.129992 0.062543
0.304507 0.134730 0.058856
0.417392 0.151681 0.053333
0.517911 0.170697 0.047932
0.597971 0.184074 0.044285
0.666801 0.192835 0.041380
0.726393 0.197918 0.041402
0.777491 0.200823 0.042919
0.823622 0.203874 0.044205
0.868006 0.208092 0.046120
0.911339 0.213450 0.048765
0.954371 0.219615 0.051813
0.996874 0.225751 0.054934
0.028330 0.167121 0.095090
0.084521 0.160229 0.090096
0.144080 0.154013 0.083280
0.225257 0.151852 0.071865
0.328908 0.162780 0.062992
0.441633 0.185532 0.055693
0.530343 0.210966 0.050160
0.604465 0.229075 0.046096
0.670505 0.241461 0.043600
0.726706 0.248571 0.043893
0.775661 0.252417 0.046071
0.821194 0.255839 0.047909
0.865548 0.260011 0.050231
0.909143 0.265388 0.053279
0.952187 0.271006 0.056695
0.995212 0.276728 0.060224
0.028540 0.215326 0.102497
0.086587 0.210519 0.097680
0.151090 0.206022 0.090375
0.242614 0.202391 0.077076
0.353448 0.202888 0.068567
0.463062 0.213240 0.063459
0.545803 0.229052 0.059868
0.616292 0.254838 0.054662
0.677108 0.280867 0.049217
0.729212 0.297626 0.047440
0.776592 0.304973 0.049415
0.821451 0.310870 0.051420
0.865560 0.316338 0.053752
0.908851 0.322375 0.056711
0.951732 0.328393 0.060020
0.994892 0.334354 0.063580
0.028377 0.262447 0.107655
0.088642 0.260375 0.102593
0.157968 0.260646 0.093988
0.257239 0.263175 0.079538
0.372751 0.268294 0.071471
0.477316 0.272128 0.068223
0.558825 0.272757 0.066938
0.630818 0.278376 0.066282
0.692405 0.295012 0.063812
0.741696 0.322253 0.059348
0.783956 0.350404 0.055817
0.827402 0.365726 0.056024
0.870669 0.376056 0.057838
0.913188 0.383689 0.060394
0.955181 0.390126 0.063363
0.996591 0.396175 0.066558
0.028136 0.310319 0.110944
0.091750 0.314075 0.104721
0.168716 0.319486 0.094192
0.275268 0.327542 0.080925
0.389601 0.338636 0.075325
0.489052 0.345127 0.074578
0.571494 0.348602 0.074094
0.643112 0.350175 0.073762
0.704870 0.350488 0.073416
0.759487 0.352172 0.073640
0.805037 0.366454 0.073418
0.844290 0.392124 0.070371
0.881124 0.419148 0.066603
0.918731 0.439173 0.064765
0.958270 0.450951 0.065669
0.996637 0.458582 0.067840
0.027940 0.361128 0.112745
0.096840 0.371784 0.104923
0.184673 0.382060 0.093433
0.300100 0.398292 0.082422
0.411449 0.414814 0.080635
0.505304 0.424618 0.082818
0.585220 0.429436 0.083334
0.653425 0.432158 0.082637
0.712345 0.432310 0.081359
0.765661 0.428775 0.081406
0.816111 0.420780 0.083483
0.860642 0.420822 0.084612
0.898668 0.436360 0.081921
0.933010 0.461829 0.076847
0.965078 0.489665 0.072083
0.995695 0.510782 0.069762
0.030000 0.414821 0.113225
0.109741 0.433371 0.103994
0.211637 0.452541 0.093538
0.334060 0.479171 0.086103
0.437646 0.497284 0.086496
0.524327 0.506584 0.089494
0.596248 0.512226 0.091685
0.660023 0.515433 0.091546
0.717565 0.515820 0.089651
0.769372 0.513306 0.088816
0.817343 0.507292 0.089715
0.863861 0.497282 0.090669
0.907611 0.486577 0.091481
0.940233 0.486476 0.089928
0.965615 0.503888 0.085522
0.991238 0.527623 0.080807
0.040403 0.463505 0.113935
0.136678 0.490523 0.105794
0.250318 0.519831 0.097176
0.368639 0.549665 0.091588
0.463278 0.569112 0.093237
0.543428 0.580937 0.096632
0.608255 0.589485 0.098997
0.666433 0.595148 0.099898
0.720361 0.597145 0.099024
0.770740 0.594911 0.098157
0.817227 0.589618 0.098183
0.861156 0.581772 0.097903
0.905648 0.570223 0.097392
0.940964 0.555342 0.096960
0.963340 0.543721 0.096164
0.987461 0.550963 0.092968
0.063699 0.509604 0.116015
0.171873 0.542162 0.109061
0.290907 0.577405 0.102039
0.400931 0.607027 0.099410
0.489238 0.627037 0.102177
0.562042 0.641705 0.106155
0.621350 0.652802 0.108757
0.675403 0.661560 0.109677
0.725941 0.666992 0.109370
0.772147 0.667883 0.108984
0.815935 0.665730 0.108395
0.858257 0.660519 0.106833
0.900366 0.652031 0.105183
0.940720 0.639378 0.103387
0.964616 0.623893 0.102112
0.986690 0.608498 0.101894
0.099325 0.554540 0.118914
0.210282 0.589309 0.113673
0.327994 0.626292 0.109386
0.430291 0.655363 0.109312
0.512975 0.676219 0.113007
0.579743 0.692904 0.117272
0.634144 0.706255 0.120470
0.685063 0.716962 0.121974
0.732466 0.724086 0.122081
0.775829 0.726826 0.121786
0.817281 0.727072 0.120747
0.857393 0.725535 0.118602
0.897040 0.721888 0.115864
0.937103 0.715373 0.112563
0.965680 0.704577 0.109553
0.988016 0.690719 0.108115
0.136462 0.597790 0.121921
0.248465 0.634015 0.118634
0.362116 0.670771 0.117833
0.458647 0.698976 0.120135
0.535540 0.720895 0.124596
0.596805 0.739354 0.128928
0.647774 0.754564 0.132746
0.695061 0.766678 0.134989
0.739075 0.774490 0.135786
0.780072 0.778512 0.135827
0.820011 0.780318 0.134372
0.858933 0.780479 0.131643
0.897216 0.779456 0.128508
0.934878 0.777174 0.124964
0.965523 0.772383 0.120582
0.988638 0.764586 0.116561
0.174465 0.640561 0.125312
0.285687 0.677715 0.124495
0.393000 0.712937 0.126942
0.484475 0.739973 0.131588
0.556404 0.762475 0.136858
0.613345 0.782596 0.141421
0.661131 0.799257 0.145532
0.704805 0.812002 0.148268
0.745508 0.820464 0.149960
0.784485 0.825454 0.150224
0.823045 0.828289 0.148834
0.861125 0.829510 0.145762
0.898842 0.829720 0.142004
0.936001 0.829159 0.137935
0.964726 0.827382 0.133364
0.987906 0.823809 0.128627
0.213352 0.684272 0.128725
0.320759 0.720878 0.130948
0.420970 0.754212 0.136390
0.507365 0.780352 0.142890
0.575220 0.802943 0.148966
0.629435 0.823495 0.154025
0.673907 0.841044 0.158376
0.714046 0.854281 0.161678
0.751829 0.863361 0.164007
0.788941 0.869147 0.164662
0.826330 0.873018 0.163506
0.863652 0.875152 0.160494
0.900738 0.875926 0.156335
0.937280 0.875741 0.151500
0.963485 0.874530 0.146374
0.986673 0.872604 0.140689
0.253480 0.729717 0.132557
0.354452 0.764076 0.137488
0.447026 0.795507 0.145788
0.527906 0.820952 0.154063
0.592395 0.843354 0.160819
0.643915 0.863744 0.166478
0.686249 0.881020 0.171304
0.723452 0.894502 0.175199
0.758490 0.904169 0.178048
0.793778 0.911022 0.178851
0.829526 0.915617 0.177888
0.865880 0.918226 0.174962
0.902129 0.919257 0.170699
0.937640 0.919141 0.165697
0.961989 0.917939 0.160055
0.984926 0.916394 0.154848
0.029922 0.050695 0.111984
0.083172 0.053483 0.110016
0.118336 0.051619 0.099534
0.162373 0.053047 0.092825
0.244055 0.055259 0.094246
0.351866 0.055624 0.091847
0.466128 0.071201 0.085816
0.567903 0.089510 0.079954
0.646341 0.101312 0.076095
0.711891 0.106912 0.074470
0.770362 0.111399 0.074830
0.821769 0.117170 0.076414
0.869707 0.123707 0.078656
0.914833 0.131018 0.081520
0.958314 0.138887 0.084759
1.000000 0.146259 0.088032
0.025205 0.100426 0.112104
0.085476 0.104637 0.114032
0.132985 0.096816 0.108179
0.187529 0.097216 0.101303
0.273667 0.099094 0.099227
0.385318 0.103136 0.095807
0.497653 0.122730 0.089852
0.590304 0.140067 0.085559
0.663458 0.151089 0.082242
0.725697 0.157021 0.081137
0.780153 0.161214 0.081766
0.828213 0.166672 0.083358
0.873843 0.172855 0.085577
0.917412 0.179874 0.088466
0.959855 0.187045 0.091664
0.999841 0.193805 0.094833
0.025248 0.130986 0.120980
0.086055 0.144725 0.120954
0.140043 0.148428 0.112947
0.204442 0.144126 0.106015
0.298322 0.141554 0.101123
0.413224 0.152621 0.096643
0.520997 0.172991 0.091753
0.605316 0.189078 0.089234
0.675166 0.199380 0.086691
0.734444 0.205640 0.086380
0.785251 0.209775 0.087637
0.831337 0.214707 0.089475
0.875408 0.220353 0.091901
0.918123 0.226982 0.094992
0.959867 0.233875 0.098339
0.998779 0.240411 0.101625
0.024893 0.180551 0.129459
0.088916 0.185850 0.132022
0.148434 0.180039 0.124768
0.219391 0.179193 0.113140
0.319143 0.182943 0.101442
0.437072 0.199425 0.096191
0.534652 0.220969 0.092864
0.613026 0.237381 0.090789
0.680069 0.248625 0.089090
0.736791 0.255741 0.089740
0.785989 0.260010 0.092082
0.831263 0.264622 0.094567
0.875086 0.269913 0.097502
0.917441 0.276235 0.100969
0.959024 0.283033 0.104591
0.997804 0.289746 0.108156
0.025655 0.230489 0.137627
0.089054 0.235763 0.140548
0.151994 0.229097 0.133656
0.234671 0.220705 0.120983
0.343013 0.219839 0.108508
0.458370 0.235034 0.102287
0.548329 0.256694 0.098824
0.621316 0.280627 0.094937
0.684310 0.298293 0.092181
0.738385 0.309143 0.092542
0.786311 0.314825 0.095336
0.831111 0.320061 0.098197
0.874697 0.325741 0.101479
0.916956 0.331989 0.105229
0.959060 0.338508 0.109359
0.997444 0.344752 0.113434
0.024636 0.278147 0.144407
0.088428 0.283704 0.146365
0.155425 0.280098 0.138756
0.247115 0.277633 0.124063
0.361407 0.284095 0.112110
0.473969 0.290701 0.108785
0.562561 0.294989 0.107794
0.635741 0.306085 0.106353
0.695580 0.330235 0.102476
0.745531 0.355000 0.099250
0.791006 0.370855 0.099910
0.835269 0.379694 0.102606
0.878200 0.387532 0.105883
0.920102 0.394274 0.109608
0.961692 0.400749 0.113589
0.997786 0.406680 0.117478
0.023503 0.326892 0.150477
0.087914 0.332466 0.149438
0.161100 0.333722 0.140183
0.261799 0.340372 0.125569
0.379452 0.354890 0.115675
0.486585 0.365225 0.115189
0.574413 0.370070 0.115555
0.647784 0.371319 0.115192
0.709894 0.372475 0.114838
0.763169 0.381248 0.114274
0.806118 0.403559 0.112698
0.843515 0.430136 0.109954
0.882611 0.446307 0.110159
0.922579 0.456600 0.112224
0.963090 0.464174 0.115263
0.997903 0.470293 0.118608
0.023243 0.375475 0.155571
0.089349 0.383747 0.151393
0.171923 0.393431 0.140029
0.284437 0.409787 0.127038
0.403521 0.431837 0.121050
0.504119 0.445815 0.123190
0.587025 0.451395 0.124297
0.656827 0.453852 0.123738
0.716496 0.453485 0.122526
0.769979 0.449147 0.122347
0.818845 0.442881 0.124190
0.859507 0.450768 0.123985
0.894798 0.473349 0.120570
0.929207 0.499497 0.117108
0.965370 0.519659 0.116020
0.997534 0.531425 0.117317
0.027095 0.418696 0.159940
0.097149 0.433196 0.152644
0.193918 0.452896 0.140853
0.319535 0.483216 0.131284
0.432026 0.509312 0.128051
0.524392 0.524050 0.130541
0.598453 0.532073 0.132235
0.662591 0.536586 0.132386
0.720243 0.537354 0.130562
0.771998 0.533929 0.129331
0.819043 0.526045 0.130181
0.864019 0.513942 0.131237
0.905595 0.506630 0.131728
0.941410 0.517399 0.129397
0.968478 0.540321 0.125691
0.994624 0.566128 0.122175
0.036227 0.457048 0.163689
0.116887 0.479932 0.154532
0.227905 0.509547 0.145070
0.355198 0.545330 0.137871
0.459454 0.572166 0.136792
0.544787 0.588588 0.139524
0.611770 0.599721 0.141319
0.670185 0.607718 0.141933
0.723071 0.612165 0.140818
0.771972 0.611639 0.139055
0.817172 0.606302 0.138584
0.860028 0.598011 0.138017
0.903754 0.585047 0.137689
0.941640 0.570675 0.137766
0.965149 0.566572 0.136974
0.989934 0.581522 0.133809
0.052563 0.497348 0.167181
0.147752 0.525797 0.157827
0.265222 0.561605 0.150586
0.388461 0.598664 0.146229
0.486325 0.625369 0.147002
0.564146 0.643463 0.150398
0.625828 0.656859 0.152445
0.679722 0.667295 0.153210
0.728880 0.674127 0.152302
0.773650 0.676460 0.151045
0.815852 0.675382 0.149970
0.856693 0.671608 0.147838
0.897709 0.664507 0.145656
0.940240 0.652702 0.143893
0.965605 0.637895 0.143775
0.987850 0.624435 0.143743
0.079834 0.542737 0.172199
0.184288 0.570665 0.162643
0.302681 0.608757 0.157695
0.418635 0.645182 0.156645
0.510707 0.671694 0.158783
0.582644 0.690993 0.162501
0.639333 0.706552 0.165181
0.689362 0.718138 0.166354
0.734997 0.725998 0.165781
0.777144 0.729783 0.164832
0.817316 0.730672 0.163369
0.856184 0.729999 0.160795
0.894868 0.727335 0.157654
0.934105 0.721976 0.154115
0.966295 0.713421 0.151240
0.988748 0.701318 0.150288
0.114121 0.586835 0.175572
0.222050 0.615314 0.167816
0.337745 0.653693 0.165725
0.447309 0.688545 0.167771
0.533771 0.714723 0.171091
0.600191 0.735452 0.175034
0.653011 0.752622 0.178184
0.699056 0.765277 0.179939
0.741499 0.773778 0.180017
0.781202 0.778431 0.179525
0.819924 0.780576 0.177771
0.857700 0.781211 0.174525
0.895160 0.780884 0.171029
0.932090 0.779307 0.167213
0.965621 0.775940 0.162944
0.988916 0.769949 0.159428
0.150845 0.630803 0.178674
0.260600 0.660952 0.173698
0.370188 0.697536 0.174635
0.472737 0.730567 0.179271
0.554739 0.755905 0.183923
0.616951 0.777420 0.188112
0.665911 0.795384 0.191315
0.708578 0.809006 0.193619
0.747773 0.817982 0.194585
0.785431 0.823279 0.194460
0.822805 0.826502 0.192790
0.859740 0.827943 0.189378
0.896633 0.828443 0.185224
0.933065 0.828180 0.180661
0.964469 0.827073 0.176001
0.987806 0.824876 0.171486
0.188506 0.675830 0.182653
0.298015 0.706954 0.180132
0.400380 0.741207 0.184169
0.495177 0.772451 0.190917
0.572995 0.796841 0.196579
0.632136 0.817948 0.201076
0.678283 0.835802 0.204581
0.718032 0.850135 0.207200
0.754253 0.859675 0.209010
0.789908 0.865779 0.209288
0.826040 0.869755 0.207789
0.861965 0.871896 0.204451
0.898038 0.872622 0.199760
0.933775 0.872439 0.194384
0.962989 0.871620 0.188987
0.986295 0.870634 0.183523
0.227321 0.722670 0.187561
0.334312 0.753167 0.186886
0.429162 0.784978 0.193811
0.515677 0.814614 0.202418
0.589483 0.838006 0.208991
0.645591 0.858075 0.213847
0.689783 0.875331 0.217686
0.727634 0.889567 0.220911
0.761286 0.899609 0.223316
0.794885 0.906526 0.223649
0.829250 0.911170 0.222146
0.864025 0.913551 0.218908
0.899105 0.914555 0.214140
0.934131 0.914358 0.208389
0.961366 0.913441 0.202514
0.984370 0.912400 0.197196
0.015993 0.047238 0.155266
0.077085 0.057858 0.156393
0.128334 0.063089 0.147135
0.168009 0.062732 0.135583
0.232892 0.063436 0.133182
0.333533 0.062767 0.132870
0.452119 0.070005 0.126689
0.559990 0.088945 0.120503
0.642853 0.103437 0.117539
0.710304 0.110618 0.116716
0.769513 0.116632 0.117765
0.822005 0.123963 0.120031
0.870950 0.132033 0.122914
0.916958 0.140500 0.126298
0.960032 0.149208 0.130011
1.000000 0.157456 0.133725
0.011446 0.096228 0.156350
0.078388 0.101041 0.161157
0.139500 0.104259 0.156737
0.189414 0.105205 0.145081
0.261435 0.107352 0.139520
0.368752 0.107140 0.136729
0.486524 0.121188 0.130440
0.585744 0.140502 0.125788
0.662630 0.154355 0.123519
0.725969 0.161682 0.122814
0.780970 0.167533 0.124137
0.830064 0.174685 0.126529
0.876658 0.182565 0.129559
0.920342 0.190838 0.133066
0.961966 0.199179 0.136845
1.000000 0.206897 0.140553
0.008185 0.138781 0.159333
0.073134 0.152795 0.161341
0.142196 0.155942 0.159628
0.205529 0.149671 0.151255
0.286896 0.149737 0.143265
0.400240 0.152495 0.138767
0.514536 0.171557 0.133077
0.605132 0.190602 0.130224
0.677571 0.203765 0.128532
0.737228 0.211477 0.128161
0.788618 0.217240 0.129829
0.835393 0.224130 0.132445
0.879840 0.231578 0.135659
0.921930 0.239464 0.139413
0.962787 0.247401 0.143364
0.999949 0.254830 0.147172
0.008361 0.186439 0.166865
0.074056 0.196001 0.169345
0.144742 0.202078 0.165491
0.213132 0.201106 0.154116
0.306081 0.195964 0.144015
0.426631 0.201109 0.138776
0.533402 0.222594 0.134632
0.617752 0.240517 0.133239
0.686426 0.252808 0.131928
0.743141 0.260913 0.132164
0.792372 0.266624 0.134547
0.837715 0.273232 0.137745
0.880671 0.280393 0.141411
0.921958 0.287990 0.145598
0.962659 0.295945 0.149941
0.999116 0.303601 0.154103
0.010684 0.238233 0.173992
0.076714 0.249155 0.177675
0.146872 0.251393 0.174911
0.222488 0.242717 0.163733
0.326863 0.238937 0.149092
0.446397 0.253022 0.140423
0.546762 0.272651 0.137934
0.626341 0.291604 0.136618
0.691123 0.305351 0.135027
0.745838 0.314679 0.135607
0.794122 0.320408 0.138639
0.838650 0.326299 0.142363
0.881051 0.333009 0.146567
0.922398 0.340500 0.151238
0.963693 0.348431 0.156146
0.998523 0.356068 0.160789
0.015451 0.288256 0.180581
0.078461 0.299377 0.184895
0.146963 0.301593 0.181647
0.230333 0.296111 0.169734
0.345803 0.297550 0.154542
0.464337 0.306616 0.148209
0.561025 0.316436 0.147268
0.637704 0.333786 0.145208
0.698107 0.356565 0.141610
0.750647 0.372208 0.140811
0.797762 0.380969 0.143369
0.841373 0.387542 0.146920
0.883432 0.394531 0.151326
0.924775 0.401414 0.156147
0.966158 0.408282 0.161166
0.998541 0.414600 0.165893
0.019311 0.337700 0.185918
0.079069 0.349327 0.190530
0.148358 0.352729 0.185521
0.242366 0.354274 0.172434
0.363799 0.368572 0.159268
0.478867 0.383295 0.155158
0.574459 0.390690 0.156540
0.651222 0.392454 0.156323
0.713397 0.397589 0.155238
0.764303 0.414828 0.152830
0.806539 0.435156 0.151649
0.845844 0.449641 0.152212
0.886093 0.458696 0.155050
0.926264 0.466020 0.158812
0.966863 0.472683 0.163215
0.998682 0.478632 0.167666
0.023292 0.383372 0.191765
0.081705 0.396346 0.195828
0.154440 0.403422 0.188109
0.260743 0.417118 0.174715
0.389256 0.443809 0.164841
0.498498 0.463960 0.163674
0.586768 0.472735 0.165497
0.659232 0.475199 0.164899
0.720168 0.474197 0.163511
0.773613 0.469406 0.162932
0.819480 0.467954 0.163866
0.856462 0.484317 0.162118
0.890755 0.509044 0.159383
0.927643 0.525274 0.159718
0.966402 0.535650 0.162243
0.998472 0.542792 0.165800
0.029326 0.422173 0.198450
0.089046 0.436572 0.200966
0.170235 0.450171 0.190616
0.292749 0.479186 0.179446
0.419533 0.512264 0.172998
0.520498 0.534864 0.172795
0.599585 0.546657 0.174298
0.665025 0.553369 0.174111
0.722819 0.555731 0.172035
0.774023 0.552772 0.169876
0.819967 0.543511 0.170257
0.863297 0.531016 0.171230
0.901920 0.532522 0.170711
0.936507 0.551655 0.168006
0.969253 0.576262 0.165804
0.997196 0.596495 0.165564
0.037807 0.457546 0.205622
0.103673 0.475455 0.206097
0.198551 0.498008 0.194878
0.327090 0.534836 0.186207
0.447733 0.568783 0.182510
0.541773 0.592346 0.183443
0.613642 0.606356 0.184811
0.673421 0.616163 0.184929
0.725750 0.622213 0.183355
0.773271 0.623315 0.180649
0.817244 0.619059 0.179282
0.859072 0.611059 0.178311
0.901783 0.597943 0.177944
0.941859 0.588346 0.178120
0.967479 0.594936 0.176759
0.992763 0.615394 0.174527
0.049854 0.494207 0.213329
0.127003 0.517147 0.211878
0.234083 0.546030 0.200939
0.360349 0.585013 0.194613
0.474780 0.618747 0.193340
0.561587 0.642444 0.195166
0.627908 0.658326 0.196788
0.682979 0.670029 0.197243
0.731128 0.677675 0.195791
0.774999 0.681222 0.193590
0.815946 0.680941 0.191851
0.855737 0.677738 0.189215
0.895691 0.671582 0.186672
0.937914 0.661585 0.185082
0.966432 0.650147 0.185470
0.989334 0.644171 0.185489
0.069994 0.536969 0.222182
0.160456 0.562557 0.217928
0.271388 0.592796 0.208420
0.391167 0.630874 0.205021
0.499136 0.664105 0.205757
0.580249 0.687733 0.207884
0.641004 0.704982 0.209898
0.691934 0.717710 0.210672
0.736624 0.726216 0.209607
0.778068 0.730928 0.207866
0.817202 0.732388 0.205949
0.855108 0.732154 0.203029
0.892880 0.729979 0.199494
0.931511 0.725701 0.195984
0.966499 0.718951 0.193825
0.989218 0.709025 0.193717
0.096752 0.584310 0.230598
0.196229 0.608129 0.223330
0.308625 0.639508 0.216600
0.420697 0.675413 0.216357
0.522372 0.707392 0.218924
0.597958 0.730866 0.221332
0.654179 0.748764 0.223268
0.700961 0.762495 0.224369
0.742582 0.771526 0.223788
0.781580 0.776945 0.222651
0.819360 0.779630 0.220791
0.856298 0.780548 0.217385
0.892949 0.780426 0.213373
0.929361 0.779317 0.209370
0.964360 0.777328 0.205619
0.988949 0.772564 0.202530
0.128392 0.630672 0.236551
0.234322 0.654291 0.228656
0.344015 0.685728 0.225353
0.447669 0.719552 0.228303
0.542742 0.749849 0.232424
0.614377 0.772389 0.235324
0.666629 0.790403 0.236999
0.710162 0.804804 0.238155
0.748707 0.814426 0.238225
0.785472 0.820174 0.237632
0.821817 0.823735 0.235856
0.857924 0.825601 0.232441
0.893961 0.826196 0.227938
0.929681 0.825935 0.223007
0.963007 0.825526 0.218438
0.987580 0.824589 0.214471
0.163243 0.676021 0.241288
0.272586 0.701121 0.234564
0.377473 0.731408 0.234340
0.472807 0.763493 0.240097
0.560229 0.792076 0.245865
0.628709 0.813336 0.249218
0.678479 0.830573 0.251063
0.719609 0.845243 0.252365
0.755419 0.855335 0.252920
0.789890 0.861519 0.252492
0.824821 0.865545 0.250737
0.859599 0.867768 0.247263
0.894723 0.868618 0.242449
0.929768 0.868421 0.236789
0.961994 0.867937 0.231258
0.985872 0.868218 0.226230
0.199773 0.722596 0.246705
0.310642 0.748664 0.241114
0.409681 0.777104 0.243393
0.496411 0.807185 0.251450
0.575966 0.834281 0.258773
0.641246 0.854443 0.262927
0.689263 0.870818 0.265160
0.728952 0.884656 0.266786
0.762834 0.894534 0.267775
0.794997 0.901047 0.267095
0.827895 0.905516 0.264934
0.861424 0.907863 0.261310
0.895550 0.908967 0.256515
0.929763 0.908931 0.250539
0.960607 0.908347 0.244635
0.983785 0.908373 0.239853
0.006130 0.049830 0.195678
0.062046 0.061920 0.202008
0.121045 0.072626 0.199118
0.173020 0.074192 0.184195
0.226190 0.072815 0.174639
0.312520 0.071738 0.174421
0.427781 0.073148 0.169941
0.541953 0.087789 0.163150
0.632279 0.104040 0.159596
0.704182 0.113695 0.160048
0.765428 0.121030 0.161397
0.819243 0.129638 0.164127
0.869132 0.139042 0.167455
0.915391 0.148638 0.171259
0.958380 0.158215 0.175400
0.999941 0.167072 0.179545
0.004651 0.095430 0.202190
0.061232 0.101001 0.208919
0.125710 0.110480 0.208780
0.187902 0.114835 0.195217
0.249889 0.115842 0.182581
0.344172 0.116507 0.179585
0.465453 0.122015 0.172851
0.572216 0.139997 0.166812
0.655558 0.156041 0.164463
0.722037 0.165281 0.164703
0.778580 0.172626 0.166647
0.828900 0.181317 0.169790
0.876153 0.190556 0.173405
0.919898 0.200024 0.177530
0.961264 0.209387 0.181857
1.000000 0.218013 0.186181
0.003776 0.146158 0.205007
0.056279 0.151322 0.210129
0.124119 0.153343 0.211824
0.197755 0.155454 0.202363
0.273077 0.158321 0.188999
0.376038 0.160158 0.182328
0.497666 0.171270 0.175576
0.596184 0.191055 0.170968
0.673936 0.206732 0.169265
0.735469 0.215832 0.169142
0.788159 0.223301 0.171521
0.835876 0.231856 0.175018
0.880496 0.240840 0.178934
0.922339 0.250064 0.183351
0.962913 0.259140 0.187934
1.000000 0.267543 0.192358
0.003268 0.194590 0.210984
0.053847 0.202631 0.213118
0.119394 0.209694 0.210915
0.201378 0.209275 0.203775
0.291691 0.203881 0.192355
0.405466 0.205619 0.183690
0.523023 0.222108 0.178022
0.614729 0.242014 0.175129
0.687116 0.256933 0.173732
0.744580 0.266029 0.173181
0.794422 0.273389 0.175645
0.839519 0.281464 0.179411
0.882244 0.290236 0.183757
0.923252 0.299328 0.188683
0.963706 0.308380 0.193733
0.999958 0.316940 0.198565
0.003639 0.249545 0.216759
0.057295 0.257929 0.220077
0.123331 0.263518 0.217640
0.204731 0.263756 0.208484
0.305233 0.260356 0.193718
0.428157 0.260570 0.183472
0.540913 0.276723 0.180555
0.627979 0.295811 0.179105
0.695968 0.309753 0.177947
0.751059 0.319074 0.177798
0.798877 0.325853 0.180550
0.842164 0.333145 0.184513
0.883732 0.341242 0.189150
0.924426 0.350154 0.194428
0.965212 0.359321 0.199884
0.999461 0.368107 0.205069
0.005037 0.301766 0.220653
0.062711 0.311630 0.225820
0.128118 0.317958 0.224269
0.208552 0.317837 0.215996
0.320671 0.314965 0.201093
0.447229 0.320549 0.188702
0.553735 0.336392 0.185963
0.638311 0.352842 0.185321
0.702470 0.368120 0.183313
0.756350 0.379124 0.183099
0.803079 0.385668 0.185807
0.845876 0.391886 0.190041
0.886945 0.399061 0.194887
0.927508 0.406769 0.200159
0.968027 0.414790 0.205562
0.999106 0.422392 0.210692
0.010423 0.349236 0.223687
0.067632 0.360708 0.230315
0.132486 0.369000 0.229543
0.215242 0.372498 0.221088
0.338717 0.382036 0.207092
0.464535 0.399368 0.197010
0.569507 0.409843 0.197172
0.652113 0.414199 0.196736
0.714665 0.422881 0.194195
0.764768 0.440010 0.191076
0.808245 0.450820 0.191694
0.848842 0.458139 0.194610
0.888820 0.464859 0.198694
0.928738 0.471283 0.203443
0.968616 0.477711 0.208666
0.999017 0.483861 0.213850
0.018231 0.389674 0.228537
0.074076 0.403003 0.235825
0.139445 0.413505 0.234813
0.229535 0.423035 0.225073
0.363211 0.447920 0.213257
0.486544 0.475343 0.207147
