assets/lut/editingcorp vita.cube
# Created by: G'MIC (https://gmic.eu)
TITLE "vita"
# LUT size
LUT_3D_SIZE 7
# Data domain
DOMAIN_MIN 0.0 0.0 0.0
DOMAIN_MAX 1.0 1.0 1.0
# LUT data points
0.0016166686546057463 0.0035652909427881241 0.0229784045368433
0.11026614159345627 0.0029337715823203325 0.023124769330024719
0.34219491481781006 0.0088294530287384987 0.032537765800952911
0.59611213207244873 0.035225316882133484 0.065940454602241516
0.72828876972198486 0.040781717747449875 0.07646680623292923
0.79110288619995117 0.031391847878694534 0.068255767226219177
0.85309886932373047 0.026869231835007668 0.056351307779550552
0.0044419532641768456 0.12287621945142746 0.037036716938018799
0.10139293223619461 0.11154808849096298 0.03532714769244194
0.33036836981773376 0.12289395928382874 0.051453504711389542
0.58738189935684204 0.14627490937709808 0.075294911861419678
0.73192876577377319 0.15806472301483154 0.089981168508529663
0.80061590671539307 0.14994801580905914 0.088195756077766418
0.86194133758544922 0.14644606411457062 0.077855952084064484
0.010425447486341 0.3152981698513031 0.054624579846858978
0.10095524787902832 0.31195846199989319 0.054113812744617462
0.3094823956489563 0.31445494294166565 0.064597651362419128
0.5842089056968689 0.31887158751487732 0.083919703960418701
0.74239200353622437 0.32286635041236877 0.098293930292129517
0.81764358282089233 0.31305152177810669 0.10451969504356384
0.87748879194259644 0.30427324771881104 0.10050496459007263
0.034161556512117386 0.5210186243057251 0.084315329790115356
0.11523971706628799 0.52307385206222534 0.086720488965511322
0.28484043478965759 0.52544808387756348 0.086477689445018768
0.56180059909820557 0.52182728052139282 0.096263870596885681
0.74995815753936768 0.51706516742706299 0.11299601197242737
0.83700835704803467 0.50995463132858276 0.12506610155105591
0.89806270599365234 0.49398359656333923 0.12263789772987366
0.075432933866977692 0.70783412456512451 0.12385832518339157
0.15716472268104553 0.71038645505905151 0.12521667778491974
0.29682579636573792 0.70821374654769897 0.12234039604663849
0.537028968334198 0.71243143081665039 0.12568953633308411
0.7483028769493103 0.70176303386688232 0.13898667693138123
0.85924720764160156 0.68363076448440552 0.14937722682952881
0.91823554039001465 0.66836643218994141 0.14623470604419708
0.10139698535203934 0.83803462982177734 0.15447443723678589
0.17270243167877197 0.8336479663848877 0.15371038019657135
0.27518609166145325 0.826404869556427 0.15039089322090149
0.49294015765190125 0.84024780988693237 0.15263006091117859
0.71933287382125854 0.84119206666946411 0.16238364577293396
0.85531991720199585 0.82940667867660522 0.17171488702297211
0.9262843132019043 0.82336747646331787 0.17149832844734192
0.097656413912773132 0.91623270511627197 0.15895465016365051
0.16329798102378845 0.90559017658233643 0.16208747029304504
0.25391694903373718 0.89495283365249634 0.16074886918067932
0.4514736533164978 0.90434491634368896 0.16327986121177673
0.68734496831893921 0.91566973924636841 0.17052826285362244
0.8421974778175354 0.92274200916290283 0.18140476942062378
0.93176299333572388 0.93108785152435303 0.18662752211093903
0.00063210283406078815 0.0040529137477278709 0.13160768151283264
0.11143957078456879 0.0052985395304858685 0.13175645470619202
0.34393393993377686 0.0053366417996585369 0.13349263370037079
0.59268820285797119 0.02118287980556488 0.14022637903690338
0.73835152387619019 0.028946027159690857 0.14759448170661926
0.79698938131332397 0.022210603579878807 0.14268581569194794
0.85633760690689087 0.025991762056946754 0.1356576681137085
0.0034670063760131598 0.11181244254112244 0.13642844557762146
0.090170152485370636 0.11112920939922333 0.13409137725830078
0.32990017533302307 0.11815989017486572 0.13323768973350525
0.59127813577651978 0.13703450560569763 0.14340688288211823
0.73994135856628418 0.14650557935237885 0.15408885478973389
0.80482310056686401 0.14061513543128967 0.15404397249221802
0.8640931248664856 0.14719401299953461 0.14917139708995819
0.010108588263392448 0.30939316749572754 0.1405436098575592
0.095457099378108978 0.30865609645843506 0.13675816357135773
0.30449974536895752 0.31357601284980774 0.134357750415802
0.58025455474853516 0.32104253768920898 0.1478569358587265
0.74552345275878906 0.32184574007987976 0.15860408544540405
0.8210289478302002 0.31373313069343567 0.1634775698184967
0.87979996204376221 0.3141225278377533 0.16625106334686279
0.027292978018522263 0.51790040731430054 0.15079507231712341
0.10916575789451599 0.51702678203582764 0.15400964021682739
0.29073366522789001 0.52297544479370117 0.1473352313041687
0.56307590007781982 0.5283128023147583 0.15208756923675537
0.75099307298660278 0.52115672826766968 0.16672462224960327
0.84258842468261719 0.5093076229095459 0.1781153678894043
0.90029352903366089 0.50196820497512817 0.1846964955329895
0.064829118549823761 0.704639732837677 0.17794719338417053
0.13883893191814423 0.70309776067733765 0.18163619935512543
0.27964520454406738 0.7083011269569397 0.18110202252864838
0.53274822235107422 0.71464288234710693 0.17876063287258148
0.74476510286331177 0.70419472455978394 0.1929830014705658
0.85980939865112305 0.68215537071228027 0.20884643495082855
0.91808569431304932 0.67058509588241577 0.20718066394329071
0.10375719517469406 0.83128494024276733 0.21197974681854248
0.16951669752597809 0.8242371678352356 0.2117849588394165
0.26441249251365662 0.82919704914093018 0.21228507161140442
0.48667269945144653 0.84263521432876587 0.21193684637546539
0.71466279029846191 0.847461998462677 0.22422479093074799
0.85509258508682251 0.83120441436767578 0.23488922417163849
0.92742592096328735 0.82324349880218506 0.23594182729721069
0.10849263519048691 0.90613371133804321 0.21974080801010132
0.17364853620529175 0.89625149965286255 0.22227807343006134
0.26038825511932373 0.8956950306892395 0.22352290153503418
0.45462992787361145 0.90759027004241943 0.22663246095180511
0.68768048286437988 0.91969269514083862 0.23552767932415009
0.84896492958068848 0.92047810554504395 0.24697369337081909
0.93823999166488647 0.92940241098403931 0.25472331047058105
0 0.0087980832904577255 0.28818336129188538
0.10370327532291412 0.003632773645222187 0.28545936942100525
0.34065648913383484 0.0037065842188894749 0.28209888935089111
0.58391845226287842 0.013899574987590313 0.27110236883163452
0.73722976446151733 0.017847951501607895 0.26649200916290283
0.80034691095352173 0.013684695586562157 0.26104605197906494
0.86185365915298462 0.027896657586097717 0.25625261664390564
0.00086473952978849411 0.12239178270101547 0.28617128729820251
0.094751529395580292 0.1153186708688736 0.27906787395477295
0.32048404216766357 0.11796338111162186 0.27501776814460754
0.58189743757247925 0.1340319961309433 0.26679724454879761
0.7411496639251709 0.13841909170150757 0.26337060332298279
0.81144767999649048 0.13351266086101532 0.25856244564056396
0.87008726596832275 0.14730717241764069 0.25743880867958069
0.010894057340919971 0.30880963802337646 0.27706226706504822
0.088289313018321991 0.30975520610809326 0.27412879467010498
0.29376184940338135 0.31971943378448486 0.27188098430633545
0.5786212682723999 0.32913950085639954 0.27250382304191589
0.74593478441238403 0.32926419377326965 0.27303227782249451
0.82529860734939575 0.32088807225227356 0.27008035778999329
0.88441073894500732 0.32510364055633545 0.27186912298202515
0.018538262695074081 0.51524275541305542 0.26286673545837402
0.090107113122940063 0.51518052816390991 0.26218762993812561
0.27540844678878784 0.52364718914031982 0.25896325707435608
0.56360739469528198 0.54074156284332275 0.26833245158195496
0.7474440336227417 0.53417730331420898 0.2776845395565033
0.84114056825637817 0.52159607410430908 0.28066191077232361
0.90038180351257324 0.51976305246353149 0.28586551547050476
0.051919989287853241 0.69810354709625244 0.26050785183906555
0.12474392354488373 0.69550985097885132 0.26320907473564148
0.27060228586196899 0.70184135437011719 0.26460236310958862
0.53483235836029053 0.71527272462844849 0.27022519707679749
0.74448150396347046 0.70577162504196167 0.28026163578033447
0.85806596279144287 0.68518304824829102 0.28310289978981018
0.91356503963470459 0.68084865808486938 0.29091182351112366
0.096878170967102051 0.820281982421875 0.27830234169960022
0.17145289480686188 0.81992250680923462 0.27682411670684814
0.27133232355117798 0.82708042860031128 0.28021514415740967
0.49742904305458069 0.84141075611114502 0.28551998734474182
0.72057253122329712 0.84692704677581787 0.30027928948402405
0.8534245491027832 0.83233553171157837 0.30047014355659485
0.92549943923950195 0.82737153768539429 0.30658423900604248
0.10700680315494537 0.89502614736557007 0.28528609871864319
0.17503455281257629 0.89219748973846436 0.28650406002998352
0.26373642683029175 0.89759171009063721 0.28756672143936157
0.46499842405319214 0.90882605314254761 0.29265123605728149
0.69225031137466431 0.92147910594940186 0.30585584044456482
0.84497344493865967 0.92534166574478149 0.31313195824623108
0.93641972541809082 0.93143671751022339 0.32586392760276794
0.0029668621718883514 0.0062573449686169624 0.47047680616378784
0.11597882211208344 0.0041200974956154823 0.47233772277832031
0.33634963631629944 0.0075202793814241886 0.4693029522895813
0.56880074739456177 0.022787416353821754 0.46191447973251343
0.7158016562461853 0.01947052963078022 0.45307251811027527
0.7889329195022583 0.016035910695791245 0.44621750712394714
0.85822683572769165 0.037763588130474091 0.43808102607727051
0.0073345410637557507 0.13065095245838165 0.48192974925041199
0.091881290078163147 0.12950028479099274 0.47648829221725464
0.31230095028877258 0.12807726860046387 0.47550484538078308
0.56822460889816284 0.14376857876777649 0.46452051401138306
0.73365563154220581 0.14211684465408325 0.44626280665397644
0.81038528680801392 0.13593161106109619 0.43353411555290222
0.87117642164230347 0.15037098526954651 0.42551484704017639
0.012046110816299915 0.31578782200813293 0.4706704318523407
0.088489338755607605 0.316884845495224 0.46868926286697388
0.27165976166725159 0.3219502866268158 0.47152912616729736
0.56249988079071045 0.33350792527198792 0.46926495432853699
0.74827861785888672 0.33665448427200317 0.45778927206993103
0.83057725429534912 0.32688593864440918 0.44534969329833984
0.88620090484619141 0.32712852954864502 0.43506500124931335
0.022199070081114769 0.51950246095657349 0.4539203941822052
0.085612259805202484 0.51884585618972778 0.45240128040313721
0.24105046689510345 0.52626311779022217 0.45573750138282776
0.54525816440582275 0.54868346452713013 0.46900126338005066
0.75161063671112061 0.55321198701858521 0.47750303149223328
0.84551018476486206 0.53977173566818237 0.46989971399307251
0.90113621950149536 0.53135353326797485 0.45833125710487366
0.051682848483324051 0.7012256383895874 0.43648901581764221
0.12091352045536041 0.69819062948226929 0.43062898516654968
0.24609152972698212 0.69886904954910278 0.43298396468162537
0.51059943437576294 0.71804291009902954 0.44970852136611938
0.74041426181793213 0.72292017936706543 0.46515893936157227
0.85578101873397827 0.70480215549468994 0.45978629589080811
0.91531866788864136 0.69582885503768921 0.46079742908477783
0.08791593462228775 0.82229292392730713 0.41810068488121033
0.16758096218109131 0.82352572679519653 0.41126018762588501
0.26445233821868896 0.82301789522171021 0.41198033094406128
0.48948603868484497 0.8367311954498291 0.42552405595779419
0.7145535945892334 0.84965938329696655 0.43790861964225769
0.85041123628616333 0.83903449773788452 0.43331959843635559
0.92598038911819458 0.83569318056106567 0.43754124641418457
0.09758497029542923 0.88982385396957397 0.40021544694900513
0.16519778966903687 0.89321339130401611 0.4050690233707428
0.25394603610038757 0.89634865522384644 0.40435126423835754
0.46780356764793396 0.90632981061935425 0.41440275311470032
0.70202302932739258 0.92037302255630493 0.42718121409416199
0.84911537170410156 0.92519533634185791 0.42551517486572266
0.93602144718170166 0.93250095844268799 0.44333294034004211
0.021449204534292221 0.0052416035905480385 0.63240617513656616
0.13513857126235962 0.0039530135691165924 0.64219212532043457
0.33523380756378174 0.012699142098426819 0.64413261413574219
0.56180262565612793 0.035635795444250107 0.6422346830368042
0.71088248491287231 0.033925432711839676 0.64196377992630005
0.78468382358551025 0.033037386834621429 0.64673233032226562
0.8539053201675415 0.059333711862564087 0.63336449861526489
0.020124427974224091 0.13286192715167999 0.65564310550689697
0.10894301533699036 0.12890893220901489 0.66443592309951782
0.30876141786575317 0.13617375493049622 0.66832053661346436
0.55676758289337158 0.15161846578121185 0.66057890653610229
0.72547304630279541 0.15252706408500671 0.64766061305999756
0.80180984735488892 0.14611475169658661 0.64130842685699463
0.8659670352935791 0.16635765135288239 0.62952876091003418
0.018142176792025566 0.32066088914871216 0.65831851959228516
0.097798429429531097 0.32297268509864807 0.66774004697799683
0.27308529615402222 0.33132508397102356 0.67713057994842529
0.5392577052116394 0.3336850106716156 0.67198687791824341
0.73591631650924683 0.33817556500434875 0.65490180253982544
0.82213437557220459 0.32771551609039307 0.64168286323547363
0.88116008043289185 0.32779306173324585 0.62707293033599854
0.033990118652582169 0.52255958318710327 0.66160869598388672
0.1089598536491394 0.52426862716674805 0.66803395748138428
0.24514003098011017 0.53150147199630737 0.67133182287216187
0.51968157291412354 0.54776668548583984 0.67605948448181152
0.74060606956481934 0.55794578790664673 0.67554044723510742
0.84328216314315796 0.55151742696762085 0.66419243812561035
0.90071660280227661 0.54200810194015503 0.65324920415878296
0.061416879296302795 0.70125049352645874 0.65138077735900879
0.13167682290077209 0.70088350772857666 0.65035128593444824
0.23526166379451752 0.69927400350570679 0.64713144302368164
0.49015682935714722 0.71643108129501343 0.65890419483184814
0.73632133007049561 0.73296618461608887 0.67548316717147827
0.85774141550064087 0.72710937261581421 0.67668700218200684
0.9212496280670166 0.72398293018341064 0.67609101533889771
0.088338352739810944 0.8240324854850769 0.62475496530532837
0.15853244066238403 0.82490181922912598 0.61961740255355835
0.24230951070785522 0.81875401735305786 0.60878664255142212
0.46906241774559021 0.83459955453872681 0.62294536828994751
0.71632969379425049 0.85576856136322021 0.64452189207077026
0.8548583984375 0.85337573289871216 0.64768809080123901
0.92786926031112671 0.85205042362213135 0.64688777923583984
0.097977578639984131 0.89375072717666626 0.59316664934158325
0.16457244753837585 0.89357626438140869 0.59622436761856079
0.25001639127731323 0.89253932237625122 0.5887642502784729
0.4583774209022522 0.90740609169006348 0.60591405630111694
0.70345228910446167 0.92795014381408691 0.62982058525085449
0.85088449716567993 0.93321382999420166 0.62826132774353027
0.93525522947311401 0.93422138690948486 0.63590312004089355
0.025711119174957275 0.0061194924637675285 0.73949998617172241
0.13270631432533264 0.0077987373806536198 0.74586391448974609
0.3215886652469635 0.019205279648303986 0.74961298704147339
0.55702191591262817 0.038793094456195831 0.75239235162734985
0.71542680263519287 0.035071969032287598 0.75332015752792358
0.78138500452041626 0.024654224514961243 0.75501424074172974
0.8503267765045166 0.046643216162919998 0.7565314769744873
0.019931823015213013 0.13728880882263184 0.7610289454460144
0.10825029015541077 0.1356177031993866 0.76577591896057129
0.2980492115020752 0.1407606452703476 0.77262747287750244
0.54696071147918701 0.15742258727550507 0.77279287576675415
0.72098857164382935 0.15603290498256683 0.77000004053115845
0.79574388265609741 0.14287152886390686 0.77097654342651367
0.86075431108474731 0.15535874664783478 0.76805311441421509
0.019866973161697388 0.32296380400657654 0.77533096075057983
0.099324248731136322 0.32703283429145813 0.78041750192642212
0.27537152171134949 0.33427557349205017 0.79064732789993286
0.52791351079940796 0.34109118580818176 0.79321682453155518
0.71854209899902344 0.33693921566009521 0.78851711750030518
0.81269997358322144 0.3228834867477417 0.7821725606918335
0.87498301267623901 0.31923350691795349 0.77506041526794434
0.035621494054794312 0.51934921741485596 0.79769426584243774
0.11235692352056503 0.52340102195739746 0.79859715700149536
0.25429341197013855 0.5296512246131897 0.79998385906219482
0.50896847248077393 0.54975670576095581 0.80993854999542236
0.71404516696929932 0.55376547574996948 0.81119340658187866
0.83109742403030396 0.55024874210357666 0.8020516037940979
0.89244365692138672 0.54394781589508057 0.80001062154769897
0.067754052579402924 0.69668227434158325 0.80834954977035522
0.14107638597488403 0.69851225614547729 0.81000494956970215
0.24124771356582642 0.69551956653594971 0.80752724409103394
0.47535431385040283 0.71079188585281372 0.81541925668716431
0.71437954902648926 0.73038256168365479 0.82427680492401123
0.85102719068527222 0.73803967237472534 0.8237839937210083
0.91628754138946533 0.7357330322265625 0.82696723937988281
0.096617169678211212 0.82797276973724365 0.80553120374679565
0.17226389050483704 0.83103841543197632 0.7988705039024353
0.24847239255905151 0.82385504245758057 0.78991305828094482
0.44190460443496704 0.8346250057220459 0.79222756624221802
0.6968996524810791 0.85583019256591797 0.81456267833709717
0.85870319604873657 0.86501336097717285 0.82533246278762817
0.9289926290512085 0.86675626039505005 0.8250274658203125
0.10619189590215683 0.89886331558227539 0.77874195575714111
0.17877572774887085 0.8982970118522644 0.78302550315856934
0.260761559009552 0.8994135856628418 0.77225512266159058
0.43532648682594299 0.91023874282836914 0.78292953968048096
0.67619025707244873 0.9311414361000061 0.80500465631484985
0.85229295492172241 0.94269776344299316 0.81347811222076416
0.93985605239868164 0.94664067029953003 0.8119092583656311
0.02352721244096756 0.008169989101588726 0.80722999572753906
0.12522299587726593 0.011021318845450878 0.80860042572021484
0.30167019367218018 0.022184034809470177 0.81085860729217529
0.54353833198547363 0.031824719160795212 0.81762194633483887
0.7174375057220459 0.028204929083585739 0.81891971826553345
0.78733271360397339 0.017360806465148926 0.81773877143859863
0.85419631004333496 0.030037015676498413 0.82801192998886108
0.023845583200454712 0.13739863038063049 0.82304918766021729
0.11223060637712479 0.13013489544391632 0.82217544317245483
0.28518080711364746 0.12856583297252655 0.82477766275405884
0.52640467882156372 0.14683099091053009 0.82915395498275757
0.70979428291320801 0.15088893473148346 0.83053511381149292
0.79684585332870483 0.14722655713558197 0.83360570669174194
0.86188220977783203 0.15709426999092102 0.84380567073822021
0.030277552083134651 0.31789675354957581 0.83725780248641968
0.11071620136499405 0.32185539603233337 0.83696877956390381
0.27423787117004395 0.33197122812271118 0.84534543752670288
0.51673424243927002 0.33616352081298828 0.84959107637405396
0.715667724609375 0.33768382668495178 0.85100728273391724
0.81100499629974365 0.330311119556427 0.85096639394760132
0.87404584884643555 0.32990860939025879 0.86069774627685547
0.042425043880939484 0.51431453227996826 0.85630279779434204
0.11756304651498795 0.51995909214019775 0.85508078336715698
0.26077437400817871 0.5246894359588623 0.86024492979049683
0.51001274585723877 0.54744559526443481 0.87416094541549683
0.71351510286331177 0.55177527666091919 0.88040155172348022
0.82832247018814087 0.54673779010772705 0.88291984796524048
0.89333683252334595 0.54105156660079956 0.89061892032623291
0.068644747138023376 0.69144856929779053 0.87369555234909058
0.14237247407436371 0.69363105297088623 0.87857604026794434
0.26063510775566101 0.69413101673126221 0.88400876522064209
0.48159992694854736 0.71068781614303589 0.89331930875778198
0.70779037475585938 0.72583967447280884 0.90455335378646851
0.8454093337059021 0.73444557189941406 0.91106337308883667
0.91584104299545288 0.73103725910186768 0.91884857416152954
0.099059835076332092 0.82890534400939941 0.89098334312438965
0.16947251558303833 0.82708591222763062 0.88805025815963745
0.25984925031661987 0.82576948404312134 0.89018851518630981
0.44173136353492737 0.83727163076400757 0.89711964130401611
0.68775826692581177 0.85419827699661255 0.9188382625579834
0.8550107479095459 0.87018817663192749 0.92335253953933716
0.92946237325668335 0.87113165855407715 0.92758643627166748
0.1095588207244873 0.89886963367462158 0.89307790994644165
0.18437409400939941 0.90439099073410034 0.89378231763839722
0.27458453178405762 0.90787166357040405 0.89467334747314453
0.43194222450256348 0.91474682092666626 0.90742772817611694
0.66022223234176636 0.93292593955993652 0.92293572425842285
0.85236293077468872 0.9465024471282959 0.92930406332015991
0.94683456420898438 0.95406299829483032 0.92930102348327637
