assets/lut/editingcorp fezzle.cube
# Created by: G'MIC (https://gmic.eu)
TITLE "fezzle"
# LUT size
LUT_3D_SIZE 5
# Data domain
DOMAIN_MIN 0.0 0.0 0.0
DOMAIN_MAX 1.0 1.0 1.0
# LUT data points
0.10984956473112106 0.091360874474048615 0.21491250395774841
0.2697482705116272 0.092394508421421051 0.2284051924943924
0.49629834294319153 0.064103111624717712 0.19490338861942291
0.75693595409393311 0.022386932745575905 0.13747893273830414
0.98680788278579712 0.013463159091770649 0.1295124888420105
0.11010321974754333 0.26568141579627991 0.18693690001964569
0.28522208333015442 0.26620596647262573 0.2164006382226944
0.51539021730422974 0.2479826807975769 0.21330428123474121
0.79587310552597046 0.22387616336345673 0.18665309250354767
0.99931240081787109 0.21926222741603851 0.17885792255401611
0.065300032496452332 0.47346207499504089 0.062030836939811707
0.26728090643882751 0.49179407954216003 0.14483867585659027
0.52617746591567993 0.49004426598548889 0.17532452940940857
0.82211434841156006 0.48608154058456421 0.20599983632564545
0.99827754497528076 0.49583154916763306 0.23154997825622559
0.036785800009965897 0.73805844783782959 0.030493568629026413
0.25996130704879761 0.77073752880096436 0.064536839723587036
0.5277751088142395 0.77419322729110718 0.15009789168834686
0.83612322807312012 0.7641596794128418 0.18288634717464447
1 0.75986897945404053 0.19521807134151459
0.089921228587627411 0.99736177921295166 0.036796987056732178
0.30634626746177673 0.99749290943145752 0.097380951046943665
0.55964785814285278 0.9999006986618042 0.11753880977630615
0.84625619649887085 0.99328392744064331 0.14027532935142517
1 0.98918789625167847 0.12671460211277008
0.061020031571388245 0.10102041065692902 0.36152908205986023
0.24805016815662384 0.094273030757904053 0.36347761750221252
0.48264268040657043 0.065471917390823364 0.34763315320014954
0.73806124925613403 0.028906384482979774 0.33205956220626831
0.97741574048995972 0.018905848264694214 0.31626719236373901
0.061130344867706299 0.27483680844306946 0.33852115273475647
0.2447589784860611 0.27612397074699402 0.35581669211387634
0.48823273181915283 0.25982385873794556 0.35207825899124146
0.77037805318832397 0.23603653907775879 0.34012284874916077
0.99780941009521484 0.23912569880485535 0.34984377026557922
0.027675539255142212 0.48488765954971313 0.29688084125518799
0.23087276518344879 0.50568151473999023 0.32856318354606628
0.50111109018325806 0.50359660387039185 0.34728172421455383
0.79655975103378296 0.50119280815124512 0.35320058465003967
0.99513739347457886 0.51455360651016235 0.3689723014831543
0.023975012823939323 0.75580352544784546 0.27319353818893433
0.22967755794525146 0.79440981149673462 0.3160041868686676
0.50079524517059326 0.79577147960662842 0.33454832434654236
0.80586117506027222 0.77987152338027954 0.3480689525604248
1 0.7770041823387146 0.35955029726028442
0.061706047505140305 0.99961835145950317 0.27757430076599121
0.2728634774684906 1 0.33221209049224854
0.52834063768386841 1 0.3449128270149231
0.82513701915740967 0.99659824371337891 0.34455171227455139
1 0.99408996105194092 0.32430928945541382
0.027375629171729088 0.097096309065818787 0.55593043565750122
0.21074143052101135 0.091690763831138611 0.5682520866394043
0.4613722562789917 0.061835885047912598 0.5504944920539856
0.73048496246337891 0.024582462385296822 0.514057457447052
0.98079979419708252 0.016302475705742836 0.48438870906829834
0.031421136111021042 0.27382224798202515 0.51989758014678955
0.21228022873401642 0.27896764874458313 0.54842203855514526
0.47481551766395569 0.26285931468009949 0.54925042390823364
0.76549768447875977 0.23689253628253937 0.52155005931854248
0.99888139963150024 0.24242006242275238 0.5271148681640625
0.017118640244007111 0.49036711454391479 0.46436893939971924
0.20538480579853058 0.5121694803237915 0.50923258066177368
0.48030880093574524 0.5151936411857605 0.54067021608352661
0.78410959243774414 0.50833094120025635 0.53803187608718872
1 0.51884478330612183 0.55102789402008057
0.021367121487855911 0.76521176099777222 0.43637481331825256
0.20484955608844757 0.7947235107421875 0.47797891497612
0.47951677441596985 0.79783862829208374 0.50714313983917236
0.78236466646194458 0.78544223308563232 0.52116549015045166
1 0.78425437211990356 0.54079633951187134
0.040873493999242783 1 0.45446509122848511
0.24747321009635925 1 0.4956372082233429
0.50814151763916016 1 0.516765296459198
0.79959923028945923 0.99871361255645752 0.51748764514923096
1 0.99591773748397827 0.52494072914123535
0.0053637637756764889 0.090096600353717804 0.82561576366424561
0.17021098732948303 0.09160323441028595 0.85757350921630859
0.42977103590965271 0.059253901243209839 0.84532135725021362
0.71874153614044189 0.02652353048324585 0.82003569602966309
0.97254884243011475 0.012869621627032757 0.77251946926116943
0.017986133694648743 0.27631229162216187 0.78556656837463379
0.18966266512870789 0.28169107437133789 0.83621227741241455
0.45621731877326965 0.26253858208656311 0.84979307651519775
0.76135718822479248 0.2372506856918335 0.83316135406494141
0.99882441759109497 0.23578140139579773 0.82535529136657715
0.017007237300276756 0.49478539824485779 0.72325599193572998
0.18998382985591888 0.51924413442611694 0.79166138172149658
0.46957027912139893 0.51871973276138306 0.84120208024978638
0.7794872522354126 0.51174843311309814 0.85861057043075562
1 0.52015990018844604 0.84141761064529419
0.018816465511918068 0.77075600624084473 0.68477684259414673
0.19231787323951721 0.80658292770385742 0.74885153770446777
0.46437519788742065 0.80190038681030273 0.78521096706390381
0.76530128717422485 0.7930295467376709 0.80826586484909058
0.99987077713012695 0.78755438327789307 0.81330692768096924
0.027262983843684196 1 0.69586181640625
0.22679492831230164 1 0.74425715208053589
0.48362210392951965 1 0.76814663410186768
0.77399379014968872 0.99995315074920654 0.7750784158706665
0.99741315841674805 0.99508380889892578 0.79060071706771851
0 0.078269645571708679 1
0.15843816101551056 0.077840305864810944 1
0.4105517566204071 0.04782562330365181 1
0.68869340419769287 0.018599880859255791 1
0.94150644540786743 0.0099134258925914764 0.99825847148895264
0.006604168564081192 0.27847015857696533 0.99889588356018066
0.18294106423854828 0.28290992975234985 1
0.44263038039207458 0.2663542628288269 0.99997627735137939
0.73548638820648193 0.24086183309555054 0.99598270654678345
0.98760628700256348 0.24073679745197296 1
0.012483604252338409 0.50744253396987915 0.96656769514083862
0.17873342335224152 0.52897733449935913 0.99894237518310547
0.46250754594802856 0.536998450756073 1
0.77392822504043579 0.52733117341995239 1
1 0.52777290344238281 0.99750423431396484
0.016675358638167381 0.79010945558547974 0.91370993852615356
0.17577752470970154 0.81537836790084839 0.98487365245819092
0.46031063795089722 0.82454127073287964 0.99810260534286499
0.76350504159927368 0.80721038579940796 1
0.99869418144226074 0.79391103982925415 0.99997901916503906
0.022621918469667435 1 0.92014068365097046
0.21107879281044006 1 0.97481447458267212
0.47052180767059326 1 0.98796367645263672
0.75799626111984253 0.99978172779083252 0.98747754096984863
0.98895657062530518 0.996346116065979 0.99568831920623779
