assets/lut/editingcorp motus.cube
# Created by: G'MIC (https://gmic.eu)
TITLE "motus"
# LUT size
LUT_3D_SIZE 7
# Data domain
DOMAIN_MIN 0.0 0.0 0.0
DOMAIN_MAX 1.0 1.0 1.0
# LUT data points
0.023687025532126427 0.028072237968444824 0.031100763007998466
0.17289689183235168 0.015541750006377697 0.025452347472310066
0.32947832345962524 0.0070838178507983685 0.010621597990393639
0.46483752131462097 0.0072988620959222317 0
0.59566468000411987 0.0042010885663330555 0
0.73009788990020752 0.0054997461847960949 0.00244115199893713
0.86713099479675293 0.0084339212626218796 0.0010044022928923368
0.006823431234806776 0.16278494894504547 0.026216918602585793
0.16894613206386566 0.17233730852603912 0.015633272007107735
0.36388418078422546 0.1758480966091156 0.0064634885638952255
0.50396203994750977 0.1511884480714798 1.2925092050863896e-05
0.64325958490371704 0.12642273306846619 0.00010609345918055624
0.7809520959854126 0.088577687740325928 0.015371359884738922
0.91518133878707886 0.085932411253452301 0.020157547667622566
0.00012224982492625713 0.30178803205490112 0.0024714150931686163
0.13876931369304657 0.32472944259643555 0.00052654789760708809
0.38255089521408081 0.34295198321342468 9.4724171503912657e-05
0.53425711393356323 0.33549845218658447 0.0066169141791760921
0.68069988489151001 0.3205183744430542 0.013377469964325428
0.82286363840103149 0.30314779281616211 0.0091519970446825027
0.96064311265945435 0.27596375346183777 0.018675187602639198
0 0.4394707977771759 0.0051954681985080242
0.083279222249984741 0.46660184860229492 0
0.3456055223941803 0.49036136269569397 0
0.54597753286361694 0.49400734901428223 0.0037264206912368536
0.70292371511459351 0.4856170117855072 0.011499636806547642
0.8508191704750061 0.47346222400665283 0.016392337158322334
0.98726439476013184 0.4579789936542511 0.014211826957762241
0.0016526465769857168 0.58558320999145508 0.0013570449082180858
0.062561735510826111 0.61295652389526367 0
0.27651804685592651 0.63678443431854248 5.4213578550843522e-05
0.51683312654495239 0.6481320858001709 0.0026074429042637348
0.7016603946685791 0.64681112766265869 0.013563896529376507
0.85880035161972046 0.63680857419967651 0.014493157155811787
0.99437010288238525 0.62311649322509766 0.0089617110788822174
0 0.74989873170852661 0.0012613931903615594
0.032001137733459473 0.77250516414642334 0.0055685155093669891
0.20404061675071716 0.79147118330001831 0.016419369727373123
0.46165609359741211 0.80365294218063354 0.014030082151293755
0.67780065536499023 0.80798858404159546 0.02130463533103466
0.84808140993118286 0.80451160669326782 0.016438562422990799
0.99332493543624878 0.79628771543502808 0.013187827542424202
0.0012878119014203548 0.92028230428695679 0
0.053015824407339096 0.93701481819152832 0.0013380312593653798
0.18946062028408051 0.95226770639419556 0.0076009714975953102
0.41502118110656738 0.9635499119758606 0.0048756171017885208
0.63806319236755371 0.96932214498519897 0.0050765690393745899
0.82499402761459351 0.97031128406524658 0.0077750561758875847
0.98714560270309448 0.96917891502380371 0.010048615746200085
0.01375401858240366 0.022138228639960289 0.17661146819591522
0.1598060131072998 0.017194546759128571 0.184022456407547
0.32139810919761658 0.012226494029164314 0.16337032616138458
0.46133244037628174 0.0050574657507240772 0.13723057508468628
0.59044933319091797 0.00081197702093049884 0.089411042630672455
0.72393465042114258 0.0092076770961284637 0.052454914897680283
0.85936671495437622 0.010728858411312103 0.019726920872926712
0.007412345614284277 0.16477334499359131 0.18030889332294464
0.16103217005729675 0.17557215690612793 0.17602832615375519
0.35251110792160034 0.18240220844745636 0.1537395715713501
0.50112682580947876 0.15966333448886871 0.10679185390472412
0.63880306482315063 0.12689711153507233 0.064241521060466766
0.77509069442749023 0.078630886971950531 0.03986111655831337
0.90760797262191772 0.054216109216213226 0.032395292073488235
3.5155051591573283e-05 0.30302625894546509 0.15736091136932373
0.11065932363271713 0.31879296898841858 0.13405530154705048
0.3551291823387146 0.34546515345573425 0.1091853454709053
0.52624773979187012 0.34364646673202515 0.073040738701820374
0.6768302321434021 0.33320215344429016 0.048886645585298538
0.82045888900756836 0.30784562230110168 0.034323897212743759
0.9564325213432312 0.25847724080085754 0.023426728323101997
0.00020719041640404612 0.44174525141716003 0.1227487325668335
0.05222943052649498 0.46023309230804443 0.083741083741188049
0.32717469334602356 0.48695600032806396 0.035115905106067657
0.52757340669631958 0.49748727679252625 0.042052518576383591
0.69275861978530884 0.49146869778633118 0.023441793397068977
0.84748160839080811 0.4754270613193512 0.03504447266459465
0.98383569717407227 0.45768639445304871 0.047027125954627991
0.0023590836208313704 0.59075593948364258 0.054724451154470444
0.031035210937261581 0.60945612192153931 0.044988356530666351
0.23526488244533539 0.63474154472351074 0.019416449591517448
0.49438434839248657 0.65053409337997437 0.0059909145347774029
0.68937617540359497 0.65251415967941284 0.026005988940596581
0.85373520851135254 0.64333188533782959 0.037348490208387375
0.99352526664733887 0.62759506702423096 0.048348773270845413
0.00053815654246136546 0.75291270017623901 0.034443050622940063
0.012804053723812103 0.77034974098205566 0.033407967537641525
0.12801973521709442 0.78991866111755371 0.033476989716291428
0.41738656163215637 0.80533409118652344 0.012778502888977528
0.66432636976242065 0.81274890899658203 0.05251452699303627
0.8434482216835022 0.8109702467918396 0.049753464758396149
0.9921143651008606 0.80092793703079224 0.044392768293619156
0.0041550430469214916 0.92301797866821289 0.0038262160960584879
0.041363988071680069 0.93781870603561401 0.02664560079574585
0.12288037687540054 0.95206367969512939 0.038787167519330978
0.35960587859153748 0.96420586109161377 0.022903712466359138
0.62195944786071777 0.97113204002380371 0.032539010047912598
0.82099831104278564 0.97263634204864502 0.045140687376260757
0.98489105701446533 0.97113960981369019 0.057640358805656433
0.01145833358168602 0.022422550246119499 0.31119295954704285
0.14856801927089691 0.017912726849317551 0.32120579481124878
0.31332749128341675 0.0190390944480896 0.32319426536560059
0.46759441494941711 0.019826777279376984 0.31625127792358398
0.60097688436508179 0.0061038597486913204 0.30108875036239624
0.73145031929016113 0.0078552691265940666 0.28141689300537109
0.86295133829116821 0.00766016636043787 0.23510535061359406
0.007882092148065567 0.16853918135166168 0.32242235541343689
0.14755445718765259 0.17758928239345551 0.33022698760032654
0.33424109220504761 0.19071146845817566 0.33614319562911987
0.49643296003341675 0.17860384285449982 0.32760855555534363
0.63586634397506714 0.13958905637264252 0.30578833818435669
0.76878756284713745 0.075788579881191254 0.27638643980026245
0.90287202596664429 0.06219814345240593 0.22859954833984375
0 0.30930903553962708 0.32662850618362427
0.088762469589710236 0.32385194301605225 0.3310391902923584
0.3240351676940918 0.34902650117874146 0.33782288432121277
0.51276499032974243 0.35416507720947266 0.33290579915046692
0.67204511165618896 0.33782890439033508 0.29624530673027039
0.8151630163192749 0.3077290952205658 0.25868818163871765
0.9496161937713623 0.27378001809120178 0.19492363929748535
0.0080275591462850571 0.44956526160240173 0.31935542821884155
0.059735704213380814 0.46100586652755737 0.3211427628993988
0.28887030482292175 0.48744297027587891 0.30225497484207153
0.5078083872795105 0.50325673818588257 0.2828986644744873
0.68653327226638794 0.50056099891662598 0.26014050841331482
0.84370917081832886 0.48460161685943604 0.20893016457557678
0.97938364744186401 0.46325257420539856 0.14131908118724823
0.0061563677154481411 0.60155743360519409 0.2799287736415863
0.042462650686502457 0.61151587963104248 0.26614826917648315
0.23203198611736298 0.63366657495498657 0.24203430116176605
0.4770609438419342 0.65279829502105713 0.2155689150094986
0.67548620700836182 0.65921300649642944 0.19676309823989868
0.84751290082931519 0.65269601345062256 0.15610364079475403
0.98913520574569702 0.64003318548202515 0.091763287782669067
0.0051046633161604404 0.76540118455886841 0.16365395486354828
0.030791249126195908 0.77575421333312988 0.18883901834487915
0.14480225741863251 0.79217714071273804 0.14194823801517487
0.41181987524032593 0.80835342407226562 0.11002026498317719
0.65037763118743896 0.81837540864944458 0.11446591466665268
0.83956128358840942 0.81745201349258423 0.11850222200155258
0.98908275365829468 0.81004488468170166 0.068726003170013428
0.0055936328135430813 0.93232971429824829 0.070310361683368683
0.036176763474941254 0.94678699970245361 0.074900336563587189
0.10433882474899292 0.95721304416656494 0.11697288602590561
0.33260774612426758 0.96632307767868042 0.080919541418552399
0.60371118783950806 0.97473627328872681 0.044090315699577332
0.81542468070983887 0.97673368453979492 0.053084667772054672
0.98309189081192017 0.9748910665512085 0.0698976069688797
0.01145833358168602 0.025831589475274086 0.43339794874191284
0.14104893803596497 0.017450369894504547 0.43921589851379395
0.30117005109786987 0.018293149769306183 0.44644796848297119
0.46205747127532959 0.012728043831884861 0.45079511404037476
0.60964584350585938 0.0005261589540168643 0.44624227285385132
0.74492597579956055 0.0014331593411043286 0.427032470703125
0.87451648712158203 0.00014020134403835982 0.40966284275054932
0.0074948477558791637 0.17390301823616028 0.45265054702758789
0.13597641885280609 0.18142597377300262 0.45742103457450867
0.31102120876312256 0.18831321597099304 0.46673932671546936
0.48249641060829163 0.18093831837177277 0.47363802790641785
0.63867479562759399 0.14180302619934082 0.46769702434539795
0.7788691520690918 0.1146588921546936 0.44809439778327942
0.91106313467025757 0.089577645063400269 0.42854854464530945
0.0023080564569681883 0.31404554843902588 0.46571621298789978
0.10358421504497528 0.32498398423194885 0.47179818153381348
0.30121263861656189 0.347076416015625 0.48042899370193481
0.4935777485370636 0.36227422952651978 0.49073436856269836
0.66251927614212036 0.35145872831344604 0.47905498743057251
0.81300216913223267 0.32168352603912354 0.45800074934959412
0.94983446598052979 0.28655683994293213 0.4344201385974884
0.0024123396724462509 0.45585128664970398 0.46949020028114319
0.06580931693315506 0.4640737771987915 0.47561746835708618
0.26836481690406799 0.48602178692817688 0.47730207443237305
0.48678863048553467 0.50694876909255981 0.48325541615486145
0.67218261957168579 0.50818365812301636 0.47766488790512085
0.83582168817520142 0.49354434013366699 0.45531263947486877
0.97839069366455078 0.47135743498802185 0.43226990103721619
9.2270798631943762e-05 0.61162441968917847 0.47251352667808533
0.024015719071030617 0.62145072221755981 0.46680480241775513
0.20509979128837585 0.63659411668777466 0.46567842364311218
0.45905515551567078 0.65425306558609009 0.46505579352378845
0.66419631242752075 0.66437619924545288 0.45838770270347595
0.84460902214050293 0.65926551818847656 0.43198594450950623
0.98706871271133423 0.64724671840667725 0.39591816067695618
0.0066298390738666058 0.77719414234161377 0.44047188758850098
0.027442783117294312 0.79095470905303955 0.44718271493911743
0.14929899573326111 0.80030149221420288 0.43609777092933655
0.39731675386428833 0.81021767854690552 0.41864722967147827
0.63442504405975342 0.82228934764862061 0.4034920334815979
0.83451199531555176 0.82439863681793213 0.36583390831947327
0.98692613840103149 0.81897687911987305 0.32197657227516174
0.0048456829972565174 0.94099241495132446 0.37756314873695374
0.028030380606651306 0.95508795976638794 0.38178965449333191
0.1159241795539856 0.96404796838760376 0.38546264171600342
0.33328044414520264 0.96881169080734253 0.34718960523605347
0.58711570501327515 0.97772508859634399 0.27717998623847961
0.8069005012512207 0.98216408491134644 0.24085795879364014
0.98223096132278442 0.98063409328460693 0.21936662495136261
0.014002900570631027 0.033478666096925735 0.55224114656448364
0.13581772148609161 0.025150343775749207 0.5573197603225708
0.2874315083026886 0.018784197047352791 0.56594693660736084
0.44952920079231262 0.0078305564820766449 0.57580858469009399
0.60677480697631836 5.7444854064669926e-06 0.57832682132720947
0.74874353408813477 0 0.56868553161621094
0.88155537843704224 0 0.55294066667556763
0.01130071934312582 0.17872968316078186 0.57861834764480591
0.12913738191127777 0.18112644553184509 0.58329737186431885
0.29018643498420715 0.18461981415748596 0.59252607822418213
0.46436032652854919 0.18168118596076965 0.60502982139587402
0.63320684432983398 0.14766579866409302 0.60908031463623047
0.78219777345657349 0.098274588584899902 0.59786903858184814
0.91623526811599731 0.052584405988454819 0.58001887798309326
0.0097463270649313927 0.31775745749473572 0.60148996114730835
0.10986930876970291 0.32670381665229797 0.60747742652893066
0.28609368205070496 0.34566351771354675 0.61595827341079712
0.47322759032249451 0.36133947968482971 0.62823152542114258
0.64867937564849854 0.3540465235710144 0.63153278827667236
0.80797642469406128 0.31801912188529968 0.62045979499816895
0.94967067241668701 0.28204679489135742 0.6003226637840271
0.0019570444710552692 0.45944052934646606 0.6171954870223999
0.062253285199403763 0.46721166372299194 0.62213671207427979
0.25590497255325317 0.48808145523071289 0.62836253643035889
0.46606907248497009 0.50531929731369019 0.63669121265411377
0.65227031707763672 0.51229614019393921 0.63831198215484619
0.8231392502784729 0.50087791681289673 0.63156914710998535
0.97322332859039307 0.48322436213493347 0.61280465126037598
0 0.61730736494064331 0.6256641149520874
0.010020207613706589 0.62566465139389038 0.62432354688644409
0.18539157509803772 0.64031720161437988 0.62610095739364624
0.43614789843559265 0.6577497124671936 0.63208520412445068
0.64765548706054688 0.67063611745834351 0.63367122411727905
0.83272194862365723 0.66790807247161865 0.6235053539276123
0.98389065265655518 0.65414917469024658 0.60841554403305054
0.001548273372463882 0.78570741415023804 0.62574231624603271
0.016884492710232735 0.7979465126991272 0.62091237306594849
0.14262770116329193 0.80777287483215332 0.61927777528762817
0.38928335905075073 0.81759780645370483 0.61975330114364624
0.62131696939468384 0.82891315221786499 0.62630200386047363
0.82398134469985962 0.83185911178588867 0.60838323831558228
0.98625439405441284 0.8257482647895813 0.59255301952362061
0.0057351505383849144 0.95127499103546143 0.60064131021499634
0.029187476262450218 0.9638398289680481 0.6040337085723877
0.12891316413879395 0.97123152017593384 0.60397845506668091
0.34180852770805359 0.97604864835739136 0.59848016500473022
0.57711833715438843 0.98211705684661865 0.59934365749359131
0.79517483711242676 0.98700994253158569 0.57371968030929565
0.9797062873840332 0.98696458339691162 0.54960733652114868
0.023365858942270279 0.04095052182674408 0.67194080352783203
0.13832606375217438 0.029911775141954422 0.67668682336807251
0.28076431155204773 0.019296683371067047 0.68531370162963867
0.4384433925151825 0.0078394273295998573 0.69687896966934204
0.59815084934234619 0.0001757453428581357 0.70460063219070435
0.74609792232513428 0 0.70193701982498169
0.88259339332580566 0 0.69105273485183716
0.022057477384805679 0.18030448257923126 0.70439517498016357
0.13110858201980591 0.17786592245101929 0.70895981788635254
0.27804124355316162 0.17848047614097595 0.71689623594284058
0.44728201627731323 0.17727507650852203 0.73105013370513916
0.62188917398452759 0.15636245906352997 0.74173742532730103
0.77945464849472046 0.099531061947345734 0.73703455924987793
0.91607022285461426 0.04912254586815834 0.72209054231643677
0.018757913261651993 0.31956940889358521 0.73639488220214844
0.11473219841718674 0.32567158341407776 0.74199432134628296
0.27167889475822449 0.33767470717430115 0.75008916854858398
0.4504207968711853 0.35003867745399475 0.76195752620697021
0.63297975063323975 0.35480138659477234 0.77169638872146606
0.80306267738342285 0.31811472773551941 0.76730507612228394
0.94830739498138428 0.26410588622093201 0.75094008445739746
0.0076485727913677692 0.46282026171684265 0.76175272464752197
0.075381457805633545 0.47132813930511475 0.76648002862930298
0.25592803955078125 0.48727011680603027 0.7738957405090332
0.45287394523620605 0.5002027153968811 0.7832375168800354
0.63736355304718018 0.50945591926574707 0.78974801301956177
0.81543612480163574 0.49961599707603455 0.78914171457290649
0.97220569849014282 0.47778865694999695 0.77647465467453003
2.8722427032334963e-06 0.6198384165763855 0.777374267578125
0.028800785541534424 0.62845444679260254 0.78109622001647949
0.19643034040927887 0.64353841543197632 0.78460294008255005
0.43744587898254395 0.65982145071029663 0.79227149486541748
0.63783150911331177 0.67125284671783447 0.79839479923248291
0.82232177257537842 0.66837054491043091 0.79894155263900757
0.98321878910064697 0.65681362152099609 0.78952622413635254
0.005258612334728241 0.78934299945831299 0.78436017036437988
0.031573530286550522 0.79753214120864868 0.79174935817718506
0.14728382229804993 0.80929398536682129 0.78969794511795044
0.39047577977180481 0.82132518291473389 0.79238235950469971
0.61715549230575562 0.83323347568511963 0.79782462120056152
0.81201541423797607 0.83617734909057617 0.79507404565811157
0.98476904630661011 0.83016693592071533 0.78798627853393555
0.0052587622776627541 0.95618456602096558 0.77791422605514526
0.025031086057424545 0.96686196327209473 0.78334134817123413
0.12450943142175674 0.97477346658706665 0.78321963548660278
0.34422674775123596 0.9808165431022644 0.78584140539169312
0.58014333248138428 0.98651230335235596 0.79040294885635376
0.79060614109039307 0.99072945117950439 0.78500789403915405
0.97849774360656738 0.99097281694412231 0.77245038747787476
0.035019654780626297 0.047414623200893402 0.7964053750038147
0.14519746601581573 0.032419752329587936 0.8013075590133667
0.27944371104240417 0.016966007649898529 0.80908775329589844
0.43204414844512939 0.0040288590826094151 0.81958687305450439
0.58990681171417236 0 0.82908934354782104
0.74048453569412231 0 0.83144402503967285
0.88112747669219971 0.015109492465853691 0.82706916332244873
0.032216735184192657 0.18220128118991852 0.83312720060348511
0.13647951185703278 0.17540080845355988 0.83739405870437622
0.2743891179561615 0.16770416498184204 0.84488385915756226
0.43683746457099915 0.15448525547981262 0.85673964023590088
0.60926264524459839 0.1174740195274353 0.86730277538299561
0.77127021551132202 0.097398914396762848 0.8674619197845459
0.912891685962677 0.091995924711227417 0.8603777289390564
0.024790460243821144 0.32071524858474731 0.87020242214202881
0.11668717861175537 0.3224603533744812 0.87533682584762573
0.26100745797157288 0.32699412107467651 0.88300520181655884
0.43535491824150085 0.33151614665985107 0.89400023221969604
0.62017315626144409 0.3313136100769043 0.90348845720291138
0.79656577110290527 0.31874459981918335 0.90342235565185547
0.9445652961730957 0.26628294587135315 0.89510941505432129
0.011266147717833519 0.46412438154220581 0.90197217464447021
0.075162373483181 0.47196778655052185 0.90610635280609131
0.23308457434177399 0.48349931836128235 0.91339790821075439
0.43420416116714478 0.49503210186958313 0.92269843816757202
0.62583225965499878 0.50241631269454956 0.93087077140808105
0.8089333176612854 0.49441617727279663 0.93372094631195068
0.97014814615249634 0.47307038307189941 0.92861580848693848
0.00056934729218482971 0.61974740028381348 0.92433816194534302
0.018302259966731071 0.63005691766738892 0.92774695158004761
0.17281486093997955 0.6437411904335022 0.93325865268707275
0.43803691864013672 0.65933036804199219 0.94295591115951538
0.62942874431610107 0.66822260618209839 0.94950634241104126
0.81307846307754517 0.66545015573501587 0.95477294921875
0.98002415895462036 0.65840387344360352 0.95135372877120972
0 0.78987729549407959 0.9374392032623291
0.0050671147182583809 0.7991299033164978 0.94396954774856567
0.12378984689712524 0.81135135889053345 0.94681721925735474
0.38682594895362854 0.82302755117416382 0.95148169994354248
0.61315572261810303 0.83336633443832397 0.95898115634918213
0.80505692958831787 0.83711826801300049 0.96543610095977783
0.98050248622894287 0.83501720428466797 0.96237605810165405
0.00023803711519576609 0.95870035886764526 0.94226974248886108
0.0076687829568982124 0.96917301416397095 0.94672024250030518
0.099457323551177979 0.97837662696838379 0.94841450452804565
0.33713650703430176 0.98349690437316895 0.95206862688064575
0.57901030778884888 0.98917943239212036 0.95943701267242432
0.78856617212295532 0.99250411987304688 0.96498852968215942
0.9780735969543457 0.99377846717834473 0.96158337593078613
