assets/lut/editingcorpw Starlight Satin.cube
LUT_3D_SIZE 6
DOMAIN_MIN 0.0 0.0 0.0
DOMAIN_MAX 1.0 1.0 1.0
0.161807 0.146670 0.172396
0.301952 0.170547 0.193453
0.540069 0.204660 0.225748
0.820163 0.259177 0.271635
1.000000 0.363036 0.335515
1.000000 0.556146 0.480446
0.224668 0.258646 0.185751
0.339275 0.275490 0.190257
0.539368 0.297399 0.247719
0.817979 0.342631 0.286358
1.000000 0.426642 0.349401
1.000000 0.594189 0.499211
0.329076 0.461713 0.168716
0.395389 0.465844 0.166407
0.640015 0.527104 0.152893
0.866978 0.555807 0.303541
1.000000 0.615557 0.422753
1.000000 0.724648 0.591253
0.426850 0.698988 0.000000
0.475378 0.701092 0.000000
0.630833 0.709027 0.000000
0.907921 0.800964 0.011245
1.000000 0.793630 0.418892
1.000000 0.865006 0.741152
0.559442 0.911498 0.000000
0.586721 0.907701 0.000000
0.689829 0.900689 0.000000
0.874544 0.923898 0.107559
1.000000 0.948377 0.463624
1.000000 0.943767 0.777157
0.782101 1.000000 0.487495
0.795615 1.000000 0.490345
0.846366 1.000000 0.497176
0.934753 1.000000 0.515764
1.000000 1.000000 0.781912
1.000000 0.994995 0.923003
0.166372 0.152126 0.228354
0.288701 0.152350 0.246279
0.528658 0.196010 0.270192
0.797964 0.253831 0.306808
1.000000 0.357689 0.363246
1.000000 0.553124 0.497859
0.210239 0.255938 0.245116
0.312619 0.263440 0.255933
0.528517 0.294546 0.285311
0.801478 0.334088 0.318099
1.000000 0.421089 0.375831
1.000000 0.593550 0.517861
0.297045 0.468100 0.221274
0.374768 0.470556 0.217774
0.623517 0.512146 0.212915
0.832566 0.546694 0.358576
1.000000 0.613608 0.447106
1.000000 0.726316 0.608571
0.404461 0.709051 0.126505
0.459719 0.712805 0.120577
0.617019 0.704178 0.103110
0.902032 0.795943 0.159722
1.000000 0.794890 0.465196
1.000000 0.867086 0.753502
0.548489 0.916506 0.003611
0.579946 0.914993 0.000000
0.687346 0.907883 0.000000
0.869072 0.923043 0.178008
1.000000 0.948405 0.496160
1.000000 0.945593 0.793409
0.781204 1.000000 0.518340
0.796196 1.000000 0.524895
0.844497 1.000000 0.525627
0.931492 1.000000 0.530892
1.000000 1.000000 0.789412
1.000000 0.995136 0.926525
0.201572 0.160415 0.338518
0.287403 0.144749 0.347959
0.507943 0.128504 0.386680
0.784921 0.163107 0.420134
1.000000 0.279824 0.452077
1.000000 0.547839 0.571454
0.238158 0.235449 0.363398
0.308301 0.233737 0.373528
0.523970 0.222307 0.395374
0.791548 0.260869 0.420612
1.000000 0.356242 0.454756
1.000000 0.589170 0.587917
0.217119 0.471072 0.391788
0.308911 0.477304 0.397776
0.551168 0.463625 0.396999
0.797211 0.513433 0.450684
0.998643 0.599472 0.528019
1.000000 0.727845 0.666793
0.000000 0.744985 0.287469
0.301388 0.744306 0.312920
0.567256 0.713813 0.306027
0.878375 0.777383 0.353562
0.998570 0.804774 0.625755
1.000000 0.868975 0.787699
0.489113 0.929936 0.330669
0.531925 0.930256 0.332309
0.653447 0.919979 0.305996
0.838284 0.916352 0.312308
1.000000 0.947642 0.605173
1.000000 0.950389 0.841328
0.768765 1.000000 0.615943
0.783692 1.000000 0.620639
0.830864 1.000000 0.617537
0.918259 1.000000 0.619302
1.000000 1.000000 0.812453
1.000000 0.995617 0.938799
0.261381 0.158321 0.517638
0.336037 0.129166 0.522373
0.506007 0.021862 0.547802
0.758423 0.000000 0.593307
1.000000 0.132948 0.639743
1.000000 0.471552 0.686409
0.277895 0.216146 0.543246
0.338610 0.211533 0.552770
0.513723 0.178730 0.565523
0.771142 0.113646 0.604854
1.000000 0.250602 0.637473
1.000000 0.515355 0.690051
0.281574 0.449816 0.609797
0.342471 0.447289 0.617918
0.523613 0.414908 0.616764
0.800757 0.399905 0.634401
0.998753 0.517049 0.657771
1.000000 0.682661 0.735927
0.000000 0.757441 0.640456
0.197364 0.760103 0.645607
0.519478 0.751794 0.646538
0.793895 0.732168 0.647635
0.957921 0.785230 0.735551
1.000000 0.851944 0.820797
0.252467 0.958333 0.562381
0.346364 0.958493 0.570628
0.555743 0.945696 0.591603
0.778383 0.918204 0.571538
0.996645 0.944679 0.757127
1.000000 0.957933 0.905225
0.669191 1.000000 0.684834
0.707536 1.000000 0.709284
0.817021 1.000000 0.779921
0.894039 1.000000 0.772497
0.992800 1.000000 0.844392
1.000000 0.996588 0.958953
0.235105 0.169870 0.820414
0.338175 0.128943 0.820608
0.545033 0.000000 0.825178
0.760969 0.000000 0.834628
0.996041 0.000000 0.863825
1.000000 0.331053 0.853117
0.298479 0.175994 0.827092
0.362519 0.166295 0.832016
0.541409 0.095830 0.837775
0.761610 0.000000 0.841256
0.995162 0.000000 0.862821
1.000000 0.396238 0.854774
0.162815 0.400052 0.863284
0.284734 0.398150 0.866470
0.516840 0.380603 0.868724
0.761871 0.330714 0.868275
0.999391 0.353283 0.879690
1.000000 0.590169 0.864462
0.284685 0.737430 0.891716
0.386174 0.742339 0.895925
0.591848 0.741752 0.896398
0.751830 0.695855 0.887243
0.974738 0.680926 0.882122
1.000000 0.804346 0.890327
0.414519 0.961548 0.895130
0.481011 0.961370 0.898304
0.640328 0.955639 0.902839
0.810725 0.945221 0.908105
0.938895 0.926692 0.903316
1.000000 0.955461 0.946592
0.690981 1.000000 0.860172
0.713649 1.000000 0.865979
0.775337 1.000000 0.879406
0.857130 1.000000 0.896725
0.962885 1.000000 0.916172
1.000000 0.998321 0.984533
0.205417 0.314244 1.000000
0.310076 0.296354 1.000000
0.533483 0.199698 1.000000
0.771634 0.000000 1.000000
0.975872 0.000000 1.000000
1.000000 0.042847 1.000000
0.234458 0.308983 1.000000
0.327250 0.291993 1.000000
0.539497 0.193969 1.000000
0.765908 0.000000 1.000000
0.971172 0.000000 1.000000
1.000000 0.202963 1.000000
0.234190 0.335247 1.000000
0.318563 0.331915 1.000000
0.519361 0.316833 1.000000
0.743373 0.281096 1.000000
0.961416 0.178165 1.000000
1.000000 0.454828 1.000000
0.281859 0.648322 1.000000
0.330818 0.643244 1.000000
0.471431 0.615661 1.000000
0.708731 0.610608 1.000000
0.926626 0.580570 1.000000
1.000000 0.709212 1.000000
0.460609 0.911693 1.000000
0.505775 0.911789 1.000000
0.646102 0.912695 0.999836
0.817022 0.918653 0.998618
0.920048 0.907925 1.000000
1.000000 0.921819 1.000000
0.660975 1.000000 0.989960
0.682594 1.000000 0.990180
0.764272 1.000000 0.991486
0.878502 1.000000 0.994153
0.972918 1.000000 0.997620
1.000000 1.000000 1.000000
