assets/lut/editingcorpw Rustic Radiance.cube
LUT_3D_SIZE 16
DOMAIN_MIN 0.0 0.0 0.0
DOMAIN_MAX 1.0 1.0 1.0
0.132357 0.136873 0.163027
0.142733 0.138942 0.163992
0.182272 0.148342 0.168307
0.228452 0.163509 0.176156
0.275315 0.179202 0.183426
0.324468 0.196078 0.190768
0.380627 0.216062 0.199722
0.440626 0.238139 0.209799
0.502709 0.261491 0.220872
0.566919 0.285533 0.232108
0.631434 0.310887 0.243168
0.694886 0.339531 0.253849
0.756417 0.373315 0.266013
0.815885 0.410602 0.280766
0.873888 0.449457 0.299827
0.938140 0.495644 0.332769
0.139992 0.147030 0.163924
0.147655 0.147041 0.165801
0.189752 0.152963 0.167621
0.232989 0.166226 0.175016
0.277585 0.180991 0.182688
0.325402 0.197318 0.190079
0.380915 0.217150 0.199043
0.439908 0.238766 0.209084
0.501351 0.261867 0.220331
0.565419 0.285891 0.231559
0.630634 0.311186 0.242520
0.694861 0.340150 0.253555
0.755886 0.373524 0.265610
0.814433 0.410122 0.279843
0.871821 0.448431 0.298460
0.937194 0.495143 0.331481
0.167947 0.184323 0.168759
0.179927 0.185364 0.169475
0.195872 0.182364 0.178667
0.240308 0.187226 0.180867
0.295878 0.194027 0.180570
0.342870 0.208706 0.188883
0.396355 0.227271 0.198440
0.453074 0.247860 0.209112
0.512707 0.269735 0.220224
0.575085 0.292738 0.231456
0.638196 0.317211 0.242106
0.700009 0.345458 0.252875
0.760253 0.378581 0.264889
0.818930 0.415166 0.279396
0.876230 0.453294 0.298415
0.939043 0.497762 0.330290
0.201346 0.223649 0.176865
0.211064 0.224895 0.176833
0.232782 0.226914 0.179248
0.246047 0.220138 0.193071
0.288979 0.226203 0.198261
0.352892 0.235276 0.195834
0.416017 0.245472 0.196802
0.469533 0.263016 0.207675
0.526369 0.282422 0.218671
0.586689 0.303616 0.229560
0.648145 0.327391 0.240165
0.708375 0.355233 0.251008
0.766531 0.387290 0.262946
0.823181 0.422183 0.276996
0.878974 0.458691 0.295752
0.942254 0.502873 0.328111
0.245639 0.271745 0.186392
0.253933 0.274400 0.186685
0.274246 0.275804 0.187456
0.298352 0.277511 0.195147
0.309128 0.267952 0.212714
0.347570 0.272923 0.221952
0.413566 0.283366 0.218078
0.483501 0.292879 0.214935
0.551730 0.304391 0.215633
0.608876 0.323068 0.226517
0.666017 0.344976 0.236808
0.721783 0.371194 0.247578
0.777848 0.402024 0.259484
0.833575 0.435977 0.274250
0.888547 0.471042 0.293316
0.947473 0.511083 0.324449
0.287602 0.316106 0.194491
0.296953 0.321758 0.195156
0.314013 0.321623 0.195187
0.336461 0.324107 0.198929
0.359326 0.323400 0.210843
0.367285 0.311711 0.230838
0.401984 0.316180 0.244376
0.471449 0.329448 0.239176
0.544207 0.341021 0.235068
0.619513 0.352581 0.230124
0.685695 0.368597 0.230350
0.738454 0.393237 0.241593
0.791513 0.421869 0.253575
0.844468 0.452815 0.268272
0.897039 0.484913 0.287529
0.955444 0.522942 0.318975
0.331743 0.364483 0.200650
0.342882 0.372642 0.201494
0.356447 0.371652 0.201392
0.376959 0.372094 0.203483
0.401528 0.374327 0.210213
0.422040 0.370843 0.226072
0.429381 0.358111 0.247893
0.460211 0.361384 0.265654
0.532563 0.377386 0.259607
0.607409 0.392401 0.254121
0.679578 0.408002 0.248204
0.748113 0.425562 0.242322
0.808586 0.448120 0.244967
0.860640 0.476811 0.260633
0.911888 0.505940 0.280959
0.966241 0.539153 0.312493
0.373010 0.411084 0.204666
0.383666 0.419734 0.205311
0.394889 0.418913 0.205120
0.415788 0.418567 0.205419
0.439066 0.422258 0.210134
0.465339 0.424268 0.220871
0.485179 0.419818 0.239586
0.493625 0.406864 0.263449
0.520952 0.408759 0.286039
0.592589 0.427493 0.279892
0.665345 0.447309 0.273320
0.735005 0.468329 0.268111
0.802737 0.489129 0.263302
0.868926 0.507700 0.259289
0.923641 0.527245 0.268967
0.975317 0.556035 0.300078
0.414166 0.459235 0.205954
0.422857 0.466399 0.206041
0.432485 0.465910 0.205859
0.451787 0.465739 0.205628
0.474917 0.468817 0.208525
0.503081 0.475056 0.214187
0.529539 0.476377 0.229590
0.548456 0.471041 0.251579
0.559036 0.459133 0.278588
0.584588 0.461286 0.306615
0.652057 0.484889 0.304197
0.721732 0.509580 0.298258
0.790024 0.533839 0.295669
0.857814 0.555156 0.294812
0.922270 0.570968 0.295027
0.987072 0.586066 0.301726
0.458344 0.513091 0.204031
0.466227 0.520090 0.203708
0.474359 0.519242 0.203621
0.491740 0.519262 0.203001
0.516058 0.521759 0.203685
0.541680 0.528533 0.208566
0.570742 0.535516 0.217383
0.595702 0.536729 0.236888
0.611390 0.528975 0.263725
0.622457 0.517379 0.295273
0.645307 0.519933 0.331273
0.706431 0.547708 0.338235
0.775042 0.575317 0.335636
0.841311 0.597895 0.337034
0.903437 0.613287 0.338536
0.968163 0.629438 0.348754
0.505303 0.574090 0.196109
0.509801 0.577496 0.195609
0.517027 0.577013 0.195443
0.532329 0.577820 0.194949
0.555620 0.579901 0.193961
0.579583 0.586542 0.197726
0.606970 0.596081 0.204550
0.634412 0.602906 0.220914
0.659913 0.606647 0.246397
0.674555 0.598206 0.281742
0.686244 0.587488 0.322240
0.705623 0.589001 0.369299
0.760866 0.617682 0.393103
0.829276 0.645057 0.397522
0.893388 0.664021 0.404187
0.958465 0.682979 0.423072
0.546483 0.636255 0.182644
0.550928 0.640730 0.182521
0.556156 0.638638 0.182227
0.569315 0.639642 0.181640
0.590658 0.643265 0.180584
0.615350 0.648896 0.182272
0.639533 0.657961 0.190022
0.666627 0.667238 0.200770
0.691426 0.670730 0.228285
0.716028 0.673579 0.262577
0.730202 0.664735 0.309141
0.743105 0.656432 0.361469
0.759809 0.656579 0.420626
0.807557 0.681042 0.460763
0.871959 0.702989 0.467618
0.937298 0.724825 0.489244
0.590051 0.714797 0.164266
0.593417 0.718311 0.164619
0.597374 0.715405 0.164298
0.607902 0.713957 0.163424
0.625455 0.714601 0.162545
0.650398 0.717696 0.161861
0.674467 0.726736 0.172476
0.701802 0.737403 0.187913
0.731359 0.746736 0.211695
0.758508 0.750610 0.255431
0.783761 0.752450 0.305754
0.796652 0.742444 0.367302
0.808368 0.734239 0.432305
0.820471 0.731690 0.500520
0.859793 0.751871 0.558126
0.924071 0.777169 0.585657
0.621692 0.780716 0.144576
0.623843 0.782141 0.145045
0.627497 0.779250 0.143531
0.637777 0.778851 0.142904
0.655365 0.780966 0.142954
0.679451 0.784244 0.144125
0.706332 0.789128 0.152080
0.731467 0.796525 0.174477
0.760411 0.804304 0.199618
0.790722 0.810326 0.242900
0.820780 0.815048 0.303417
0.845982 0.815775 0.370498
0.857797 0.806421 0.443800
0.865525 0.796967 0.513999
0.872229 0.791462 0.579389
0.904247 0.814359 0.660499
0.667048 0.864561 0.168978
0.671276 0.868949 0.177918
0.675367 0.867166 0.174666
0.685017 0.865829 0.172575
0.701149 0.865555 0.173145
0.724245 0.866136 0.176071
0.753811 0.867416 0.181035
0.779937 0.871299 0.207389
0.807858 0.875966 0.240442
0.839228 0.880919 0.276730
0.869652 0.883159 0.342577
0.899830 0.885607 0.418420
0.918813 0.881694 0.499010
0.925718 0.871905 0.575239
0.929134 0.863593 0.640981
0.934746 0.863865 0.706942
0.706600 0.926543 0.231235
0.710109 0.928948 0.239988
0.714119 0.927727 0.236558
0.724056 0.927245 0.236594
0.740590 0.927679 0.241294
0.763333 0.928222 0.247227
0.792440 0.928533 0.254185
0.824149 0.929393 0.270237
0.852378 0.932311 0.307726
0.885191 0.935992 0.352502
0.920226 0.939239 0.418189
0.951409 0.940350 0.508397
0.977093 0.940191 0.593432
0.981542 0.930309 0.673329
0.984228 0.924004 0.740175
0.987121 0.923003 0.793057
0.134518 0.139730 0.172647
0.147378 0.141306 0.172551
0.177071 0.156249 0.178405
0.224053 0.170303 0.185377
0.272455 0.184806 0.191389
0.322314 0.200992 0.198111
0.379215 0.221009 0.206859
0.438422 0.242791 0.216855
0.498714 0.264890 0.227009
0.560838 0.287489 0.236967
0.624316 0.311528 0.247208
0.687837 0.339246 0.257356
0.750323 0.372381 0.268810
0.810352 0.409355 0.283058
0.868770 0.448147 0.301802
0.930651 0.491896 0.331890
0.137451 0.149962 0.172929
0.149725 0.151223 0.173802
0.184902 0.159490 0.177801
0.228791 0.172149 0.184153
0.274988 0.186101 0.190310
0.323459 0.202183 0.197481
0.379030 0.221908 0.206324
0.437104 0.243145 0.216075
0.497620 0.265313 0.226449
0.560382 0.288017 0.236618
0.624533 0.312205 0.246670
0.688405 0.340083 0.256974
0.750037 0.372700 0.268370
0.808505 0.408529 0.281972
0.864877 0.445664 0.299556
0.929469 0.491264 0.330371
0.163771 0.186990 0.178303
0.177240 0.187798 0.178585
0.197584 0.185926 0.185730
0.243436 0.190666 0.187111
0.294828 0.198478 0.188836
0.342319 0.213794 0.197116
0.395392 0.232292 0.206629
0.451560 0.252211 0.216394
0.509505 0.272857 0.226401
0.570403 0.294625 0.236425
0.632664 0.318054 0.246183
0.694730 0.345619 0.256337
0.755757 0.378336 0.267962
0.814775 0.414728 0.282127
0.872437 0.452781 0.300968
0.934098 0.496086 0.331350
0.201283 0.226030 0.184764
0.210444 0.227463 0.185062
0.233997 0.229288 0.186999
0.248218 0.223565 0.199519
0.291705 0.229857 0.204147
0.354353 0.238486 0.202232
0.414579 0.249029 0.204402
0.467301 0.266030 0.214388
0.523068 0.284628 0.224394
0.582114 0.304979 0.234440
0.643032 0.327890 0.244233
0.703583 0.355131 0.254386
0.761989 0.386735 0.265867
0.818447 0.421129 0.279426
0.873413 0.456702 0.297240
0.936999 0.500730 0.328590
0.246867 0.274775 0.193202
0.255182 0.277491 0.193618
0.276409 0.278448 0.194459
0.300280 0.280085 0.201444
0.310670 0.270382 0.218108
0.349366 0.275336 0.226166
0.414142 0.285280 0.222516
0.482963 0.294241 0.219541
0.548490 0.305653 0.220993
0.604749 0.323779 0.231022
0.661469 0.345108 0.240802
0.717952 0.370997 0.250948
0.774625 0.401917 0.262492
0.830671 0.435889 0.277093
0.885989 0.471082 0.296108
0.944987 0.510920 0.326778
0.288390 0.318626 0.199887
0.297836 0.324113 0.200522
0.315181 0.323672 0.200579
0.337586 0.325783 0.204083
0.360472 0.324912 0.215627
0.368042 0.312993 0.234647
0.402356 0.317275 0.247081
0.470433 0.329828 0.242025
0.542140 0.340762 0.237896
0.616341 0.351999 0.233222
0.681727 0.368158 0.234012
0.734927 0.392708 0.244813
0.788101 0.421248 0.256687
0.840854 0.451904 0.270842
0.892023 0.482871 0.289090
0.952343 0.522087 0.320793
0.332438 0.366368 0.205018
0.342891 0.374032 0.205900
0.356497 0.373151 0.205756
0.377705 0.373253 0.207621
0.402203 0.375465 0.214074
0.422732 0.371861 0.229437
0.429840 0.358998 0.250811
0.460917 0.362326 0.267749
0.532167 0.377752 0.261656
0.606023 0.392206 0.256343
0.677704 0.407428 0.250463
0.746361 0.425043 0.244820
0.806618 0.448076 0.248268
0.858765 0.476889 0.263851
0.910382 0.506276 0.284209
0.965415 0.540031 0.315871
0.373740 0.412732 0.208137
0.384144 0.421491 0.208935
0.395477 0.420743 0.208788
0.416627 0.420133 0.208791
0.439986 0.423498 0.213553
0.465930 0.425192 0.223894
0.485101 0.420147 0.242121
0.492898 0.406800 0.265485
0.519993 0.408550 0.287413
0.591373 0.427004 0.281277
0.664066 0.446779 0.274955
0.733658 0.467679 0.269914
0.801147 0.488376 0.265296
0.866950 0.506627 0.261229
0.920117 0.525843 0.271017
0.973780 0.556064 0.302737
0.415050 0.461333 0.208968
0.424171 0.469150 0.209295
0.434106 0.468869 0.209130
0.453450 0.468606 0.208774
0.476963 0.471359 0.211495
0.505104 0.477417 0.217203
0.531510 0.478563 0.232178
0.549854 0.472609 0.254024
0.559524 0.459973 0.280716
0.584518 0.461627 0.308353
0.651684 0.484920 0.305670
0.721253 0.509579 0.299878
0.789636 0.533967 0.297696
0.857421 0.555242 0.296948
0.922086 0.571197 0.297437
0.988393 0.587545 0.305450
0.459164 0.515043 0.206683
0.468042 0.523360 0.206558
0.476715 0.522921 0.206324
0.493860 0.522816 0.205745
0.518285 0.524612 0.206274
0.543251 0.530750 0.211398
0.571640 0.536969 0.219924
0.596014 0.537489 0.239208
0.611407 0.529363 0.265839
0.622294 0.517626 0.297179
0.645042 0.520247 0.333117
0.706304 0.547856 0.339853
0.774448 0.575092 0.337186
0.839725 0.596726 0.337828
0.902417 0.612680 0.339721
0.968963 0.630581 0.352395
0.506535 0.576977 0.198843
0.512020 0.581743 0.198356
0.519669 0.581715 0.198152
0.534956 0.582304 0.197481
0.558127 0.584063 0.196721
0.582257 0.590320 0.200461
0.609259 0.599407 0.207496
0.636141 0.605416 0.223576
0.660816 0.608049 0.248930
0.674832 0.598828 0.284068
0.686201 0.587860 0.324059
0.705582 0.589415 0.371363
0.761005 0.618173 0.395051
0.829260 0.645464 0.399531
0.894007 0.664953 0.406970
0.960131 0.685414 0.428705
0.548204 0.640132 0.185497
0.554375 0.647375 0.185465
0.560651 0.646897 0.185177
0.573729 0.647570 0.184549
0.594208 0.649592 0.183533
0.618178 0.653419 0.184924
0.641316 0.660921 0.193245
0.667954 0.669497 0.203866
0.692456 0.672420 0.231177
0.716821 0.674919 0.265418
0.730787 0.665797 0.311978
0.743305 0.657062 0.363965
0.759456 0.656628 0.422314
0.807047 0.680766 0.461613
0.871903 0.703293 0.469325
0.938296 0.726545 0.493522
0.591644 0.719096 0.168626
0.595536 0.723559 0.169256
0.600609 0.722191 0.168766
0.611401 0.721277 0.168068
0.628997 0.721615 0.167335
0.653875 0.724349 0.166678
0.677552 0.731868 0.176932
0.703836 0.740729 0.192377
0.732481 0.748576 0.215644
0.759020 0.751581 0.258933
0.784031 0.753086 0.308529
0.796868 0.743031 0.370134
0.808473 0.734792 0.434822
0.820615 0.732371 0.503058
0.860630 0.753278 0.561331
0.925620 0.779688 0.591378
0.623041 0.784407 0.150848
0.626591 0.788349 0.153300
0.631055 0.786651 0.152081
0.641345 0.786053 0.151233
0.658417 0.787101 0.151356
0.682051 0.789096 0.151801
0.708486 0.792613 0.158823
0.733104 0.799086 0.180392
0.761690 0.806270 0.205233
0.791913 0.812030 0.247824
0.821878 0.816455 0.307881
0.846683 0.816809 0.374106
0.857882 0.806861 0.446388
0.865355 0.797126 0.515713
0.872234 0.791911 0.581283
0.904755 0.815363 0.663046
0.667932 0.867121 0.178457
0.672278 0.871393 0.187002
0.677020 0.870522 0.185726
0.687119 0.869744 0.184721
0.703492 0.869508 0.185268
0.726391 0.869790 0.187751
0.755666 0.870371 0.191545
0.781405 0.873323 0.215163
0.808618 0.877138 0.246147
0.839485 0.881503 0.280940
0.869733 0.883557 0.345734
0.899900 0.885919 0.421288
0.918861 0.882019 0.501325
0.925752 0.872239 0.577172
0.929445 0.864328 0.643643
0.935403 0.865093 0.710324
0.707271 0.928142 0.240141
0.711657 0.931438 0.251853
0.716199 0.930714 0.250518
0.726008 0.930171 0.250353
0.742216 0.930071 0.252625
0.764492 0.930010 0.256846
0.793079 0.929833 0.262114
0.824743 0.930315 0.276233
0.852776 0.933025 0.312948
0.885548 0.936558 0.357038
0.920500 0.939714 0.421692
0.951519 0.940660 0.510866
0.977063 0.940403 0.595138
0.981421 0.930398 0.674355
0.984099 0.924128 0.740938
0.987079 0.923143 0.793783
0.147512 0.152609 0.204764
0.159321 0.154304 0.204663
0.196488 0.160720 0.205185
0.235900 0.176309 0.205515
0.266455 0.206689 0.216920
0.320983 0.224283 0.225192
0.378096 0.242729 0.233419
0.436615 0.261440 0.241088
0.496299 0.280590 0.248743
0.558575 0.301042 0.256548
0.622565 0.323326 0.264506
0.686370 0.349765 0.273352
0.748726 0.381864 0.284221
0.808595 0.417902 0.298197
0.866867 0.455942 0.317140
0.928734 0.499391 0.348400
0.149969 0.161920 0.203834
0.160705 0.162984 0.204718
0.196995 0.168462 0.205246
0.231245 0.186802 0.207652
0.269384 0.208634 0.217062
0.322467 0.225161 0.224774
0.377821 0.242655 0.232357
0.435614 0.261166 0.239953
0.495945 0.280758 0.247882
0.558330 0.301225 0.255797
0.622656 0.323772 0.264026
0.686774 0.350347 0.272952
0.748239 0.381906 0.283489
0.806641 0.416802 0.296858
0.862776 0.453066 0.314482
0.927426 0.498512 0.346769
0.161775 0.196711 0.208679
0.172731 0.197854 0.208924
0.206892 0.200147 0.210233
0.247070 0.207548 0.213168
0.290996 0.219094 0.218388
0.340565 0.233998 0.225137
0.393326 0.250582 0.232419
0.448890 0.268134 0.239833
0.506947 0.286785 0.247426
0.568004 0.306833 0.255333
0.630619 0.328903 0.263338
0.693082 0.355421 0.272198
0.754086 0.387291 0.283211
0.813046 0.422791 0.297044
0.870548 0.460259 0.316219
0.932129 0.503377 0.348068
0.194644 0.234751 0.209066
0.206135 0.236199 0.210586
0.237029 0.237575 0.211559
0.256069 0.235337 0.221174
0.301885 0.242297 0.223621
0.360013 0.249960 0.223464
0.411813 0.262674 0.229064
0.464681 0.278693 0.236717
0.520373 0.296097 0.244525
0.579796 0.315331 0.252513
0.641078 0.337436 0.260857
0.701819 0.363824 0.269780
0.760205 0.394678 0.280509
0.816595 0.428458 0.294039
0.871453 0.463480 0.311938
0.935017 0.507562 0.344940
0.246136 0.282329 0.216161
0.254620 0.285370 0.217060
0.277740 0.285335 0.216949
0.304347 0.286790 0.221955
0.315381 0.278253 0.235720
0.356411 0.283941 0.240603
0.419135 0.292950 0.238174
0.486127 0.301132 0.235845
0.545389 0.314176 0.240346
0.602053 0.331859 0.248522
0.659213 0.352824 0.256867
0.716204 0.378505 0.266107
0.772927 0.409006 0.277261
0.828951 0.442547 0.291653
0.884171 0.477375 0.310982
0.943068 0.517252 0.342839
0.286638 0.323418 0.218222
0.295730 0.328978 0.219778
0.313519 0.328447 0.219390
0.339174 0.329636 0.221864
0.363175 0.329624 0.231374
0.371270 0.318541 0.248264
0.408089 0.323792 0.257830
0.474963 0.335424 0.253426
0.545470 0.345789 0.249960
0.618929 0.356546 0.245893
0.679670 0.374237 0.250028
0.733083 0.398633 0.259653
0.786333 0.426979 0.271080
0.839077 0.457444 0.285131
0.890322 0.488233 0.303260
0.950824 0.528044 0.336846
0.329991 0.369887 0.220547
0.340336 0.377329 0.221980
0.354185 0.376419 0.221576
0.378092 0.375873 0.222116
0.403518 0.378549 0.228255
0.425040 0.375650 0.241915
0.432345 0.363121 0.261651
0.465401 0.367419 0.276401
0.535987 0.382195 0.270608
0.608844 0.396214 0.265992
0.679813 0.411174 0.260945
0.748081 0.428497 0.255964
0.805142 0.452788 0.262697
0.857218 0.481600 0.278196
0.908738 0.510999 0.298775
0.963350 0.544769 0.331294
0.371268 0.415707 0.221698
0.381671 0.424260 0.222691
0.393364 0.423593 0.222349
0.415694 0.422802 0.221972
0.440396 0.425749 0.226156
0.467250 0.428090 0.235519
0.487055 0.423348 0.252265
0.494719 0.410024 0.274609
0.523356 0.412697 0.295106
0.594406 0.430920 0.288998
0.666459 0.450516 0.283590
0.735365 0.471018 0.279357
0.802389 0.491283 0.275381
0.867851 0.509122 0.272123
0.918675 0.529768 0.285404
0.972624 0.560651 0.318445
0.413230 0.464201 0.220849
0.422065 0.471895 0.221530
0.432168 0.471501 0.221303
0.451840 0.471229 0.220797
0.477220 0.473465 0.222769
0.505697 0.479502 0.228493
0.532828 0.481170 0.242315
0.551537 0.475515 0.263143
0.560992 0.462864 0.289139
0.586589 0.465230 0.316179
0.654006 0.488490 0.313183
0.722996 0.512953 0.308517
0.791013 0.536918 0.307110
0.858438 0.557846 0.307313
0.922677 0.573352 0.308170
0.988054 0.589731 0.317562
0.457522 0.517698 0.217869
0.466245 0.525987 0.218054
0.475010 0.525591 0.217719
0.492439 0.525476 0.217256
0.518361 0.526727 0.216877
0.543475 0.532560 0.222051
0.572239 0.539128 0.230079
0.596667 0.539545 0.248791
0.612342 0.531745 0.274542
0.623246 0.520251 0.305660
0.646313 0.523593 0.341812
0.707960 0.551148 0.347846
0.775587 0.577949 0.346045
0.840432 0.599098 0.347472
0.903102 0.614876 0.349857
0.969450 0.632674 0.363062
0.504704 0.579364 0.209970
0.510269 0.584277 0.209934
0.517908 0.584055 0.209606
0.533301 0.584707 0.209127
0.557023 0.586529 0.208192
0.582257 0.592194 0.211667
0.609362 0.601180 0.218668
0.636499 0.607406 0.233817
0.661036 0.609851 0.258814
0.675176 0.600802 0.293342
0.686507 0.590051 0.333184
0.706089 0.592244 0.380919
0.762106 0.621066 0.403678
0.830053 0.647918 0.408659
0.894382 0.667060 0.416436
0.960009 0.687110 0.437928
0.546256 0.642556 0.197778
0.552491 0.649758 0.198038
0.558912 0.649393 0.197671
0.572110 0.649942 0.197146
0.592515 0.651746 0.196414
0.617746 0.654817 0.196928
0.640873 0.662107 0.205233
0.667596 0.670648 0.215916
0.692330 0.673713 0.241893
0.716967 0.676557 0.275483
0.731125 0.667742 0.321769
0.743418 0.659047 0.373645
0.759527 0.658912 0.431662
0.807547 0.683042 0.469566
0.872357 0.705363 0.477488
0.938504 0.728474 0.502017
0.588679 0.719844 0.183520
0.592692 0.724355 0.184278
0.597710 0.722871 0.183746
0.608721 0.722066 0.183098
0.626927 0.723062 0.182441
0.652345 0.726333 0.182174
0.677194 0.733308 0.191142
0.703352 0.741775 0.206513
0.732132 0.749651 0.228257
0.758643 0.752563 0.270362
0.783952 0.754363 0.319200
0.796788 0.744445 0.380175
0.808196 0.736322 0.444486
0.820342 0.734157 0.511714
0.860829 0.755035 0.567984
0.925513 0.780992 0.597163
0.620446 0.785525 0.168670
0.624044 0.789522 0.171169
0.628555 0.787921 0.169825
0.638954 0.787378 0.169270
0.656182 0.788450 0.169512
0.680027 0.790443 0.170170
0.707666 0.793493 0.175005
0.732307 0.799820 0.195400
0.761001 0.806934 0.219376
0.791571 0.813000 0.259940
0.821625 0.817487 0.319127
0.846599 0.818009 0.384185
0.857551 0.807945 0.455461
0.864895 0.798171 0.523410
0.871839 0.793228 0.588251
0.904992 0.816830 0.668124
0.664561 0.867340 0.195573
0.668866 0.871526 0.204046
0.673635 0.870699 0.202565
0.683909 0.870032 0.201953
0.700551 0.869985 0.202938
0.723797 0.870413 0.205153
0.753347 0.870987 0.208788
0.780140 0.873596 0.229192
0.807391 0.877325 0.259021
0.838350 0.881713 0.293326
0.869051 0.884064 0.355625
0.899252 0.886489 0.430522
0.918457 0.882763 0.509202
0.925273 0.872978 0.583833
0.928883 0.865060 0.649109
0.934833 0.865831 0.714545
0.704067 0.928588 0.254368
0.708402 0.931872 0.265943
0.712936 0.931188 0.264599
0.722910 0.930627 0.264336
0.739114 0.930498 0.266566
0.761502 0.930388 0.270463
0.790237 0.930191 0.275179
0.823265 0.930426 0.286622
0.851446 0.933195 0.322782
0.884377 0.936769 0.366778
0.919616 0.940081 0.429578
0.950689 0.940996 0.517473
0.976429 0.940769 0.600516
0.980960 0.930901 0.678807
0.983740 0.924621 0.744414
0.986767 0.923686 0.796487
0.164352 0.168276 0.240269
0.173843 0.169086 0.240674
0.205978 0.174046 0.240786
0.252066 0.182333 0.241478
0.298896 0.196872 0.240617
0.327343 0.236020 0.247489
0.370298 0.268338 0.262947
0.430110 0.285048 0.270142
0.490913 0.303020 0.277436
0.553743 0.321217 0.283931
0.618518 0.341753 0.290831
0.682882 0.367005 0.299406
0.745267 0.398036 0.310470
0.804932 0.432837 0.325169
0.862852 0.469959 0.345687
0.924474 0.513158 0.379864
0.165300 0.174671 0.238156
0.174940 0.176274 0.239832
0.206528 0.181013 0.240050
0.251733 0.189726 0.240841
0.295839 0.205152 0.240364
0.323113 0.243031 0.249885
0.370685 0.268223 0.262077
0.429980 0.285118 0.269503
0.490877 0.303093 0.276800
0.553801 0.321215 0.283073
0.618941 0.342111 0.290306
0.683218 0.367422 0.298847
0.744567 0.397685 0.309455
0.802799 0.431448 0.323607
0.858644 0.466591 0.342109
0.923159 0.512033 0.377827
0.181990 0.208249 0.243490
0.190836 0.209572 0.244047
0.218517 0.211529 0.244098
0.259848 0.217937 0.244318
0.294133 0.238063 0.247613
0.332501 0.261481 0.257975
0.386613 0.275720 0.264206
0.442647 0.291246 0.270376
0.501461 0.307538 0.276255
0.563162 0.325673 0.282623
0.626497 0.346327 0.289550
0.689612 0.371752 0.298037
0.750573 0.402715 0.309287
0.809294 0.437217 0.324146
0.866494 0.473799 0.344718
0.927838 0.516766 0.379460
0.198190 0.246205 0.244859
0.205984 0.248153 0.246000
0.230682 0.250173 0.245792
0.268499 0.252296 0.248572
0.311783 0.259539 0.251091
0.356584 0.270431 0.255864
0.405605 0.283641 0.261467
0.458751 0.298185 0.267109
0.515011 0.314117 0.273071
0.575234 0.332126 0.279501
0.637126 0.353332 0.286931
0.698155 0.378880 0.295498
0.756490 0.408842 0.306376
0.812788 0.441724 0.320502
0.867425 0.475995 0.339512
0.930900 0.520396 0.376068
0.225568 0.293082 0.243155
0.235423 0.296187 0.245445
0.268168 0.295259 0.248856
0.307037 0.295679 0.250008
0.322137 0.290014 0.260413
0.368000 0.296868 0.261883
0.428005 0.304058 0.260845
0.486082 0.313832 0.262734
0.539857 0.328596 0.268927
0.597078 0.345733 0.275586
0.654912 0.366270 0.282891
0.712565 0.391727 0.291764
0.769436 0.421870 0.303204
0.825364 0.454804 0.318406
0.880281 0.489266 0.339220
0.939018 0.529224 0.373803
0.278404 0.331218 0.246446
0.287850 0.336833 0.248622
0.306509 0.336311 0.248054
0.338915 0.336003 0.247537
0.366734 0.337290 0.255188
0.376342 0.327483 0.269505
0.418403 0.334450 0.274753
0.483087 0.344707 0.272128
0.552172 0.353951 0.269547
0.620946 0.365267 0.268441
0.675807 0.385297 0.276164
0.729512 0.409732 0.285417
0.782757 0.437853 0.296830
0.835453 0.468109 0.311560
0.886621 0.498621 0.330769
0.947216 0.539226 0.367712
0.323163 0.376307 0.245895
0.332848 0.383464 0.247981
0.347322 0.382426 0.247375
0.374599 0.381190 0.246406
0.404249 0.383579 0.250855
0.428929 0.382588 0.262150
0.436574 0.370422 0.279976
0.473759 0.376487 0.291349
0.543231 0.390224 0.286510
0.614395 0.403496 0.283131
0.683877 0.417840 0.279363
0.749184 0.435676 0.277576
0.801899 0.462034 0.289079
0.853978 0.490944 0.305219
0.905280 0.520302 0.326870
0.959169 0.554166 0.361451
0.365497 0.421506 0.244288
0.375371 0.429778 0.246155
0.387586 0.429128 0.245753
0.410948 0.428314 0.245061
0.440368 0.429812 0.247136
0.469200 0.433225 0.255121
