assets/lut/editingcorpw Timeless Sepia.cube
LUT_3D_SIZE 6
DOMAIN_MIN 0.0 0.0 0.0
DOMAIN_MAX 1.0 1.0 1.0
0.178531 0.112306 0.104768
0.284904 0.142837 0.118563
0.499034 0.173178 0.121987
0.753548 0.231913 0.151773
0.951623 0.308098 0.190622
1.000000 0.379095 0.232120
0.214792 0.233122 0.129232
0.250805 0.233853 0.147672
0.485844 0.251478 0.147406
0.735357 0.293596 0.172438
0.941041 0.352161 0.199916
1.000000 0.409564 0.235434
0.300444 0.401605 0.195071
0.370079 0.403004 0.197954
0.414290 0.399915 0.235536
0.690876 0.440344 0.211792
0.911695 0.474070 0.218877
1.000000 0.509184 0.246220
0.420954 0.586157 0.219962
0.468661 0.588978 0.220631
0.548143 0.588271 0.237440
0.597738 0.595974 0.286434
0.854754 0.676494 0.255939
1.000000 0.642011 0.261137
0.539830 0.812369 0.219547
0.570395 0.811241 0.219594
0.669265 0.808399 0.225501
0.716672 0.817351 0.299727
0.776192 0.831161 0.419096
1.000000 0.878941 0.465968
0.677882 0.987701 0.339818
0.699330 0.986877 0.341167
0.782901 0.983306 0.346422
0.837162 0.982898 0.448200
0.887339 0.983862 0.605304
0.934966 0.986389 0.765072
0.161086 0.184085 0.266899
0.268758 0.178028 0.263334
0.463193 0.210889 0.263922
0.716209 0.266117 0.282591
0.930140 0.338138 0.294112
1.000000 0.416321 0.314617
0.192119 0.258691 0.260009
0.268836 0.263765 0.260661
0.460183 0.277161 0.268452
0.706948 0.315094 0.282855
0.922803 0.374536 0.293677
1.000000 0.442102 0.315115
0.250764 0.410941 0.277348
0.321724 0.412517 0.275107
0.431574 0.405412 0.288784
0.680422 0.432464 0.280920
0.901285 0.485883 0.293171
1.000000 0.531615 0.319685
0.379819 0.592449 0.279141
0.434962 0.596664 0.280762
0.555175 0.589199 0.285348
0.604423 0.597574 0.328138
0.852585 0.670419 0.313379
1.000000 0.655869 0.331306
0.517538 0.814606 0.291461
0.549652 0.813645 0.291616
0.662814 0.810925 0.293407
0.721754 0.817770 0.356783
0.779460 0.832299 0.473945
0.999971 0.878819 0.524096
0.670313 0.988092 0.415741
0.691543 0.987341 0.417109
0.774037 0.983887 0.421183
0.841021 0.982511 0.502506
0.889737 0.983532 0.646693
0.936675 0.986267 0.788003
0.000000 0.301635 0.487383
0.176475 0.279311 0.481597
0.470655 0.279451 0.457707
0.665179 0.288930 0.439132
0.893840 0.351236 0.470736
1.000000 0.503051 0.527666
0.121393 0.360264 0.469021
0.248091 0.351891 0.466262
0.462899 0.326954 0.446779
0.660264 0.333103 0.438485
0.887579 0.394695 0.472202
1.000000 0.552657 0.555294
0.228584 0.458083 0.450820
0.297960 0.460175 0.451674
0.461778 0.451046 0.436357
0.655691 0.458493 0.441781
0.876869 0.545936 0.501380
1.000000 0.633361 0.582535
0.294998 0.618086 0.489449
0.349156 0.621799 0.489019
0.489705 0.613545 0.454808
0.630445 0.613062 0.467260
0.848464 0.655845 0.491086
1.000000 0.716893 0.583921
0.402534 0.826767 0.501049
0.448341 0.825908 0.505145
0.588676 0.822073 0.514482
0.732432 0.818993 0.532943
0.786715 0.836545 0.642934
0.991453 0.878747 0.692428
0.638581 0.989258 0.639594
0.658911 0.988638 0.640255
0.737653 0.985754 0.641739
0.851974 0.981323 0.662938
0.898495 0.982794 0.763854
0.944054 0.986242 0.850706
0.000000 0.426386 0.825632
0.000000 0.419344 0.817355
0.331056 0.382689 0.796820
0.621486 0.389204 0.770531
0.820613 0.414957 0.757171
1.000000 0.539391 0.793252
0.000000 0.460981 0.804511
0.000000 0.456902 0.803517
0.343931 0.419351 0.786455
0.618580 0.424542 0.765447
0.814122 0.445342 0.751868
1.000000 0.565302 0.794606
0.000000 0.556713 0.786300
0.004420 0.559305 0.786519
0.407685 0.546379 0.767292
0.611228 0.532556 0.751775
0.806071 0.551611 0.754931
1.000000 0.661357 0.806476
0.196750 0.661143 0.767116
0.274568 0.663891 0.768324
0.437398 0.665034 0.757865
0.608590 0.670256 0.744303
0.807046 0.692116 0.757595
0.988358 0.806747 0.848998
0.211320 0.849395 0.838703
0.277510 0.850283 0.837867
0.447465 0.848011 0.823698
0.647964 0.840788 0.782960
0.797449 0.844816 0.809742
0.985056 0.875664 0.841595
0.525298 0.996954 0.813028
0.560654 0.995679 0.816839
0.690131 0.989664 0.843214
0.815241 0.985139 0.847232
0.916234 0.983268 0.870655
0.958666 0.987689 0.914800
0.000000 0.548767 0.973755
0.000000 0.553511 0.972514
0.318886 0.542694 0.970550
0.552467 0.556930 0.965454
0.747820 0.585650 0.958005
0.941552 0.640143 0.960846
0.000000 0.574275 0.971203
0.046114 0.580320 0.970977
0.370156 0.580370 0.967882
0.559853 0.581579 0.963027
0.749474 0.607741 0.956473
0.941791 0.658515 0.960272
0.035557 0.647316 0.964753
0.220915 0.652027 0.964666
0.438004 0.666962 0.960881
0.589928 0.665773 0.957550
0.758556 0.681497 0.952055
0.946281 0.719756 0.958492
0.270832 0.742567 0.958990
0.321344 0.745988 0.958661
0.452861 0.756539 0.955904
0.632135 0.773659 0.950744
0.779131 0.776772 0.946938
0.960763 0.803819 0.954602
0.423221 0.848296 0.954890
0.449743 0.850115 0.954471
0.541217 0.857146 0.952441
0.673085 0.869406 0.948461
0.815572 0.881269 0.941900
0.975508 0.910762 0.950366
0.558318 0.998901 0.979449
0.578006 0.999436 0.978907
0.651480 0.999901 0.975937
0.763445 0.996346 0.960957
0.908622 0.989943 0.952217
0.979773 0.991998 0.968762
0.552819 0.766384 1.000000
0.580743 0.775729 1.000000
0.659425 0.800595 1.000000
0.717824 0.802964 1.000000
0.815079 0.820518 1.000000
0.930449 0.839445 1.000000
0.558953 0.774783 1.000000
0.586250 0.783614 1.000000
0.676111 0.814616 1.000000
0.727506 0.813687 1.000000
0.820812 0.829074 1.000000
0.933251 0.846140 1.000000
0.561126 0.797671 1.000000
0.588509 0.805444 1.000000
0.681457 0.834159 1.000000
0.760646 0.849633 1.000000
0.841198 0.858675 1.000000
0.944182 0.870426 1.000000
0.550658 0.836674 1.000000
0.569243 0.839314 1.000000
0.640586 0.850784 1.000000
0.788903 0.890752 1.000000
0.870098 0.900164 1.000000
0.963085 0.908159 1.000000
0.640266 0.903679 1.000000
0.653338 0.905686 1.000000
0.703501 0.913526 1.000000
0.785696 0.927124 1.000000
0.908594 0.951021 1.000000
0.987634 0.955986 1.000000
0.737423 0.965270 1.000000
0.746938 0.966235 1.000000
0.784982 0.970245 1.000000
0.856352 0.978143 1.000000
0.948791 0.990454 1.000000
1.000000 1.000000 1.000000
