assets/lut/editingcorp atusa.cube
# Created by: G'MIC (https://gmic.eu)
TITLE "atusa"
# LUT size
LUT_3D_SIZE 7
# Data domain
DOMAIN_MIN 0.0 0.0 0.0
DOMAIN_MAX 1.0 1.0 1.0
# LUT data points
0.023759191855788231 0.01819254644215107 0.026701953262090683
0.23699347674846649 0.018746498972177505 0.024966655299067497
0.46071046590805054 0.020497655496001244 0.020317167043685913
0.64964598417282104 0.011055367067456245 0.014938219450414181
0.79294151067733765 0.010979730635881424 0.012802318669855595
0.88028490543365479 0.0079916110262274742 0.0079608689993619919
0.97469902038574219 0.0090972306206822395 0.0068407393991947174
0.0152296032756567 0.20357057452201843 0.017221443355083466
0.19842289388179779 0.19730730354785919 0.026283862069249153
0.4428306519985199 0.19576358795166016 0.02753061056137085
0.63977241516113281 0.16581942141056061 0.02731819823384285
0.79551142454147339 0.14706699550151825 0.029633674770593643
0.88083082437515259 0.12659581005573273 0.025536136701703072
0.97362995147705078 0.1320262998342514 0.018067842349410057
0.0096649769693613052 0.39549681544303894 0.033269230276346207
0.13802053034305573 0.39086806774139404 0.039399284869432449
0.4001554548740387 0.39888197183609009 0.028543001040816307
0.62743085622787476 0.39060384035110474 0.030889697372913361
0.80017662048339844 0.36078670620918274 0.036374051123857498
0.89603126049041748 0.34465175867080688 0.034127268940210342
0.9882081151008606 0.33450368046760559 0.036722324788570404
0.014831991866230965 0.55536139011383057 0.074341416358947754
0.10943156480789185 0.54760009050369263 0.073176831007003784
0.32559671998023987 0.54375439882278442 0.048220060765743256
0.58371275663375854 0.55268692970275879 0.037528257817029953
0.78975647687911987 0.53923225402832031 0.049596734344959259
0.90805107355117798 0.52538114786148071 0.048145338892936707
0.99182415008544922 0.51757878065109253 0.04564959928393364
0.022055681794881821 0.69473397731781006 0.079545624554157257
0.10891808569431305 0.69374799728393555 0.084306292235851288
0.26684606075286865 0.68801432847976685 0.066497713327407837
0.52054828405380249 0.69390398263931274 0.040519099682569504
0.75359296798706055 0.6959264874458313 0.058240480720996857
0.90915745496749878 0.68351346254348755 0.061438869684934616
0.99303144216537476 0.67483872175216675 0.054872266948223114
0.019039902836084366 0.84388208389282227 0.067787647247314453
0.11231699585914612 0.84037190675735474 0.072883918881416321
0.23846860229969025 0.83148598670959473 0.063189275562763214
0.45453587174415588 0.83882564306259155 0.038237012922763824
0.68603914976119995 0.86237579584121704 0.046050935983657837
0.90036135911941528 0.85660338401794434 0.065605118870735168
0.99415922164916992 0.85829555988311768 0.056750472635030746
0.015008649788796902 0.93230950832366943 0.03714420273900032
0.11481839418411255 0.92338162660598755 0.05184529721736908
0.23346909880638123 0.92567336559295654 0.044783048331737518
0.41823515295982361 0.93656355142593384 0.032384011894464493
0.65300196409225464 0.96994900703430176 0.036882244050502777
0.87803220748901367 0.98563426733016968 0.046839531511068344
0.99727934598922729 0.99077397584915161 0.030702657997608185
0.046525333076715469 0.024818390607833862 0.24833552539348602
0.24456097185611725 0.017934970557689667 0.24601216614246368
0.46593308448791504 0.021788593381643295 0.22745576500892639
0.65888327360153198 0.015494522638618946 0.19919665157794952
0.80325126647949219 0.018481967970728874 0.18138006329536438
0.88044506311416626 0.017973581328988075 0.16815552115440369
0.97755640745162964 0.018649023026227951 0.16416154801845551
0.021446347236633301 0.21002893149852753 0.21878562867641449
0.16469205915927887 0.18943935632705688 0.19965209066867828
0.42192164063453674 0.18823924660682678 0.18406851589679718
0.62904655933380127 0.15923650562763214 0.16839951276779175
0.79071855545043945 0.14377261698246002 0.14975644648075104
0.8799019455909729 0.12883587181568146 0.14590822160243988
0.97880840301513672 0.13636748492717743 0.14428476989269257
0.017224898561835289 0.39785566926002502 0.18246030807495117
0.12323500961065292 0.36579176783561707 0.17763672769069672
0.38989225029945374 0.38515278697013855 0.14549806714057922
0.62189143896102905 0.38882586359977722 0.14253254234790802
0.79115492105484009 0.35640430450439453 0.13486462831497192
0.89259707927703857 0.34001427888870239 0.13023442029953003
0.98751634359359741 0.33499225974082947 0.1354326456785202
0.015613810159265995 0.55406063795089722 0.17475000023841858
0.10983343422412872 0.55157649517059326 0.17049230635166168
0.31892722845077515 0.53825122117996216 0.13760131597518921
0.58536452054977417 0.55118995904922485 0.14037959277629852
0.78545689582824707 0.53947550058364868 0.14772050082683563
0.90883344411849976 0.51968663930892944 0.13813914358615875
0.9919440746307373 0.5159497857093811 0.13897405564785004
0.0233650803565979 0.69342541694641113 0.17349468171596527
0.11026345193386078 0.68763935565948486 0.1725919246673584
0.25434809923171997 0.6823279857635498 0.15758021175861359
0.5167917013168335 0.68579113483428955 0.13257615268230438
0.75143885612487793 0.69371539354324341 0.14555551111698151
0.91329145431518555 0.67829889059066772 0.14458858966827393
0.99414515495300293 0.67346638441085815 0.1437290757894516
0.020508276298642159 0.84446471929550171 0.16041795909404755
0.11466605961322784 0.84013789892196655 0.16144327819347382
0.22094923257827759 0.82913923263549805 0.16144643723964691
0.44580799341201782 0.8408324122428894 0.13105598092079163
0.69158834218978882 0.85698825120925903 0.14017993211746216
0.89457237720489502 0.8565133810043335 0.15513871610164642
0.99567586183547974 0.85626232624053955 0.1517748236656189
0.016909431666135788 0.92741715908050537 0.13049723207950592
0.10751964896917343 0.9213939905166626 0.14194121956825256
0.20476469397544861 0.92111265659332275 0.14268730580806732
0.39866647124290466 0.93923372030258179 0.12535753846168518
0.65311795473098755 0.96665579080581665 0.12193839997053146
0.88379430770874023 0.98531955480575562 0.12235399335622787
0.99886459112167358 0.99066728353500366 0.12166908383369446
0.063284121453762054 0.03445727750658989 0.46597746014595032
0.25669801235198975 0.032385058701038361 0.47006219625473022
0.46531963348388672 0.019620664417743683 0.47470811009407043
0.65431559085845947 0.0076521332375705242 0.45013439655303955
0.79828202724456787 0.020921565592288971 0.42161116003990173
0.87423771619796753 0.017841728404164314 0.40805357694625854
0.97220563888549805 0.015078091993927956 0.39880803227424622
0.042680252343416214 0.23245997726917267 0.45908069610595703
0.21022367477416992 0.23164606094360352 0.41858768463134766
0.41469517350196838 0.19958551228046417 0.42165061831474304
0.60781013965606689 0.13457760214805603 0.40981242060661316
0.77969789505004883 0.12739846110343933 0.38820680975914001
0.87568247318267822 0.12066952884197235 0.37733697891235352
0.97655558586120605 0.1172056645154953 0.3774210512638092
0.035335659980773926 0.42218291759490967 0.43565499782562256
0.14100813865661621 0.39744746685028076 0.42303097248077393
0.34795603156089783 0.37754127383232117 0.39580407738685608
0.59120506048202515 0.36580798029899597 0.37559843063354492
0.7690664529800415 0.33981651067733765 0.35716906189918518
0.87564373016357422 0.33200192451477051 0.3428862988948822
0.97489923238754272 0.32469022274017334 0.33551514148712158
0.025943666696548462 0.56197428703308105 0.37955412268638611
0.11362608522176743 0.55408519506454468 0.37497225403785706
0.25574982166290283 0.500499427318573 0.36326900124549866
0.56568634510040283 0.53518050909042358 0.3415837287902832
0.78007477521896362 0.54543948173522949 0.33076554536819458
0.9007917046546936 0.5211644172668457 0.29853823781013489
0.98489725589752197 0.51574009656906128 0.29974380135536194
0.023954937234520912 0.69742417335510254 0.32736676931381226
0.11561873555183411 0.69670218229293823 0.31678876280784607
0.2253190279006958 0.64178013801574707 0.32156389951705933
0.4999527633190155 0.65481877326965332 0.2690938413143158
0.74781876802444458 0.68815672397613525 0.2859821617603302
0.91109162569046021 0.67710894346237183 0.26816245913505554
0.99525743722915649 0.6803404688835144 0.27587485313415527
0.02096150629222393 0.83377444744110107 0.27711117267608643
0.11515040695667267 0.83734589815139771 0.2695920467376709
0.22040934860706329 0.82720297574996948 0.27012607455253601
0.4460923969745636 0.83339452743530273 0.22409532964229584
0.69008839130401611 0.85380923748016357 0.23686614632606506
0.89333605766296387 0.85567587614059448 0.24860548973083496
0.99590331315994263 0.85476768016815186 0.25726240873336792
0.018981365486979485 0.92764228582382202 0.20605665445327759
0.11241228878498077 0.92698311805725098 0.21118554472923279
0.20451794564723969 0.92369252443313599 0.21402616798877716
0.3937562108039856 0.94445359706878662 0.20439977943897247
0.64205080270767212 0.96832370758056641 0.2065446674823761
0.87137734889984131 0.98530447483062744 0.20205721259117126
0.9939500093460083 0.98728030920028687 0.20888350903987885
0.078187070786952972 0.035463940352201462 0.63136094808578491
0.27610763907432556 0.046898920089006424 0.62674838304519653
0.46217572689056396 0.045071158558130264 0.64831876754760742
0.63663953542709351 0.022295618429780006 0.63879132270812988
0.77823436260223389 0.021398851647973061 0.61649250984191895
0.85147178173065186 0.026331314817070961 0.60372442007064819
0.95856493711471558 0.021008271723985672 0.60049068927764893
0.077061563730239868 0.22960810363292694 0.62729501724243164
0.27949851751327515 0.2479458749294281 0.57405084371566772
0.43319061398506165 0.24831895530223846 0.59224891662597656
0.59342336654663086 0.1930384635925293 0.59812349081039429
0.77671712636947632 0.12233765423297882 0.58554822206497192
0.86174017190933228 0.1330217719078064 0.57998335361480713
0.96431469917297363 0.13580743968486786 0.58498966693878174
0.062188286334276199 0.42280483245849609 0.62366175651550293
0.19139553606510162 0.41924965381622314 0.6062462329864502
0.40105161070823669 0.40970364212989807 0.56849485635757446
0.56020545959472656 0.39427945017814636 0.56857943534851074
0.74568122625350952 0.32593020796775818 0.5465206503868103
0.85841482877731323 0.32089012861251831 0.54534143209457397
0.95416224002838135 0.31531667709350586 0.54431843757629395
0.049071621149778366 0.57268691062927246 0.59705162048339844
0.14972946047782898 0.56475311517715454 0.59189778566360474
0.30127939581871033 0.53222048282623291 0.56644356250762939
0.52538138628005981 0.53768563270568848 0.55171924829483032
0.75460749864578247 0.5379219651222229 0.54806160926818848
0.88110494613647461 0.51876038312911987 0.53127706050872803
0.97096145153045654 0.5076901912689209 0.51849186420440674
0.035763055086135864 0.70777720212936401 0.54715621471405029
0.12361955642700195 0.70757341384887695 0.54296070337295532
0.22440847754478455 0.64925080537796021 0.53396487236022949
0.42115974426269531 0.63935381174087524 0.50635999441146851
0.73136919736862183 0.68780124187469482 0.52439135313034058
0.90208894014358521 0.68386673927307129 0.50990957021713257
0.99256592988967896 0.67972356081008911 0.49798679351806641
0.020451175048947334 0.843575119972229 0.47832304239273071
0.11385418474674225 0.8463473916053772 0.47926044464111328
0.21078239381313324 0.82974302768707275 0.47121626138687134
0.3933752179145813 0.79127711057662964 0.44391942024230957
0.67875289916992188 0.82917457818984985 0.45081683993339539
0.88336801528930664 0.85056525468826294 0.4525286853313446
0.98991185426712036 0.8489881157875061 0.43112331628799438
0.017770953476428986 0.94047456979751587 0.42856195569038391
0.11303890496492386 0.93562573194503784 0.40960562229156494
0.21016117930412292 0.93815618753433228 0.37282061576843262
0.37083896994590759 0.92140811681747437 0.39157089591026306
0.62535542249679565 0.95329397916793823 0.38130918145179749
0.87881910800933838 0.98245620727539062 0.32177478075027466
0.99378818273544312 0.98441767692565918 0.29459297657012939
0.09679730236530304 0.040900211781263351 0.74341368675231934
0.26857107877731323 0.046262238174676895 0.75757038593292236
0.45906379818916321 0.051893901079893112 0.77817142009735107
0.62972962856292725 0.035119179636240005 0.77833610773086548
0.77857989072799683 0.029673242941498756 0.77632522583007812
0.84598338603973389 0.030500195920467377 0.76742458343505859
0.95902740955352783 0.018643368035554886 0.7752382755279541
0.10679595172405243 0.22521944344043732 0.74936246871948242
0.28031307458877563 0.22238324582576752 0.72500360012054443
0.43945428729057312 0.22524638473987579 0.74267512559890747
0.58889895677566528 0.21668681502342224 0.74578523635864258
0.76123660802841187 0.16933199763298035 0.75414997339248657
0.85429185628890991 0.14919020235538483 0.75329446792602539
0.97002917528152466 0.14130903780460358 0.76413452625274658
0.078390814363956451 0.40405389666557312 0.77067387104034424
0.23901887238025665 0.40231382846832275 0.73598402738571167
0.44605797529220581 0.40946701169013977 0.70429670810699463
0.56162446737289429 0.42130091786384583 0.710987389087677
0.71369075775146484 0.38585016131401062 0.71985346078872681
0.84091067314147949 0.35595852136611938 0.72366571426391602
0.94257891178131104 0.34693199396133423 0.72196346521377563
0.067506976425647736 0.56355804204940796 0.76872378587722778
0.15204767882823944 0.56233948469161987 0.7600281834602356
0.36164814233779907 0.54540830850601196 0.7282446026802063
0.56068974733352661 0.55154013633728027 0.70697760581970215
0.7233014702796936 0.54883342981338501 0.70976084470748901
0.84509062767028809 0.539806067943573 0.7035178542137146
0.941062331199646 0.53281861543655396 0.6971326470375061
0.067987464368343353 0.71082091331481934 0.74267590045928955
0.15397867560386658 0.70617800951004028 0.73974353075027466
0.30065608024597168 0.6672789454460144 0.7249068021774292
0.45745503902435303 0.66086357831954956 0.6991996169090271
0.69438338279724121 0.68879210948944092 0.6954500675201416
0.87738072872161865 0.69474834203720093 0.69897782802581787
0.97761017084121704 0.68936532735824585 0.68996340036392212
0.047966722398996353 0.86844754219055176 0.69115144014358521
0.14213153719902039 0.86559599637985229 0.68293511867523193
0.23216341435909271 0.84948724508285522 0.67169827222824097
0.36617755889892578 0.80185031890869141 0.6456947922706604
0.6352546215057373 0.82957750558853149 0.64521527290344238
0.881114661693573 0.85678881406784058 0.66417443752288818
0.98725247383117676 0.851429283618927 0.66203969717025757
0.037099096924066544 0.96112346649169922 0.6645512580871582
0.12319269776344299 0.95301306247711182 0.64682888984680176
0.20626057684421539 0.94983786344528198 0.64293354749679565
0.31432828307151794 0.92372804880142212 0.61730855703353882
0.5814705491065979 0.94251024723052979 0.60179859399795532
0.87062102556228638 0.98061031103134155 0.61009836196899414
0.99002623558044434 0.98245865106582642 0.61302840709686279
0.091349147260189056 0.034336749464273453 0.81906896829605103
0.26119205355644226 0.046955510973930359 0.83654338121414185
0.45482718944549561 0.058927722275257111 0.85838490724563599
0.62140536308288574 0.052367057651281357 0.86141526699066162
0.80007278919219971 0.03091747872531414 0.88605862855911255
0.88656330108642578 0.026385916396975517 0.89333987236022949
0.98892486095428467 0.018382187932729721 0.90373247861862183
0.11332044750452042 0.21894241869449615 0.82987105846405029
0.25622612237930298 0.21230137348175049 0.82882481813430786
0.43544870615005493 0.21531520783901215 0.83555173873901367
0.59208184480667114 0.19863389432430267 0.8474433422088623
0.78300976753234863 0.16791161894798279 0.87941557168960571
0.88703984022140503 0.13878005743026733 0.89001154899597168
0.98212665319442749 0.13497915863990784 0.89402765035629272
0.093805216252803802 0.40001308917999268 0.85711550712585449
0.23102480173110962 0.39395648241043091 0.84235221147537231
0.43591943383216858 0.40070611238479614 0.80183738470077515
0.5713878870010376 0.3963664174079895 0.81796550750732422
0.73787623643875122 0.37070891261100769 0.85687434673309326
0.88099247217178345 0.32813194394111633 0.88178306818008423
0.95939689874649048 0.33209499716758728 0.86903291940689087
0.07693500816822052 0.55871319770812988 0.87836122512817383
0.157883420586586 0.55344933271408081 0.87475895881652832
0.36995035409927368 0.54336178302764893 0.83995985984802246
0.57921826839447021 0.54652464389801025 0.8067508339881897
0.7106594443321228 0.55386245250701904 0.83217781782150269
0.86178529262542725 0.53169387578964233 0.86953151226043701
0.94292241334915161 0.53002345561981201 0.85406160354614258
0.084308505058288574 0.69912827014923096 0.88925009965896606
0.17567583918571472 0.69066011905670166 0.88856357336044312
0.31476262211799622 0.67677032947540283 0.87733346223831177
0.51643568277359009 0.66749554872512817 0.84662455320358276
0.69165146350860596 0.68756318092346191 0.83691400289535522
0.85673040151596069 0.69097411632537842 0.8563767671585083
0.94938665628433228 0.68769621849060059 0.85115420818328857
0.076561659574508667 0.86268699169158936 0.88251835107803345
0.16818484663963318 0.85743123292922974 0.87969517707824707
0.27566835284233093 0.84307956695556641 0.87236481904983521
0.4651908278465271 0.82177108526229858 0.85255557298660278
0.65173482894897461 0.83197671175003052 0.84783536195755005
0.87646722793579102 0.86151629686355591 0.85585516691207886
0.98647069931030273 0.85910367965698242 0.85530728101730347
0.070763483643531799 0.95961654186248779 0.86803913116455078
0.1570839136838913 0.95884376764297485 0.86585044860839844
0.24343386292457581 0.95646059513092041 0.86051326990127563
0.39964482188224792 0.94369196891784668 0.8458588719367981
0.60848891735076904 0.94771593809127808 0.82155287265777588
0.85656654834747314 0.98395109176635742 0.83163177967071533
0.9912835955619812 0.98934036493301392 0.83781951665878296
0.078967012465000153 0.027648238465189934 0.89973956346511841
0.25221395492553711 0.038814034312963486 0.91448664665222168
0.44482925534248352 0.046535879373550415 0.93559783697128296
0.62251996994018555 0.038331184536218643 0.94881129264831543
0.79822248220443726 0.022960647940635681 0.96868157386779785
0.88687807321548462 0.021456774324178696 0.97228348255157471
0.98415082693099976 0.014265741221606731 0.98041605949401855
0.08717220276594162 0.20736014842987061 0.90649360418319702
0.2483288049697876 0.21204963326454163 0.9016340970993042
0.43293294310569763 0.21084707975387573 0.91248279809951782
0.59440076351165771 0.19335873425006866 0.93630707263946533
0.78384745121002197 0.16324608027935028 0.96246200799942017
0.88718521595001221 0.1359110027551651 0.97279411554336548
0.97539627552032471 0.13833160698413849 0.97346198558807373
0.085282601416110992 0.39371570944786072 0.92902272939682007
0.23232831060886383 0.39063632488250732 0.91581135988235474
0.4288175106048584 0.39585074782371521 0.88945460319519043
0.57018858194351196 0.3960278332233429 0.89885371923446655
0.73051059246063232 0.36685660481452942 0.9343494176864624
0.88410711288452148 0.32046285271644592 0.9686012864112854
0.97631996870040894 0.32589823007583618 0.96716570854187012
0.072955094277858734 0.55637830495834351 0.95573842525482178
0.1618376225233078 0.54784846305847168 0.95568358898162842
0.36960941553115845 0.54215651750564575 0.92060196399688721
0.57935786247253418 0.54467719793319702 0.88395112752914429
0.70357304811477661 0.55230540037155151 0.90857833623886108
0.87293004989624023 0.52439755201339722 0.96031242609024048
0.97592222690582275 0.52332764863967896 0.9618678092956543
0.081394687294960022 0.69386214017868042 0.9721066951751709
0.17101329565048218 0.68814283609390259 0.97189807891845703
0.31080260872840881 0.68039602041244507 0.96172416210174561
0.5094875693321228 0.66778600215911865 0.93450915813446045
0.68625766038894653 0.68401986360549927 0.92643946409225464
0.86934870481491089 0.68713712692260742 0.96274030208587646
0.97644686698913574 0.68043190240859985 0.96258795261383057
0.073114760220050812 0.85690104961395264 0.98732376098632812
0.16624276340007782 0.85457068681716919 0.98581480979919434
0.27247864007949829 0.85008752346038818 0.98106271028518677
0.4741814136505127 0.82559794187545776 0.96738886833190918
0.65931838750839233 0.83020687103271484 0.96216791868209839
0.871623694896698 0.86149203777313232 0.98023158311843872
0.98979645967483521 0.85592120885848999 0.98220264911651611
0.069924987852573395 0.95716959238052368 0.99373000860214233
0.15877634286880493 0.96094542741775513 0.99484723806381226
0.25322350859642029 0.95728909969329834 0.98732995986938477
0.44231715798377991 0.94047379493713379 0.9756474494934082
0.64042061567306519 0.9457511305809021 0.97509348392486572
0.86858284473419189 0.98307335376739502 0.98663502931594849
0.99774706363677979 0.98904764652252197 0.98610252141952515
