assets/lut/editingcorpw Ivory Elegance.cube
LUT_3D_SIZE 6
DOMAIN_MIN 0.0 0.0 0.0
DOMAIN_MAX 1.0 1.0 1.0
0.140352 0.117037 0.139223
0.291521 0.137752 0.153469
0.506865 0.164175 0.154891
0.743221 0.230252 0.172085
0.947002 0.301903 0.194284
1.000000 0.363073 0.227695
0.219248 0.231443 0.164273
0.296645 0.220455 0.166846
0.502127 0.247603 0.173640
0.731875 0.292888 0.187046
0.940408 0.346884 0.202674
1.000000 0.395044 0.232083
0.343762 0.402612 0.212119
0.399037 0.405886 0.213174
0.496780 0.375022 0.217954
0.713891 0.432539 0.219382
0.926433 0.475585 0.224426
1.000000 0.499980 0.248478
0.457142 0.594067 0.234580
0.502538 0.596977 0.235401
0.595333 0.597241 0.230121
0.699013 0.553349 0.243958
0.914903 0.610741 0.247330
1.000000 0.641736 0.278624
0.576209 0.822397 0.246281
0.609485 0.820902 0.246364
0.700599 0.819188 0.242784
0.830782 0.818808 0.231822
0.938412 0.756644 0.267320
1.000000 0.758236 0.321862
0.712032 0.984741 0.357977
0.736831 0.983575 0.359063
0.820737 0.979730 0.360919
0.924010 0.976715 0.355218
1.000000 0.972924 0.346941
1.000000 0.895201 0.387610
0.142922 0.166525 0.270402
0.273610 0.164556 0.266462
0.477333 0.194530 0.262398
0.701919 0.262333 0.282243
0.923147 0.323034 0.288690
1.000000 0.383288 0.305004
0.204510 0.238607 0.264985
0.287772 0.251892 0.267453
0.469846 0.271912 0.275969
0.699099 0.309236 0.283725
0.919760 0.361408 0.289967
1.000000 0.412444 0.306625
0.305215 0.407119 0.283721
0.376521 0.407421 0.285393
0.483546 0.383146 0.283971
0.694785 0.437997 0.290366
0.913878 0.481724 0.296765
1.000000 0.512007 0.315953
0.429476 0.597560 0.293053
0.478670 0.602011 0.294822
0.584802 0.597409 0.290142
0.690437 0.556763 0.296738
0.906799 0.616310 0.306741
1.000000 0.649774 0.338395
0.554527 0.824049 0.306836
0.589469 0.822697 0.306881
0.693747 0.820952 0.305861
0.823456 0.819565 0.296195
0.933835 0.760531 0.320167
1.000000 0.764978 0.372713
0.700673 0.985565 0.407928
0.725657 0.984476 0.408942
0.817150 0.979935 0.411307
0.919427 0.977051 0.405995
1.000000 0.973498 0.398328
1.000000 0.898918 0.430896
0.000000 0.245475 0.460170
0.236428 0.239963 0.456876
0.460570 0.254587 0.439173
0.677841 0.274927 0.446948
0.903831 0.316156 0.436857
1.000000 0.465479 0.488951
0.194115 0.314360 0.448221
0.278928 0.309791 0.445678
0.456571 0.305304 0.430815
0.672639 0.322283 0.441414
0.891851 0.380358 0.444518
1.000000 0.485761 0.488260
0.284395 0.411805 0.434952
0.333329 0.418036 0.435763
0.470328 0.435461 0.430686
0.661005 0.458870 0.437513
0.883175 0.512614 0.462038
1.000000 0.566944 0.494249
0.315719 0.614438 0.457951
0.365441 0.618210 0.451199
0.538054 0.606681 0.437875
0.667673 0.581396 0.435974
0.882695 0.647340 0.467974
1.000000 0.686528 0.510512
0.455700 0.832324 0.472495
0.500093 0.831778 0.473203
0.643482 0.826707 0.472971
0.792717 0.822897 0.465850
0.914146 0.777207 0.474118
1.000000 0.793523 0.530971
0.653022 0.988690 0.556982
0.678689 0.987707 0.557485
0.775682 0.983264 0.558724
0.900810 0.978436 0.557495
1.000000 0.975808 0.550996
1.000000 0.913695 0.568011
0.000000 0.354937 0.701918
0.031957 0.343223 0.694066
0.431902 0.336867 0.672905
0.650086 0.346799 0.648534
0.868347 0.394276 0.662945
1.000000 0.513243 0.678565
0.000000 0.398375 0.681256
0.190314 0.393518 0.679314
0.434814 0.377196 0.662522
0.646873 0.384381 0.643149
0.861709 0.429759 0.659220
1.000000 0.540343 0.679519
0.190382 0.499838 0.661572
0.269576 0.503680 0.660785
0.448118 0.496647 0.643196
0.639194 0.497535 0.629448
0.855523 0.548888 0.659246
1.000000 0.634713 0.688777
0.320636 0.612144 0.641297
0.362374 0.616377 0.641745
0.483621 0.623622 0.632856
0.640600 0.647080 0.626403
0.853251 0.692409 0.656882
1.000000 0.748011 0.707199
0.326689 0.851157 0.722659
0.374085 0.850572 0.716363
0.513099 0.846093 0.687387
0.729031 0.835909 0.663316
0.880063 0.809719 0.662230
1.000000 0.843686 0.724351
0.590027 0.993029 0.744106
0.609073 0.992667 0.740948
0.703694 0.989495 0.740289
0.857843 0.982538 0.741078
0.988179 0.979993 0.738346
1.000000 0.940898 0.746358
0.000000 0.472346 0.893132
0.000000 0.474090 0.890971
0.382069 0.467318 0.885987
0.622528 0.485721 0.875928
0.829846 0.514575 0.863700
1.000000 0.600574 0.863914
0.000000 0.504897 0.888977
0.103229 0.508132 0.888687
0.399781 0.502276 0.882954
0.625058 0.515581 0.872166
0.828857 0.541308 0.861507
1.000000 0.624300 0.864041
0.000000 0.598104 0.878804
0.215293 0.601340 0.878723
0.448659 0.611039 0.872233
0.635903 0.614023 0.864866
0.827406 0.629159 0.855635
1.000000 0.702705 0.866326
0.268817 0.707868 0.872219
0.321332 0.711240 0.871666
0.459117 0.721024 0.866695
0.646351 0.736164 0.857111
0.830037 0.741500 0.849770
1.000000 0.804514 0.875373
0.422620 0.829803 0.870933
0.451498 0.831492 0.870218
0.550577 0.837833 0.866737
0.692837 0.848494 0.859663
0.845321 0.859373 0.847833
1.000000 0.895273 0.886243
0.591406 0.998547 0.944885
0.612821 0.997993 0.942230
0.689151 0.995695 0.931343
0.800241 0.992133 0.910980
0.940302 0.987233 0.896405
1.000000 0.972699 0.899864
0.449348 0.691890 1.000000
0.493312 0.704371 1.000000
0.585120 0.721462 1.000000
0.703994 0.740066 1.000000
0.841178 0.763705 1.000000
0.975280 0.789822 1.000000
0.456684 0.704756 1.000000
0.499488 0.716462 1.000000
0.603062 0.740765 1.000000
0.713689 0.755620 1.000000
0.845600 0.776005 1.000000
0.976062 0.799234 1.000000
0.449060 0.739992 1.000000
0.493801 0.749867 1.000000
0.633138 0.787034 1.000000
0.745877 0.805181 1.000000
0.861599 0.817262 1.000000
0.979797 0.831870 0.999256
0.423102 0.794076 1.000000
0.452539 0.797941 1.000000
0.561056 0.813229 1.000000
0.775122 0.861509 1.000000
0.882399 0.870500 1.000000
0.986658 0.879045 0.999109
0.563976 0.881755 1.000000
0.584054 0.884061 1.000000
0.658116 0.893237 1.000000
0.769133 0.908613 1.000000
0.904648 0.931050 1.000000
0.995434 0.936876 1.000000
0.714199 0.965606 1.000000
0.726625 0.966662 1.000000
0.774160 0.971014 1.000000
0.849247 0.978803 1.000000
0.931743 0.988910 1.000000
1.000000 1.000000 1.000000
