assets/lut/editingcorp upglow.cube
# Created by: G'MIC (https://gmic.eu)
TITLE "upglow"
# LUT size
LUT_3D_SIZE 7
# Data domain
DOMAIN_MIN 0.0 0.0 0.0
DOMAIN_MAX 1.0 1.0 1.0
# LUT data points
0.015359123237431049 0.023921787738800049 0.029367633163928986
0.1322658360004425 0.041236292570829391 0.024471955373883247
0.33717656135559082 0.077926710247993469 0.025119168683886528
0.5423508882522583 0.11658955365419388 0.033498682081699371
0.69711178541183472 0.15404412150382996 0.052421987056732178
0.82599800825119019 0.17815332114696503 0.066374562680721283
0.91433387994766235 0.16284547746181488 0.060422636568546295
0.017720211297273636 0.12146597355604172 0.11464251577854156
0.11739946156740189 0.13407747447490692 0.085943616926670074
0.35805726051330566 0.16880354285240173 0.06614888459444046
0.57426393032073975 0.20792737603187561 0.062867335975170135
0.71930456161499023 0.24074439704418182 0.074512645602226257
0.84259015321731567 0.26261451840400696 0.082863524556159973
0.92971593141555786 0.25348234176635742 0.082639254629611969
0.034498192369937897 0.26225712895393372 0.20830142498016357
0.086025625467300415 0.28565853834152222 0.18873989582061768
0.35649600625038147 0.32210245728492737 0.17907482385635376
0.60393619537353516 0.35707080364227295 0.13714522123336792
0.75149691104888916 0.37825095653533936 0.12232457846403122
0.87181127071380615 0.39372313022613525 0.11917378753423691
0.95104324817657471 0.37790274620056152 0.11599656939506531
0.029085300862789154 0.43170207738876343 0.32331845164299011
0.074531212449073792 0.44824978709220886 0.30239808559417725
0.30463674664497375 0.48721817135810852 0.31123566627502441
0.59877967834472656 0.51848644018173218 0.27279874682426453
0.76903450489044189 0.53081750869750977 0.20797759294509888
0.89709103107452393 0.54134935140609741 0.17454658448696136
0.97074353694915771 0.52858084440231323 0.15745370090007782
0.083166308701038361 0.58454108238220215 0.38452574610710144
0.15335038304328918 0.59439325332641602 0.36569422483444214
0.29492911696434021 0.61567574739456177 0.36457362771034241
0.59714990854263306 0.65361428260803223 0.36116442084312439
0.76845890283584595 0.66261160373687744 0.28707510232925415
0.90121936798095703 0.66521203517913818 0.22976976633071899
0.98109370470046997 0.66268646717071533 0.19632197916507721
0.15273600816726685 0.70755088329315186 0.38650980591773987
0.23272593319416046 0.72290503978729248 0.3883109986782074
0.34777519106864929 0.74772781133651733 0.39448234438896179
0.61781573295593262 0.77979934215545654 0.35511559247970581
0.77917587757110596 0.78558027744293213 0.30010926723480225
0.88806724548339844 0.78302282094955444 0.25350981950759888
0.9823036789894104 0.78167682886123657 0.21692100167274475
0.20685693621635437 0.82343101501464844 0.35952404141426086
0.31839215755462646 0.84980803728103638 0.37039723992347717
0.46509841084480286 0.8755297064781189 0.36735230684280396
0.66096597909927368 0.89127397537231445 0.31884908676147461
0.79650092124938965 0.89253020286560059 0.29146763682365417
0.90056848526000977 0.89301544427871704 0.26755747199058533
0.98976331949234009 0.89678341150283813 0.24012982845306396
0.013737442903220654 0.02530352957546711 0.08939862996339798
0.11743177473545074 0.041965767741203308 0.089608319103717804
0.34926044940948486 0.081502638757228851 0.089306429028511047
0.56477922201156616 0.11978434771299362 0.090104155242443085
0.71035265922546387 0.15166544914245605 0.098731577396392822
0.82364201545715332 0.16393744945526123 0.10697808116674423
0.90766733884811401 0.14586542546749115 0.10794802010059357
0.013750443235039711 0.12062656134366989 0.20035997033119202
0.10761208832263947 0.13282382488250732 0.15576364099979401
0.35312694311141968 0.1691126823425293 0.13374489545822144
0.58654356002807617 0.20834709703922272 0.12455933541059494
0.72652995586395264 0.23935289680957794 0.12612348794937134
0.83892512321472168 0.25530335307121277 0.12928873300552368
0.91850680112838745 0.23745004832744598 0.1300412118434906
0.030142661184072495 0.25741463899612427 0.30055034160614014
0.070473872125148773 0.27774035930633545 0.28340813517570496
0.32612872123718262 0.32404157519340515 0.26171910762786865
0.59653794765472412 0.36125630140304565 0.21819934248924255
0.74847978353500366 0.37940147519111633 0.1955682635307312
0.86842900514602661 0.39071616530418396 0.1774166077375412
0.94468337297439575 0.3723333477973938 0.16912499070167542
0.025379300117492676 0.43006438016891479 0.39753410220146179
0.053954269737005234 0.44723477959632874 0.38143369555473328
0.2493831068277359 0.48251751065254211 0.37675243616104126
0.58643823862075806 0.52239125967025757 0.36567634344100952
0.76257902383804321 0.53331178426742554 0.30631628632545471
0.89789777994155884 0.54116171598434448 0.2504604160785675
0.97617405652999878 0.52854740619659424 0.21832297742366791
0.091537594795227051 0.58397561311721802 0.46039190888404846
0.13524003326892853 0.59036862850189209 0.44231539964675903
0.25052997469902039 0.60881978273391724 0.43462368845939636
0.57120102643966675 0.65428406000137329 0.44941490888595581
0.76266825199127197 0.66797894239425659 0.39926359057426453
0.90390646457672119 0.67041230201721191 0.33167406916618347
0.98972582817077637 0.66614753007888794 0.27902209758758545
0.16022485494613647 0.70771366357803345 0.46474942564964294
0.21740835905075073 0.71910363435745239 0.46499067544937134
0.30821582674980164 0.7398231029510498 0.4655269980430603
0.59556835889816284 0.78243827819824219 0.46228721737861633
0.79016321897506714 0.79704111814498901 0.42450615763664246
0.89733302593231201 0.79712718725204468 0.37757080793380737
0.98622465133666992 0.79359966516494751 0.32158845663070679
0.20195016264915466 0.81805062294006348 0.43221035599708557
0.320066899061203 0.84832197427749634 0.45233479142189026
0.50395256280899048 0.88650083541870117 0.47073933482170105
0.67362827062606812 0.90830832719802856 0.45591452717781067
0.81766080856323242 0.91287517547607422 0.42437469959259033
0.91767454147338867 0.91160821914672852 0.39486733078956604
0.99450504779815674 0.91273695230484009 0.36090439558029175
0.022374650463461876 0.03035532683134079 0.14444997906684875
0.10789219290018082 0.045756950974464417 0.15088494122028351
0.30251580476760864 0.080769002437591553 0.16628462076187134
0.54915934801101685 0.12224825471639633 0.16808657348155975
0.71059221029281616 0.15035520493984222 0.17184706032276154
0.82255607843399048 0.15502995252609253 0.17099374532699585
0.90267652273178101 0.1316441148519516 0.16627193987369537
0.0072964238934218884 0.1142423003911972 0.28955310583114624
0.090487763285636902 0.13121111690998077 0.23867437243461609
0.32283127307891846 0.17409807443618774 0.22212792932987213
0.57191723585128784 0.21574214100837708 0.21323731541633606
0.72325795888900757 0.24111750721931458 0.20904262363910675
0.83600354194641113 0.24776402115821838 0.20441347360610962
0.91465622186660767 0.22526778280735016 0.1936526745557785
0.022691464051604271 0.25465896725654602 0.38843294978141785
0.06572965532541275 0.26953136920928955 0.37359726428985596
0.30178335309028625 0.32784616947174072 0.35291412472724915
0.57935172319412231 0.36926436424255371 0.32875713706016541
0.73901200294494629 0.384503573179245 0.30317485332489014
0.86113983392715454 0.3851487934589386 0.27438792586326599
0.9397580623626709 0.3615078330039978 0.24201744794845581
0.023268740624189377 0.4246523380279541 0.47100478410720825
0.040257740765810013 0.44246959686279297 0.46812739968299866
0.16919158399105072 0.47215846180915833 0.45242321491241455
0.5665544867515564 0.52695244550704956 0.45614132285118103
0.7504463791847229 0.54108303785324097 0.42357304692268372
0.88992965221405029 0.53914397954940796 0.36786246299743652
0.97244274616241455 0.52168935537338257 0.30960267782211304
0.097328543663024902 0.57943350076675415 0.53686922788619995
0.14208683371543884 0.58653885126113892 0.52865415811538696
0.21336741745471954 0.59685266017913818 0.50482213497161865
0.5393255352973938 0.65464890003204346 0.5229303240776062
0.75381815433502197 0.68021661043167114 0.50371670722961426
0.89850378036499023 0.67849516868591309 0.4510878324508667
0.98952001333236694 0.66801983118057251 0.39002498984336853
0.16264134645462036 0.7018926739692688 0.53717041015625
0.21639905869960785 0.71351736783981323 0.54301518201828003
0.30152806639671326 0.73144245147705078 0.53773504495620728
0.56902933120727539 0.78187954425811768 0.55009609460830688
0.78190940618515015 0.8049771785736084 0.52766060829162598
0.89800930023193359 0.80874210596084595 0.50344282388687134
0.99002015590667725 0.80436474084854126 0.45547100901603699
0.20229193568229675 0.81274247169494629 0.50299233198165894
0.30222752690315247 0.848549485206604 0.53603506088256836
0.47604274749755859 0.88817042112350464 0.56520074605941772
0.66240006685256958 0.91895908117294312 0.5739058256149292
0.81228691339492798 0.92559701204299927 0.54279738664627075
0.91354817152023315 0.9270508885383606 0.52550405263900757
0.99461841583251953 0.9275241494178772 0.50428539514541626
0.034612841904163361 0.034176800400018692 0.21006357669830322
0.11537154018878937 0.053347345441579819 0.22071923315525055
0.30015677213668823 0.085906073451042175 0.24634340405464172
0.53365147113800049 0.12380487471818924 0.26247459650039673
0.70188826322555542 0.14909319579601288 0.26139628887176514
0.81972044706344604 0.14992882311344147 0.24898792803287506
0.89509886503219604 0.11969798803329468 0.24284406006336212
0.017057681456208229 0.11186084896326065 0.34745028614997864
0.090762749314308167 0.13290296494960785 0.32011643052101135
0.2836931049823761 0.17624111473560333 0.31910985708236694
0.53297930955886841 0.21632020175457001 0.33210292458534241
0.71212995052337646 0.24397385120391846 0.31172683835029602
0.83198422193527222 0.2402053028345108 0.29316022992134094
0.90908253192901611 0.20851413905620575 0.27443069219589233
0.019697526469826698 0.24847652018070221 0.46823880076408386
0.059795007109642029 0.26289519667625427 0.4636894166469574
0.26408475637435913 0.32690390944480896 0.43616637587547302
0.54193019866943359 0.38174998760223389 0.43804886937141418
0.72694462537765503 0.40184870362281799 0.41932371258735657
0.85238325595855713 0.3853641152381897 0.38430720567703247
0.93013787269592285 0.33949765563011169 0.33869001269340515
0.02563159354031086 0.41837188601493835 0.53946983814239502
0.055454373359680176 0.43947884440422058 0.55171269178390503
0.17069484293460846 0.46882739663124084 0.53526103496551514
0.55146312713623047 0.53440290689468384 0.53716069459915161
0.74371880292892456 0.5550035834312439 0.52599018812179565
0.87855011224746704 0.5438387393951416 0.48213982582092285
0.95937037467956543 0.50525027513504028 0.42563411593437195
0.090648308396339417 0.57151389122009277 0.60349017381668091
0.15443214774131775 0.58684688806533813 0.60812234878540039
0.19296182692050934 0.59000039100646973 0.58739578723907471
0.49947303533554077 0.65171456336975098 0.60111904144287109
0.74518281221389771 0.68974775075912476 0.60181742906570435
0.8894953727722168 0.68625009059906006 0.56245976686477661
0.98107576370239258 0.67186826467514038 0.50890791416168213
0.15555399656295776 0.69798606634140015 0.61394608020782471
0.21709531545639038 0.71125024557113647 0.62595707178115845
0.30392727255821228 0.73005372285842896 0.62408053874969482
0.55396175384521484 0.78327888250350952 0.63894182443618774
0.76598966121673584 0.81441891193389893 0.63624608516693115
0.89868193864822388 0.81882524490356445 0.61212468147277832
0.9884982705116272 0.81767839193344116 0.58183377981185913
0.20334620773792267 0.8129953145980835 0.5902591347694397
0.29695037007331848 0.84753072261810303 0.62255716323852539
0.46855506300926208 0.88632297515869141 0.65266519784927368
0.6562085747718811 0.92064368724822998 0.66683745384216309
0.80407059192657471 0.93500649929046631 0.65495139360427856
0.91370117664337158 0.93871957063674927 0.64701217412948608
0.99375373125076294 0.94114196300506592 0.64649790525436401
0.048807494342327118 0.039295420050621033 0.28940942883491516
0.14296199381351471 0.060044143348932266 0.30253967642784119
0.32901665568351746 0.092160336673259735 0.32437068223953247
0.5303834080696106 0.12680326402187347 0.35438364744186401
0.67891407012939453 0.15248437225818634 0.37291571497917175
0.79542887210845947 0.14784382283687592 0.36037448048591614
0.87457555532455444 0.11075104027986526 0.34366995096206665
0.028300132602453232 0.11779060959815979 0.40443485975265503
0.11116268485784531 0.1437603086233139 0.39359119534492493
0.29593899846076965 0.18197238445281982 0.39949321746826172
0.51610362529754639 0.22497524321079254 0.42679253220558167
0.68033444881439209 0.25382888317108154 0.43237614631652832
0.81193697452545166 0.24472326040267944 0.4043603241443634
0.89168822765350342 0.19596278667449951 0.3727932870388031
0.020254412665963173 0.24710249900817871 0.52321046590805054
0.071449548006057739 0.26910924911499023 0.52245980501174927
0.25549772381782532 0.33289942145347595 0.51574504375457764
0.51649481058120728 0.39151909947395325 0.5261993408203125
0.69732826948165894 0.41236597299575806 0.52625292539596558
0.83780378103256226 0.3889826238155365 0.48454594612121582
0.91654413938522339 0.32505044341087341 0.43602988123893738
0.029581286013126373 0.41512104868888855 0.60786235332489014
0.064408652484416962 0.43357488512992859 0.62557309865951538
0.16162693500518799 0.45233848690986633 0.60879075527191162
0.54292953014373779 0.53618770837783813 0.61178654432296753
0.7237589955329895 0.56216537952423096 0.61674660444259644
0.86431145668029785 0.55027478933334351 0.58556962013244629
0.94894862174987793 0.50385582447052002 0.53781914710998535
0.087639182806015015 0.56657344102859497 0.67697221040725708
0.1444636732339859 0.57803761959075928 0.68103998899459839
0.19344264268875122 0.58477109670639038 0.66127753257751465
0.44874733686447144 0.64318329095840454 0.67534047365188599
0.73933911323547363 0.6950150728225708 0.68970578908920288
0.87888443470001221 0.69685256481170654 0.6722719669342041
0.9718252420425415 0.67896354198455811 0.63275688886642456
0.1535070389509201 0.69888764619827271 0.69791716337203979
0.21635919809341431 0.70601737499237061 0.7043842077255249
0.27000218629837036 0.72178912162780762 0.70313620567321777
0.4617612361907959 0.77136540412902832 0.71910756826400757
0.74845230579376221 0.82140499353408813 0.73776704072952271
0.88727909326553345 0.83271521329879761 0.72909557819366455
0.98562711477279663 0.82888531684875488 0.70612567663192749
0.20487189292907715 0.81186491250991821 0.68409872055053711
0.30090758204460144 0.84118151664733887 0.70314085483551025
0.44901293516159058 0.87935954332351685 0.73354905843734741
0.63186228275299072 0.91773730516433716 0.75828999280929565
0.79352730512619019 0.94290632009506226 0.76918536424636841
0.90536123514175415 0.95160520076751709 0.76749658584594727
0.99405395984649658 0.95475566387176514 0.7620011568069458
0.075315617024898529 0.047297369688749313 0.36262157559394836
0.17695575952529907 0.067882776260375977 0.38390883803367615
0.36390775442123413 0.095833979547023773 0.40176096558570862
0.53544169664382935 0.12729640305042267 0.43194681406021118
0.66633909940719604 0.15488001704216003 0.46242138743400574
0.77326422929763794 0.15003940463066101 0.46594139933586121
0.8495861291885376 0.11083414405584335 0.45530444383621216
0.05234195664525032 0.13408923149108887 0.45696890354156494
0.13332934677600861 0.15304422378540039 0.46201339364051819
0.3191673755645752 0.19374710321426392 0.47531989216804504
0.52213966846466064 0.24096360802650452 0.50039684772491455
0.67123258113861084 0.274078369140625 0.52575099468231201
0.79357641935348511 0.26321825385093689 0.51954752206802368
0.87159496545791626 0.20427726209163666 0.49100455641746521
0.032892294228076935 0.25767475366592407 0.57295840978622437
0.090072602033615112 0.28554067015647888 0.57492494583129883
0.28363871574401855 0.35497739911079407 0.58100080490112305
0.52082568407058716 0.40405267477035522 0.59505653381347656
0.68428128957748413 0.42985516786575317 0.61321437358856201
0.82123774290084839 0.41093993186950684 0.60051614046096802
0.89903336763381958 0.34032136201858521 0.56130301952362061
0.030990570783615112 0.41391381621360779 0.66985869407653809
0.071874342858791351 0.42603862285614014 0.6813427209854126
0.2055705338716507 0.46516415476799011 0.67157697677612305
0.51978975534439087 0.54009562730789185 0.68498891592025757
0.69257360696792603 0.56828242540359497 0.69992220401763916
0.84531098604202271 0.55932009220123291 0.68905270099639893
0.93716078996658325 0.51888471841812134 0.66067230701446533
0.081176698207855225 0.55938243865966797 0.7503354549407959
0.1351858377456665 0.56867820024490356 0.75341320037841797
0.17544040083885193 0.57027995586395264 0.73727363348007202
0.41369238495826721 0.63604438304901123 0.75451618432998657
0.71743202209472656 0.69638562202453613 0.7767716646194458
0.86097085475921631 0.70447337627410889 0.77708351612091064
0.95960128307342529 0.6915358304977417 0.76164340972900391
0.14655794203281403 0.69172388315200806 0.78080540895462036
0.20126718282699585 0.69604969024658203 0.78124654293060303
0.2495042085647583 0.71239811182022095 0.7826116681098938
0.39010351896286011 0.75715738534927368 0.80418902635574341
0.70903956890106201 0.8152083158493042 0.82922548055648804
0.86935716867446899 0.83839219808578491 0.83821964263916016
0.9761156439781189 0.83786416053771973 0.8354073166847229
0.19844789803028107 0.80617833137512207 0.77711009979248047
0.27342090010643005 0.83205121755599976 0.78944295644760132
0.38902056217193604 0.87130224704742432 0.81562429666519165
0.59360712766647339 0.90939676761627197 0.84488070011138916
0.7797057032585144 0.94175869226455688 0.86261707544326782
0.89998346567153931 0.95983493328094482 0.8724062442779541
0.99178463220596313 0.96563577651977539 0.87310570478439331
0.11214945465326309 0.051516678184270859 0.43542367219924927
0.23662580549716949 0.075655095279216766 0.45691019296646118
0.40722030401229858 0.1029217466711998 0.48101478815078735
0.54924821853637695 0.12861551344394684 0.50543206930160522
0.66679602861404419 0.15413518249988556 0.53263098001480103
0.76463562250137329 0.15091197192668915 0.55037808418273926
0.83180004358291626 0.11673818528652191 0.55983787775039673
0.089066267013549805 0.15109682083129883 0.51750600337982178
0.18543386459350586 0.16985706984996796 0.52597475051879883
0.36812120676040649 0.20676092803478241 0.54660177230834961
0.53679484128952026 0.24800959229469299 0.56999379396438599
0.67208009958267212 0.27781540155410767 0.59530293941497803
0.78580999374389648 0.26500201225280762 0.60271662473678589
0.86225545406341553 0.2181825190782547 0.59749513864517212
0.078132927417755127 0.28925439715385437 0.62669450044631958
0.13430170714855194 0.31515330076217651 0.62944382429122925
0.32018092274665833 0.36516401171684265 0.64037245512008667
0.52695208787918091 0.40744960308074951 0.65920126438140869
0.67959767580032349 0.43082728981971741 0.68355822563171387
0.8121490478515625 0.42270633578300476 0.69323718547821045
0.89574718475341797 0.37396204471588135 0.68103265762329102
0.028861850500106812 0.4096170961856842 0.72086447477340698
0.080098830163478851 0.42615732550621033 0.72892040014266968
0.24853160977363586 0.48054784536361694 0.73252785205841064
0.51501220464706421 0.53998684883117676 0.75196516513824463
0.68506360054016113 0.56701672077178955 0.77688455581665039
0.82901680469512939 0.57321763038635254 0.79179829359054565
0.92324650287628174 0.54787600040435791 0.78597813844680786
0.069715090095996857 0.54434490203857422 0.80659633874893188
0.1150757297873497 0.54691272974014282 0.80937057733535767
0.18191841244697571 0.55606669187545776 0.80396980047225952
0.42114216089248657 0.62152606248855591 0.82809233665466309
0.6955534815788269 0.681671142578125 0.85998630523681641
0.84595686197280884 0.70532679557800293 0.87776994705200195
0.94248515367507935 0.70921087265014648 0.88293802738189697
0.13629965484142303 0.67297661304473877 0.84679758548736572
0.18488086760044098 0.67803621292114258 0.85178017616271973
0.24331697821617126 0.68960118293762207 0.85905951261520386
0.35079801082611084 0.72862088680267334 0.87943750619888306
0.66074651479721069 0.79434502124786377 0.91259413957595825
0.85738754272460938 0.83175796270370483 0.93378007411956787
0.96591371297836304 0.84696221351623535 0.94329440593719482
0.19102033972740173 0.799957275390625 0.86248201131820679
0.25473040342330933 0.81774944067001343 0.87953972816467285
0.33330801129341125 0.85570567846298218 0.90067869424819946
0.48556104302406311 0.89327669143676758 0.92495906352996826
0.70811170339584351 0.92820471525192261 0.94938498735427856
0.87073439359664917 0.95996755361557007 0.96674883365631104
0.98479074239730835 0.97260594367980957 0.9773833155632019
