assets/lut/editingcorpw Romantic Rouge.cube
LUT_3D_SIZE 16
DOMAIN_MIN 0.0 0.0 0.0
DOMAIN_MAX 1.0 1.0 1.0
0.098039 0.062745 0.074510
0.132549 0.066667 0.074510
0.177255 0.070588 0.080784
0.224314 0.080000 0.080784
0.264314 0.083922 0.090981
0.309804 0.090196 0.094118
0.351372 0.098824 0.108235
0.389804 0.110588 0.115294
0.433726 0.123137 0.127843
0.479216 0.141961 0.134118
0.521569 0.156863 0.137255
0.573334 0.175686 0.161569
0.623529 0.191372 0.178040
0.683137 0.216471 0.187451
0.749019 0.240000 0.201569
0.819608 0.270588 0.231373
0.109804 0.106667 0.074510
0.142506 0.106428 0.077953
0.180392 0.101176 0.089412
0.221856 0.105202 0.094118
0.262745 0.109804 0.099608
0.306667 0.113726 0.102745
0.353487 0.119455 0.110349
0.392941 0.130196 0.123137
0.436183 0.138928 0.130301
0.480784 0.153725 0.141961
0.523137 0.166275 0.149020
0.572856 0.186905 0.170263
0.625098 0.207843 0.184314
0.683608 0.227556 0.194196
0.745098 0.250980 0.212549
0.825098 0.280000 0.220392
0.121569 0.150588 0.085490
0.155294 0.141961 0.087059
0.193793 0.145030 0.086342
0.229804 0.143529 0.096470
0.266771 0.141961 0.106457
0.310588 0.139608 0.109019
0.353726 0.152941 0.120784
0.393725 0.157714 0.125849
0.435294 0.167059 0.138824
0.482144 0.180288 0.152052
0.525490 0.188236 0.157647
0.576470 0.206274 0.175686
0.625815 0.225524 0.184112
0.687059 0.243922 0.193726
0.750954 0.269908 0.205961
0.819608 0.293333 0.236863
0.149804 0.197647 0.094902
0.173229 0.190797 0.096261
0.200784 0.193725 0.096471
0.240852 0.192448 0.103820
0.287843 0.189019 0.111372
0.316863 0.186667 0.130980
0.355503 0.189019 0.131085
0.398431 0.194510 0.141960
0.441501 0.199575 0.151305
0.482353 0.210981 0.162353
0.528628 0.225883 0.167058
0.577150 0.236078 0.183529
0.628235 0.253333 0.198431
0.685423 0.269804 0.207418
0.752941 0.290980 0.222745
0.822745 0.318432 0.246275
0.178823 0.232941 0.110588
0.181961 0.234509 0.112941
0.218928 0.237176 0.111687
0.250980 0.234509 0.118432
0.290980 0.234270 0.117886
0.330196 0.236078 0.128627
0.369412 0.231373 0.142745
0.402928 0.235189 0.151268
0.440784 0.240785 0.160000
0.486820 0.248082 0.175208
0.527059 0.258039 0.181177
0.578823 0.275294 0.192941
0.629019 0.289202 0.202248
0.687059 0.306667 0.207843
0.752090 0.325968 0.222678
0.824314 0.352156 0.249412
0.203922 0.274510 0.125490
0.214902 0.283922 0.138039
0.232157 0.277647 0.137255
0.260392 0.280784 0.137255
0.294902 0.282353 0.136470
0.337255 0.282353 0.145098
0.376471 0.283922 0.154510
0.413333 0.279215 0.157647
0.454118 0.285491 0.176470
0.491765 0.289412 0.181961
0.533333 0.301961 0.188235
0.578823 0.314510 0.202353
0.629804 0.330981 0.210196
0.689412 0.346667 0.229020
0.752157 0.368627 0.236863
0.823529 0.392157 0.262745
0.225882 0.327058 0.146667
0.235600 0.328627 0.149565
0.251765 0.330196 0.148235
0.278850 0.327268 0.153150
0.310588 0.330196 0.158431
0.345882 0.330980 0.156863
0.381655 0.330980 0.156863
0.421961 0.335686 0.161569
0.459817 0.336575 0.175007
0.498824 0.340392 0.184314
0.538039 0.349020 0.207059
0.584553 0.357647 0.210980
0.636079 0.374902 0.224314
0.695686 0.389229 0.237072
0.763137 0.412549 0.254902
0.835294 0.436079 0.265098
0.241569 0.379608 0.163922
0.256471 0.380392 0.169412
0.262678 0.382387 0.157445
0.294118 0.374118 0.163921
0.317438 0.383530 0.170771
0.347451 0.386667 0.172549
0.392157 0.387451 0.170196
0.429087 0.393793 0.176045
0.472157 0.393725 0.184314
0.508026 0.399216 0.196392
0.552941 0.400000 0.217255
0.593726 0.409412 0.218823
0.641569 0.418039 0.235294
0.697255 0.438431 0.250980
0.764497 0.460288 0.265935
0.832942 0.480000 0.300392
0.257255 0.436078 0.173334
0.257778 0.436392 0.171398
0.286275 0.435294 0.178039
0.299967 0.438140 0.180034
0.327059 0.440000 0.181961
0.363137 0.440000 0.181961
0.396183 0.443242 0.182955
0.433726 0.444706 0.185098
0.473367 0.450622 0.191014
0.519215 0.455686 0.198431
0.559215 0.462745 0.207843
0.608732 0.465882 0.224209
0.659608 0.476863 0.237647
0.710588 0.495753 0.259316
0.770980 0.509804 0.280000
0.845490 0.530196 0.312941
0.265882 0.501961 0.184314
0.272941 0.505098 0.188235
0.291190 0.499817 0.190902
0.309804 0.501177 0.191373
0.336777 0.497494 0.190349
0.363921 0.505098 0.189020
0.403922 0.509804 0.193725
0.440994 0.511373 0.201150
0.484706 0.514510 0.201569
0.525490 0.516863 0.207058
0.574118 0.519216 0.211765
0.625883 0.530980 0.226667
0.676549 0.538353 0.237961
0.727843 0.552941 0.265098
0.791851 0.567843 0.284945
0.855686 0.588235 0.326275
0.274510 0.568627 0.203922
0.275294 0.570980 0.190588
0.293333 0.568627 0.199216
0.309020 0.581177 0.205490
0.338824 0.571765 0.203922
0.372549 0.572549 0.207843
0.410196 0.572549 0.212549
0.447843 0.580392 0.218824
0.494902 0.583530 0.218824
0.539608 0.590588 0.220392
0.588235 0.592157 0.223529
0.630588 0.599216 0.228235
0.687843 0.608627 0.247843
0.744314 0.618039 0.263530
0.807059 0.632157 0.291765
0.886275 0.647059 0.333333
0.271373 0.644706 0.218039
0.279694 0.646820 0.210674
0.297255 0.645490 0.214902
0.310902 0.646641 0.216680
0.341961 0.647059 0.216470
0.376471 0.646275 0.218823
0.415141 0.650435 0.222984
0.453333 0.655686 0.228235
0.492078 0.660183 0.229124
0.543530 0.664314 0.235294
0.590588 0.667451 0.239216
0.644400 0.670894 0.243309
0.699608 0.676078 0.256471
0.759686 0.683922 0.260497
0.826667 0.697255 0.301176
0.897255 0.713726 0.342745
0.262745 0.722353 0.229804
0.266667 0.725490 0.231373
0.285132 0.727484 0.242846
0.306667 0.727843 0.236863
0.341176 0.729412 0.239006
0.371765 0.734902 0.241569
0.413333 0.734118 0.243137
0.452907 0.731765 0.248627
0.504314 0.732549 0.253333
0.549804 0.735007 0.257255
0.601569 0.743529 0.259608
0.654902 0.746667 0.272941
0.712515 0.754644 0.285625
0.778039 0.756079 0.292549
0.843817 0.769516 0.311373
0.912157 0.784314 0.338823
0.253333 0.807059 0.267451
0.272523 0.806588 0.264575
0.289412 0.810196 0.271372
0.305389 0.810129 0.266241
0.341176 0.812549 0.267451
0.374902 0.813333 0.269804
0.424994 0.813438 0.280314
0.468235 0.814117 0.283138
0.521569 0.816829 0.285916
0.568628 0.821961 0.296471
0.623529 0.825098 0.303529
0.679791 0.832052 0.315085
0.738824 0.832941 0.323137
0.796863 0.834151 0.331339
0.860392 0.840784 0.345882
0.937255 0.850196 0.379608
0.283137 0.889412 0.326274
0.294118 0.894118 0.321568
0.298719 0.895843 0.318641
0.324706 0.894902 0.327843
0.356079 0.895141 0.325490
0.396078 0.897255 0.330980
0.440785 0.898823 0.337255
0.486588 0.900392 0.342536
0.538824 0.898823 0.342745
0.596624 0.905098 0.356624
0.649412 0.909020 0.363137
0.708235 0.908235 0.374902
0.770196 0.909804 0.388026
0.828235 0.911372 0.396079
0.888628 0.914510 0.417188
0.952941 0.920785 0.431373
0.337255 0.976471 0.415686
0.351373 0.974902 0.405490
0.365490 0.973333 0.403922
0.381177 0.976471 0.407059
0.415686 0.974902 0.409412
0.443137 0.972549 0.407843
0.499607 0.978824 0.420392
0.538823 0.981176 0.432157
0.582745 0.984314 0.435294
0.635294 0.983529 0.441568
0.698039 0.984314 0.454902
0.756078 0.984314 0.471373
0.814902 0.989804 0.491765
0.871372 0.996078 0.507451
0.931765 0.996078 0.526275
0.992157 1.000000 0.560784
0.101176 0.067451 0.106667
0.134424 0.070110 0.107757
0.178824 0.069804 0.106667
0.217568 0.077856 0.103948
0.262745 0.089412 0.112157
0.311372 0.100392 0.127059
0.351850 0.107690 0.134596
0.393725 0.123921 0.147451
0.434510 0.132654 0.152836
0.476079 0.151373 0.156862
0.519216 0.167843 0.164706
0.571219 0.179608 0.180938
0.618039 0.199216 0.190588
0.679896 0.216471 0.200000
0.747451 0.241568 0.214902
0.814902 0.269020 0.228235
0.113315 0.113554 0.108370
0.136518 0.106810 0.112846
0.175791 0.109326 0.115294
0.225691 0.110031 0.122163
0.267997 0.117647 0.125318
0.306906 0.120478 0.129105
0.353601 0.128704 0.134883
0.393725 0.142506 0.143701
0.436276 0.154166 0.156506
0.475772 0.160478 0.164467
0.526820 0.175447 0.174424
0.574070 0.193936 0.184601
0.625643 0.209411 0.194988
0.680637 0.229959 0.207888
0.748781 0.256231 0.224381
0.823903 0.276079 0.237169
0.126275 0.148235 0.107451
0.159111 0.145815 0.113247
0.188952 0.151081 0.123989
0.232627 0.145673 0.124601
0.266092 0.146876 0.131190
0.308235 0.150588 0.136470
0.351850 0.157647 0.141961
0.395294 0.165849 0.150879
0.436758 0.174222 0.158641
0.479320 0.182170 0.167059
0.522353 0.199216 0.178039
0.569345 0.210674 0.184553
0.620683 0.229871 0.199933
0.678745 0.247164 0.208627
0.747242 0.269909 0.221856
0.816471 0.296470 0.246274
0.155608 0.189699 0.124497
0.178814 0.189414 0.130037
0.209987 0.191372 0.129987
0.247092 0.188531 0.129449
0.285386 0.189019 0.134327
0.310431 0.187556 0.146771
0.352626 0.189854 0.153025
0.394615 0.199006 0.161255
0.436141 0.206003 0.166679
0.477752 0.217150 0.176261
0.527948 0.224523 0.182745
0.577549 0.239434 0.197285
0.631373 0.256471 0.205700
0.685404 0.274214 0.213158
0.750588 0.297255 0.227242
0.821177 0.323817 0.249411
0.189020 0.230588 0.137255
0.198671 0.236930 0.135447
0.219242 0.234614 0.134536
0.250876 0.233255 0.140810
0.294424 0.236317 0.140086
0.329412 0.233726 0.150588
0.366514 0.235055 0.160478
0.400784 0.235294 0.171451
0.437752 0.243817 0.178144
0.480306 0.252549 0.185950
0.530980 0.261176 0.196863
0.578584 0.273248 0.204161
0.628235 0.289307 0.209516
0.690301 0.308340 0.225203
0.751918 0.327298 0.238670
0.823529 0.352941 0.256471
0.204706 0.273725 0.150588
0.221177 0.280784 0.149804
0.241568 0.278431 0.155294
0.268915 0.280209 0.159111
0.301961 0.280000 0.160000
0.339608 0.280784 0.163921
0.374051 0.284467 0.168867
0.414118 0.283922 0.175686
0.444601 0.287268 0.190275
0.486275 0.293333 0.194510
0.530980 0.302745 0.203137
0.579608 0.311612 0.212004
0.632941 0.328627 0.225098
0.692340 0.342745 0.234981
0.756078 0.366275 0.249412
0.824314 0.390588 0.267451
0.227384 0.324945 0.162592
0.236815 0.329173 0.164677
0.252482 0.328015 0.164639
0.276751 0.330028 0.163351
0.311851 0.328627 0.170980
0.345882 0.328866 0.170741
0.381702 0.332903 0.171315
0.421416 0.333879 0.180631
0.464067 0.335036 0.186448
0.504142 0.338584 0.200000
0.535208 0.343701 0.217628
0.582745 0.358670 0.222793
0.636385 0.374118 0.233352
0.694138 0.390370 0.243019
0.765490 0.410980 0.266428
0.836624 0.432635 0.284228
0.245490 0.378039 0.172549
0.252960 0.380392 0.177494
0.269871 0.379608 0.176247
0.288523 0.382536 0.181543
0.316967 0.380287 0.181752
0.349804 0.383530 0.180392
0.390282 0.385643 0.187212
0.429804 0.387093 0.188952
0.468340 0.391268 0.190902
0.506562 0.395294 0.201307
0.553725 0.399216 0.218039
0.595294 0.409957 0.229498
0.645557 0.421961 0.248695
0.700392 0.439320 0.263634
0.768314 0.458144 0.282405
0.838431 0.482353 0.298039
0.252653 0.438118 0.187556
0.267469 0.436947 0.192330
0.283242 0.436863 0.192523
0.303113 0.436500 0.189971
0.326797 0.438327 0.191163
0.360104 0.439320 0.190013
0.397282 0.440278 0.194644
0.435399 0.442562 0.202039
0.472727 0.449624 0.198723
0.518222 0.451555 0.205804
0.560000 0.458824 0.215111
0.605595 0.468026 0.231477
0.654118 0.477752 0.248628
0.709525 0.494374 0.262146
0.774798 0.511477 0.287059
0.848732 0.532340 0.316183
0.266667 0.498823 0.194510
0.276317 0.501416 0.200239
0.286274 0.501386 0.199111
0.309386 0.501856 0.200680
0.338039 0.504553 0.204706
0.364706 0.505882 0.202353
0.398431 0.506189 0.203683
0.440785 0.509334 0.210091
0.483817 0.513621 0.216366
0.522898 0.515055 0.218039
0.571765 0.519216 0.222745
0.618039 0.529957 0.230282
0.671843 0.539817 0.246954
0.724915 0.552157 0.272941
0.790349 0.569957 0.297800
0.854118 0.589804 0.323137
0.270588 0.567059 0.204706
0.279216 0.569718 0.207776
0.283921 0.571765 0.206274
0.315294 0.570876 0.217255
0.343530 0.570980 0.210981
0.373333 0.573333 0.212549
0.407298 0.573812 0.220938
0.446275 0.578824 0.222745
0.487739 0.583530 0.225673
0.534902 0.589804 0.229020
0.578824 0.592157 0.230588
0.630588 0.597341 0.233419
0.686274 0.605491 0.250980
0.744993 0.618719 0.267555
0.804706 0.630588 0.296470
0.868235 0.650980 0.332549
0.266121 0.641023 0.218823
0.277934 0.645844 0.227384
0.286820 0.646275 0.220086
0.311662 0.647103 0.222065
0.337494 0.646753 0.225576
0.369957 0.650980 0.229020
0.406752 0.654615 0.229259
0.449106 0.652549 0.235055
0.493749 0.658614 0.242534
0.544552 0.661722 0.241636
0.590588 0.665883 0.247059
0.641425 0.670990 0.253381
0.694596 0.675533 0.257494
0.762815 0.688523 0.278951
0.827929 0.698995 0.301110
0.898585 0.714816 0.346667
0.259608 0.727843 0.240784
0.269804 0.727671 0.246275
0.284347 0.722711 0.245916
0.310588 0.726274 0.244706
0.337934 0.727163 0.249412
0.374902 0.730196 0.250196
0.412855 0.732788 0.253879
0.454476 0.733266 0.260818
0.501961 0.737830 0.261176
0.549595 0.741177 0.267451
0.602353 0.742745 0.271372
0.658039 0.748235 0.277169
0.717647 0.750588 0.287552
0.774797 0.754510 0.294118
0.843817 0.768628 0.320994
0.911372 0.781961 0.351373
0.254902 0.804706 0.277072
0.270119 0.805540 0.275501
0.292811 0.808418 0.281255
0.309850 0.811702 0.280831
0.339713 0.810980 0.280785
0.376680 0.809516 0.285595
0.419012 0.816438 0.288913
0.466771 0.815791 0.295686
0.511987 0.818081 0.293266
0.565490 0.821177 0.302850
0.624104 0.823634 0.313725
0.677132 0.826978 0.317257
0.737935 0.831373 0.329412
0.799066 0.832599 0.337020
0.863529 0.836758 0.351477
0.938039 0.851190 0.381856
0.279216 0.890981 0.331765
0.287365 0.893095 0.330876
0.302431 0.891190 0.328732
0.326170 0.893229 0.330980
0.355839 0.893572 0.332855
0.401569 0.897255 0.340392
0.441808 0.895447 0.344075
0.488052 0.895686 0.347556
0.538039 0.898824 0.354301
0.594271 0.900392 0.360000
0.647843 0.903529 0.374118
0.709804 0.906667 0.386666
0.769412 0.909124 0.395399
0.825882 0.909804 0.403922
0.892310 0.916318 0.426906
0.955294 0.921569 0.435294
0.334902 0.978824 0.407843
0.343223 0.978585 0.405729
0.361569 0.978824 0.407059
0.386667 0.975687 0.413333
0.414117 0.976471 0.418823
0.450980 0.978039 0.420392
0.488627 0.980392 0.423529
0.535686 0.981177 0.432942
0.589019 0.979608 0.442353
0.639216 0.982745 0.451765
0.698039 0.984314 0.462745
0.750588 0.987996 0.474203
0.811764 0.989019 0.491765
0.873830 0.994405 0.515294
0.934902 0.995294 0.537255
0.990588 1.000000 0.563137
0.101961 0.065883 0.139608
0.133333 0.073726 0.144314
0.180101 0.071372 0.140818
0.221961 0.078431 0.141176
0.268235 0.084601 0.146666
0.309804 0.101177 0.151373
0.354510 0.114510 0.158431
0.393300 0.132190 0.167059
0.435294 0.143529 0.175686
0.480000 0.154615 0.178928
0.525490 0.176471 0.193726
0.574902 0.185098 0.202353
0.623821 0.202353 0.212482
0.687843 0.221961 0.227451
0.745307 0.241568 0.232941
0.817255 0.264314 0.256471
0.116078 0.103529 0.138823
0.140870 0.101348 0.148302
0.182252 0.107944 0.143529
0.230013 0.106457 0.149020
0.265307 0.116967 0.147556
0.310588 0.123921 0.155294
0.351611 0.135447 0.162898
0.396930 0.146734 0.169904
0.436863 0.156863 0.174902
0.479320 0.167948 0.186196
0.522353 0.180392 0.192157
0.576777 0.198431 0.203922
0.626376 0.211406 0.214476
0.686274 0.230693 0.228915
0.746196 0.253124 0.235189
0.826667 0.274510 0.265098
0.130061 0.147159 0.142880
0.161636 0.149804 0.147383
0.194075 0.146236 0.151507
0.234869 0.148302 0.150230
0.271116 0.151628 0.159220
0.316930 0.156930 0.165132
0.351305 0.160784 0.168269
0.399776 0.170053 0.177896
0.432583 0.178465 0.181961
0.480566 0.188468 0.189767
0.522353 0.198006 0.190521
0.571406 0.214544 0.205131
0.623816 0.231655 0.213849
0.685132 0.248695 0.228527
0.749995 0.270905 0.238073
0.818330 0.292191 0.264381
0.165490 0.187451 0.153725
0.182640 0.190588 0.157856
0.210554 0.188594 0.158790
0.243496 0.190588 0.162711
0.281203 0.190693 0.164340
0.314510 0.189804 0.174902
0.358640 0.195399 0.177360
0.397714 0.202846 0.179608
0.437647 0.207059 0.187809
0.480889 0.218824 0.192941
0.526274 0.231372 0.201569
0.574797 0.242353 0.212549
0.628235 0.254544 0.229019
0.685849 0.273008 0.232022
0.753935 0.295111 0.244601
0.823529 0.320000 0.254902
0.188810 0.229124 0.166379
0.200418 0.231581 0.166588
0.223549 0.235639 0.162392
0.254902 0.231268 0.168313
0.296433 0.231633 0.164567
0.327164 0.232261 0.171190
0.363346 0.233725 0.181961
0.402120 0.241210 0.189655
0.440105 0.246850 0.199216
0.482063 0.250472 0.203900
0.525281 0.263529 0.210092
0.578614 0.276967 0.220862
0.630718 0.292784 0.230460
0.688627 0.307451 0.242144
0.756008 0.325986 0.253967
0.824314 0.350797 0.261281
0.215686 0.277647 0.173333
0.218823 0.276863 0.172549
0.243563 0.277647 0.178891
0.262745 0.278431 0.174902
0.297360 0.278536 0.177464
0.341960 0.278431 0.185882
0.375686 0.282353 0.192157
0.411339 0.283496 0.196437
0.444706 0.287844 0.214902
0.485386 0.292549 0.219503
0.525490 0.305098 0.224313
0.575686 0.315294 0.223530
0.633726 0.330622 0.239216
0.693334 0.349020 0.247843
0.757751 0.365490 0.256680
0.824313 0.389019 0.275294
0.230588 0.329412 0.188235
0.238977 0.327059 0.186599
0.256471 0.325781 0.185457
0.278641 0.329202 0.188706
0.307660 0.330091 0.191477
0.339608 0.331764 0.190588
0.382745 0.332855 0.192702
0.420392 0.335260 0.201927
0.458249 0.335111 0.209830
0.501176 0.337935 0.221856
0.532549 0.346666 0.231373
0.584859 0.360785 0.239455
0.635653 0.374835 0.248560
0.692758 0.393046 0.261386
0.760000 0.414118 0.273830
0.832941 0.432157 0.294902
0.246566 0.379675 0.194442
0.251899 0.379966 0.195294
0.267384 0.377403 0.197221
0.292258 0.381109 0.197647
0.320638 0.382724 0.202247
0.354151 0.383597 0.202285
0.391014 0.384740 0.202353
0.428804 0.387733 0.209049
0.469087 0.391014 0.214319
0.508659 0.393642 0.219478
0.553658 0.396437 0.234084
0.594151 0.407485 0.245490
0.645921 0.423668 0.260038
0.700683 0.439933 0.271664
0.763283 0.461644 0.290578
0.836303 0.484706 0.308885
0.258824 0.432941 0.209412
0.268026 0.436078 0.207373
0.280717 0.437647 0.208986
0.300459 0.437580 0.207193
0.328627 0.438431 0.211765
0.363137 0.442353 0.211765
0.397752 0.442248 0.214902
0.435294 0.444347 0.218398
0.476146 0.446700 0.216336
0.522143 0.450876 0.228131
0.563137 0.461176 0.236078
0.602353 0.464314 0.247059
0.655260 0.476504 0.262678
0.711664 0.493759 0.281076
0.774118 0.512941 0.302745
0.840784 0.539608 0.324706
0.267556 0.498719 0.220758
0.273150 0.500392 0.216471
0.288292 0.503386 0.214746
0.305987 0.498144 0.216680
0.331031 0.500548 0.215946
0.363922 0.503634 0.223216
0.401359 0.504994 0.224784
0.440489 0.508574 0.225479
0.480994 0.511373 0.223948
0.523748 0.515596 0.229690
0.566274 0.521568 0.232837
0.620392 0.527948 0.246954
0.674156 0.537911 0.265056
0.727948 0.551477 0.287948
0.789438 0.569257 0.309052
0.857150 0.589804 0.341438
0.269804 0.563137 0.222745
0.271373 0.567059 0.225098
0.290555 0.568694 0.232583
0.308235 0.572549 0.229019
0.333333 0.572653 0.228915
0.365490 0.572549 0.229804
0.408627 0.576471 0.234510
0.448202 0.576897 0.238431
0.488628 0.583530 0.242353
0.533543 0.584994 0.244444
0.579608 0.592157 0.252549
0.632157 0.597647 0.250196
0.688269 0.605491 0.265950
0.747451 0.618824 0.287843
0.807739 0.633046 0.315085
0.874510 0.651764 0.345882
0.267451 0.644706 0.239216
0.274988 0.645251 0.241262
0.287844 0.647126 0.244213
0.309804 0.644026 0.243817
0.334222 0.647163 0.241569
0.370196 0.650196 0.247059
0.403376 0.651525 0.246820
0.449838 0.651406 0.249770
0.492549 0.654797 0.252078
0.537255 0.660497 0.251190
0.585882 0.663529 0.258824
0.644160 0.670043 0.269259
0.698465 0.673793 0.274935
0.759791 0.683817 0.290092
0.830693 0.694222 0.324392
0.893334 0.712157 0.357647
0.255619 0.728269 0.254476
0.265883 0.723922 0.256403
0.283774 0.721712 0.257465
0.307451 0.719933 0.258330
0.333121 0.725890 0.262448
0.371339 0.725490 0.262678
0.408919 0.730129 0.263821
0.454544 0.733123 0.273080
0.498465 0.737255 0.274510
0.549788 0.741265 0.283609
0.605491 0.743529 0.287843
0.659608 0.746667 0.293558
0.715505 0.748809 0.301952
0.772975 0.757289 0.307877
0.843646 0.766504 0.335304
0.912224 0.782028 0.369838
0.257255 0.807059 0.290981
0.270275 0.809987 0.286275
0.283989 0.806274 0.289838
0.304246 0.806274 0.286207
0.335896 0.808732 0.295582
0.375686 0.810196 0.298824
0.415896 0.812653 0.301961
0.464314 0.813759 0.303888
0.511440 0.819675 0.309378
0.565385 0.821856 0.319111
0.621176 0.821177 0.323921
0.676183 0.826876 0.333647
0.736470 0.827809 0.342745
0.795720 0.832941 0.350588
0.861386 0.839216 0.363765
0.935686 0.844706 0.392941
0.268863 0.894013 0.342641
0.286484 0.887634 0.336105
0.298825 0.890913 0.334239
0.320784 0.895686 0.344889
0.353960 0.891052 0.347161
0.394510 0.894118 0.350588
0.439320 0.894902 0.353150
0.489307 0.895519 0.359958
0.538039 0.899503 0.369255
0.591698 0.902673 0.380634
0.647268 0.905987 0.386562
0.703529 0.906457 0.396758
0.765995 0.908596 0.400081
0.829908 0.915399 0.415216
0.884564 0.913461 0.437283
0.954092 0.922667 0.453334
0.333333 0.974902 0.424313
0.345882 0.973333 0.418039
0.355294 0.974118 0.422611
0.381961 0.977255 0.425882
0.410876 0.979503 0.425987
0.451764 0.977255 0.432942
0.489412 0.978824 0.434510
0.532123 0.983104 0.439507
0.583529 0.981961 0.454118
0.637072 0.985203 0.460288
0.700392 0.988235 0.476079
0.754509 0.988235 0.485490
0.814185 0.989378 0.499541
0.871372 0.992157 0.520785
0.930405 0.996862 0.539503
0.988235 1.000000 0.561568
0.108235 0.065883 0.180392
0.133542 0.067451 0.177255
0.173333 0.072157 0.179608
0.216045 0.078364 0.176762
0.268236 0.085491 0.185882
0.319216 0.094902 0.185882
0.361464 0.103529 0.190902
0.399215 0.120000 0.190588
0.437580 0.136045 0.197087
0.484706 0.155294 0.209412
0.531764 0.179608 0.221961
0.578719 0.191163 0.229020
0.631372 0.205490 0.235294
0.687283 0.224672 0.246633
0.754510 0.243137 0.256471
0.832941 0.270588 0.275294
0.118745 0.095007 0.186823
0.143262 0.102706 0.186091
0.181909 0.108601 0.186301
0.227270 0.109991 0.190718
0.271163 0.113621 0.188340
0.317752 0.119216 0.193360
0.360759 0.129043 0.193740
0.398222 0.140392 0.196078
0.440852 0.152662 0.204238
0.483137 0.172915 0.218091
0.527948 0.185098 0.225098
0.577099 0.199476 0.232669
0.627451 0.216366 0.240994
0.685402 0.234256 0.251916
0.746876 0.250196 0.260758
0.817882 0.282823 0.274510
0.129412 0.135686 0.189804
0.152627 0.139817 0.189699
0.189804 0.141670 0.185524
0.238431 0.145098 0.187160
0.273830 0.148340 0.191268
0.315294 0.153726 0.192941
0.355399 0.162458 0.199216
0.399933 0.170554 0.207350
0.435944 0.182386 0.214969
0.481569 0.194510 0.221961
0.525490 0.203922 0.226667
0.576470 0.218039 0.235294
0.626958 0.232583 0.240224
0.683855 0.250263 0.248919
0.748444 0.271268 0.264314
0.822745 0.291765 0.279216
0.158655 0.187944 0.194868
0.179526 0.186834 0.194942
0.210196 0.189579 0.192807
0.244988 0.187810 0.197078
0.285490 0.191014 0.202353
0.318006 0.194936 0.203137
0.361422 0.201273 0.209286
0.397714 0.206701 0.214185
0.441421 0.211482 0.217963
0.481927 0.225031 0.225882
0.526207 0.232157 0.227451
0.575386 0.246274 0.237409
0.626958 0.259608 0.246924
0.686705 0.276150 0.258756
0.752874 0.294902 0.270095
0.821109 0.317647 0.283205
0.192157 0.236078 0.196863
0.211608 0.232261 0.195242
0.228549 0.233725 0.198379
0.259182 0.231798 0.197154
0.294424 0.232157 0.211354
0.329412 0.232941 0.208627
0.361569 0.236863 0.213333
0.405386 0.240105 0.216470
0.447843 0.249053 0.224314
0.485796 0.254902 0.229565
0.527059 0.265098 0.234510
0.578823 0.279216 0.244392
0.631268 0.293124 0.251556
0.690981 0.309445 0.259249
0.755294 0.326820 0.268579
0.832157 0.349020 0.294902
0.212549 0.277647 0.204706
0.225778 0.276654 0.208209
0.243137 0.273725 0.209412
0.265524 0.278364 0.202645
0.299608 0.279215 0.208628
0.341960 0.278431 0.210981
0.374118 0.281673 0.221072
0.405490 0.287059 0.226667
0.439933 0.290129 0.234443
0.490980 0.297255 0.243922
0.531764 0.308235 0.246274
0.578824 0.320000 0.247738
0.637647 0.331765 0.257255
0.688493 0.348460 0.269513
0.758431 0.367059 0.281569
0.824313 0.389019 0.303529
0.232784 0.323137 0.214483
0.242722 0.327226 0.217601
0.258039 0.329516 0.216680
0.284643 0.327375 0.215649
0.309909 0.328732 0.218614
0.343216 0.330875 0.219294
0.385297 0.332456 0.224051
0.420497 0.334013 0.226876
0.458044 0.336918 0.234102
0.494222 0.341281 0.240889
0.536575 0.344627 0.263686
0.588403 0.363015 0.271214
0.641673 0.375007 0.277281
0.697335 0.392387 0.281333
0.764706 0.412340 0.294902
0.832261 0.429699 0.313726
0.245490 0.375686 0.214902
0.253229 0.383111 0.223948
0.273860 0.380392 0.227249
0.291765 0.380325 0.226107
0.320261 0.382170 0.230484
0.353725 0.381961 0.231372
