assets/lut/editingcorp bisogno.cube
# Created by: G'MIC (https://gmic.eu)
TITLE "bisogno"
# LUT size
LUT_3D_SIZE 7
# Data domain
DOMAIN_MIN 0.0 0.0 0.0
DOMAIN_MAX 1.0 1.0 1.0
# LUT data points
0.011575646698474884 0.012474523857235909 0.01423060055822134
0.17410816252231598 0.026283727958798409 0.011366660706698895
0.4543551504611969 0.046745046973228455 0.010322645306587219
0.65567249059677124 0.044629205018281937 0.010763923637568951
0.75605654716491699 0.054460007697343826 0.01046987809240818
0.78729522228240967 0.072255045175552368 0.010846800170838833
0.8249661922454834 0.10900038480758667 0.01482843142002821
0.013456187210977077 0.14326511323451996 0.029050549492239952
0.10167279839515686 0.13025903701782227 0.032993614673614502
0.42653599381446838 0.15964260697364807 0.025483358651399612
0.66881358623504639 0.15756796300411224 0.015605208463966846
0.79007995128631592 0.15405666828155518 0.012370270676910877
0.81383037567138672 0.14179591834545135 0.015394262969493866
0.83344763517379761 0.13193756341934204 0.011655545793473721
0.045737758278846741 0.39530625939369202 0.083674773573875427
0.094468086957931519 0.39289602637290955 0.084558688104152679
0.40882882475852966 0.39237299561500549 0.094140775501728058
0.69599425792694092 0.39241021871566772 0.031082676723599434
0.85280781984329224 0.36026617884635925 0.020874772220849991
0.88731032609939575 0.33344593644142151 0.024197358638048172
0.90880030393600464 0.30313169956207275 0.018074648454785347
0.15278452634811401 0.63478720188140869 0.14096350967884064
0.20217855274677277 0.63291162252426147 0.14465564489364624
0.38585111498832703 0.6308632493019104 0.17919352650642395
0.68667006492614746 0.61830663681030273 0.14230279624462128
0.85802048444747925 0.59607785940170288 0.031022090464830399
0.91927039623260498 0.5578233003616333 0.027064245194196701
0.93800228834152222 0.52998572587966919 0.033217128366231918
0.26354268193244934 0.81818211078643799 0.20177982747554779
0.29020026326179504 0.81348532438278198 0.19893757998943329
0.37273350358009338 0.82235342264175415 0.21835924685001373
0.64624279737472534 0.81500351428985596 0.30682611465454102
0.86241674423217773 0.79916936159133911 0.23175656795501709
0.92773211002349854 0.76882690191268921 0.075868062674999237
0.96092349290847778 0.73292922973632812 0.067864738404750824
0.3092619776725769 0.90033936500549316 0.22610621154308319
0.32981500029563904 0.89918452501296997 0.22196260094642639
0.38621711730957031 0.90771645307540894 0.24039958417415619
0.55039536952972412 0.91835498809814453 0.29125067591667175
0.85067224502563477 0.89423143863677979 0.48500612378120422
0.93325388431549072 0.89671438932418823 0.36684393882751465
0.96564221382141113 0.8894493579864502 0.26610973477363586
0.32502093911170959 0.93180090188980103 0.22818627953529358
0.33170333504676819 0.93703675270080566 0.22620438039302826
0.36232510209083557 0.94137328863143921 0.2306550145149231
0.48554828763008118 0.95786702632904053 0.28884845972061157
0.7860603928565979 0.94562715291976929 0.43239542841911316
0.93113839626312256 0.93675971031188965 0.48761284351348877
0.95526224374771118 0.93860608339309692 0.41607701778411865
0.012079051695764065 0.015967050567269325 0.10627531260251999
0.14687807857990265 0.017110668122768402 0.1090470552444458
0.47302648425102234 0.02053762786090374 0.057540204375982285
0.68937021493911743 0.024229535833001137 0.057520128786563873
0.77917641401290894 0.026766728609800339 0.046773828566074371
0.8044278621673584 0.038667537271976471 0.045085158199071884
0.834189772605896 0.05095532163977623 0.049874503165483475
0.012235274538397789 0.12566244602203369 0.12202052772045135
0.10750207304954529 0.13214462995529175 0.12103158980607986
0.42526361346244812 0.15065187215805054 0.094352439045906067
0.68479722738265991 0.15649908781051636 0.07342858612537384
0.80240023136138916 0.14959026873111725 0.067386776208877563
0.82010424137115479 0.12943542003631592 0.06030496209859848
0.83551716804504395 0.11229168623685837 0.057424314320087433
0.024261295795440674 0.37509012222290039 0.15487085282802582
0.074561789631843567 0.3761746883392334 0.15291386842727661
0.39437195658683777 0.38722175359725952 0.14183005690574646
0.69267070293426514 0.38898512721061707 0.074040956795215607
0.8564031720161438 0.35676011443138123 0.058912795037031174
0.88911086320877075 0.32890036702156067 0.056287683546543121
0.90971130132675171 0.31040060520172119 0.073461316525936127
0.13781933486461639 0.62793517112731934 0.18821386992931366
0.17411687970161438 0.62159854173660278 0.1742115318775177
0.38254630565643311 0.62553471326828003 0.21264126896858215
0.68217915296554565 0.61562657356262207 0.16411763429641724
0.85903912782669067 0.58943468332290649 0.055187612771987915
0.92008161544799805 0.55691444873809814 0.060720287263393402
0.94870483875274658 0.51999789476394653 0.055516529828310013
0.26404491066932678 0.81591922044754028 0.23006878793239594
0.28850880265235901 0.81115949153900146 0.22549176216125488
0.37107682228088379 0.81767076253890991 0.24479822814464569
0.64378142356872559 0.81485068798065186 0.33227720856666565
0.85902667045593262 0.7953258752822876 0.250507652759552
0.93110871315002441 0.76676267385482788 0.12271919846534729
0.96333879232406616 0.73070460557937622 0.095298230648040771
0.30837246775627136 0.89925581216812134 0.25416666269302368
0.32861185073852539 0.89877450466156006 0.25062999129295349
0.38409343361854553 0.90602827072143555 0.26805254817008972
0.54748803377151489 0.91807365417480469 0.3196789026260376
0.85194641351699829 0.89406388998031616 0.51689356565475464
0.93396830558776855 0.89847040176391602 0.389413982629776
0.96888762712478638 0.8880724310874939 0.27227562665939331
0.31672549247741699 0.93450272083282471 0.25456249713897705
0.33268511295318604 0.93498772382736206 0.25530779361724854
0.37218651175498962 0.94066816568374634 0.26585239171981812
0.4862428605556488 0.95716935396194458 0.31249675154685974
0.78155899047851562 0.94587486982345581 0.45044109225273132
0.92743128538131714 0.9302794337272644 0.51243561506271362
0.97144383192062378 0.94735777378082275 0.43292316794395447
0.039661020040512085 0.041593857109546661 0.2882595956325531
0.099934026598930359 0.027141779661178589 0.30085089802742004
0.44052410125732422 0.017953746020793915 0.29884213209152222
0.67578375339508057 0.018089115619659424 0.20504318177700043
0.78576266765594482 0.040901169180870056 0.20376060903072357
0.81411862373352051 0.035396277904510498 0.17980867624282837
0.84663230180740356 0.032887686043977737 0.17550425231456757
0.032936636358499527 0.18656666576862335 0.3134901225566864
0.087307438254356384 0.17404086887836456 0.30944323539733887
0.38513427972793579 0.14385880529880524 0.30229616165161133
0.67393225431442261 0.13485504686832428 0.22277697920799255
0.80570822954177856 0.13817571103572845 0.22263604402542114
0.83443951606750488 0.12284668534994125 0.20388510823249817
0.86185348033905029 0.12080340087413788 0.19205193221569061
0.0096651716157793999 0.38236001133918762 0.36278387904167175
0.042941045016050339 0.37298578023910522 0.35177645087242126
0.2947811484336853 0.38416901230812073 0.34613710641860962
0.68941515684127808 0.39106479287147522 0.31340572237968445
0.85864335298538208 0.3695579469203949 0.2843775749206543
0.8972737193107605 0.34900262951850891 0.26147493720054626
0.92441695928573608 0.33790358901023865 0.25323545932769775
0.057950831949710846 0.59126746654510498 0.37949356436729431
0.088670797646045685 0.58621561527252197 0.37173545360565186
0.27341148257255554 0.61003410816192627 0.35505634546279907
0.6559712290763855 0.62283945083618164 0.3579351007938385
0.86317199468612671 0.59929335117340088 0.24925026297569275
0.92694365978240967 0.56679940223693848 0.22186584770679474
0.95436006784439087 0.54350191354751587 0.21841585636138916
0.22705914080142975 0.79966950416564941 0.33892273902893066
0.25074928998947144 0.79452258348464966 0.33196595311164856
0.32863721251487732 0.80021840333938599 0.33538362383842468
0.62289559841156006 0.81350970268249512 0.38551720976829529
0.85979896783828735 0.79829621315002441 0.33259937167167664
0.93253809213638306 0.77369129657745361 0.19906869530677795
0.96553128957748413 0.74137932062149048 0.18364089727401733
0.29062649607658386 0.8950994610786438 0.31213074922561646
0.31761300563812256 0.89461231231689453 0.30988195538520813
0.3732416033744812 0.9010806679725647 0.33076572418212891
0.54983937740325928 0.91647940874099731 0.36705771088600159
0.85133260488510132 0.8953971266746521 0.55201536417007446
0.93396401405334473 0.89975214004516602 0.42743435502052307
0.96983927488327026 0.89035582542419434 0.3185010552406311
0.30029627680778503 0.93570023775100708 0.2950432300567627
0.32722598314285278 0.93504124879837036 0.2951664924621582
0.36579751968383789 0.93994057178497314 0.30869454145431519
0.51381367444992065 0.95692461729049683 0.35354515910148621
0.79271900653839111 0.94713449478149414 0.50172257423400879
0.92867028713226318 0.93490147590637207 0.54965919256210327
0.9693865180015564 0.9484214186668396 0.48386648297309875
0.08457222580909729 0.060640014708042145 0.43438097834587097
0.13577845692634583 0.060522940009832382 0.45252600312232971
0.33764165639877319 0.041112534701824188 0.4580637514591217
0.68108892440795898 0.026720009744167328 0.46677258610725403
0.77292144298553467 0.025598203763365746 0.33127680420875549
0.79898738861083984 0.02004687674343586 0.30113980174064636
0.82560092210769653 0.027553228661417961 0.27500388026237488
0.078437596559524536 0.24499271810054779 0.47536945343017578
0.12454738467931747 0.23106849193572998 0.47835546731948853
0.29660961031913757 0.19031544029712677 0.47895094752311707
0.6568981409072876 0.13552029430866241 0.4786660373210907
0.78295671939849854 0.11216776072978973 0.32646000385284424
0.80794626474380493 0.089954584836959839 0.29838645458221436
0.84459394216537476 0.11289647221565247 0.30286863446235657
0.0093264263123273849 0.4340311586856842 0.53146445751190186
0.049854248762130737 0.42268913984298706 0.52481222152709961
0.20298272371292114 0.40051653981208801 0.52215415239334106
0.61730426549911499 0.38313868641853333 0.53726381063461304
0.85080397129058838 0.38625940680503845 0.42098897695541382
0.88807040452957153 0.36878421902656555 0.40407702326774597
0.91853195428848267 0.36403584480285645 0.39482292532920837
0.040335800498723984 0.58341193199157715 0.56503498554229736
0.05857250839471817 0.57710784673690796 0.55783462524414062
0.17145927250385284 0.58373391628265381 0.55577641725540161
0.51980394124984741 0.60506373643875122 0.57049232721328735
0.8583868145942688 0.62400692701339722 0.56378829479217529
0.92738223075866699 0.6080746054649353 0.54674452543258667
0.95633721351623535 0.60016036033630371 0.53534775972366333
0.14909514784812927 0.73115110397338867 0.5687025785446167
0.16875790059566498 0.72640210390090942 0.56359207630157471
0.22849184274673462 0.73055547475814819 0.56024658679962158
0.49221786856651306 0.78881871700286865 0.55153590440750122
0.83227145671844482 0.81295198202133179 0.60542738437652588
0.93349868059158325 0.79967862367630005 0.54682618379592896
0.96656781435012817 0.77900141477584839 0.5359920859336853
0.21905164420604706 0.82151728868484497 0.5290602445602417
0.24316789209842682 0.82168567180633545 0.52214652299880981
0.29590636491775513 0.82964259386062622 0.52741265296936035
0.4882209300994873 0.87738364934921265 0.55090785026550293
0.80988395214080811 0.9096449613571167 0.64216995239257812
0.92996174097061157 0.904407799243927 0.63320541381835938
0.96520501375198364 0.89973479509353638 0.57843565940856934
0.23439018428325653 0.88354074954986572 0.47279354929924011
0.25796747207641602 0.87996506690979004 0.47642624378204346
0.31767481565475464 0.8782159686088562 0.50108349323272705
0.46983903646469116 0.9120330810546875 0.53498822450637817
0.76174062490463257 0.95667761564254761 0.59946781396865845
0.92671531438827515 0.9435807466506958 0.6949506402015686
0.96414369344711304 0.93858343362808228 0.6626889705657959
0.10533759742975235 0.066008925437927246 0.48637145757675171
0.15001244843006134 0.069334812462329865 0.51471912860870361
0.28756058216094971 0.060746226459741592 0.53760051727294922
0.64496397972106934 0.045014087110757828 0.51707726716995239
0.81663781404495239 0.050941601395606995 0.6253199577331543
0.84199607372283936 0.037931974977254868 0.60059010982513428
0.86694133281707764 0.052392054349184036 0.57714617252349854
0.091942772269248962 0.25932964682579041 0.5462525486946106
0.14451903104782104 0.24382220208644867 0.55458527803421021
0.26347878575325012 0.21586479246616364 0.56914800405502319
0.58901989459991455 0.17278042435646057 0.53587335348129272
0.81704825162887573 0.14815519750118256 0.63307392597198486
0.8469356894493103 0.11782100796699524 0.60001146793365479
0.86737310886383057 0.12111505120992661 0.53701889514923096
0.027538539841771126 0.44611188769340515 0.62449741363525391
0.067162171006202698 0.4402712881565094 0.62570643424987793
0.20899426937103271 0.42220357060432434 0.63991808891296387
0.49676388502120972 0.39651575684547424 0.64492309093475342
0.84863489866256714 0.35860809683799744 0.70916688442230225
0.8911857008934021 0.34451442956924438 0.63348907232284546
0.91291117668151855 0.34252291917800903 0.5677790641784668
0.051560167223215103 0.57742393016815186 0.66899597644805908
0.084283150732517242 0.57516217231750488 0.66613912582397461
0.17216908931732178 0.57624530792236328 0.67873281240463257
0.36854523420333862 0.57416898012161255 0.69879442453384399
0.8033219575881958 0.59394890069961548 0.74701178073883057
0.91626465320587158 0.59953784942626953 0.68548256158828735
0.94566226005554199 0.59698069095611572 0.64477556943893433
0.11519992351531982 0.70435488224029541 0.70919311046600342
0.13995662331581116 0.70090740919113159 0.70436722040176392
0.19109147787094116 0.7038724422454834 0.7043377161026001
0.34156405925750732 0.72751230001449585 0.71953976154327393
0.71074461936950684 0.78496444225311279 0.76903057098388672
0.91260445117950439 0.80525308847427368 0.77031123638153076
0.95028418302536011 0.80157738924026489 0.76510298252105713
0.16484969854354858 0.78636562824249268 0.70281064510345459
0.1940024346113205 0.78217422962188721 0.69589781761169434
0.23948988318443298 0.79299664497375488 0.70207196474075317
0.38913321495056152 0.82281261682510376 0.7127760648727417
0.68260449171066284 0.88916784524917603 0.74801343679428101
0.89907550811767578 0.90750712156295776 0.8011741042137146
0.94866663217544556 0.90731918811798096 0.79683101177215576
0.18616561591625214 0.83124035596847534 0.67898845672607422
0.21544435620307922 0.83369338512420654 0.67600107192993164
0.24989496171474457 0.83517354726791382 0.67763805389404297
0.38675200939178467 0.86691415309906006 0.69739121198654175
0.67348712682723999 0.92772114276885986 0.73843157291412354
0.88354587554931641 0.95041686296463013 0.8064151406288147
0.94112175703048706 0.95026534795761108 0.81780290603637695
0.10603051632642746 0.065523363649845123 0.50935924053192139
0.1486809253692627 0.069576352834701538 0.53620612621307373
0.27131363749504089 0.063374042510986328 0.56090289354324341
0.6101001501083374 0.05552692711353302 0.52862024307250977
0.81649565696716309 0.039915077388286591 0.67055076360702515
0.84987157583236694 0.046845618635416031 0.65378254652023315
0.87669497728347778 0.076903671026229858 0.65454274415969849
0.092467136681079865 0.25253951549530029 0.57211607694625854
0.14515459537506104 0.23850388824939728 0.57930082082748413
0.25103005766868591 0.21781618893146515 0.59682941436767578
0.55065900087356567 0.17836812138557434 0.57000547647476196
0.81352812051773071 0.12538456916809082 0.67008501291275024
0.85384267568588257 0.12151951342821121 0.66612035036087036
0.88783544301986694 0.13680718839168549 0.67403602600097656
0.0327034592628479 0.43665733933448792 0.65032124519348145
0.070397578179836273 0.43126320838928223 0.65243864059448242
0.20698548853397369 0.4194510281085968 0.67056578397750854
0.46404403448104858 0.3954157829284668 0.67384988069534302
0.82635140419006348 0.36098426580429077 0.76448076963424683
0.89838486909866333 0.337220698595047 0.75585460662841797
0.92665946483612061 0.33152604103088379 0.75016283988952637
0.045641537755727768 0.56843841075897217 0.70080554485321045
0.076297551393508911 0.56487065553665161 0.69898021221160889
0.1730206161737442 0.568775475025177 0.71480542421340942
0.35368242859840393 0.56798785924911499 0.73962658643722534
0.74930709600448608 0.5852704644203186 0.79065465927124023
0.91858762502670288 0.57524478435516357 0.8434029221534729
0.95306169986724854 0.57031917572021484 0.83667689561843872
0.10197421908378601 0.68610739707946777 0.74659371376037598
0.12714099884033203 0.68136191368103027 0.74401509761810303
0.18051774799823761 0.68240886926651001 0.75128519535064697
0.31011015176773071 0.69965368509292603 0.77306991815567017
0.59245681762695312 0.7391960620880127 0.81940490007400513
0.90357476472854614 0.78616052865982056 0.88779670000076294
0.94090193510055542 0.78318172693252563 0.88420599699020386
0.13952866196632385 0.76848846673965454 0.77372318506240845
0.16787299513816833 0.76815003156661987 0.7723088264465332
0.2075846791267395 0.77047574520111084 0.77563822269439697
0.30435636639595032 0.79189395904541016 0.79479503631591797
0.51714879274368286 0.83811396360397339 0.82627636194229126
0.83799678087234497 0.90055292844772339 0.88083595037460327
0.92957693338394165 0.91568589210510254 0.89855259656906128
0.1540350466966629 0.80749249458312988 0.77821934223175049
0.17639806866645813 0.81317639350891113 0.7801058292388916
0.20654653012752533 0.810954749584198 0.77709013223648071
0.29648023843765259 0.8348202109336853 0.79264825582504272
0.51803338527679443 0.88406264781951904 0.82227003574371338
0.82526463270187378 0.94746202230453491 0.88493579626083374
0.93358111381530762 0.96667659282684326 0.90781587362289429
0.10655131936073303 0.067947253584861755 0.54896730184555054
0.14694333076477051 0.069559819996356964 0.57205736637115479
0.24663576483726501 0.062526434659957886 0.59751933813095093
0.56547242403030396 0.057660523802042007 0.56338906288146973
0.81142652034759521 0.042860321700572968 0.70397293567657471
0.84640240669250488 0.075082398951053619 0.69216668605804443
0.87580269575119019 0.087899148464202881 0.67436468601226807
0.097338341176509857 0.24607525765895844 0.60264372825622559
0.14788529276847839 0.23693817853927612 0.61948460340499878
0.23719179630279541 0.21532148122787476 0.63391882181167603
0.49852484464645386 0.18145576119422913 0.6162763237953186
0.79697710275650024 0.13290406763553619 0.7260558009147644
0.85599493980407715 0.12814632058143616 0.71723830699920654
0.87817364931106567 0.13027948141098022 0.7160574197769165
0.035233620554208755 0.42018753290176392 0.67994791269302368
0.080332450568675995 0.41972053050994873 0.68675893545150757
0.20614798367023468 0.41943404078483582 0.70173591375350952
0.43202552199363708 0.39792925119400024 0.70410645008087158
0.79135721921920776 0.36658066511154175 0.7785184383392334
0.89702260494232178 0.33504548668861389 0.79940563440322876
0.92182725667953491 0.34045088291168213 0.80472075939178467
0.037812132388353348 0.55072170495986938 0.73464590311050415
0.069443657994270325 0.54747051000595093 0.73429757356643677
0.17436978220939636 0.56033104658126831 0.74993854761123657
0.35066437721252441 0.56534403562545776 0.7760428786277771
0.70816498994827271 0.58200973272323608 0.81467491388320923
0.91203993558883667 0.57643240690231323 0.87904012203216553
0.94910681247711182 0.5701979398727417 0.87678062915802002
0.091187499463558197 0.66655641794204712 0.77786886692047119
0.11533129960298538 0.66326534748077393 0.77955657243728638
0.17096969485282898 0.66714990139007568 0.78828614950180054
0.31956243515014648 0.68691301345825195 0.81048381328582764
0.5836174488067627 0.73146116733551025 0.85583662986755371
0.88941878080368042 0.78231239318847656 0.92812621593475342
0.94751256704330444 0.78281176090240479 0.92527687549591064
0.13572137057781219 0.76169252395629883 0.81430554389953613
0.16310662031173706 0.76060593128204346 0.81484204530715942
0.19897161424160004 0.76054978370666504 0.81119930744171143
0.30197364091873169 0.78184735774993896 0.8379892110824585
0.50840896368026733 0.82633882761001587 0.87120705842971802
0.82637834548950195 0.89944690465927124 0.93182724714279175
0.93357163667678833 0.92034965753555298 0.95650017261505127
0.15223173797130585 0.80019468069076538 0.81966209411621094
0.17217431962490082 0.79935920238494873 0.82246416807174683
0.20344077050685883 0.80432438850402832 0.82014906406402588
0.29281884431838989 0.82701188325881958 0.83426964282989502
0.49327850341796875 0.87029063701629639 0.87174057960510254
0.82043170928955078 0.94192498922348022 0.93647158145904541
0.95079535245895386 0.97140395641326904 0.97350448369979858
