assets/lut/editingcorpw Love Whisper.cube
LUT_3D_SIZE 6
DOMAIN_MIN 0.0 0.0 0.0
DOMAIN_MAX 1.0 1.0 1.0
0.170474 0.131167 0.181674
0.260325 0.151791 0.196206
0.484312 0.141726 0.189816
0.809238 0.113784 0.180362
0.996063 0.169845 0.183737
1.000000 0.197848 0.240696
0.232852 0.217118 0.195499
0.260275 0.210145 0.194885
0.468993 0.250237 0.171693
0.790121 0.261815 0.155638
0.988400 0.273924 0.161295
1.000000 0.270976 0.227146
0.379584 0.372039 0.200595
0.403355 0.368197 0.201026
0.462212 0.354235 0.200085
0.739863 0.436404 0.109222
0.955044 0.462292 0.000000
1.000000 0.437812 0.162204
0.618933 0.567163 0.183962
0.646387 0.563049 0.182775
0.674113 0.548493 0.186402
0.750571 0.534112 0.181702
0.930061 0.601317 0.000000
1.000000 0.621241 0.000000
0.808938 0.794766 0.185830
0.832342 0.793234 0.177375
0.856465 0.775896 0.177343
0.890748 0.750002 0.173971
0.963106 0.719788 0.156311
1.000000 0.731930 0.000000
0.991943 0.971527 0.327703
1.000000 0.969616 0.316997
1.000000 0.955072 0.286528
1.000000 0.931524 0.224899
1.000000 0.884526 0.000000
1.000000 0.841855 0.311650
0.154586 0.177328 0.255155
0.234305 0.162586 0.246559
0.424671 0.188068 0.258354
0.761926 0.182042 0.258479
0.981501 0.223669 0.239258
1.000000 0.229636 0.232902
0.181040 0.225340 0.246122
0.239034 0.227175 0.248106
0.416626 0.249000 0.253358
0.750168 0.265901 0.249109
0.973227 0.294623 0.232485
1.000000 0.289921 0.220420
0.322374 0.368409 0.256879
0.376820 0.365570 0.254760
0.430763 0.352206 0.258131
0.711518 0.427166 0.206652
0.944920 0.458252 0.197673
1.000000 0.444254 0.168954
0.580425 0.565807 0.254956
0.621882 0.565761 0.252082
0.657896 0.546345 0.254957
0.733588 0.532687 0.257305
0.919969 0.602640 0.167144
1.000000 0.622177 0.000000
0.784664 0.794294 0.278231
0.807252 0.791771 0.271710
0.847207 0.776563 0.267644
0.882121 0.752359 0.268922
0.954496 0.724036 0.264410
1.000000 0.736484 0.049025
0.970947 0.972906 0.398394
0.990912 0.970689 0.387695
1.000000 0.957671 0.361912
1.000000 0.934890 0.320336
1.000000 0.887426 0.156705
1.000000 0.842057 0.312572
0.000000 0.258256 0.435700
0.011352 0.215737 0.420837
0.367103 0.207688 0.386289
0.654122 0.205908 0.422391
0.931834 0.326024 0.495011
1.000000 0.427118 0.538256
0.000000 0.308174 0.415936
0.158239 0.289369 0.404588
0.361067 0.258881 0.377135
0.659957 0.278047 0.428773
0.924581 0.392593 0.509962
1.000000 0.444447 0.529816
0.082704 0.395862 0.397893
0.207543 0.393609 0.396657
0.402048 0.395571 0.401700
0.673720 0.427874 0.425997
0.910594 0.488352 0.474486
1.000000 0.519237 0.500753
0.389216 0.581938 0.417350
0.461865 0.579167 0.429832
0.613371 0.555856 0.416270
0.684200 0.544980 0.431522
0.886157 0.619177 0.401652
1.000000 0.644558 0.439738
0.686337 0.800145 0.485991
0.709951 0.797335 0.480978
0.805174 0.788823 0.464744
0.848019 0.764930 0.470778
0.918478 0.744842 0.484636
1.000000 0.764746 0.426833
0.892058 0.980200 0.572998
0.911002 0.978436 0.567570
0.993239 0.972674 0.550582
1.000000 0.949589 0.528567
1.000000 0.908310 0.480343
1.000000 0.843613 0.323919
0.000000 0.389148 0.681361
0.000000 0.364053 0.670633
0.245112 0.276151 0.646081
0.591541 0.247206 0.601459
0.838673 0.257024 0.611587
1.000000 0.487965 0.680208
0.000000 0.424310 0.665648
0.000000 0.406637 0.658312
0.257037 0.323337 0.634747
0.587733 0.297010 0.594580
0.834703 0.316624 0.611754
1.000000 0.538165 0.690956
0.000000 0.517201 0.645865
0.000000 0.512014 0.641899
0.345764 0.471797 0.618208
0.594511 0.427520 0.587462
0.839545 0.511313 0.644375
1.000000 0.684186 0.731087
0.000000 0.626828 0.622591
0.128883 0.624170 0.621264
0.433113 0.609914 0.613608
0.649696 0.609837 0.618331
0.852807 0.681745 0.663379
1.000000 0.745380 0.710834
0.424641 0.832317 0.622699
0.458972 0.828934 0.620481
0.627936 0.815719 0.650381
0.799323 0.794065 0.639952
0.866066 0.783451 0.659315
1.000000 0.822629 0.651106
0.771713 0.991632 0.733688
0.786571 0.990656 0.729509
0.858210 0.986485 0.719397
0.998442 0.975722 0.696054
1.000000 0.944651 0.688043
1.000000 0.901531 0.656422
0.000000 0.507689 0.844761
0.000000 0.499523 0.840825
0.000000 0.417994 0.834601
0.555152 0.372650 0.815835
0.819536 0.352330 0.791202
1.000000 0.426844 0.780032
0.000000 0.537398 0.840722
0.000000 0.531021 0.838162
0.000000 0.469207 0.829774
0.563265 0.413960 0.811585
0.818065 0.397843 0.789577
1.000000 0.467068 0.780633
0.000000 0.632457 0.832120
0.000000 0.627744 0.830029
0.351268 0.608898 0.816901
0.595559 0.543137 0.802237
0.807873 0.524899 0.779964
0.997687 0.587333 0.785085
0.000000 0.744391 0.822969
0.000000 0.741883 0.820441
0.400906 0.734883 0.813372
0.638461 0.715262 0.798712
0.801562 0.676086 0.777178
0.996410 0.766747 0.820359
0.299300 0.871900 0.815716
0.351955 0.868877 0.813520
0.498195 0.860224 0.808019
0.661534 0.846738 0.800076
0.825534 0.840462 0.799211
1.000000 0.896955 0.857724
0.563342 1.000000 0.828708
0.582926 1.000000 0.827859
0.663712 1.000000 0.828923
0.807939 0.998747 0.845098
1.000000 0.982114 0.852380
1.000000 0.960455 0.856309
0.000000 0.647456 1.000000
0.000000 0.658088 1.000000
0.351061 0.661664 1.000000
0.536107 0.612653 1.000000
0.764272 0.615143 0.993860
0.986358 0.608362 0.985626
0.000000 0.666200 1.000000
0.000000 0.676025 1.000000
0.418320 0.695853 0.999359
0.556116 0.644124 0.999887
0.769557 0.644236 0.993481
0.986609 0.634229 0.985534
0.000000 0.718074 1.000000
0.000000 0.726097 1.000000
0.460675 0.762211 0.997191
0.609379 0.739053 0.995045
0.783495 0.725134 0.989941
0.985663 0.707759 0.983105
0.000000 0.796189 1.000000
0.000000 0.798115 1.000000
0.068757 0.810104 1.000000
0.672798 0.855796 0.992609
0.805938 0.825798 0.990063
0.988318 0.806833 0.983715
0.000000 0.914366 1.000000
0.000000 0.915390 1.000000
0.344608 0.920239 1.000000
0.622564 0.927582 0.997648
0.855872 0.935144 0.991926
0.993622 0.910161 0.986798
0.119203 1.000000 1.000000
0.268217 1.000000 1.000000
0.496886 1.000000 1.000000
0.721413 1.000000 0.999829
0.913170 1.000000 0.999121
1.000000 1.000000 1.000000
