assets/lut/editingcorp nigrum.cube
# Created by: G'MIC (https://gmic.eu)
TITLE "nigrum"
# LUT size
LUT_3D_SIZE 7
# Data domain
DOMAIN_MIN 0.0 0.0 0.0
DOMAIN_MAX 1.0 1.0 1.0
# LUT data points
0.010274805128574371 0.013891975395381451 0.015297459438443184
0.089250527322292328 0.0093282964080572128 0.0064778048545122147
0.22534184157848358 0.0040857503190636635 0.0039541055448353291
0.36924120783805847 0.0091439643874764442 0.0051384721882641315
0.51943624019622803 0.010601028800010681 0.0030646978411823511
0.68595683574676514 0.012365213595330715 0.0021192063577473164
0.84766703844070435 0.018658790737390518 0.0050263646990060806
0.012634008191525936 0.12436427921056747 0.014388589188456535
0.1210828572511673 0.12755192816257477 0.0058627258986234665
0.27437293529510498 0.12316831946372986 0.00025975843891501427
0.42240062355995178 0.10673356801271439 0.0081580812111496925
0.562641441822052 0.087723135948181152 0.0079417359083890915
0.70487338304519653 0.048158995807170868 0.0054834554903209209
0.8673737645149231 0.040214553475379944 0.0024047102779150009
0.036790810525417328 0.26982241868972778 0.025251636281609535
0.16091406345367432 0.28186154365539551 0.018761817365884781
0.3393738865852356 0.30797907710075378 0.012847017496824265
0.49945870041847229 0.31564372777938843 0.0093766003847122192
0.66137540340423584 0.3074042797088623 0.0017981884302571416
0.8280712366104126 0.28194862604141235 0.023004569113254547
0.93946057558059692 0.23714101314544678 0.065856620669364929
0.13049720227718353 0.41046825051307678 0.078641466796398163
0.25250619649887085 0.43854466080665588 0.081699401140213013
0.41181096434593201 0.47930571436882019 0.084168180823326111
0.56326067447662354 0.50149863958358765 0.078595958650112152
0.72265398502349854 0.51009666919708252 0.051830098032951355
0.88937509059906006 0.51153534650802612 0.12500408291816711
0.97451412677764893 0.58281362056732178 0.34378278255462646
0.24785946309566498 0.55732482671737671 0.12924571335315704
0.35870537161827087 0.58854323625564575 0.13857480883598328
0.48354676365852356 0.62756252288818359 0.14379671216011047
0.61858469247817993 0.66180473566055298 0.14924970269203186
0.76732867956161499 0.68699580430984497 0.16349370777606964
0.91169261932373047 0.70800602436065674 0.23851446807384491
0.97424912452697754 0.77193814516067505 0.46095871925354004
0.31897887587547302 0.6863752007484436 0.17409501969814301
0.42187279462814331 0.71526449918746948 0.18104398250579834
0.5291563868522644 0.75166481733322144 0.1820431649684906
0.65708118677139282 0.79436814785003662 0.19187548756599426
0.80233371257781982 0.83047997951507568 0.23268796503543854
0.92791628837585449 0.86364555358886719 0.34446278214454651
0.97887349128723145 0.9065631628036499 0.5589061975479126
0.32964387536048889 0.79036253690719604 0.20278327167034149
0.43554586172103882 0.81859844923019409 0.21004606783390045
0.54786080121994019 0.85629695653915405 0.21305248141288757
0.6761782169342041 0.90118569135665894 0.22545458376407623
0.81581974029541016 0.93088209629058838 0.28495243191719055
0.92448163032531738 0.94890516996383667 0.4169866144657135
0.97727155685424805 0.96205365657806396 0.59532159566879272
0.027868757024407387 0.056195218116044998 0.14424622058868408
0.11763852834701538 0.035582419484853745 0.14233604073524475
0.2457316666841507 0.00026442584930919111 0.089737787842750549
0.36737897992134094 0.00093545351410284638 0.067336000502109528
0.51223695278167725 0.010065340436995029 0.049252931028604507
0.6780504584312439 0.014706301502883434 0.030535394325852394
0.84843981266021729 0.018821567296981812 0.01691589318215847
0.02511494979262352 0.16579946875572205 0.16121067106723785
0.14325951039791107 0.16403241455554962 0.15110653638839722
0.30650800466537476 0.11882421374320984 0.10423148423433304
0.43293896317481995 0.077946007251739502 0.057551395148038864
0.55299168825149536 0.044217713177204132 0.041486147791147232
0.69724589586257935 0.030195841565728188 0.026784799993038177
0.86990529298782349 0.033104032278060913 0.015902141109108925
0.022322695702314377 0.28401267528533936 0.1450355052947998
0.15029756724834442 0.30436336994171143 0.1424441933631897
0.35338506102561951 0.32704150676727295 0.14093594253063202
0.51893764734268188 0.32603034377098083 0.12395526468753815
0.67666089534759521 0.30718433856964111 0.055567227303981781
0.82435476779937744 0.26112014055252075 0.053325489163398743
0.93282270431518555 0.2107006162405014 0.090326346457004547
0.067878872156143188 0.40428364276885986 0.1465378999710083
0.20417869091033936 0.43360888957977295 0.1583857387304306
0.39727771282196045 0.48067694902420044 0.17473702132701874
0.56407314538955688 0.51046228408813477 0.17870207130908966
0.73033511638641357 0.51501095294952393 0.15565037727355957
0.89702326059341431 0.51754903793334961 0.20145918428897858
0.97566342353820801 0.58047217130661011 0.39827960729598999
0.17235176265239716 0.53275066614151001 0.18546988070011139
0.29994890093803406 0.56691908836364746 0.19704054296016693
0.45420745015144348 0.61612874269485474 0.21028423309326172
0.60773026943206787 0.66098624467849731 0.21461835503578186
0.7648431658744812 0.69211536645889282 0.24111510813236237
0.91612499952316284 0.71334969997406006 0.31027218699455261
0.97681409120559692 0.77143698930740356 0.51247680187225342
0.28035068511962891 0.67003315687179565 0.24088627099990845
0.37620082497596741 0.69283837080001831 0.24129709601402283
0.49651694297790527 0.73395586013793945 0.24828967452049255
0.63737589120864868 0.78439033031463623 0.26656895875930786
0.79437899589538574 0.82936173677444458 0.30457764863967896
0.92638355493545532 0.86576014757156372 0.40603232383728027
0.9774889349937439 0.90467685461044312 0.60236793756484985
0.30998048186302185 0.78000545501708984 0.27055716514587402
0.40365761518478394 0.80214661359786987 0.27138188481330872
0.51948493719100952 0.84086018800735474 0.27945411205291748
0.65686064958572388 0.88850265741348267 0.30311259627342224
0.80978059768676758 0.92674297094345093 0.352540522813797
0.93058079481124878 0.94991058111190796 0.47633263468742371
0.98287951946258545 0.96822339296340942 0.6628115177154541
0.052287336438894272 0.10245724767446518 0.28104996681213379
0.11770536005496979 0.12072619050741196 0.31881415843963623
0.28135797381401062 0.071264691650867462 0.27398645877838135
0.41089349985122681 0.0094814524054527283 0.23001863062381744
0.52771693468093872 0.00097053375793620944 0.206986203789711
0.67320609092712402 0.010666537098586559 0.16569656133651733
0.8384329080581665 0.019987577572464943 0.11927942186594009
0.054584965109825134 0.20696099102497101 0.30429786443710327
0.12633170187473297 0.22848369181156158 0.33981773257255554
0.33391484618186951 0.18958137929439545 0.31377056241035461
0.47418546676635742 0.091152504086494446 0.26377436518669128
0.57988816499710083 0.035207457840442657 0.22478242218494415
0.71134704351425171 0.02938079833984375 0.16849683225154877
0.8676643967628479 0.029884891584515572 0.13228610157966614
0.042467005550861359 0.3278605043888092 0.3111896812915802
0.13634751737117767 0.34955301880836487 0.32781156897544861
0.36805084347724915 0.36775025725364685 0.33669278025627136
0.55229771137237549 0.35750415921211243 0.3285309374332428
0.7090265154838562 0.33198624849319458 0.30420207977294922
0.84839600324630737 0.2828671932220459 0.25149339437484741
0.94177073240280151 0.24054652452468872 0.23413081467151642
0.061009306460618973 0.43250194191932678 0.29553544521331787
0.18007241189479828 0.45880120992660522 0.30451032519340515
0.38883101940155029 0.49933367967605591 0.32617822289466858
0.57120490074157715 0.53076690435409546 0.35196059942245483
0.74144774675369263 0.53768241405487061 0.35532790422439575
0.90523487329483032 0.54437243938446045 0.36425313353538513
0.97656548023223877 0.61913561820983887 0.49730032682418823
0.12660768628120422 0.53706139326095581 0.29741492867469788
0.24577359855175018 0.56305742263793945 0.30443361401557922
0.42631596326828003 0.61366361379623413 0.3263753354549408
0.59457772970199585 0.6607239842414856 0.35079225897789001
0.75866186618804932 0.69514662027359009 0.3765052855014801
0.9159056544303894 0.72585302591323853 0.43413731455802917
0.9770999550819397 0.79423552751541138 0.60009992122650146
0.20484833419322968 0.6506841778755188 0.32259342074394226
0.30546239018440247 0.67036861181259155 0.32184946537017822
0.45922115445137024 0.71791058778762817 0.34289824962615967
0.61498403549194336 0.77163577079772949 0.36872905492782593
0.77968448400497437 0.82436251640319824 0.39768889546394348
0.92163187265396118 0.86944711208343506 0.48071956634521484
0.97726035118103027 0.90698599815368652 0.66143500804901123
0.25501233339309692 0.76446050405502319 0.34401354193687439
0.35087636113166809 0.78401058912277222 0.34326046705245972
0.48417374491691589 0.82595652341842651 0.35975125432014465
0.63072317838668823 0.87784236669540405 0.3859688937664032
0.78904300928115845 0.92353123426437378 0.42858323454856873
0.92005306482315063 0.95343214273452759 0.53206115961074829
0.98237389326095581 0.97049617767333984 0.70142918825149536
0.071792781352996826 0.13718928396701813 0.38751256465911865
0.10996966063976288 0.16533130407333374 0.43259072303771973
0.26119348406791687 0.16002157330513 0.43479675054550171
0.44575181603431702 0.085183806717395782 0.38027405738830566
0.54809582233428955 0.017778165638446808 0.34885802865028381
0.68504035472869873 0.0082837427034974098 0.35320505499839783
0.84924989938735962 0.020553484559059143 0.35820391774177551
0.082352735102176666 0.23385794460773468 0.40907576680183411
0.11086796969175339 0.26266083121299744 0.45353862643241882
0.29487702250480652 0.27265128493309021 0.4772087037563324
0.50166290998458862 0.20245178043842316 0.42807665467262268
0.60134828090667725 0.099972695112228394 0.38560435175895691
0.72849154472351074 0.035791389644145966 0.3703092634677887
0.89226895570755005 0.089595451951026917 0.39170938730239868
0.062923014163970947 0.35716092586517334 0.4293181300163269
0.11463165283203125 0.37979400157928467 0.45606699585914612
0.31914708018302917 0.41226553916931152 0.48913002014160156
0.55484598875045776 0.4037969708442688 0.48324549198150635
0.71895354986190796 0.36996620893478394 0.46905717253684998
0.86737799644470215 0.34605702757835388 0.46372860670089722
0.9651634693145752 0.39757740497589111 0.48790737986564636
0.067056082189083099 0.4636726975440979 0.43258795142173767
0.14513462781906128 0.48430576920509338 0.45314419269561768
0.3519013524055481 0.52533978223800659 0.47630766034126282
0.56827390193939209 0.55281490087509155 0.49746561050415039
0.74447304010391235 0.56380337476730347 0.51046586036682129
0.90028470754623413 0.57530504465103149 0.52754199504852295
0.97426408529281616 0.65760296583175659 0.60958778858184814
0.12768128514289856 0.56659835577011108 0.43981629610061646
0.22305706143379211 0.58744543790817261 0.44530114531517029
0.39298132061958313 0.62661874294281006 0.46254453063011169
0.57968980073928833 0.66774553060531616 0.49311715364456177
0.7508123517036438 0.70280224084854126 0.51957064867019653
0.91330879926681519 0.73540425300598145 0.56220030784606934
0.97864139080047607 0.81557160615921021 0.68130803108215332
0.17399311065673828 0.66284608840942383 0.43756303191184998
0.28446757793426514 0.68561965227127075 0.44031968712806702
0.43855854868888855 0.72482913732528687 0.45859500765800476
0.59807056188583374 0.76946771144866943 0.4857688844203949
0.76220029592514038 0.81668925285339355 0.51510930061340332
0.91003948450088501 0.86259192228317261 0.58594882488250732
0.97598052024841309 0.91353172063827515 0.72889977693557739
0.20484867691993713 0.762978196144104 0.43568480014801025
0.31646785140037537 0.78635424375534058 0.44203490018844604
0.46069258451461792 0.82614713907241821 0.45826771855354309
0.61211824417114258 0.87269413471221924 0.48292741179466248
0.77075099945068359 0.9157710075378418 0.52337384223937988
0.9064258337020874 0.94624310731887817 0.61173844337463379
0.97769933938980103 0.96710234880447388 0.7527194619178772
0.094331748783588409 0.1749051958322525 0.48481565713882446
0.12321116030216217 0.20165583491325378 0.5254901647567749
0.22659371793270111 0.23114526271820068 0.56324797868728638
0.45732933282852173 0.1993621289730072 0.53977429866790771
0.58693325519561768 0.12703433632850647 0.48425808548927307
0.70458763837814331 0.083666570484638214 0.47913256287574768
0.85053819417953491 0.079487867653369904 0.4991278350353241
0.096849463880062103 0.2671787440776825 0.50335335731506348
0.11930054426193237 0.29132845997810364 0.53808540105819702
0.24205079674720764 0.32617264986038208 0.58095437288284302
0.49027875065803528 0.31669682264328003 0.57763588428497314
0.64134693145751953 0.24616286158561707 0.53534257411956787
0.74747598171234131 0.16977624595165253 0.50960952043533325
0.9042668342590332 0.24268382787704468 0.55106383562088013
0.081579558551311493 0.38180464506149292 0.52298450469970703
0.095775112509727478 0.39946624636650085 0.54756462574005127
0.21898001432418823 0.43169105052947998 0.58500617742538452
0.50926798582077026 0.45692777633666992 0.60568928718566895
0.7047111988067627 0.43712949752807617 0.59666919708251953
0.8488231897354126 0.41634693741798401 0.59598034620285034
0.96061784029006958 0.4677196741104126 0.62326127290725708
0.076028279960155487 0.48320186138153076 0.52522188425064087
0.11491949111223221 0.49930950999259949 0.54727351665496826
0.29857328534126282 0.53446239233016968 0.58519572019577026
0.51951581239700317 0.5702398419380188 0.60713523626327515
0.71906805038452148 0.58754146099090576 0.62273710966110229
0.87787801027297974 0.59733837842941284 0.64136308431625366
0.97227996587753296 0.65951281785964966 0.69094836711883545
0.11309079825878143 0.57801353931427002 0.53924965858459473
0.157234787940979 0.59164291620254517 0.54763907194137573
0.31051301956176758 0.62632459402084351 0.57264435291290283
0.53771179914474487 0.67196589708328247 0.60498112440109253
0.72860920429229736 0.70985347032546997 0.63054752349853516
0.88988220691680908 0.74188399314880371 0.66669410467147827
0.97464412450790405 0.81555163860321045 0.74714767932891846
0.14145064353942871 0.66961526870727539 0.54050356149673462
0.2386976033449173 0.6919977068901062 0.55611640214920044
0.39370524883270264 0.73141133785247803 0.56971955299377441
0.57277673482894897 0.77168792486190796 0.59531694650650024
0.73689156770706177 0.81045073270797729 0.62654751539230347
0.89221513271331787 0.85675543546676636 0.68007040023803711
0.97421777248382568 0.9189448356628418 0.78832900524139404
0.15633249282836914 0.76196104288101196 0.52843213081359863
0.27413091063499451 0.79012715816497803 0.54796433448791504
0.42487534880638123 0.83078420162200928 0.56333523988723755
0.59144854545593262 0.87343186140060425 0.58898627758026123
0.75611597299575806 0.90849590301513672 0.62519466876983643
0.8945356011390686 0.938679039478302 0.69282275438308716
0.97643333673477173 0.96585482358932495 0.80869758129119873
0.11997269093990326 0.22103095054626465 0.58248960971832275
0.14310339093208313 0.24390287697315216 0.615509033203125
0.18814520537853241 0.284647136926651 0.6615372896194458
0.42863225936889648 0.29506585001945496 0.6741223931312561
0.62341022491455078 0.26063072681427002 0.63961738348007202
0.74450182914733887 0.21730503439903259 0.61672049760818481
0.87299627065658569 0.22266766428947449 0.62930560111999512
0.12085915356874466 0.30816256999969482 0.59428906440734863
0.14345815777778625 0.32697722315788269 0.62310636043548584
0.19449752569198608 0.36259308457374573 0.66675066947937012
0.43960589170455933 0.38403964042663574 0.69156831502914429
0.6552770733833313 0.367423415184021 0.67407965660095215
0.77525728940963745 0.30410835146903992 0.64228171110153198
0.90797269344329834 0.35117760300636292 0.66596055030822754
0.10616808384656906 0.41039642691612244 0.61217391490936279
0.1178995743393898 0.42284780740737915 0.63460636138916016
0.15974153578281403 0.44623011350631714 0.66111654043197632
0.4400043785572052 0.47842469811439514 0.69404429197311401
0.67652863264083862 0.49940457940101624 0.70172262191772461
0.82941871881484985 0.48345690965652466 0.69663602113723755
0.9388166069984436 0.50790178775787354 0.71311742067337036
0.10181386768817902 0.50326335430145264 0.62031930685043335
0.11311736702919006 0.51217502355575562 0.63455420732498169
0.21034947037696838 0.53632223606109619 0.66041499376296997
0.43853268027305603 0.568470299243927 0.69192516803741455
0.67209833860397339 0.60574853420257568 0.7117382287979126
0.84792602062225342 0.62339890003204346 0.7256467342376709
0.9535602331161499 0.65931576490402222 0.75534260272979736
0.10652545094490051 0.58313006162643433 0.61088305711746216
0.11149000376462936 0.58966207504272461 0.62092453241348267
0.22890150547027588 0.61620771884918213 0.64930576086044312
0.46937283873558044 0.66557866334915161 0.69034081697463989
0.68292582035064697 0.70918148756027222 0.71815747022628784
0.86079102754592896 0.74317586421966553 0.74435174465179443
0.96380376815795898 0.79369401931762695 0.79208827018737793
0.10596415400505066 0.65987604856491089 0.6083260178565979
0.13326503336429596 0.67172729969024658 0.62590897083282471
0.22238099575042725 0.69766497611999512 0.64065879583358765
0.48416790366172791 0.76354104280471802 0.68668586015701294
0.69577324390411377 0.81041646003723145 0.71704870462417603
0.87090033292770386 0.85043388605117798 0.75320494174957275
0.97038549184799194 0.90304350852966309 0.82625061273574829
0.11797849088907242 0.74219876527786255 0.605121910572052
0.1876104325056076 0.76869004964828491 0.63082200288772583
0.33826404809951782 0.82214450836181641 0.65931731462478638
0.52352815866470337 0.87926656007766724 0.69510364532470703
0.72091066837310791 0.91229373216629028 0.71532279253005981
0.8847801685333252 0.93797105550765991 0.76171398162841797
0.98293781280517578 0.97003626823425293 0.85158288478851318
0.13872529566287994 0.26787588000297546 0.67776399850845337
0.16638202965259552 0.28626739978790283 0.70055192708969116
0.19743508100509644 0.31675705313682556 0.73247766494750977
0.39077123999595642 0.3409724235534668 0.75479298830032349
0.62925833463668823 0.35455602407455444 0.7584565281867981
0.77095681428909302 0.33634623885154724 0.73992544412612915
0.88520944118499756 0.33081299066543579 0.73459869623184204
0.14151778817176819 0.34701305627822876 0.68285840749740601
0.17073477804660797 0.36369180679321289 0.70523577928543091
0.19821140170097351 0.38978850841522217 0.73655813932418823
0.39406412839889526 0.41057464480400085 0.76011747121810913
0.64095973968505859 0.43677771091461182 0.77188396453857422
0.79189813137054443 0.43106892704963684 0.76025217771530151
0.90580672025680542 0.44012027978897095 0.76040840148925781
0.12833800911903381 0.43450084328651428 0.69119811058044434
0.15490105748176575 0.44855916500091553 0.70887982845306396
0.18923620879650116 0.46649926900863647 0.73352837562561035
0.37138852477073669 0.48847249150276184 0.75802743434906006
0.62918263673782349 0.52304214239120483 0.77888780832290649
0.81008780002593994 0.54543000459671021 0.78285360336303711
0.92458903789520264 0.56648904085159302 0.79324048757553101
0.12319891154766083 0.51777344942092896 0.69690108299255371
0.1366322785615921 0.52777993679046631 0.71140569448471069
0.15552139282226562 0.53842079639434814 0.72504419088363647
0.36883065104484558 0.56693977117538452 0.75453644990921021
0.62633216381072998 0.61028486490249634 0.78358817100524902
0.82041579484939575 0.64867395162582397 0.79852235317230225
0.93478655815124512 0.68223172426223755 0.81982755661010742
0.12225000560283661 0.58933836221694946 0.6838148832321167
0.13622930645942688 0.59949415922164917 0.69742375612258911
0.19942669570446014 0.61406254768371582 0.71920812129974365
0.4143078625202179 0.65570312738418579 0.76176095008850098
0.61660826206207275 0.69688123464584351 0.79335182905197144
0.82765477895736694 0.74528622627258301 0.81531864404678345
0.95033031702041626 0.79209524393081665 0.84267568588256836
0.11251446604728699 0.6531064510345459 0.67012476921081543
0.12846475839614868 0.66541063785552979 0.68354463577270508
0.14654682576656342 0.6751977801322937 0.69936347007751465
0.34612366557121277 0.73296940326690674 0.7519342303276062
0.62635725736618042 0.79697078466415405 0.80164569616317749
0.83677411079406738 0.84569352865219116 0.83060324192047119
0.95625060796737671 0.88747328519821167 0.86740243434906006
0.11994732171297073 0.72435098886489868 0.66908514499664307
0.16204610466957092 0.74914193153381348 0.68934136629104614
0.21187871694564819 0.78528308868408203 0.71811008453369141
0.32944849133491516 0.84669309854507446 0.7674219012260437
0.6517941951751709 0.91442251205444336 0.8168264627456665
0.85008323192596436 0.93546879291534424 0.84246575832366943
0.97112476825714111 0.95958346128463745 0.89190429449081421
