assets/lut/editingcorpw Radiant Rose.cube
LUT_3D_SIZE 6
DOMAIN_MIN 0.0 0.0 0.0
DOMAIN_MAX 1.0 1.0 1.0
0.159243 0.144625 0.155154
0.203140 0.185495 0.198203
0.343596 0.326201 0.338640
0.544841 0.538390 0.542968
0.697065 0.693477 0.696022
0.844388 0.843290 0.844083
0.174551 0.158822 0.170150
0.222363 0.203821 0.217165
0.344750 0.327529 0.339838
0.547220 0.540801 0.545355
0.698881 0.695285 0.697830
0.847520 0.846452 0.847202
0.252921 0.233445 0.247446
0.297883 0.278565 0.292408
0.405203 0.392362 0.401487
0.536567 0.529942 0.534630
0.702388 0.698865 0.701351
0.857725 0.856809 0.857475
0.375226 0.360052 0.370874
0.412707 0.400427 0.409169
0.553722 0.547413 0.551891
0.630467 0.625538 0.629044
0.699447 0.695875 0.698400
0.872996 0.872276 0.872776
0.554131 0.547820 0.552294
0.583207 0.577398 0.581507
0.668248 0.664046 0.667013
0.779734 0.777641 0.779111
0.822680 0.821279 0.822266
0.900602 0.900139 0.900462
0.761715 0.759304 0.761013
0.781332 0.779263 0.780722
0.852104 0.851090 0.851805
0.947661 0.947509 0.947606
1.000000 1.000000 1.000000
1.000000 1.000000 1.000000
0.167770 0.152377 0.163461
0.160144 0.145438 0.156029
0.364933 0.348955 0.360346
0.561547 0.555355 0.559734
0.706689 0.703267 0.705683
0.851884 0.850895 0.851609
0.188754 0.171990 0.184053
0.229006 0.210200 0.223726
0.363263 0.347241 0.358669
0.561699 0.555510 0.559901
0.707942 0.704540 0.706945
0.854234 0.853270 0.853954
0.248152 0.228736 0.242687
0.296602 0.277227 0.291112
0.409065 0.396465 0.405437
0.550988 0.544619 0.549130
0.709335 0.705968 0.708352
0.863232 0.862381 0.862976
0.373223 0.357934 0.368841
0.409536 0.396989 0.405918
0.550421 0.544056 0.548565
0.632158 0.627263 0.630733
0.705672 0.702221 0.704665
0.877478 0.876774 0.877275
0.546195 0.539749 0.544309
0.575153 0.569200 0.573421
0.662689 0.658398 0.661441
0.777538 0.775402 0.776913
0.823255 0.821857 0.822842
0.901072 0.900609 0.900938
0.748885 0.746224 0.748104
0.768311 0.766024 0.767647
0.844199 0.843097 0.843876
0.944336 0.944202 0.944300
1.000000 1.000000 1.000000
1.000000 1.000000 1.000000
0.204770 0.187082 0.199808
0.200571 0.183114 0.195687
0.216274 0.198066 0.211165
0.465482 0.456504 0.462892
0.724416 0.721328 0.723510
0.868265 0.867448 0.868028
0.267624 0.248019 0.262084
0.260043 0.240467 0.254525
0.259546 0.239989 0.254029
0.540784 0.534226 0.538877
0.725495 0.722418 0.724588
0.870545 0.869769 0.870314
0.288086 0.268662 0.282593
0.307595 0.288621 0.302209
0.423286 0.411794 0.419962
0.593148 0.587508 0.591499
0.728723 0.725724 0.727851
0.878298 0.877615 0.878084
0.344855 0.327625 0.339936
0.378543 0.363613 0.374255
0.534107 0.527460 0.532170
0.637401 0.632613 0.636009
0.730621 0.727646 0.729750
0.894580 0.894061 0.894427
0.467814 0.459074 0.465277
0.516308 0.509332 0.514271
0.641974 0.637266 0.640592
0.767486 0.765184 0.766814
0.826397 0.825048 0.826003
0.909211 0.908829 0.909105
0.664008 0.659699 0.662764
0.702777 0.699264 0.701755
0.805922 0.804251 0.805431
0.929058 0.928806 0.928986
1.000000 1.000000 1.000000
1.000000 1.000000 1.000000
0.273924 0.254313 0.268394
0.269907 0.250255 0.264364
0.264602 0.244917 0.259054
0.293741 0.274386 0.288256
0.432437 0.421241 0.429200
0.855320 0.854343 0.855027
0.330939 0.312941 0.325802
0.324070 0.305673 0.318825
0.307383 0.288331 0.301973
0.329430 0.311310 0.324267
0.514487 0.507254 0.512387
0.874213 0.873489 0.874006
0.492276 0.484626 0.490042
0.486445 0.478547 0.484156
0.466192 0.457369 0.463623
0.459356 0.450170 0.456693
0.698912 0.695321 0.697860
0.905727 0.905300 0.905605
0.439225 0.428821 0.436218
0.452910 0.443357 0.450142
0.510715 0.503566 0.508619
0.647894 0.643280 0.646548
0.777919 0.775793 0.777297
0.925522 0.925266 0.925441
0.336430 0.318708 0.331372
0.356951 0.340520 0.352253
0.485676 0.477724 0.483371
0.733364 0.730458 0.732513
0.833203 0.831947 0.832840
0.938206 0.938029 0.938159
0.254966 0.235605 0.249515
0.280225 0.260690 0.274694
0.526868 0.520016 0.524867
0.870255 0.869453 0.870035
0.998312 0.998312 0.998312
1.000000 1.000000 1.000000
0.400421 0.387188 0.396607
0.393896 0.380166 0.389929
0.363688 0.347681 0.359090
0.365195 0.349282 0.360623
0.385364 0.370998 0.381236
0.354089 0.337420 0.349328
0.448393 0.438535 0.445536
0.440588 0.430272 0.437602
0.410002 0.397512 0.406388
0.398717 0.385364 0.394873
0.411029 0.398608 0.407442
0.383914 0.369411 0.379746
0.587901 0.582170 0.586229
0.582384 0.576561 0.580688
0.560328 0.554115 0.558516
0.515418 0.508419 0.513378
0.501819 0.494484 0.499682
0.609555 0.604259 0.608009
0.722404 0.719279 0.721476
0.720667 0.717521 0.719750
0.712260 0.708949 0.711300
0.682798 0.678905 0.681667
0.663375 0.659103 0.662123
0.878233 0.877536 0.878017
0.539413 0.532793 0.537481
0.553349 0.547013 0.551492
0.610903 0.605596 0.609347
0.697773 0.694149 0.696709
0.848009 0.846941 0.847696
0.981118 0.981107 0.981118
0.159243 0.144625 0.155154
0.159243 0.144625 0.155154
0.166132 0.150899 0.161872
0.292439 0.273190 0.286989
0.959385 0.959306 0.959362
1.000000 1.000000 1.000000
0.642969 0.638270 0.641596
0.636738 0.631940 0.635334
0.606708 0.601349 0.605145
0.518785 0.511913 0.516777
0.463453 0.454542 0.460878
0.406714 0.393988 0.403052
0.667274 0.663075 0.666060
0.661123 0.656780 0.659844
0.634059 0.629195 0.632641
0.558102 0.551861 0.556281
0.490675 0.482948 0.488429
0.425141 0.413764 0.421851
0.741219 0.738442 0.740407
0.736513 0.733658 0.735681
0.715121 0.711859 0.714172
0.662657 0.658377 0.661418
0.597247 0.591687 0.595640
0.512212 0.505150 0.510149
0.863438 0.862553 0.863182
0.858120 0.857165 0.857842
0.834329 0.833076 0.833956
0.795925 0.794101 0.795390
0.726944 0.723911 0.726057
0.678926 0.674940 0.677754
0.951678 0.951562 0.951635
0.953442 0.953328 0.953404
0.955829 0.955723 0.955799
0.948983 0.948832 0.948940
0.905267 0.904831 0.905145
0.879698 0.879009 0.879496
0.751644 0.749050 0.750881
0.762478 0.760067 0.761777
0.801450 0.799692 0.800931
0.878086 0.877403 0.877873
0.979119 0.979101 0.979119
1.000000 1.000000 1.000000
