assets/lut/editingcorp vubes.cube
# Created by: G'MIC (https://gmic.eu)
TITLE "vubes"
# LUT size
LUT_3D_SIZE 13
# Data domain
DOMAIN_MIN 0.0 0.0 0.0
DOMAIN_MAX 1.0 1.0 1.0
# LUT data points
0.041070301085710526 0.038392789661884308 0.027921924367547035
0.089469984173774719 0.034751277416944504 0.025489239022135735
0.15518711507320404 0.032871082425117493 0.025721680372953415
0.22218233346939087 0.03030790388584137 0.018990743905305862
0.29129984974861145 0.031302373856306076 0.016671514138579369
0.36607801914215088 0.038667209446430206 0.027360608801245689
0.4455166757106781 0.053861640393733978 0.044057734310626984
0.51921820640563965 0.06933923065662384 0.055229950696229935
0.57263517379760742 0.070463560521602631 0.055696375668048859
0.61195385456085205 0.065633468329906464 0.054180953651666641
0.64813750982284546 0.062014933675527573 0.049011394381523132
0.68621540069580078 0.062802784144878387 0.049479976296424866
0.72621017694473267 0.061120517551898956 0.05056622251868248
0.059855278581380844 0.095747418701648712 0.041738681495189667
0.10418952256441116 0.092084519565105438 0.03968333825469017
0.16293227672576904 0.090655304491519928 0.040431316941976547
0.22704756259918213 0.089101456105709076 0.041248217225074768
0.29339095950126648 0.089217483997344971 0.04167918860912323
0.3640214204788208 0.092460215091705322 0.045989573001861572
0.43976646661758423 0.10114876180887222 0.056732911616563797
0.51438593864440918 0.11595889925956726 0.069079965353012085
0.57400858402252197 0.12280508130788803 0.07625705748796463
0.61889129877090454 0.12227774411439896 0.079014673829078674
0.658130943775177 0.12114868313074112 0.07700616866350174
0.69753420352935791 0.12308059632778168 0.078439392149448395
0.73777282238006592 0.12245982885360718 0.078272558748722076
0.070701256394386292 0.15079718828201294 0.045827362686395645
0.11273901164531708 0.14782106876373291 0.044272866100072861
0.16770277917385101 0.1481698602437973 0.046489670872688293
0.23053248226642609 0.14919346570968628 0.052008267492055893
0.29698669910430908 0.15110664069652557 0.055357269942760468
0.36690512299537659 0.15193864703178406 0.057879295200109482
0.44160664081573486 0.15390357375144958 0.065170645713806152
0.51677525043487549 0.16297534108161926 0.075088992714881897
0.58109444379806519 0.16876745223999023 0.081927850842475891
0.63090050220489502 0.16740410029888153 0.083363339304924011
0.67172396183013916 0.16625054180622101 0.083277970552444458
0.71114581823348999 0.16824309527873993 0.085043422877788544
0.75085711479187012 0.16931314766407013 0.08607955276966095
0.079826176166534424 0.20821221172809601 0.050242211669683456
0.120586097240448 0.20713131129741669 0.049881070852279663
0.1726643294095993 0.20896205306053162 0.053063023835420609
0.23462341725826263 0.21153552830219269 0.058804411441087723
0.30318829417228699 0.21487203240394592 0.063886828720569611
0.3759370744228363 0.21658600866794586 0.068305462598800659
0.45307838916778564 0.21792525053024292 0.075387321412563324
0.53137439489364624 0.22357459366321564 0.083990730345249176
0.60099512338638306 0.2285434752702713 0.090564712882041931
0.65459239482879639 0.22782377898693085 0.092474855482578278
0.69586950540542603 0.22555722296237946 0.092440046370029449
0.73276805877685547 0.2250669002532959 0.093465857207775116
0.77073723077774048 0.2265942245721817 0.096444137394428253
0.087119385600090027 0.27096378803253174 0.059150651097297668
0.1254303902387619 0.27057793736457825 0.058844592422246933
0.17452973127365112 0.27287018299102783 0.062082238495349884
0.23689949512481689 0.27669936418533325 0.067967928946018219
0.30957761406898499 0.28181231021881104 0.074605576694011688
0.38764569163322449 0.28678777813911438 0.081012621521949768
0.47040519118309021 0.29177039861679077 0.089778304100036621
0.55543291568756104 0.30054253339767456 0.10092040151357651
0.6327054500579834 0.3091767430305481 0.11181730031967163
0.69083666801452637 0.31148916482925415 0.11720998585224152
0.73014253377914429 0.30823782086372375 0.11681319773197174
0.76272743940353394 0.30408367514610291 0.11598677933216095
0.79775840044021606 0.30272760987281799 0.11835066974163055
0.092908479273319244 0.34376794099807739 0.071656890213489532
0.12764288485050201 0.34210127592086792 0.070765957236289978
0.1728082001209259 0.34255760908126831 0.073159627616405487
0.23505698144435883 0.34700408577919006 0.079478412866592407
0.31349751353263855 0.35587900876998901 0.088146030902862549
0.39913001656532288 0.36574563384056091 0.096907749772071838
0.4888860285282135 0.37594938278198242 0.10821136832237244
0.58170843124389648 0.38923972845077515 0.12465193867683411
0.66777729988098145 0.40314415097236633 0.14375364780426025
0.73003339767456055 0.40913617610931396 0.1546405702829361
0.76706844568252563 0.40592008829116821 0.15455995500087738
0.79609555006027222 0.40015110373497009 0.15229344367980957
0.82859593629837036 0.39604714512825012 0.15366502106189728
0.10190833359956741 0.4243074357509613 0.088186629116535187
0.13247813284397125 0.42041188478469849 0.086794398725032806
0.17126902937889099 0.41869476437568665 0.087463244795799255
0.23121863603591919 0.42296263575553894 0.093527264893054962
0.31561067700386047 0.43645778298377991 0.10527541488409042
0.41035723686218262 0.45168676972389221 0.11771784722805023
0.5053601861000061 0.4649803638458252 0.13088558614253998
0.60291141271591187 0.48066502809524536 0.15188984572887421
0.69453209638595581 0.49780082702636719 0.17844925820827484
0.76060521602630615 0.50681209564208984 0.19542330503463745
0.7993243932723999 0.50613892078399658 0.1986769437789917
0.82827109098434448 0.50173085927963257 0.19729752838611603
0.8604729175567627 0.49609619379043579 0.1980661004781723
0.11892112344503403 0.50898218154907227 0.10926217585802078
0.14775604009628296 0.50438964366912842 0.10728264600038528
0.18252889811992645 0.50047445297241211 0.10681270807981491
0.23745207488536835 0.50404173135757446 0.11222413182258606
0.32214939594268799 0.51942265033721924 0.12626262009143829
0.42216283082962036 0.53929656744003296 0.14406745135784149
0.52206879854202271 0.55563080310821533 0.1612824946641922
0.62094718217849731 0.57216638326644897 0.18507079780101776
0.71232080459594727 0.58825689554214478 0.21464997529983521
0.78086531162261963 0.59691840410232544 0.23493076860904694
0.825264573097229 0.59860515594482422 0.24348975718021393
0.85811412334442139 0.59696739912033081 0.24500857293605804
0.8908390998840332 0.59243965148925781 0.24561838805675507
0.14364834129810333 0.59194731712341309 0.13315321505069733
0.17516157031059265 0.58826279640197754 0.13174828886985779
0.21084171533584595 0.58489644527435303 0.13135109841823578
0.26096644997596741 0.58695662021636963 0.13586968183517456
0.33727401494979858 0.60038596391677856 0.1506144255399704
0.43829986453056335 0.62385845184326172 0.17514100670814514
0.54475301504135132 0.64737313985824585 0.20223052799701691
0.64342814683914185 0.66473633050918579 0.2292165607213974
0.728829026222229 0.67588567733764648 0.25442448258399963
0.79628413915634155 0.6809619665145874 0.27400907874107361
0.84520989656448364 0.68256205320358276 0.28526240587234497
0.88240480422973633 0.68317979574203491 0.2890264093875885
0.91642767190933228 0.68055242300033569 0.28974166512489319
0.17029672861099243 0.6641312837600708 0.15451920032501221
0.20701079070568085 0.66355377435684204 0.15516699850559235
0.24627462029457092 0.6625068187713623 0.1561475396156311
0.2928270697593689 0.6640351414680481 0.16058339178562164
0.36037430167198181 0.67530810832977295 0.17584365606307983
0.45660233497619629 0.70020490884780884 0.20514258742332458
0.56525218486785889 0.729259192943573 0.24105048179626465
0.6617286205291748 0.74739533662796021 0.26986455917358398
0.74143266677856445 0.75485128164291382 0.29168605804443359
0.80694746971130371 0.75806498527526855 0.30895307660102844
0.85857599973678589 0.75980383157730103 0.32072755694389343
0.89954400062561035 0.76117032766342163 0.32623308897018433
0.93589115142822266 0.75919133424758911 0.32700860500335693
0.19238957762718201 0.72205358743667603 0.17009422183036804
0.23245535790920258 0.72443616390228271 0.1731070876121521
0.27417221665382385 0.72545653581619263 0.17532971501350403
0.31719532608985901 0.72602981328964233 0.17910850048065186
0.3758963942527771 0.73433750867843628 0.19233645498752594
0.46262580156326294 0.75670814514160156 0.22130294144153595
0.56662708520889282 0.78622263669967651 0.25950655341148376
0.66359740495681763 0.80758899450302124 0.29246744513511658
0.74539494514465332 0.81818521022796631 0.31647315621376038
0.81305938959121704 0.82391750812530518 0.3350488543510437
0.86806732416152954 0.82757836580276489 0.34829634428024292
0.91278070211410522 0.82967358827590942 0.35529586672782898
0.95228409767150879 0.82804930210113525 0.35679000616073608
0.20697110891342163 0.77031809091567993 0.18011637032032013
0.24801996350288391 0.77249687910079956 0.18419836461544037
0.28678816556930542 0.77268654108047485 0.18594399094581604
0.3255312442779541 0.77136296033859253 0.18783999979496002
0.37641984224319458 0.77568459510803223 0.19718337059020996
0.45340630412101746 0.79349809885025024 0.22258688509464264
0.55250692367553711 0.82169955968856812 0.26074674725532532
0.65276837348937988 0.84797430038452148 0.29878467321395874
0.74149662256240845 0.86580008268356323 0.32949194312095642
0.81643295288085938 0.87700635194778442 0.35240858793258667
0.87651121616363525 0.88410276174545288 0.36791849136352539
0.92442572116851807 0.887981116771698 0.37621527910232544
0.96656888723373413 0.88772732019424438 0.37948769330978394
0.2164178341627121 0.81320035457611084 0.18596319854259491
0.25604426860809326 0.81400769948959351 0.19019688665866852
0.2923026978969574 0.81221777200698853 0.19153605401515961
0.32796669006347656 0.80927318334579468 0.19215059280395508
0.37355077266693115 0.81051802635192871 0.19841413199901581
0.44363963603973389 0.82465106248855591 0.22023314237594604
0.5396953821182251 0.85233849287033081 0.25818684697151184
0.64149993658065796 0.88082891702651978 0.29934275150299072
0.73522114753723145 0.90403056144714355 0.33425232768058777
0.81609737873077393 0.92034173011779785 0.36148831248283386
0.88129180669784546 0.93114727735519409 0.37982866168022156
0.93344753980636597 0.93738788366317749 0.39002308249473572
0.97801053524017334 0.93959897756576538 0.39420598745346069
0.031656555831432343 0.028576929122209549 0.058441266417503357
0.080968268215656281 0.025713259354233742 0.0615500807762146
0.15022370219230652 0.025652986019849777 0.06344103068113327
0.22047318518161774 0.026075266301631927 0.05577583983540535
0.29016107320785522 0.028599368408322334 0.052146431058645248
0.36624696850776672 0.036421231925487518 0.066644318401813507
0.44639116525650024 0.048621892929077148 0.077258706092834473
0.51797401905059814 0.055268097668886185 0.072018489241600037
0.57231003046035767 0.054653018712997437 0.066648386418819427
0.61155331134796143 0.055604357272386551 0.07298559695482254
0.64589715003967285 0.054030608385801315 0.068746812641620636
0.68432480096817017 0.058342143893241882 0.072484247386455536
0.72623080015182495 0.060531675815582275 0.080481283366680145
0.057538695633411407 0.090398587286472321 0.080440029501914978
0.10353459417819977 0.088534519076347351 0.080656088888645172
0.16255445778369904 0.089199647307395935 0.079005055129528046
0.22657041251659393 0.089569196105003357 0.078643634915351868
0.29315862059593201 0.091879583895206451 0.080018974840641022
0.36685648560523987 0.098001338541507721 0.086849555373191833
0.44469627737998962 0.10781992226839066 0.095353111624717712
0.51806551218032837 0.11706028133630753 0.098822727799415588
0.57642817497253418 0.12129618227481842 0.10229340940713882
0.62002885341644287 0.1231161504983902 0.10939760506153107
0.65732079744338989 0.12213562428951263 0.10743194073438644
0.69598746299743652 0.12392180413007736 0.11014895141124725
0.73729926347732544 0.12388341873884201 0.1134411096572876
0.068211287260055542 0.1492781788110733 0.08337739109992981
0.11177471280097961 0.14767305552959442 0.082900024950504303
0.16872738301753998 0.15024265646934509 0.083738230168819427
0.23165394365787506 0.15153160691261292 0.088834591209888458
0.29812222719192505 0.15339091420173645 0.093331508338451385
0.37031689286231995 0.15630590915679932 0.096245542168617249
0.44702783226966858 0.16030415892601013 0.10124535858631134
0.52223372459411621 0.16699682176113129 0.10696463286876678
0.58548998832702637 0.17187362909317017 0.11332027614116669
0.63314235210418701 0.1714683473110199 0.11685065180063248
0.67155367136001587 0.16718997061252594 0.11573041975498199
0.70869308710098267 0.16489399969577789 0.11568909883499146
0.74881064891815186 0.16530583798885345 0.11787322163581848
0.076299794018268585 0.20855048298835754 0.085035480558872223
0.11885971575975418 0.2081935852766037 0.085735335946083069
0.17333051562309265 0.21073329448699951 0.089561417698860168
0.23652048408985138 0.21359460055828094 0.095400355756282806
0.30541947484016418 0.21617111563682556 0.09976273775100708
0.37903872132301331 0.21803674101829529 0.10225547105073929
0.45750516653060913 0.22009283304214478 0.10594030469655991
0.53645092248916626 0.22558736801147461 0.11226021498441696
0.60520040988922119 0.23056015372276306 0.12057143449783325
0.65651905536651611 0.22982935607433319 0.12433122843503952
0.6948743462562561 0.22502966225147247 0.12281567603349686
0.73063367605209351 0.22170451283454895 0.12326490879058838
0.76948344707489014 0.22460435330867767 0.12836194038391113
0.083445437252521515 0.27170261740684509 0.092477492988109589
0.12355343997478485 0.27122664451599121 0.092856526374816895
0.1746751070022583 0.27387967705726624 0.097257189452648163
0.23959857225418091 0.27791616320610046 0.1034015417098999
0.31261017918586731 0.28241044282913208 0.10875365138053894
0.38978523015975952 0.28707006573677063 0.11242273449897766
0.47281551361083984 0.29267248511314392 0.1178990975022316
0.55866104364395142 0.30114805698394775 0.12834732234477997
0.63471174240112305 0.3093264102935791 0.14050385355949402
0.69032460451126099 0.31110343337059021 0.14667791128158569
0.72778075933456421 0.30658209323883057 0.1457614004611969
0.76091831922531128 0.30330240726470947 0.14590738713741302
0.79749083518981934 0.30454608798027039 0.15179850161075592
0.090021885931491852 0.3428020179271698 0.10367315262556076
0.12608902156352997 0.34178599715232849 0.10319148004055023
0.17360447347164154 0.34277999401092529 0.10648519545793533
0.23761643469333649 0.34763315320014954 0.11309558898210526
0.31557264924049377 0.3557799756526947 0.12072544544935226
0.3992946445941925 0.36561751365661621 0.12747432291507721
0.48913368582725525 0.37625610828399658 0.13729141652584076
0.58245092630386353 0.38961192965507507 0.1541389524936676
0.66759467124938965 0.40235614776611328 0.17336419224739075
0.72796922922134399 0.40735077857971191 0.18396987020969391
0.76542335748672485 0.40446573495864868 0.18408477306365967
0.79575610160827637 0.4002806544303894 0.18306256830692291
0.82978278398513794 0.39851069450378418 0.18723691999912262
0.10014989227056503 0.42208981513977051 0.11900614947080612
0.13168737292289734 0.41935119032859802 0.11735621094703674
0.17288525402545929 0.4187723696231842 0.11878959834575653
0.23285846412181854 0.42323523759841919 0.12483783811330795
0.31431218981742859 0.43577283620834351 0.13557595014572144
0.4077569842338562 0.45135617256164551 0.14829586446285248
0.50527912378311157 0.46630164980888367 0.16337718069553375
0.60563427209854126 0.48263609409332275 0.18623428046703339
0.69611704349517822 0.49891063570976257 0.21273618936538696
0.76145505905151367 0.50680327415466309 0.22882033884525299
0.80092364549636841 0.5056687593460083 0.23093479871749878
0.83086156845092773 0.50184780359268188 0.22993519902229309
0.8632272481918335 0.49839216470718384 0.23239083588123322
0.11721733212471008 0.50552123785018921 0.13921377062797546
0.14667615294456482 0.50228971242904663 0.13693399727344513
0.18205147981643677 0.49955707788467407 0.13634051382541656
0.2350974977016449 0.50280952453613281 0.14108411967754364
0.31527188420295715 0.51638901233673096 0.15404431521892548
0.4169924259185791 0.53774213790893555 0.1743561327457428
0.52320128679275513 0.55814081430435181 0.1968456357717514
0.62596410512924194 0.57664626836776733 0.22400543093681335
0.71710383892059326 0.59170049428939819 0.25286495685577393
0.78482770919799805 0.59928017854690552 0.27217015624046326
0.82898181676864624 0.59981268644332886 0.2783103883266449
0.8618348240852356 0.59852379560470581 0.2797294557094574
0.89444988965988159 0.59510546922683716 0.28156328201293945
0.14220182597637177 0.58706355094909668 0.16294321417808533
0.17336733639240265 0.58539557456970215 0.16136889159679413
0.20684994757175446 0.58277732133865356 0.16010764241218567
0.25179502367973328 0.58285939693450928 0.1625499427318573
0.32417580485343933 0.59457409381866455 0.17623256146907806
0.42993178963661194 0.62060666084289551 0.20472781360149384
0.54429948329925537 0.64803963899612427 0.23725956678390503
0.64677983522415161 0.66784518957138062 0.26652166247367859
0.73186510801315308 0.67918115854263306 0.29176846146583557
0.79855906963348389 0.68368351459503174 0.31041350960731506
0.84731400012969971 0.68532001972198486 0.32048818469047546
0.88443613052368164 0.68614590167999268 0.32497683167457581
0.91862201690673828 0.68398767709732056 0.32678097486495972
0.1696302741765976 0.65864795446395874 0.18578894436359406
0.20480622351169586 0.66002261638641357 0.18602173030376434
0.24056863784790039 0.65955954790115356 0.18550696969032288
0.28208485245704651 0.65934479236602783 0.18776948750019073
0.34721872210502625 0.66925549507141113 0.20190735161304474
0.44714665412902832 0.6954118013381958 0.23390813171863556
0.56075257062911987 0.72660279273986816 0.27283668518066406
0.66042226552963257 0.74767684936523438 0.3040013313293457
0.74059110879898071 0.75702035427093506 0.3259676992893219
0.80596292018890381 0.76065599918365479 0.34354707598686218
0.85772198438644409 0.76341921091079712 0.35584929585456848
0.8984188437461853 0.76473903656005859 0.36257791519165039
0.93532508611679077 0.76344501972198486 0.36415332555770874
0.19264666736125946 0.7167971134185791 0.20325937867164612
0.23143759369850159 0.72060054540634155 0.205910325050354
0.26928716897964478 0.72234499454498291 0.20653708279132843
0.30880725383758545 0.72218984365463257 0.20818085968494415
0.36567527055740356 0.7288583517074585 0.22018693387508392
0.45348751544952393 0.7511259913444519 0.24984525144100189
0.56061267852783203 0.78204959630966187 0.29014712572097778
0.66075032949447632 0.80651122331619263 0.32539549469947815
0.74318224191665649 0.81979852914810181 0.35087639093399048
0.81117767095565796 0.82685744762420654 0.37022429704666138
0.86578667163848877 0.83151841163635254 0.38422626256942749
0.90923237800598145 0.83460855484008789 0.39227312803268433
0.94906139373779297 0.83321750164031982 0.39405673742294312
0.20987251400947571 0.76547414064407349 0.2149282842874527
0.24969819188117981 0.7689518928527832 0.21936345100402832
0.28650593757629395 0.76962494850158691 0.2204987108707428
0.32157564163208008 0.76785576343536377 0.21991294622421265
0.36974480748176575 0.77075940370559692 0.22711201012134552
0.4470171332359314 0.78868234157562256 0.25245159864425659
0.54850047826766968 0.81867784261703491 0.29252371191978455
0.65168577432632446 0.84761255979537964 0.33310827612876892
0.74170440435409546 0.86771649122238159 0.36539065837860107
0.81564992666244507 0.880115807056427 0.38890337944030762
0.87423235177993774 0.88801389932632446 0.40456652641296387
0.92149025201797485 0.8925054669380188 0.4136359691619873
0.96371346712112427 0.89263725280761719 0.41654494404792786
0.22080437839031219 0.80948126316070557 0.22194656729698181
0.26048976182937622 0.81146490573883057 0.22713570296764374
0.29555836319923401 0.81012672185897827 0.22874276340007782
0.32819172739982605 0.80644059181213379 0.22694535553455353
0.37154990434646606 0.80720484256744385 0.2316448837518692
0.44209921360015869 0.82222795486450195 0.25353202223777771
0.5385480523109436 0.85042327642440796 0.29219540953636169
0.64264523983001709 0.88120752573013306 0.33518868684768677
0.73767757415771484 0.90633273124694824 0.3722957968711853
0.81737762689590454 0.9232679009437561 0.39932730793952942
0.88049942255020142 0.93436276912689209 0.41733565926551819
0.93225395679473877 0.94117110967636108 0.42788955569267273
0.97720444202423096 0.94353944063186646 0.43240445852279663
0.025964369997382164 0.025738883763551712 0.11517776548862457
0.083322815597057343 0.025561239570379257 0.12481134384870529
0.16046470403671265 0.026567690074443817 0.13021738827228546
0.23115448653697968 0.027919230982661247 0.12558287382125854
0.29830813407897949 0.030108403414487839 0.12531648576259613
0.37288719415664673 0.036941841244697571 0.13538378477096558
0.45303082466125488 0.04861043393611908 0.13603544235229492
0.52427679300308228 0.048692710697650909 0.11645793169736862
0.57812970876693726 0.04186452180147171 0.099256880581378937
0.61804640293121338 0.04884319007396698 0.11028885096311569
0.65060907602310181 0.048609700053930283 0.10459379106760025
0.68566358089447021 0.042952235788106918 0.096222847700119019
0.72748255729675293 0.04331931471824646 0.10207987576723099
0.054273761808872223 0.089486457407474518 0.13376900553703308
0.1031251922249794 0.090595841407775879 0.13548557460308075
0.1685364693403244 0.093237154185771942 0.13769301772117615
0.23431165516376495 0.095255173742771149 0.13909803330898285
0.30071043968200684 0.099166214466094971 0.14135684072971344
0.37481501698493958 0.10673727840185165 0.14709892868995667
0.4540039598941803 0.11722064763307571 0.15212251245975494
0.52723217010498047 0.12246548384428024 0.14781440794467926
0.58505082130432129 0.12260778248310089 0.14334613084793091
0.62832558155059814 0.12778216600418091 0.15102091431617737
0.66305363178253174 0.12540227174758911 0.14821821451187134
0.69893521070480347 0.11741243302822113 0.14113861322402954
0.74013620615005493 0.11517740786075592 0.14265966415405273
0.066405154764652252 0.15038277208805084 0.13493388891220093
0.11175762861967087 0.15106703341007233 0.13520243763923645
0.17234364151954651 0.15446256101131439 0.1386478990316391
0.23702353239059448 0.15672533214092255 0.1436082124710083
0.30400776863098145 0.15934738516807556 0.14666202664375305
0.37739855051040649 0.16266131401062012 0.14810295403003693
0.4556717574596405 0.1666577160358429 0.15025478601455688
0.53158926963806152 0.17195995151996613 0.15221872925758362
0.59480136632919312 0.17711630463600159 0.15693746507167816
0.64105015993118286 0.17734715342521667 0.16010051965713501
0.67633306980133057 0.16913680732250214 0.15516753494739532
0.71227633953094482 0.16299107670783997 0.151999831199646
0.75367563962936401 0.16643866896629333 0.15721428394317627
0.074113108217716217 0.20948413014411926 0.13329127430915833
0.11825941503047943 0.21059142053127289 0.13523438572883606
0.17570935189723969 0.21464259922504425 0.14078907668590546
0.24057044088840485 0.21804779767990112 0.14602850377559662
0.30930846929550171 0.21999984979629517 0.14785034954547882
0.38355901837348938 0.22100585699081421 0.1481960117816925
0.46376621723175049 0.22300797700881958 0.14871421456336975
0.54500961303710938 0.22920624911785126 0.15300858020782471
0.61418384313583374 0.23587401211261749 0.16261734068393707
0.66314566135406494 0.23485477268695831 0.16601897776126862
0.69843953847885132 0.22748607397079468 0.16240356862545013
0.73400336503982544 0.22478565573692322 0.16284644603729248
0.77528840303421021 0.2305062860250473 0.17159159481525421
0.081555984914302826 0.27320489287376404 0.13721930980682373
0.12325619161128998 0.27359679341316223 0.13860127329826355
0.17743827402591705 0.27737897634506226 0.14389032125473022
0.24218213558197021 0.28214332461357117 0.14952224493026733
0.31457343697547913 0.28636467456817627 0.15289229154586792
0.39138314127922058 0.2898261547088623 0.15395890176296234
