assets/lut/editingcorp seges.cube
# Created by: G'MIC (https://gmic.eu)
TITLE "seges"
# LUT size
LUT_3D_SIZE 7
# Data domain
DOMAIN_MIN 0.0 0.0 0.0
DOMAIN_MAX 1.0 1.0 1.0
# LUT data points
0.037768837064504623 0.034465566277503967 0.065512731671333313
0.21732822060585022 0.048859074711799622 0.065836884081363678
0.39331832528114319 0.086603708565235138 0.065516076982021332
0.53762316703796387 0.11002257466316223 0.077703945338726044
0.62726277112960815 0.12841883301734924 0.080863490700721741
0.70914971828460693 0.14285403490066528 0.083401687443256378
0.79976946115493774 0.15923124551773071 0.10099776089191437
0.044558238238096237 0.20407475531101227 0.018792156130075455
0.20846289396286011 0.18706949055194855 0.0126151442527771
0.37942036986351013 0.20088373124599457 0.027311258018016815
0.53906124830245972 0.22053401172161102 0.049789056181907654
0.6424601674079895 0.23824517428874969 0.066885225474834442
0.71973669528961182 0.23202243447303772 0.076231934130191803
0.8123660683631897 0.21902315318584442 0.10070591419935226
0.08198210597038269 0.36216491460800171 0
0.20465512573719025 0.34687367081642151 0.00014079973334446549
0.35075840353965759 0.33269742131233215 0.000303769571473822
0.52000212669372559 0.32841882109642029 0.0055857640691101551
0.64119118452072144 0.33424568176269531 0.030781989917159081
0.72781658172607422 0.33982506394386292 0.05520356073975563
0.81847143173217773 0.34167578816413879 0.079981468617916107
0.1132567897439003 0.50714230537414551 0
0.23285588622093201 0.49399226903915405 0
0.35030236840248108 0.47662508487701416 0
0.49453672766685486 0.45902106165885925 0.0014554491499438882
0.62923246622085571 0.44133630394935608 0.03411395475268364
0.72913151979446411 0.43165168166160583 0.047398451715707779
0.82325470447540283 0.42762821912765503 0.061148371547460556
0.13139371573925018 0.63653433322906494 0
0.25608041882514954 0.62410378456115723 0
0.35821965336799622 0.61068606376647949 0
0.47277429699897766 0.59823280572891235 0.00089944578940048814
0.61536610126495361 0.57525169849395752 0.017999941483139992
0.73175042867660522 0.55263239145278931 0.023374520242214203
0.83223074674606323 0.54030013084411621 0.050854448229074478
0.12313935160636902 0.75538372993469238 0
0.25627246499061584 0.74173581600189209 0.00013652128109242767
0.36000216007232666 0.7300117015838623 0.00083604699466377497
0.45856750011444092 0.72617125511169434 0.011675786226987839
0.60457819700241089 0.72275441884994507 0.010325802490115166
0.74064010381698608 0.7145959734916687 0.00077906588558107615
0.84346693754196167 0.70375275611877441 0.0050461860373616219
0.093307122588157654 0.87221682071685791 0
0.23044876754283905 0.85835868120193481 0
0.34189128875732422 0.8454887866973877 1.8669577912078239e-05
0.43472087383270264 0.84076327085494995 0.0039561851881444454
0.56325757503509521 0.82819885015487671 0.00029812980210408568
0.71323007345199585 0.82515031099319458 0
0.83406782150268555 0.83352994918823242 0
0.037299301475286484 0.031302478164434433 0.22062830626964569
0.18497924506664276 0.022710014134645462 0.22590819001197815
0.38979038596153259 0.03849366307258606 0.23670627176761627
0.53783977031707764 0.049142185598611832 0.23867760598659515
0.63405174016952515 0.089743673801422119 0.24420064687728882
0.7102552056312561 0.12022395431995392 0.23424181342124939
0.79730093479156494 0.14928549528121948 0.19286739826202393
0.024669677019119263 0.19765812158584595 0.21478095650672913
0.19336451590061188 0.19336938858032227 0.21222436428070068
0.39024412631988525 0.21216078102588654 0.22639153897762299
0.54740369319915771 0.23205025494098663 0.23644496500492096
0.65440309047698975 0.25634676218032837 0.25073209404945374
0.73730790615081787 0.23609703779220581 0.21473953127861023
0.82720327377319336 0.22980430722236633 0.18153566122055054
0.046279292553663254 0.37206944823265076 0.11497944593429565
0.20022904872894287 0.36207151412963867 0.088375046849250793
0.36611151695251465 0.34388110041618347 0.05453796312212944
0.52907258272171021 0.33793309330940247 0.080141060054302216
0.65311712026596069 0.34963741898536682 0.12435766309499741
0.74222737550735474 0.35005843639373779 0.11816781759262085
0.83327168226242065 0.35019421577453613 0.092589572072029114
0.11591237038373947 0.52561527490615845 0.00027397007215768099
0.24538882076740265 0.51166480779647827 0
0.35922038555145264 0.48847267031669617 0
0.50608319044113159 0.46521025896072388 0
0.65074044466018677 0.44711405038833618 0.0028349633794277906
0.74667268991470337 0.43810731172561646 0.016117768362164497
0.83890783786773682 0.43670734763145447 0.057640135288238525
0.1423945277929306 0.65658903121948242 0
0.27961382269859314 0.64350700378417969 0
0.3722693920135498 0.62610930204391479 0
0.48474046587944031 0.61247521638870239 0
0.63480615615844727 0.58807897567749023 0
0.75185322761535645 0.56705504655838013 0
0.84783744812011719 0.54844528436660767 0.013284660875797272
0.1255989670753479 0.77493417263031006 0
0.27028089761734009 0.76226913928985596 0
0.37032374739646912 0.748943030834198 0
0.46906456351280212 0.74157488346099854 0.0012014351086691022
0.61973375082015991 0.73371249437332153 0.0021195504814386368
0.75574135780334473 0.728168785572052 0
0.85809332132339478 0.70558100938796997 0
0.087490081787109375 0.8898313045501709 0
0.23372775316238403 0.87826168537139893 0
0.34607109427452087 0.86563116312026978 0
0.44561216235160828 0.85625302791595459 0.00099385576322674751
0.5828816294670105 0.84609657526016235 0
0.73665004968643188 0.84911704063415527 0
0.85319298505783081 0.84403091669082642 0
0.034315027296543121 0.030791906639933586 0.36839127540588379
0.1334875077009201 0.027340773493051529 0.36783117055892944
0.32278040051460266 0.014569196850061417 0.36718961596488953
0.55296915769577026 0.038233350962400436 0.36377191543579102
0.65322518348693848 0.065004624426364899 0.36717364192008972
0.72669136524200439 0.095102645456790924 0.36466416716575623
0.81535881757736206 0.097479738295078278 0.35198178887367249
0.011365404352545738 0.18547683954238892 0.35132494568824768
0.13194869458675385 0.17894189059734344 0.36055344343185425
0.33801683783531189 0.16639018058776855 0.36726278066635132
0.55554616451263428 0.21703144907951355 0.36666771769523621
0.66541761159896851 0.25670388340950012 0.37803387641906738
0.74495118856430054 0.24778872728347778 0.37403696775436401
0.84040325880050659 0.21635812520980835 0.38114094734191895
0.0057487785816192627 0.36014285683631897 0.33775168657302856
0.13106371462345123 0.36137473583221436 0.33585876226425171
0.34797394275665283 0.35596540570259094 0.34242218732833862
0.54230117797851562 0.36413675546646118 0.35907557606697083
0.67478722333908081 0.38460835814476013 0.37459149956703186
0.76741129159927368 0.3926636278629303 0.3756268322467804
0.8569648265838623 0.39139750599861145 0.37977439165115356
0.062393773347139359 0.52248102426528931 0.22818771004676819
0.22328823804855347 0.52092403173446655 0.21211178600788116
0.35777467489242554 0.50857752561569214 0.1865316778421402
0.51791667938232422 0.48256745934486389 0.20948906242847443
0.65937620401382446 0.46350455284118652 0.2297917902469635
0.75890910625457764 0.45953595638275146 0.22122858464717865
0.85220062732696533 0.459757000207901 0.2191946804523468
0.10872765630483627 0.66429191827774048 0.055069867521524429
0.28863042593002319 0.65731978416442871 0.039299324154853821
0.38275265693664551 0.64125978946685791 0.019763661548495293
0.49488729238510132 0.62369930744171143 0.01376317348331213
0.64220166206359863 0.59813803434371948 0.035345412790775299
0.76105791330337524 0.57343930006027222 0.016551148146390915
0.86107182502746582 0.56149053573608398 0.051085051149129868
0.098685257136821747 0.78640055656433105 0.0022635366767644882
0.27184146642684937 0.77796214818954468 0
0.37990069389343262 0.76405549049377441 0
0.47603383660316467 0.75173485279083252 0
0.62672322988510132 0.7413819432258606 0.014927778393030167
0.76244843006134033 0.74301153421401978 0.10947302728891373
0.87125509977340698 0.71980631351470947 0.025065673515200615
0.061215076595544815 0.90198045969009399 0
0.2291969507932663 0.89460510015487671 0
0.35164949297904968 0.88396090269088745 0
0.45089784264564514 0.87479138374328613 0
0.58753520250320435 0.85503613948822021 0
0.75707924365997314 0.86954611539840698 0.18033477663993835
0.86902284622192383 0.85765916109085083 0.05474771186709404
0.027302879840135574 0.047581735998392105 0.50302606821060181
0.13662806153297424 0.028695454820990562 0.50550615787506104
0.21438559889793396 0.01808471605181694 0.49860453605651855
0.47964894771575928 0.017839843407273293 0.49526989459991455
0.64327597618103027 0.049578916281461716 0.49718496203422546
0.73507964611053467 0.08560529351234436 0.48089882731437683
0.82711148262023926 0.077815786004066467 0.46504580974578857
0.025964908301830292 0.17273324728012085 0.50497066974639893
0.14790694415569305 0.16815286874771118 0.508137047290802
0.22783713042736053 0.16211500763893127 0.50599730014801025
0.50239568948745728 0.16200686991214752 0.50707048177719116
0.67451024055480957 0.22651484608650208 0.49491778016090393
0.75407665967941284 0.23791514337062836 0.4780612587928772
0.84822303056716919 0.23684389889240265 0.46766716241836548
0.0059865014627575874 0.32904553413391113 0.46905726194381714
0.1116386279463768 0.33135944604873657 0.48136189579963684
0.21103797852993011 0.32930445671081543 0.48579901456832886
0.50737178325653076 0.32835453748703003 0.49878576397895813
0.68659907579421997 0.37863278388977051 0.4933527410030365
0.77066659927368164 0.39739236235618591 0.48495280742645264
0.86828780174255371 0.39742991328239441 0.48099270462989807
0.0026294782292097807 0.50058132410049438 0.45086902379989624
0.12711185216903687 0.5070488452911377 0.4504101574420929
0.2582709789276123 0.50740063190460205 0.44168409705162048
0.50957483053207397 0.50504547357559204 0.4666016697883606
0.68265140056610107 0.50953727960586548 0.4821048378944397
0.78779822587966919 0.5178217887878418 0.48951566219329834
0.87671273946762085 0.51425027847290039 0.48316851258277893
0.043630130589008331 0.65486878156661987 0.3865601122379303
0.23845523595809937 0.6604117751121521 0.37609326839447021
0.36370116472244263 0.65854614973068237 0.37530773878097534
0.50398963689804077 0.65160924196243286 0.37935769557952881
0.66421687602996826 0.62473464012145996 0.40392741560935974
0.78384143114089966 0.6042168140411377 0.4134824275970459
0.87827318906784058 0.59886628389358521 0.42298704385757446
0.045568071305751801 0.78566545248031616 0.27863964438438416
0.25052183866500854 0.78996670246124268 0.22855775058269501
0.37770208716392517 0.78536081314086914 0.21400609612464905
0.48562043905258179 0.77695745229721069 0.21582794189453125
0.63364356756210327 0.76449334621429443 0.23210993409156799
0.78543907403945923 0.7592044472694397 0.39308026432991028
0.89729225635528564 0.74717801809310913 0.36430716514587402
0.028488831594586372 0.90105175971984863 0.118203304708004
0.21250610053539276 0.90232843160629272 0.084833569824695587
0.34951135516166687 0.89798462390899658 0.060670319944620132
0.46120202541351318 0.88744115829467773 0.040805473923683167
0.59603267908096313 0.87358850240707397 0.036973182111978531
0.77199840545654297 0.88494420051574707 0.39538639783859253
0.88778054714202881 0.87888997793197632 0.36389574408531189
0.027538584545254707 0.050113826990127563 0.61736947298049927
0.14178876578807831 0.023223532363772392 0.61704856157302856
0.20673727989196777 0.02946765348315239 0.62004798650741577
0.37562516331672668 0.0051035261712968349 0.61353856325149536
0.61968058347702026 0 0.61251002550125122
0.71415144205093384 0.022791843861341476 0.60361343622207642
0.81875473260879517 0.02547798864543438 0.59618949890136719
0.0213775634765625 0.17205974459648132 0.63673269748687744
0.14506645500659943 0.16387525200843811 0.6448512077331543
0.21884207427501678 0.15954752266407013 0.64592713117599487
0.34940090775489807 0.1384710967540741 0.64436119794845581
0.63918924331665039 0.026187941431999207 0.62875354290008545
0.74028420448303223 0.080906763672828674 0.62117123603820801
0.85622608661651611 0.081814587116241455 0.61329764127731323
0.00038111070170998573 0.30413997173309326 0.62553316354751587
0.086663506925106049 0.2995181679725647 0.64446628093719482
0.20658715069293976 0.29146093130111694 0.65375393629074097
0.31476160883903503 0.29914399981498718 0.66061723232269287
0.65230643749237061 0.298166424036026 0.65477323532104492
0.76627969741821289 0.29626345634460449 0.63069337606430054
0.87166917324066162 0.32368838787078857 0.6138262152671814
0.0043222764506936073 0.47077935934066772 0.60488009452819824
0.10241442173719406 0.47485041618347168 0.61789625883102417
0.24329166114330292 0.4705348014831543 0.62038159370422363
0.35978430509567261 0.47278812527656555 0.63222301006317139
0.66405552625656128 0.48434442281723022 0.65627884864807129
0.79232054948806763 0.49906820058822632 0.63642674684524536
0.88623422384262085 0.51122546195983887 0.6230851411819458
0.028088558465242386 0.62774920463562012 0.5755799412727356
0.16703478991985321 0.6324583888053894 0.57850313186645508
0.30032804608345032 0.64069843292236328 0.57540029287338257
0.44268074631690979 0.64419162273406982 0.58368676900863647
0.66492664813995361 0.64734601974487305 0.61731785535812378
0.80519211292266846 0.64917635917663574 0.62347042560577393
0.90342193841934204 0.65487372875213623 0.62600958347320557
0.002677857642993331 0.76712703704833984 0.52254712581634521
0.2047903835773468 0.77899646759033203 0.51751834154129028
0.35986804962158203 0.78615176677703857 0.51181823015213013
0.48597836494445801 0.79459565877914429 0.51214104890823364
0.64461666345596313 0.79139447212219238 0.51611000299453735
0.80591464042663574 0.78279596567153931 0.56676781177520752
0.91285282373428345 0.77461236715316772 0.58080053329467773
0.0062997108325362206 0.8854067325592041 0.41826334595680237
0.16199155151844025 0.8918910026550293 0.43505313992500305
0.32738995552062988 0.89868861436843872 0.42353251576423645
0.46463403105735779 0.90580427646636963 0.41553333401679993
0.61806535720825195 0.90630483627319336 0.46303826570510864
0.79045331478118896 0.90105479955673218 0.52390801906585693
0.90645575523376465 0.89652317762374878 0.52838003635406494
0.030366292223334312 0.052553571760654449 0.71287184953689575
0.14231348037719727 0.035219155251979828 0.71551859378814697
0.21369270980358124 0.027658784762024879 0.71500498056411743
0.34622141718864441 0.0089864544570446014 0.71268296241760254
0.6269761323928833 0.001654396764934063 0.70352542400360107
0.71336656808853149 0.0067452373914420605 0.69706684350967407
0.82689917087554932 0.0094326091930270195 0.69834476709365845
0.015604729764163494 0.17174346745014191 0.73118799924850464
0.13922740519046783 0.17029006779193878 0.74406909942626953
0.22514952719211578 0.16020771861076355 0.75037407875061035
0.36249211430549622 0.14687085151672363 0.75084394216537476
0.63111406564712524 0.051544457674026489 0.73146361112594604
0.73134946823120117 0.0029128429014235735 0.71912914514541626
0.85317409038543701 0.035021554678678513 0.72519028186798096
5.2059396693948656e-05 0.29551661014556885 0.73730218410491943
0.07377355545759201 0.2953382134437561 0.7562326192855835
0.20342305302619934 0.28731453418731689 0.76836389303207397
0.31516432762145996 0.2956116795539856 0.77632808685302734
0.62129759788513184 0.27069169282913208 0.76986682415008545
0.77082496881484985 0.21053771674633026 0.75734812021255493
0.88089960813522339 0.22348316013813019 0.75635159015655518
0.0053589316084980965 0.45597502589225769 0.73028749227523804
0.085928894579410553 0.45826205611228943 0.74830424785614014
0.22218947112560272 0.45640310645103455 0.76028001308441162
0.32676249742507935 0.45422714948654175 0.77174139022827148
0.6001276969909668 0.45829176902770996 0.7983086109161377
0.80442273616790771 0.43321707844734192 0.794452965259552
0.90624046325683594 0.4418635368347168 0.7753564715385437
0.021294746547937393 0.60918819904327393 0.71092051267623901
0.18687385320663452 0.61123204231262207 0.71988755464553833
0.32187667489051819 0.61123239994049072 0.73674643039703369
0.41458100080490112 0.61238056421279907 0.74363738298416138
0.59921962022781372 0.63163048028945923 0.78750628232955933
0.81692814826965332 0.63120490312576294 0.80250167846679688
0.92211294174194336 0.63028013706207275 0.79155111312866211
0.0001966887793969363 0.74297183752059937 0.70282846689224243
0.10204977542161942 0.75333529710769653 0.71406978368759155
0.29003387689590454 0.76149541139602661 0.71439695358276367
0.4119013249874115 0.76532155275344849 0.72654783725738525
0.58712887763977051 0.78097546100616455 0.74958127737045288
0.80970573425292969 0.79302823543548584 0.77453470230102539
0.92076784372329712 0.79207932949066162 0.77112215757369995
0.00040441774763166904 0.85717272758483887 0.66578537225723267
0.061088487505912781 0.86697405576705933 0.68345934152603149
0.25217965245246887 0.87945103645324707 0.67153429985046387
0.39715617895126343 0.88856428861618042 0.68272602558135986
0.57623708248138428 0.90818411111831665 0.70096015930175781
0.78648257255554199 0.91607844829559326 0.73867440223693848
0.92397898435592651 0.90784537792205811 0.73251533508300781
0.039153363555669785 0.050626523792743683 0.82227206230163574
0.14105837047100067 0.027242010459303856 0.82231783866882324
0.21130882203578949 0.029450256377458572 0.81999081373214722
0.28605622053146362 0.025272294878959656 0.82062548398971558
0.58857852220535278 0.013582656159996986 0.81015640497207642
0.71022301912307739 0.00042317708721384406 0.80186629295349121
0.81829887628555298 0 0.80156224966049194
0.037863757461309433 0.17203809320926666 0.84234583377838135
0.14493551850318909 0.17471702396869659 0.85473471879959106
0.22633969783782959 0.16055917739868164 0.85581386089324951
0.30815005302429199 0.15081197023391724 0.85692822933197021
0.58935219049453735 0.10286582261323929 0.84475505352020264
0.73589527606964111 0.015688592568039894 0.82895499467849731
0.84479981660842896 0.010647612623870373 0.82834392786026001
0.004474639892578125 0.2844255268573761 0.84822565317153931
0.094796352088451385 0.28630399703979492 0.86513811349868774
0.20779964327812195 0.28138163685798645 0.87231665849685669
0.28801733255386353 0.29049938917160034 0.88358479738235474
0.5566856861114502 0.28122702240943909 0.88498103618621826
0.77939963340759277 0.21527007222175598 0.868694007396698
0.87586790323257446 0.17729277908802032 0.86128729581832886
0.0015942591708153486 0.44279009103775024 0.84039473533630371
0.080086998641490936 0.4444023072719574 0.8575817346572876
0.18088327348232269 0.44492894411087036 0.87092477083206177
0.30271834135055542 0.44673708081245422 0.88321965932846069
0.55100524425506592 0.45449391007423401 0.90834939479827881
0.80414891242980957 0.42596569657325745 0.90383422374725342
0.90528041124343872 0.40363740921020508 0.89240032434463501
0.034949883818626404 0.59667754173278809 0.82302284240722656
0.1772143691778183 0.59628140926361084 0.83390533924102783
0.32521277666091919 0.59431010484695435 0.84834355115890503
0.42623385787010193 0.60034924745559692 0.86002147197723389
0.58721774816513062 0.6214669942855835 0.90338051319122314
0.8018609881401062 0.61045187711715698 0.92568588256835938
0.92416071891784668 0.59557998180389404 0.91856777667999268
0.008612046018242836 0.73429268598556519 0.82114511728286743
0.090957328677177429 0.74071997404098511 0.82949680089950562
0.28848785161972046 0.74724715948104858 0.84250849485397339
0.4152466356754303 0.75071656703948975 0.85233610868453979
0.57102543115615845 0.76639717817306519 0.87595105171203613
0.78540748357772827 0.77989226579666138 0.92123311758041382
0.92220902442932129 0.77973031997680664 0.92792224884033203
0.0018887389451265335 0.85010981559753418 0.81877148151397705
0.052095286548137665 0.85918688774108887 0.82894790172576904
0.25028753280639648 0.86723023653030396 0.83841621875762939
0.38027527928352356 0.87499678134918213 0.84955036640167236
0.5399661660194397 0.89400863647460938 0.86476325988769531
0.77385944128036499 0.91318970918655396 0.91358929872512817
0.91723662614822388 0.91681456565856934 0.92162024974822998
