assets/lut/editingcorp selor.cube
# Created by: G'MIC (https://gmic.eu)
TITLE "selor"
# LUT size
LUT_3D_SIZE 7
# Data domain
DOMAIN_MIN 0.0 0.0 0.0
DOMAIN_MAX 1.0 1.0 1.0
# LUT data points
0.021080914884805679 0.015844712033867836 0.01325276680290699
0.13859674334526062 0.052900053560733795 0.024742919951677322
0.34202116727828979 0.14460770785808563 0.062647722661495209
0.54323476552963257 0.24415384232997894 0.10991015285253525
0.72813564538955688 0.33969295024871826 0.15448370575904846
0.86083537340164185 0.41392779350280762 0.21498951315879822
0.96979451179504395 0.49881598353385925 0.30843445658683777
0.08840496838092804 0.069146506488323212 0.024296645075082779
0.19621255993843079 0.11500399559736252 0.039208848029375076
0.36388000845909119 0.21512028574943542 0.09256039559841156
0.55266690254211426 0.30449691414833069 0.14009793102741241
0.73475992679595947 0.38652294874191284 0.18072153627872467
0.8698275089263916 0.46386197209358215 0.24946236610412598
0.98007845878601074 0.53440266847610474 0.32377120852470398
0.212930828332901 0.18488754332065582 0.043316442519426346
0.29971581697463989 0.18310019373893738 0.02904040738940239
0.4464091956615448 0.2735368013381958 0.080763243138790131
0.59675467014312744 0.37521457672119141 0.1603115051984787
0.74380874633789062 0.45881527662277222 0.22709792852401733
0.87636035680770874 0.52927392721176147 0.29280325770378113
0.98616039752960205 0.60106962919235229 0.37375935912132263
0.34071370959281921 0.30028986930847168 0.059456516057252884
0.39832660555839539 0.27888453006744385 0.031567636877298355
0.52185684442520142 0.31419771909713745 0.053472347557544708
0.66987371444702148 0.42065411806106567 0.13867220282554626
0.79044044017791748 0.51636737585067749 0.23875834047794342
0.8943970799446106 0.60516470670700073 0.34960740804672241
0.98538881540298462 0.67802941799163818 0.44384461641311646
0.45117348432540894 0.39629468321800232 0.043058358132839203
0.50377094745635986 0.39083957672119141 0.032292742282152176
0.61025488376617432 0.37564259767532349 0.02582334540784359
0.75025391578674316 0.45830902457237244 0.081865273416042328
0.86503803730010986 0.55443471670150757 0.20705020427703857
0.94452625513076782 0.64312726259231567 0.34254705905914307
0.99572676420211792 0.74243652820587158 0.48649054765701294
0.61800956726074219 0.52986615896224976 0.031504463404417038
0.65861797332763672 0.52473694086074829 0.026060411706566811
0.73709708452224731 0.4944550096988678 0.013876776210963726
0.84632813930511475 0.51442193984985352 0.055915337055921555
0.93969744443893433 0.59932339191436768 0.18796344101428986
0.97641950845718384 0.67928552627563477 0.33271771669387817
0.99447149038314819 0.77270650863647461 0.48750007152557373
0.79855805635452271 0.67831981182098389 0.024649765342473984
0.83695888519287109 0.6676669716835022 0.01605326309800148
0.89380151033401489 0.6366117000579834 0.017516745254397392
0.94147920608520508 0.59888356924057007 0.057958997786045074
0.96628820896148682 0.65744489431381226 0.21189619600772858
0.98156875371932983 0.74061876535415649 0.37163284420967102
0.99103373289108276 0.80172854661941528 0.49052265286445618
0.015320931561291218 0.026619046926498413 0.10540686547756195
0.10040523856878281 0.065314456820487976 0.12688076496124268
0.31219413876533508 0.14227987825870514 0.16417965292930603
0.51037168502807617 0.23043088614940643 0.19709295034408569
0.69939678907394409 0.34169244766235352 0.24424003064632416
0.84675467014312744 0.41620984673500061 0.28259038925170898
0.97134625911712646 0.50208371877670288 0.35467433929443359
0.015090508386492729 0.1108759418129921 0.14412492513656616
0.12945492565631866 0.14380989968776703 0.15979816019535065
0.32759702205657959 0.21411602199077606 0.19350853562355042
0.52489346265792847 0.29478168487548828 0.22119057178497314
0.71279716491699219 0.38347753882408142 0.25764071941375732
0.85811948776245117 0.46153396368026733 0.30912178754806519
0.97596043348312378 0.54640072584152222 0.38462814688682556
0.059294339269399643 0.2440628856420517 0.1722743809223175
0.21338629722595215 0.24849753081798553 0.17131225764751434
0.39830577373504639 0.28476423025131226 0.19407445192337036
0.5490947961807251 0.37954613566398621 0.25317370891571045
0.72765165567398071 0.46297064423561096 0.30133602023124695
0.87158900499343872 0.53596711158752441 0.35412096977233887
0.9843900203704834 0.6150708794593811 0.43171170353889465
0.22680144011974335 0.35227438807487488 0.17363569140434265
0.3455348014831543 0.34572365880012512 0.16759753227233887
0.48653239011764526 0.32129338383674622 0.14844046533107758
0.64391875267028809 0.42469274997711182 0.22234469652175903
0.76960426568984985 0.53250443935394287 0.32145825028419495
0.8831900954246521 0.6189347505569458 0.40776911377906799
0.98505204916000366 0.69217687845230103 0.49198871850967407
0.42979422211647034 0.45910638570785522 0.17194211483001709
0.49724727869033813 0.45170575380325317 0.16186654567718506
0.59674131870269775 0.42171567678451538 0.14144051074981689
0.73377734422683716 0.46131908893585205 0.17584763467311859
0.85532546043395996 0.56850498914718628 0.29066520929336548
0.93423062562942505 0.66194933652877808 0.41045108437538147
0.99054634571075439 0.7544129490852356 0.5286681056022644
0.61250287294387817 0.57893222570419312 0.14461290836334229
0.65582621097564697 0.57116794586181641 0.14362221956253052
0.73806440830230713 0.54545289278030396 0.13170352578163147
0.83964437246322632 0.52050566673278809 0.13108502328395844
0.93679511547088623 0.60811012983322144 0.25856891274452209
0.97539502382278442 0.69803553819656372 0.39776748418807983
0.99456566572189331 0.78865224123001099 0.53648281097412109
0.79426074028015137 0.7085452675819397 0.12242928147315979
0.83106762170791626 0.70436686277389526 0.13588032126426697
0.89282095432281494 0.67294919490814209 0.14167270064353943
0.94069200754165649 0.61552256345748901 0.13422083854675293
0.96609205007553101 0.66759234666824341 0.26498222351074219
0.98260092735290527 0.75524038076400757 0.42059829831123352
0.99677932262420654 0.83436179161071777 0.56097739934921265
0.024624664336442947 0.048599392175674438 0.28194117546081543
0.033217664808034897 0.085882373154163361 0.3015715479850769
0.24105755984783173 0.1637805700302124 0.31382235884666443
0.44695785641670227 0.21957147121429443 0.31503623723983765
0.66344577074050903 0.30301785469055176 0.33562999963760376
0.83257567882537842 0.40643900632858276 0.36887896060943604
0.95382064580917358 0.52002614736557007 0.44061711430549622
0.0075617320835590363 0.15394780039787292 0.32815760374069214
0.035208217799663544 0.17717307806015015 0.34229180216789246
0.25042837858200073 0.2256418913602829 0.33987730741500854
0.46584725379943848 0.28530967235565186 0.33761900663375854
0.67583447694778442 0.36136776208877563 0.35652747750282288
0.84082365036010742 0.46315133571624756 0.40062522888183594
0.96888339519500732 0.56641536951065063 0.4705655574798584
0.01016865111887455 0.28932172060012817 0.37853264808654785
0.050919730216264725 0.30024975538253784 0.38195070624351501
0.26121175289154053 0.31852158904075623 0.3641778826713562
0.47737041115760803 0.37379541993141174 0.36397072672843933
0.68657654523849487 0.45753958821296692 0.39648732542991638
0.85152506828308105 0.54539263248443604 0.44334191083908081
0.97418105602264404 0.63664478063583374 0.51285058259963989
0.011668261140584946 0.41101193428039551 0.38966399431228638
0.066133804619312286 0.42501035332679749 0.39251449704170227
0.31406739354133606 0.43050351738929749 0.36629357933998108
0.54578274488449097 0.44136059284210205 0.35602974891662598
0.71758824586868286 0.55136400461196899 0.43276640772819519
0.85898268222808838 0.63292258977890015 0.4925970733165741
0.97866582870483398 0.70972192287445068 0.55948942899703979
0.059159476310014725 0.55229514837265015 0.36380979418754578
0.17252364754676819 0.55700802803039551 0.3582269549369812
0.48405611515045166 0.54194134473800659 0.33694213628768921
0.67591261863708496 0.48903471231460571 0.29773318767547607
0.81409996747970581 0.5912935733795166 0.40212985873222351
0.90462625026702881 0.6969793438911438 0.51027923822402954
0.98376744985580444 0.78023773431777954 0.60252588987350464
0.37432962656021118 0.66665780544281006 0.32072222232818604
0.52798587083816528 0.66509324312210083 0.32293179631233215
0.69149434566497803 0.64175975322723389 0.30870506167411804
0.80161029100418091 0.57752597332000732 0.27523821592330933
0.91376465559005737 0.61683911085128784 0.34533834457397461
0.97395479679107666 0.72466850280761719 0.48398581147193909
0.99515450000762939 0.81398558616638184 0.60593944787979126
0.74146395921707153 0.78048503398895264 0.29773396253585815
0.79872423410415649 0.77683752775192261 0.29328325390815735
0.86792874336242676 0.74466001987457275 0.28853139281272888
0.92805898189544678 0.68583256006240845 0.2797245979309082
0.96601313352584839 0.67133814096450806 0.32817912101745605
0.98216956853866577 0.77054864168167114 0.48669666051864624
0.99837946891784668 0.85353273153305054 0.6189265251159668
0.038272064179182053 0.093277662992477417 0.48385462164878845
0.021789669990539551 0.11851796507835388 0.49165397882461548
0.099896572530269623 0.18166360259056091 0.49533897638320923
0.38131582736968994 0.26025575399398804 0.46848130226135254
0.58435589075088501 0.30968853831291199 0.44924819469451904
0.79495739936828613 0.40326046943664551 0.47418084740638733
0.93579220771789551 0.52911770343780518 0.53243297338485718
0.0067814993672072887 0.18900847434997559 0.52141892910003662
0.023850370198488235 0.23018105328083038 0.52429002523422241
0.1008557602763176 0.25362828373908997 0.52201509475708008
0.39225548505783081 0.31342309713363647 0.49331596493721008
0.59551858901977539 0.36555805802345276 0.47999674081802368
0.80534923076629639 0.46095061302185059 0.50040590763092041
0.95212376117706299 0.58194315433502197 0.55718255043029785
0.0081401895731687546 0.33546426892280579 0.54958111047744751
0.027072576805949211 0.34656035900115967 0.55519592761993408
0.10659821331501007 0.35740169882774353 0.55043572187423706
0.40717542171478271 0.39788296818733215 0.52627855539321899
0.62027657032012939 0.44961610436439514 0.50609838962554932
0.82027512788772583 0.54359608888626099 0.53460937738418579
0.96121633052825928 0.64787709712982178 0.58783066272735596
0.011392092332243919 0.45108756422996521 0.57211196422576904
0.026304386556148529 0.46051260828971863 0.57559287548065186
0.15108378231525421 0.47482436895370483 0.56825023889541626
0.42548996210098267 0.49592474102973938 0.54420596361160278
0.6545100212097168 0.55270498991012573 0.53129130601882935
0.83399045467376709 0.63519424200057983 0.56765478849411011
0.96194690465927124 0.71703261137008667 0.62446451187133789
0.0094907423481345177 0.59190696477890015 0.58652222156524658
0.029278580099344254 0.6044420599937439 0.59070026874542236
0.166700080037117 0.61714684963226318 0.57135361433029175
0.48905995488166809 0.61941778659820557 0.52865856885910034
0.73802441358566284 0.62239354848861694 0.51503419876098633
0.86551719903945923 0.72235667705535889 0.59966123104095459
0.97385317087173462 0.79548627138137817 0.66843420267105103
0.038894157856702805 0.74912422895431519 0.56837922334671021
0.066095195710659027 0.75245624780654907 0.55098921060562134
0.33453038334846497 0.74542510509490967 0.52893233299255371
0.6675875186920166 0.71045947074890137 0.48778757452964783
0.86888009309768677 0.64688098430633545 0.44907933473587036
0.94687378406524658 0.75341415405273438 0.5736662745475769
0.99120581150054932 0.83969485759735107 0.67866802215576172
0.32025882601737976 0.86170333623886108 0.47935888171195984
0.47634971141815186 0.85687756538391113 0.48549836874008179
0.71753913164138794 0.83696359395980835 0.48296689987182617
0.88285666704177856 0.79778259992599487 0.45281064510345459
0.9570508599281311 0.71072947978973389 0.43024939298629761
0.98166048526763916 0.78496891260147095 0.54752278327941895
0.99315237998962402 0.86523687839508057 0.66590464115142822
0.05405571311712265 0.15669639408588409 0.65688186883926392
0.024322045966982841 0.17171338200569153 0.66533499956130981
0.043644744902849197 0.22051721811294556 0.66119384765625
0.24548816680908203 0.2906201183795929 0.65842890739440918
0.54055923223495483 0.38071545958518982 0.62256443500518799
0.70467919111251831 0.41588032245635986 0.59838986396789551
0.889473557472229 0.54890972375869751 0.63202142715454102
0.0097014037892222404 0.2086009681224823 0.6736113429069519
0.022319165989756584 0.24660499393939972 0.68104630708694458
0.041633650660514832 0.29897364974021912 0.68331658840179443
0.25093036890029907 0.35033732652664185 0.68284797668457031
0.57355129718780518 0.45257583260536194 0.65070986747741699
0.72200465202331543 0.474843829870224 0.62148559093475342
0.90830636024475098 0.60015588998794556 0.65214020013809204
0.0093954196199774742 0.35204353928565979 0.69503438472747803
0.02247936837375164 0.37597376108169556 0.7035142183303833
0.052313037216663361 0.40125653147697449 0.70790612697601318
0.27696192264556885 0.43807438015937805 0.70663803815841675
0.60387855768203735 0.53367441892623901 0.6757500171661377
0.74334162473678589 0.55390757322311401 0.64229732751846313
0.92069679498672485 0.65678566694259644 0.67671078443527222
0.0086315227672457695 0.47294214367866516 0.71429920196533203
0.024420809000730515 0.48562219738960266 0.72310841083526611
0.053780648857355118 0.5045546293258667 0.72842562198638916
0.33541792631149292 0.53864049911499023 0.72387468814849854
0.62780040502548218 0.60731130838394165 0.6956135630607605
0.77426612377166748 0.63155817985534668 0.66339772939682007
0.93444693088531494 0.71841388940811157 0.69389790296554565
0.010135007090866566 0.59748876094818115 0.73642659187316895
0.026058092713356018 0.60427004098892212 0.74365431070327759
0.10557284206151962 0.62378102540969849 0.74057018756866455
0.40581750869750977 0.65503537654876709 0.73533821105957031
0.65183514356613159 0.69164407253265381 0.70755088329315186
0.81392568349838257 0.72585451602935791 0.68617957830429077
0.96052521467208862 0.79871129989624023 0.72953885793685913
0.011040093377232552 0.737201988697052 0.75649720430374146
0.026048533618450165 0.74471908807754517 0.76455861330032349
0.11905649304389954 0.76378810405731201 0.76047295331954956
0.46318453550338745 0.78429853916168213 0.73789763450622559
0.70331054925918579 0.79060649871826172 0.69544863700866699
0.87933820486068726 0.78554630279541016 0.68074023723602295
0.9743615984916687 0.86954927444458008 0.76824194192886353
0.010621313937008381 0.90820401906967163 0.7654222846031189
0.035943739116191864 0.90910392999649048 0.75797778367996216
0.19731795787811279 0.91337627172470093 0.73347669839859009
0.57637941837310791 0.90573394298553467 0.69189208745956421
0.8732450008392334 0.85965317487716675 0.64857852458953857
0.9693368673324585 0.81025350093841553 0.64033961296081543
0.99502938985824585 0.90314429998397827 0.76375722885131836
0.19130502641201019 0.24011382460594177 0.78564894199371338
0.1267380565404892 0.24626085162162781 0.79275810718536377
0.04915720596909523 0.26482656598091125 0.79616397619247437
0.088015042245388031 0.33062079548835754 0.79979461431503296
0.52338749170303345 0.47255691885948181 0.78665351867675781
0.70570540428161621 0.55060160160064697 0.75464737415313721
0.82712727785110474 0.56011557579040527 0.73094278573989868
0.057771090418100357 0.27356055378913879 0.80001688003540039
0.044459637254476547 0.28783610463142395 0.80799406766891479
0.049764759838581085 0.32886046171188354 0.81788867712020874
0.14509767293930054 0.402120441198349 0.81942647695541382
0.55617231130599976 0.52977210283279419 0.80927139520645142
0.73489874601364136 0.60945254564285278 0.77874493598937988
0.84434294700622559 0.61435508728027344 0.75400769710540771
0.014707962051033974 0.35161775350570679 0.82161891460418701
0.025406002998352051 0.3759550154209137 0.82825255393981934
0.045720357447862625 0.42356738448143005 0.839743971824646
0.15195080637931824 0.48261997103691101 0.84225517511367798
0.57774841785430908 0.591899573802948 0.8299400806427002
0.76119709014892578 0.67014193534851074 0.80359303951263428
0.85243290662765503 0.66858303546905518 0.77522563934326172
0.015197125263512135 0.46475338935852051 0.83543676137924194
0.026900677010416985 0.48279288411140442 0.84542375802993774
0.055187076330184937 0.51201552152633667 0.85420870780944824
0.18963707983493805 0.56100404262542725 0.86070549488067627
0.59626656770706177 0.6531493067741394 0.84593164920806885
0.78660744428634644 0.72732257843017578 0.81971496343612671
0.87265694141387939 0.73048192262649536 0.79209595918655396
0.01585916243493557 0.58434301614761353 0.85584086179733276
0.028755936771631241 0.59314310550689697 0.86283004283905029
0.077064782381057739 0.61971688270568848 0.86638295650482178
0.27002087235450745 0.65820938348770142 0.87147080898284912
0.61512374877929688 0.72477680444717407 0.86428850889205933
0.80778414011001587 0.78598368167877197 0.83947598934173584
0.91981583833694458 0.79956889152526855 0.81035131216049194
0.013734660111367702 0.70338666439056396 0.87568581104278564
0.028693150728940964 0.71430641412734985 0.88020950555801392
0.078242629766464233 0.73469376564025879 0.88434678316116333
0.39976364374160767 0.77096050977706909 0.88388097286224365
0.66313904523849487 0.81554222106933594 0.87628120183944702
0.82770264148712158 0.84696739912033081 0.84918332099914551
0.94388943910598755 0.87190741300582886 0.83920192718505859
0.013477115891873837 0.83488565683364868 0.90582758188247681
0.030340157449245453 0.84136748313903809 0.90530848503112793
0.089690022170543671 0.86550915241241455 0.90992611646652222
0.40887457132339478 0.89206761121749878 0.90487515926361084
0.69474500417709351 0.92771559953689575 0.88451910018920898
0.8912699818611145 0.92366331815719604 0.83615821599960327
0.98644447326660156 0.93299537897109985 0.85926520824432373
0.35300078988075256 0.35244140028953552 0.8960496187210083
0.33662334084510803 0.37138062715530396 0.90561920404434204
0.28002744913101196 0.38458442687988281 0.91196620464324951
0.15815079212188721 0.40435031056404114 0.90971201658248901
0.46060258150100708 0.52025723457336426 0.90693694353103638
0.75248277187347412 0.66516423225402832 0.90025794506072998
0.86119925975799561 0.72168242931365967 0.88748395442962646
0.3367064893245697 0.40061953663825989 0.91587561368942261
0.32878658175468445 0.41387274861335754 0.92182135581970215
0.28680208325386047 0.43240523338317871 0.93064975738525391
0.19001993536949158 0.45951551198959351 0.9291541576385498
0.50334793329238892 0.57545512914657593 0.92709928750991821
0.77977514266967773 0.71404814720153809 0.92309629917144775
0.88065594434738159 0.76503342390060425 0.90431386232376099
0.28226619958877563 0.44577741622924805 0.92697232961654663
0.29365867376327515 0.46367520093917847 0.93449586629867554
0.26421424746513367 0.48703217506408691 0.94435441493988037
0.25684654712677002 0.52715849876403809 0.95281577110290527
0.5354958176612854 0.63093316555023193 0.94746941328048706
0.78456246852874756 0.74825990200042725 0.93496114015579224
0.89091485738754272 0.80290353298187256 0.92025822401046753
0.24564026296138763 0.5019758939743042 0.94340485334396362
0.30372977256774902 0.52189266681671143 0.95045214891433716
0.30815243721008301 0.54309940338134766 0.95751923322677612
0.31361237168312073 0.58094000816345215 0.96267032623291016
0.53979390859603882 0.67095732688903809 0.95266783237457275
0.78793692588806152 0.78257125616073608 0.94401001930236816
0.91649782657623291 0.85153186321258545 0.93662440776824951
0.24783788621425629 0.5949360728263855 0.95841091871261597
0.28241023421287537 0.60593169927597046 0.96372586488723755
0.3204505443572998 0.62224918603897095 0.9683452844619751
0.35587087273597717 0.64243990182876587 0.97101348638534546
0.51488196849822998 0.70930784940719604 0.96036666631698608
0.79761093854904175 0.82073849439620972 0.95490556955337524
0.92810386419296265 0.8874744176864624 0.94457685947418213
0.25672215223312378 0.69392168521881104 0.96618068218231201
0.2945980429649353 0.70163089036941528 0.96874511241912842
0.3217005729675293 0.71510046720504761 0.9758751392364502
0.35897296667098999 0.73426085710525513 0.9790530800819397
0.50595450401306152 0.77112710475921631 0.97788673639297485
0.79157024621963501 0.86108428239822388 0.96776449680328369
0.95245474576950073 0.9320911169052124 0.96594113111495972
0.20206865668296814 0.78814435005187988 0.96959716081619263
0.30280792713165283 0.80172312259674072 0.97873640060424805
0.29711377620697021 0.80800342559814453 0.97404104471206665
0.37193933129310608 0.83059841394424438 0.9827764630317688
0.57444405555725098 0.86569273471832275 0.98045635223388672
0.84552973508834839 0.94431221485137939 0.98021972179412842
0.97852689027786255 0.97961628437042236 0.97885608673095703
