assets/lut/editingcorp filo.cube
# Created by: G'MIC (https://gmic.eu)
TITLE "filo"
# LUT size
LUT_3D_SIZE 5
# Data domain
DOMAIN_MIN 0.0 0.0 0.0
DOMAIN_MAX 1.0 1.0 1.0
# LUT data points
0.0010575238848105073 0.0031288596801459789 0.017902210354804993
0.23042033612728119 0.0093204723671078682 0.022084448486566544
0.56167799234390259 0.0065770465880632401 0.032640345394611359
0.75905805826187134 0.015683028846979141 0.044922247529029846
0.83089417219161987 0.005603116936981678 0.042140886187553406
0.012794464826583862 0.17957636713981628 0.036673571914434433
0.18628491461277008 0.17790627479553223 0.033723540604114532
0.50330966711044312 0.18517178297042847 0.057803884148597717
0.76181024312973022 0.19353859126567841 0.081439852714538574
0.84029829502105713 0.17820002138614655 0.084029361605644226
0.066260382533073425 0.45587027072906494 0.074707165360450745
0.18747597932815552 0.44356131553649902 0.077468186616897583
0.4477272629737854 0.43493932485580444 0.088465623557567596
0.75426346063613892 0.43482875823974609 0.10567723959684372
0.84906703233718872 0.42374002933502197 0.11058663576841354
0.13537412881851196 0.7175757884979248 0.11721273511648178
0.22618146240711212 0.71521049737930298 0.11911021173000336
0.42949205636978149 0.71129590272903442 0.12272559106349945
0.73922532796859741 0.70385819673538208 0.13458827137947083
0.8815574049949646 0.69560497999191284 0.14021569490432739
0.15887726843357086 0.8363608717918396 0.12796191871166229
0.24073997139930725 0.83479917049407959 0.13320319354534149
0.41546565294265747 0.85195863246917725 0.13870009779930115
0.71876412630081177 0.86988157033920288 0.14714410901069641
0.90875554084777832 0.87970000505447388 0.15874190628528595
0.010086433961987495 0.010202190838754177 0.21717245876789093
0.2268909364938736 0.0098919589072465897 0.2177623063325882
0.56234478950500488 0.017371337860822678 0.22559654712677002
0.76492750644683838 0.022907063364982605 0.21388727426528931
0.84174942970275879 0.031743951141834259 0.2052493691444397
0.015810228884220123 0.19459885358810425 0.20092472434043884
0.20195955038070679 0.19326862692832947 0.19132521748542786
0.52047455310821533 0.19509999454021454 0.19104006886482239
0.77626144886016846 0.193715900182724 0.19077429175376892
0.85218262672424316 0.19216330349445343 0.18994393944740295
0.066177964210510254 0.45577961206436157 0.16730429232120514
0.19155454635620117 0.45097094774246216 0.16813421249389648
0.45466354489326477 0.44102784991264343 0.15991465747356415
0.76419907808303833 0.44659703969955444 0.17776578664779663
0.86931860446929932 0.43572878837585449 0.17986534535884857
0.13912144303321838 0.71608155965805054 0.17815342545509338
0.23188334703445435 0.72578877210617065 0.18938609957695007
0.43725848197937012 0.71184247732162476 0.18420083820819855
0.7542877197265625 0.71675252914428711 0.20579196512699127
0.89302891492843628 0.70350325107574463 0.20728343725204468
0.17413973808288574 0.8339163064956665 0.19858062267303467
0.25185579061508179 0.84819835424423218 0.19142879545688629
0.42633223533630371 0.86253327131271362 0.20814396440982819
0.73126220703125 0.88369303941726685 0.21978551149368286
0.93128567934036255 0.89749997854232788 0.23255212604999542
0.016764562577009201 0.016940442845225334 0.48285847902297974
0.24419465661048889 0.023738816380500793 0.49366089701652527
0.55936175584793091 0.045904930680990219 0.49218899011611938
0.77390158176422119 0.056981552392244339 0.48325514793395996
0.8440248966217041 0.061568316072225571 0.46001079678535461
0.038601204752922058 0.22269423305988312 0.46442186832427979
0.22169679403305054 0.22328713536262512 0.46571964025497437
0.53695046901702881 0.22007597982883453 0.46596279740333557
0.7910459041595459 0.22496886551380157 0.45390558242797852
0.86681908369064331 0.22113414108753204 0.44262564182281494
0.089555494487285614 0.46704885363578796 0.42573544383049011
0.20202869176864624 0.46569421887397766 0.42413598299026489
0.51401513814926147 0.48331940174102783 0.43971794843673706
0.82186418771743774 0.49018466472625732 0.44696837663650513
0.91155946254730225 0.47845548391342163 0.43641507625579834
0.15540596842765808 0.72723734378814697 0.38981395959854126
0.24600790441036224 0.72716301679611206 0.39553660154342651
0.49291962385177612 0.75936639308929443 0.41005364060401917
0.78966420888900757 0.75404536724090576 0.40035146474838257
0.92730343341827393 0.74232834577560425 0.39882665872573853
0.18446323275566101 0.84141963720321655 0.35840821266174316
0.26807740330696106 0.85836565494537354 0.34827905893325806
0.46156826615333557 0.88812196254730225 0.37876966595649719
0.76350516080856323 0.91283845901489258 0.37691718339920044
0.95554035902023315 0.92918854951858521 0.39113476872444153
0.018778856843709946 0.035170372575521469 0.65945899486541748
0.24307353794574738 0.040257874876260757 0.67386782169342041
0.56418383121490479 0.054162371903657913 0.68668752908706665
0.77721869945526123 0.045730188488960266 0.69630658626556396
0.85395902395248413 0.069359153509140015 0.6849866509437561
0.06043078750371933 0.24007408320903778 0.67895781993865967
0.23784802854061127 0.24358995258808136 0.68616634607315063
0.5481070876121521 0.24539969861507416 0.70992833375930786
0.79386717081069946 0.24414034187793732 0.70746976137161255
0.87671124935150146 0.25597047805786133 0.69278556108474731
0.11439420282840729 0.48091664910316467 0.69442421197891235
0.22898492217063904 0.48424983024597168 0.69772207736968994
0.55037832260131836 0.52425670623779297 0.73858129978179932
0.83756160736083984 0.53136348724365234 0.72972190380096436
0.9308817982673645 0.52931076288223267 0.73047018051147461
0.18106386065483093 0.74507790803909302 0.67908060550689697
0.27154052257537842 0.74975180625915527 0.68176823854446411
0.5252956748008728 0.78111559152603149 0.70818930864334106
0.84372740983963013 0.81002122163772583 0.74496495723724365
0.97642481327056885 0.80996692180633545 0.74939608573913574
0.21493838727474213 0.87164992094039917 0.63449609279632568
0.30410358309745789 0.88631278276443481 0.6391676664352417
0.50473231077194214 0.92059171199798584 0.66982758045196533
0.8271336555480957 0.9705471396446228 0.71191233396530151
0.9938431978225708 0.98551720380783081 0.72755908966064453
0.021150341257452965 0.032285280525684357 0.73813867568969727
0.24279932677745819 0.057168535888195038 0.74601203203201294
0.55452275276184082 0.047869574278593063 0.76785516738891602
0.78272390365600586 0.076877713203430176 0.77715140581130981
0.85390406847000122 0.043532039970159531 0.77143567800521851
0.045513991266489029 0.23583221435546875 0.75186145305633545
0.23673036694526672 0.24830822646617889 0.76353627443313599
0.53847861289978027 0.24922536313533783 0.78875201940536499
0.789234459400177 0.25645643472671509 0.79440051317214966
0.88130128383636475 0.2480672150850296 0.79739749431610107
0.11370180547237396 0.47862622141838074 0.77772849798202515
0.24644739925861359 0.48561114072799683 0.7948763370513916
0.56440633535385132 0.53847920894622803 0.84266859292984009
0.83874702453613281 0.5436173677444458 0.85311537981033325
0.94340580701828003 0.53732955455780029 0.8693428635597229
0.19260285794734955 0.7467455267906189 0.81724411249160767
0.28554460406303406 0.75213831663131714 0.82753390073776245
0.53598320484161377 0.78604930639266968 0.86541938781738281
0.86093121767044067 0.83289641141891479 0.91592657566070557
0.99142962694168091 0.83796542882919312 0.93197304010391235
0.22481347620487213 0.88032716512680054 0.82657116651535034
0.30650943517684937 0.89004790782928467 0.8388676643371582
0.51425367593765259 0.93242132663726807 0.86800223588943481
0.84737592935562134 0.98938024044036865 0.94048357009887695
0.99946326017379761 0.99708157777786255 0.97253447771072388
