assets/lut/editingcorpw Majestic Matte.cube
LUT_3D_SIZE 6
DOMAIN_MIN 0.0 0.0 0.0
DOMAIN_MAX 1.0 1.0 1.0
0.112581 0.101137 0.095369
0.262748 0.071870 0.103700
0.485375 0.000000 0.124178
0.738326 0.000000 0.164187
0.976098 0.000000 0.217820
1.000000 0.000000 0.293858
0.156704 0.231955 0.095461
0.271028 0.216376 0.107631
0.489944 0.234551 0.127854
0.729253 0.223760 0.186054
0.968004 0.207842 0.253231
1.000000 0.225516 0.331744
0.254331 0.436976 0.116103
0.337332 0.437354 0.131391
0.491618 0.398294 0.158148
0.726723 0.464165 0.161415
0.959733 0.468542 0.238924
1.000000 0.485121 0.353911
0.353612 0.626782 0.131545
0.412400 0.627781 0.150148
0.553867 0.620072 0.166815
0.711225 0.574814 0.207499
0.951651 0.639523 0.229709
1.000000 0.682325 0.361553
0.464698 0.850529 0.154928
0.506566 0.847858 0.172271
0.630856 0.842188 0.204334
0.801207 0.836136 0.232291
0.959778 0.784867 0.299834
1.000000 0.790567 0.421100
0.594446 1.000000 0.347875
0.621851 0.999408 0.362200
0.712123 0.994629 0.405188
0.832621 0.989386 0.442933
0.974230 0.982361 0.503355
1.000000 0.936919 0.606531
0.142416 0.129830 0.206699
0.250832 0.108574 0.216930
0.453757 0.089951 0.232827
0.690238 0.000000 0.264318
0.945218 0.000000 0.295720
1.000000 0.000000 0.335338
0.173898 0.222307 0.207300
0.262674 0.241257 0.209713
0.466397 0.231204 0.227304
0.701130 0.184374 0.250139
0.950943 0.026082 0.284835
1.000000 0.042331 0.345993
0.211961 0.441648 0.208777
0.317027 0.438341 0.220859
0.481212 0.405852 0.232761
0.707477 0.457183 0.248174
0.948482 0.466777 0.306320
1.000000 0.496248 0.410838
0.327321 0.631567 0.213159
0.393523 0.634412 0.225452
0.544323 0.620011 0.241043
0.704368 0.578108 0.263907
0.945076 0.646085 0.293412
1.000000 0.687842 0.420551
0.445574 0.852830 0.235857
0.490449 0.850298 0.246820
0.625618 0.844167 0.278451
0.795247 0.836967 0.297821
0.955943 0.788477 0.350328
1.000000 0.798415 0.468442
0.589508 1.000000 0.392639
0.617244 0.999923 0.405309
0.712388 0.994482 0.450887
0.831036 0.989380 0.484585
0.970543 0.982585 0.539545
1.000000 0.939452 0.634491
0.189517 0.188113 0.392944
0.270577 0.186210 0.395675
0.444723 0.154456 0.403172
0.629777 0.105120 0.407283
0.869621 0.000000 0.458484
1.000000 0.000000 0.506072
0.231911 0.279747 0.391317
0.303598 0.289875 0.393696
0.442740 0.255748 0.393781
0.628504 0.224568 0.404516
0.874729 0.159077 0.455205
1.000000 0.000000 0.500518
0.275730 0.403308 0.387177
0.327402 0.412675 0.390761
0.459709 0.431485 0.383838
0.660243 0.420732 0.402844
0.919028 0.417041 0.449611
1.000000 0.451008 0.520176
0.290872 0.641712 0.438831
0.350782 0.643303 0.432819
0.489479 0.624717 0.396136
0.683555 0.596117 0.410816
0.922407 0.674042 0.474726
1.000000 0.711452 0.598764
0.330611 0.862798 0.414811
0.400120 0.861035 0.422682
0.582271 0.850748 0.450769
0.768688 0.838934 0.474444
0.938059 0.801923 0.505680
1.000000 0.828424 0.616639
0.561370 1.000000 0.524456
0.591330 1.000000 0.533626
0.694856 0.996605 0.570683
0.824813 0.989343 0.615214
0.956348 0.983502 0.655040
1.000000 0.948809 0.723739
0.224686 0.284184 0.661280
0.295574 0.280270 0.657642
0.455656 0.256559 0.645537
0.626487 0.188038 0.635573
0.825720 0.037636 0.649040
1.000000 0.000000 0.706831
0.237844 0.336213 0.644593
0.322270 0.350016 0.645776
0.459692 0.324037 0.636852
0.624826 0.267537 0.630670
0.822229 0.204760 0.643559
1.000000 0.000000 0.701939
0.299917 0.463984 0.635648
0.349479 0.473236 0.638346
0.479826 0.477691 0.624468
0.624820 0.435904 0.618140
0.833378 0.398560 0.644124
1.000000 0.351442 0.692239
0.334496 0.580873 0.620656
0.372985 0.586328 0.623857
0.489366 0.596949 0.619977
0.648274 0.622302 0.614803
0.879892 0.629866 0.657121
1.000000 0.693728 0.740704
0.268430 0.874423 0.745438
0.338778 0.873333 0.739417
0.522284 0.864662 0.711347
0.704820 0.849155 0.669118
0.903772 0.824249 0.691863
1.000000 0.879415 0.793899
0.540117 1.000000 0.713014
0.550343 1.000000 0.706179
0.655076 1.000000 0.721492
0.811300 0.991301 0.764783
0.936471 0.985196 0.795755
1.000000 0.963849 0.833463
0.278074 0.388519 0.891277
0.327846 0.385099 0.890788
0.467193 0.367873 0.889151
0.636172 0.323560 0.886303
0.811413 0.219123 0.882773
1.000000 0.000000 0.906432
0.291466 0.427022 0.888681
0.358943 0.437502 0.889533
0.479593 0.417956 0.887393
0.637957 0.373138 0.883023
0.811211 0.285185 0.880995
1.000000 0.150996 0.906102
0.312533 0.529949 0.882980
0.360111 0.532692 0.884306
0.529009 0.559490 0.879630
0.656178 0.521073 0.878112
0.814216 0.447728 0.876052
1.000000 0.377945 0.904571
0.396795 0.653934 0.881585
0.434232 0.659469 0.881681
0.548353 0.678002 0.878704
0.699499 0.699614 0.872345
0.827810 0.640318 0.869082
1.000000 0.604163 0.886932
0.439345 0.788284 0.880770
0.468545 0.790816 0.880499
0.570422 0.801035 0.878744
0.716008 0.821108 0.874961
0.861055 0.846009 0.865083
1.000000 0.877784 0.901091
0.616528 1.000000 0.942669
0.638703 1.000000 0.940710
0.717166 1.000000 0.933057
0.829702 0.995727 0.921496
0.922773 0.989209 0.910392
1.000000 0.981634 0.929626
0.536645 0.583246 1.000000
0.548943 0.580377 1.000000
0.597180 0.567046 1.000000
0.681874 0.535637 1.000000
0.797714 0.471931 1.000000
0.940642 0.341466 1.000000
0.558026 0.610523 1.000000
0.578802 0.615078 1.000000
0.619588 0.601155 1.000000
0.694851 0.569560 1.000000
0.802950 0.507183 1.000000
0.941594 0.383197 1.000000
0.546313 0.647688 1.000000
0.583686 0.662004 1.000000
0.695872 0.709643 1.000000
0.743827 0.680303 1.000000
0.825003 0.623059 1.000000
0.946752 0.515935 1.000000
0.579559 0.735372 1.000000
0.601406 0.741799 1.000000
0.665501 0.753317 1.000000
0.816605 0.816876 0.996932
0.866049 0.776286 1.000000
0.958526 0.697114 1.000000
0.631953 0.827506 1.000000
0.650843 0.831734 1.000000
0.719826 0.849115 1.000000
0.819161 0.879930 0.997210
0.918188 0.914628 0.993689
0.975934 0.881541 0.999756
0.720394 0.955962 1.000000
0.733016 0.957470 1.000000
0.780630 0.963549 1.000000
0.858067 0.974700 1.000000
0.944365 0.989008 0.999988
0.999969 0.999969 0.999969
