assets/lut/editingcorpw Floral Fantasy.cube
LUT_3D_SIZE 16
DOMAIN_MIN 0.0 0.0 0.0
DOMAIN_MAX 1.0 1.0 1.0
0.106935 0.112032 0.172183
0.128517 0.113881 0.173348
0.195089 0.119740 0.177090
0.276231 0.122664 0.180026
0.353967 0.119240 0.179080
0.428565 0.112093 0.174929
0.506578 0.105959 0.169937
0.589642 0.109273 0.168948
0.674403 0.117580 0.167367
0.758920 0.129286 0.165225
0.836454 0.144503 0.162783
0.907487 0.160073 0.160922
0.975329 0.176937 0.158736
1.000000 0.192916 0.157332
1.000000 0.207828 0.156179
1.000000 0.223850 0.157351
0.121029 0.127852 0.174203
0.137304 0.130056 0.173129
0.196989 0.135803 0.176160
0.274744 0.139238 0.178709
0.351024 0.136465 0.177607
0.425318 0.130684 0.173635
0.503738 0.125776 0.169534
0.585764 0.129056 0.168302
0.669845 0.136528 0.167257
0.754780 0.146557 0.164877
0.833561 0.158828 0.162393
0.905709 0.173256 0.160265
0.973503 0.187752 0.157973
1.000000 0.202243 0.156142
1.000000 0.215399 0.154732
1.000000 0.230283 0.155581
0.163833 0.175076 0.180172
0.173964 0.177260 0.178893
0.220392 0.184584 0.172714
0.284185 0.184622 0.173460
0.352852 0.185325 0.172383
0.426618 0.182028 0.169931
0.505129 0.181525 0.166973
0.585372 0.185696 0.166483
0.668717 0.192119 0.164820
0.752937 0.200302 0.161924
0.831077 0.208823 0.158987
0.902804 0.218073 0.156609
0.971308 0.228181 0.154270
1.000000 0.238048 0.152169
1.000000 0.247560 0.151031
1.000000 0.258048 0.151479
0.201651 0.218735 0.183224
0.208449 0.219467 0.182864
0.239572 0.229514 0.176939
0.302397 0.243071 0.167043
0.366376 0.241264 0.166051
0.428363 0.243357 0.165121
0.497809 0.247438 0.163532
0.576323 0.252656 0.162628
0.658969 0.259590 0.160019
0.743166 0.267345 0.156092
0.822440 0.274155 0.152298
0.896087 0.280420 0.148934
0.965360 0.286634 0.145612
1.000000 0.292101 0.143038
1.000000 0.296837 0.141431
1.000000 0.303112 0.141384
0.240873 0.263230 0.186929
0.245948 0.263539 0.187046
0.266771 0.271238 0.183036
0.313071 0.288163 0.172563
0.381914 0.307165 0.158616
0.449317 0.309135 0.155080
0.510109 0.312964 0.155336
0.574243 0.320685 0.154137
0.650930 0.329863 0.149950
0.734605 0.338355 0.143634
0.813144 0.344342 0.138912
0.887418 0.348919 0.133832
0.958235 0.353079 0.129437
1.000000 0.355959 0.125744
1.000000 0.357238 0.123887
1.000000 0.358898 0.122353
0.271550 0.298344 0.190677
0.276621 0.300560 0.191300
0.290135 0.304754 0.188858
0.322698 0.319628 0.181149
0.377874 0.343939 0.164950
0.451728 0.370825 0.144686
0.528887 0.382025 0.135781
0.592334 0.388141 0.134475
0.658594 0.396582 0.129750
0.724422 0.405628 0.122847
0.800259 0.412726 0.114992
0.876487 0.417768 0.107149
0.948449 0.421186 0.097957
1.000000 0.422071 0.092298
1.000000 0.420618 0.087648
1.000000 0.419593 0.082338
0.300853 0.334899 0.193881
0.305798 0.338248 0.194443
0.314559 0.338701 0.193284
0.339097 0.352166 0.187131
0.380864 0.374482 0.174659
0.444563 0.407141 0.149258
0.523625 0.439964 0.116774
0.610305 0.459755 0.088075
0.682162 0.470034 0.064435
0.744941 0.474860 0.049706
0.804794 0.478975 0.033643
0.865687 0.484651 0.007182
0.937946 0.488513 0.000000
0.998276 0.489309 0.000000
1.000000 0.486424 0.000000
1.000000 0.482685 0.000000
0.324834 0.368268 0.194925
0.329105 0.371490 0.195221
0.334039 0.368309 0.195169
0.354107 0.381031 0.190059
0.387837 0.402141 0.180057
0.439326 0.433002 0.159810
0.513499 0.474894 0.113883
0.600395 0.514235 0.000000
0.690388 0.536552 0.000000
0.766011 0.547399 0.000000
0.823386 0.547643 0.000000
0.881491 0.549834 0.000000
0.938365 0.552530 0.000000
0.993823 0.553979 0.000000
1.000000 0.550202 0.000000
1.000000 0.545172 0.000000
0.346514 0.400702 0.194162
0.349621 0.403040 0.194422
0.352472 0.398091 0.194890
0.368376 0.408175 0.190878
0.396630 0.427982 0.182084
0.439491 0.456886 0.165401
0.501084 0.496176 0.129977
0.585653 0.545953 0.000000
0.677415 0.587943 0.000000
0.762605 0.606416 0.000000
0.844498 0.620166 0.000000
0.899166 0.618028 0.000000
0.952830 0.616718 0.000000
0.998633 0.614977 0.000000
1.000000 0.611980 0.000000
1.000000 0.608600 0.000000
0.368371 0.435847 0.191659
0.371179 0.438059 0.191597
0.373232 0.432914 0.192411
0.384906 0.438350 0.189649
0.409529 0.457258 0.181517
0.446711 0.484853 0.166049
0.499739 0.521907 0.135157
0.570897 0.567564 0.021596
0.660248 0.618250 0.000000
0.752011 0.658319 0.000000
0.828421 0.670106 0.000000
0.915968 0.686837 0.000000
0.965840 0.681210 0.000000
1.000000 0.674735 0.000000
1.000000 0.667595 0.000000
1.000000 0.661897 0.000000
0.392737 0.477424 0.184390
0.394171 0.478108 0.184403
0.396039 0.473475 0.185275
0.404279 0.473952 0.183865
0.426581 0.492506 0.175241
0.460426 0.519493 0.158999
0.508135 0.555450 0.126778
0.570984 0.598480 0.009742
0.649519 0.646540 0.000000
0.740938 0.695284 0.000000
0.830411 0.731563 0.000000
0.896758 0.735128 0.000000
0.979352 0.746749 0.000000
1.000000 0.736727 0.000000
1.000000 0.726204 0.000000
1.000000 0.717098 0.000000
0.422962 0.531792 0.167886
0.424543 0.532789 0.167698
0.425818 0.527722 0.169063
0.430970 0.522870 0.169921
0.452426 0.541496 0.158570
0.483894 0.567511 0.138161
0.526791 0.600230 0.094784
0.582042 0.638536 0.000000
0.649823 0.680759 0.000000
0.729649 0.725052 0.000000
0.817417 0.767001 0.000000
0.899732 0.795850 0.000000
0.956701 0.792213 0.000000
1.000000 0.794238 0.000000
1.000000 0.781241 0.000000
1.000000 0.769168 0.000000
0.467549 0.611804 0.127065
0.469219 0.612871 0.126838
0.470377 0.607683 0.129377
0.473837 0.599634 0.133307
0.491935 0.612371 0.118052
0.521068 0.635456 0.069398
0.560894 0.665107 0.000000
0.611224 0.699326 0.000000
0.671372 0.736035 0.000000
0.740174 0.773019 0.000000
0.815861 0.808456 0.000000
0.894175 0.838575 0.000000
0.965701 0.856852 0.000000
1.000000 0.844292 0.000000
1.000000 0.836784 0.000000
1.000000 0.822977 0.000000
0.523424 0.708821 0.000000
0.524668 0.709153 0.000000
0.526185 0.704559 0.000000
0.531145 0.698921 0.000000
0.546490 0.705427 0.000000
0.573279 0.724435 0.000000
0.608456 0.747589 0.000000
0.651523 0.773335 0.000000
0.702098 0.800589 0.000000
0.759774 0.828314 0.000000
0.823197 0.855076 0.000000
0.890986 0.879572 0.000000
0.959513 0.898764 0.000000
1.000000 0.907841 0.000000
1.000000 0.887999 0.000000
1.000000 0.873380 0.000000
0.605414 0.838957 0.000000
0.608796 0.842006 0.000000
0.611370 0.839283 0.000000
0.617820 0.835620 0.000000
0.630313 0.835682 0.000000
0.651844 0.846146 0.000000
0.679917 0.859158 0.000000
0.714080 0.873654 0.000000
0.753354 0.888675 0.000000
0.797989 0.903980 0.000000
0.847611 0.919072 0.000000
0.901712 0.933561 0.000000
0.959598 0.946559 0.000000
1.000000 0.955542 0.000000
1.000000 0.957381 0.000000
1.000000 0.931951 0.000000
0.683406 0.956817 0.274571
0.685585 0.957916 0.279301
0.689027 0.957006 0.279509
0.696907 0.956146 0.283348
0.709737 0.955389 0.291673
0.726986 0.955138 0.300420
0.747464 0.960736 0.287792
0.772457 0.967016 0.267759
0.802097 0.973815 0.236545
0.836387 0.980981 0.185031
0.875151 0.988098 0.000000
0.917894 0.994470 0.000000
0.964074 0.999450 0.000000
1.000000 1.000000 0.000000
1.000000 1.000000 0.000000
1.000000 0.999969 0.000000
0.118093 0.114949 0.183371
0.130035 0.113884 0.182781
0.190799 0.118724 0.185483
0.270317 0.122864 0.188290
0.347157 0.121772 0.188001
0.421186 0.116585 0.185672
0.499122 0.112478 0.182895
0.581364 0.116134 0.182266
0.664892 0.123271 0.180928
0.748701 0.133371 0.178920
0.826981 0.146127 0.176230
0.899456 0.161029 0.173916
0.968898 0.177386 0.171467
1.000000 0.192845 0.169593
1.000000 0.208033 0.167849
1.000000 0.222873 0.167697
0.115981 0.127615 0.181476
0.133091 0.128652 0.181734
0.192546 0.134425 0.184655
0.268811 0.138286 0.187199
0.344322 0.137328 0.186940
0.417735 0.133515 0.185141
0.495708 0.130399 0.182551
0.576873 0.133964 0.181911
0.660847 0.140494 0.180656
0.745816 0.149063 0.178261
0.825004 0.160528 0.175640
0.898231 0.173789 0.173096
0.967346 0.188102 0.170485
1.000000 0.202227 0.168060
1.000000 0.215126 0.166544
1.000000 0.229575 0.166514
0.160769 0.177158 0.186524
0.171356 0.175775 0.186997
0.215160 0.182480 0.182441
0.277729 0.183688 0.183739
0.346500 0.184409 0.183799
0.420198 0.182692 0.182344
0.498322 0.182945 0.180619
0.578641 0.187091 0.179692
0.660967 0.193060 0.178004
0.744823 0.200419 0.175303
0.823435 0.208571 0.172120
0.896480 0.217649 0.169505
0.966348 0.228103 0.166915
1.000000 0.238109 0.164543
1.000000 0.247625 0.163275
1.000000 0.257848 0.162900
0.202228 0.219940 0.190249
0.208549 0.219053 0.190639
0.236200 0.226495 0.186742
0.296259 0.239729 0.178880
0.359125 0.238945 0.178587
0.421218 0.242212 0.177710
0.491956 0.246103 0.176291
0.570217 0.251551 0.175318
0.652062 0.258361 0.172915
0.736040 0.265864 0.169108
0.815800 0.272585 0.165396
0.890359 0.279195 0.162038
0.960621 0.285623 0.158699
1.000000 0.291243 0.156094
1.000000 0.296098 0.153803
1.000000 0.302413 0.153746
0.242845 0.265121 0.193657
0.247837 0.265145 0.193956
0.266078 0.269343 0.191466
0.310285 0.285709 0.182524
0.377219 0.303990 0.170670
0.443441 0.306064 0.167514
0.504326 0.310553 0.167810
0.568408 0.318615 0.166422
0.645425 0.327490 0.162745
0.728762 0.335977 0.157441
0.807618 0.342179 0.152949
0.882838 0.347213 0.148336
0.954794 0.351935 0.143934
1.000000 0.355283 0.140736
1.000000 0.356862 0.138531
1.000000 0.358611 0.137386
0.273381 0.300719 0.195981
0.278394 0.302710 0.196617
0.290191 0.303564 0.195262
0.321550 0.318082 0.188288
0.375447 0.341853 0.174372
0.448279 0.368145 0.156210
0.523770 0.378529 0.149277
0.586517 0.384752 0.148325
0.652197 0.393205 0.144420
0.718292 0.402680 0.138081
0.795657 0.410077 0.131356
0.872514 0.415697 0.124528
0.945013 0.419475 0.117931
1.000000 0.420759 0.112514
1.000000 0.419559 0.107625
1.000000 0.419111 0.105574
0.302247 0.337106 0.198146
0.307053 0.340137 0.198665
0.314266 0.337594 0.198262
0.338357 0.350975 0.192644
0.379429 0.372962 0.181484
0.442405 0.405221 0.158733
0.521180 0.438068 0.130241
0.607212 0.457564 0.109448
0.677962 0.467345 0.099697
0.740579 0.472297 0.093826
0.800613 0.476795 0.086213
0.862787 0.482935 0.061787
0.935884 0.487331 0.033502
0.997610 0.488419 0.013411
1.000000 0.485948 0.004795
1.000000 0.482628 0.003325
0.325999 0.370269 0.198327
0.330261 0.373560 0.198702
0.334448 0.368590 0.199078
0.353645 0.380287 0.194428
0.387179 0.401288 0.185096
0.438083 0.431784 0.166570
0.511164 0.472860 0.126166
0.597279 0.511588 0.039766
0.687173 0.533984 0.000000
0.762149 0.544704 0.000000
0.819961 0.545543 0.000000
0.878518 0.548159 0.000000
0.935741 0.551180 0.000000
0.991853 0.552737 0.000000
1.000000 0.549282 0.000000
1.000000 0.544841 0.000000
0.347639 0.402825 0.197058
0.351010 0.405507 0.197393
0.353801 0.400259 0.197930
0.368470 0.408199 0.194562
0.396661 0.427962 0.186450
0.439244 0.456794 0.170872
0.500756 0.496060 0.138467
0.584855 0.545419 0.011730
0.676041 0.586903 0.000000
0.760947 0.605158 0.000000
0.842300 0.618656 0.000000
0.897346 0.616906 0.000000
0.951419 0.616029 0.000000
0.998178 0.614489 0.000000
1.000000 0.611848 0.000000
1.000000 0.608776 0.000000
0.369265 0.437754 0.194137
0.372513 0.440772 0.194165
0.374708 0.435765 0.194861
0.385163 0.438658 0.192818
0.409711 0.457565 0.185040
0.446486 0.484742 0.170701
0.499113 0.521376 0.142068
0.569881 0.566674 0.044799
0.658914 0.617099 0.000000
0.750525 0.657215 0.000000
0.827293 0.669280 0.000000
0.914577 0.685966 0.000000
0.964455 0.680405 0.000000
1.000000 0.674002 0.000000
1.000000 0.667202 0.000000
1.000000 0.662085 0.000000
0.393750 0.479890 0.186569
0.395866 0.481390 0.186602
0.397845 0.476865 0.187451
0.404847 0.475011 0.186757
0.427301 0.493550 0.178422
0.461085 0.520605 0.162900
0.508831 0.556497 0.132294
0.571204 0.599093 0.027115
0.649137 0.646462 0.000000
0.740227 0.694778 0.000000
0.829502 0.730953 0.000000
0.896014 0.734655 0.000000
0.978675 0.746465 0.000000
1.000000 0.736535 0.000000
1.000000 0.726307 0.000000
1.000000 0.717629 0.000000
0.423987 0.534256 0.169815
0.426460 0.536702 0.169498
0.428055 0.532027 0.170696
0.432501 0.525772 0.172016
0.453312 0.543173 0.161684
0.484479 0.568629 0.142342
0.527042 0.600804 0.103183
0.581888 0.638658 0.000000
0.649499 0.680643 0.000000
0.729210 0.724857 0.000000
0.817109 0.766912 0.000000
0.899317 0.795629 0.000000
0.956190 0.791876 0.000000
1.000000 0.793961 0.000000
1.000000 0.781206 0.000000
1.000000 0.769477 0.000000
0.468743 0.614755 0.129736
0.471196 0.617092 0.128988
0.472674 0.612408 0.131207
0.476221 0.604253 0.134900
0.493402 0.615040 0.121665
0.522529 0.637920 0.078892
0.562192 0.667209 0.000000
0.611995 0.700660 0.000000
0.671512 0.736489 0.000000
0.739885 0.772952 0.000000
0.815444 0.808261 0.000000
0.893831 0.838450 0.000000
0.965468 0.856797 0.000000
1.000000 0.844273 0.000000
1.000000 0.837036 0.000000
1.000000 0.823384 0.000000
0.524548 0.711678 0.000000
0.526904 0.713699 0.000000
0.528936 0.709954 0.000000
0.533996 0.704236 0.001044
0.548163 0.708481 0.000000
0.574600 0.726722 0.000000
0.609136 0.748966 0.000000
0.651838 0.774198 0.000000
0.702282 0.801123 0.000000
0.759789 0.828683 0.000000
0.823177 0.855375 0.000000
0.890938 0.879703 0.000000
0.959239 0.898723 0.000000
1.000000 0.907735 0.000000
1.000000 0.887975 0.000000
1.000000 0.873423 0.000000
0.606148 0.840981 0.000000
0.610420 0.845419 0.000000
0.613218 0.842884 0.000000
0.619617 0.839099 0.000000
0.631696 0.838178 0.000000
0.652993 0.848253 0.000000
0.680802 0.860756 0.000000
0.714538 0.874641 0.000000
0.753646 0.889219 0.000000
0.798070 0.904170 0.000000
0.847622 0.919187 0.000000
0.901809 0.933642 0.000000
0.959674 0.946622 0.000000
1.000000 0.955606 0.000000
1.000000 0.957493 0.000000
1.000000 0.932146 0.000000
0.683918 0.957592 0.277067
0.686527 0.959192 0.283452
0.690236 0.958532 0.284642
0.698038 0.957647 0.288394
0.710673 0.956659 0.295897
0.727785 0.956079 0.304051
0.747896 0.961395 0.290655
0.772736 0.967477 0.270105
0.802288 0.974188 0.238866
0.836524 0.981305 0.187435
0.875230 0.988342 0.004224
0.917924 0.994623 0.000000
0.964054 0.999506 0.000000
1.000000 1.000000 0.000000
1.000000 1.000000 0.000000
1.000000 0.999939 0.000000
0.153896 0.121938 0.220902
0.162957 0.120322 0.220245
0.196752 0.117243 0.218672
0.261885 0.119616 0.216919
0.333026 0.126795 0.217964
0.402283 0.134853 0.219858
0.480748 0.135903 0.220980
0.563172 0.137734 0.221555
0.647567 0.140166 0.221014
0.734240 0.145216 0.219023
0.815811 0.154550 0.216867
0.891372 0.167352 0.214651
0.963285 0.182628 0.212557
1.000000 0.198661 0.210787
1.000000 0.214097 0.209287
1.000000 0.229850 0.209555
0.155931 0.131731 0.217757
0.165421 0.132641 0.217876
0.195536 0.133285 0.215874
0.259177 0.136921 0.215335
0.329399 0.143421 0.217542
0.399623 0.148198 0.219331
0.477918 0.148130 0.219913
0.559659 0.150192 0.220456
0.644646 0.153553 0.220030
0.731631 0.158503 0.218262
0.813969 0.167217 0.216000
0.890135 0.179101 0.213813
0.961541 0.192878 0.211429
1.000000 0.206866 0.209384
1.000000 0.220322 0.207462
1.000000 0.236058 0.207944
0.148367 0.179816 0.215036
0.162773 0.179832 0.214506
0.206008 0.180646 0.213230
0.265309 0.183838 0.214907
0.331818 0.186463 0.216941
0.404252 0.188276 0.218036
0.481310 0.189788 0.218195
0.561645 0.193441 0.218459
0.645215 0.198126 0.217544
0.731527 0.203871 0.215556
0.813066 0.211132 0.212913
0.888904 0.220219 0.210652
0.961008 0.230703 0.208609
1.000000 0.241446 0.206637
1.000000 0.251667 0.205190
1.000000 0.263129 0.205545
0.200047 0.229968 0.212749
0.209620 0.229095 0.213841
0.233106 0.222737 0.214300
0.282942 0.233690 0.210699
0.341415 0.235968 0.212107
0.404155 0.240910 0.212900
0.477781 0.244923 0.212826
0.556517 0.250960 0.212747
0.638862 0.257576 0.211487
0.724684 0.264829 0.208976
0.806773 0.272010 0.206158
0.883515 0.279113 0.203781
0.955611 0.286167 0.201472
1.000000 0.292715 0.199110
1.000000 0.298331 0.197251
1.000000 0.305781 0.197806
0.248223 0.272977 0.216532
0.253586 0.273453 0.217050
0.266077 0.266458 0.216734
0.301479 0.277870 0.212362
0.363459 0.295611 0.205100
0.426634 0.298615 0.203789
0.487488 0.305208 0.204637
0.553664 0.314493 0.203953
0.634581 0.323535 0.201699
0.719196 0.332504 0.198295
0.799967 0.339590 0.195362
0.877030 0.345729 0.192377
0.950523 0.351317 0.189602
1.000000 0.355481 0.187497
1.000000 0.357859 0.185771
1.000000 0.360624 0.185812
0.277940 0.307811 0.215018
0.283261 0.310007 0.215964
0.291225 0.303077 0.215798
0.316843 0.311715 0.212299
0.366772 0.334542 0.203702
0.437201 0.360406 0.191983
0.510182 0.370626 0.188404
0.572896 0.378017 0.188841
0.638840 0.387787 0.186471
0.708769 0.398530 0.181902
0.789462 0.406860 0.177762
0.867671 0.413350 0.174171
0.941333 0.418001 0.170550
0.999465 0.420016 0.167541
1.000000 0.419706 0.164946
1.000000 0.420123 0.164816
0.306051 0.344103 0.214217
0.311020 0.347139 0.215078
0.316262 0.340439 0.214888
0.334841 0.345297 0.212302
0.373991 0.367021 0.204759
0.434730 0.398502 0.189775
0.512200 0.431158 0.171658
0.598004 0.451370 0.161209
0.666849 0.460859 0.158212
0.730539 0.467320 0.155269
0.791978 0.473177 0.152044
0.858309 0.480370 0.145486
0.932959 0.485575 0.139870
0.996717 0.487331 0.135773
1.000000 0.485565 0.132962
1.000000 0.482941 0.130567
0.329170 0.376866 0.211942
0.333498 0.380245 0.212600
0.337345 0.374128 0.212638
0.350819 0.375389 0.210860
0.383128 0.396175 0.204221
0.432496 0.426293 0.191330
0.504163 0.466837 0.164476
0.589717 0.505767 0.132839
0.680806 0.529458 0.109423
0.754030 0.539781 0.097712
0.813032 0.541980 0.098670
0.872726 0.545685 0.090723
0.930975 0.549611 0.070397
0.989731 0.551492 0.046694
1.000000 0.548558 0.033885
1.000000 0.544793 0.025210
0.350280 0.409095 0.208938
0.353671 0.411809 0.209307
0.356669 0.406384 0.209525
0.365845 0.403719 0.208510
0.393256 0.423419 0.202640
0.435048 0.452107 0.191144
0.495559 0.491177 0.168037
0.578658 0.540348 0.115056
0.670099 0.582468 0.011483
0.756589 0.602187 0.000000
0.836714 0.615386 0.000000
0.892686 0.614633 0.000000
0.947679 0.614604 0.000000
0.996950 0.613770 0.000000
1.000000 0.611660 0.000000
1.000000 0.608367 0.000000
0.371524 0.443469 0.204808
0.374741 0.446555 0.205022
0.377052 0.441508 0.205287
0.382764 0.434960 0.205278
0.406574 0.453206 0.199510
0.442810 0.480360 0.188430
0.494483 0.516715 0.167378
0.564771 0.562134 0.122116
0.653923 0.613192 0.000000
0.746118 0.654075 0.000000
0.824519 0.667629 0.000000
0.910967 0.684100 0.000000
0.961414 0.679206 0.000000
0.999993 0.673341 0.000000
1.000000 0.667032 0.000000
1.000000 0.662342 0.000000
0.395343 0.485158 0.196616
0.397528 0.486769 0.196595
0.399449 0.482154 0.197072
0.403493 0.473712 0.197890
0.424074 0.489258 0.192017
0.457520 0.516307 0.179886
0.504739 0.552335 0.156994
0.567014 0.595183 0.109479
0.644947 0.642995 0.000000
0.736231 0.691841 0.000000
0.826304 0.728908 0.000000
0.893746 0.733375 0.000000
0.976385 0.745625 0.000000
1.000000 0.736186 0.000000
1.000000 0.726182 0.000000
1.000000 0.717793 0.000000
0.424923 0.539153 0.179713
0.427455 0.541609 0.179474
0.429187 0.537039 0.180332
0.432802 0.528639 0.182013
0.449793 0.538682 0.176088
0.480779 0.564357 0.160486
0.523013 0.596709 0.132446
0.577864 0.634906 0.044223
0.645637 0.677420 0.000000
0.725810 0.722325 0.000000
0.814401 0.765207 0.000000
0.897272 0.794500 0.000000
0.954687 0.791261 0.000000
1.000000 0.793841 0.000000
1.000000 0.781176 0.000000
1.000000 0.769698 0.000000
0.468209 0.617918 0.143290
0.470549 0.620037 0.142838
0.472121 0.615384 0.144385
0.475923 0.607399 0.147147
0.489391 0.610501 0.141656
0.518772 0.634080 0.116844
0.558478 0.663767 0.036295
0.608362 0.697553 0.000000
0.668082 0.733773 0.000000
0.736804 0.770739 0.000000
0.812882 0.806616 0.000000
0.892080 0.837502 0.000000
0.964132 0.856207 0.000000
1.000000 0.843940 0.000000
1.000000 0.837133 0.000000
1.000000 0.823489 0.000000
0.523196 0.714185 0.017918
0.525580 0.716236 0.017372
0.527745 0.712509 0.020002
0.532908 0.706838 0.024983
0.544278 0.704906 0.020523
0.570726 0.723447 0.000000
0.605576 0.746133 0.000000
0.648486 0.771683 0.000000
0.699245 0.799065 0.000000
0.757284 0.827154 0.000000
0.821189 0.854303 0.000000
0.889320 0.878943 0.000000
0.958044 0.898245 0.000000
1.000000 0.907457 0.000000
1.000000 0.887846 0.000000
1.000000 0.873162 0.000000
0.603515 0.841960 0.000000
0.607522 0.846039 0.000000
0.610411 0.843576 0.000000
0.617046 0.839962 0.000000
0.628420 0.836414 0.000000
0.649875 0.846361 0.000000
0.677857 0.859089 0.000000
0.711840 0.873205 0.000000
0.751600 0.888179 0.000000
0.797059 0.903702 0.000000
0.847229 0.919077 0.000000
0.901800 0.933668 0.000000
0.959855 0.946667 0.000000
1.000000 0.955635 0.000000
1.000000 0.957332 0.000000
1.000000 0.931795 0.000000
0.682624 0.957922 0.276988
0.685263 0.959509 0.283403
0.689036 0.958856 0.284584
0.696933 0.957966 0.288362
0.709554 0.956970 0.295738
0.726852 0.955950 0.305235
0.747024 0.961260 0.291820
0.771927 0.967387 0.271531
0.801565 0.974151 0.240577
0.835964 0.981299 0.189815
0.874772 0.988415 0.020441
0.917576 0.994694 0.000000
0.963813 0.999550 0.000000
1.000000 1.000000 0.000000
1.000000 1.000000 0.000000
1.000000 0.999835 0.000000
0.192746 0.117361 0.273948
0.200570 0.115546 0.273754
0.227960 0.108294 0.272034
0.266147 0.113355 0.265347
0.322883 0.122179 0.256841
0.386847 0.132210 0.255986
0.464165 0.139645 0.261255
0.544560 0.147865 0.266885
0.629026 0.152641 0.270657
0.717221 0.152162 0.271426
0.801565 0.158487 0.271116
0.880434 0.170702 0.271132
0.955007 0.187161 0.270991
1.000000 0.204960 0.270989
1.000000 0.222542 0.271158
1.000000 0.241886 0.273186
0.196218 0.124798 0.268946
0.203753 0.125280 0.269881
0.226782 0.128016 0.266891
0.262544 0.134076 0.260660
0.319279 0.139058 0.254531
0.385127 0.146778 0.255495
0.461563 0.152761 0.260560
0.542034 0.159961 0.266068
0.627037 0.163567 0.269604
0.715118 0.163989 0.270262
0.800188 0.169733 0.270362
0.879140 0.181536 0.270161
0.953126 0.196262 0.269980
1.000000 0.212075 0.269449
1.000000 0.227999 0.268865
1.000000 0.246847 0.271679
0.195435 0.167457 0.264384
0.206887 0.172568 0.263103
0.233747 0.181175 0.258757
0.264253 0.182086 0.254475
0.320245 0.184056 0.253052
0.390176 0.189427 0.257409
0.465633 0.194253 0.262131
0.544836 0.198892 0.265957
0.628045 0.201555 0.267622
0.715511 0.204593 0.268051
0.799565 0.210816 0.267821
0.878477 0.220345 0.267550
0.953131 0.232348 0.267675
1.000000 0.245043 0.267725
1.000000 0.257720 0.267889
1.000000 0.272481 0.270206
0.190691 0.232873 0.254770
0.200676 0.233806 0.255183
0.231462 0.233519 0.253469
0.277325 0.235421 0.252343
0.331606 0.237271 0.253381
0.394690 0.240503 0.255653
0.465009 0.244551 0.257991
0.541643 0.250011 0.260360
0.623462 0.255629 0.261616
0.710377 0.261820 0.261768
0.794649 0.269086 0.261635
0.873763 0.277037 0.261619
0.948063 0.285607 0.261369
1.000000 0.293900 0.261008
1.000000 0.301690 0.260837
1.000000 0.312390 0.263808
0.236050 0.294383 0.249440
0.245438 0.295353 0.251283
0.270578 0.287717 0.252152
0.297599 0.274805 0.250330
0.350350 0.289912 0.247594
0.407237 0.293339 0.248733
0.466803 0.300865 0.250830
0.540299 0.309197 0.252490
0.620951 0.317925 0.253059
0.706373 0.326775 0.252679
0.788950 0.334618 0.252239
0.868361 0.342168 0.252126
0.943922 0.349310 0.252234
1.000000 0.355329 0.252545
1.000000 0.359719 0.252887
1.000000 0.364937 0.254918
0.283922 0.325585 0.248002
0.290131 0.328279 0.249731
0.300094 0.321150 0.248360
0.315011 0.308730 0.245863
0.355615 0.325654 0.242838
0.422748 0.351513 0.237736
0.490778 0.360794 0.238502
0.552313 0.369414 0.240464
0.617840 0.380126 0.239924
0.697851 0.391771 0.238743
0.780160 0.401202 0.238175
0.860108 0.409019 0.237754
0.935316 0.415111 0.237675
0.997551 0.418567 0.237487
1.000000 0.419943 0.237285
1.000000 0.422510 0.239988
0.312768 0.360308 0.243615
0.317894 0.363637 0.245042
0.324063 0.356660 0.243950
0.333979 0.343861 0.241830
0.365601 0.357929 0.238905
0.422328 0.388586 0.232336
0.498450 0.421630 0.223645
0.581874 0.441399 0.221335
0.648280 0.450717 0.222002
0.713068 0.459015 0.221210
0.776536 0.466976 0.219557
0.851447 0.475848 0.218099
0.927981 0.482353 0.217864
0.995138 0.485528 0.218076
1.000000 0.485115 0.218352
1.000000 0.483857 0.219560
0.335295 0.391748 0.237849
0.339701 0.395386 0.238970
0.344144 0.389250 0.238314
0.351536 0.377303 0.236953
0.376412 0.387548 0.234280
0.423045 0.417095 0.228147
