assets/lut/editingcorp picola.cube
# Created by: G'MIC (https://gmic.eu)
TITLE "picola"
# LUT size
LUT_3D_SIZE 13
# Data domain
DOMAIN_MIN 0.0 0.0 0.0
DOMAIN_MAX 1.0 1.0 1.0
# LUT data points
0.0055068968795239925 0.0067843715660274029 0.0070011960342526436
0.03478940948843956 0.0074908984825015068 0.0063717113807797432
0.12568354606628418 0.0095753837376832962 0.0071732765063643456
0.27941945195198059 0.014325564727187157 0.0063851000741124153
0.45178419351577759 0.016616761684417725 0.0061407648026943207
0.60995596647262573 0.011059226468205452 0.0086517781019210815
0.74689346551895142 0.004751930944621563 0.006204941775649786
0.84281241893768311 0.0039421082474291325 0.0049484404735267162
0.88669222593307495 0.010203163139522076 0.0081887487322092056
0.90653795003890991 0.0141640305519104 0.0056179719977080822
0.92791569232940674 0.011665479280054569 0.00040714038186706603
0.95264828205108643 0.010228310711681843 0
0.97991085052490234 0.0088150622323155403 0
0.0091917449608445168 0.063671723008155823 0.01979248970746994
0.038773555308580399 0.057577259838581085 0.016400296241044998
0.11743851006031036 0.055214781314134598 0.013161527924239635
0.25801882147789001 0.064483270049095154 0.0068681007251143456
0.4219086766242981 0.068736284971237183 0.0077545465901494026
0.58209824562072754 0.059140551835298538 0.010764971375465393
0.73082548379898071 0.042600024491548538 0.0051715327426791191
0.84088492393493652 0.034314759075641632 0.0047538010403513908
0.89067751169204712 0.038593053817749023 0.0081595331430435181
0.90935158729553223 0.041807137429714203 0.0065437615849077702
0.9268265962600708 0.042404893785715103 0.0012709075817838311
0.95117920637130737 0.04481799528002739 0
0.97910678386688232 0.046299580484628677 0
0.014268209226429462 0.15991894900798798 0.027203923091292381
0.043153397738933563 0.14802409708499908 0.026187732815742493
0.10989653319120407 0.13317227363586426 0.025722458958625793
0.24168629944324493 0.13479410111904144 0.014858724549412727
0.40005084872245789 0.13998617231845856 0.0063956165686249733
0.55750161409378052 0.13107560575008392 0.0056173438206315041
0.70508891344070435 0.11227868497371674 0.003557736286893487
0.82111662626266479 0.097930550575256348 0.0051400130614638329
0.88384222984313965 0.092314794659614563 0.010001717135310173
0.90727293491363525 0.086516603827476501 0.010904948227107525
0.92545902729034424 0.084854274988174438 0.0039021510165184736
0.95045673847198486 0.08819127082824707 0.00040606330730952322
0.97864234447479248 0.091691158711910248 0.0010125403059646487
0.025416774675250053 0.27236446738243103 0.024616913869976997
0.054816614836454391 0.26371914148330688 0.026724124327301979
0.11562869697809219 0.24603134393692017 0.033647455275058746
0.22665554285049438 0.23276619613170624 0.03291727602481842
0.37208318710327148 0.23284685611724854 0.015584279783070087
0.52913773059844971 0.22729815542697906 0.0048165265470743179
0.6756131649017334 0.21196772158145905 0.0042198179289698601
0.79577934741973877 0.19500841200351715 0.0085974596440792084
0.87399053573608398 0.18125669658184052 0.01304289884865284
0.90792995691299438 0.16692608594894409 0.012643268331885338
0.92706060409545898 0.15788917243480682 0.0053976168856024742
0.9511723518371582 0.15418946743011475 0.0024546603672206402
0.97952651977539062 0.15334878861904144 0.005576414056122303
0.041796516627073288 0.39150625467300415 0.029000375419855118
0.068107083439826965 0.38690441846847534 0.029367079958319664
0.11862103641033173 0.37414202094078064 0.035596899688243866
0.20160223543643951 0.35110741853713989 0.047086812555789948
0.32155618071556091 0.33524265885353088 0.045807648450136185
0.48985931277275085 0.33624523878097534 0.019367441534996033
0.65282142162322998 0.33017343282699585 0.0057722055353224277
0.77669572830200195 0.31043964624404907 0.011441728100180626
0.865500807762146 0.29018348455429077 0.015009412541985512
0.90924054384231567 0.27175259590148926 0.012179729528725147
0.93007862567901611 0.25733271241188049 0.0056522893719375134
0.9517330527305603 0.24502788484096527 0.0042036916129291058
0.97993868589401245 0.23666641116142273 0.0087959142401814461
0.055643118917942047 0.50663483142852783 0.04562976211309433
0.077439986169338226 0.50510597229003906 0.043213233351707458
0.11935444176197052 0.49639773368835449 0.046095531433820724
0.18828438222408295 0.47941786050796509 0.052341043949127197
0.27495008707046509 0.45541900396347046 0.06802782416343689
0.41943472623825073 0.44627034664154053 0.057303439825773239
0.61452203989028931 0.45045080780982971 0.018076652660965919
0.76435345411300659 0.43320024013519287 0.0081141898408532143
0.86170834302902222 0.40496143698692322 0.011887434870004654
0.91183453798294067 0.38295161724090576 0.012311120517551899
0.9333186149597168 0.3673369288444519 0.0078320521861314774
0.95414036512374878 0.35034745931625366 0.0057370206341147423
0.98143225908279419 0.33641400933265686 0.0074203340336680412
0.064389266073703766 0.6219753623008728 0.057488832622766495
0.087021633982658386 0.62016463279724121 0.056373894214630127
0.12551048398017883 0.61590737104415894 0.05492197722196579
0.18788810074329376 0.60941320657730103 0.049140647053718567
0.2559610903263092 0.58905404806137085 0.063176803290843964
0.34771153330802917 0.56207501888275146 0.08774586021900177
0.52571862936019897 0.55837655067443848 0.063217967748641968
0.72787219285964966 0.55222243070602417 0.019439009949564934
0.85798972845077515 0.52460694313049316 0.010457326658070087
0.92125272750854492 0.49979853630065918 0.011183136142790318
0.94298642873764038 0.48164314031600952 0.010999791324138641
0.96020668745040894 0.46167120337486267 0.0085329841822385788
0.9862479567527771 0.44440683722496033 0.0076936609111726284
0.071836702525615692 0.73263055086135864 0.067182160913944244
0.095034457743167877 0.73049420118331909 0.066124953329563141
0.12734156847000122 0.72801870107650757 0.063841983675956726
0.17376646399497986 0.72329413890838623 0.057764090597629547
0.23875714838504791 0.71066296100616455 0.057083819061517715
0.31585878133773804 0.68678790330886841 0.079010471701622009
0.42297980189323425 0.66288584470748901 0.10737805813550949
0.61721837520599365 0.65406376123428345 0.077213019132614136
0.81498426198959351 0.64389276504516602 0.030643222853541374
0.92708760499954224 0.62614262104034424 0.0086592882871627808
0.9532504677772522 0.60243445634841919 0.0093516027554869652
0.96889227628707886 0.57896941900253296 0.0098516130819916725
0.99284273386001587 0.5585712194442749 0.0077205882407724857
0.072290949523448944 0.82902336120605469 0.072387158870697021
0.094822227954864502 0.82644981145858765 0.072075456380844116
0.12124819308519363 0.82471495866775513 0.071168325841426849
0.15651868283748627 0.82146316766738892 0.067683905363082886
0.21392291784286499 0.8153839111328125 0.061328094452619553
0.29272717237472534 0.80204349756240845 0.065298326313495636
0.37639406323432922 0.77801012992858887 0.096915148198604584
0.50857675075531006 0.75676488876342773 0.11516572535037994
0.72036898136138916 0.75282961130142212 0.072997450828552246
0.89270931482315063 0.74716264009475708 0.022553447633981705
0.95626658201217651 0.72735399007797241 0.0077228769659996033
0.97773206233978271 0.70216238498687744 0.0081948228180408478
0.99690341949462891 0.67708396911621094 0.0092056570574641228
0.068429730832576752 0.89671784639358521 0.072271369397640228
0.091164231300354004 0.89281082153320312 0.072873555123806
0.11532443016767502 0.89332073926925659 0.074635602533817291
0.14640246331691742 0.89269816875457764 0.074850566685199738
0.19575248658657074 0.89078539609909058 0.069460943341255188
0.27052938938140869 0.88695192337036133 0.061387993395328522
0.35551941394805908 0.87474393844604492 0.073113672435283661
0.44113272428512573 0.85087931156158447 0.11852350831031799
0.59954065084457397 0.83730906248092651 0.12508873641490936
0.79417562484741211 0.83745104074478149 0.076150156557559967
0.91947507858276367 0.83442795276641846 0.031236192211508751
0.96318674087524414 0.81618660688400269 0.023500509560108185
0.98762011528015137 0.78970760107040405 0.024985818192362785
0.069798864424228668 0.92944401502609253 0.072694577276706696
0.091960445046424866 0.92556828260421753 0.074237316846847534
0.11477420479059219 0.92833882570266724 0.079469911754131317
0.14223136007785797 0.92975229024887085 0.082233056426048279
0.18403257429599762 0.92959630489349365 0.076822452247142792
0.25045359134674072 0.93117141723632812 0.064706198871135712
0.33373862504959106 0.92755353450775146 0.066662825644016266
0.41713908314704895 0.91187834739685059 0.1052514910697937
0.52886348962783813 0.89441931247711182 0.14499478042125702
0.69344902038574219 0.89258766174316406 0.12969084084033966
0.84686237573623657 0.90008813142776489 0.084710001945495605
0.9241340160369873 0.89780634641647339 0.064726032316684723
0.96310150623321533 0.87900739908218384 0.05749206617474556
0.073085442185401917 0.95149827003479004 0.076788417994976044
0.094563022255897522 0.94800257682800293 0.078735083341598511
0.11354534327983856 0.95041364431381226 0.083494149148464203
0.13377958536148071 0.95035219192504883 0.084970168769359589
0.16325801610946655 0.94939100742340088 0.079781219363212585
0.21743752062320709 0.9516901969909668 0.066968835890293121
0.30518892407417297 0.95498389005661011 0.057436998933553696
0.4040590226650238 0.94741940498352051 0.077063016593456268
0.4921058714389801 0.93131285905838013 0.12660768628120422
0.62937456369400024 0.92509567737579346 0.1428428441286087
0.80516147613525391 0.93225187063217163 0.11465220898389816
0.91187202930450439 0.94004207849502563 0.093086510896682739
0.94807153940200806 0.93465811014175415 0.083321668207645416
0.068616800010204315 0.97813922166824341 0.074525706470012665
0.087642118334770203 0.97632849216461182 0.076303951442241669
0.10141957551240921 0.97564667463302612 0.076916716992855072
0.11308392137289047 0.97331792116165161 0.07471204549074173
0.13081514835357666 0.97067487239837646 0.068841613829135895
0.17118310928344727 0.97288566827774048 0.058060217648744583
0.24998275935649872 0.97648650407791138 0.048798535019159317
0.34876894950866699 0.97102916240692139 0.062942087650299072
0.43750828504562378 0.95688128471374512 0.10862136632204056
0.57011103630065918 0.94822835922241211 0.13681331276893616
0.76775938272476196 0.95523226261138916 0.11984682083129883
0.89673358201980591 0.9657740592956543 0.099063828587532043
0.93113285303115845 0.96838480234146118 0.088527634739875793
0.0095375208184123039 0.0084444079548120499 0.051778979599475861
0.037611823529005051 0.010006504133343697 0.058661174029111862
0.12709298729896545 0.012615353800356388 0.068386182188987732
0.27265959978103638 0.017198480665683746 0.074487157166004181
0.44198182225227356 0.02000712975859642 0.076798982918262482
0.60917782783508301 0.014257542788982391 0.077122710645198822
0.75274443626403809 0.0082372324541211128 0.062226120382547379
0.84981364011764526 0.0093198735266923904 0.049242924898862839
0.89133334159851074 0.014963142573833466 0.050650037825107574
0.90904039144515991 0.016022985801100731 0.044971078634262085
0.92853564023971558 0.013229804113507271 0.031218269839882851
0.95176589488983154 0.013487318530678749 0.024189159274101257
0.97911393642425537 0.013187767937779427 0.023890640586614609
0.010563240386545658 0.056535188108682632 0.062172144651412964
0.036593224853277206 0.055105499923229218 0.059578061103820801
0.12000693380832672 0.057592682540416718 0.061387185007333755
0.25356501340866089 0.066224068403244019 0.061380349099636078
0.413504958152771 0.06980278342962265 0.06713847815990448
0.57958120107650757 0.059414912015199661 0.065596066415309906
0.72791492938995361 0.044209513813257217 0.045866392552852631
0.83487308025360107 0.040298447012901306 0.038187496364116669
0.88678288459777832 0.043353617191314697 0.042027611285448074
0.90719830989837646 0.042783189564943314 0.040105633437633514
0.92586708068847656 0.041895713657140732 0.029961125925183296
0.94981783628463745 0.045108422636985779 0.023459745571017265
0.97746378183364868 0.048247691243886948 0.025687841698527336
0.018880387768149376 0.14400580525398254 0.075992926955223083
0.047112617641687393 0.14382132887840271 0.068467743694782257
0.11419637501239777 0.13536407053470612 0.061207402497529984
0.23915295302867889 0.13254769146442413 0.051849320530891418
0.39348667860031128 0.13697385787963867 0.049116037786006927
0.55349957942962646 0.12927758693695068 0.045219302177429199
0.70136934518814087 0.1115390732884407 0.033759560436010361
0.81661355495452881 0.098678112030029297 0.029135311022400856
0.88138771057128906 0.091761089861392975 0.032257918268442154
0.90643399953842163 0.084256537258625031 0.034603822976350784
0.92509680986404419 0.08124561607837677 0.026427295058965683
0.95006787776947021 0.084747612476348877 0.021659895777702332
0.9774707555770874 0.08977402001619339 0.029749792069196701
0.035472255200147629 0.26025798916816711 0.068256005644798279
0.063614115118980408 0.25904354453086853 0.066735856235027313
0.11968085914850235 0.24745380878448486 0.066297359764575958
0.22561419010162354 0.23280142247676849 0.064092092216014862
0.3682873547077179 0.2322315126657486 0.046480726450681686
0.52567851543426514 0.22763578593730927 0.030764291062951088
0.67395234107971191 0.21160486340522766 0.025238709524273872
0.79556238651275635 0.19354961812496185 0.026486655697226524
0.87600898742675781 0.17851023375988007 0.030252523720264435
0.90917116403579712 0.16336098313331604 0.029644416645169258
0.92766618728637695 0.15262246131896973 0.020659996196627617
0.951366126537323 0.1494954377412796 0.020014729350805283
0.97865015268325806 0.15003319084644318 0.033155165612697601
0.051339197903871536 0.38531732559204102 0.060014344751834869
0.07389252632856369 0.38225910067558289 0.061593268066644669
0.11875919997692108 0.3732873797416687 0.064626850187778473
0.20259013772010803 0.35488981008529663 0.06997806578874588
0.32370445132255554 0.3413846492767334 0.063574217259883881
0.48125222325325012 0.33619552850723267 0.041166670620441437
0.64528995752334595 0.32773593068122864 0.024868730455636978
0.77676337957382202 0.30827239155769348 0.028128784149885178
0.86705666780471802 0.28632980585098267 0.03408171609044075
0.90930163860321045 0.26724806427955627 0.028676485642790794
0.93010425567626953 0.2519964873790741 0.01892852783203125
0.95140987634658813 0.24029058218002319 0.019079096615314484
0.97977942228317261 0.23287239670753479 0.031551375985145569
0.054322846233844757 0.50828838348388672 0.062099844217300415
0.07726026326417923 0.50341004133224487 0.066317886114120483
0.11712568998336792 0.49464067816734314 0.071672387421131134
0.18599319458007812 0.48070424795150757 0.0735054612159729
0.27535125613212585 0.45783025026321411 0.086162731051445007
0.41125333309173584 0.4436289370059967 0.083032108843326569
0.60832333564758301 0.44822585582733154 0.040337417274713516
0.76696324348449707 0.43097123503684998 0.025970384478569031
0.86112219095230103 0.39938962459564209 0.035377621650695801
0.90930736064910889 0.37812390923500061 0.031704682856798172
0.93100887537002563 0.36253327131271362 0.021859621629118919
0.95244646072387695 0.34594887495040894 0.019015053287148476
0.98018121719360352 0.33332830667495728 0.026358330622315407
0.054654289036989212 0.62717717885971069 0.070295058190822601
0.079275079071521759 0.62089568376541138 0.075132317841053009
0.11921513825654984 0.61336833238601685 0.078439630568027496
0.17939768731594086 0.60535162687301636 0.072913646697998047
0.24887445569038391 0.58343124389648438 0.088802918791770935
0.33904978632926941 0.55585396289825439 0.11883856356143951
0.52246969938278198 0.55575740337371826 0.088785089552402496
0.72784757614135742 0.55046707391738892 0.041903745383024216
0.85611212253570557 0.52149051427841187 0.034855350852012634
0.91780155897140503 0.4977988600730896 0.034166552126407623
0.93899619579315186 0.48000892996788025 0.028991848230361938
0.95703518390655518 0.45846495032310486 0.025001989677548409
0.98401385545730591 0.4413759708404541 0.026642937213182449
0.064890541136264801 0.73508661985397339 0.086876213550567627
0.086569778621196747 0.73049956560134888 0.086996279656887054
0.12117448449134827 0.72373682260513306 0.08842894434928894
0.16286863386631012 0.71752160787582397 0.082346253097057343
0.22575545310974121 0.70374488830566406 0.084139280021190643
0.30708950757980347 0.67994064092636108 0.10843576490879059
0.42701223492622375 0.66096961498260498 0.12783944606781006
0.62006515264511108 0.65351492166519165 0.098465278744697571
0.81469547748565674 0.6423029899597168 0.054719243198633194
0.92671811580657959 0.62511754035949707 0.032323725521564484
0.9531252384185791 0.60175758600234985 0.031235070899128914
0.96620899438858032 0.57607936859130859 0.031582266092300415
0.99108970165252686 0.55535483360290527 0.030367907136678696
0.067360326647758484 0.82693082094192505 0.094106383621692657
0.087608948349952698 0.82368862628936768 0.094334498047828674
0.11479290574789047 0.81902337074279785 0.096712715923786163
0.14663340151309967 0.81520402431488037 0.093198917806148529
0.2064388245344162 0.80999886989593506 0.085409171879291534
0.29504477977752686 0.79854267835617065 0.085250973701477051
0.38209405541419983 0.77649009227752686 0.11746895313262939
0.51277130842208862 0.75613367557525635 0.13829140365123749
0.72040551900863647 0.750987708568573 0.098487719893455505
0.89110445976257324 0.74513649940490723 0.049534756690263748
0.95377486944198608 0.7248682975769043 0.034512493759393692
0.9745822548866272 0.69889426231384277 0.032954782247543335
0.99633163213729858 0.6749197244644165 0.031886335462331772
0.0643424391746521 0.89192992448806763 0.093708649277687073
0.085778824985027313 0.88947582244873047 0.096288792788982391
0.10967463999986649 0.88823896646499634 0.10023973882198334
0.14062650501728058 0.88768327236175537 0.10145190358161926
0.19283744692802429 0.88696551322937012 0.095445312559604645
0.27256578207015991 0.88434261083602905 0.085697248578071594
0.35513001680374146 0.87250083684921265 0.10200515389442444
0.44591879844665527 0.8499942421913147 0.14544576406478882
0.60176211595535278 0.83658647537231445 0.15163139998912811
0.79133522510528564 0.8355250358581543 0.10453099012374878
0.91344904899597168 0.8315279483795166 0.061283696442842484
0.96087467670440674 0.81541484594345093 0.045983977615833282
0.98748558759689331 0.79089814424514771 0.044115643948316574
0.069081038236618042 0.92748308181762695 0.09635867178440094
0.0920228511095047 0.92520737648010254 0.10068154335021973
0.11504052579402924 0.92651253938674927 0.10628009587526321
0.14228790998458862 0.92737376689910889 0.10930753499269485
0.18360011279582977 0.92797207832336426 0.10440109670162201
0.24869900941848755 0.9296562671661377 0.092531599104404449
0.33127626776695251 0.92687565088272095 0.095495902001857758
0.41763466596603394 0.9117203950881958 0.13329122960567474
0.53147751092910767 0.89469075202941895 0.16991795599460602
0.69552481174468994 0.89243417978286743 0.15439851582050323
0.84663796424865723 0.89880341291427612 0.10950766503810883
0.92425018548965454 0.89875257015228271 0.085111401975154877
0.96067112684249878 0.88437420129776001 0.078904353082180023
0.074836879968643188 0.95172476768493652 0.098729439079761505
0.098668836057186127 0.95018625259399414 0.10410165041685104
0.11923728138208389 0.95087754726409912 0.10834453999996185
0.13856394588947296 0.94970440864562988 0.10896826535463333
0.16261477768421173 0.94955480098724365 0.1035388857126236
0.20682694017887115 0.95378273725509644 0.091875739395618439
0.28953278064727783 0.95645570755004883 0.084922641515731812
0.39349398016929626 0.94803392887115479 0.10624009370803833
0.49049901962280273 0.93105399608612061 0.15271185338497162
0.63061493635177612 0.92375391721725464 0.16749301552772522
0.80326026678085327 0.93013930320739746 0.13803811371326447
0.90967029333114624 0.94016790390014648 0.11479430645704269
0.94627326726913452 0.93988823890686035 0.10670267790555954
0.068710148334503174 0.97887957096099854 0.088022105395793915
0.091571807861328125 0.97782045602798462 0.093653284013271332
0.10625438392162323 0.97712641954421997 0.094852283596992493
0.11432938277721405 0.97364306449890137 0.090565502643585205
0.1227337121963501 0.97255885601043701 0.084200374782085419
0.14623801410198212 0.97701090574264526 0.07583935558795929
0.21672949194908142 0.98083305358886719 0.069515153765678406
0.3300015926361084 0.97313469648361206 0.083095535635948181
0.43392914533615112 0.9571952223777771 0.12692397832870483
0.57180345058441162 0.9473501443862915 0.15505358576774597
0.75709182024002075 0.95206165313720703 0.14014439284801483
0.88631230592727661 0.96386760473251343 0.11805029213428497
0.93248510360717773 0.97065705060958862 0.10641855001449585
0.020125593990087509 0.013883299194276333 0.14368394017219543
0.046080015599727631 0.015261960215866566 0.15181607007980347
0.14781466126441956 0.020136231556534767 0.17239746451377869
0.27195429801940918 0.027746478095650673 0.18398414552211761
0.42165210843086243 0.031222952529788017 0.19000871479511261
0.59206098318099976 0.023366846144199371 0.19129855930805206
0.7442975640296936 0.016982987523078918 0.17521710693836212
0.8455040454864502 0.017244046553969383 0.1537974625825882
0.88641083240509033 0.020106012001633644 0.14407409727573395
0.90625214576721191 0.017209894955158234 0.13142910599708557
0.92702025175094604 0.014350861310958862 0.11731797456741333
0.94992208480834961 0.015610309317708015 0.1117788553237915
0.97767019271850586 0.015804843977093697 0.1103694811463356
0.017315734177827835 0.060194965451955795 0.14215725660324097
0.039871469140052795 0.061072271317243576 0.14394298195838928
0.13080091774463654 0.069413550198078156 0.15653714537620544
0.25095099210739136 0.078759089112281799 0.16117215156555176
0.3979777991771698 0.083040781319141388 0.17005529999732971
0.56574547290802002 0.071115098893642426 0.17307767271995544
0.71753406524658203 0.059335507452487946 0.15614934265613556
0.82553327083587646 0.054036654531955719 0.13859395682811737
0.87803739309310913 0.052452132105827332 0.12716870009899139
0.90221893787384033 0.047844037413597107 0.11679525673389435
0.9240107536315918 0.04512704536318779 0.10481716692447662
0.94890928268432617 0.048275697976350784 0.099393703043460846
0.97745096683502197 0.051010280847549438 0.10309614241123199
0.025071088224649429 0.13469229638576508 0.15619802474975586
0.051685947924852371 0.13594590127468109 0.1513601690530777
0.12350025773048401 0.13919275999069214 0.14996331930160522
0.23781327903270721 0.13970378041267395 0.14292104542255402
0.38197576999664307 0.14357465505599976 0.14272640645503998
0.54181551933288574 0.13686002790927887 0.14051255583763123
0.69372749328613281 0.12199036777019501 0.12718024849891663
0.81214851140975952 0.10718567669391632 0.11014531552791595
0.87910968065261841 0.096483580768108368 0.098998993635177612
0.90620774030685425 0.089021630585193634 0.095105096697807312
0.92637103796005249 0.085601180791854858 0.085526183247566223
0.95054101943969727 0.088213406503200531 0.083477243781089783
0.9775012731552124 0.092868521809577942 0.095044396817684174
0.053130518645048141 0.23701412975788116 0.16001473367214203
0.077176064252853394 0.23925912380218506 0.15324613451957703
0.12985481321811676 0.24339137971401215 0.14349867403507233
0.22713786363601685 0.23612014949321747 0.14135506749153137
0.36345884203910828 0.23482842743396759 0.1254180520772934
0.51898276805877686 0.2312905341386795 0.1065516471862793
0.66975599527359009 0.21684989333152771 0.097211994230747223
0.79500478506088257 0.1966237872838974 0.087244965136051178
0.87492614984512329 0.17944721877574921 0.081883914768695831
0.90870624780654907 0.16694392263889313 0.077187433838844299
0.9294857382774353 0.15807543694972992 0.0667380690574646
0.95248293876647949 0.15474763512611389 0.068145409226417542
0.97854650020599365 0.15507973730564117 0.085731402039527893
0.082868777215480804 0.36185130476951599 0.14775627851486206
