assets/lut/editingcorpw Lavender Luxe.cube
LUT_3D_SIZE 6
DOMAIN_MIN 0.0 0.0 0.0
DOMAIN_MAX 1.0 1.0 1.0
0.203342 0.119326 0.142153
0.275285 0.127914 0.139108
0.465779 0.174398 0.116780
0.717781 0.272520 0.000372
0.938311 0.375036 0.000000
1.000000 0.473304 0.000000
0.175644 0.193063 0.145370
0.256185 0.198439 0.130100
0.482284 0.217567 0.128150
0.730633 0.303627 0.017569
0.945580 0.395677 0.000000
1.000000 0.485646 0.000000
0.000000 0.409064 0.214829
0.000000 0.421983 0.175635
0.434195 0.433003 0.114751
0.795060 0.442193 0.133110
0.981632 0.484569 0.070053
1.000000 0.545001 0.070033
0.000000 0.669184 0.360064
0.000000 0.678472 0.346431
0.065714 0.685201 0.245663
0.653868 0.708770 0.110490
0.990193 0.697487 0.217236
1.000000 0.664637 0.395886
0.000000 0.902251 0.522136
0.000000 0.899118 0.520536
0.000000 0.905100 0.485675
0.551931 0.904734 0.532992
0.825558 0.922708 0.446599
1.000000 0.895463 0.499165
0.000000 1.000000 0.667720
0.000000 1.000000 0.682234
0.506865 1.000000 0.719429
0.653913 1.000000 0.714687
0.840525 1.000000 0.752755
0.949248 1.000000 0.726253
0.193460 0.132107 0.178445
0.276827 0.092201 0.183562
0.459080 0.115329 0.159132
0.668187 0.264438 0.141265
0.911477 0.368222 0.000000
1.000000 0.469807 0.000000
0.190988 0.183107 0.188047
0.268646 0.185781 0.189930
0.448308 0.223604 0.182943
0.688989 0.295628 0.149986
0.922164 0.390036 0.022557
1.000000 0.483933 0.000000
0.000000 0.399667 0.269622
0.146312 0.406505 0.257789
0.432819 0.415184 0.196635
0.769234 0.429754 0.220656
0.967514 0.483864 0.182208
1.000000 0.547676 0.183366
0.000000 0.667391 0.410166
0.000000 0.679071 0.403129
0.067611 0.680247 0.305823
0.654078 0.700456 0.235623
0.986650 0.691053 0.314203
1.000000 0.673157 0.437801
0.000000 0.904032 0.545554
0.000000 0.904424 0.547370
0.000000 0.907823 0.537680
0.565225 0.903981 0.557561
0.831312 0.921646 0.490496
1.000000 0.895871 0.537372
0.000000 1.000000 0.670527
0.000000 1.000000 0.686760
0.534142 1.000000 0.735006
0.662243 1.000000 0.724354
0.846675 1.000000 0.763560
0.951891 1.000000 0.737514
0.123860 0.138558 0.314000
0.251286 0.084621 0.321117
0.470565 0.000000 0.343342
0.729122 0.000000 0.308943
0.930746 0.099513 0.203325
1.000000 0.437397 0.201162
0.187490 0.203734 0.325529
0.245293 0.171562 0.337529
0.464137 0.130103 0.346706
0.719145 0.000000 0.288419
0.911419 0.266576 0.225563
1.000000 0.477707 0.229090
0.000000 0.353298 0.367191
0.185042 0.360809 0.375440
0.430354 0.361441 0.371867
0.674427 0.401273 0.346671
0.915528 0.472351 0.332013
1.000000 0.554359 0.340828
0.000000 0.649872 0.541915
0.000000 0.658212 0.540626
0.272763 0.648083 0.503749
0.656920 0.670999 0.457859
0.963728 0.677529 0.541365
1.000000 0.694223 0.533757
0.000000 0.900969 0.615133
0.000000 0.905192 0.617452
0.026926 0.899878 0.626995
0.596276 0.898265 0.624446
0.851961 0.915671 0.601153
1.000000 0.893200 0.635415
0.000000 1.000000 0.668751
0.000000 1.000000 0.682384
0.389386 1.000000 0.734973
0.691928 1.000000 0.762290
0.863797 1.000000 0.798926
0.960601 1.000000 0.776650
0.000000 0.100551 0.563055
0.146448 0.003122 0.569813
0.481511 0.000000 0.584028
0.727013 0.000000 0.593526
0.986693 0.000000 0.591509
1.000000 0.000000 0.387060
0.000000 0.157126 0.563988
0.070492 0.143502 0.572757
0.463696 0.000000 0.584376
0.725945 0.000000 0.596555
0.976384 0.000000 0.579682
1.000000 0.000000 0.367551
0.000000 0.406244 0.563759
0.000000 0.403944 0.571306
0.358540 0.322986 0.591363
0.711887 0.296270 0.606843
0.962813 0.223433 0.549756
1.000000 0.341830 0.439418
0.000000 0.575431 0.612721
0.000000 0.581912 0.617684
0.245691 0.585010 0.617630
0.650167 0.597838 0.622044
0.889396 0.624023 0.591933
1.000000 0.681839 0.583838
0.000000 0.891156 0.733347
0.000000 0.896894 0.733388
0.000000 0.893918 0.717987
0.630472 0.883941 0.720277
0.877973 0.901742 0.713173
1.000000 0.889806 0.753716
0.000000 1.000000 0.704848
0.000000 1.000000 0.701943
0.000000 1.000000 0.721440
0.681821 1.000000 0.816137
0.874963 1.000000 0.845011
0.973443 0.998987 0.842905
0.000000 0.007117 0.768021
0.000000 0.000000 0.770142
0.466692 0.000000 0.778672
0.777839 0.000000 0.791037
1.000000 0.000000 0.784726
1.000000 0.000000 0.747829
0.000000 0.098604 0.770008
0.000000 0.033020 0.774482
0.440437 0.000000 0.780561
0.770492 0.000000 0.791210
0.996296 0.000000 0.780683
1.000000 0.000000 0.748472
0.000000 0.406892 0.762813
0.000000 0.377774 0.768987
0.257255 0.274513 0.781103
0.728406 0.212388 0.796221
0.993558 0.034057 0.789600
1.000000 0.111812 0.750444
0.000000 0.625480 0.765747
0.000000 0.628736 0.770569
0.000000 0.618097 0.767209
0.575866 0.537560 0.786412
0.946949 0.540090 0.790449
1.000000 0.535883 0.736710
0.000000 0.814277 0.807127
0.000000 0.819043 0.810930
0.000000 0.824225 0.812624
0.518854 0.832484 0.813084
0.870631 0.841840 0.811666
1.000000 0.874002 0.797625
0.000000 1.000000 0.926366
0.000000 1.000000 0.921202
0.000000 1.000000 0.896832
0.000000 1.000000 0.860674
0.882955 1.000000 0.916268
0.986969 0.995014 0.932970
0.000000 0.000000 1.000000
0.000000 0.000000 1.000000
0.275327 0.000000 1.000000
0.719972 0.000000 1.000000
1.000000 0.000000 1.000000
1.000000 0.000000 0.985657
0.000000 0.002313 1.000000
0.000000 0.000000 1.000000
0.264972 0.000000 1.000000
0.709846 0.000000 1.000000
0.998656 0.000000 1.000000
1.000000 0.000000 0.983868
0.000000 0.295970 1.000000
0.000000 0.245142 1.000000
0.000000 0.129963 1.000000
0.633253 0.000000 1.000000
0.986059 0.000000 1.000000
1.000000 0.000000 0.990143
0.000000 0.648688 1.000000
0.000000 0.636028 1.000000
0.000000 0.578063 1.000000
0.367020 0.421497 1.000000
0.920121 0.422569 1.000000
1.000000 0.441810 0.994989
0.000000 0.827555 1.000000
0.000000 0.826183 1.000000
0.000000 0.821334 1.000000
0.000000 0.826476 1.000000
0.786424 0.782030 1.000000
1.000000 0.820108 0.997382
0.000000 0.978851 1.000000
0.000000 0.979163 1.000000
0.000000 0.980431 1.000000
0.000000 0.983539 1.000000
0.682167 0.989258 0.995899
0.993561 0.992493 0.990661
