assets/lut/editingcorp strano.cube
# Created by: G'MIC (https://gmic.eu)
TITLE "strano"
# LUT size
LUT_3D_SIZE 13
# Data domain
DOMAIN_MIN 0.0 0.0 0.0
DOMAIN_MAX 1.0 1.0 1.0
# LUT data points
0.020231688395142555 0.018185978755354881 0.020167287439107895
0.11759307235479355 0.017373716458678246 0.017832452431321144
0.27446502447128296 0.014735097996890545 0.013982121832668781
0.42729437351226807 0.016514511778950691 0.017852049320936203
0.55272364616394043 0.017291050404310226 0.02081787958741188
0.66521561145782471 0.014158450998365879 0.023135555908083916
0.76553446054458618 0.030778981745243073 0.032443568110466003
0.84783238172531128 0.057540848851203918 0.047584488987922668
0.8863409161567688 0.043850783258676529 0.043038178235292435
0.90971106290817261 0.047170601785182953 0.04737522080540657
0.93158191442489624 0.049173511564731598 0.049095138907432556
0.9564286470413208 0.055142734199762344 0.054346796125173569
0.97855520248413086 0.052508454769849777 0.056682124733924866
0.013438131660223007 0.065292596817016602 0.040788762271404266
0.090171337127685547 0.065346740186214447 0.035322614014148712
0.25036829710006714 0.060839395970106125 0.019683314487338066
0.40864312648773193 0.056290704756975174 0.017687913030385971
0.53817063570022583 0.052709676325321198 0.021879861131310463
0.6524614691734314 0.045082107186317444 0.026449255645275116
0.75508695840835571 0.049890361726284027 0.031652085483074188
0.84273719787597656 0.087362043559551239 0.052196621894836426
0.88124078512191772 0.1031922847032547 0.061756029725074768
0.90672433376312256 0.10184405744075775 0.062504895031452179
0.92989999055862427 0.09737318754196167 0.059083692729473114
0.95532053709030151 0.1052224263548851 0.06501132994890213
0.97685432434082031 0.11181570589542389 0.0718497633934021
0.012572509236633778 0.13309606909751892 0.081346981227397919
0.052893124520778656 0.13785922527313232 0.075745224952697754
0.19041246175765991 0.14206856489181519 0.049870360642671585
0.3672153651714325 0.13404221832752228 0.023012377321720123
0.51170259714126587 0.12581419944763184 0.016325408592820168
0.63422441482543945 0.11822588741779327 0.021538887172937393
0.74129712581634521 0.12044290453195572 0.028639310970902443
0.83483844995498657 0.1517917662858963 0.047110553830862045
0.88024389743804932 0.16072225570678711 0.060279920697212219
0.90794634819030762 0.16176733374595642 0.06396745890378952
0.93110352754592896 0.16020122170448303 0.063750341534614563
0.95672959089279175 0.15795676410198212 0.066076017916202545
0.97419315576553345 0.15814921259880066 0.068557903170585632
0.0119362473487854 0.21539308130741119 0.14028593897819519
0.039027795195579529 0.21870897710323334 0.13788843154907227
0.12651960551738739 0.22885440289974213 0.11118829995393753
0.29370379447937012 0.23357324302196503 0.060373537242412567
0.46406450867652893 0.21881948411464691 0.023468600586056709
0.60598260164260864 0.21173997223377228 0.016843235120177269
0.72013407945632935 0.21755154430866241 0.024614490568637848
0.81990289688110352 0.24217924475669861 0.041120328009128571
0.87901073694229126 0.25199481844902039 0.055865809321403503
0.91088050603866577 0.25045713782310486 0.061312805861234665
0.93476754426956177 0.24700081348419189 0.062537863850593567
0.96071672439575195 0.24069322645664215 0.064182862639427185
0.98002845048904419 0.23420482873916626 0.06495356559753418
0.011248734779655933 0.29312902688980103 0.20552559196949005
0.034230459481477737 0.29144394397735596 0.20108817517757416
0.075879022479057312 0.29618954658508301 0.18775661289691925
0.19870059192180634 0.32046902179718018 0.14206650853157043
0.3837132453918457 0.32658404111862183 0.066239796578884125
0.55869269371032715 0.30946052074432373 0.020375330001115799
0.69237709045410156 0.30929955840110779 0.020568219944834709
0.79796677827835083 0.32466593384742737 0.033998586237430573
0.87791132926940918 0.34248608350753784 0.049884632229804993
0.91303408145904541 0.34032699465751648 0.055744573473930359
0.93887746334075928 0.33062359690666199 0.058310952037572861
0.96402055025100708 0.32486391067504883 0.060407169163227081
0.98686116933822632 0.31670358777046204 0.060233499854803085
0.010681451298296452 0.36652916669845581 0.27257755398750305
0.032016322016716003 0.36378204822540283 0.26800119876861572
0.061514671891927719 0.36630880832672119 0.26307150721549988
0.12305594235658646 0.38414770364761353 0.24177190661430359
0.26839882135391235 0.41596269607543945 0.17130139470100403
0.47238776087760925 0.42199030518531799 0.067004859447479248
0.64976739883422852 0.4097449779510498 0.021457448601722717
0.77983707189559937 0.41470640897750854 0.022609276697039604
0.86553603410720825 0.42607802152633667 0.037083376199007034
0.9158826470375061 0.42455810308456421 0.047097284346818924
0.94117146730422974 0.41727450489997864 0.051983851939439774
0.96521258354187012 0.41008123755455017 0.054327618330717087
0.9871789813041687 0.40297245979309082 0.054421938955783844
0.01080144289880991 0.43745166063308716 0.3404805064201355
0.031749501824378967 0.43359094858169556 0.33665913343429565
0.058805577456951141 0.43306273221969604 0.33158397674560547
0.093239575624465942 0.4402167797088623 0.32516834139823914
0.16758227348327637 0.46590393781661987 0.30222892761230469
0.34223482012748718 0.50960946083068848 0.20938152074813843
0.55756622552871704 0.52102327346801758 0.067823715507984161
0.74859392642974854 0.51829510927200317 0.018682742491364479
0.85569441318511963 0.52153342962265015 0.02719096839427948
0.91640132665634155 0.51602113246917725 0.03774719312787056
0.94457030296325684 0.5047297477722168 0.04299558699131012
0.96879184246063232 0.49559471011161804 0.045251451432704926
0.98977762460708618 0.48860400915145874 0.04502391442656517
0.011410926468670368 0.50948143005371094 0.40865275263786316
0.0320449098944664 0.5033644437789917 0.40236580371856689
0.058532342314720154 0.50110119581222534 0.39724090695381165
0.090913034975528717 0.50473982095718384 0.39484676718711853
0.13215193152427673 0.52091383934020996 0.39328470826148987
0.22510404884815216 0.55375361442565918 0.37572377920150757
0.40384712815284729 0.60642361640930176 0.26665130257606506
0.64478188753128052 0.62877035140991211 0.094397589564323425
0.81578773260116577 0.63154280185699463 0.031289268285036087
0.90491431951522827 0.62618273496627808 0.026978032663464546
0.94385206699371338 0.61202764511108398 0.029673228040337563
0.9709891676902771 0.5941321849822998 0.030286602675914764
0.99400907754898071 0.57954239845275879 0.032658327370882034
0.011513220146298409 0.57132577896118164 0.46435418725013733
0.032466530799865723 0.56866419315338135 0.46131715178489685
0.057948317378759384 0.57029443979263306 0.46136665344238281
0.092279233038425446 0.57164269685745239 0.4578741192817688
0.13345512747764587 0.58097153902053833 0.45634698867797852
0.19418367743492126 0.60008323192596436 0.4545709490776062
0.30446109175682068 0.63843446969985962 0.43838950991630554
0.50935983657836914 0.69662594795227051 0.28679683804512024
0.72199660539627075 0.72112303972244263 0.11870452016592026
0.87161201238632202 0.72829031944274902 0.042585395276546478
0.94026863574981689 0.71901589632034302 0.018625566735863686
0.97056645154953003 0.70413458347320557 0.017350679263472557
0.99156832695007324 0.68601751327514648 0.020736334845423698
0.013672279193997383 0.61691391468048096 0.49815365672111511
0.032813861966133118 0.62156945466995239 0.50342953205108643
0.060211449861526489 0.62241679430007935 0.50535154342651367
0.090827867388725281 0.6240609884262085 0.50471407175064087
0.1261160671710968 0.62808758020401001 0.50151920318603516
0.17806553840637207 0.64091157913208008 0.49854648113250732
0.26032990217208862 0.66958791017532349 0.50654858350753784
0.4054495096206665 0.71996849775314331 0.46911931037902832
0.58829081058502197 0.77121591567993164 0.31483009457588196
0.78466230630874634 0.79733490943908691 0.1556788831949234
0.9096381664276123 0.79772061109542847 0.073138922452926636
0.95683950185775757 0.78573328256607056 0.041954893618822098
0.98586702346801758 0.77266144752502441 0.024309076368808746
0.011500190012156963 0.64938092231750488 0.51101028919219971
0.032889705151319504 0.6500055193901062 0.51303601264953613
0.057201653718948364 0.65124690532684326 0.51320356130599976
0.0843949094414711 0.65485626459121704 0.51727962493896484
0.11257950961589813 0.66145908832550049 0.5207328200340271
0.14750528335571289 0.67177069187164307 0.52097213268280029
0.22453345358371735 0.69444602727890015 0.52942770719528198
0.3373723030090332 0.7278144359588623 0.53844285011291504
0.48906227946281433 0.77957671880722046 0.4740176796913147
0.66843914985656738 0.83815473318099976 0.32272976636886597
0.82474899291992188 0.85631430149078369 0.21035954356193542
0.91568738222122192 0.85119742155075073 0.1530725508928299
0.95854741334915161 0.84174275398254395 0.11039042472839355
0.011665104888379574 0.6781957745552063 0.5162355899810791
0.032318729907274246 0.6779630184173584 0.51643162965774536
0.054951716214418411 0.67880398035049438 0.51584243774414062
0.080658510327339172 0.68175125122070312 0.52102541923522949
0.10749536007642746 0.68808269500732422 0.52676254510879517
0.13285483419895172 0.69740289449691772 0.52976739406585693
0.18733489513397217 0.71769684553146362 0.53438115119934082
0.29335638880729675 0.74320930242538452 0.54332590103149414
0.42682790756225586 0.78206390142440796 0.5283016562461853
0.59862154722213745 0.84724622964859009 0.41923552751541138
0.76308584213256836 0.90082788467407227 0.30663183331489563
0.87851279973983765 0.92193502187728882 0.27622663974761963
0.91820001602172852 0.91490864753723145 0.25092950463294983
0.011045702733099461 0.70377230644226074 0.51976895332336426
0.031288206577301025 0.70293807983398438 0.52084124088287354
0.054719515144824982 0.7049146294593811 0.52059954404830933
0.079553700983524323 0.70420873165130615 0.52725285291671753
0.10570361465215683 0.70626699924468994 0.53495830297470093
0.13166369497776031 0.71829432249069214 0.53550261259078979
0.16040657460689545 0.73933088779449463 0.53535562753677368
0.22548222541809082 0.76161187887191772 0.5432426929473877
0.31815454363822937 0.7985413670539856 0.54507851600646973
0.51954525709152222 0.8598552942276001 0.47781762480735779
0.71783500909805298 0.91636514663696289 0.34779828786849976
0.8524165153503418 0.94758021831512451 0.29791343212127686
0.89975976943969727 0.95258384943008423 0.28179830312728882
0.01569284126162529 0.026702208444476128 0.048163097351789474
0.098517321050167084 0.022165993228554726 0.052981059998273849
0.24655367434024811 0.016326680779457092 0.050791289657354355
0.41048434376716614 0.01500377245247364 0.053263884037733078
0.54540610313415527 0.014612205326557159 0.053825676441192627
0.66281253099441528 0.012849440798163414 0.050793487578630447
0.76638317108154297 0.021637516096234322 0.050277337431907654
0.85038602352142334 0.039542779326438904 0.06301320344209671
0.88677513599395752 0.047412559390068054 0.068247787654399872
0.91033923625946045 0.040702983736991882 0.060687478631734848
0.9321863055229187 0.035940475761890411 0.05664202943444252
0.95470166206359863 0.040628634393215179 0.063638992607593536
0.97948414087295532 0.044030193239450455 0.066324628889560699
0.01432539988309145 0.083943352103233337 0.080903775990009308
0.079089626669883728 0.074738353490829468 0.075037769973278046
0.22796516120433807 0.066695146262645721 0.069158352911472321
0.39145061373710632 0.055257536470890045 0.065129555761814117
0.52932190895080566 0.046479020267724991 0.062483575195074081
0.64835196733474731 0.041175484657287598 0.064503341913223267
0.75352185964584351 0.049444474279880524 0.061486531049013138
0.8414347767829895 0.090677417814731598 0.084778293967247009
0.88084781169891357 0.10771325975656509 0.0948057621717453
0.90676307678222656 0.1026812419295311 0.088817819952964783
0.93007224798202515 0.095356598496437073 0.080808348953723907
0.95458191633224487 0.10494109243154526 0.091714836657047272
0.97694307565689087 0.1112532839179039 0.093717597424983978
0.012537323869764805 0.14305296540260315 0.11368612945079803
0.049675721675157547 0.14238728582859039 0.10596751421689987
0.17725643515586853 0.14619240164756775 0.085855342447757721
0.35889929533004761 0.13238626718521118 0.058893945068120956
0.50777578353881836 0.11569634079933167 0.048509962856769562
0.63349449634552002 0.10527430474758148 0.049835804849863052
0.73912519216537476 0.10852409899234772 0.055906079709529877
0.83370667695999146 0.14501237869262695 0.074751928448677063
0.8772275447845459 0.16161523759365082 0.084601067006587982
0.90766656398773193 0.16377989947795868 0.088219873607158661
0.9316747784614563 0.16099485754966736 0.088849909603595734
0.95646911859512329 0.1634480357170105 0.095520034432411194
0.97480255365371704 0.16246019303798676 0.098045334219932556
0.011689369566738605 0.21663030982017517 0.16686126589775085
0.036795057356357574 0.21688108146190643 0.16086173057556152
0.11904332786798477 0.22777791321277618 0.13764113187789917
0.29029032588005066 0.23215453326702118 0.086740322411060333
0.46190246939659119 0.21786788105964661 0.049440197646617889
0.60378140211105347 0.20597493648529053 0.045338544994592667
0.71952110528945923 0.21300864219665527 0.052843071520328522
0.82095271348953247 0.2386045902967453 0.06449001282453537
0.87724864482879639 0.25382080674171448 0.079083792865276337
0.91065073013305664 0.25454431772232056 0.085006356239318848
0.93529868125915527 0.24881865084171295 0.086766965687274933
0.96097779273986816 0.24433526396751404 0.092076696455478668
0.98008108139038086 0.23953701555728912 0.092194847762584686
0.011286268010735512 0.29234841465950012 0.22780181467533112
0.035096008330583572 0.29195234179496765 0.22438144683837891
0.079638011753559113 0.2972712516784668 0.21061402559280396
0.19854792952537537 0.32019901275634766 0.16467608511447906
0.3821580708026886 0.32523015141487122 0.088588997721672058
0.5569654107093811 0.31122711300849915 0.04560515284538269
0.69092673063278198 0.30999472737312317 0.043780848383903503
0.79615575075149536 0.32642540335655212 0.056187335401773453
0.87612348794937134 0.34207829833030701 0.074440419673919678
0.91360461711883545 0.34223651885986328 0.079446710646152496
0.93832230567932129 0.33438709378242493 0.082530692219734192
0.96369355916976929 0.3274482786655426 0.084950722754001617
0.98636990785598755 0.31960245966911316 0.083346150815486908
0.011580897495150566 0.36521410942077637 0.29395848512649536
0.0338149294257164 0.36439737677574158 0.29182219505310059
0.061617445200681686 0.36606523394584656 0.28542926907539368
0.11288180202245712 0.37973681092262268 0.26533466577529907
0.2601969838142395 0.41338363289833069 0.19553352892398834
0.47151434421539307 0.42143508791923523 0.085951067507266998
0.64949655532836914 0.40871569514274597 0.039854235947132111
0.77889597415924072 0.41447275876998901 0.046801265329122543
0.86668974161148071 0.42495459318161011 0.060438178479671478
0.91107052564620972 0.4264080822467804 0.069322280585765839
0.9396706223487854 0.41904541850090027 0.076560527086257935
0.96447205543518066 0.41096317768096924 0.080257877707481384
0.98617279529571533 0.40455004572868347 0.078039921820163727
0.011592566035687923 0.43571534752845764 0.36037084460258484
0.032743073999881744 0.43373310565948486 0.3586571216583252
0.05879853293299675 0.4332917332649231 0.35412722826004028
0.08845086395740509 0.43947389721870422 0.34738311171531677
0.1575891524553299 0.46278184652328491 0.32446900010108948
0.34072929620742798 0.50864326953887939 0.22793437540531158
0.55747127532958984 0.52042537927627563 0.088185146450996399
0.74019730091094971 0.51893806457519531 0.04216308519244194
0.8535696268081665 0.5203971266746521 0.04951927438378334
0.91288691759109497 0.51620441675186157 0.060382500290870667
0.94197648763656616 0.50911527872085571 0.066530920565128326
0.96710944175720215 0.49814426898956299 0.069697342813014984
0.98839640617370605 0.4900670051574707 0.068563885986804962
0.011979959905147552 0.50443518161773682 0.42544680833816528
0.032414216548204422 0.50268900394439697 0.42326658964157104
0.058611340820789337 0.50008809566497803 0.4189944863319397
0.089458897709846497 0.50473129749298096 0.41478508710861206
0.12625099718570709 0.52031451463699341 0.41377893090248108
0.21411177515983582 0.5518113374710083 0.39755979180335999
0.40306487679481506 0.60600572824478149 0.28507545590400696
0.6437990665435791 0.62844860553741455 0.11364048719406128
0.81450527906417847 0.63397407531738281 0.052890866994857788
0.90582484006881714 0.62750130891799927 0.045878421515226364
0.94201433658599854 0.61352062225341797 0.04986075684428215
0.96976774930953979 0.59615051746368408 0.052828561514616013
0.99316716194152832 0.58007115125656128 0.055179115384817123
0.013205539435148239 0.56988668441772461 0.48526719212532043
0.032493367791175842 0.57184857130050659 0.48572841286659241
0.059161677956581116 0.56738001108169556 0.48112672567367554
0.089372403919696808 0.56999015808105469 0.47882500290870667
0.12101729214191437 0.57991194725036621 0.47720301151275635
0.17274419963359833 0.59808856248855591 0.47802788019180298
0.29484984278678894 0.63709777593612671 0.4556734561920166
0.50944459438323975 0.6988566517829895 0.30265060067176819
0.72093069553375244 0.72276675701141357 0.14080919325351715
0.87233000993728638 0.72823423147201538 0.063662253320217133
0.9339526891708374 0.71698844432830811 0.045503295958042145
0.96915549039840698 0.70487290620803833 0.03944721445441246
0.98882001638412476 0.68487167358398438 0.044141776859760284
0.011609485372900963 0.619151771068573 0.52196788787841797
0.032842643558979034 0.61975336074829102 0.52237224578857422
0.058730810880661011 0.61943250894546509 0.52222704887390137
0.086618579924106598 0.62016350030899048 0.52201467752456665
0.11415661126375198 0.62703472375869751 0.52175843715667725
0.16068729758262634 0.64036542177200317 0.52187001705169678
0.25075331330299377 0.66798645257949829 0.52724438905715942
0.39859572052955627 0.71685022115707397 0.48695290088653564
0.58758419752120972 0.77198773622512817 0.33820855617523193
0.78072661161422729 0.79396545886993408 0.17953194677829742
0.90885657072067261 0.79472857713699341 0.091372452676296234
0.95591646432876587 0.78446102142333984 0.060440108180046082
0.98506516218185425 0.7713732123374939 0.04278157651424408
0.011916171759366989 0.65212750434875488 0.53593993186950684
0.033356640487909317 0.65218347311019897 0.53585875034332275
0.056454945355653763 0.6525421142578125 0.53612840175628662
0.082916408777236938 0.65322387218475342 0.53737598657608032
0.11011741310358047 0.66018617153167725 0.54025077819824219
0.14621798694133759 0.67231851816177368 0.54277610778808594
0.22877681255340576 0.69500476121902466 0.55009710788726807
0.33829143643379211 0.72796362638473511 0.55862843990325928
0.48817098140716553 0.78004854917526245 0.50072342157363892
0.66505175828933716 0.83636492490768433 0.34847965836524963
0.82276284694671631 0.85237449407577515 0.22993424534797668
0.91637980937957764 0.84992337226867676 0.16993117332458496
0.95739185810089111 0.83993238210678101 0.13219867646694183
0.012726548127830029 0.67848056554794312 0.53951025009155273
0.033686079084873199 0.6789049506187439 0.53944492340087891
0.055485550314188004 0.67959868907928467 0.53966790437698364
0.081591211259365082 0.68105608224868774 0.54089117050170898
0.10806725919246674 0.68676036596298218 0.54442334175109863
0.13773724436759949 0.69679582118988037 0.54874283075332642
0.19621548056602478 0.71753323078155518 0.55611568689346313
0.29638737440109253 0.74302476644515991 0.56501853466033936
0.4243280291557312 0.78225594758987427 0.55285173654556274
0.59431052207946777 0.84618085622787476 0.44806304574012756
0.75971031188964844 0.90045595169067383 0.33366906642913818
0.87821376323699951 0.92152571678161621 0.29707485437393188
0.91378772258758545 0.91686415672302246 0.27391147613525391
0.012767776846885681 0.7014431357383728 0.54276460409164429
0.032618220895528793 0.70221006870269775 0.54258221387863159
0.054834641516208649 0.70500606298446655 0.54352152347564697
0.079902589321136475 0.7046581506729126 0.54531598091125488
0.10651501268148422 0.70749694108963013 0.54806053638458252
0.13388106226921082 0.71930301189422607 0.55159372091293335
0.16685301065444946 0.73939812183380127 0.55793803930282593
0.21353742480278015 0.7617725133895874 0.5672152042388916
0.30557885766029358 0.79720985889434814 0.57073026895523071
0.51441997289657593 0.85550469160079956 0.496177077293396
0.71445304155349731 0.91469824314117432 0.36922228336334229
0.85097914934158325 0.94931501150131226 0.32077199220657349
0.90164339542388916 0.95430284738540649 0.30377975106239319
0.012514630332589149 0.056646909564733505 0.094388894736766815
0.079597264528274536 0.042707107961177826 0.097182542085647583
0.21196363866329193 0.024305306375026703 0.11110194772481918
0.37454339861869812 0.020059399306774139 0.16738840937614441
0.51824831962585449 0.018415354192256927 0.20630612969398499
0.64852660894393921 0.01758556067943573 0.19092535972595215
0.7588992714881897 0.024665966629981995 0.16698382794857025
0.84152156114578247 0.060671038925647736 0.18414075672626495
0.88246029615402222 0.056324228644371033 0.16271533071994781
0.90690392255783081 0.048995703458786011 0.14866173267364502
0.92752766609191895 0.048701252788305283 0.15622702240943909
0.95025211572647095 0.05306822806596756 0.16587714850902557
0.97422605752944946 0.048834916204214096 0.15364834666252136
0.013080327771604061 0.12195287644863129 0.14111311733722687
0.06243978813290596 0.10883951932191849 0.13693073391914368
0.1836555153131485 0.081309780478477478 0.14186298847198486
0.3503740131855011 0.06299920380115509 0.16184499859809875
0.50180363655090332 0.054107636213302612 0.18693807721138
0.63413691520690918 0.0491957888007164 0.18745405972003937
0.74348384141921997 0.055008862167596817 0.1731715202331543
0.83340996503829956 0.1007646918296814 0.19160506129264832
0.87840956449508667 0.12011039257049561 0.19319000840187073
0.90325248241424561 0.11614698171615601 0.17773549258708954
0.92663311958312988 0.10929019749164581 0.16318313777446747
0.95098280906677246 0.11043260991573334 0.16131538152694702
0.97441953420639038 0.10619029402732849 0.15529541671276093
0.012238715775310993 0.17282041907310486 0.16716760396957397
0.043158572167158127 0.16785481572151184 0.15866270661354065
0.14493127167224884 0.15998442471027374 0.14767098426818848
0.3247639536857605 0.1400114893913269 0.13500344753265381
0.48198452591896057 0.1228313073515892 0.13610509037971497
0.6161608099937439 0.10463805496692657 0.1360965222120285
0.73114204406738281 0.11453165113925934 0.14027278125286102
0.83023571968078613 0.15358491241931915 0.15230591595172882
0.87574928998947144 0.17840500175952911 0.16384896636009216
0.90419095754623413 0.17490135133266449 0.16284315288066864
0.92844957113265991 0.17589569091796875 0.15815339982509613
0.95427459478378296 0.1743464320898056 0.1518065482378006
0.97500801086425781 0.1667630672454834 0.14810925722122192
0.011467712931334972 0.23175385594367981 0.20981556177139282
0.036538787186145782 0.23292326927185059 0.20729900896549225
0.10631827265024185 0.2321770191192627 0.18376991152763367
0.27143818140029907 0.236965611577034 0.14620564877986908
0.44959339499473572 0.22531557083129883 0.11563828587532043
0.59190970659255981 0.21002787351608276 0.11061606556177139
0.71249634027481079 0.21622437238693237 0.11242512613534927
0.81644153594970703 0.24033120274543762 0.1178654357790947
0.87889128923416138 0.26076006889343262 0.13121868669986725
0.90914857387542725 0.25816619396209717 0.13599824905395508
0.9338257908821106 0.25305745005607605 0.13796155154705048
0.95980018377304077 0.24862600862979889 0.14011950790882111
0.97721385955810547 0.24475234746932983 0.14237836003303528
0.011765843257308006 0.29562017321586609 0.26371809840202332
0.035109575837850571 0.29808503389358521 0.26164555549621582
0.070870436728000641 0.29544630646705627 0.2450985461473465
0.18660855293273926 0.31521624326705933 0.20839697122573853
