assets/lut/editingcorp falua.cube
# Created by: G'MIC (https://gmic.eu)
TITLE "falua"
# LUT size
LUT_3D_SIZE 5
# Data domain
DOMAIN_MIN 0.0 0.0 0.0
DOMAIN_MAX 1.0 1.0 1.0
# LUT data points
0.016350556164979935 0.010014582425355911 0.0078825559467077255
0.34675866365432739 0.015526760369539261 0.0034965963568538427
0.76428377628326416 0.02208239957690239 0.0090736392885446548
0.90689367055892944 0.013259334489703178 0.0041148914024233818
0.96235555410385132 0.023106802254915237 0.0053590959869325161
0.0040978826582431793 0.21367816627025604 0.036151360720396042
0.18750305473804474 0.21507686376571655 0.023757889866828918
0.71673059463500977 0.19741307199001312 0.0022771647199988365
0.9188467264175415 0.16074550151824951 0.011015559546649456
0.97107499837875366 0.13979259133338928 0.0016246720915660262
0.010251468047499657 0.49594786763191223 0.1394590437412262
0.061117734760046005 0.49471575021743774 0.12968249619007111
0.59942489862442017 0.56706255674362183 0.037959303706884384
0.93472182750701904 0.49722877144813538 0.012383928522467613
0.99352788925170898 0.43957340717315674 0.0080637466162443161
0.010179063305258751 0.75730270147323608 0.23854151368141174
0.064393013715744019 0.7476387619972229 0.23157872259616852
0.27102485299110413 0.80440276861190796 0.21698783338069916
0.84218806028366089 0.85296052694320679 0.10943735390901566
0.99404293298721313 0.80312579870223999 0.017950229346752167
0.0091892462223768234 0.82479393482208252 0.24301470816135406
0.067517086863517761 0.82107812166213989 0.24267865717411041
0.1808350682258606 0.86741459369659424 0.23534759879112244
0.63490355014801025 0.93835771083831787 0.26621207594871521
0.95531767606735229 0.97235554456710815 0.12232746928930283
0.011345762759447098 0.025116864591836929 0.23407472670078278
0.37940073013305664 0.018685135990381241 0.18083043396472931
0.75807702541351318 0.019438590854406357 0.1834355890750885
0.89667516946792603 0.017160976305603981 0.17167514562606812
0.95819419622421265 0.010563913732767105 0.14329163730144501
0.0074276193045079708 0.2467520534992218 0.22146135568618774
0.18230548501014709 0.21902425587177277 0.19708563387393951
0.70496946573257446 0.19130264222621918 0.15858204662799835
0.91448450088500977 0.15417614579200745 0.13889451324939728
0.9697687029838562 0.14380447566509247 0.12813177704811096
0.013749081641435623 0.51000440120697021 0.25576305389404297
0.060925967991352081 0.49954810738563538 0.2231389582157135
0.59720134735107422 0.56307804584503174 0.12135037034749985
0.93232172727584839 0.49751931428909302 0.094526968896389008
0.99206817150115967 0.4437720775604248 0.093936249613761902
0.0047516017220914364 0.74679917097091675 0.29606899619102478
0.058528795838356018 0.73842811584472656 0.28337222337722778
0.26539415121078491 0.8010786771774292 0.273548424243927
0.84322720766067505 0.85203880071640015 0.15792113542556763
0.99572813510894775 0.79643696546554565 0.065837398171424866
0.0043216180056333542 0.82114994525909424 0.29584202170372009
0.059353429824113846 0.82064825296401978 0.29865920543670654
0.13099949061870575 0.86472541093826294 0.27157884836196899
0.61697173118591309 0.93726903200149536 0.32771942019462585
0.95645052194595337 0.97176611423492432 0.1818259060382843
0.022858159616589546 0.048389628529548645 0.54656875133514404
0.36775520443916321 0.040829498320817947 0.50114071369171143
0.75297915935516357 0.044329416006803513 0.46407237648963928
0.87158668041229248 0.036350924521684647 0.45195314288139343
0.93436580896377563 0.076455689966678619 0.42248773574829102
0.037822991609573364 0.30355829000473022 0.4906725287437439
0.15798094868659973 0.24327369034290314 0.48823055624961853
0.70838737487792969 0.22193026542663574 0.44974151253700256
0.87460935115814209 0.23227554559707642 0.43846243619918823
0.93921613693237305 0.20709234476089478 0.39611905813217163
0.019187163561582565 0.58389043807983398 0.55243736505508423
0.066222205758094788 0.56452971696853638 0.53023749589920044
0.51542061567306519 0.57324862480163574 0.53517806529998779
0.91335195302963257 0.5267406702041626 0.52344578504562378
0.98017948865890503 0.51068401336669922 0.51782834529876709
0.041623447090387344 0.80291199684143066 0.54727554321289062
0.10486472398042679 0.78622591495513916 0.52490377426147461
0.28956225514411926 0.80309998989105225 0.51798391342163086
0.85242456197738647 0.85078758001327515 0.4801349937915802
0.98984384536743164 0.81330406665802002 0.46907278895378113
0.01864076592028141 0.84884405136108398 0.4642486572265625
0.065191991627216339 0.85155099630355835 0.46454724669456482
0.18422518670558929 0.87530767917633057 0.46409589052200317
0.65851718187332153 0.94440478086471558 0.5073813796043396
0.97187751531600952 0.98154860734939575 0.41414305567741394
0.022064538672566414 0.055815320461988449 0.6310657262802124
0.33501225709915161 0.028142219409346581 0.59653162956237793
0.73722034692764282 0.060795877128839493 0.57900905609130859
0.87649720907211304 0.081520497798919678 0.60136401653289795
0.93729108572006226 0.11123000830411911 0.61101114749908447
0.056946370750665665 0.31088420748710632 0.64933961629867554
0.16651026904582977 0.24401132762432098 0.64880365133285522
0.69436746835708618 0.22824090719223022 0.60842770338058472
0.87647134065628052 0.2586480975151062 0.62683439254760742
0.93853497505187988 0.24936024844646454 0.61724299192428589
0.005546180997043848 0.58929955959320068 0.66820269823074341
0.066250309348106384 0.57435846328735352 0.65587919950485229
0.40297570824623108 0.53615689277648926 0.70599091053009033
0.88893318176269531 0.54163056612014771 0.70827680826187134
0.95306247472763062 0.5327833890914917 0.68708705902099609
0.017180588096380234 0.83089274168014526 0.79770910739898682
0.076865702867507935 0.81888586282730103 0.78516000509262085
0.20732413232326508 0.83077782392501831 0.79358190298080444
0.83051753044128418 0.85657763481140137 0.82205724716186523
0.97506850957870483 0.84582287073135376 0.81156879663467407
0.036302246153354645 0.91211873292922974 0.7880440354347229
0.08326275646686554 0.91154766082763672 0.78277367353439331
0.14200238883495331 0.92390871047973633 0.78536772727966309
0.71708399057388306 0.96699053049087524 0.81514054536819458
0.96488422155380249 0.9803125262260437 0.81339699029922485
0.03050944022834301 0.056937724351882935 0.70301622152328491
0.303262859582901 0.025565188378095627 0.67569142580032349
0.70177477598190308 0.07050507515668869 0.648265540599823
0.87516069412231445 0.093150690197944641 0.67594254016876221
0.9373774528503418 0.041450366377830505 0.66803580522537231
0.043401546776294708 0.28962185978889465 0.72646534442901611
0.16643202304840088 0.23435766994953156 0.71707522869110107
0.64878576993942261 0.22267366945743561 0.6884954571723938
0.87512141466140747 0.2593824565410614 0.69521892070770264
0.93988317251205444 0.24795283377170563 0.69510459899902344
0.0068156071938574314 0.55871200561523438 0.72445195913314819
0.07407824695110321 0.54584002494812012 0.71316790580749512
0.38925060629844666 0.52981656789779663 0.7707439661026001
0.87445485591888428 0.54122292995452881 0.78863400220870972
0.95783638954162598 0.53558492660522461 0.78149992227554321
0.0077205882407724857 0.79774141311645508 0.85103386640548706
0.072001419961452484 0.79340147972106934 0.84641510248184204
0.18059957027435303 0.80508273839950562 0.8597719669342041
0.82198858261108398 0.85379940271377563 0.92300283908843994
0.97268903255462646 0.84216809272766113 0.90666812658309937
0.0077205882407724857 0.91079556941986084 0.8877597451210022
0.069747656583786011 0.9097709059715271 0.88029932975769043
0.16499187052249908 0.92262876033782959 0.90164357423782349
0.64800101518630981 0.96168863773345947 0.94608283042907715
0.96406584978103638 0.98034477233886719 0.94318157434463501
