assets/lut/editingcorp picola.cube
# Created by: G'MIC (https://gmic.eu)
TITLE "picola"
# LUT size
LUT_3D_SIZE 5
# Data domain
DOMAIN_MIN 0.0 0.0 0.0
DOMAIN_MAX 1.0 1.0 1.0
# LUT data points
0.0055068968795239925 0.0067843715660274029 0.0070011960342526436
0.27941945195198059 0.014325564727187157 0.0063851000741124153
0.74689346551895142 0.004751930944621563 0.006204941775649786
0.90653795003890991 0.0141640305519104 0.0056179719977080822
0.97991085052490234 0.0088150622323155403 0
0.025416774675250053 0.27236446738243103 0.024616913869976997
0.22665554285049438 0.23276619613170624 0.03291727602481842
0.6756131649017334 0.21196772158145905 0.0042198179289698601
0.90792995691299438 0.16692608594894409 0.012643268331885338
0.97952651977539062 0.15334878861904144 0.005576414056122303
0.064389266073703766 0.6219753623008728 0.057488832622766495
0.18788810074329376 0.60941320657730103 0.049140647053718567
0.52571862936019897 0.55837655067443848 0.063217967748641968
0.92125272750854492 0.49979853630065918 0.011183136142790318
0.9862479567527771 0.44440683722496033 0.0076936609111726284
0.068429730832576752 0.89671784639358521 0.072271369397640228
0.14640246331691742 0.89269816875457764 0.074850566685199738
0.35551941394805908 0.87474393844604492 0.073113672435283661
0.79417562484741211 0.83745104074478149 0.076150156557559967
0.98762011528015137 0.78970760107040405 0.024985818192362785
0.068616800010204315 0.97813922166824341 0.074525706470012665
0.11308392137289047 0.97331792116165161 0.07471204549074173
0.24998275935649872 0.97648650407791138 0.048798535019159317
0.57011103630065918 0.94822835922241211 0.13681331276893616
0.93113285303115845 0.96838480234146118 0.088527634739875793
0.056047253310680389 0.022452769801020622 0.2838103175163269
0.28480139374732971 0.03877156600356102 0.30738392472267151
0.72520768642425537 0.027062643319368362 0.31233617663383484
0.90397113561630249 0.016076406463980675 0.26221576333045959
0.97759759426116943 0.016027068719267845 0.22993519902229309
0.061014555394649506 0.23039232194423676 0.26316642761230469
0.23168176412582397 0.23420505225658417 0.25543704628944397
0.66367214918136597 0.22669345140457153 0.23828721046447754
0.90899825096130371 0.17381803691387177 0.19038768112659454
0.97741556167602539 0.16383560001850128 0.18220500648021698
0.12246597558259964 0.60218888521194458 0.22561568021774292
0.21553935110569 0.59316116571426392 0.19397959113121033
0.51892977952957153 0.54801785945892334 0.18634656071662903
0.91883212327957153 0.50129222869873047 0.096808969974517822
0.98640519380569458 0.45368587970733643 0.11083148419857025
0.052466403692960739 0.88991498947143555 0.1519256979227066
0.13649527728557587 0.88702124357223511 0.15391036868095398
0.35005205869674683 0.86882477998733521 0.14884738624095917
0.78447073698043823 0.83155876398086548 0.14440284669399261
0.99197673797607422 0.78948688507080078 0.07911720871925354
0.055450797080993652 0.97492653131484985 0.1036640852689743
0.10002704709768295 0.97478759288787842 0.089264675974845886
0.24788554012775421 0.97981554269790649 0.083583161234855652
0.56314265727996826 0.9472811222076416 0.19168107211589813
0.91861265897750854 0.96739113330841064 0.12248630821704865
0.18463350832462311 0.026774581521749496 0.70891726016998291
0.37483671307563782 0.04667886346578598 0.70991629362106323
0.68895000219345093 0.093323379755020142 0.70530343055725098
0.84191161394119263 0.073214977979660034 0.66578704118728638
0.92840367555618286 0.041463110595941544 0.61953210830688477
0.18205843865871429 0.24300777912139893 0.65031242370605469
0.31166303157806396 0.24014897644519806 0.64873933792114258
0.64049357175827026 0.24301967024803162 0.66508501768112183
0.87181574106216431 0.23519980907440186 0.61801451444625854
0.95684123039245605 0.20080430805683136 0.57413631677627563
0.13809932768344879 0.56421458721160889 0.63115447759628296
0.21455511450767517 0.55432653427124023 0.62290912866592407
0.55637663602828979 0.57482761144638062 0.60644066333770752
0.91073429584503174 0.52950775623321533 0.55117201805114746
0.97635495662689209 0.5100935697555542 0.5228075385093689
0.24095754325389862 0.85319405794143677 0.55329197645187378
0.33404260873794556 0.84722393751144409 0.53901094198226929
0.44400003552436829 0.86479508876800537 0.5243266224861145
0.82328134775161743 0.83688592910766602 0.49268004298210144
0.99282550811767578 0.80397915840148926 0.43423405289649963
0.17172592878341675 0.95735627412796021 0.42530739307403564
0.22011777758598328 0.95814532041549683 0.41410514712333679
0.34614494442939758 0.97227615118026733 0.42282828688621521
0.66350823640823364 0.96040350198745728 0.48019668459892273
0.9442746639251709 0.97635692358016968 0.38831105828285217
0.19316387176513672 0.035409007221460342 0.82757401466369629
0.37240412831306458 0.053211525082588196 0.82574701309204102
0.68431562185287476 0.054644610732793808 0.83815127611160278
0.89112186431884766 0.028489969670772552 0.88581448793411255
0.95668560266494751 0.060588836669921875 0.8789517879486084
0.19175751507282257 0.2313271164894104 0.81243163347244263
0.33037063479423523 0.23487971723079681 0.82535243034362793
0.62888902425765991 0.24203178286552429 0.83854973316192627
0.89392876625061035 0.19503898918628693 0.88989782333374023
0.95183092355728149 0.19836191833019257 0.87277692556381226
0.19726894795894623 0.54558247327804565 0.83315527439117432
0.32393822073936462 0.53685492277145386 0.82398468255996704
0.58056735992431641 0.58348053693771362 0.82387614250183105
0.87926763296127319 0.54809457063674927 0.87760710716247559
0.94743633270263672 0.54231399297714233 0.85770446062088013
0.18745866417884827 0.83061391115188599 0.85711061954498291
0.19639937579631805 0.82477003335952759 0.8619728684425354
0.39722597599029541 0.83840841054916382 0.87434756755828857
0.83854687213897705 0.84899073839187622 0.86794024705886841
0.96348518133163452 0.84298992156982422 0.86335885524749756
0.25017857551574707 0.93398773670196533 0.81879878044128418
0.33984375 0.93163460493087769 0.80675709247589111
0.43758940696716309 0.9497191309928894 0.82262116670608521
0.79304873943328857 0.9671059250831604 0.84829682111740112
0.95972275733947754 0.96924269199371338 0.8429635763168335
0.19389715790748596 0.024792809039354324 0.90845590829849243
0.36351299285888672 0.039767935872077942 0.90723246335983276
0.63319432735443115 0.09655577689409256 0.91644036769866943
0.89117056131362915 0.04798850417137146 0.96619361639022827
0.96270465850830078 0.02700590156018734 0.96137732267379761
0.18968237936496735 0.21200159192085266 0.90105241537094116
0.32315066456794739 0.22858011722564697 0.90990686416625977
0.58812904357910156 0.24721139669418335 0.91386181116104126
0.87312543392181396 0.21762353181838989 0.96658092737197876
0.96172595024108887 0.20638503134250641 0.97409993410110474
0.24891673028469086 0.51097804307937622 0.8935735821723938
0.32718327641487122 0.51030820608139038 0.90019768476486206
0.57775425910949707 0.57496744394302368 0.91180795431137085
0.86007964611053467 0.54691475629806519 0.95358288288116455
0.96199047565460205 0.52166438102722168 0.96623653173446655
0.10706167668104172 0.79421842098236084 0.95706582069396973
0.13424257934093475 0.78406023979187012 0.95989584922790527
0.36525142192840576 0.80986958742141724 0.97931122779846191
0.82658165693283081 0.84529060125350952 0.9687919020652771
0.97582465410232544 0.8439410924911499 0.98752588033676147
0.17675486207008362 0.92313867807388306 0.96349102258682251
0.25006449222564697 0.92280489206314087 0.95977449417114258
0.35359406471252441 0.94597548246383667 0.97426861524581909
0.77601385116577148 0.96117472648620605 0.97885632514953613
0.97487163543701172 0.97573918104171753 0.98862761259078979
