assets/lut/editingcorpw Classic Charm.cube
LUT_3D_SIZE 16
DOMAIN_MIN 0.0 0.0 0.0
DOMAIN_MAX 1.0 1.0 1.0
0.095644 0.117830 0.121889
0.095644 0.117830 0.121889
0.150259 0.122292 0.132766
0.218997 0.129250 0.146072
0.284672 0.135451 0.150094
0.349737 0.139071 0.147646
0.416816 0.142825 0.140413
0.508082 0.157229 0.133864
0.594440 0.179874 0.130990
0.675832 0.201608 0.126082
0.748592 0.220462 0.121675
0.818051 0.236783 0.119014
0.891276 0.250999 0.121291
0.961822 0.262229 0.130983
1.000000 0.271281 0.148507
1.000000 0.288518 0.185885
0.096407 0.118874 0.122182
0.098251 0.119405 0.122560
0.151974 0.129617 0.132817
0.213998 0.140700 0.144510
0.276971 0.146459 0.148610
0.341570 0.149728 0.146755
0.410356 0.153639 0.139337
0.499842 0.167219 0.131734
0.583796 0.188232 0.129090
0.665150 0.208492 0.124398
0.741176 0.226694 0.119509
0.814056 0.242885 0.116800
0.886311 0.255984 0.118764
0.954156 0.266152 0.127846
1.000000 0.274018 0.144388
1.000000 0.291148 0.182394
0.155868 0.171407 0.131655
0.164005 0.171007 0.132209
0.167470 0.160515 0.152020
0.226030 0.175678 0.148531
0.287644 0.186910 0.142231
0.351177 0.189181 0.138491
0.431856 0.197362 0.127903
0.516167 0.212133 0.122241
0.596773 0.228580 0.118540
0.675072 0.244234 0.112940
0.746529 0.257505 0.108346
0.815719 0.269306 0.106297
0.888609 0.280075 0.109228
0.958969 0.288495 0.120798
1.000000 0.295112 0.140171
1.000000 0.308672 0.177774
0.217307 0.216416 0.127644
0.224934 0.218690 0.128480
0.237325 0.212167 0.135412
0.234608 0.197663 0.173656
0.290975 0.211806 0.177427
0.373138 0.237656 0.130666
0.440136 0.258643 0.105467
0.517306 0.270286 0.100408
0.593335 0.281800 0.095626
0.669199 0.293144 0.087148
0.742043 0.302904 0.077931
0.813744 0.311673 0.073215
0.885334 0.318924 0.083987
0.952533 0.323710 0.101294
1.000000 0.326963 0.124594
1.000000 0.339446 0.167306
0.303331 0.283537 0.108272
0.317718 0.291979 0.104749
0.330501 0.288830 0.110381
0.354411 0.280352 0.125739
0.346643 0.258495 0.199259
0.391522 0.271537 0.226328
0.480019 0.294596 0.162011
0.551837 0.326077 0.056007
0.605663 0.348441 0.001915
0.678311 0.355368 0.000000
0.746023 0.360168 0.000000
0.814557 0.364649 0.000000
0.886888 0.369461 0.001044
0.956671 0.372591 0.033613
1.000000 0.373701 0.101079
1.000000 0.380664 0.150119
0.352850 0.325505 0.101808
0.377057 0.343701 0.096419
0.386059 0.341497 0.103853
0.405994 0.337987 0.116494
0.428864 0.327550 0.152285
0.424414 0.308751 0.233066
0.464198 0.326787 0.284984
0.559985 0.345452 0.219138
0.638947 0.372674 0.128310
0.695906 0.400189 0.000000
0.743587 0.418189 0.000000
0.814511 0.421985 0.000000
0.885520 0.424567 0.000000
0.951641 0.424701 0.000000
1.000000 0.422785 0.002563
1.000000 0.428962 0.122927
0.412158 0.375946 0.084547
0.444711 0.401869 0.063236
0.451044 0.399746 0.084560
0.465778 0.396860 0.102901
0.493025 0.394247 0.122367
0.512309 0.381549 0.185544
0.509999 0.365503 0.271514
0.543886 0.386340 0.344284
0.643261 0.400850 0.281233
0.722108 0.420839 0.200163
0.785947 0.443000 0.023944
0.831801 0.467285 0.000000
0.886795 0.483198 0.000000
0.955827 0.483636 0.000000
1.000000 0.480626 0.000000
1.000000 0.482588 0.056635
0.457405 0.414252 0.030597
0.489522 0.440057 0.000853
0.495195 0.439164 0.015996
0.509450 0.439338 0.056440
0.536430 0.442213 0.095425
0.576739 0.445436 0.120675
0.595769 0.433654 0.214692
0.598548 0.421099 0.305645
0.625021 0.443980 0.397584
0.715026 0.451628 0.341647
0.792886 0.465022 0.268474
0.862397 0.485317 0.174887
0.923173 0.507602 0.000000
0.960501 0.530730 0.000000
0.999752 0.535220 0.000000
1.000000 0.536150 0.000000
0.500560 0.450629 0.000000
0.525506 0.470522 0.000000
0.531343 0.470893 0.000000
0.545517 0.473479 0.000000
0.570914 0.478985 0.008814
0.608417 0.486268 0.070393
0.653388 0.490459 0.128142
0.673543 0.480558 0.242757
0.683730 0.473517 0.339256
0.708074 0.501137 0.446066
0.790805 0.508732 0.408795
0.869892 0.517316 0.342962
0.939119 0.532985 0.269290
0.996470 0.550140 0.130206
1.000000 0.568939 0.000000
1.000000 0.594617 0.000000
0.553466 0.494764 0.000000
0.577313 0.513686 0.000000
0.581148 0.513116 0.000000
0.594664 0.516515 0.000000
0.619739 0.524226 0.000000
0.654505 0.533116 0.000000
0.697568 0.540424 0.012092
0.735002 0.538499 0.157538
0.752162 0.527246 0.273396
0.761402 0.521530 0.373046
0.781772 0.553448 0.490355
0.859246 0.568454 0.479682
0.936401 0.573886 0.424171
0.996059 0.580401 0.356994
1.000000 0.588440 0.268194
1.000000 0.604712 0.110189
0.614221 0.544671 0.000000
0.625660 0.553344 0.000000
0.629737 0.553472 0.000000
0.643458 0.558056 0.000000
0.667182 0.566351 0.000000
0.700801 0.577081 0.000000
0.743557 0.587830 0.000000
0.792599 0.595306 0.000000
0.827701 0.591839 0.188443
0.847660 0.583905 0.313445
0.856657 0.582910 0.422492
0.867087 0.618146 0.546948
0.924455 0.644739 0.572284
0.994385 0.643531 0.521459
1.000000 0.641584 0.459004
1.000000 0.649134 0.394812
0.686097 0.602765 0.000000
0.694927 0.609173 0.000000
0.696897 0.607954 0.000000
0.709401 0.612045 0.000000
0.732522 0.620711 0.000000
0.762911 0.630213 0.000000
0.798909 0.638337 0.000000
0.838689 0.643006 0.000000
0.881241 0.642993 0.000000
0.905687 0.634552 0.211885
0.923930 0.629004 0.347436
0.931757 0.634581 0.466719
0.929984 0.675658 0.601873
0.965551 0.707758 0.647077
1.000000 0.702071 0.602390
1.000000 0.704927 0.560138
0.791959 0.685395 0.000000
0.799528 0.690620 0.000000
0.798605 0.687279 0.000000
0.804996 0.686788 0.000000
0.820129 0.689654 0.000000
0.844755 0.695686 0.000000
0.877594 0.703216 0.000000
0.914302 0.708376 0.000000
0.952556 0.709081 0.000000
0.986926 0.703087 0.000000
0.998334 0.692280 0.255204
1.000000 0.690559 0.414592
0.997696 0.706677 0.553539
0.988234 0.744447 0.672003
0.998844 0.777319 0.721557
1.000000 0.781381 0.699019
0.883989 0.755404 0.000000
0.887632 0.757610 0.000000
0.885397 0.753420 0.000000
0.891484 0.753131 0.000000
0.906252 0.756487 0.000000
0.926812 0.760726 0.000000
0.951070 0.763900 0.000000
0.977355 0.764171 0.000000
0.998994 0.761099 0.000000
1.000000 0.755421 0.000000
1.000000 0.747164 0.019141
1.000000 0.741694 0.339477
1.000000 0.747363 0.501429
1.000000 0.764645 0.626869
1.000000 0.794526 0.721025
1.000000 0.833427 0.779611
1.000000 0.863816 0.000000
1.000000 0.871855 0.000000
1.000000 0.867642 0.000000
1.000000 0.863903 0.000000
1.000000 0.861257 0.000000
1.000000 0.858995 0.000000
1.000000 0.856265 0.000000
1.000000 0.851488 0.000000
1.000000 0.844108 0.000000
1.000000 0.833864 0.000000
1.000000 0.821103 0.000000
1.000000 0.809483 0.259739
1.000000 0.809612 0.476922
1.000000 0.820526 0.621169
1.000000 0.835739 0.714947
1.000000 0.862449 0.791165
1.000000 0.951934 0.000000
1.000000 0.955145 0.000000
1.000000 0.952343 0.000000
1.000000 0.949504 0.000000
1.000000 0.946545 0.000000
1.000000 0.942107 0.000000
1.000000 0.935565 0.000000
1.000000 0.926678 0.000000
1.000000 0.915636 0.000000
1.000000 0.902379 0.000000
1.000000 0.886992 0.000000
1.000000 0.868626 0.232951
1.000000 0.856907 0.424286
1.000000 0.860294 0.596179
1.000000 0.867729 0.698555
1.000000 0.877195 0.767575
0.096547 0.119607 0.125118
0.096330 0.118809 0.123774
0.144541 0.121728 0.132498
0.213991 0.130722 0.145260
0.279326 0.140175 0.149526
0.344469 0.146004 0.147079
0.412338 0.152781 0.139277
0.501884 0.169183 0.131626
0.581071 0.189215 0.128834
0.654834 0.207502 0.124899
0.724953 0.223935 0.120107
0.795160 0.238917 0.117403
0.870729 0.252481 0.118177
0.943723 0.262771 0.126592
0.999568 0.270791 0.143011
1.000000 0.283091 0.174112
0.096504 0.119201 0.123356
0.097951 0.119631 0.123952
0.147224 0.127629 0.132616
0.208473 0.140896 0.143844
0.271793 0.149496 0.148197
0.336424 0.155608 0.146222
0.406871 0.162512 0.138192
0.491599 0.177036 0.129947
0.571641 0.196047 0.127227
0.648045 0.213857 0.123122
0.720839 0.230101 0.118483
0.793314 0.244773 0.115097
0.866569 0.257139 0.116042
0.934663 0.265994 0.123458
0.996910 0.272554 0.138249
1.000000 0.285586 0.170633
0.155216 0.171608 0.134571
0.163845 0.171192 0.135103
0.167459 0.161053 0.153728
0.225901 0.175956 0.149483
0.286329 0.189338 0.141731
0.349323 0.193697 0.137529
0.430896 0.204636 0.126046
0.512258 0.219111 0.120029
0.586575 0.233233 0.116916
0.659237 0.246685 0.112327
0.728630 0.258660 0.107595
0.798577 0.270099 0.104800
0.873678 0.280930 0.106799
0.945803 0.288938 0.117014
0.999810 0.294853 0.135977
1.000000 0.305802 0.170027
0.214607 0.216085 0.137127
0.222571 0.218553 0.138066
0.235746 0.212286 0.142789
0.234784 0.198625 0.176499
0.290742 0.212905 0.180096
0.372960 0.237959 0.133985
0.437347 0.261213 0.104537
0.511635 0.272168 0.099343
0.583066 0.282192 0.095173
0.654632 0.292010 0.088509
0.726071 0.301411 0.079081
0.798075 0.310460 0.072185
0.870430 0.317736 0.079670
0.937359 0.322092 0.097080
0.997462 0.324808 0.119124
1.000000 0.335483 0.158766
0.299131 0.284930 0.129991
0.312804 0.293182 0.129354
0.325136 0.290165 0.136923
0.348188 0.282350 0.152679
0.340659 0.262093 0.214290
0.387077 0.273556 0.233197
0.475454 0.293962 0.167905
0.546844 0.323626 0.068684
0.596318 0.345804 0.002836
0.665724 0.352173 0.000145
0.732580 0.356970 0.000000
0.802239 0.362338 0.000000
0.876746 0.368047 0.000450
0.947848 0.371541 0.026682
0.999955 0.372805 0.096789
1.000000 0.379166 0.145783
0.351324 0.327519 0.118917
0.374710 0.345137 0.116772
0.383170 0.342788 0.125218
0.402120 0.338990 0.138619
0.424290 0.328993 0.171573
0.418225 0.310563 0.244632
0.456231 0.327011 0.290234
0.547951 0.342638 0.226000
0.626681 0.366925 0.132978
0.684012 0.394090 0.000000
0.731386 0.413446 0.000000
0.803054 0.418307 0.000000
0.874604 0.421480 0.000000
0.940393 0.421582 0.000000
0.997942 0.420023 0.000000
1.000000 0.426331 0.116438
0.410976 0.377381 0.102433
0.441347 0.401560 0.097137
0.447942 0.399736 0.107090
0.462340 0.396898 0.123543
0.488811 0.394166 0.142868
0.508127 0.382028 0.198914
0.505720 0.366864 0.280097
0.539119 0.387153 0.348320
0.634706 0.399530 0.286367
0.713152 0.417296 0.202690
0.777427 0.438989 0.024104
0.825120 0.463915 0.000000
0.881085 0.481228 0.000000
0.950839 0.482125 0.000000
0.999989 0.479757 0.000000
1.000000 0.482628 0.052611
0.457068 0.415763 0.067612
0.488832 0.441455 0.036678
0.494964 0.440927 0.061716
0.509129 0.441059 0.093006
0.535164 0.443342 0.116424
0.573296 0.445347 0.140478
0.589870 0.432297 0.224067
0.590029 0.418795 0.310201
0.615681 0.441110 0.397831
0.705260 0.448619 0.342761
0.784837 0.461935 0.269146
0.855893 0.482152 0.173978
0.916810 0.504519 0.000000
0.953729 0.527319 0.000000
0.998634 0.533052 0.000000
1.000000 0.535479 0.000000
0.502307 0.453418 0.000818
0.529440 0.475269 0.000000
0.536149 0.476375 0.000027
0.550405 0.478882 0.005313
0.575647 0.484205 0.049236
0.612813 0.491180 0.101962
0.657256 0.494945 0.145552
0.675268 0.483766 0.252213
0.681973 0.474955 0.345079
0.704016 0.501216 0.448426
0.785865 0.507882 0.410308
0.866761 0.515576 0.341584
0.936911 0.531824 0.268816
0.995702 0.549196 0.131170
1.000000 0.568733 0.000000
1.000000 0.595939 0.000000
0.555365 0.497450 0.000000
0.583471 0.519978 0.000000
0.588807 0.520619 0.000000
0.601997 0.523654 0.000000
0.625724 0.530138 0.000000
0.658292 0.537327 0.000918
0.698501 0.542546 0.066840
0.733846 0.539234 0.169409
0.749470 0.527245 0.279538
0.758188 0.521607 0.376740
0.778819 0.554051 0.492992
0.856474 0.568197 0.480662
0.933590 0.571833 0.422033
0.994946 0.578507 0.354936
1.000000 0.587351 0.266968
1.000000 0.605485 0.113967
0.619086 0.549657 0.000000
0.635564 0.562472 0.000000
0.641024 0.563669 0.000000
0.654513 0.567919 0.000000
0.677648 0.575603 0.000000
0.710530 0.585443 0.000000
0.751978 0.595009 0.000000
0.798222 0.600330 0.001926
0.829837 0.594504 0.199399
0.847040 0.585117 0.319417
0.854832 0.583740 0.426307
0.865435 0.619460 0.550000
0.924244 0.644420 0.571866
0.994260 0.643333 0.521253
1.000000 0.642328 0.459936
1.000000 0.651575 0.398627
0.690223 0.606946 0.000000
0.704919 0.618085 0.000000
0.708628 0.618125 0.000000
0.720559 0.621665 0.000000
0.741962 0.628788 0.000000
0.770039 0.636393 0.000000
0.803470 0.642555 0.000000
0.840993 0.645615 0.000000
0.882330 0.644778 0.000000
0.906284 0.636148 0.220897
0.924141 0.630678 0.353374
0.931199 0.636170 0.470867
0.929461 0.675170 0.601457
0.964875 0.706756 0.645975
1.000000 0.701938 0.602252
1.000000 0.706789 0.562571
0.797881 0.690773 0.000000
0.810933 0.700228 0.000000
0.810931 0.697501 0.000000
0.816619 0.696407 0.000000
0.831095 0.698649 0.000000
0.854918 0.703974 0.000000
0.886248 0.710273 0.000000
0.920385 0.713581 0.000000
0.955469 0.712063 0.000000
0.987837 0.704666 0.000000
0.998250 0.693457 0.262525
1.000000 0.690975 0.415403
0.997882 0.707156 0.554362
0.988492 0.744933 0.672570
0.998987 0.778595 0.722785
1.000000 0.784286 0.702130
0.889827 0.760632 0.000000
0.898562 0.766784 0.000000
0.898533 0.764304 0.000000
0.904108 0.763568 0.000000
0.916544 0.765074 0.000000
0.934552 0.767343 0.000000
0.956334 0.768597 0.000000
0.980789 0.767508 0.000000
0.999338 0.763568 0.000000
1.000000 0.757256 0.000000
1.000000 0.748583 0.024878
1.000000 0.742665 0.341448
1.000000 0.747732 0.502131
1.000000 0.764604 0.626959
1.000000 0.794806 0.721365
1.000000 0.834271 0.780441
1.000000 0.868159 0.000000
1.000000 0.880095 0.000000
1.000000 0.876095 0.000000
1.000000 0.871438 0.000000
1.000000 0.868012 0.000000
1.000000 0.864861 0.000000
1.000000 0.860826 0.000000
1.000000 0.854500 0.000000
1.000000 0.845657 0.000000
1.000000 0.834587 0.000000
1.000000 0.821470 0.000000
1.000000 0.809764 0.260679
1.000000 0.809906 0.477591
1.000000 0.820820 0.621722
1.000000 0.836530 0.716004
1.000000 0.863682 0.792586
1.000000 0.954210 0.000000
1.000000 0.958604 0.000000
1.000000 0.956500 0.000000
1.000000 0.953478 0.000000
1.000000 0.949683 0.000000
1.000000 0.944347 0.000000
1.000000 0.937047 0.000000
1.000000 0.927702 0.000000
1.000000 0.916350 0.000000
1.000000 0.902922 0.000000
1.000000 0.887461 0.000000
1.000000 0.868682 0.232735
1.000000 0.856907 0.423860
1.000000 0.860276 0.596134
1.000000 0.867729 0.698535
1.000000 0.877195 0.767636
0.119777 0.150973 0.184836
0.120562 0.148818 0.185415
0.147467 0.133808 0.194417
0.206353 0.137838 0.191797
0.267151 0.151184 0.190742
0.327880 0.165866 0.190268
0.407263 0.177876 0.184325
0.493157 0.192916 0.172836
0.571712 0.210533 0.157183
0.648519 0.228789 0.134630
0.721248 0.244932 0.118966
0.793540 0.258901 0.109760
0.869818 0.269965 0.111117
0.943031 0.277611 0.121010
0.999445 0.282741 0.139217
1.000000 0.292369 0.172274
0.118256 0.148927 0.177035
0.122470 0.150430 0.182032
0.145125 0.142243 0.188261
0.199920 0.148755 0.188102
0.259340 0.161315 0.189990
0.321143 0.173179 0.189370
0.400365 0.183651 0.182484
0.483387 0.197610 0.170591
0.564410 0.215328 0.155776
0.641832 0.233178 0.133915
0.717154 0.249467 0.117275
0.791133 0.263556 0.107392
0.864875 0.273738 0.108992
0.933363 0.279954 0.117854
0.996698 0.283851 0.134376
1.000000 0.294453 0.168400
0.132222 0.177864 0.187349
0.138970 0.179867 0.189782
0.160596 0.182515 0.194858
0.210803 0.188783 0.196240
0.268490 0.195982 0.195835
0.338632 0.205551 0.192861
0.419462 0.216706 0.183966
0.499335 0.230288 0.171666
0.575919 0.244785 0.155096
0.652070 0.259801 0.131863
0.724798 0.273536 0.109542
0.797028 0.285766 0.096500
0.872773 0.295123 0.098987
0.945091 0.301154 0.111192
0.999711 0.304774 0.132229
1.000000 0.313721 0.168278
0.184208 0.220689 0.192646
0.193455 0.224523 0.194670
0.213792 0.222332 0.192077
0.223540 0.217152 0.216968
0.280939 0.231188 0.216659
0.350991 0.249337 0.193314
0.421593 0.261977 0.179501
0.498086 0.273995 0.167443
0.571761 0.285353 0.150149
0.647225 0.297881 0.125612
0.722712 0.310580 0.084300
0.796468 0.321165 0.053111
0.869067 0.328124 0.061174
0.936285 0.331284 0.089867
0.997360 0.332517 0.114964
1.000000 0.341626 0.157003
0.276857 0.288169 0.191121
0.290553 0.296582 0.190930
0.301753 0.291589 0.191362
0.321873 0.286161 0.213197
0.320600 0.274659 0.256694
0.370277 0.286911 0.266261
0.453299 0.303368 0.219912
0.519927 0.326360 0.171507
0.582775 0.342144 0.141959
0.656533 0.351620 0.113523
0.728044 0.360273 0.044101
0.801023 0.368721 0.000848
0.876230 0.375400 0.000000
0.947446 0.378204 0.011739
0.999890 0.378379 0.091673
1.000000 0.383731 0.144106
0.333946 0.326580 0.165719
0.354433 0.342135 0.166309
0.361918 0.339152 0.174300
0.379495 0.336549 0.193252
0.404382 0.331612 0.222241
0.400757 0.319127 0.280077
0.443912 0.336555 0.312832
0.531456 0.349821 0.260429
0.609451 0.371005 0.190715
0.668337 0.395151 0.115232
0.726589 0.413025 0.025904
0.801685 0.421199 0.000000
0.873917 0.425838 0.000000
0.939811 0.425843 0.000000
0.997933 0.423899 0.000000
1.000000 0.429749 0.115315
0.394426 0.372963 0.144901
0.421395 0.394854 0.147676
0.427819 0.393387 0.157409
0.442355 0.391615 0.174458
0.468342 0.390759 0.197236
0.491414 0.383303 0.240292
0.491098 0.372592 0.308956
0.529262 0.394716 0.365852
0.622149 0.405446 0.310432
0.700390 0.421865 0.239939
0.768723 0.441748 0.130453
0.821984 0.465280 0.000000
0.881486 0.483716 0.000000
0.950905 0.485070 0.000000
0.999986 0.482286 0.000000
1.000000 0.484332 0.045342
0.443360 0.411469 0.125150
0.472628 0.435506 0.123787
0.479126 0.435533 0.132789
0.493471 0.436412 0.148601
0.519400 0.439721 0.169918
0.556635 0.443021 0.195544
0.576627 0.433480 0.258147
0.578255 0.423167 0.334137
0.607856 0.447947 0.413065
0.697132 0.454583 0.360885
0.777220 0.467444 0.294613
0.851728 0.485364 0.202287
0.917090 0.505160 0.007239
0.955071 0.527677 0.000000
0.998695 0.534763 0.000000
1.000000 0.537253 0.000000
0.491562 0.450146 0.093125
0.517076 0.471002 0.081240
0.523541 0.472019 0.096054
0.537809 0.474889 0.113654
0.563333 0.481099 0.135378
0.600706 0.489288 0.161608
0.646367 0.495044 0.195987
0.666046 0.485998 0.280919
0.673252 0.479509 0.366247
0.697430 0.508439 0.463781
0.780447 0.514265 0.425058
0.862359 0.521428 0.359744
0.936737 0.533589 0.275569
0.995987 0.549890 0.142546
1.000000 0.569071 0.000000
1.000000 0.596222 0.000000
0.546084 0.494521 0.002419
0.573396 0.516656 0.000028
0.578991 0.517588 0.001858
0.592320 0.520922 0.014067
0.616136 0.527857 0.060582
0.648569 0.535521 0.114283
0.688380 0.541376 0.151230
0.725573 0.539947 0.209229
0.742052 0.529572 0.303761
0.751824 0.526510 0.395792
0.774153 0.562481 0.509248
0.853271 0.575293 0.493802
0.932684 0.574518 0.427999
0.995111 0.579087 0.356445
1.000000 0.587954 0.268866
1.000000 0.606034 0.117447
0.611310 0.547381 0.000000
0.628060 0.560534 0.000000
0.633187 0.561546 0.000000
0.646762 0.566014 0.000000
0.670696 0.574541 0.000000
0.704079 0.585119 0.000000
0.745536 0.595248 0.039792
0.791440 0.601096 0.132081
0.824188 0.596421 0.233241
0.841559 0.588299 0.341358
0.850065 0.589203 0.443891
0.861705 0.627686 0.565180
0.923737 0.648271 0.577697
0.994543 0.644118 0.522301
1.000000 0.642774 0.460666
1.000000 0.651661 0.398596
0.684240 0.605745 0.000000
0.699811 0.617665 0.000000
0.703635 0.617840 0.000000
0.715489 0.621357 0.000000
0.736579 0.628376 0.000000
0.764506 0.636079 0.000000
0.797704 0.642339 0.000000
0.835203 0.645824 0.000000
0.877271 0.645944 0.051888
0.902493 0.638606 0.250430
0.920808 0.634766 0.373320
0.927723 0.642165 0.487645
0.928378 0.678653 0.607683
0.965440 0.707153 0.646282
1.000000 0.702428 0.602663
1.000000 0.707293 0.562979
0.790972 0.688666 0.000000
0.803155 0.697487 0.000000
0.803380 0.694978 0.000000
0.810023 0.694644 0.000000
0.826073 0.698156 0.000000
0.851514 0.704799 0.000000
0.883422 0.711687 0.000000
0.917246 0.714964 0.000000
0.951817 0.713433 0.000000
0.984844 0.706668 0.049088
0.996565 0.696371 0.288265
1.000000 0.693550 0.425334
0.998132 0.707879 0.555968
0.988718 0.745634 0.673585
0.999092 0.778820 0.722867
1.000000 0.784183 0.701813
0.886031 0.760549 0.000000
0.894878 0.766904 0.000000
0.895101 0.764545 0.000000
0.900840 0.763964 0.000000
0.913542 0.765696 0.000000
0.931756 0.768174 0.000000
0.953695 0.769583 0.000000
0.978127 0.768615 0.000000
0.998856 0.764948 0.000000
1.000000 0.758522 0.000000
1.000000 0.749149 0.032393
1.000000 0.743116 0.343435
1.000000 0.748173 0.503545
1.000000 0.764982 0.627902
1.000000 0.795324 0.722168
1.000000 0.834586 0.780625
1.000000 0.868340 0.000000
1.000000 0.879540 0.000000
1.000000 0.875579 0.000000
1.000000 0.871350 0.000000
1.000000 0.868581 0.000000
1.000000 0.865529 0.000000
1.000000 0.861312 0.000000
1.000000 0.854767 0.000000
1.000000 0.845785 0.000000
1.000000 0.834717 0.000000
1.000000 0.821793 0.000000
1.000000 0.810108 0.261565
1.000000 0.810272 0.478634
1.000000 0.821097 0.622448
1.000000 0.836728 0.716472
1.000000 0.863795 0.792938
1.000000 0.954815 0.000000
1.000000 0.959179 0.000000
1.000000 0.957092 0.000000
1.000000 0.954053 0.000000
1.000000 0.950229 0.000000
1.000000 0.944805 0.000000
1.000000 0.937466 0.000000
1.000000 0.928106 0.000000
1.000000 0.916771 0.000000
1.000000 0.903349 0.000000
1.000000 0.887834 0.000000
1.000000 0.868868 0.231557
1.000000 0.856896 0.422477
1.000000 0.860271 0.595672
1.000000 0.867729 0.698516
1.000000 0.877195 0.767764
0.137325 0.176089 0.252329
0.140729 0.175094 0.254404
0.157765 0.169685 0.261313
0.202734 0.155526 0.268875
0.255186 0.159461 0.255226
0.314989 0.172164 0.252519
0.392628 0.186482 0.257056
0.469852 0.201610 0.256613
0.544793 0.217982 0.252260
0.622521 0.231131 0.240490
0.701625 0.245939 0.225577
0.781478 0.261977 0.208425
0.863661 0.277529 0.185836
0.941011 0.290114 0.151261
0.999375 0.297908 0.134023
1.000000 0.305168 0.169675
0.139842 0.177738 0.237319
0.144390 0.180249 0.245604
0.157904 0.175896 0.251879
0.197443 0.165034 0.259320
0.248673 0.168388 0.250061
0.311111 0.180534 0.251321
0.385136 0.193092 0.254383
0.461800 0.207284 0.254313
0.538951 0.222441 0.250203
0.617049 0.235025 0.238419
0.698605 0.250133 0.224192
0.778707 0.266054 0.207174
0.857851 0.280424 0.183742
0.930721 0.291618 0.147616
0.996645 0.298538 0.129299
1.000000 0.306626 0.165780
0.168328 0.209371 0.248663
0.172079 0.211384 0.251565
0.180161 0.211103 0.255502
0.204908 0.200816 0.260338
0.258244 0.204428 0.258652
0.326728 0.216294 0.264060
0.399630 0.226630 0.264681
0.473488 0.237268 0.260742
0.549275 0.247303 0.251523
0.626776 0.258834 0.238884
0.705276 0.272059 0.223652
0.784820 0.286488 0.206333
0.866442 0.300341 0.183057
0.942914 0.311332 0.147237
0.999633 0.317822 0.127073
1.000000 0.324815 0.165732
0.172134 0.229825 0.245075
0.179287 0.235114 0.251046
0.194347 0.239152 0.256099
0.222477 0.247121 0.267615
0.272886 0.251539 0.266609
0.332756 0.257527 0.265129
0.401043 0.264858 0.261489
0.473695 0.273857 0.255672
0.547059 0.283029 0.245893
0.624448 0.294144 0.233546
0.704817 0.306960 0.219029
0.784043 0.319501 0.201342
0.861873 0.330452 0.176308
0.933482 0.338251 0.136153
0.997327 0.342965 0.109842
1.000000 0.350788 0.154623
0.233880 0.298305 0.269550
0.246908 0.308873 0.279225
0.264458 0.307064 0.277641
0.292786 0.299265 0.264896
0.302129 0.294363 0.301493
0.354510 0.303453 0.298235
0.422997 0.315602 0.269303
0.486570 0.326647 0.252052
0.559080 0.335176 0.241683
0.634523 0.344666 0.228298
0.710208 0.354465 0.212785
0.789006 0.365297 0.194395
0.869817 0.375412 0.168429
0.945230 0.382659 0.123797
0.999851 0.386041 0.085571
1.000000 0.390654 0.141710
0.302617 0.333813 0.247855
0.322639 0.350812 0.255845
0.332514 0.346111 0.244830
0.350197 0.338792 0.240141
0.376153 0.338363 0.275674
0.378649 0.332714 0.321947
0.428074 0.349149 0.339198
0.507763 0.360326 0.299609
0.579443 0.377841 0.252209
0.635290 0.396727 0.217280
0.711830 0.406989 0.201816
0.790081 0.416398 0.182045
0.866696 0.423766 0.151509
0.936955 0.427629 0.080063
0.997953 0.429286 0.000000
1.000000 0.435035 0.113448
0.372086 0.377907 0.218267
0.396345 0.398422 0.224423
0.400753 0.392374 0.214813
0.412026 0.386582 0.221762
0.437039 0.387845 0.251963
0.466360 0.387481 0.289894
0.469494 0.382706 0.347803
0.514574 0.406175 0.390080
0.602225 0.414710 0.343073
0.679112 0.429534 0.287086
0.744867 0.448100 0.223207
0.799785 0.470258 0.170914
0.874816 0.481247 0.126176
0.948841 0.485650 0.049227
0.999992 0.485808 0.000000
1.000000 0.487268 0.036426
0.426022 0.413448 0.186727
0.452056 0.435300 0.189516
0.454255 0.430204 0.185140
0.467153 0.430215 0.200050
0.492430 0.434679 0.225493
0.528090 0.439945 0.256053
