assets/lut/editingcorpw Whispering White.cube
LUT_3D_SIZE 6
DOMAIN_MIN 0.0 0.0 0.0
DOMAIN_MAX 1.0 1.0 1.0
0.000000 0.017334 0.018173
0.058741 0.024506 0.029105
0.311592 0.052123 0.069930
0.540706 0.123518 0.164615
0.870387 0.311955 0.373856
0.979614 0.572839 0.636225
0.001184 0.067820 0.052757
0.028981 0.065577 0.048452
0.285063 0.082204 0.063388
0.512847 0.117049 0.119609
0.835902 0.293417 0.328519
0.979465 0.574087 0.627146
0.091538 0.266619 0.173455
0.093397 0.261923 0.159578
0.274983 0.269321 0.154066
0.500909 0.292210 0.180447
0.793560 0.343135 0.274832
0.972596 0.564014 0.579867
0.247979 0.521257 0.357063
0.250862 0.519716 0.349984
0.283306 0.512328 0.290633
0.511423 0.524159 0.311248
0.754304 0.556003 0.379601
0.952390 0.611710 0.530141
0.615986 0.842914 0.664271
0.617891 0.844160 0.663745
0.622918 0.842744 0.649309
0.633846 0.840967 0.608750
0.780471 0.859558 0.624326
0.941924 0.859980 0.662702
0.746792 0.967590 0.827482
0.747122 0.967611 0.826776
0.749621 0.967779 0.821432
0.755037 0.968140 0.809190
0.769079 0.969128 0.766986
0.919631 0.969543 0.765743
0.000000 0.019852 0.064961
0.085524 0.030114 0.089259
0.338987 0.062990 0.142485
0.576176 0.145488 0.233664
0.901517 0.349157 0.445961
0.000000 0.019913 0.060475
0.000890 0.067813 0.079131
0.070379 0.062190 0.082001
0.339103 0.080581 0.115093
0.569810 0.144525 0.197313
0.899008 0.349272 0.421811
0.006935 0.090717 0.092349
0.090194 0.262185 0.189716
0.092740 0.259694 0.171656
0.309653 0.266292 0.159515
0.553525 0.285753 0.203740
0.877586 0.347032 0.327054
0.107930 0.296434 0.210693
0.240790 0.514784 0.362176
0.246621 0.515778 0.353533
0.285836 0.507437 0.286372
0.539848 0.521223 0.316834
0.806000 0.553812 0.401117
0.274688 0.564255 0.402867
0.610475 0.836961 0.662036
0.614227 0.839894 0.661810
0.620513 0.838987 0.646066
0.631955 0.835577 0.596612
0.809607 0.856600 0.629847
0.652380 0.887880 0.707552
0.746584 0.967538 0.828705
0.747054 0.967579 0.827526
0.749865 0.967773 0.821488
0.755670 0.968167 0.808109
0.772938 0.969314 0.757011
0.000000 0.020780 0.083915
0.040946 0.033382 0.264350
0.300259 0.069447 0.293629
0.535828 0.144823 0.358071
0.853496 0.321506 0.509929
0.449272 0.270967 0.446820
0.011459 0.030645 0.258415
0.011812 0.068363 0.271045
0.291362 0.081152 0.284981
0.534631 0.144008 0.330305
0.854005 0.320787 0.484951
0.386791 0.285810 0.415759
0.004099 0.094747 0.262809
0.087363 0.267800 0.288975
0.253749 0.261066 0.313185
0.551649 0.271220 0.333502
0.851562 0.344595 0.434788
0.458579 0.419832 0.451247
0.112108 0.302431 0.301586
0.244086 0.514786 0.423131
0.259307 0.510984 0.388409
0.507253 0.518980 0.339641
0.835098 0.545236 0.469370
0.556882 0.581600 0.524976
0.274587 0.563337 0.458905
0.604500 0.831674 0.678924
0.612971 0.834123 0.668342
0.623273 0.829375 0.630205
0.784784 0.847929 0.627917
0.768846 0.854211 0.699276
0.647534 0.882771 0.722504
0.745188 0.967270 0.838070
0.747778 0.967452 0.832413
0.753279 0.967834 0.820316
0.768109 0.968873 0.779705
0.366474 0.409207 0.482120
0.034844 0.035787 0.309292
0.615562 0.227916 0.700356
0.908398 0.436564 0.808890
0.043372 0.119758 0.640396
0.060115 0.088826 0.658718
0.322452 0.124709 0.668846
0.569850 0.204774 0.687436
0.608423 0.224333 0.671849
0.916640 0.433101 0.778739
0.007915 0.159458 0.594164
0.037364 0.146066 0.636709
0.280132 0.141542 0.658808
0.558108 0.202735 0.660745
0.592963 0.302542 0.662288
0.913658 0.422104 0.721118
0.059377 0.335824 0.579400
0.083332 0.333251 0.607984
0.220749 0.315847 0.675747
0.543592 0.325095 0.666326
0.611039 0.501803 0.653896
0.902256 0.553762 0.670240
0.248065 0.571598 0.616804
0.255992 0.573365 0.617532
0.281478 0.569069 0.615295
0.502270 0.561131 0.613369
0.626871 0.823569 0.685684
0.882285 0.840936 0.681630
0.639873 0.869306 0.774735
0.645435 0.874797 0.773922
0.653942 0.879613 0.765119
0.663746 0.879204 0.736869
0.753838 0.967460 0.842716
0.776163 0.968993 0.782346
0.010644 0.134072 0.726067
0.072066 0.119112 0.755117
0.327781 0.145404 0.760804
0.577947 0.222204 0.774732
0.605912 0.282423 0.940481
0.913264 0.475142 0.955661
0.024269 0.207560 0.924433
0.086749 0.195909 0.926616
0.291361 0.192403 0.930653
0.557449 0.263294 0.938476
0.582156 0.281025 0.940615
0.910400 0.469476 0.955788
0.020104 0.247766 0.926194
0.048557 0.236037 0.928089
0.215546 0.200818 0.931813
0.526043 0.264634 0.939000
0.531279 0.353266 0.945312
0.900188 0.467205 0.956444
0.051849 0.408466 0.934720
0.084694 0.403391 0.935717
0.205453 0.373050 0.938987
0.467181 0.374373 0.945753
0.458884 0.539614 0.957600
0.886822 0.575939 0.955853
0.173954 0.618655 0.946833
0.192363 0.618134 0.947427
0.263577 0.608114 0.949937
0.400611 0.580394 0.956221
0.593703 0.828059 0.948565
0.884785 0.819195 0.966520
0.586269 0.877615 0.947614
0.592258 0.880613 0.947888
0.606174 0.881066 0.948298
0.628600 0.876920 0.948128
0.758004 0.966925 0.943481
0.772873 0.967293 0.924242
0.024513 0.207495 0.924446
0.087770 0.195670 0.926646
0.291684 0.192456 0.930653
0.556039 0.262745 0.938415
0.584024 0.273671 0.939559
0.904457 0.458665 0.955090
0.024121 0.207555 0.924417
0.081514 0.197141 0.926466
0.272578 0.189292 0.930290
0.536782 0.255787 0.937682
0.557275 0.271693 0.939626
0.897394 0.451154 0.954986
0.019691 0.244239 0.926012
0.045769 0.233932 0.927894
0.199609 0.197861 0.931468
0.501924 0.256528 0.938140
0.501993 0.348580 0.944538
0.881719 0.446915 0.955696
0.049712 0.401912 0.934362
0.083038 0.397324 0.935415
0.200132 0.370069 0.938665
0.439720 0.370276 0.945117
0.432278 0.535400 0.956495
0.855958 0.567755 0.955685
0.162556 0.607563 0.946426
0.182233 0.606060 0.947035
0.258865 0.595783 0.949536
0.391005 0.573999 0.955423
0.576956 0.806525 0.952047
0.841435 0.810006 0.973676
0.569016 0.867924 0.950590
0.573876 0.869432 0.950827
0.587585 0.867246 0.951572
0.610953 0.857618 0.952999
0.760632 0.966980 0.957717
0.771511 0.966964 0.957857
0.000000 0.000000 0.000000
0.000000 0.000000 0.000000
0.000000 0.000000 0.000000
0.000000 0.000000 0.000000
