assets/lut/editingcorpw Twilight Twinkle.cube
LUT_3D_SIZE 6
DOMAIN_MIN 0.0 0.0 0.0
DOMAIN_MAX 1.0 1.0 1.0
0.131044 0.122194 0.159640
0.297972 0.143814 0.173702
0.525652 0.173825 0.174093
0.775973 0.239768 0.185135
0.987604 0.300609 0.203934
1.000000 0.361852 0.240269
0.217575 0.242961 0.182694
0.303992 0.231272 0.184965
0.520432 0.260840 0.188986
0.764745 0.302016 0.197814
0.981542 0.344576 0.212484
1.000000 0.391998 0.245402
0.359179 0.416016 0.221658
0.416707 0.418628 0.222628
0.516987 0.387898 0.227084
0.750507 0.435924 0.229270
0.969760 0.468055 0.237446
1.000000 0.491469 0.266032
0.496944 0.592139 0.250022
0.543387 0.594007 0.251157
0.639109 0.592223 0.246552
0.743302 0.548576 0.258230
0.961346 0.596521 0.267724
1.000000 0.627783 0.304063
0.649421 0.807889 0.279124
0.680912 0.806071 0.279274
0.767012 0.803677 0.276335
0.885936 0.803250 0.267251
0.981324 0.739878 0.297783
1.000000 0.745107 0.352392
0.771084 0.980285 0.388464
0.792264 0.979229 0.389526
0.863005 0.976019 0.391443
0.948284 0.974365 0.386450
1.000000 0.972833 0.379419
1.000000 0.893004 0.417151
0.134987 0.174142 0.280546
0.281011 0.172047 0.276558
0.495638 0.205423 0.271672
0.732646 0.273076 0.290176
0.964518 0.321824 0.297844
1.000000 0.380627 0.318651
0.204557 0.250549 0.274479
0.296671 0.264537 0.276569
0.487660 0.285828 0.284345
0.730441 0.319126 0.291799
0.961569 0.359099 0.299789
1.000000 0.408246 0.321201
0.320499 0.420529 0.292188
0.394073 0.420229 0.293957
0.503947 0.395785 0.292328
0.730768 0.441642 0.300507
0.957717 0.474108 0.310349
1.000000 0.502857 0.334431
0.470172 0.595640 0.308521
0.520241 0.598931 0.310825
0.628512 0.592500 0.306332
0.734753 0.551918 0.311543
0.953652 0.601908 0.327160
1.000000 0.635632 0.363628
0.629190 0.809697 0.336724
0.662088 0.808045 0.336811
0.760526 0.805520 0.336128
0.878991 0.804002 0.327494
0.976805 0.743799 0.348956
1.000000 0.752089 0.401828
0.760897 0.981109 0.435499
0.782231 0.980119 0.436465
0.859362 0.976217 0.438769
0.943767 0.974731 0.434013
1.000000 0.973376 0.427278
1.000000 0.896953 0.458009
0.000000 0.257847 0.476301
0.244263 0.252071 0.472804
0.478239 0.268035 0.454215
0.707829 0.285607 0.462451
0.944918 0.315364 0.452840
1.000000 0.458326 0.509227
0.199373 0.329369 0.463716
0.289274 0.324601 0.461033
0.474177 0.319650 0.445466
0.703127 0.332057 0.456904
0.933864 0.377828 0.461495
1.000000 0.477643 0.508830
0.299950 0.424742 0.450382
0.350605 0.430277 0.451354
0.493404 0.445022 0.446489
0.696716 0.461694 0.454519
0.928097 0.503734 0.481682
1.000000 0.555138 0.516123
0.365579 0.611900 0.478426
0.412769 0.614860 0.471754
0.582387 0.601604 0.458259
0.713910 0.574878 0.455976
0.930823 0.631744 0.490776
1.000000 0.671803 0.533695
0.540711 0.818618 0.497808
0.580874 0.817773 0.498494
0.713899 0.811594 0.498232
0.850287 0.807435 0.491451
0.957498 0.760865 0.499271
1.000000 0.781928 0.553505
0.719472 0.984265 0.574988
0.741212 0.983361 0.575450
0.822807 0.979455 0.576595
0.926041 0.976117 0.575466
1.000000 0.975547 0.569448
1.000000 0.912651 0.586029
0.000000 0.369806 0.713386
0.118691 0.358013 0.706003
0.455459 0.350270 0.685900
0.684203 0.354868 0.662635
0.911848 0.390917 0.676099
1.000000 0.503816 0.691280
0.000000 0.411742 0.693740
0.221867 0.406690 0.691889
0.459479 0.389228 0.676008
0.682081 0.390826 0.657504
0.906041 0.424992 0.672640
1.000000 0.529624 0.692281
0.240735 0.506365 0.675105
0.309946 0.509436 0.674358
0.482308 0.500879 0.657720
0.680724 0.496938 0.644667
0.903186 0.537938 0.673001
1.000000 0.620570 0.701266
0.379000 0.608717 0.656388
0.418191 0.612188 0.656830
0.536239 0.617148 0.648507
0.697169 0.635685 0.642577
0.904325 0.675473 0.671347
1.000000 0.733885 0.718660
0.451988 0.838057 0.733127
0.486982 0.837283 0.727140
0.601515 0.832100 0.699664
0.793630 0.821031 0.676944
0.925011 0.794722 0.676056
1.000000 0.835578 0.734227
0.666712 0.988696 0.751827
0.682355 0.988409 0.748725
0.760466 0.985601 0.748093
0.886883 0.980133 0.748904
0.994944 0.979569 0.746325
1.000000 0.941014 0.754299
0.000000 0.480024 0.897227
0.174055 0.481012 0.895177
0.434633 0.472319 0.890400
0.675277 0.483721 0.880755
0.879924 0.505013 0.869078
1.000000 0.587457 0.869694
0.019439 0.509862 0.893292
0.242136 0.512167 0.893004
0.455894 0.504380 0.887516
0.680031 0.511459 0.877183
0.879631 0.530355 0.867051
1.000000 0.610432 0.869863
0.237484 0.595133 0.883741
0.324124 0.597492 0.883665
0.518551 0.603939 0.877486
0.699321 0.602972 0.870440
0.880209 0.614050 0.861679
1.000000 0.687780 0.872089
0.391840 0.696256 0.877708
0.430695 0.699077 0.877182
0.547267 0.707085 0.872453
0.719382 0.719602 0.863295
0.882886 0.724242 0.856269
1.000000 0.793119 0.880074
0.533371 0.815194 0.876160
0.556832 0.816809 0.875455
0.640379 0.823082 0.872056
0.762244 0.834484 0.865160
0.888823 0.848036 0.853659
1.000000 0.891678 0.888881
0.666877 0.994696 0.942937
0.683816 0.994214 0.940397
0.744828 0.992330 0.929994
0.834637 0.989728 0.910808
0.950517 0.986644 0.897162
1.000000 0.973218 0.900438
0.548699 0.678096 1.000000
0.588104 0.689510 1.000000
0.670070 0.705074 1.000000
0.774557 0.722707 1.000000
0.889513 0.747475 1.000000
0.996857 0.777646 0.999481
0.556787 0.690285 1.000000
0.594900 0.701076 1.000000
0.686984 0.723886 1.000000
0.782896 0.738314 1.000000
0.892457 0.760239 1.000000
0.996765 0.787619 0.999029
0.555407 0.724422 1.000000
0.593798 0.733695 1.000000
0.714268 0.770304 1.000000
0.808592 0.789489 1.000000
0.902341 0.803974 1.000000
0.996924 0.822739 0.998187
0.541302 0.778237 1.000000
0.564702 0.782004 1.000000
0.653920 0.797325 1.000000
0.827905 0.850048 1.000000
0.913175 0.862113 1.000000
0.997760 0.874265 0.998010
0.654524 0.869956 1.000000
0.670470 0.872556 1.000000
0.729432 0.883083 1.000000
0.816900 0.901371 1.000000
0.923030 0.928462 1.000000
0.999585 0.936474 0.999481
0.764645 0.961822 1.000000
0.774362 0.963067 1.000000
0.811722 0.968225 1.000000
0.871330 0.977313 1.000000
0.939525 0.988556 1.000000
1.000000 1.000000 1.000000
