assets/lut/editingcorp atusa.cube
# Created by: G'MIC (https://gmic.eu)
TITLE "atusa"
# LUT size
LUT_3D_SIZE 5
# Data domain
DOMAIN_MIN 0.0 0.0 0.0
DOMAIN_MAX 1.0 1.0 1.0
# LUT data points
0.023759191855788231 0.01819254644215107 0.026701953262090683
0.3531973659992218 0.024035271257162094 0.021131478250026703
0.64964598417282104 0.011055367067456245 0.014938219450414181
0.84050518274307251 0.0095769399777054787 0.01094207726418972
0.97469902038574219 0.0090972306206822395 0.0068407393991947174
0.012129959650337696 0.30271229147911072 0.017457550391554832
0.29677942395210266 0.30150899291038513 0.028033612295985222
0.63838618993759155 0.28172010183334351 0.027591809630393982
0.84936279058456421 0.23905941843986511 0.030983524397015572
0.98023200035095215 0.22700770199298859 0.027885062620043755
0.014831991866230965 0.55536139011383057 0.074341416358947754
0.19939497113227844 0.54395586252212524 0.06318238377571106
0.58371275663375854 0.55268692970275879 0.037528257817029953
0.86219239234924316 0.52876204252243042 0.049778763204813004
0.99182415008544922 0.51757878065109253 0.04564959928393364
0.021128889173269272 0.77482151985168457 0.075206413865089417
0.16499833762645721 0.77075648307800293 0.076271206140518188
0.48590323328971863 0.77043712139129639 0.040890950709581375
0.82965248823165894 0.77436286211013794 0.067530073225498199
0.993935227394104 0.76520836353302002 0.059328354895114899
0.015008649788796902 0.93230950832366943 0.03714420273900032
0.16790972650051117 0.92457395792007446 0.049314327538013458
0.41823515295982361 0.93656355142593384 0.032384011894464493
0.77517729997634888 0.97962063550949097 0.045647937804460526
0.99727934598922729 0.99077397584915161 0.030702657997608185
0.056661494076251984 0.029889782890677452 0.36490169167518616
0.3592410683631897 0.022601258009672165 0.3705594539642334
0.65761488676071167 0.0093194553628563881 0.32872474193572998
0.84433037042617798 0.019362745806574821 0.29251700639724731
0.97506928443908691 0.016466103494167328 0.28007322549819946
0.025784736499190331 0.31972381472587585 0.33314394950866699
0.26160475611686707 0.28345224261283875 0.29747313261032104
0.61035555601119995 0.25543880462646484 0.26435625553131104
0.83586299419403076 0.23239226639270782 0.23848338425159454
0.98009294271469116 0.2227746844291687 0.23207114636898041
0.019121147692203522 0.55680966377258301 0.26335820555686951
0.17003577947616577 0.52233904600143433 0.25445747375488281
0.58021396398544312 0.54444849491119385 0.22424769401550293
0.85791671276092529 0.52933371067047119 0.20873419940471649
0.98925697803497314 0.51661700010299683 0.20517717301845551
0.022368278354406357 0.77213871479034424 0.22362251579761505
0.1625308096408844 0.76196777820587158 0.21698036789894104
0.48155513405799866 0.760517418384552 0.17382659018039703
0.82294601202011108 0.77007949352264404 0.19736479222774506
0.99556195735931396 0.76700133085250854 0.2015545517206192
0.017877915874123573 0.92570221424102783 0.16590626537799835
0.14876343309879303 0.92095106840133667 0.17819355428218842
0.39269468188285828 0.94199562072753906 0.1638655960559845
0.76970797777175903 0.97790056467056274 0.16268028318881989
0.99676716327667236 0.98944765329360962 0.16866640746593475
0.078187070786952972 0.035463940352201462 0.63136094808578491
0.37091058492660522 0.047445647418498993 0.64038491249084473
0.63663953542709351 0.022295618429780006 0.63879132270812988
0.81761705875396729 0.026645630598068237 0.60762876272201538
0.95856493711471558 0.021008271723985672 0.60049068927764893
0.071283496916294098 0.33053222298622131 0.62767797708511353
0.3448415994644165 0.33914333581924438 0.56972628831863403
0.57169187068939209 0.29971355199813843 0.57690179347991943
0.81762242317199707 0.21986459195613861 0.5603564977645874
0.95888680219650269 0.21983577311038971 0.56609004735946655
0.049071621149778366 0.57268691062927246 0.59705162048339844
0.22396455705165863 0.5431210994720459 0.58283054828643799
0.52538138628005981 0.53768563270568848 0.55171924829483032
0.8337283730506897 0.52840673923492432 0.53798609972000122
0.97096145153045654 0.5076901912689209 0.51849186420440674
0.027069840580224991 0.77811199426651001 0.51179999113082886
0.16418240964412689 0.77046340703964233 0.50543367862701416
0.39439955353736877 0.70160448551177979 0.47447484731674194
0.82089090347290039 0.75863611698150635 0.50596147775650024
0.99311673641204834 0.76359707117080688 0.4713650643825531
0.017770953476428986 0.94047456979751587 0.42856195569038391
0.15884479880332947 0.9366527795791626 0.39186766743659973
0.37083896994590759 0.92140811681747437 0.39157089591026306
0.76293778419494629 0.97167819738388062 0.36610493063926697
0.99378818273544312 0.98441767692565918 0.29459297657012939
0.095952920615673065 0.038355149328708649 0.78273040056228638
0.36520552635192871 0.058562394231557846 0.81043452024459839
0.62837880849838257 0.043520879000425339 0.82625275850296021
0.83779501914978027 0.028198840096592903 0.84105944633483887
0.98176997900009155 0.019132276996970177 0.84984475374221802
0.10432851314544678 0.31204521656036377 0.80693155527114868
0.36046651005744934 0.30952680110931396 0.77432209253311157
0.57304298877716064 0.30869859457015991 0.78994083404541016
0.83001822233200073 0.23781523108482361 0.82757461071014404
0.96753996610641479 0.23081383109092712 0.82194089889526367
0.073076434433460236 0.55905580520629883 0.83208668231964111
0.24880830943584442 0.54856783151626587 0.81303483247756958
0.57064080238342285 0.55108529329299927 0.76463168859481812
0.79411798715591431 0.54469305276870728 0.79405194520950317
0.93428963422775269 0.53624171018600464 0.78005325794219971
0.07380327582359314 0.78881806135177612 0.81119471788406372
0.2086457759141922 0.77996176481246948 0.80569863319396973
0.45675259828567505 0.72846490144729614 0.77132576704025269
0.78449422121047974 0.77215278148651123 0.77464956045150757
0.98163449764251709 0.77321350574493408 0.7713930606842041
0.055303536355495453 0.96359914541244507 0.7702828049659729
0.1807170957326889 0.95351088047027588 0.75345832109451294
0.35053950548171997 0.9377400279045105 0.7325291633605957
0.73030054569244385 0.96716165542602539 0.71335285902023315
0.9902951717376709 0.98696839809417725 0.72602713108062744
0.078967012465000153 0.027648238465189934 0.89973956346511841
0.35170197486877441 0.046338487416505814 0.92527681589126587
0.62251996994018555 0.038331184536218643 0.94881129264831543
0.84983932971954346 0.021340897306799889 0.97275954484939575
0.98415082693099976 0.014265741221606731 0.98041605949401855
0.090352959930896759 0.30194613337516785 0.91556143760681152
0.34804016351699829 0.30949562788009644 0.89178913831710815
0.57771068811416626 0.29488801956176758 0.91919481754302979
0.83498680591583252 0.23041045665740967 0.96736007928848267
0.97453838586807251 0.22402292490005493 0.96974688768386841
0.072955094277858734 0.55637830495834351 0.95573842525482178
0.23814330995082855 0.54426103830337524 0.94903463125228882
0.57935786247253418 0.54467719793319702 0.88395112752914429
0.79424422979354858 0.53817492723464966 0.93846070766448975
0.97592222690582275 0.52332764863967896 0.9618678092956543
0.077434703707695007 0.77787357568740845 0.97941619157791138
0.22317014634609222 0.76927435398101807 0.97681128978729248
0.49058398604393005 0.73823469877243042 0.95319986343383789
0.77620357275009155 0.76704484224319458 0.95566391944885254
0.98334461450576782 0.76738226413726807 0.97129917144775391
0.069924987852573395 0.95716959238052368 0.99373000860214233
0.20223212242126465 0.96023023128509521 0.99240988492965698
0.44231715798377991 0.94047379493713379 0.9756474494934082
0.74490773677825928 0.96560102701187134 0.98307746648788452
0.99774706363677979 0.98904764652252197 0.98610252141952515
