assets/lut/editingcorpw Sweet Symphony.cube
LUT_3D_SIZE 16
DOMAIN_MIN 0.0 0.0 0.0
DOMAIN_MAX 1.0 1.0 1.0
0.198886 0.108186 0.129549
0.198886 0.108186 0.129549
0.218411 0.108974 0.134585
0.254166 0.113490 0.146248
0.295262 0.117012 0.151583
0.340612 0.121859 0.156039
0.391254 0.129708 0.163040
0.448627 0.141872 0.178048
0.510765 0.154921 0.194669
0.578838 0.166903 0.212290
0.652735 0.177371 0.230014
0.731911 0.187375 0.248203
0.815958 0.198539 0.267619
0.900865 0.213095 0.288133
0.983807 0.231992 0.309618
1.000000 0.263371 0.337438
0.198837 0.108394 0.129531
0.198907 0.108706 0.129512
0.223059 0.109473 0.133453
0.260280 0.112608 0.138867
0.298973 0.117557 0.145040
0.342614 0.123830 0.150509
0.392058 0.133233 0.160790
0.448153 0.145255 0.175983
0.509428 0.157773 0.192819
0.577216 0.169623 0.210522
0.651606 0.180270 0.228355
0.731773 0.190063 0.246763
0.815161 0.200999 0.266176
0.898662 0.215084 0.286281
0.980839 0.233149 0.307464
1.000000 0.264335 0.335754
0.208573 0.149734 0.129452
0.217780 0.148037 0.130972
0.230091 0.149103 0.133281
0.272252 0.146697 0.121889
0.317233 0.138396 0.121337
0.358092 0.142025 0.135793
0.406257 0.151945 0.153946
0.460393 0.162449 0.170983
0.520444 0.173187 0.188323
0.587027 0.183658 0.206454
0.660066 0.193051 0.224277
0.738015 0.202215 0.242704
0.820861 0.212995 0.262301
0.904732 0.226655 0.282927
0.986616 0.244283 0.304623
1.000000 0.272868 0.331951
0.232877 0.189035 0.144246
0.238457 0.188849 0.145881
0.250957 0.187149 0.149480
0.262532 0.192273 0.153738
0.307383 0.201478 0.142866
0.365014 0.192196 0.135873
0.420211 0.191089 0.142021
0.474819 0.195431 0.157821
0.532975 0.202026 0.176518
0.598156 0.209685 0.195401
0.670747 0.217417 0.214139
0.747954 0.225586 0.233236
0.828724 0.235319 0.253294
0.909991 0.247390 0.273921
0.989720 0.262821 0.295604
1.000000 0.289225 0.323845
0.258140 0.238278 0.167281
0.263552 0.239894 0.168825
0.277492 0.235436 0.172008
0.289322 0.238430 0.175799
0.304509 0.245867 0.181244
0.348424 0.260465 0.175339
0.420100 0.257358 0.153494
0.482920 0.246986 0.154204
0.551221 0.248092 0.160547
0.619960 0.250580 0.175521
0.689827 0.255131 0.196231
0.763833 0.260811 0.216793
0.842923 0.269104 0.238046
0.923532 0.279871 0.259906
0.997407 0.293240 0.282724
1.000000 0.314360 0.310216
0.280491 0.280064 0.186252
0.286510 0.284574 0.188852
0.297716 0.280497 0.190860
0.313133 0.277128 0.194553
0.325951 0.284068 0.199307
0.344732 0.294194 0.206363
0.388214 0.313860 0.206796
0.471376 0.319084 0.176516
0.546935 0.308684 0.165212
0.623212 0.303563 0.167245
0.704646 0.305028 0.172824
0.783236 0.307360 0.188455
0.859550 0.313128 0.212082
0.936693 0.321068 0.236100
0.999408 0.331096 0.260252
1.000000 0.348180 0.289586
0.304673 0.323949 0.204672
0.311448 0.330653 0.208115
0.320672 0.326469 0.209366
0.336679 0.319186 0.211960
0.350281 0.322025 0.216161
0.366992 0.331530 0.222458
0.389807 0.344345 0.230823
0.434733 0.367862 0.237059
0.526196 0.380121 0.205168
0.620253 0.377679 0.177139
0.702004 0.363696 0.170334
0.786534 0.364784 0.175726
0.873742 0.368281 0.181446
0.956009 0.372920 0.197766
1.000000 0.379540 0.226469
1.000000 0.390423 0.258634
0.327715 0.364117 0.220237
0.334347 0.370828 0.223396
0.342262 0.367243 0.224347
0.356595 0.360946 0.226475
0.374055 0.356301 0.230121
0.390198 0.366131 0.236124
0.412289 0.379310 0.244009
0.440756 0.395572 0.253621
0.488389 0.422262 0.263926
0.586282 0.441264 0.232919
0.693409 0.446381 0.192374
0.783434 0.437580 0.178054
0.870971 0.429086 0.173466
0.956423 0.433188 0.179648
1.000000 0.431857 0.184445
1.000000 0.434467 0.204428
0.352032 0.403576 0.233817
0.357537 0.408816 0.236273
0.364416 0.405808 0.237049
0.377295 0.400575 0.238936
0.395189 0.393117 0.241910
0.412897 0.397309 0.247019
0.434548 0.410873 0.254398
0.462699 0.427957 0.263473
0.498453 0.448538 0.274315
0.551468 0.479419 0.287466
0.656122 0.507084 0.260062
0.767406 0.517529 0.218467
0.869070 0.516151 0.183514
0.956351 0.505069 0.173104
1.000000 0.496734 0.173434
1.000000 0.497075 0.185800
0.380042 0.446192 0.246592
0.385369 0.451083 0.248605
0.391164 0.448011 0.249236
0.402914 0.443315 0.250821
0.420059 0.436921 0.253538
0.440095 0.430829 0.257359
0.461320 0.444573 0.264062
0.488648 0.461451 0.272129
0.522844 0.481638 0.281606
0.565623 0.506102 0.292747
0.623511 0.539764 0.307274
0.731033 0.576500 0.287475
0.843376 0.591835 0.244831
0.944907 0.591628 0.190712
0.999819 0.570802 0.169817
1.000000 0.552495 0.161306
0.413336 0.493782 0.256901
0.417072 0.496382 0.257914
0.422510 0.493648 0.258561
0.433686 0.489735 0.260136
0.450214 0.484163 0.262687
0.470741 0.476509 0.266087
0.493898 0.481703 0.271708
0.522942 0.500527 0.279497
0.559014 0.522881 0.288695
0.601422 0.547973 0.299431
0.650141 0.575891 0.312016
0.707679 0.609094 0.328374
0.813095 0.653981 0.317638
0.922295 0.670613 0.275365
0.998676 0.663600 0.219705
1.000000 0.649409 0.184634
0.446778 0.539416 0.261839
0.453729 0.546022 0.263638
0.455986 0.540284 0.263459
0.466642 0.536897 0.264961
0.485221 0.534763 0.268045
0.507817 0.530163 0.272044
0.531801 0.522986 0.276498
0.559422 0.540016 0.283415
0.591717 0.559642 0.291435
0.630647 0.582939 0.301363
0.677626 0.611152 0.313768
0.730914 0.643219 0.328813
0.786287 0.676018 0.347052
0.877796 0.718861 0.344208
0.966776 0.724425 0.298442
1.000000 0.722774 0.252458
0.504900 0.612488 0.269206
0.511489 0.618143 0.270776
0.511700 0.610705 0.270140
0.518698 0.603615 0.270625
0.533097 0.597449 0.272522
0.554992 0.592614 0.276048
0.582821 0.588193 0.281117
0.614104 0.594858 0.287972
0.649997 0.618246 0.297215
0.689147 0.642816 0.307799
0.732711 0.669923 0.320445
0.781542 0.700094 0.335670
0.834468 0.732570 0.354094
0.882808 0.760482 0.375675
0.952967 0.796714 0.386898
1.000000 0.806461 0.359600
0.552191 0.671333 0.267936
0.555912 0.673700 0.268694
0.555213 0.665853 0.268004
0.563370 0.660957 0.268894
0.580537 0.658921 0.271629
0.603925 0.656544 0.275499
0.630914 0.652027 0.280148
0.658646 0.644266 0.285277
0.690201 0.660952 0.293419
0.727729 0.685632 0.304037
0.772098 0.714925 0.317693
0.820545 0.746323 0.334687
0.868678 0.776496 0.354800
0.911409 0.801563 0.376181
0.945979 0.819845 0.399282
1.000000 0.860105 0.440864
0.655750 0.792325 0.277958
0.667151 0.803051 0.282381
0.668246 0.797337 0.281272
0.674945 0.791008 0.281177
0.689158 0.785676 0.282830
0.710493 0.780911 0.286217
0.737815 0.776132 0.290953
0.768184 0.769294 0.296435
0.799213 0.768599 0.304117
0.830147 0.787973 0.317509
0.864561 0.809354 0.334813
0.902278 0.833019 0.357835
0.939416 0.856238 0.386722
0.971356 0.875345 0.417751
0.997222 0.889857 0.447143
1.000000 0.905333 0.487636
0.738735 0.889342 0.303044
0.745730 0.894761 0.309093
0.748116 0.891331 0.306871
0.757461 0.888957 0.307481
0.774612 0.887950 0.311205
0.797665 0.886534 0.316381
0.825925 0.884001 0.322563
0.859056 0.880332 0.329900
0.896758 0.875975 0.339165
0.922423 0.885142 0.358764
0.947051 0.898985 0.386450
0.971850 0.912810 0.418945
0.995099 0.925707 0.455079
1.000000 0.936956 0.493117
1.000000 0.946697 0.532048
1.000000 0.956146 0.573297
0.198856 0.108253 0.129647
0.198844 0.108253 0.129739
0.219504 0.108625 0.134938
0.254878 0.113768 0.146238
0.295639 0.119625 0.152668
0.338628 0.128438 0.163021
0.388244 0.138675 0.175098
0.444838 0.150888 0.189686
0.505141 0.162789 0.204926
0.570826 0.173808 0.220903
0.642865 0.183609 0.237016
0.722036 0.192214 0.253818
0.806869 0.202585 0.272345
0.892603 0.216121 0.291900
0.976571 0.233943 0.312706
1.000000 0.262016 0.338122
0.198773 0.108559 0.129925
0.198891 0.108868 0.130087
0.223870 0.109801 0.134265
0.260299 0.114089 0.139985
0.298084 0.121816 0.149200
0.339832 0.131309 0.160574
0.388688 0.141805 0.173171
0.443815 0.153438 0.187593
0.504123 0.165326 0.203152
0.570292 0.176431 0.219228
0.642980 0.186015 0.235599
0.722656 0.194834 0.252678
0.806376 0.204949 0.270962
0.889867 0.217671 0.289937
0.968758 0.233344 0.309078
1.000000 0.262861 0.336364
0.207234 0.152135 0.135727
0.216900 0.150319 0.138193
0.230919 0.150864 0.142025
0.272757 0.147426 0.133976
0.314717 0.143472 0.138705
0.355231 0.149574 0.153283
0.403646 0.158986 0.168276
0.457368 0.168864 0.183264
0.515752 0.179020 0.198924
0.580526 0.188844 0.215317
0.652147 0.197538 0.231676
0.730279 0.206147 0.248795
0.814003 0.216209 0.267617
0.898509 0.229316 0.287369
0.981297 0.246272 0.308383
1.000000 0.273054 0.334114
0.231563 0.191930 0.154708
0.237307 0.191955 0.156212
0.251775 0.189113 0.159804
0.263412 0.194485 0.163923
0.308475 0.202964 0.154532
0.364157 0.193921 0.149512
0.418135 0.194102 0.155772
0.471281 0.198564 0.170412
0.528221 0.205065 0.187346
0.591950 0.212517 0.204347
0.663519 0.219963 0.221671
0.740835 0.227926 0.239663
0.821910 0.237217 0.258652
0.902981 0.248735 0.278211
0.979821 0.262368 0.297871
1.000000 0.288739 0.325817
0.257911 0.241431 0.175566
0.263232 0.243155 0.177278
0.277597 0.238679 0.180141
0.290308 0.240405 0.183842
0.304912 0.247373 0.189238
0.349250 0.261128 0.182962
0.419164 0.257044 0.163482
0.481039 0.247551 0.163849
0.547839 0.248515 0.170276
0.614320 0.251170 0.185366
0.683521 0.255836 0.204436
0.758064 0.261644 0.223754
0.838040 0.270056 0.244034
0.919166 0.280811 0.265173
0.996672 0.294171 0.287175
1.000000 0.315053 0.313834
0.280210 0.282829 0.192551
0.286254 0.287312 0.195174
0.297686 0.283121 0.197002
0.313870 0.278705 0.200381
0.326561 0.285282 0.205124
0.344793 0.295079 0.212002
0.388127 0.313623 0.211743
0.469878 0.317917 0.182938
0.543499 0.306694 0.172556
0.618644 0.302452 0.174877
0.699947 0.304003 0.180533
0.777835 0.306826 0.196571
0.854405 0.312730 0.218938
0.931382 0.320677 0.241503
0.997615 0.328020 0.262749
1.000000 0.347655 0.292900
0.304470 0.326234 0.209549
0.310903 0.332496 0.212891
0.320342 0.328361 0.213978
0.336614 0.320954 0.216420
0.350729 0.322895 0.220456
0.367231 0.332226 0.226688
0.390041 0.344952 0.235044
0.434877 0.367975 0.240828
0.525341 0.379301 0.209792
0.617570 0.375958 0.183691
0.698769 0.361997 0.176902
0.783601 0.363933 0.182727
0.871374 0.367761 0.188357
0.953422 0.372658 0.205066
1.000000 0.379509 0.232646
1.000000 0.390974 0.263886
0.327693 0.366125 0.224013
0.334302 0.372912 0.227354
0.342334 0.369338 0.228238
0.356794 0.362925 0.230143
0.374647 0.357358 0.233663
0.390515 0.366783 0.239350
0.412078 0.379352 0.247065
0.439912 0.395071 0.256584
0.487209 0.421369 0.266475
0.584511 0.439730 0.236017
0.691211 0.444736 0.197349
0.780915 0.435881 0.183934
0.868315 0.427752 0.179753
0.953151 0.431701 0.185662
1.000000 0.428247 0.188673
1.000000 0.433383 0.210394
0.352231 0.405850 0.237124
0.358209 0.411579 0.239774
0.365251 0.408747 0.240618
0.378287 0.403343 0.242372
0.396430 0.395647 0.245209
0.414358 0.399089 0.250225
0.435889 0.412553 0.257554
0.463841 0.429167 0.266540
0.498796 0.449020 0.277088
0.551234 0.479313 0.289867
0.655428 0.506319 0.262695
0.766641 0.516721 0.222200
0.868165 0.515260 0.189304
0.955611 0.504165 0.179022
1.000000 0.496380 0.179743
1.000000 0.498781 0.193506
0.380313 0.448235 0.249302
0.386526 0.454212 0.251695
0.392625 0.451453 0.252366
0.404493 0.446497 0.253859
0.421554 0.439699 0.256421
0.441397 0.432364 0.260029
0.462185 0.445547 0.266465
0.489024 0.461890 0.274373
0.522893 0.481782 0.283819
0.565381 0.506052 0.294891
0.623384 0.539810 0.309509
0.730692 0.576054 0.289633
0.842445 0.590942 0.247708
0.940491 0.588227 0.194099
0.999263 0.568571 0.174288
1.000000 0.553188 0.168423
0.414697 0.497029 0.259556
0.419117 0.500388 0.260772
0.424807 0.498046 0.261471
0.436137 0.493929 0.263000
0.452752 0.487990 0.265440
0.473316 0.480030 0.268870
0.496363 0.484209 0.274257
0.525025 0.502520 0.281912
0.560230 0.524096 0.290886
0.601871 0.548484 0.301457
0.650135 0.575982 0.314031
0.707816 0.609298 0.330349
0.813421 0.654050 0.319595
0.922256 0.670313 0.277743
0.998866 0.664234 0.223800
1.000000 0.651990 0.193643
0.450854 0.545817 0.264853
0.461240 0.556415 0.267757
0.466187 0.553600 0.268229
0.476753 0.549676 0.269643
0.493349 0.544538 0.272034
0.513574 0.536856 0.275166
0.535657 0.527215 0.279034
0.562819 0.543172 0.285767
0.594351 0.562054 0.293652
0.632738 0.584796 0.303529
0.679414 0.612651 0.315952
0.731564 0.643890 0.330698
0.785404 0.675369 0.348429
0.876283 0.717397 0.344986
0.966730 0.724179 0.300248
1.000000 0.724648 0.257336
0.510547 0.620270 0.272415
0.517438 0.626173 0.274125
0.520977 0.622253 0.274253
0.529536 0.616569 0.275021
0.543965 0.609898 0.276893
0.565816 0.604330 0.280262
0.591360 0.596955 0.284531
0.619325 0.599613 0.290516
0.652611 0.620663 0.299247
0.690479 0.644058 0.309683
0.733423 0.670614 0.322145
0.782321 0.700890 0.337411
0.835130 0.733210 0.355911
0.883606 0.761285 0.377661
0.955126 0.798759 0.389982
1.000000 0.809921 0.365760
0.558047 0.679020 0.270876
0.566688 0.686811 0.272924
0.568189 0.681251 0.272661
0.576179 0.675937 0.273445
0.591738 0.671632 0.275683
0.613250 0.666803 0.278945
0.638098 0.659742 0.283112
0.664236 0.649982 0.287713
0.694631 0.665120 0.295646
0.731633 0.689300 0.306289
0.775496 0.718105 0.320009
0.822754 0.748415 0.336845
0.869339 0.777174 0.356392
0.911311 0.801542 0.377415
0.946395 0.820308 0.401017
1.000000 0.861409 0.443878
0.660797 0.799081 0.281627
0.669722 0.807042 0.285124
0.673772 0.804492 0.285280
0.683054 0.800810 0.286057
0.698142 0.796177 0.287915
0.719163 0.790819 0.290886
0.745223 0.784380 0.294970
0.773725 0.775421 0.299629
0.802539 0.771860 0.306331
0.831643 0.789498 0.319275
0.865348 0.810196 0.336344
0.902831 0.833644 0.359385
0.939786 0.856702 0.388278
0.971693 0.875804 0.419396
0.997508 0.890885 0.449908
1.000000 0.907017 0.492195
0.741567 0.893114 0.307750
0.750650 0.900555 0.316201
0.754283 0.898296 0.315232
0.763445 0.895791 0.315496
0.779413 0.893639 0.318002
0.801193 0.890880 0.321788
0.828299 0.887211 0.326755
0.860685 0.882750 0.333194
0.898028 0.877921 0.341876
0.923728 0.886607 0.361319
0.948083 0.900181 0.389001
0.972437 0.913595 0.421099
0.995286 0.926043 0.456566
1.000000 0.937004 0.494006
1.000000 0.946728 0.532952
1.000000 0.956249 0.574487
0.187241 0.117727 0.175521
0.191551 0.108516 0.176165
0.231041 0.095504 0.177192
0.268688 0.098671 0.174416
0.295151 0.132785 0.184679
0.328221 0.160793 0.204660
0.379095 0.173492 0.218604
0.435738 0.182371 0.229818
0.496158 0.191011 0.241296
0.562712 0.199168 0.253617
0.635968 0.206516 0.266691
0.716672 0.213204 0.280608
0.802672 0.221498 0.296451
0.889116 0.233381 0.313755
0.973658 0.249717 0.332354
1.000000 0.276890 0.356194
0.188918 0.119274 0.174746
0.195016 0.112633 0.176533
0.231156 0.108636 0.176874
0.264538 0.119662 0.176137
0.291244 0.145760 0.188774
0.328274 0.165331 0.205196
0.379598 0.173903 0.216058
0.435141 0.182952 0.227332
0.495966 0.192039 0.239366
0.562351 0.200553 0.251901
0.636109 0.208035 0.265133
0.717130 0.214926 0.279340
0.801891 0.223080 0.294911
0.886150 0.234345 0.311605
0.965000 0.248197 0.328303
1.000000 0.277222 0.354218
0.198232 0.161232 0.182305
0.207123 0.161160 0.182215
0.233890 0.159068 0.182339
0.265264 0.162570 0.185751
0.301670 0.167526 0.192517
0.345261 0.174920 0.201689
0.394369 0.183383 0.212211
0.448087 0.192119 0.223381
0.507085 0.200820 0.235348
0.572678 0.209084 0.248077
0.645424 0.216397 0.261337
0.725089 0.223636 0.275703
0.809848 0.232436 0.291865
0.895083 0.244282 0.309289
0.978449 0.260144 0.328158
1.000000 0.286506 0.352238
0.218381 0.203221 0.182533
0.227257 0.203433 0.186060
0.250933 0.198717 0.190954
0.266156 0.202364 0.195638
0.311905 0.206298 0.188919
0.362059 0.202095 0.189860
0.411498 0.205809 0.198757
0.463179 0.211971 0.210952
0.520325 0.218983 0.223852
0.584764 0.226330 0.237408
0.657266 0.233639 0.251616
0.735744 0.241034 0.266741
0.817742 0.249601 0.283096
0.899535 0.260522 0.300252
0.976575 0.273261 0.317600
1.000000 0.299968 0.344049
0.251907 0.250631 0.202588
0.257737 0.252766 0.204754
0.274272 0.247934 0.206436
0.291951 0.245564 0.209819
0.306041 0.252090 0.215098
0.352679 0.263814 0.208212
0.417921 0.256425 0.195288
0.478700 0.252073 0.197622
0.543633 0.254114 0.205276
0.607511 0.258278 0.220147
0.677760 0.263584 0.235574
0.753509 0.270072 0.252013
0.834423 0.278500 0.269502
0.916204 0.289220 0.288063
0.995560 0.302496 0.307812
1.000000 0.323818 0.332560
0.275773 0.289573 0.213443
0.281749 0.294236 0.216699
0.294411 0.289999 0.217844
0.314289 0.283234 0.220386
0.327665 0.288919 0.225167
0.345647 0.298357 0.232199
0.391095 0.315960 0.230504
0.471448 0.317829 0.206864
0.542518 0.305025 0.198987
0.617322 0.304830 0.203822
0.698933 0.306816 0.209433
0.773817 0.311024 0.227306
0.850994 0.317455 0.246484
0.928576 0.325630 0.265906
0.997068 0.333189 0.284271
1.000000 0.354040 0.312846
0.300615 0.331853 0.226305
0.306998 0.337961 0.229914
0.317169 0.333820 0.230680
0.334718 0.326513 0.232449
0.351469 0.325382 0.236152
0.368067 0.334736 0.242481
0.390778 0.347366 0.251124
0.437452 0.369900 0.255567
0.527575 0.379528 0.227914
0.616834 0.374253 0.207874
0.698156 0.362466 0.202888
0.783375 0.365322 0.209184
0.871289 0.369331 0.215224
0.951177 0.375208 0.233821
1.000000 0.382554 0.257468
1.000000 0.394563 0.285381
0.324621 0.371075 0.237662
0.331141 0.377778 0.241155
0.339738 0.374288 0.241893
0.355128 0.367920 0.243466
0.375083 0.360021 0.246259
0.391280 0.368757 0.252064
0.412801 0.381311 0.259837
0.440695 0.396953 0.269416
0.489224 0.423427 0.278913
0.586956 0.440278 0.250069
0.692019 0.443813 0.217970
0.781044 0.434103 0.206858
0.868420 0.427954 0.204671
0.953147 0.432287 0.210796
1.000000 0.428916 0.213149
1.000000 0.435847 0.237213
0.350008 0.410514 0.248600
0.355798 0.416258 0.251254
0.363241 0.413311 0.251980
0.376955 0.407852 0.253435
0.395910 0.400184 0.255929
0.415193 0.400851 0.260608
0.436849 0.414314 0.268044
0.464759 0.430908 0.277171
0.499747 0.450700 0.287868
0.553289 0.481285 0.300330
0.657851 0.506946 0.274106
0.768854 0.516542 0.237534
0.868670 0.513959 0.211363
0.956181 0.502418 0.202019
1.000000 0.496583 0.203962
1.000000 0.498818 0.216223
0.378541 0.452640 0.259090
0.384733 0.458623 0.261539
0.391194 0.455879 0.262137
0.403483 0.450908 0.263426
0.421225 0.443956 0.265708
0.441931 0.434733 0.268701
0.462893 0.446870 0.275201
0.489790 0.463228 0.283257
0.523778 0.483148 0.292866
0.566583 0.507608 0.304196
0.625521 0.542077 0.319119
0.733114 0.576895 0.299228
0.844430 0.590974 0.260332
0.941034 0.587060 0.213618
0.999336 0.567169 0.196420
1.000000 0.552047 0.190971
0.413257 0.501201 0.267961
0.417817 0.504745 0.269284
0.423612 0.502261 0.269915
0.435358 0.498082 0.271237
0.452609 0.492251 0.273598
0.473872 0.484229 0.276677
0.497276 0.485597 0.281784
0.525942 0.503886 0.289547
0.561052 0.525285 0.298631
0.602730 0.549611 0.309496
0.651203 0.577289 0.322240
0.709724 0.611328 0.338944
0.815648 0.654997 0.327798
0.924076 0.670583 0.288168
0.999120 0.663636 0.237551
1.000000 0.650617 0.212991
0.450081 0.550527 0.272402
0.460104 0.560620 0.275342
0.465366 0.558020 0.275805
0.476315 0.553965 0.277047
0.493109 0.548566 0.279247
0.513785 0.540623 0.282111
0.536178 0.530184 0.285548
0.563138 0.543901 0.292182
0.594664 0.562745 0.300233
0.633371 0.585766 0.310329
0.680601 0.614071 0.323056
0.732896 0.645384 0.338105
0.786951 0.677030 0.355958
0.877910 0.718065 0.351720
0.968287 0.724450 0.308361
1.000000 0.724491 0.267908
0.507623 0.622346 0.278746
0.515038 0.628777 0.280608
0.518378 0.624514 0.280623
0.527227 0.618851 0.281302
0.543137 0.613239 0.283240
0.566245 0.608419 0.286698
0.592217 0.600872 0.290716
0.619555 0.600326 0.296098
0.652888 0.621265 0.304975
0.690649 0.644582 0.315469
0.733868 0.671334 0.328185
0.783144 0.701914 0.343815
0.836093 0.734353 0.362610
0.884574 0.762504 0.384608
0.956202 0.799276 0.395991
1.000000 0.809681 0.371849
0.556093 0.682084 0.276639
0.564805 0.689982 0.278801
0.566611 0.684571 0.278454
0.574963 0.679345 0.279163
0.590968 0.675128 0.281332
0.612910 0.670285 0.284559
0.638145 0.663057 0.288416
0.664417 0.652576 0.292673
0.694784 0.665676 0.300448
0.732118 0.690133 0.311379
0.776414 0.719246 0.325353
0.823653 0.749512 0.342382
0.869976 0.778036 0.362066
0.911830 0.802291 0.383229
0.946949 0.821207 0.407140
1.000000 0.862304 0.449875
0.656867 0.800032 0.286605
0.666115 0.808333 0.290389
0.670331 0.805832 0.290439
0.679892 0.802237 0.291232
0.695487 0.797837 0.293031
0.717267 0.792857 0.296020
0.743669 0.786424 0.299911
0.772458 0.777230 0.304212
0.801608 0.771427 0.310225
0.831022 0.789319 0.323302
0.865414 0.810616 0.340798
0.903156 0.834258 0.364120
0.940105 0.857294 0.393339
0.971855 0.876267 0.424438
0.997518 0.891267 0.454895
1.000000 0.907110 0.496886
0.738259 0.894468 0.312419
0.747367 0.901781 0.320889
0.751132 0.899609 0.319963
0.760464 0.897087 0.320143
0.776502 0.894886 0.322460
0.798434 0.891972 0.326000
0.825790 0.888204 0.330700
0.858534 0.883738 0.337033
0.896276 0.878948 0.345551
0.923363 0.886662 0.364476
0.947955 0.900408 0.392548
0.972354 0.913864 0.424766
0.995213 0.926274 0.460278
1.000000 0.937229 0.497923
1.000000 0.946972 0.537128
1.000000 0.956518 0.578820
0.177621 0.109878 0.229300
0.187707 0.109151 0.229489
0.222860 0.106658 0.230089
0.268455 0.106564 0.230218
0.310738 0.112300 0.227827
0.344659 0.141494 0.230411
0.382325 0.176066 0.247317
0.424555 0.209309 0.270377
0.478877 0.230726 0.289467
0.547559 0.235723 0.299006
0.623188 0.240208 0.309154
0.706554 0.244921 0.320678
0.794572 0.251733 0.334134
0.882349 0.261996 0.348972
0.967927 0.276893 0.365263
1.000000 0.303557 0.386914
0.184422 0.126223 0.225594
0.189568 0.122224 0.228129
0.223351 0.121118 0.228628
0.267262 0.122142 0.228866
0.308212 0.126181 0.227019
0.341791 0.152691 0.231668
0.378808 0.184117 0.248821
0.421753 0.214881 0.271792
0.479272 0.230680 0.287748
0.547657 0.235893 0.297329
0.623778 0.240869 0.307819
0.706975 0.245754 0.319391
0.793496 0.252412 0.332499
0.879180 0.262067 0.346698
0.958339 0.273912 0.360431
1.000000 0.303132 0.384928
0.200088 0.176651 0.232422
0.207584 0.175937 0.233021
0.229089 0.165780 0.233250
0.269380 0.163515 0.232509
0.306595 0.169728 0.233018
0.338958 0.192270 0.244345
0.377953 0.215451 0.262497
0.429484 0.228255 0.275568
0.490542 0.234339 0.284485
0.558131 0.240235 0.294151
0.632964 0.245708 0.304487
0.715238 0.251455 0.316266
0.801952 0.259033 0.329878
0.888479 0.269842 0.344928
0.972848 0.284627 0.361288
1.000000 0.310952 0.383289
0.210232 0.212456 0.235720
0.215907 0.213972 0.237364
0.236312 0.213731 0.236627
0.269725 0.211546 0.236195
0.306146 0.215936 0.240292
0.347252 0.221813 0.247721
0.394180 0.228652 0.256056
0.446812 0.235792 0.264958
0.505390 0.242764 0.274316
0.571489 0.249696 0.284674
0.645895 0.256397 0.295897
0.726368 0.263169 0.308208
0.809892 0.271146 0.321725
0.892978 0.281374 0.336307
0.970350 0.293209 0.350667
1.000000 0.321168 0.375558
0.221559 0.265573 0.236405
0.227594 0.268258 0.238202
0.254212 0.263624 0.241225
0.290742 0.254831 0.246311
0.307492 0.259485 0.251385
0.358537 0.265180 0.244202
0.415420 0.257935 0.240568
0.472591 0.261568 0.248381
0.530412 0.266350 0.258833
0.594968 0.272039 0.270182
0.666844 0.278225 0.282026
0.744931 0.285203 0.295240
0.827449 0.293926 0.309928
0.910360 0.304802 0.325682
0.990594 0.318467 0.342662
1.000000 0.340839 0.365023
0.259299 0.302367 0.245633
0.266416 0.307190 0.250138
0.282972 0.302877 0.250684
0.308557 0.295203 0.252011
0.328978 0.294572 0.255938
0.346709 0.303869 0.263279
0.397223 0.318897 0.258960
0.472096 0.315215 0.244252
0.540636 0.306317 0.241533
0.615255 0.309784 0.248746
0.690657 0.313658 0.259592
0.766158 0.319319 0.274357
0.844513 0.326664 0.289757
0.923073 0.335498 0.305772
0.992671 0.343478 0.320571
1.000000 0.366790 0.347192
0.289433 0.342853 0.254512
0.295879 0.348942 0.258524
0.308136 0.344612 0.258689
0.328908 0.337179 0.259545
0.352341 0.329787 0.261835
0.369166 0.338972 0.268538
0.392015 0.351725 0.277377
0.442743 0.373183 0.279428
0.532320 0.379269 0.257124
0.615876 0.370257 0.244643
0.697196 0.363849 0.244297
0.783052 0.368269 0.251494
0.868332 0.373276 0.261216
0.946733 0.380648 0.279135
1.000000 0.389045 0.298408
1.000000 0.402115 0.322016
0.316396 0.381074 0.261813
0.322920 0.387761 0.265612
0.332805 0.384249 0.266019
0.350515 0.377765 0.266959
0.373295 0.368783 0.268759
0.392473 0.372237 0.273895
