assets/lut/editingcorpw Harvest Highlight.cube
LUT_3D_SIZE 16
DOMAIN_MIN 0.0 0.0 0.0
DOMAIN_MAX 1.0 1.0 1.0
0.125490 0.117647 0.137255
0.152941 0.117647 0.133333
0.181177 0.117647 0.137255
0.221961 0.120785 0.140392
0.259608 0.120000 0.136470
0.313725 0.121569 0.137255
0.378823 0.123922 0.149804
0.440785 0.120000 0.145882
0.522353 0.120000 0.155294
0.592157 0.117647 0.152941
0.682353 0.109804 0.152941
0.749804 0.112157 0.152941
0.816470 0.112941 0.156863
0.885490 0.112941 0.163137
0.951373 0.117647 0.175686
0.996078 0.125490 0.176471
0.137255 0.138824 0.136470
0.155055 0.143836 0.139063
0.181961 0.141176 0.138823
0.219817 0.140967 0.141281
0.265882 0.140392 0.141176
0.316078 0.140392 0.142745
0.374117 0.140870 0.147690
0.443922 0.145882 0.151373
0.522353 0.141856 0.150484
0.600784 0.144314 0.154510
0.676078 0.139608 0.154510
0.749565 0.141177 0.160613
0.822745 0.145098 0.161568
0.889307 0.144209 0.166065
0.952941 0.148235 0.169412
0.997647 0.158432 0.184314
0.145098 0.169412 0.136471
0.155294 0.169412 0.141176
0.186308 0.171764 0.147519
0.224314 0.171764 0.147451
0.268236 0.172549 0.146771
0.315294 0.174117 0.145882
0.381176 0.175686 0.152941
0.447978 0.175327 0.149737
0.525490 0.178824 0.154510
0.599895 0.182641 0.157543
0.674510 0.182745 0.154510
0.747451 0.182745 0.156078
0.823103 0.183888 0.158364
0.884706 0.186667 0.167843
0.952941 0.186772 0.173909
0.996862 0.190588 0.184314
0.145098 0.210196 0.149019
0.162666 0.213124 0.149020
0.189804 0.211765 0.151373
0.227810 0.212191 0.151731
0.271373 0.213333 0.153726
0.324706 0.221176 0.155294
0.386562 0.216470 0.159006
0.453334 0.224314 0.158431
0.530622 0.228661 0.156370
0.607059 0.230588 0.160000
0.680784 0.236078 0.163922
0.747451 0.233151 0.164131
0.825883 0.237647 0.169412
0.891765 0.242779 0.170554
0.952941 0.242353 0.167843
0.996862 0.250196 0.181176
0.144314 0.265098 0.156078
0.175686 0.261961 0.156863
0.196078 0.262379 0.157961
0.235294 0.263530 0.156863
0.273965 0.264075 0.161330
0.332549 0.263529 0.161569
0.392941 0.268236 0.161569
0.459503 0.281464 0.163712
0.529412 0.282353 0.159216
0.608627 0.288389 0.165012
0.683922 0.292549 0.162353
0.752941 0.294117 0.163922
0.821385 0.294902 0.166274
0.891765 0.296471 0.172549
0.958260 0.298517 0.181894
0.996078 0.306667 0.189804
0.152941 0.321569 0.152941
0.174902 0.327843 0.163921
0.201568 0.320000 0.156078
0.239215 0.326274 0.165490
0.294117 0.325490 0.168627
0.345098 0.325490 0.160784
0.403137 0.325490 0.162353
0.467451 0.330196 0.161568
0.539608 0.342745 0.161568
0.614902 0.348235 0.166274
0.682353 0.352941 0.168627
0.752941 0.352941 0.164706
0.819608 0.356863 0.163922
0.888627 0.356863 0.170196
0.947451 0.362353 0.182745
0.992157 0.364706 0.184314
0.138823 0.396862 0.161569
0.166036 0.397953 0.154749
0.198431 0.400000 0.156863
0.243242 0.399320 0.160889
0.292549 0.400000 0.160000
0.355294 0.400784 0.163137
0.414663 0.400545 0.164706
0.475294 0.403921 0.163137
0.547451 0.412445 0.166274
0.614118 0.415686 0.165490
0.686275 0.419608 0.160000
0.753725 0.423835 0.165251
0.825883 0.423529 0.170980
0.888837 0.423739 0.177464
0.950588 0.428235 0.186667
1.000000 0.429804 0.204706
0.134118 0.470589 0.160000
0.155294 0.472941 0.160000
0.194084 0.474577 0.158790
0.251765 0.473726 0.161568
0.298039 0.473830 0.163503
0.360784 0.476079 0.163137
0.425098 0.475294 0.160784
0.489838 0.479641 0.165916
0.552157 0.479216 0.163922
0.619503 0.484706 0.162824
0.687844 0.487843 0.164706
0.752157 0.490196 0.169412
0.822812 0.488201 0.177972
0.883137 0.494118 0.184314
0.946196 0.493124 0.195189
0.993726 0.491765 0.203922
0.102745 0.542745 0.141177
0.135111 0.552261 0.154405
0.187451 0.552157 0.157647
0.235944 0.553008 0.156370
0.298039 0.551372 0.157647
0.357647 0.548235 0.160000
0.428235 0.553726 0.161673
0.487059 0.552157 0.158431
0.555361 0.557714 0.166274
0.618824 0.553725 0.165490
0.690980 0.556863 0.170980
0.756863 0.559215 0.177255
0.820392 0.558431 0.181176
0.883496 0.556863 0.186666
0.945098 0.557647 0.202353
1.000000 0.563922 0.229020
0.083922 0.622745 0.157647
0.129412 0.623529 0.162353
0.172549 0.622850 0.162039
0.233726 0.623529 0.158431
0.295686 0.622745 0.162420
0.358431 0.620392 0.158431
0.425882 0.626667 0.165490
0.490876 0.627346 0.170091
0.560784 0.625098 0.172549
0.624075 0.624314 0.172310
0.689412 0.622745 0.181177
0.752941 0.625098 0.185882
0.819033 0.626196 0.198431
0.881569 0.625098 0.214118
0.937733 0.627212 0.228235
0.990588 0.624314 0.247843
0.066667 0.701961 0.164706
0.123137 0.693333 0.172549
0.164706 0.697255 0.163137
0.218039 0.694118 0.163137
0.293334 0.695686 0.174902
0.360784 0.698039 0.176471
0.423530 0.694118 0.182745
0.494118 0.690196 0.188235
0.556863 0.690196 0.191373
0.626667 0.695686 0.198431
0.694118 0.698039 0.200000
0.755294 0.692549 0.208628
0.822745 0.696470 0.227451
0.882353 0.690196 0.230589
0.936470 0.691765 0.247843
1.000000 0.694118 0.290196
0.088627 0.762353 0.190588
0.135208 0.758738 0.194749
0.170980 0.761569 0.192157
0.233726 0.761360 0.192837
0.298823 0.760785 0.200784
0.361569 0.760785 0.199216
0.424792 0.759216 0.203376
0.487059 0.763137 0.203921
0.556549 0.760889 0.216052
0.621177 0.760784 0.225098
0.687843 0.761568 0.231373
0.746361 0.756863 0.233180
0.812549 0.760785 0.240784
0.879791 0.757647 0.259190
0.931764 0.760784 0.278431
0.995294 0.757647 0.308235
0.134117 0.822745 0.227451
0.162353 0.821961 0.229804
0.203496 0.825882 0.230521
0.252549 0.821961 0.236079
0.307660 0.824209 0.235870
0.367843 0.819608 0.233726
0.431373 0.821961 0.243137
0.494185 0.823955 0.247843
0.553725 0.823529 0.255686
0.617359 0.817464 0.254327
0.681569 0.820392 0.265883
0.749020 0.821961 0.276078
0.811474 0.820034 0.282779
0.872157 0.819608 0.297255
0.939503 0.824889 0.322248
0.991373 0.827451 0.340392
0.203137 0.872941 0.280785
0.220392 0.879738 0.288732
0.247059 0.887843 0.286275
0.289905 0.885849 0.280717
0.337255 0.884706 0.287843
0.386666 0.885490 0.290196
0.440314 0.888523 0.294222
0.497255 0.885490 0.297255
0.560426 0.886342 0.300818
0.621176 0.883137 0.312157
0.681569 0.883137 0.325490
0.744523 0.883137 0.328732
0.809412 0.883922 0.338823
0.867944 0.882420 0.349020
0.924706 0.883137 0.360784
0.981961 0.890196 0.384314
0.280784 0.938039 0.344314
0.294902 0.944314 0.345098
0.308863 0.940758 0.348654
0.345882 0.941177 0.352941
0.379847 0.939608 0.347212
0.426666 0.939608 0.352941
0.473725 0.941176 0.364706
0.525490 0.940967 0.370092
0.585098 0.941176 0.375686
0.636556 0.940392 0.376710
0.695686 0.938039 0.385882
0.752157 0.938039 0.401569
0.808628 0.937359 0.413647
0.866667 0.939608 0.428235
0.923749 0.938517 0.443989
0.981177 0.940392 0.465883
0.372549 1.000000 0.435294
0.390588 0.993725 0.425098
0.404706 0.992157 0.437647
0.426667 0.992157 0.434510
0.451765 0.993725 0.434510
0.478431 0.992157 0.443137
0.524706 0.992157 0.450196
0.573333 0.993726 0.456471
0.620392 0.993726 0.462745
0.669020 0.992157 0.467451
0.717647 0.988235 0.482353
0.765491 0.992157 0.494118
0.820392 0.989804 0.501961
0.870588 0.992941 0.527059
0.928628 0.993725 0.537255
0.976471 0.992157 0.552941
0.129412 0.120000 0.163922
0.154271 0.115294 0.159694
0.179608 0.118431 0.159215
0.213647 0.120889 0.165490
0.257255 0.122353 0.166275
0.309804 0.123137 0.163921
0.373094 0.119455 0.164400
0.443922 0.119216 0.171765
0.519686 0.115398 0.174693
0.592941 0.107451 0.171765
0.672157 0.105098 0.178039
0.748848 0.094596 0.179369
0.820392 0.095687 0.179608
0.884915 0.097255 0.180496
0.947451 0.104313 0.185098
0.994510 0.116863 0.195294
0.137016 0.141177 0.157408
0.156528 0.138832 0.161549
0.186667 0.139234 0.163443
0.219996 0.140993 0.161243
0.260392 0.144007 0.168149
0.314988 0.142984 0.174663
0.376232 0.142248 0.172358
0.447604 0.141415 0.172482
0.523989 0.140019 0.175552
0.597954 0.134663 0.171936
0.675294 0.134902 0.176403
0.749374 0.131191 0.179369
0.820392 0.130741 0.179608
0.886430 0.132394 0.184075
0.952941 0.136709 0.190827
0.992396 0.150349 0.195227
0.139608 0.170196 0.161569
0.156011 0.168254 0.168695
0.182678 0.172190 0.159933
0.224209 0.169516 0.168366
0.267556 0.170771 0.170301
0.317647 0.172549 0.167059
0.378039 0.172004 0.170981
0.448695 0.178465 0.174768
0.521464 0.174902 0.173438
0.599216 0.173908 0.176261
0.671373 0.178039 0.178823
0.746973 0.174357 0.174357
0.818824 0.176471 0.182319
0.880418 0.176836 0.183634
0.948235 0.178824 0.188915
1.000000 0.189804 0.202353
0.143843 0.213228 0.170510
0.164509 0.211732 0.171231
0.190588 0.213124 0.170196
0.227514 0.212444 0.171741
0.272941 0.212444 0.175216
0.322562 0.214902 0.175373
0.387044 0.216806 0.175167
0.453543 0.220967 0.175791
0.527461 0.225082 0.177932
0.607059 0.224314 0.178510
0.679895 0.231164 0.179713
0.748727 0.230505 0.183887
0.821856 0.229699 0.181176
0.888756 0.234855 0.181105
0.954510 0.236654 0.188915
1.000000 0.241569 0.201255
0.144314 0.263529 0.175686
0.167059 0.261894 0.174902
0.194405 0.263739 0.180706
0.230693 0.263529 0.176261
0.276624 0.263769 0.177561
0.330196 0.265098 0.178039
0.392941 0.270282 0.176777
0.460392 0.275869 0.180340
0.533908 0.279216 0.183320
0.608866 0.285662 0.185165
0.684706 0.289412 0.181961
0.756079 0.288628 0.183769
0.822641 0.289307 0.183320
0.888523 0.292444 0.188915
0.951134 0.296164 0.199694
1.000000 0.298824 0.202353
0.141961 0.318431 0.174118
0.163921 0.321330 0.187585
0.192941 0.327059 0.183529
0.237542 0.325281 0.175895
0.287059 0.326275 0.181961
0.341176 0.330196 0.181177
0.402898 0.332071 0.182506
0.472157 0.334117 0.182745
0.541176 0.344209 0.181176
0.610196 0.343529 0.181961
0.680784 0.349020 0.180392
0.754988 0.351066 0.186188
0.822745 0.352941 0.185882
0.893333 0.356758 0.186980
0.948235 0.359216 0.195294
1.000000 0.363137 0.202353
0.130196 0.397886 0.182573
0.158642 0.395390 0.180670
0.193487 0.397580 0.179608
0.239371 0.398389 0.178468
0.293027 0.394442 0.181722
0.346839 0.397647 0.180938
0.408417 0.396815 0.177896
0.474988 0.403922 0.180564
0.541592 0.410172 0.176496
0.613879 0.412243 0.177972
0.684945 0.412004 0.181722
0.751497 0.421674 0.180822
0.816949 0.422506 0.188235
0.884894 0.424892 0.199866
0.949871 0.426667 0.210196
0.999522 0.430588 0.218278
0.110588 0.468236 0.177255
0.144074 0.475055 0.173572
0.185098 0.471731 0.176471
0.241569 0.474405 0.178039
0.297830 0.473516 0.178614
0.356078 0.472941 0.177255
0.419302 0.474749 0.180325
0.486700 0.476079 0.179742
0.550483 0.478536 0.177935
0.616470 0.481778 0.179189
0.687843 0.487059 0.187451
0.757169 0.488627 0.190827
0.823955 0.487843 0.196079
0.888627 0.489412 0.203712
0.951477 0.492340 0.214484
0.997647 0.494902 0.223530
0.091974 0.548026 0.175268
0.124053 0.551184 0.175027
0.175791 0.551373 0.172654
0.236508 0.551581 0.176557
0.296471 0.549908 0.178614
0.354719 0.553621 0.183529
0.423970 0.550328 0.185522
0.486274 0.552732 0.177725
0.554238 0.554598 0.180223
0.619137 0.553725 0.183634
0.688523 0.558327 0.187660
0.752148 0.555429 0.192647
0.817360 0.559111 0.197856
0.881376 0.557838 0.212232
0.945621 0.558222 0.233046
0.994039 0.560104 0.239425
0.069804 0.621176 0.181961
0.112396 0.624792 0.184381
0.167529 0.622850 0.181438
0.226667 0.625098 0.178719
0.287843 0.623768 0.181483
0.355294 0.621961 0.182745
0.424142 0.623290 0.187996
0.490510 0.625778 0.192052
0.556863 0.621281 0.192941
0.627451 0.624553 0.197714
0.692549 0.626667 0.203922
0.754204 0.627451 0.208082
0.821961 0.627922 0.219503
0.879791 0.624993 0.229385
0.945882 0.630350 0.245490
0.995294 0.632157 0.264314
0.065882 0.694902 0.198431
0.108474 0.693094 0.189565
0.155294 0.694902 0.189020
0.223425 0.696262 0.196915
0.285490 0.693333 0.193726
0.349020 0.694902 0.194510
0.418278 0.692549 0.200612
0.488627 0.694118 0.203921
0.553359 0.693438 0.206589
0.621176 0.696471 0.210196
0.688628 0.694118 0.215686
0.755055 0.694902 0.224553
0.819608 0.692549 0.241569
0.881464 0.694798 0.250772
0.943529 0.689412 0.262745
0.995294 0.698039 0.297255
0.082659 0.758977 0.209277
0.126150 0.759952 0.213764
0.168560 0.761091 0.207708
0.230939 0.760221 0.216474
0.290980 0.757580 0.217733
0.358738 0.759216 0.223052
0.426523 0.758881 0.222439
0.489345 0.758192 0.224486
0.553282 0.761866 0.234073
0.616949 0.756557 0.234203
0.686036 0.757886 0.243377
0.749259 0.758125 0.253477
0.813333 0.756011 0.260938
0.879740 0.759362 0.271185
0.941005 0.757341 0.293811
0.998431 0.757034 0.317341
0.130196 0.823529 0.242353
0.161262 0.825404 0.251354
0.201927 0.823888 0.250980
0.250196 0.823529 0.250092
0.309804 0.821961 0.254013
0.369411 0.821961 0.254902
0.431918 0.823291 0.257800
0.489344 0.827025 0.261893
0.553725 0.821961 0.267556
0.617935 0.823425 0.275085
0.683137 0.822745 0.283137
0.746666 0.823530 0.295754
0.807911 0.822028 0.302812
0.871843 0.822640 0.310693
0.934327 0.824889 0.331765
0.992157 0.823529 0.353725
0.197856 0.881569 0.292549
0.214167 0.883994 0.296584
0.252758 0.884131 0.294641
0.288944 0.882374 0.296297
0.338039 0.882248 0.301281
0.386876 0.881569 0.303059
0.444026 0.881212 0.302434
0.498928 0.884915 0.311686
0.559045 0.881929 0.313571
0.621072 0.881673 0.324131
0.681569 0.883242 0.331085
0.745098 0.880114 0.338287
0.807634 0.882353 0.354510
0.860310 0.882820 0.361310
0.919320 0.883137 0.379712
0.980235 0.884497 0.401673
0.283137 0.941176 0.354510
0.293640 0.940086 0.353247
0.311947 0.942275 0.358850
0.346667 0.938928 0.364706
0.381894 0.937800 0.361023
0.429804 0.941961 0.365490
0.475533 0.940870 0.371526
0.530300 0.940967 0.374327
0.582745 0.938510 0.388026
0.635055 0.940153 0.391918
0.692549 0.939608 0.400784
0.748235 0.939608 0.412549
0.805490 0.941176 0.420392
0.864000 0.939608 0.430693
0.920478 0.940459 0.453879
0.975686 0.937255 0.474510
0.383529 0.994510 0.435294
0.389020 0.992941 0.436079
0.408627 0.996862 0.443921
0.429020 0.995974 0.442562
0.458824 0.993725 0.446275
0.487059 0.996078 0.456471
0.528934 0.993725 0.456232
0.576471 0.993725 0.462745
0.622641 0.989908 0.468340
0.672941 0.993725 0.479216
0.721569 0.992157 0.494118
0.775447 0.991918 0.502984
0.825098 0.992941 0.513725
0.875503 0.994510 0.530091
0.926274 0.994510 0.547451
0.973333 0.992157 0.570196
0.129412 0.116863 0.189020
0.155294 0.117647 0.186667
0.177972 0.118431 0.189378
0.216471 0.123922 0.192157
0.260183 0.124810 0.194614
0.310588 0.125490 0.200784
0.373333 0.120784 0.202353
0.444773 0.110946 0.203922
0.520784 0.097255 0.200000
0.599895 0.087164 0.202457
0.673725 0.073726 0.199216
0.748235 0.069020 0.210196
0.822386 0.065524 0.207776
0.891765 0.067451 0.214902
0.955974 0.079216 0.217934
1.000000 0.090196 0.231373
0.138039 0.140392 0.189020
0.152500 0.138823 0.195772
0.181244 0.142812 0.198499
0.213908 0.143530 0.192418
0.258144 0.141752 0.198327
0.313725 0.140392 0.199216
0.377016 0.138278 0.200239
0.446700 0.132123 0.201927
0.516967 0.126849 0.206850
0.597752 0.118536 0.204026
0.673725 0.112157 0.207059
0.747996 0.110588 0.207843
0.818824 0.110880 0.210622
0.890091 0.112052 0.217255
0.955085 0.116863 0.219817
0.993726 0.130981 0.225098
0.138980 0.168695 0.197221
0.157513 0.167485 0.191373
0.183673 0.172042 0.199417
0.218039 0.170913 0.195787
0.263680 0.167159 0.198136
0.311731 0.175328 0.200000
0.375328 0.168695 0.199574
0.448767 0.168910 0.208054
0.522061 0.165199 0.203137
0.593300 0.164647 0.201398
0.669087 0.162353 0.201994
0.746308 0.160067 0.207552
0.820397 0.160637 0.207852
0.883070 0.162420 0.213916
0.951417 0.172582 0.219739
0.996369 0.179675 0.231305
0.145882 0.206275 0.193725
0.163137 0.212235 0.199216
0.186308 0.209053 0.200426
0.223171 0.211048 0.200851
0.266980 0.207477 0.200314
0.322353 0.210980 0.203137
0.385778 0.209307 0.204706
0.452975 0.215686 0.207059
0.523989 0.214902 0.206275
0.602928 0.215686 0.206170
0.680000 0.217255 0.202353
0.749229 0.221072 0.210301
0.816045 0.220460 0.209838
0.885490 0.219608 0.212616
0.951477 0.225987 0.220706
0.997647 0.234510 0.221961
0.141385 0.257255 0.202458
0.156968 0.259399 0.196967
0.190551 0.263611 0.205020
0.227033 0.258248 0.204340
0.275336 0.259420 0.202949
0.326484 0.262745 0.200314
0.390798 0.267660 0.202562
0.456175 0.270989 0.205466
0.533908 0.276079 0.209621
0.603771 0.276091 0.208934
0.680784 0.275294 0.211765
0.751372 0.283817 0.208732
0.822306 0.285365 0.214521
0.887268 0.284601 0.217935
0.949690 0.287777 0.225863
0.993150 0.302170 0.228654
0.123137 0.318431 0.202353
0.152941 0.320784 0.209412
0.184740 0.324347 0.202711
0.232941 0.323921 0.207059
0.282719 0.321464 0.208314
0.337255 0.326274 0.209412
0.396863 0.327059 0.208627
0.460392 0.334117 0.205132
0.534902 0.337255 0.205490
0.607948 0.342745 0.210301
0.679215 0.347451 0.212549
0.750588 0.346667 0.213333
0.819967 0.347451 0.214118
0.880000 0.353726 0.221961
0.951634 0.357856 0.232575
0.996078 0.360000 0.235294
0.105098 0.393725 0.206275
0.139914 0.396078 0.205968
0.182387 0.392090 0.204997
0.231268 0.393725 0.204026
0.287843 0.396078 0.205961
0.341961 0.396863 0.207059
0.408388 0.397886 0.205968
0.475653 0.402286 0.210622
0.541856 0.406954 0.210301
0.613229 0.411190 0.210405
0.687059 0.409412 0.213333
0.754749 0.415141 0.215141
0.822387 0.419608 0.221311
0.887059 0.420392 0.227346
0.950693 0.421072 0.236863
0.998431 0.425882 0.245490
0.085423 0.469020 0.207485
0.121860 0.474443 0.207776
0.168569 0.472865 0.210483
0.224672 0.473725 0.205849
0.285911 0.472878 0.211790
0.350521 0.473367 0.210196
0.416829 0.476437 0.210555
0.486552 0.476863 0.208269
0.553860 0.476863 0.207843
0.620185 0.480018 0.213738
0.686275 0.486342 0.222095
0.753725 0.484639 0.220325
0.820325 0.486848 0.223816
0.888627 0.484572 0.230521
0.948976 0.492041 0.243406
0.994017 0.500034 0.261894
0.048627 0.547451 0.200000
0.100601 0.550588 0.205595
0.156930 0.549020 0.204414
0.223306 0.552583 0.210980
0.286274 0.550588 0.208732
0.353725 0.550588 0.207059
0.424209 0.549804 0.211660
0.488627 0.554151 0.211698
0.555003 0.552157 0.213266
0.621856 0.555190 0.218823
0.686275 0.551372 0.221961
0.754719 0.553725 0.226667
0.818398 0.558431 0.229378
0.886700 0.557580 0.242779
0.945464 0.556183 0.260183
0.996862 0.560784 0.268235
0.029595 0.619608 0.212967
0.084706 0.624209 0.211399
0.151931 0.624951 0.205909
0.215686 0.618928 0.212340
0.282437 0.622539 0.215405
0.351477 0.620288 0.217151
0.422745 0.622850 0.218719
0.486891 0.622533 0.221642
0.553516 0.625987 0.225098
0.620204 0.625539 0.223580
0.689203 0.624314 0.227556
0.757229 0.623529 0.234039
0.826060 0.625143 0.244815
0.883713 0.626667 0.257464
0.944943 0.628164 0.270169
0.996078 0.629124 0.291451
0.023529 0.690980 0.222745
0.081569 0.694902 0.223529
0.156280 0.685356 0.219832
0.212549 0.694118 0.224314
0.290562 0.690510 0.227451
0.345882 0.694118 0.229019
0.416471 0.698039 0.231372
0.487484 0.694544 0.234151
0.549804 0.694118 0.235294
0.619503 0.694798 0.237647
0.683137 0.694118 0.247843
0.751373 0.694902 0.250980
0.818824 0.694118 0.267518
0.876863 0.693334 0.274510
0.941751 0.694118 0.294798
0.996078 0.698039 0.327843
0.065882 0.757647 0.244706
0.113554 0.762248 0.242286
0.164997 0.758790 0.241076
0.221490 0.756758 0.243555
0.284915 0.760314 0.246379
0.350588 0.759216 0.248628
0.419847 0.756385 0.249651
0.485849 0.755652 0.255686
0.549804 0.755294 0.258719
0.615895 0.758431 0.261072
0.684706 0.755294 0.269020
0.745815 0.757647 0.277886
0.811406 0.757289 0.291765
0.873046 0.759111 0.299608
0.930771 0.760000 0.323346
0.992157 0.760000 0.342745
0.121277 0.819967 0.283764
0.156504 0.817614 0.274936
0.195437 0.825376 0.276495
0.248627 0.823597 0.274868
0.306906 0.822724 0.280124
0.365983 0.820751 0.278432
0.432224 0.823529 0.286274
0.491048 0.820106 0.287131
0.549804 0.823238 0.296538
0.619146 0.820625 0.298782
0.684841 0.822386 0.309939
0.749938 0.823171 0.318498
0.813118 0.822458 0.326696
0.876571 0.824739 0.338173
0.932332 0.824699 0.354890
0.985031 0.824246 0.379541
0.200000 0.883137 0.324706
0.220131 0.886275 0.318484
0.247843 0.880000 0.320134
0.286275 0.879507 0.315227
0.335006 0.881098 0.320889
0.393725 0.883137 0.323922
0.445699 0.881569 0.326379
0.497972 0.879216 0.334543
0.558431 0.882353 0.339607
0.621281 0.880889 0.347556
0.683138 0.881569 0.354510
0.743634 0.880000 0.360000
0.804706 0.880000 0.373401
0.863955 0.880426 0.383529
0.923451 0.884811 0.399425
0.989020 0.889412 0.418039
0.283817 0.940183 0.382327
0.297725 0.936471 0.368994
0.313381 0.942089 0.374668
0.349334 0.941647 0.382065
0.390786 0.938501 0.387292
0.430693 0.938928 0.381961
0.473621 0.939712 0.389700
0.533124 0.938928 0.394761
0.587922 0.937255 0.400994
0.637248 0.941021 0.411941
0.692654 0.935791 0.413647
0.749699 0.937150 0.426196
0.810301 0.941793 0.438954
0.870588 0.938928 0.453543
0.922921 0.939297 0.466813
0.975582 0.942641 0.475398
0.392157 0.995294 0.457255
0.401568 0.994510 0.455686
0.412617 0.992874 0.460818
0.434510 0.989019 0.454902
0.464994 0.993725 0.463530
0.488628 0.996078 0.471372
0.530196 0.995294 0.473725
0.576896 0.992515 0.482712
0.626667 0.992157 0.487059
0.679686 0.992157 0.492549
0.724706 0.996078 0.506666
0.771765 0.994510 0.517647
0.818398 0.989445 0.519865
0.872157 0.989019 0.545098
0.930562 0.994405 0.565856
0.983530 0.995294 0.585098
0.129412 0.116863 0.226667
0.149908 0.116758 0.227451
0.177255 0.120785 0.227451
0.209345 0.121569 0.227025
0.260392 0.127059 0.234510
0.313725 0.122353 0.232157
0.373542 0.119216 0.241778
0.439216 0.108235 0.245490
0.520785 0.088986 0.250981
0.597647 0.059608 0.247059
0.686275 0.010981 0.249412
0.752052 0.009203 0.254797
0.818824 0.008628 0.248628
0.885849 0.010129 0.248919
0.956863 0.018039 0.259608
1.000000 0.052549 0.272157
0.137621 0.140863 0.229595
0.152474 0.142553 0.225536
0.181856 0.142850 0.234248
0.217059 0.143150 0.232726
0.260392 0.140863 0.231948
0.312157 0.143530 0.237751
0.372686 0.139292 0.242550
0.446170 0.129412 0.246954
0.524180 0.115869 0.246675
0.598850 0.094797 0.246588
0.677542 0.064889 0.248314
0.749792 0.057457 0.250428
0.817464 0.059660 0.251660
0.892424 0.062945 0.252333
0.958431 0.079006 0.262641
0.999320 0.099189 0.262536
0.138824 0.163922 0.232157
0.154039 0.170301 0.237438
0.179115 0.169904 0.234868
0.222745 0.166566 0.230163
0.267556 0.168157 0.235189
0.312941 0.169412 0.234510
0.374902 0.166849 0.240575
0.448269 0.159642 0.245423
0.523204 0.151014 0.244280
0.599321 0.139503 0.245490
0.673725 0.132549 0.244706
0.750483 0.131555 0.247530
0.820459 0.131406 0.250913
0.890331 0.135261 0.255843
0.954039 0.145098 0.262066
0.995294 0.162353 0.263529
0.137188 0.207059 0.234241
0.157268 0.209691 0.238478
0.185098 0.208269 0.238297
0.219832 0.207485 0.241636
0.270163 0.207709 0.245490
0.315227 0.210196 0.235944
0.388047 0.207885 0.242135
0.454969 0.206342 0.246274
0.524777 0.203491 0.248121
0.603922 0.203989 0.252975
0.682712 0.199642 0.248695
0.750988 0.200875 0.250571
0.821961 0.203989 0.254477
0.886925 0.208340 0.255269
0.951305 0.211339 0.265748
0.998073 0.221894 0.276213
0.141176 0.260392 0.243921
0.157177 0.254902 0.242719
0.186771 0.259712 0.245490
0.218465 0.260033 0.243496
0.270588 0.260153 0.238910
0.327843 0.259608 0.244706
0.390588 0.261176 0.245386
0.460967 0.264994 0.249987
0.531406 0.265950 0.252190
0.606036 0.266906 0.249479
0.680785 0.269020 0.252549
0.751582 0.270798 0.252863
0.823425 0.271268 0.257255
0.892908 0.276930 0.263955
0.951985 0.279149 0.263768
0.992941 0.289412 0.272157
0.126275 0.318431 0.252549
0.145360 0.321464 0.250667
0.172549 0.312157 0.247843
0.222028 0.324347 0.246633
0.272157 0.322353 0.245490
0.334117 0.323138 0.250196
0.400470 0.324810 0.249882
0.470588 0.327843 0.248627
0.539541 0.330981 0.243854
0.613333 0.336470 0.253334
0.679215 0.341176 0.253334
0.753516 0.339712 0.253438
0.823529 0.342745 0.260392
0.881009 0.345389 0.266734
0.952941 0.345098 0.274510
0.992941 0.353725 0.279216
0.079739 0.395085 0.248157
0.108387 0.394665 0.246811
0.158849 0.397020 0.246850
0.218527 0.393833 0.247906
0.281569 0.396078 0.247634
0.342431 0.396862 0.251660
0.409254 0.397647 0.254756
0.476967 0.400000 0.255477
0.544376 0.405832 0.253692
0.614118 0.406483 0.254327
0.687739 0.408732 0.255006
0.755941 0.410250 0.261907
0.824314 0.410196 0.263530
0.888220 0.414222 0.271373
0.952262 0.417935 0.279634
0.993255 0.424993 0.286275
0.010980 0.476078 0.243922
0.078379 0.473359 0.252549
0.141961 0.474219 0.252549
0.216740 0.470096 0.246207
0.280105 0.474301 0.253229
0.345882 0.472941 0.258040
