assets/lut/editingcorp maesky.cube
# Created by: G'MIC (https://gmic.eu)
TITLE "maesky"
# LUT size
LUT_3D_SIZE 5
# Data domain
DOMAIN_MIN 0.0 0.0 0.0
DOMAIN_MAX 1.0 1.0 1.0
# LUT data points
0.015148656442761421 0.038227111101150513 0.042390398681163788
0.14357955753803253 0.039845529943704605 0.043174460530281067
0.28983446955680847 0.041142676025629044 0.04873199388384819
0.51572388410568237 0.036076921969652176 0.045079696923494339
0.77096951007843018 0.084692023694515228 0.063421972095966339
0.026364987716078758 0.17541979253292084 0.048780538141727448
0.22965104877948761 0.20844261348247528 0.048269864171743393
0.54712980985641479 0.25333374738693237 0.05342571809887886
0.75517016649246216 0.27898511290550232 0.065217874944210052
0.93617981672286987 0.33144161105155945 0.14457528293132782
0.072615303099155426 0.3704468309879303 0.04957893118262291
0.3250548243522644 0.42919784784317017 0.10291524976491928
0.60993665456771851 0.47222051024436951 0.079159051179885864
0.90050327777862549 0.54528152942657471 0.12946505844593048
1 0.61697572469711304 0.2974143922328949
0.22927410900592804 0.56887960433959961 0.097306177020072937
0.43788045644760132 0.61696517467498779 0.15615980327129364
0.6773076057434082 0.69116723537445068 0.23613867163658142
0.91425621509552002 0.70934790372848511 0.25374197959899902
1 0.76965618133544922 0.34811317920684814
0.40342134237289429 0.79976576566696167 0.21848414838314056
0.5818132758140564 0.81706452369689941 0.24192957580089569
0.76128160953521729 0.9049033522605896 0.3704286515712738
0.97500383853912354 0.92248755693435669 0.43210688233375549
1 0.94527387619018555 0.45861038565635681
0.023270310834050179 0.041270911693572998 0.16809409856796265
0.18576814234256744 0.035285577178001404 0.20854304730892181
0.42175436019897461 0.044547855854034424 0.26081329584121704
0.63884067535400391 0.052531972527503967 0.29326832294464111
0.86625021696090698 0.15452815592288971 0.30456468462944031
0.016084125265479088 0.18426832556724548 0.19146814942359924
0.24712152779102325 0.25403961539268494 0.26009500026702881
0.55456793308258057 0.30378848314285278 0.30581855773925781
0.7821078896522522 0.35935434699058533 0.35391461849212646
0.94843268394470215 0.39996129274368286 0.3800671398639679
0.08060956746339798 0.40402007102966309 0.21625266969203949
0.32199680805206299 0.47212731838226318 0.30406498908996582
0.60652875900268555 0.56060397624969482 0.36621490120887756
0.88713806867599487 0.64342057704925537 0.43542516231536865
1 0.68087375164031982 0.52021306753158569
0.25883868336677551 0.60224348306655884 0.28865820169448853
0.44667047262191772 0.61519104242324829 0.33297067880630493
0.66078323125839233 0.71703767776489258 0.4670754075050354
0.92387092113494873 0.76481986045837402 0.49002352356910706
0.99997198581695557 0.8489641547203064 0.57906734943389893
0.39876705408096313 0.82249194383621216 0.39285469055175781
0.59795445203781128 0.82711887359619141 0.40018099546432495
0.7654653787612915 0.90545040369033813 0.53285109996795654
0.97685414552688599 0.95754903554916382 0.63111644983291626
0.99780046939849854 0.97995257377624512 0.69628703594207764
0.01233145035803318 0.02566109411418438 0.3195662796497345
0.19379761815071106 0.032012339681386948 0.41984760761260986
0.49962848424911499 0.034941237419843674 0.47385314106941223
0.70156753063201904 0.094462469220161438 0.5298425555229187
0.93809908628463745 0.24202947318553925 0.54522687196731567
0.015759920701384544 0.19349561631679535 0.41337099671363831
0.26375943422317505 0.27236136794090271 0.51063042879104614
0.56856095790863037 0.32191276550292969 0.55725204944610596
0.79288429021835327 0.39844256639480591 0.57606405019760132
0.99217438697814941 0.47615343332290649 0.61996209621429443
0.029669683426618576 0.42455676198005676 0.452797532081604
0.30270576477050781 0.52327382564544678 0.54778742790222168
0.61961120367050171 0.61893343925476074 0.62976336479187012
0.87065613269805908 0.64787483215332031 0.66051971912384033
1 0.69309276342391968 0.71301025152206421
0.21029001474380493 0.6427798867225647 0.49420028924942017
0.44248878955841064 0.6854056715965271 0.55027508735656738
0.65516602993011475 0.76639306545257568 0.64344942569732666
0.90124166011810303 0.83555960655212402 0.70411187410354614
0.99734199047088623 0.89498907327651978 0.77047526836395264
0.36171522736549377 0.84897834062576294 0.5647086501121521
0.59311944246292114 0.8733522891998291 0.59148114919662476
0.77969539165496826 0.89462190866470337 0.66303175687789917
0.96151226758956909 0.98109030723571777 0.84209001064300537
0.99843704700469971 1 0.87643551826477051
0.014267087914049625 0.025020718574523926 0.55655854940414429
0.2323090136051178 0.04328320175409317 0.61257410049438477
0.50282740592956543 0.029277188703417778 0.69055646657943726
0.74811559915542603 0.065920554101467133 0.69063681364059448
0.93775707483291626 0.25749474763870239 0.75184100866317749
0.04357268288731575 0.24270805716514587 0.61514002084732056
0.28973051905632019 0.29102066159248352 0.68775534629821777
0.58887398242950439 0.36044946312904358 0.76419299840927124
0.81227189302444458 0.40821200609207153 0.75837093591690063
0.99421113729476929 0.51214730739593506 0.7978740930557251
0.153006911277771 0.47755840420722961 0.70220065116882324
0.3769526481628418 0.54987841844558716 0.76224726438522339
0.6432759165763855 0.62744671106338501 0.83700430393218994
0.89335668087005615 0.66476744413375854 0.87870371341705322
0.9992254376411438 0.71458923816680908 0.89890497922897339
0.23654651641845703 0.6514359712600708 0.71336084604263306
0.42552453279495239 0.70818221569061279 0.7740333080291748
0.67028945684432983 0.79679697751998901 0.85242712497711182
0.91122245788574219 0.85413122177124023 0.9183771014213562
0.99730747938156128 0.88442337512969971 0.96012043952941895
0.30895799398422241 0.85912990570068359 0.74254679679870605
0.50666314363479614 0.89643853902816772 0.78876101970672607
0.74928790330886841 0.94292819499969482 0.84866613149642944
0.95331984758377075 0.99890851974487305 0.95577323436737061
0.99997901916503906 1 0.9898982048034668
0.039124209433794022 0.067558884620666504 0.80962955951690674
0.25054961442947388 0.091576501727104187 0.84227299690246582
0.50488966703414917 0.15884564816951752 0.94955134391784668
0.75218755006790161 0.1550041139125824 0.92889106273651123
0.96619600057601929 0.27711361646652222 0.93307381868362427
0.083338402211666107 0.3222622275352478 0.83340358734130859
0.30206507444381714 0.33487182855606079 0.86700236797332764
0.58843845129013062 0.4161740243434906 0.98571908473968506
0.78926104307174683 0.46874856948852539 0.9803307056427002
0.98798024654388428 0.50505059957504272 0.97463154792785645
0.22691135108470917 0.53702908754348755 0.92924529314041138
0.42082557082176208 0.59243243932723999 0.9580758810043335
0.66212409734725952 0.63603001832962036 0.99461895227432251
0.89316624402999878 0.70058631896972656 0.99982142448425293
0.99863910675048828 0.74288260936737061 0.99965327978134155
0.32986214756965637 0.7028350830078125 0.96927285194396973
0.50951880216598511 0.74190783500671387 0.99469786882400513
0.72245991230010986 0.80182623863220215 0.99998277425765991
0.93848097324371338 0.86124801635742188 1
0.99981158971786499 0.88159924745559692 1
0.38343155384063721 0.88567304611206055 0.98565125465393066
0.53397852182388306 0.91232216358184814 0.99578177928924561
0.73511123657226562 0.9488556981086731 1
0.95076459646224976 0.99877840280532837 0.99963569641113281
1 1 1
