assets/lut/editingcorpw Ivory Elegance.cube
LUT_3D_SIZE 16
DOMAIN_MIN 0.0 0.0 0.0
DOMAIN_MAX 1.0 1.0 1.0
0.140352 0.117037 0.139223
0.158571 0.119338 0.141133
0.217020 0.127846 0.147707
0.291521 0.137752 0.153469
0.362603 0.144991 0.154891
0.431159 0.152560 0.154574
0.506865 0.164175 0.154891
0.587353 0.183182 0.159719
0.666981 0.205722 0.165749
0.743221 0.230252 0.172085
0.813016 0.254826 0.179232
0.879710 0.278740 0.186508
0.947002 0.301903 0.194284
1.000000 0.323088 0.202737
1.000000 0.342211 0.212662
1.000000 0.363073 0.227695
0.150057 0.131874 0.142001
0.163927 0.130952 0.142758
0.218288 0.139679 0.148851
0.289718 0.148479 0.154526
0.359345 0.154769 0.156083
0.427893 0.160843 0.155495
0.503708 0.172002 0.155992
0.583293 0.189676 0.160919
0.662476 0.211295 0.166973
0.739223 0.234921 0.173384
0.810208 0.258872 0.180020
0.878078 0.282516 0.187211
0.945258 0.305051 0.194674
0.999990 0.325656 0.202888
1.000000 0.344129 0.212337
1.000000 0.365045 0.227536
0.183407 0.180416 0.153268
0.197327 0.180382 0.153540
0.231093 0.175088 0.155140
0.294244 0.182912 0.158617
0.361207 0.187727 0.159552
0.429706 0.192355 0.159701
0.506727 0.202942 0.161722
0.584624 0.218250 0.167321
0.663069 0.236915 0.172868
0.738933 0.257558 0.178601
0.809201 0.278556 0.184256
0.876504 0.299461 0.190735
0.944305 0.320190 0.197658
0.999976 0.339352 0.205517
1.000000 0.356682 0.214898
1.000000 0.375464 0.229148
0.219248 0.231443 0.164273
0.231713 0.232065 0.164380
0.260825 0.231459 0.164083
0.296645 0.220455 0.166846
0.361357 0.228255 0.168651
0.429157 0.238742 0.170315
0.502127 0.247603 0.173640
0.578184 0.260185 0.178486
0.655926 0.275560 0.182638
0.731875 0.292888 0.187046
0.803232 0.310765 0.191715
0.872137 0.328912 0.196905
0.940408 0.346884 0.202674
0.998526 0.363233 0.209291
1.000000 0.377911 0.217823
1.000000 0.395044 0.232083
0.261454 0.289116 0.180471
0.272613 0.291245 0.180896
0.297618 0.290299 0.180906
0.334494 0.289804 0.180595
0.367379 0.272851 0.185042
0.433393 0.282011 0.186600
0.502183 0.296281 0.189776
0.575590 0.310384 0.192886
0.652376 0.323972 0.195309
0.727700 0.338710 0.197743
0.798093 0.353375 0.201095
0.867211 0.368481 0.204767
0.936732 0.383907 0.209422
0.997568 0.397957 0.215468
1.000000 0.410073 0.223476
1.000000 0.423304 0.236179
0.301213 0.342504 0.196811
0.312481 0.348168 0.198044
0.334594 0.346068 0.198105
0.362707 0.344567 0.197360
0.401715 0.343175 0.196194
0.429633 0.321050 0.202365
0.499449 0.334667 0.204666
0.570416 0.352172 0.206827
0.645417 0.372741 0.207572
0.719515 0.387097 0.208664
0.790341 0.400305 0.210666
0.861210 0.414093 0.213254
0.931396 0.427430 0.216593
0.995410 0.438672 0.221787
1.000000 0.447932 0.228885
1.000000 0.458778 0.241581
0.343762 0.402612 0.212119
0.355407 0.411526 0.214454
0.375317 0.408632 0.214207
0.399037 0.405886 0.213174
0.431373 0.403458 0.211711
0.468904 0.398975 0.211032
0.496780 0.375022 0.217954
0.568226 0.390624 0.218933
0.641245 0.411431 0.219330
0.713891 0.432539 0.219382
0.783981 0.450489 0.219974
0.855078 0.463324 0.221482
0.926433 0.475585 0.224426
0.993861 0.485587 0.229319
1.000000 0.492578 0.236394
1.000000 0.499980 0.248478
0.382629 0.462440 0.223410
0.393384 0.472241 0.225135
0.410207 0.469698 0.225060
0.434420 0.466914 0.224383
0.462952 0.465417 0.222897
0.499348 0.464155 0.221128
0.534597 0.456002 0.222014
0.564639 0.431779 0.229681
0.637404 0.449520 0.228903
0.707170 0.469948 0.228844
0.777285 0.490498 0.229117
0.849568 0.511959 0.229510
0.921216 0.526017 0.231683
0.988347 0.534085 0.236195
1.000000 0.539663 0.243932
1.000000 0.545098 0.256492
0.419959 0.525566 0.230320
0.428577 0.533626 0.231381
0.443282 0.531731 0.231248
0.468697 0.529223 0.231105
0.494324 0.528396 0.229609
0.527471 0.527959 0.227891
0.566980 0.527891 0.225555
0.599822 0.515481 0.228871
0.632487 0.491761 0.237870
0.704124 0.509280 0.237240
0.773648 0.530364 0.237204
0.845749 0.551619 0.237609
0.917992 0.571081 0.239838
0.985888 0.585628 0.244796
1.000000 0.589693 0.253210
1.000000 0.593006 0.266868
0.457142 0.594067 0.234580
0.464542 0.601323 0.235587
0.477374 0.599205 0.235526
0.502538 0.596977 0.235401
0.527881 0.596831 0.234322
0.558605 0.597094 0.232468
0.595333 0.597241 0.230121
0.636491 0.596845 0.227008
0.665503 0.578193 0.233551
0.699013 0.553349 0.243958
0.770407 0.569775 0.243876
0.842859 0.591870 0.244643
0.914903 0.610741 0.247330
0.982566 0.625147 0.253124
1.000000 0.636256 0.263814
1.000000 0.641736 0.278624
0.493904 0.666896 0.236301
0.498354 0.669782 0.236772
0.510075 0.668275 0.236564
0.533422 0.667109 0.236521
0.561193 0.667042 0.235898
0.590356 0.668421 0.234134
0.625873 0.670137 0.231797
0.666792 0.671650 0.228763
0.711977 0.672871 0.224729
0.739595 0.649635 0.236234
0.775479 0.624140 0.248753
0.844895 0.635291 0.251683
0.916509 0.653382 0.255717
0.983575 0.666389 0.263102
1.000000 0.675673 0.275468
1.000000 0.682704 0.292241
0.533801 0.747054 0.237882
0.536654 0.747193 0.238034
0.547857 0.746588 0.237976
0.569659 0.745669 0.237982
0.600122 0.744662 0.237728
0.627088 0.745040 0.235758
0.660388 0.745501 0.233358
0.699433 0.745989 0.229992
0.743625 0.746526 0.225785
0.790900 0.745471 0.222333
0.817282 0.718813 0.238444
0.855067 0.692865 0.253816
0.919956 0.695973 0.262723
0.985509 0.707316 0.273136
1.000000 0.714951 0.287610
1.000000 0.720363 0.306011
0.576209 0.822397 0.246281
0.578869 0.822438 0.246336
0.589156 0.821866 0.246443
0.609485 0.820902 0.246364
0.640085 0.819474 0.246448
0.668604 0.819132 0.244950
0.700599 0.819188 0.242784
0.738602 0.819154 0.239839
0.782215 0.819161 0.236289
0.830782 0.818808 0.231822
0.877537 0.813169 0.230991
0.902221 0.784514 0.249583
0.938412 0.756644 0.267320
0.992764 0.749982 0.283768
1.000000 0.754340 0.301387
1.000000 0.758236 0.321862
0.620502 0.885997 0.268107
0.622871 0.885952 0.268138
0.632376 0.885417 0.268078
0.651174 0.884507 0.268214
0.679823 0.883156 0.268515
0.711452 0.881992 0.268211
0.741510 0.881540 0.266498
0.777493 0.880850 0.263998
0.818888 0.879925 0.261097
0.865276 0.878768 0.257450
0.916020 0.877336 0.253349
0.957863 0.866569 0.256944
0.981137 0.837688 0.274684
1.000000 0.808474 0.293092
1.000000 0.795191 0.314633
1.000000 0.795267 0.338396
0.666273 0.938677 0.307030
0.668810 0.938926 0.307977
0.677132 0.938278 0.307468
0.694122 0.937350 0.307589
0.720187 0.935992 0.308104
0.754268 0.934203 0.308629
0.781731 0.933495 0.307179
0.814825 0.932570 0.305293
0.853148 0.931381 0.302865
0.896152 0.929923 0.299962
0.943059 0.928197 0.296617
0.992351 0.926292 0.292817
1.000000 0.910910 0.299413
1.000000 0.882003 0.314441
1.000000 0.852550 0.331931
1.000000 0.835886 0.357384
0.712032 0.984741 0.357977
0.714034 0.984729 0.358459
0.721639 0.984326 0.358544
0.736831 0.983575 0.359063
0.760330 0.982428 0.360003
0.792142 0.980774 0.361395
0.820737 0.979730 0.360919
0.850559 0.978887 0.359325
0.885154 0.977893 0.357427
0.924010 0.976715 0.355218
0.966278 0.975433 0.352697
1.000000 0.974096 0.349926
1.000000 0.972924 0.346941
1.000000 0.953252 0.355749
1.000000 0.924523 0.369025
1.000000 0.895201 0.387610
0.142489 0.123042 0.157070
0.158246 0.122672 0.156552
0.212760 0.130726 0.161482
0.285250 0.142076 0.167803
0.355660 0.150180 0.169895
0.424079 0.158047 0.170407
0.499987 0.170416 0.172137
0.579288 0.189239 0.177695
0.657480 0.210134 0.182860
0.732993 0.232849 0.187831
0.803018 0.256107 0.192819
0.870741 0.279384 0.198408
0.939414 0.302394 0.204594
0.998511 0.323501 0.211483
1.000000 0.342539 0.219969
1.000000 0.362249 0.232676
0.146300 0.133617 0.156985
0.160958 0.135426 0.157080
0.213606 0.142919 0.162789
0.283526 0.151719 0.168305
0.352749 0.158629 0.170361
0.420710 0.166001 0.171132
0.496319 0.177764 0.173264
0.574610 0.195240 0.178649
0.653479 0.215459 0.183757
0.730234 0.237626 0.188571
0.801219 0.260447 0.193535
0.869749 0.283232 0.199057
0.937919 0.305523 0.204975
0.997493 0.325786 0.211378
1.000000 0.344413 0.219636
1.000000 0.364102 0.232251
0.172405 0.182666 0.166606
0.190879 0.182227 0.166932
0.228593 0.178160 0.168174
0.290170 0.185512 0.172195
0.355727 0.190540 0.174390
0.424495 0.196568 0.175902
0.500610 0.207678 0.179199
0.578143 0.222467 0.183979
0.655282 0.239870 0.188398
0.730825 0.259290 0.192621
0.801186 0.279360 0.196983
0.869391 0.299964 0.201884
0.938423 0.320797 0.207602
0.998151 0.339946 0.214119
1.000000 0.357229 0.222367
1.000000 0.375496 0.234900
0.213185 0.232462 0.177569
0.226111 0.233069 0.177901
0.257950 0.231963 0.177988
0.294127 0.222680 0.180214
0.357019 0.230733 0.183279
0.424128 0.240897 0.185297
0.496605 0.249816 0.188524
0.572151 0.262143 0.192638
0.648935 0.276749 0.196102
0.724670 0.293354 0.199147
0.796195 0.310669 0.202726
0.865730 0.328812 0.206956
0.934721 0.346785 0.211594
0.996405 0.363101 0.217138
1.000000 0.378161 0.224728
1.000000 0.394681 0.237172
0.258665 0.290400 0.192952
0.269467 0.292599 0.193555
0.296770 0.291190 0.193795
0.332702 0.290421 0.193149
0.365051 0.274311 0.196771
0.429704 0.283250 0.198485
0.497927 0.297370 0.201460
0.570859 0.310740 0.204088
0.646731 0.323751 0.206050
0.721675 0.338197 0.207939
0.792198 0.352697 0.210539
0.862055 0.367945 0.213539
0.932574 0.383761 0.217529
0.996147 0.398110 0.222909
1.000000 0.410410 0.230191
1.000000 0.423755 0.242055
0.299138 0.343737 0.206625
0.310015 0.349297 0.208120
0.333839 0.346811 0.208288
0.361686 0.345047 0.207065
0.399955 0.343426 0.205958
0.427686 0.321673 0.211093
0.495972 0.334753 0.213438
0.566008 0.351690 0.215384
0.640147 0.371458 0.216159
0.714141 0.385566 0.216920
0.785324 0.398913 0.218546
0.856627 0.413042 0.220779
0.927222 0.426594 0.223744
0.993591 0.438101 0.228240
1.000000 0.448300 0.235269
1.000000 0.458839 0.246744
0.341595 0.403653 0.220106
0.352889 0.411943 0.222338
0.373020 0.409125 0.222119
0.398148 0.406088 0.221087
0.430172 0.403509 0.219426
0.467688 0.399236 0.218354
0.495484 0.375415 0.224757
0.565999 0.390709 0.225773
0.638227 0.410977 0.226260
0.710386 0.431732 0.226329
0.780289 0.449279 0.226875
0.851861 0.462471 0.228207
0.923868 0.475215 0.230854
0.992061 0.485482 0.235431
1.000000 0.492904 0.242335
1.000000 0.500793 0.254199
0.380835 0.463547 0.229859
0.391479 0.473267 0.231864
0.408545 0.470822 0.231746
0.433993 0.467765 0.231007
0.462374 0.465964 0.229560
0.498318 0.464198 0.227420
0.533127 0.455712 0.227907
0.562408 0.431100 0.235125
0.634474 0.448426 0.234447
0.704083 0.468801 0.234502
0.774283 0.489599 0.234976
0.846786 0.511210 0.235363
0.918557 0.525190 0.237352
0.985845 0.533435 0.241506
1.000000 0.540253 0.249700
1.000000 0.545829 0.262112
0.418657 0.527257 0.235952
0.427736 0.536040 0.237293
0.442658 0.534398 0.237290
0.469238 0.531589 0.237063
0.494982 0.530504 0.235658
0.528132 0.529857 0.233769
0.567438 0.529412 0.231409
0.600011 0.516650 0.234320
0.631722 0.492116 0.242803
0.702579 0.508995 0.242293
0.771774 0.529872 0.242417
0.844072 0.551367 0.242886
0.916646 0.571129 0.245188
0.984758 0.585700 0.250112
1.000000 0.590281 0.258725
1.000000 0.593707 0.272132
0.455938 0.595524 0.239958
0.464006 0.604275 0.241274
0.477215 0.602617 0.241212
0.502540 0.600169 0.241077
0.528658 0.599323 0.240010
0.559064 0.598826 0.238098
0.595183 0.598023 0.235557
0.635765 0.596962 0.232296
0.664674 0.578150 0.238465
0.697923 0.553189 0.248379
0.769202 0.569670 0.248542
0.841569 0.591725 0.249473
0.913390 0.610508 0.252074
0.981995 0.625580 0.258185
1.000000 0.636859 0.268827
1.000000 0.642335 0.283642
0.492952 0.669056 0.241617
0.498507 0.673746 0.242519
0.510584 0.672682 0.242383
0.534115 0.671331 0.242251
0.562862 0.670811 0.241802
0.591919 0.671857 0.239963
0.627343 0.673041 0.237533
0.667777 0.673715 0.234347
0.712162 0.673823 0.230275
0.739279 0.650028 0.240973
0.774704 0.624201 0.253116
0.844141 0.635407 0.256110
0.915918 0.653673 0.260330
0.983081 0.666804 0.267898
1.000000 0.676246 0.280234
1.000000 0.683424 0.296971
0.532172 0.747347 0.242965
0.535497 0.748252 0.243355
0.546500 0.747188 0.243106
0.568295 0.746192 0.243157
0.599761 0.745420 0.243139
0.627150 0.746026 0.241406
0.660404 0.746327 0.238846
0.698998 0.746245 0.235348
0.743076 0.746586 0.231259
0.790466 0.745652 0.227655
0.816904 0.719097 0.243266
0.854649 0.693142 0.258112
0.919523 0.696292 0.267111
0.985146 0.707711 0.277535
1.000000 0.715425 0.291941
1.000000 0.720955 0.310378
0.574715 0.822676 0.251531
0.578471 0.824297 0.252774
0.588359 0.822964 0.252130
0.608324 0.821347 0.251661
0.638950 0.819875 0.251763
0.668231 0.819412 0.250438
0.700604 0.819914 0.248544
0.738970 0.820166 0.245871
0.782393 0.819872 0.242214
0.830564 0.819144 0.237592
0.877333 0.813518 0.236372
0.901922 0.784772 0.254338
0.938137 0.756943 0.271653
0.992459 0.750330 0.287965
1.000000 0.754765 0.305409
1.000000 0.758797 0.326095
0.619239 0.886231 0.273108
0.621742 0.886267 0.273332
0.631264 0.885773 0.273394
0.650127 0.884852 0.273420
0.678807 0.883469 0.273759
0.711155 0.882192 0.273387
0.741141 0.881679 0.271627
0.777102 0.880970 0.269241
0.818462 0.880036 0.266201
0.864853 0.878860 0.262685
0.915577 0.877391 0.258610
0.957607 0.866796 0.261973
0.980847 0.837934 0.279137
1.000000 0.808725 0.297147
1.000000 0.795547 0.318544
1.000000 0.795727 0.342205
0.665313 0.938827 0.311561
0.669626 0.940399 0.316233
0.677438 0.939359 0.314719
0.693652 0.937895 0.313233
0.719514 0.936348 0.313182
0.754120 0.934435 0.313778
0.781557 0.933706 0.312130
0.814565 0.932705 0.310069
0.852789 0.931446 0.307502
0.895762 0.929962 0.304593
0.942637 0.928234 0.301313
0.991983 0.926350 0.297558
1.000000 0.911111 0.303783
1.000000 0.882258 0.318527
1.000000 0.852832 0.335756
1.000000 0.836265 0.361091
0.711403 0.984839 0.362188
0.713340 0.984862 0.362778
0.721036 0.984475 0.362961
0.736170 0.983736 0.363426
0.759667 0.982561 0.364254
0.791519 0.980877 0.365600
0.820544 0.979791 0.365235
0.850313 0.978948 0.363495
0.884876 0.977923 0.361633
0.923698 0.976770 0.359372
0.965954 0.975463 0.356781
1.000000 0.974157 0.354031
1.000000 0.972979 0.351059
1.000000 0.953417 0.359637
1.000000 0.924756 0.372645
1.000000 0.895476 0.391003
0.149074 0.145223 0.210391
0.163147 0.143658 0.209934
0.212863 0.143543 0.209171
0.281229 0.146671 0.210326
0.346652 0.156333 0.207596
0.407281 0.181168 0.216697
0.483173 0.195617 0.222520
0.562018 0.210822 0.226915
0.640846 0.227532 0.229840
0.718969 0.246725 0.232063
0.791757 0.267448 0.234458
0.862044 0.289083 0.237096
0.932870 0.310885 0.240485
0.996453 0.331422 0.244866
1.000000 0.350114 0.250694
1.000000 0.369928 0.260972
0.151709 0.154476 0.207804
0.166110 0.154333 0.208349
0.212831 0.153242 0.207807
0.278321 0.158278 0.209073
0.341116 0.171117 0.210568
0.404977 0.188229 0.217691
0.480023 0.200451 0.222168
0.558241 0.215108 0.226545
0.638047 0.231742 0.229823
0.716586 0.250582 0.232119
0.790197 0.271117 0.234492
0.861018 0.292451 0.237241
0.931180 0.313707 0.240383
0.995384 0.333316 0.244311
1.000000 0.351750 0.250015
1.000000 0.371543 0.260356
0.169596 0.186380 0.212722
0.182250 0.188035 0.212926
0.223647 0.192217 0.211565
0.280138 0.197579 0.214513
0.341414 0.204780 0.218213
0.410460 0.213664 0.222365
0.484930 0.224229 0.226043
0.561896 0.237293 0.229696
0.640145 0.252252 0.232324
0.717973 0.269588 0.234340
0.790717 0.288206 0.236325
0.861223 0.307925 0.238844
0.932197 0.328099 0.242166
0.996187 0.346912 0.246328
1.000000 0.364087 0.252156
1.000000 0.382684 0.262616
0.197727 0.238263 0.219836
0.208523 0.239395 0.219286
0.248805 0.237504 0.217574
0.289143 0.233142 0.219007
0.346670 0.241350 0.223497
0.411722 0.249838 0.226796
0.483276 0.259239 0.230005
0.558914 0.270995 0.233174
0.636093 0.284517 0.235373
0.713602 0.300131 0.236960
0.786944 0.317015 0.238900
0.858275 0.334746 0.241221
0.928817 0.352559 0.244125
0.994524 0.368840 0.247737
1.000000 0.384090 0.253364
1.000000 0.400932 0.263883
0.243862 0.294451 0.229376
0.254757 0.296828 0.230830
0.287674 0.294339 0.230695
0.325683 0.292516 0.229757
0.358458 0.280359 0.231056
0.419293 0.289205 0.233880
0.486851 0.303230 0.236916
0.559768 0.314918 0.239119
0.636085 0.327699 0.240507
0.712268 0.341917 0.241508
0.784260 0.356495 0.243042
0.855636 0.372100 0.244999
0.927494 0.388156 0.247759
0.994531 0.402721 0.251739
1.000000 0.415381 0.257362
1.000000 0.429206 0.267633
0.286400 0.345092 0.236997
0.296871 0.350490 0.239645
0.322321 0.347975 0.239282
0.356046 0.345374 0.238359
0.393180 0.343985 0.236602
0.421735 0.325378 0.239585
0.488165 0.338182 0.242349
0.557786 0.355096 0.244585
0.631916 0.373636 0.245633
0.706737 0.387401 0.246140
0.778909 0.401160 0.247367
0.851167 0.415654 0.249059
0.922734 0.429616 0.251345
0.990065 0.441488 0.254748
1.000000 0.452366 0.260723
1.000000 0.463380 0.270988
0.329872 0.403993 0.246289
0.340539 0.411902 0.249137
0.361208 0.409145 0.248701
0.392871 0.405324 0.247747
0.424585 0.403140 0.245814
0.463133 0.400444 0.243966
0.490518 0.377714 0.248696
0.559750 0.392699 0.250337
0.631843 0.412834 0.251304
0.704356 0.433738 0.251733
0.774894 0.450341 0.252472
0.847427 0.464153 0.253771
0.920257 0.477404 0.256222
0.989078 0.488220 0.260282
1.000000 0.496156 0.266300
1.000000 0.504487 0.276967
0.370147 0.463734 0.252552
0.380400 0.473108 0.255129
0.398005 0.470870 0.254819
0.428845 0.467161 0.254308
0.457712 0.465450 0.252725
0.493454 0.463754 0.250579
0.529600 0.456863 0.249801
0.558324 0.432558 0.255688
0.629630 0.449618 0.255803
0.699435 0.470225 0.256484
0.770133 0.491414 0.257504
0.843103 0.513273 0.258606
0.915324 0.526785 0.260780
0.983277 0.535513 0.264600
1.000000 0.542969 0.272279
1.000000 0.549116 0.283797
0.409193 0.527701 0.256639
0.417784 0.536331 0.258383
0.433294 0.534546 0.258243
0.461962 0.531570 0.258016
0.490977 0.530158 0.256828
0.524168 0.529598 0.255018
0.563508 0.529202 0.252594
0.597151 0.517758 0.254286
0.628427 0.493265 0.261550
0.698748 0.510048 0.261833
0.768302 0.531250 0.262611
0.841059 0.553206 0.263977
0.914074 0.573403 0.266885
0.982554 0.587712 0.272023
1.000000 0.592578 0.280079
1.000000 0.596513 0.292720
0.447247 0.596077 0.259643
0.455317 0.604700 0.261414
0.468860 0.603116 0.261245
0.494747 0.600696 0.261017
0.525237 0.599159 0.260276
0.555571 0.598586 0.258369
0.591622 0.597710 0.255909
0.632209 0.596585 0.252715
0.662173 0.579061 0.257188
0.695271 0.554260 0.266091
0.766424 0.570969 0.267073
0.839097 0.593326 0.268745
0.911111 0.612385 0.271962
0.980056 0.627881 0.278451
1.000000 0.639552 0.289073
1.000000 0.644772 0.303198
0.485139 0.669649 0.261106
0.490804 0.674494 0.262209
0.503003 0.673304 0.262106
0.526954 0.671954 0.261957
0.559813 0.671090 0.261788
0.589099 0.672157 0.260203
0.624534 0.673293 0.258028
0.664889 0.673816 0.254955
0.709184 0.673698 0.251008
0.737141 0.650946 0.259738
0.772451 0.625245 0.270500
0.842010 0.636858 0.274106
0.914087 0.655414 0.278928
0.981421 0.668829 0.286745
1.000000 0.678579 0.299063
1.000000 0.686098 0.315453
0.524836 0.747832 0.262866
0.528518 0.749282 0.263528
0.539686 0.748144 0.263239
0.561903 0.747069 0.263149
0.595003 0.746012 0.263195
0.624410 0.746222 0.261791
0.657668 0.746409 0.259345
0.696306 0.746262 0.256097
0.740444 0.746629 0.252322
0.788499 0.746276 0.248514
0.815246 0.720174 0.262030
0.852870 0.694266 0.275629
0.917836 0.697724 0.284501
0.983634 0.709436 0.295121
1.000000 0.717438 0.309493
1.000000 0.723294 0.327705
0.568109 0.823099 0.271569
0.571649 0.824297 0.272544
0.581690 0.823106 0.271973
0.602034 0.821744 0.271609
0.633181 0.820346 0.271694
0.665815 0.819698 0.270938
0.698399 0.820326 0.269387
0.736766 0.820556 0.266936
0.780046 0.820061 0.263313
0.828191 0.819282 0.258930
0.875926 0.814395 0.257107
0.900600 0.785851 0.273142
0.936712 0.758142 0.288912
0.991013 0.751758 0.304547
1.000000 0.756524 0.321875
1.000000 0.760817 0.342294
0.613616 0.886631 0.292447
0.616086 0.886680 0.292741
0.625721 0.886189 0.292675
0.644713 0.885277 0.292746
0.673648 0.883898 0.293000
0.709003 0.882292 0.293023
0.739040 0.881811 0.291254
0.774994 0.881102 0.288954
0.816402 0.880182 0.286165
0.862787 0.879026 0.282902
0.913512 0.877611 0.279090
0.956371 0.867618 0.281463
0.979608 0.838910 0.296937
1.000000 0.809842 0.313480
1.000000 0.796953 0.334096
1.000000 0.797465 0.357477
0.660703 0.939119 0.329402
0.664728 0.940410 0.333320
0.672567 0.939428 0.331792
0.689034 0.938071 0.330588
0.715190 0.936649 0.330909
0.750494 0.934734 0.331542
0.779949 0.933794 0.330312
0.812900 0.932809 0.328291
0.851058 0.931560 0.325790
0.893964 0.930104 0.323052
0.940826 0.928405 0.319845
0.990430 0.926532 0.316213
1.000000 0.911882 0.321430
1.000000 0.883184 0.334937
1.000000 0.853976 0.351027
1.000000 0.837683 0.375533
0.707778 0.985083 0.378167
0.709818 0.985101 0.378719
0.717502 0.984717 0.378951
0.732697 0.983985 0.379320
0.756144 0.982828 0.380119
0.788034 0.981158 0.381238
0.819403 0.979834 0.381227
0.849101 0.979002 0.379712
0.883549 0.978015 0.377813
0.922294 0.976849 0.375619
0.964422 0.975579 0.373260
1.000000 0.974314 0.370588
1.000000 0.973150 0.367646
1.000000 0.954215 0.375291
1.000000 0.925708 0.387378
1.000000 0.896623 0.404803
0.142922 0.166525 0.270402
0.156592 0.164590 0.269922
0.206651 0.163140 0.269162
0.273610 0.164556 0.266462
0.338898 0.171499 0.264242
0.405920 0.182205 0.262797
0.477333 0.194530 0.262398
0.546785 0.226797 0.273507
0.622601 0.245933 0.279798
0.701919 0.262333 0.282243
0.777010 0.281047 0.283977
0.849987 0.301561 0.286088
0.923147 0.323034 0.288690
0.992632 0.343400 0.291812
1.000000 0.362323 0.296206
1.000000 0.383288 0.305004
0.148867 0.174429 0.265479
0.162318 0.174456 0.266939
0.207976 0.172174 0.265980
0.271994 0.174813 0.263660
0.335454 0.181376 0.262756
0.402561 0.190793 0.262203
0.472679 0.203824 0.263009
0.542993 0.232804 0.274079
0.620315 0.249778 0.279625
0.700037 0.265575 0.281843
0.775948 0.284220 0.283823
0.848925 0.304588 0.285966
0.921280 0.325342 0.288273
0.989703 0.344849 0.290919
1.000000 0.363822 0.295292
1.000000 0.384471 0.304056
0.173854 0.206577 0.267823
0.185990 0.208130 0.267523
0.223544 0.208742 0.265516
0.276611 0.208953 0.263725
0.337844 0.214825 0.265773
0.403825 0.222130 0.266103
0.471436 0.239596 0.272675
0.544787 0.253963 0.278264
0.622632 0.266949 0.281172
0.701845 0.282033 0.283105
0.776652 0.299522 0.284760
0.849628 0.318749 0.286849
0.922817 0.338769 0.289449
0.992222 0.357893 0.292691
1.000000 0.375502 0.297025
1.000000 0.395266 0.306146
0.204510 0.238607 0.264985
0.213062 0.240768 0.266288
0.241560 0.244927 0.266728
0.287772 0.251892 0.267453
0.340902 0.256041 0.268913
0.401317 0.262982 0.272177
0.469846 0.271912 0.275969
0.543576 0.282563 0.279434
0.620361 0.294778 0.281896
0.699099 0.309236 0.283725
0.774236 0.325715 0.285648
0.847359 0.343416 0.287686
0.919760 0.361408 0.289967
0.988152 0.378121 0.292674
1.000000 0.394308 0.297313
1.000000 0.412444 0.306625
0.229623 0.301576 0.283762
0.238500 0.304440 0.284813
0.265471 0.303429 0.279214
0.314428 0.300547 0.274726
0.352935 0.292904 0.273911
0.408889 0.300807 0.276718
0.474490 0.311373 0.279909
0.546253 0.321647 0.282489
0.622052 0.333786 0.284413
0.699056 0.347579 0.285836
0.772495 0.362315 0.287337
0.845819 0.378517 0.289422
0.919421 0.395259 0.292072
0.989062 0.410666 0.295507
1.000000 0.424230 0.300083
1.000000 0.439462 0.309349
0.261833 0.350353 0.279155
0.271006 0.355930 0.281789
0.297196 0.353835 0.280268
0.342995 0.349736 0.279318
0.383981 0.347510 0.277551
0.414960 0.333465 0.278294
0.477975 0.345532 0.281610
0.546504 0.361962 0.284666
0.620164 0.376816 0.286281
0.695724 0.390756 0.287526
0.768942 0.405078 0.289250
0.842483 0.420256 0.291245
0.915282 0.434987 0.293631
0.983907 0.447773 0.296616
1.000000 0.459879 0.302137
1.000000 0.472303 0.311479
0.305215 0.407119 0.283721
0.315178 0.414599 0.287235
0.337660 0.411817 0.286453
0.376521 0.407421 0.285393
0.415578 0.404287 0.283669
0.454673 0.402644 0.281328
0.483546 0.383146 0.283971
0.550629 0.397454 0.286676
0.622069 0.417185 0.288745
0.694785 0.437997 0.290366
0.766062 0.452657 0.291874
0.839896 0.467465 0.293907
0.913878 0.481724 0.296765
0.983752 0.493517 0.300786
1.000000 0.502475 0.306198
1.000000 0.512007 0.315953
0.347968 0.465812 0.287652
0.357651 0.474788 0.291007
0.376616 0.472627 0.290517
0.410819 0.468922 0.289754
0.449451 0.465716 0.288522
0.485074 0.464068 0.286312
