assets/lut/editingcorpw Moonlit Promise.cube
LUT_3D_SIZE 16
DOMAIN_MIN 0.0 0.0 0.0
DOMAIN_MAX 1.0 1.0 1.0
0.119814 0.114565 0.127840
0.137002 0.117068 0.129537
0.191074 0.126888 0.135689
0.260508 0.138161 0.141280
0.327935 0.147170 0.142318
0.394263 0.155673 0.141634
0.468947 0.167269 0.141866
0.549908 0.184268 0.146133
0.632154 0.202780 0.151962
0.714724 0.220420 0.158267
0.796017 0.234440 0.165866
0.876567 0.245694 0.173574
0.956738 0.255930 0.182193
1.000000 0.267082 0.191824
1.000000 0.280625 0.203024
1.000000 0.299748 0.219669
0.128176 0.128738 0.130318
0.141253 0.128217 0.131101
0.191719 0.137827 0.136772
0.258467 0.148074 0.142090
0.324662 0.155787 0.143424
0.390936 0.163155 0.142684
0.465780 0.174324 0.142879
0.545808 0.190215 0.147355
0.627513 0.208071 0.153352
0.710355 0.225189 0.159751
0.792843 0.238834 0.166769
0.874782 0.249908 0.174429
0.954847 0.259649 0.182681
1.000000 0.270326 0.192040
1.000000 0.283084 0.202731
1.000000 0.302104 0.219516
0.155385 0.175571 0.140664
0.169014 0.175842 0.140920
0.201820 0.171475 0.142569
0.261591 0.180248 0.145836
0.325800 0.186239 0.146600
0.392444 0.191855 0.146645
0.468689 0.202369 0.148355
0.547264 0.216226 0.153808
0.628394 0.231656 0.159306
0.710600 0.246435 0.165261
0.792417 0.258018 0.171255
0.873626 0.267309 0.178422
0.954351 0.275917 0.186090
1.000000 0.285441 0.195041
1.000000 0.297159 0.205696
1.000000 0.313958 0.221366
0.185653 0.225009 0.150924
0.198152 0.225714 0.151178
0.226830 0.225538 0.150863
0.262349 0.215628 0.153634
0.324974 0.224126 0.155352
0.391363 0.234757 0.156814
0.463972 0.243523 0.160105
0.540961 0.254893 0.165090
0.621456 0.267598 0.169506
0.703733 0.279959 0.174333
0.786722 0.289640 0.179568
0.869806 0.297268 0.185342
0.950993 0.304321 0.191940
1.000000 0.311778 0.199509
1.000000 0.321006 0.209152
1.000000 0.335845 0.224680
0.222983 0.280467 0.166983
0.234203 0.282701 0.167395
0.259514 0.281994 0.167315
0.296433 0.281865 0.167041
0.329553 0.266226 0.171631
0.394995 0.275334 0.173306
0.463960 0.288780 0.176677
0.538708 0.301482 0.180118
0.618644 0.312570 0.182981
0.700710 0.322897 0.186073
0.782846 0.330590 0.190018
0.866138 0.336578 0.194474
0.948588 0.342365 0.199900
1.000000 0.348516 0.206794
1.000000 0.355719 0.215824
1.000000 0.367034 0.229441
0.260197 0.331426 0.183719
0.271458 0.336846 0.185171
0.294340 0.334936 0.185208
0.322954 0.333660 0.184470
0.362463 0.332445 0.183316
0.390845 0.311894 0.189548
0.461298 0.324584 0.192215
0.533996 0.340264 0.195071
0.612549 0.357885 0.196518
0.693800 0.368243 0.198435
0.776608 0.375372 0.201175
0.861979 0.381232 0.204410
0.944878 0.386279 0.208390
1.000000 0.390875 0.214407
1.000000 0.396100 0.222183
1.000000 0.405554 0.235325
0.302135 0.387841 0.200741
0.314118 0.396192 0.203311
0.334816 0.393469 0.203097
0.359268 0.390902 0.202070
0.392401 0.388630 0.200603
0.430695 0.384362 0.199936
0.458841 0.362021 0.206645
0.532507 0.375849 0.208242
0.609479 0.393724 0.209606
0.690201 0.410571 0.210698
0.772939 0.422834 0.212095
0.858457 0.428903 0.214261
0.942236 0.434236 0.217798
1.000000 0.439053 0.223088
1.000000 0.443331 0.230465
1.000000 0.450159 0.242509
0.342541 0.443396 0.214207
0.353931 0.452477 0.216275
0.371413 0.450079 0.216155
0.396422 0.447430 0.215528
0.425853 0.445917 0.214033
0.463441 0.444489 0.212430
0.499651 0.436645 0.213164
0.529936 0.413899 0.220380
0.607060 0.429036 0.220524
0.685259 0.445563 0.221468
0.768563 0.460810 0.222647
0.856137 0.476126 0.223782
0.939659 0.485003 0.226179
1.000000 0.489577 0.230617
1.000000 0.493604 0.238150
1.000000 0.499196 0.250174
0.383038 0.502019 0.223624
0.392327 0.509510 0.225039
0.407624 0.507687 0.224893
0.434036 0.505200 0.224795
0.460621 0.504264 0.223339
0.495162 0.503624 0.221769
0.536569 0.503104 0.219555
0.570519 0.491059 0.222546
0.604061 0.468290 0.230921
0.685081 0.482327 0.231169
0.768191 0.498814 0.231925
0.855212 0.515316 0.232539
0.938920 0.531181 0.234605
1.000000 0.544074 0.238871
1.000000 0.547731 0.246517
1.000000 0.551916 0.259153
0.424390 0.566955 0.230338
0.432349 0.574029 0.231421
0.445785 0.571924 0.231385
0.472134 0.569662 0.231261
0.498776 0.569421 0.230264
0.531249 0.569494 0.228409
0.570747 0.569287 0.226141
0.616179 0.568272 0.223095
0.647316 0.549350 0.229275
0.683395 0.524235 0.239042
0.768417 0.537291 0.239121
0.855423 0.556077 0.239651
0.937797 0.572818 0.241468
0.999932 0.586794 0.246031
1.000000 0.599075 0.255102
1.000000 0.606317 0.268253
0.464240 0.640223 0.232181
0.469056 0.643201 0.232591
0.481678 0.641633 0.232383
0.506896 0.640363 0.232340
0.537353 0.640162 0.231717
0.569848 0.641444 0.229679
0.610138 0.642872 0.227243
0.657228 0.643910 0.224003
0.709926 0.644361 0.219657
0.740194 0.619361 0.231376
0.779873 0.591852 0.243717
0.861345 0.601081 0.245780
0.941485 0.618543 0.248142
1.000000 0.632258 0.253605
1.000000 0.643336 0.263810
1.000000 0.652796 0.278355
0.509599 0.725765 0.229221
0.512877 0.725916 0.229281
0.525689 0.725244 0.229193
0.550684 0.724176 0.229120
0.585848 0.722928 0.228626
0.617212 0.723207 0.226358
0.656111 0.723388 0.223506
0.701720 0.723532 0.219566
0.753083 0.723548 0.214618
0.807099 0.721801 0.210298
0.835489 0.691914 0.228415
0.876452 0.662732 0.244845
0.946360 0.665362 0.252182
1.000000 0.678269 0.260044
1.000000 0.688137 0.271956
1.000000 0.696107 0.287785
0.562439 0.809702 0.226768
0.565565 0.809769 0.226849
0.577742 0.809078 0.226849
0.601752 0.807902 0.226594
0.637743 0.806164 0.226402
0.671107 0.805618 0.224448
0.708199 0.805497 0.221554
0.751671 0.805302 0.217606
0.800518 0.805117 0.212813
0.853193 0.804685 0.206809
0.902116 0.798404 0.205612
0.927994 0.765672 0.229192
0.965068 0.734024 0.249956
1.000000 0.727179 0.265541
1.000000 0.733703 0.280592
1.000000 0.740084 0.298405
0.619354 0.881523 0.235306
0.622133 0.881450 0.235266
0.633265 0.880815 0.235127
0.655118 0.879717 0.235041
0.688053 0.878111 0.235083
0.723934 0.876701 0.234238
0.757404 0.876109 0.231726
0.796582 0.875325 0.228360
0.840429 0.874375 0.224320
0.887829 0.873352 0.219278
0.937615 0.872312 0.213474
0.977843 0.860855 0.218577
0.998440 0.828317 0.242637
1.000000 0.795436 0.265527
1.000000 0.781461 0.287464
1.000000 0.783230 0.308971
0.677132 0.939458 0.263188
0.680065 0.939720 0.264015
0.689318 0.938996 0.263463
0.708154 0.937922 0.263443
0.736688 0.936372 0.263671
0.773281 0.934356 0.263932
0.802138 0.933551 0.261975
0.836111 0.932579 0.259457
0.874384 0.931430 0.256238
0.915977 0.930180 0.252452
0.959899 0.928868 0.248051
1.000000 0.927593 0.243038
1.000000 0.911780 0.252141
1.000000 0.880654 0.272546
1.000000 0.848363 0.294365
1.000000 0.830490 0.320750
0.733028 0.986633 0.306615
0.735158 0.986621 0.307103
0.743093 0.986175 0.307188
0.758944 0.985327 0.307591
0.783096 0.984051 0.308348
0.815183 0.982269 0.309483
0.843406 0.981133 0.308812
0.872215 0.980279 0.306847
0.904899 0.979285 0.304527
0.940868 0.978229 0.301927
0.979309 0.977173 0.298894
1.000000 0.976147 0.295464
1.000000 0.975225 0.291881
1.000000 0.956341 0.302550
1.000000 0.927691 0.318963
1.000000 0.897246 0.340551
0.121016 0.120424 0.144802
0.136005 0.120483 0.144387
0.186771 0.129353 0.149037
0.254380 0.142104 0.155019
0.321061 0.151696 0.156934
0.387280 0.160457 0.157278
0.462038 0.172827 0.158777
0.541778 0.189869 0.164235
0.622302 0.207259 0.169408
0.703454 0.223775 0.174678
0.784359 0.237303 0.179977
0.865963 0.248102 0.186015
0.948063 0.257952 0.192864
1.000000 0.268520 0.200893
1.000000 0.281516 0.210584
1.000000 0.299144 0.224589
0.123646 0.130534 0.144648
0.137974 0.132343 0.144803
0.186922 0.140777 0.150215
0.252476 0.150897 0.155490
0.318184 0.159271 0.157332
0.383860 0.167642 0.158060
0.458378 0.179346 0.159943
0.537028 0.195281 0.165192
0.618202 0.212154 0.170356
0.700497 0.228499 0.175386
0.782403 0.241739 0.180732
0.864945 0.252159 0.186695
0.946454 0.261571 0.193350
1.000000 0.271544 0.200767
1.000000 0.283953 0.210226
1.000000 0.301385 0.224180
0.143914 0.177707 0.153705
0.162204 0.177584 0.153956
0.199053 0.174361 0.155203
0.257504 0.182570 0.159133
0.320346 0.188784 0.161174
0.387269 0.195545 0.162618
0.462559 0.206627 0.165869
0.540698 0.220165 0.170640
0.620338 0.234569 0.175250
0.701659 0.248644 0.179787
0.783046 0.259942 0.184485
0.865218 0.269012 0.189931
0.947645 0.277575 0.196425
1.000000 0.286807 0.203953
1.000000 0.298146 0.213317
1.000000 0.314196 0.227069
0.179194 0.225881 0.164177
0.192116 0.226686 0.164502
0.223788 0.226025 0.164629
0.259581 0.217791 0.166868
0.320531 0.226391 0.169847
0.386340 0.236760 0.171963
0.458405 0.245583 0.175180
0.534812 0.256756 0.179496
0.614187 0.268885 0.183329
0.695757 0.280855 0.186864
0.778476 0.290427 0.190875
0.862233 0.298158 0.195707
0.944501 0.305061 0.201146
1.000000 0.312276 0.207573
1.000000 0.321588 0.216222
1.000000 0.335640 0.229765
0.219812 0.281781 0.179503
0.230664 0.283932 0.180164
0.258402 0.282826 0.180431
0.294475 0.282454 0.179792
0.327173 0.267533 0.183501
0.391275 0.276459 0.185359
0.459681 0.289814 0.188646
0.533862 0.301841 0.191584
0.612719 0.312511 0.194056
0.693996 0.322748 0.196569
0.775913 0.330525 0.199761
0.860011 0.336729 0.203491
0.943843 0.342744 0.208173
1.000000 0.348988 0.214378
1.000000 0.356290 0.222565
1.000000 0.367503 0.235263
0.257743 0.332543 0.193826
0.268694 0.337886 0.195510
0.293377 0.335610 0.195629
0.321814 0.334097 0.194504
0.360616 0.332665 0.193471
0.388732 0.312444 0.198465
0.457737 0.324629 0.201217
0.529400 0.339843 0.203822
0.606995 0.356793 0.205385
0.687744 0.367083 0.206812
0.770669 0.374438 0.209153
0.856501 0.380681 0.212020
0.940100 0.385933 0.215715
1.000000 0.390588 0.220815
1.000000 0.396559 0.228573
1.000000 0.405683 0.240507
0.299864 0.388801 0.208824
0.311386 0.396570 0.211481
0.332379 0.393922 0.211234
0.358284 0.391081 0.210172
0.391100 0.388686 0.208545
0.429458 0.384601 0.207389
0.457513 0.362404 0.213565
0.530208 0.375930 0.215289
0.606276 0.393352 0.216677
0.686212 0.409966 0.217752
0.768502 0.421968 0.219117
0.854642 0.428379 0.221019
0.939359 0.434087 0.224228
1.000000 0.439090 0.229200
1.000000 0.443718 0.236304
1.000000 0.451032 0.248047
0.340632 0.444428 0.220753
0.351854 0.453446 0.223187
0.369628 0.451110 0.223049
0.395997 0.448200 0.222245
0.425273 0.446387 0.220847
0.462373 0.444555 0.218791
0.498107 0.436398 0.219124
0.527597 0.413300 0.225883
0.603866 0.428068 0.226140
0.681720 0.444609 0.227145
0.764993 0.460149 0.228476
0.852843 0.475575 0.229602
0.936649 0.484319 0.231755
0.999939 0.488982 0.235837
1.000000 0.494234 0.243763
1.000000 0.500005 0.255604
0.381773 0.503587 0.229382
0.391559 0.511771 0.231056
0.407083 0.510159 0.231009
0.434630 0.507426 0.230798
0.461416 0.506228 0.229483
0.495958 0.505361 0.227721
0.537118 0.504544 0.225471
0.570772 0.492152 0.228129
0.603282 0.468643 0.235926
0.683345 0.482106 0.236212
0.766030 0.498405 0.237031
0.853293 0.515138 0.237754
0.937458 0.531287 0.239829
1.000000 0.544190 0.244052
1.000000 0.548361 0.251874
1.000000 0.552664 0.264142
0.423129 0.568398 0.235548
0.431834 0.576938 0.237084
0.445698 0.575280 0.236971
0.472241 0.572793 0.236858
0.499721 0.571853 0.235850
0.531805 0.571169 0.233984
0.570672 0.570058 0.231556
0.615435 0.568400 0.228301
0.646401 0.549311 0.234090
0.682166 0.524116 0.243377
0.767038 0.537211 0.243762
0.853982 0.555955 0.244368
0.936178 0.572605 0.246076
0.999704 0.587291 0.250885
1.000000 0.599736 0.259896
1.000000 0.606968 0.272989
0.463276 0.642469 0.237259
0.469298 0.647318 0.238032
0.482305 0.646196 0.237897
0.507883 0.644745 0.237768
0.539439 0.644110 0.237203
0.571844 0.644977 0.235300
0.612058 0.645912 0.232752
0.658618 0.646053 0.229297
0.710295 0.645344 0.224961
0.739893 0.619754 0.235974
0.779031 0.591943 0.247965
0.860541 0.601206 0.250086
0.940913 0.618854 0.252649
1.000000 0.632718 0.258149
1.000000 0.643963 0.268338
1.000000 0.653620 0.282786
0.507831 0.726082 0.234087
0.511650 0.727099 0.234350
0.524216 0.725891 0.234153
0.549244 0.724763 0.234055
0.585560 0.723768 0.233818
0.617437 0.724251 0.231742
0.656242 0.724302 0.228842
0.701358 0.723791 0.224766
0.752540 0.723642 0.219951
0.806670 0.722022 0.215544
0.835166 0.692211 0.233231
0.876034 0.663040 0.249058
0.945966 0.665715 0.256368
1.000000 0.678705 0.264209
1.000000 0.688677 0.276021
1.000000 0.696772 0.291898
0.560775 0.810031 0.232082
0.565332 0.811863 0.232944
0.576961 0.810324 0.232389
0.600507 0.808423 0.231824
0.636535 0.806635 0.231648
0.670776 0.805963 0.229872
0.708391 0.806343 0.227144
0.752225 0.806432 0.223524
0.800799 0.805937 0.218770
0.853004 0.805045 0.212777
0.901931 0.798802 0.211219
0.927712 0.765953 0.233938
0.964820 0.734350 0.254144
1.000000 0.727582 0.269523
1.000000 0.734207 0.284407
1.000000 0.740732 0.302275
0.618001 0.881779 0.240394
0.620968 0.881812 0.240591
0.632096 0.881214 0.240542
0.654041 0.880130 0.240365
0.687052 0.878470 0.240404
0.723693 0.876921 0.239544
0.757062 0.876286 0.237099
0.796240 0.875452 0.233858
0.840033 0.874488 0.229707
0.887451 0.873445 0.224840
0.937221 0.872398 0.219197
0.977601 0.861110 0.223844
0.998329 0.828588 0.247133
1.000000 0.795726 0.269476
1.000000 0.781879 0.291144
1.000000 0.783752 0.312556
0.676221 0.939634 0.267816
0.681304 0.941291 0.272214
0.689926 0.940161 0.270697
0.707799 0.938499 0.269176
0.736079 0.936741 0.268923
0.773242 0.934595 0.269139
0.802035 0.933777 0.267036
0.835927 0.932722 0.264390
0.874070 0.931516 0.261124
0.915643 0.930223 0.257305
0.959526 0.928905 0.253000
0.999993 0.927629 0.248116
1.000000 0.911991 0.256662
1.000000 0.880915 0.276584
1.000000 0.848688 0.298067
1.000000 0.830936 0.324242
0.732472 0.986737 0.310893
0.734555 0.986749 0.311463
0.742627 0.986324 0.311588
0.758366 0.985486 0.311966
0.782487 0.984175 0.312591
0.814633 0.982367 0.313744
0.843290 0.981194 0.313097
0.872051 0.980312 0.311058
0.904707 0.979327 0.308806
0.940623 0.978290 0.306141
0.979052 0.977209 0.303038
1.000000 0.976188 0.299734
1.000000 0.975262 0.296111
1.000000 0.956503 0.306454
1.000000 0.927923 0.322573
1.000000 0.897527 0.343811
0.122554 0.141946 0.196963
0.136745 0.140631 0.196426
0.185058 0.141611 0.195707
0.249699 0.146380 0.196944
0.312045 0.157036 0.194244
0.370391 0.181167 0.203421
0.445103 0.195528 0.209481
0.524288 0.209545 0.214160
0.605235 0.223593 0.217450
0.688472 0.237677 0.220118
0.771859 0.249595 0.223002
0.856304 0.259204 0.226114
0.941072 0.267958 0.230169
1.000000 0.277926 0.235282
1.000000 0.290428 0.241942
1.000000 0.307994 0.253135
0.124411 0.150767 0.194327
0.138748 0.150744 0.194939
0.184417 0.150719 0.194342
0.246533 0.157017 0.195701
0.306398 0.170533 0.197170
0.368034 0.187624 0.204494
0.441955 0.199888 0.209147
0.520462 0.213498 0.213814
0.602364 0.227545 0.217445
0.685938 0.241459 0.220252
0.770142 0.253250 0.223040
0.855214 0.262787 0.226335
0.939218 0.271252 0.230111
1.000000 0.280451 0.234769
1.000000 0.292519 0.241329
1.000000 0.309906 0.252546
0.138640 0.181363 0.199238
0.151346 0.183150 0.199462
0.192078 0.187813 0.198107
0.246586 0.193944 0.201134
0.305672 0.201836 0.204965
0.372956 0.211258 0.209234
0.446745 0.221767 0.213190
0.524214 0.233893 0.217158
0.604734 0.246452 0.220203
0.687871 0.259057 0.222692
0.771374 0.269546 0.225151
0.856139 0.278120 0.228243
0.940990 0.286084 0.232160
1.000000 0.294922 0.237081
1.000000 0.306031 0.243718
1.000000 0.322331 0.254959
0.160902 0.231428 0.206564
0.172143 0.232653 0.205966
0.213356 0.231268 0.204247
0.253520 0.227719 0.205772
0.309644 0.236313 0.210421
0.373623 0.245084 0.213880
0.444899 0.254285 0.217405
0.521300 0.265082 0.220933
0.600933 0.276366 0.223612
0.683878 0.287792 0.225748
0.768200 0.297289 0.228268
0.853926 0.304903 0.231132
0.938179 0.311695 0.234611
1.000000 0.318822 0.238899
1.000000 0.328227 0.245263
1.000000 0.342632 0.256528
0.202998 0.285542 0.216510
0.214085 0.287917 0.218048
0.248279 0.285800 0.217961
0.286791 0.284434 0.217088
0.319988 0.273210 0.218329
0.380543 0.281966 0.221433
0.448359 0.295275 0.224893
0.522482 0.305799 0.227547
0.601687 0.316386 0.229445
0.683833 0.326674 0.231121
0.767022 0.334741 0.233159
0.852909 0.341390 0.235699
0.938449 0.347662 0.239042
1.000000 0.354099 0.243658
1.000000 0.361666 0.249915
1.000000 0.373533 0.260648
0.243735 0.333776 0.225009
0.254224 0.338969 0.227745
0.280888 0.336726 0.227388
0.315615 0.334385 0.226543
0.353471 0.333208 0.224821
0.382580 0.315898 0.227714
0.449678 0.327830 0.230962
0.521000 0.343046 0.233772
0.598412 0.358985 0.235525
0.679726 0.369063 0.236707
0.763491 0.376996 0.238572
0.850457 0.383669 0.240815
0.935344 0.389274 0.243585
1.000000 0.394313 0.247515
1.000000 0.400933 0.253892
1.000000 0.410596 0.264280
0.287029 0.389104 0.235714
0.298099 0.396505 0.238821
0.319706 0.393948 0.238373
0.352533 0.390398 0.237392
0.385176 0.388306 0.235472
0.424644 0.385719 0.233688
0.452367 0.364544 0.238143
0.523762 0.377827 0.240426
0.599655 0.395168 0.242200
0.679704 0.412045 0.243522
0.762504 0.423261 0.245011
0.849772 0.430260 0.246762
0.935578 0.436489 0.249598
1.000000 0.442046 0.253865
1.000000 0.447217 0.259854
1.000000 0.455052 0.270220
0.329223 0.444605 0.243828
0.340046 0.453293 0.246731
0.358438 0.451171 0.246391
0.390426 0.447664 0.245877
0.420305 0.445928 0.244338
0.457248 0.444140 0.242250
0.494432 0.437460 0.241451
0.523408 0.414664 0.246827
0.598817 0.429243 0.247742
0.676722 0.446075 0.249293
0.760515 0.462030 0.251046
0.848947 0.477757 0.252636
0.933336 0.486061 0.254882
0.999096 0.491232 0.258470
1.000000 0.497157 0.265669
1.000000 0.503598 0.276453
0.371707 0.504027 0.250059
0.381009 0.512052 0.252071
0.397205 0.510314 0.251947
0.426963 0.507425 0.251685
0.457144 0.505922 0.250595
0.491834 0.505134 0.248869
0.532984 0.504372 0.246602
0.567873 0.493209 0.248046
0.599857 0.469743 0.254732
0.679225 0.483206 0.255629
0.762287 0.499876 0.256966
0.850188 0.517096 0.258454
0.934946 0.533718 0.260936
0.999627 0.546359 0.265233
1.000000 0.550886 0.272340
1.000000 0.555772 0.283736
0.414042 0.568938 0.254833
0.422754 0.577380 0.256708
0.436942 0.575786 0.256575
0.464074 0.573331 0.256339
0.496138 0.571700 0.255630
0.528158 0.570965 0.253792
0.566907 0.569755 0.251385
0.611568 0.568083 0.248255
0.643838 0.550239 0.252454
0.679374 0.525189 0.260804
0.764167 0.538583 0.261833
0.851473 0.557644 0.263026
0.933957 0.574633 0.265301
0.998960 0.589804 0.270286
1.000000 0.602745 0.279067
1.000000 0.609711 0.291317
0.455079 0.643049 0.256108
0.461105 0.648096 0.257053
0.474270 0.646856 0.256948
0.500173 0.645416 0.256807
0.536268 0.644417 0.256460
0.568902 0.645350 0.254893
0.609132 0.646185 0.252528
0.655562 0.646185 0.249279
0.707104 0.645242 0.245103
0.737735 0.620748 0.254066
0.776742 0.593060 0.264732
0.858431 0.602752 0.267337
0.939197 0.620757 0.270336
0.999893 0.634951 0.276059
1.000000 0.646606 0.286092
1.000000 0.656654 0.299919
0.499748 0.726634 0.253369
0.503993 0.728233 0.253834
0.516785 0.726965 0.253533
0.542231 0.725726 0.253356
0.580453 0.724413 0.253160
0.614643 0.724477 0.251431
0.653417 0.724411 0.248668
0.698494 0.723825 0.245033
0.749786 0.723716 0.240622
0.804731 0.722734 0.236060
0.833599 0.693432 0.251269
0.874322 0.664300 0.265744
0.944385 0.667314 0.272955
1.000000 0.680657 0.280866
1.000000 0.690996 0.292543
1.000000 0.699478 0.307923
0.553427 0.810508 0.251887
0.557742 0.811872 0.252626
0.569562 0.810501 0.252064
0.593569 0.808891 0.251671
0.630211 0.807175 0.251443
0.668370 0.806283 0.250271
0.706217 0.806810 0.247973
0.750101 0.806873 0.244692
0.798492 0.806150 0.240126
0.850704 0.805207 0.234685
0.900633 0.799806 0.232340
0.926490 0.767186 0.252482
0.963501 0.735711 0.270723
1.000000 0.729216 0.285274
1.000000 0.736211 0.299828
1.000000 0.743070 0.317303
0.612000 0.882248 0.260035
0.614894 0.882296 0.260254
0.626181 0.881701 0.260132
0.648285 0.880620 0.260047
0.681613 0.878957 0.260023
0.721704 0.877050 0.259616
0.755131 0.876427 0.257248
0.794283 0.875622 0.254168
0.838126 0.874660 0.250469
0.885566 0.873643 0.246108
0.935350 0.872610 0.240957
0.976486 0.862044 0.244264
0.997859 0.829708 0.264944
1.000000 0.796999 0.285256
1.000000 0.783494 0.305831
1.000000 0.785764 0.326722
0.671593 0.939973 0.285930
0.676362 0.941341 0.289534
0.684998 0.940242 0.288103
0.703188 0.938704 0.286818
0.731831 0.937083 0.286935
0.769751 0.934935 0.287198
0.800695 0.933882 0.285629
0.834531 0.932834 0.283052
0.872595 0.931626 0.279968
0.914079 0.930364 0.276456
0.957967 0.929079 0.272369
0.999735 0.927831 0.267817
1.000000 0.912828 0.274878
1.000000 0.881955 0.292894
1.000000 0.849953 0.312759
1.000000 0.832558 0.337803
0.729183 0.986987 0.326842
0.731330 0.987021 0.327355
0.739379 0.986571 0.327538
0.755217 0.985730 0.327782
0.779331 0.984452 0.328436
0.811490 0.982654 0.329357
0.842447 0.981235 0.329096
0.871098 0.980375 0.327251
0.903647 0.979414 0.325042
0.939473 0.978379 0.322495
0.977764 0.977319 0.319671
1.000000 0.976328 0.316523
1.000000 0.975433 0.312977
1.000000 0.957286 0.322145
1.000000 0.928893 0.336986
1.000000 0.898772 0.357031
0.105720 0.162460 0.257670
0.121464 0.160785 0.257242
0.174092 0.160264 0.256442
0.239947 0.163065 0.253755
0.303114 0.171017 0.251670
0.368493 0.182223 0.250309
0.439045 0.194506 0.250170
0.508663 0.224320 0.261908
0.586449 0.240924 0.268703
0.670365 0.253159 0.271578
0.755581 0.264091 0.273747
0.842954 0.273326 0.276230
0.930721 0.282050 0.279227
0.999714 0.291813 0.282802
1.000000 0.304427 0.287577
1.000000 0.323156 0.296599
0.112128 0.170058 0.252715
0.127008 0.170225 0.254199
0.174904 0.168820 0.253250
0.238026 0.172573 0.250953
0.299528 0.180090 0.250157
0.365027 0.190106 0.249779
0.434333 0.203020 0.250835
0.504866 0.229812 0.262524
0.584111 0.244483 0.268556
0.668373 0.256285 0.271190
0.754443 0.267195 0.273645
0.841820 0.276441 0.276159
0.928634 0.284751 0.278834
0.998642 0.293855 0.281903
1.000000 0.306299 0.286676
1.000000 0.324573 0.295758
0.135319 0.201027 0.255268
0.148601 0.202626 0.254956
0.187915 0.203746 0.252940
0.240994 0.204781 0.251174
0.300908 0.211306 0.253400
0.365732 0.219154 0.253915
0.432777 0.236013 0.260902
0.506714 0.249359 0.266973
0.586690 0.260317 0.270275
0.670705 0.271506 0.272672
0.755857 0.281602 0.274753
0.843324 0.290190 0.277232
0.931007 0.298275 0.280200
0.999735 0.307400 0.283842
1.000000 0.318936 0.288530
1.000000 0.336399 0.297851
0.165090 0.231981 0.252535
0.173811 0.234147 0.253904
0.203169 0.238443 0.254409
0.249608 0.245609 0.255251
0.302519 0.250162 0.256862
0.362416 0.257340 0.260415
0.430988 0.266096 0.264490
0.505538 0.275891 0.268379
0.584701 0.286137 0.271271
0.668440 0.296918 0.273569
0.754179 0.306538 0.275930
0.841882 0.314509 0.278404
0.928559 0.321645 0.281025
0.998469 0.329230 0.284082
1.000000 0.339527 0.289019
1.000000 0.355302 0.298488
0.183753 0.292337 0.272296
0.193326 0.295091 0.273388
0.222711 0.294346 0.267680
0.273919 0.291944 0.263163
0.313240 0.285048 0.262327
0.369340 0.292846 0.265419
0.435494 0.302878 0.268944
0.508556 0.312162 0.271957
0.587124 0.322262 0.274336
0.669686 0.332441 0.276243
0.754041 0.341043 0.278182
0.842105 0.348509 0.280657
0.929973 0.355461 0.283617
0.999350 0.362759 0.287309
1.000000 0.371257 0.292101
1.000000 0.384687 0.301242
0.215122 0.338738 0.268193
0.224771 0.344009 0.270973
0.253152 0.342166 0.269421
0.301245 0.338477 0.268493
0.343394 0.336530 0.266784
0.375085 0.323424 0.267423
0.439083 0.334691 0.271113
0.509366 0.349494 0.274685
0.586242 0.362065 0.276878
0.667893 0.372545 0.278636
0.752541 0.381237 0.280748
0.840997 0.388720 0.283145
0.927556 0.395112 0.285729
0.997842 0.401046 0.288907
1.000000 0.408980 0.294401
1.000000 0.420245 0.303428
0.259637 0.392025 0.273838
0.270127 0.399015 0.277573
0.294248 0.396434 0.276798
0.335038 0.392353 0.275746
0.375501 0.389413 0.274040
0.415726 0.387768 0.271745
0.445077 0.369589 0.274156
0.514341 0.382294 0.277360
0.589543 0.399354 0.280106
0.669526 0.416307 0.282316
0.752762 0.425885 0.284279
0.841643 0.433914 0.286527
0.929068 0.441107 0.289475
0.998589 0.447694 0.293350
1.000000 0.454000 0.298399
1.000000 0.463205 0.307401
0.305145 0.446551 0.279156
0.315571 0.454878 0.282751
0.335589 0.452852 0.282275
0.371412 0.449305 0.281524
0.411518 0.446200 0.280307
0.448376 0.444483 0.278140
