assets/lut/editingcorp mercato.cube
# Created by: G'MIC (https://gmic.eu)
TITLE "mercato"
# LUT size
LUT_3D_SIZE 5
# Data domain
DOMAIN_MIN 0.0 0.0 0.0
DOMAIN_MAX 1.0 1.0 1.0
# LUT data points
0.010543583892285824 0.0085177402943372726 0.011520400643348694
0.47828572988510132 0.048074670135974884 0.04296628013253212
0.78469151258468628 0.084191955626010895 0.062485143542289734
0.90685981512069702 0.080788664519786835 0.054661978036165237
0.95438051223754883 0.080378256738185883 0.05499044805765152
0.0091577563434839249 0.24035157263278961 0.051020260900259018
0.30799242854118347 0.25947818160057068 0.067922540009021759
0.74684077501296997 0.28955838084220886 0.066168077290058136
0.91760540008544922 0.24629463255405426 0.062583848834037781
0.95502585172653198 0.22751888632774353 0.066457800567150116
0.015482150949537754 0.56521987915039062 0.15041007101535797
0.15595553815364838 0.55591064691543579 0.14012937247753143
0.66397225856781006 0.5880160927772522 0.16076759994029999
0.94008392095565796 0.56355899572372437 0.044298313558101654
0.98602825403213501 0.50702446699142456 0.052483368664979935
0.043554238975048065 0.76879197359085083 0.21230693161487579
0.11001481860876083 0.76202636957168579 0.21282662451267242
0.50143194198608398 0.7848479151725769 0.20920863747596741
0.8626055121421814 0.79932159185409546 0.21557909250259399
0.97906595468521118 0.80474555492401123 0.083021633327007294
0.044786956161260605 0.82995486259460449 0.21627958118915558
0.07483942061662674 0.83037865161895752 0.21609736979007721
0.28700792789459229 0.84198886156082153 0.21985645592212677
0.77601689100265503 0.86878770589828491 0.23792199790477753
0.92143815755844116 0.87337660789489746 0.30133593082427979
0.0087373470887541771 0.0587741918861866 0.29634392261505127
0.46831038594245911 0.013358231633901596 0.2970462441444397
0.76900869607925415 0.038542728871107101 0.26458299160003662
0.88442003726959229 0.031294357031583786 0.24465020000934601
0.93759870529174805 0.035794619470834732 0.2201414555311203
0.063002504408359528 0.31498289108276367 0.31108501553535461
0.27204787731170654 0.27343294024467468 0.27444228529930115
0.73501479625701904 0.27832639217376709 0.2406507283449173
0.90605127811431885 0.25492957234382629 0.21706943213939667
0.95437538623809814 0.23404639959335327 0.20289047062397003
0.020472237840294838 0.57971709966659546 0.30089616775512695
0.13872937858104706 0.56290918588638306 0.27387791872024536
0.65361076593399048 0.58369582891464233 0.24879515171051025
0.93965673446655273 0.55702435970306396 0.14644604921340942
0.9801337718963623 0.51685446500778198 0.15319308638572693
0.04641399160027504 0.7682194709777832 0.28107404708862305
0.11938139796257019 0.76459473371505737 0.28229179978370667
0.49704045057296753 0.78423267602920532 0.26764687895774841
0.86296588182449341 0.79978829622268677 0.27744290232658386
0.9784543514251709 0.80293494462966919 0.13973280787467957
0.053025998175144196 0.83075469732284546 0.27524736523628235
0.078678011894226074 0.83097755908966064 0.26596063375473022
0.29898858070373535 0.84381449222564697 0.27255553007125854
0.77848911285400391 0.87334740161895752 0.29022157192230225
0.92071086168289185 0.86960536241531372 0.35586869716644287
0.0082061914727091789 0.23695319890975952 0.54335743188858032
0.37158283591270447 0.029388157650828362 0.56447780132293701
0.75528711080551147 0.044873002916574478 0.59571027755737305
0.84656983613967896 0.058583907783031464 0.51776301860809326
0.8857492208480835 0.075929917395114899 0.46643117070198059
0.075263842940330505 0.43280196189880371 0.5758817195892334
0.12465498596429825 0.36582222580909729 0.55687832832336426
0.69873034954071045 0.26030859351158142 0.55014586448669434
0.84954774379730225 0.25452312827110291 0.46952235698699951
0.90168756246566772 0.24415521323680878 0.44419306516647339
0.17428213357925415 0.60569655895233154 0.58211982250213623
0.24164122343063354 0.59365385770797729 0.56995522975921631
0.57122606039047241 0.58636128902435303 0.55443137884140015
0.91067391633987427 0.57220590114593506 0.53723752498626709
0.96282970905303955 0.55757194757461548 0.52826428413391113
0.071408353745937347 0.7814754843711853 0.55354827642440796
0.12567149102687836 0.77878814935684204 0.54125428199768066
0.42855170369148254 0.78235530853271484 0.51655381917953491
0.86348479986190796 0.81552016735076904 0.49432435631752014
0.98221617937088013 0.82308578491210938 0.48955366015434265
0.05537751317024231 0.84234577417373657 0.47504904866218567
0.07987995445728302 0.84240853786468506 0.46827349066734314
0.29332429170608521 0.85014265775680542 0.47074988484382629
0.77217179536819458 0.87685447931289673 0.43867406249046326
0.92061489820480347 0.88059031963348389 0.48217958211898804
0.010518885217607021 0.25994867086410522 0.61743903160095215
0.33756923675537109 0.037272106856107712 0.6481289267539978
0.71025925874710083 0.061676699668169022 0.64003449678421021
0.93497616052627563 0.028429711237549782 0.8761899471282959
0.98145127296447754 0.033953841775655746 0.87887763977050781
0.058063387870788574 0.45133158564567566 0.67367088794708252
0.1026357039809227 0.39219292998313904 0.66476809978485107
0.62363278865814209 0.25652399659156799 0.65732133388519287
0.92908048629760742 0.2091899961233139 0.86410027742385864
0.96816837787628174 0.21243913471698761 0.8394579291343689
0.2234949916601181 0.62527549266815186 0.70589923858642578
0.27713415026664734 0.61671328544616699 0.70325791835784912
0.45772716403007507 0.5813899040222168 0.70484918355941772
0.91012781858444214 0.55202507972717285 0.82987332344055176
0.94068479537963867 0.53915715217590332 0.76534754037857056
0.24607667326927185 0.78679436445236206 0.75268822908401489
0.29627254605293274 0.78326982259750366 0.74630475044250488
0.43991759419441223 0.78320920467376709 0.75173854827880859
0.80080801248550415 0.81272763013839722 0.77195745706558228
0.92928355932235718 0.82551151514053345 0.79589533805847168
0.17223933339118958 0.85562753677368164 0.74085366725921631
0.22663645446300507 0.84933704137802124 0.7381892204284668
0.30374974012374878 0.8643983006477356 0.73785257339477539
0.71402490139007568 0.89033591747283936 0.74007308483123779
0.91784811019897461 0.9108700156211853 0.73500949144363403
0.010014418512582779 0.25811439752578735 0.67172634601593018
0.29234647750854492 0.04589640349149704 0.70222097635269165
0.67785179615020752 0.04685458168387413 0.69013071060180664
0.93258947134017944 0.021492617204785347 0.93338644504547119
0.98402172327041626 0.019712604582309723 0.94735473394393921
0.052183397114276886 0.44546490907669067 0.73220980167388916
0.11157066375017166 0.38863921165466309 0.71820425987243652
0.57363361120223999 0.25893387198448181 0.71804916858673096
0.91481256484985352 0.21298198401927948 0.90111845731735229
0.98233646154403687 0.20454311370849609 0.95422327518463135
0.19464823603630066 0.60368400812149048 0.75990909337997437
0.25668251514434814 0.60148036479949951 0.7525363564491272
0.45231723785400391 0.57799637317657471 0.75838738679885864
0.86706727743148804 0.54777437448501587 0.81875288486480713
0.98731428384780884 0.54882001876831055 0.97205251455307007
0.27335360646247864 0.76507198810577393 0.80593639612197876
0.33673980832099915 0.76271229982376099 0.80656242370605469
0.46371674537658691 0.7661014199256897 0.81117463111877441
0.78374582529067993 0.80778795480728149 0.84600961208343506
0.94572699069976807 0.83340573310852051 0.91314142942428589
0.25583189725875854 0.84929919242858887 0.82954549789428711
0.31219068169593811 0.84937524795532227 0.82940793037414551
0.41806957125663757 0.85604214668273926 0.83295154571533203
0.68400430679321289 0.88630390167236328 0.85920113325119019
0.91037666797637939 0.91256797313690186 0.85705232620239258
