assets/lut/editingcorp fezzle.cube
# Created by: G'MIC (https://gmic.eu)
TITLE "fezzle"
# LUT size
LUT_3D_SIZE 13
# Data domain
DOMAIN_MIN 0.0 0.0 0.0
DOMAIN_MAX 1.0 1.0 1.0
# LUT data points
0.10984956473112106 0.091360874474048615 0.21491250395774841
0.16123485565185547 0.093732692301273346 0.21890971064567566
0.21215510368347168 0.093845680356025696 0.22479681670665741
0.2697482705116272 0.092394508421421051 0.2284051924943924
0.33820986747741699 0.087431080639362335 0.22358310222625732
0.41431304812431335 0.078455053269863129 0.21458685398101807
0.49629834294319153 0.064103111624717712 0.19490338861942291
0.58163833618164062 0.046907298266887665 0.16810400784015656
0.66861152648925781 0.031621508300304413 0.14938130974769592
0.75693595409393311 0.022386932745575905 0.13747893273830414
0.84391981363296509 0.020121915265917778 0.12617890536785126
0.92185181379318237 0.01782442070543766 0.12999965250492096
0.98680788278579712 0.013463159091770649 0.1295124888420105
0.11257687956094742 0.15145215392112732 0.20950727164745331
0.16434988379478455 0.15165440738201141 0.22234232723712921
0.21639637649059296 0.15163302421569824 0.22760382294654846
0.27441483736038208 0.14986731112003326 0.22649198770523071
0.3412623405456543 0.14551234245300293 0.21978892385959625
0.41644635796546936 0.13708174228668213 0.20821978151798248
0.49886342883110046 0.12246997654438019 0.19258952140808105
0.58545207977294922 0.10571875423192978 0.17297343909740448
0.67405164241790771 0.089346148073673248 0.15690158307552338
0.76343870162963867 0.078320220112800598 0.14676910638809204
0.85128521919250488 0.073415912687778473 0.13704861700534821
0.9309658408164978 0.069291912019252777 0.13004434108734131
0.99045991897583008 0.066393882036209106 0.13988082110881805
0.11314182728528976 0.20697391033172607 0.20684321224689484
0.16698126494884491 0.20861557126045227 0.21716615557670593
0.2212836891412735 0.20825622975826263 0.22159987688064575
0.28067070245742798 0.20626506209373474 0.22331412136554718
0.34753268957138062 0.20212219655513763 0.22096382081508636
0.42286419868469238 0.19523760676383972 0.21180526912212372
0.50596463680267334 0.18286870419979095 0.19937391579151154
0.59421724081039429 0.16872259974479675 0.18223614990711212
0.68547540903091431 0.15532027184963226 0.16635245084762573
0.77708756923675537 0.14567364752292633 0.15955984592437744
0.86527830362319946 0.1405855119228363 0.16009975969791412
0.94464683532714844 0.13600434362888336 0.14923740923404694
0.99565708637237549 0.13507702946662903 0.15667532384395599
0.11010321974754333 0.26568141579627991 0.18693690001964569
0.16681239008903503 0.26615443825721741 0.20106880366802216
0.22459143400192261 0.26699146628379822 0.20861151814460754
0.28522208333015442 0.26620596647262573 0.2164006382226944
0.35380741953849792 0.26286345720291138 0.22423002123832703
0.43087327480316162 0.25704503059387207 0.22187425196170807
0.51539021730422974 0.2479826807975769 0.21330428123474121
0.60519397258758545 0.23900064826011658 0.19806905090808868
0.69924521446228027 0.23004429042339325 0.18850712478160858
0.79587310552597046 0.22387616336345673 0.18665309250354767
0.88675224781036377 0.22048607468605042 0.18604576587677002
0.96232503652572632 0.21850079298019409 0.17861324548721313
0.99931240081787109 0.21926222741603851 0.17885792255401611
0.10168011486530304 0.33040723204612732 0.1470969021320343
0.15936456620693207 0.33154028654098511 0.16962875425815582
0.21939082443714142 0.33350184559822083 0.18317468464374542
0.28438496589660645 0.3353208601474762 0.19879956543445587
0.35581690073013306 0.33390551805496216 0.21330250799655914
0.43646690249443054 0.33001697063446045 0.21595090627670288
0.52295798063278198 0.32334348559379578 0.21147406101226807
0.61490225791931152 0.31714704632759094 0.20391954481601715
0.71134704351425171 0.31169170141220093 0.20585134625434875
0.81158614158630371 0.3081820011138916 0.20618739724159241
0.90646368265151978 0.30709227919578552 0.20035412907600403
0.97492027282714844 0.30811798572540283 0.19871386885643005
0.99992746114730835 0.31054908037185669 0.20196299254894257
0.084407135844230652 0.40011003613471985 0.10395316034555435
0.14339712262153625 0.40374380350112915 0.13445656001567841
0.20686596632003784 0.40813258290290833 0.15811333060264587
0.27706244587898254 0.41162952780723572 0.17725802958011627
0.35405170917510986 0.41297414898872375 0.19531285762786865
0.43745055794715881 0.4106762707233429 0.19790492951869965
0.52667731046676636 0.40561643242835999 0.19488330185413361
0.62108421325683594 0.40077638626098633 0.19720162451267242
0.71967583894729614 0.39727064967155457 0.20606657862663269
0.81969290971755981 0.39630210399627686 0.21035054326057434
0.90954309701919556 0.39752107858657837 0.20989179611206055
0.97068089246749878 0.40068706870079041 0.21561753749847412
0.99848884344100952 0.40415546298027039 0.22334343194961548
0.065300032496452332 0.47346207499504089 0.062030836939811707
0.12691615521907806 0.47918328642845154 0.088617615401744843
0.19327493011951447 0.48594391345977783 0.11957821995019913
0.26728090643882751 0.49179407954216003 0.14483867585659027
0.34813687205314636 0.49492654204368591 0.16573745012283325
0.4344041645526886 0.49370488524436951 0.17066724598407745
0.52617746591567993 0.49004426598548889 0.17532452940940857
0.62311601638793945 0.48683840036392212 0.18575015664100647
0.7235981822013855 0.48537915945053101 0.19730788469314575
0.82211434841156006 0.48608154058456421 0.20599983632564545
0.90659558773040771 0.48857685923576355 0.21350675821304321
0.9668157696723938 0.49247276782989502 0.22396828234195709
0.99827754497528076 0.49583154916763306 0.23154997825622559
0.049249447882175446 0.55282801389694214 0.034646965563297272
0.11354324966669083 0.56029736995697021 0.048690453171730042
0.18333430588245392 0.56925231218338013 0.07497183233499527
0.25939619541168213 0.57636821269989014 0.10212662816047668
0.34186875820159912 0.57976001501083374 0.12142428010702133
0.42993241548538208 0.57956010103225708 0.13651253283023834
0.52365928888320923 0.57770746946334839 0.15863843262195587
0.62213069200515747 0.57595670223236084 0.17667652666568756
0.72431647777557373 0.57545715570449829 0.18929849565029144
0.82436466217041016 0.57700121402740479 0.20064990222454071
0.91162949800491333 0.57954835891723633 0.21195904910564423
0.97733986377716064 0.58255600929260254 0.22172774374485016
0.99992549419403076 0.58500713109970093 0.22500576078891754
0.037435449659824371 0.64022475481033325 0.027998412027955055
0.1054239496588707 0.6511002779006958 0.039678417146205902
0.17794500291347504 0.66166132688522339 0.056439612060785294
0.25557631254196167 0.66873705387115479 0.073574766516685486
0.33883976936340332 0.6715666651725769 0.090539492666721344
0.42792335152626038 0.67248958349227905 0.12081144750118256
0.52245539426803589 0.67137283086776733 0.15521469712257385
0.62243014574050903 0.67010289430618286 0.17194236814975739
0.7262805700302124 0.66948527097702026 0.18201188743114471
0.82984465360641479 0.66982251405715942 0.19380627572536469
0.92299091815948486 0.67065125703811646 0.20609015226364136
0.98994916677474976 0.67201608419418335 0.21335579454898834
1 0.67283976078033447 0.21233275532722473
0.036785800009965897 0.73805844783782959 0.030493568629026413
0.10773070156574249 0.75171965360641479 0.042393911629915237
0.18193255364894867 0.7632824182510376 0.054610516875982285
0.25996130704879761 0.77073752880096436 0.064536839723587036
0.34301528334617615 0.77331990003585815 0.079963624477386475
0.43237036466598511 0.77489888668060303 0.1158459410071373
0.5277751088142395 0.77419322729110718 0.15009789168834686
0.62812614440917969 0.77096849679946899 0.16288186609745026
0.73196989297866821 0.76661890745162964 0.17120495438575745
0.83612322807312012 0.7641596794128418 0.18288634717464447
0.93217313289642334 0.76240456104278564 0.19440330564975739
0.99568110704421997 0.76138401031494141 0.19930194318294525
1 0.75986897945404053 0.19521807134151459
0.050900164991617203 0.84307402372360229 0.034056119620800018
0.1222742572426796 0.85592889785766602 0.045434825122356415
0.19784542918205261 0.86783760786056519 0.054691944271326065
0.27381494641304016 0.87421536445617676 0.066552363336086273
0.35450613498687744 0.87749713659286499 0.08731880784034729
0.44325500726699829 0.87992298603057861 0.12121386080980301
0.53851413726806641 0.87641602754592896 0.14348095655441284
0.63777917623519897 0.86857664585113525 0.14673525094985962
0.7395862340927124 0.86003971099853516 0.15557068586349487
0.84086310863494873 0.85441547632217407 0.16874033212661743
0.93526774644851685 0.85145920515060425 0.17830023169517517
0.99707818031311035 0.84820878505706787 0.18011203408241272
1 0.84420293569564819 0.17403914034366608
0.07102348655462265 0.93893301486968994 0.036960765719413757
0.14354586601257324 0.94657909870147705 0.048624854534864426
0.21752718091011047 0.95436906814575195 0.058072991669178009
0.29094642400741577 0.95654946565628052 0.077711321413516998
0.3682897686958313 0.95961767435073853 0.099502384662628174
0.45517528057098389 0.96644753217697144 0.1192617192864418
0.54964727163314819 0.9623681902885437 0.12887246906757355
0.64756697416305542 0.95169168710708618 0.12766715884208679
0.74601209163665771 0.9400145411491394 0.13983871042728424
0.84389090538024902 0.93447089195251465 0.15422162413597107
0.9365050196647644 0.93246537446975708 0.16120728850364685
0.99753034114837646 0.92871600389480591 0.15891183912754059
1 0.92325395345687866 0.15100355446338654
0.089921228587627411 0.99736177921295166 0.036796987056732178
0.1620478481054306 0.99787580966949463 0.053058460354804993
0.23461338877677917 0.99829816818237305 0.071239113807678223
0.30634626746177673 0.99749290943145752 0.097380951046943665
0.3820699155330658 0.99777805805206299 0.11753594130277634
0.46728315949440002 0.99986875057220459 0.11863554269075394
0.55964785814285278 0.9999006986618042 0.11753880977630615
0.65482819080352783 0.99828600883483887 0.11884177476167679
0.75067728757858276 0.99487751722335815 0.1305113285779953
0.84625619649887085 0.99328392744064331 0.14027532935142517
0.93723821640014648 0.99317967891693115 0.14210739731788635
0.9975777268409729 0.99195796251296997 0.1366572380065918
1 0.98918789625167847 0.12671460211277008
0.091389000415802002 0.094176255166530609 0.28425967693328857
0.14397044479846954 0.096834145486354828 0.29002499580383301
0.1976669579744339 0.097028039395809174 0.29249674081802368
0.25792241096496582 0.093927256762981415 0.29064485430717468
0.32738587260246277 0.08949057012796402 0.28511950373649597
0.40399077534675598 0.080511428415775299 0.28116282820701599
0.48607602715492249 0.065875545144081116 0.26985445618629456
0.57090169191360474 0.049129724502563477 0.25466510653495789
0.6571311354637146 0.033480267971754074 0.24829955399036407
0.74494040012359619 0.023418501019477844 0.24704952538013458
0.83132278919219971 0.019694069400429726 0.23905020952224731
0.90933573246002197 0.017675451934337616 0.23457591235637665
0.97885358333587646 0.014561163261532784 0.22791923582553864
0.093347690999507904 0.1526390016078949 0.28410041332244873
0.14629189670085907 0.15373079478740692 0.29276183247566223
0.20044578611850739 0.15372729301452637 0.29320803284645081
0.26037144660949707 0.15186655521392822 0.28890758752822876
0.32840690016746521 0.14765064418315887 0.28252536058425903
0.40458104014396667 0.13877484202384949 0.27614858746528625
0.48711541295051575 0.12432566285133362 0.26647922396659851
0.57335793972015381 0.10739818215370178 0.25534549355506897
0.6612582802772522 0.091485731303691864 0.25064507126808167
0.74985611438751221 0.079949021339416504 0.2512790858745575
0.83711147308349609 0.073468618094921112 0.2445080578327179
0.91587907075881958 0.069424740970134735 0.23796434700489044
0.98249775171279907 0.068771332502365112 0.24186965823173523
0.093682020902633667 0.20935463905334473 0.28397288918495178
0.14810661971569061 0.21044439077377319 0.28873836994171143
0.20402359962463379 0.21128144860267639 0.28805252909660339
0.26460164785385132 0.20944371819496155 0.28804489970207214
0.33298811316490173 0.2047078013420105 0.28656437993049622
0.40952280163764954 0.19685788452625275 0.2809005081653595
0.49290052056312561 0.18476046621799469 0.27194350957870483
0.58108538389205933 0.17090596258640289 0.26059430837631226
0.67176121473312378 0.1578933447599411 0.25326484441757202
0.76304894685745239 0.14823892712593079 0.25521957874298096
0.85129386186599731 0.14227540791034698 0.2586536705493927
0.93090450763702393 0.13819655776023865 0.25305533409118652
0.99034231901168823 0.1386408805847168 0.25634562969207764
0.089541837573051453 0.26810792088508606 0.2766689658164978
0.14712226390838623 0.26952418684959412 0.28043782711029053
0.20537988841533661 0.27096420526504517 0.28288701176643372
0.26772397756576538 0.27000102400779724 0.28708177804946899
0.33822482824325562 0.2661956250667572 0.29233968257904053
0.41677647829055786 0.26037988066673279 0.29064303636550903
0.50179380178451538 0.25096005201339722 0.28480106592178345
0.59173798561096191 0.24136620759963989 0.27424579858779907
0.68569153547286987 0.23295155167579651 0.26837000250816345
0.78155529499053955 0.22707632184028625 0.2704865038394928
0.87388491630554199 0.22413191199302673 0.27260869741439819
0.95222055912017822 0.22292396426200867 0.26766052842140198
0.99791151285171509 0.2246113121509552 0.26698589324951172
0.080859795212745667 0.33277329802513123 0.24971120059490204
0.13938117027282715 0.33525019884109497 0.26273781061172485
0.19965791702270508 0.33716288208961487 0.27500256896018982
0.26627200841903687 0.33869689702987671 0.28226590156555176
0.34080532193183899 0.33804285526275635 0.28813916444778442
0.42242312431335449 0.33455392718315125 0.28628265857696533
0.50982135534286499 0.32685032486915588 0.285317063331604
0.60172033309936523 0.3197970986366272 0.28131213784217834
0.69841146469116211 0.31471803784370422 0.28228896856307983
0.79829776287078857 0.31226679682731628 0.28203865885734558
0.89236986637115479 0.31262511014938354 0.27772438526153564
0.96487075090408325 0.31488645076751709 0.27647358179092407
0.99924838542938232 0.31770145893096924 0.27967050671577454
0.065244726836681366 0.40229767560958862 0.21196778118610382
0.12362474948167801 0.40690961480140686 0.23996663093566895
0.18742983043193817 0.41140460968017578 0.26105508208274841
0.25926491618156433 0.41515365242958069 0.27132424712181091
0.33836591243743896 0.41692408919334412 0.27946698665618896
0.42360556125640869 0.41500416398048401 0.27699944376945496
0.51386982202529907 0.40907874703407288 0.27446752786636353
0.60858643054962158 0.40347173810005188 0.27611660957336426
0.70767933130264282 0.40065109729766846 0.28070005774497986
0.80767464637756348 0.40079194307327271 0.28108486533164978
0.89689856767654419 0.40358874201774597 0.27917438745498657
0.96009564399719238 0.40784522891044617 0.28532525897026062
0.99622982740402222 0.41184693574905396 0.29381108283996582
0.048401463776826859 0.47564458847045898 0.17517843842506409
0.10826475918292999 0.48223391175270081 0.20550310611724854
0.1747245192527771 0.48962998390197754 0.23142345249652863
0.25024783611297607 0.49573448300361633 0.24803502857685089
0.33290374279022217 0.4988747239112854 0.26146072149276733
0.42097890377044678 0.49757558107376099 0.26244363188743591
0.51363450288772583 0.49332192540168762 0.26163318753242493
0.61074686050415039 0.48970559239387512 0.26657271385192871
0.71154582500457764 0.48843994736671448 0.27214092016220093
0.81093102693557739 0.49035081267356873 0.27529829740524292
0.89631456136703491 0.49446254968643188 0.27983036637306213
0.95712697505950928 0.49927103519439697 0.29002803564071655
0.99534296989440918 0.50319826602935791 0.29887500405311584
0.034101493656635284 0.55512440204620361 0.14618422091007233
0.096552290022373199 0.56346529722213745 0.17048908770084381
0.16562755405902863 0.57303988933563232 0.1957034170627594
0.24276506900787354 0.58059948682785034 0.21597936749458313
0.32706347107887268 0.5844731330871582 0.23084808886051178
0.41675078868865967 0.58400636911392212 0.24156248569488525
0.5108000636100769 0.58121258020401001 0.2527620792388916
0.60912191867828369 0.57902234792709351 0.2607060968875885
0.71144634485244751 0.57868057489395142 0.26590299606323242
0.81303542852401733 0.58088552951812744 0.27144899964332581
0.90153670310974121 0.58487176895141602 0.27918344736099243
0.96836155652999878 0.58885675668716431 0.28810340166091919
0.99947059154510498 0.59194308519363403 0.29300108551979065
0.025753365829586983 0.64322209358215332 0.13526879251003265
0.090518161654472351 0.65388643741607666 0.1581127941608429
0.16100531816482544 0.66485917568206787 0.18068814277648926
0.23910623788833618 0.67356425523757935 0.19730210304260254
0.32409465312957764 0.67804807424545288 0.21094381809234619
0.4143749475479126 0.67833763360977173 0.23238840699195862
0.50900280475616455 0.67626398801803589 0.25328284502029419
0.60813969373703003 0.67390584945678711 0.2592015266418457
0.71184772253036499 0.67202067375183105 0.2615877091884613
0.81774991750717163 0.67367923259735107 0.26764401793479919
0.91283750534057617 0.67590618133544922 0.27587226033210754
0.98396885395050049 0.67809492349624634 0.28168720006942749
1 0.67984992265701294 0.28161430358886719
0.027295490726828575 0.7423585057258606 0.13726857304573059
0.093827478587627411 0.75434178113937378 0.16074763238430023
0.1647498607635498 0.7652316689491272 0.18392091989517212
0.24284516274929047 0.77497762441635132 0.19585011899471283
0.32794058322906494 0.78045117855072021 0.20769003033638
0.41838377714157104 0.78115582466125488 0.2318737804889679
0.51369261741638184 0.77915960550308228 0.25122818350791931
0.61321073770523071 0.77422225475311279 0.25431445240974426
0.71778446435928345 0.76960784196853638 0.25558039546012878
0.82426172494888306 0.76799452304840088 0.2613166868686676
0.92235547304153442 0.76781833171844482 0.26813620328903198
0.99198240041732788 0.76773333549499512 0.27012130618095398
1 0.76653552055358887 0.26636496186256409
0.041314952075481415 0.8484950065612793 0.14209935069084167
0.10890236496925354 0.85819125175476074 0.16374441981315613
0.18012635409832001 0.86888641119003296 0.18327902257442474
0.2563614547252655 0.87817263603210449 0.19749996066093445
0.33896312117576599 0.88183468580245972 0.2144150584936142
0.42852342128753662 0.88272964954376221 0.23826459050178528
0.52362072467803955 0.87928104400634766 0.24831701815128326
0.62278836965560913 0.87062537670135498 0.24507644772529602
0.7260546088218689 0.86203080415725708 0.24748212099075317
0.82990568876266479 0.85864853858947754 0.25378233194351196
0.92653763294219971 0.85755628347396851 0.25723177194595337
0.99431031942367554 0.85472345352172852 0.25467127561569214
1 0.85062897205352783 0.24802353978157043
0.061600659042596817 0.94514840841293335 0.14669406414031982
0.13069793581962585 0.94589835405349731 0.16602343320846558
0.2012895792722702 0.95299500226974487 0.18217870593070984
0.2742002010345459 0.95998072624206543 0.20262323319911957
0.35324490070343018 0.96000027656555176 0.2250274121761322
0.44073247909545898 0.96340596675872803 0.24002227187156677
0.5344696044921875 0.96086019277572632 0.24007730185985565
0.63179153203964233 0.94927126169204712 0.23598171770572662
0.73240935802459717 0.93818801641464233 0.24163870513439178
0.83355748653411865 0.93761318922042847 0.24702179431915283
0.92858141660690308 0.93877345323562622 0.2459435760974884
0.99517899751663208 0.93485993146896362 0.23789520561695099
1 0.9292110800743103 0.22779707610607147
0.080275140702724457 0.99829119443893433 0.1445365846157074
0.15057317912578583 0.99630552530288696 0.16799686849117279
0.22071835398674011 0.99670535326004028 0.18888570368289948
0.29169145226478577 0.99805742502212524 0.21515050530433655
0.36816155910491943 0.99759989976882935 0.23684000968933105
0.45333883166313171 0.99960845708847046 0.23754481971263885
0.54508572816848755 0.99960434436798096 0.2316938042640686
0.63995116949081421 0.99669617414474487 0.23202279210090637
0.73752349615097046 0.99222606420516968 0.23848941922187805
0.8365444540977478 0.99368935823440552 0.23762515187263489
0.93010401725769043 0.99517780542373657 0.23081456124782562
0.99568408727645874 0.99408340454101562 0.21902292966842651
1 0.99195796251296997 0.20696856081485748
0.075126111507415771 0.097745232284069061 0.32603108882904053
0.13067778944969177 0.098245121538639069 0.33042782545089722
0.18929500877857208 0.097671568393707275 0.32996654510498047
0.25369426608085632 0.094864971935749054 0.32404878735542297
0.32391548156738281 0.089816123247146606 0.31949511170387268
0.40074276924133301 0.080351181328296661 0.31706517934799194
0.48265635967254639 0.066455960273742676 0.31241649389266968
0.56681519746780396 0.050520431250333786 0.30597737431526184
0.65284639596939087 0.036432977765798569 0.30249172449111938
0.74012446403503418 0.026149719953536987 0.29870006442070007
0.82568389177322388 0.020345814526081085 0.28976994752883911
0.9048275351524353 0.017624933272600174 0.2816789448261261
0.97641879320144653 0.016054879873991013 0.28032967448234558
0.077098533511161804 0.15636530518531799 0.31905302405357361
0.13225311040878296 0.1561092734336853 0.32554176449775696
0.18974019587039948 0.15557597577571869 0.32734450697898865
0.25236913561820984 0.1535138338804245 0.32350710034370422
0.32177275419235229 0.14908373355865479 0.31784552335739136
0.39906969666481018 0.13937957584857941 0.31339049339294434
0.48195236921310425 0.12579025328159332 0.30785718560218811
0.56812602281570435 0.1101553812623024 0.30205351114273071
0.65619152784347534 0.095440506935119629 0.29868435859680176
0.74509865045547485 0.083920091390609741 0.29718172550201416
0.8321458101272583 0.075458645820617676 0.29086321592330933
0.91242235898971558 0.070887923240661621 0.28462553024291992
0.98178929090499878 0.07279001921415329 0.29126688838005066
0.0774674192070961 0.21344578266143799 0.31261873245239258
0.13333697617053986 0.21348001062870026 0.31959620118141174
0.1907455176115036 0.2134803980588913 0.32244342565536499
0.25366887450218201 0.21222244203090668 0.32246789336204529
0.32386112213134766 0.2076772153377533 0.32172828912734985
0.40171399712562561 0.19966115057468414 0.3176562488079071
0.48562639951705933 0.1880873441696167 0.31051400303840637
0.57407224178314209 0.17474271357059479 0.30342799425125122
0.66520184278488159 0.16231508553028107 0.2981962263584137
0.75746673345565796 0.15246757864952087 0.29823487997055054
0.84742850065231323 0.14532075822353363 0.2992110550403595
0.92921286821365356 0.14239142835140228 0.29787275195121765
0.99059689044952393 0.14528836309909821 0.30446517467498779
0.074642807245254517 0.27244609594345093 0.3092772364616394
0.1314474493265152 0.27319544553756714 0.31348183751106262
0.190095454454422 0.27444559335708618 0.31741523742675781
0.25473210215568542 0.27418708801269531 0.32101836800575256
0.32718658447265625 0.27124676108360291 0.3251117467880249
0.40724018216133118 0.26534456014633179 0.3242032527923584
0.4931633472442627 0.25631868839263916 0.31971439719200134
0.58396440744400024 0.24626226723194122 0.31414720416069031
0.67843377590179443 0.23763151466846466 0.30996239185333252
0.77522295713424683 0.23162198066711426 0.30987316370010376
0.86949962377548218 0.22903190553188324 0.31055089831352234
0.9519769549369812 0.22943742573261261 0.31036657094955444
0.99807333946228027 0.23218958079814911 0.31490203738212585
0.06533532589673996 0.33721232414245605 0.29468575119972229
0.12369918823242188 0.34036338329315186 0.30258148908615112
0.1847919225692749 0.34231385588645935 0.31327030062675476
0.25266304612159729 0.34343788027763367 0.32023569941520691
0.32885536551475525 0.34289303421974182 0.3243219256401062
0.41225838661193848 0.33918508887290955 0.32387980818748474
0.50075483322143555 0.33215853571891785 0.3232293426990509
0.5940781831741333 0.32473400235176086 0.32197543978691101
0.69143474102020264 0.31950506567955017 0.32081177830696106
0.79129230976104736 0.31761255860328674 0.31869614124298096
