assets/lut/editingcorp ampio.cube
# Created by: G'MIC (https://gmic.eu)
TITLE "ampio"
# LUT size
LUT_3D_SIZE 5
# Data domain
DOMAIN_MIN 0.0 0.0 0.0
DOMAIN_MAX 1.0 1.0 1.0
# LUT data points
0.015338478609919548 0.022954843938350677 0.026747863739728928
0.30271756649017334 0.037011254578828812 0.032190613448619843
0.6289483904838562 0.063646994531154633 0.070742666721343994
0.84033125638961792 0.048201989382505417 0.080499716103076935
0.98644876480102539 0.08868204802274704 0.089970216155052185
0.0086351577192544937 0.22897875308990479 0.034781735390424728
0.24250385165214539 0.2368406355381012 0.026092888787388802
0.61940228939056396 0.25452125072479248 0.047015052288770676
0.84696245193481445 0.26286178827285767 0.071859695017337799
0.9878082275390625 0.28190848231315613 0.081232406198978424
0.014827802777290344 0.48799958825111389 0.048843637108802795
0.15393452346324921 0.49281597137451172 0.044013287872076035
0.56861615180969238 0.51366120576858521 0.041259974241256714
0.85314267873764038 0.51344841718673706 0.035825751721858978
0.99007350206375122 0.51343482732772827 0.052290882915258408
0.029537903144955635 0.75046700239181519 0.071937724947929382
0.13185498118400574 0.74934083223342896 0.070537030696868896
0.4014400839805603 0.77589708566665649 0.056628763675689697
0.84154874086380005 0.7804710865020752 0.068840190768241882
0.99146908521652222 0.76811504364013672 0.068117953836917877
0.029074531048536301 0.91948586702346802 0.079773955047130585
0.1658434122800827 0.91479849815368652 0.077760942280292511
0.28675729036331177 0.92977231740951538 0.056972235441207886
0.80182623863220215 0.95960265398025513 0.084072113037109375
0.99973160028457642 0.96899509429931641 0.093014508485794067
0.013330886140465736 0.024383829906582832 0.29814580082893372
0.29312378168106079 0.020421465858817101 0.29428789019584656
0.6369437575340271 0.026635967195034027 0.25970751047134399
0.83888787031173706 0.031463205814361572 0.24877025187015533
0.98156923055648804 0.045122917741537094 0.24728722870349884
0.014975080266594887 0.24884136021137238 0.26905184984207153
0.21677654981613159 0.24442335963249207 0.25314277410507202
0.62889206409454346 0.25201025605201721 0.22583796083927155
0.85162115097045898 0.27803966403007507 0.24971024692058563
0.98974168300628662 0.28904011845588684 0.26393982768058777
0.027315700426697731 0.50135523080825806 0.23287191987037659
0.1488308310508728 0.49631929397583008 0.21974460780620575
0.55898487567901611 0.50764918327331543 0.20371925830841064
0.85771769285202026 0.52099937200546265 0.20085221529006958
0.99242687225341797 0.52142578363418579 0.21593676507472992
0.045915685594081879 0.74976122379302979 0.22173163294792175
0.15504826605319977 0.75178295373916626 0.21589402854442596
0.40335509181022644 0.77106839418411255 0.20596525073051453
0.84501940011978149 0.78179162740707397 0.21839357912540436
0.99081915616989136 0.763924241065979 0.21755972504615784
0.034780271351337433 0.91725993156433105 0.19504806399345398
0.16179628670215607 0.91663277149200439 0.20446872711181641
0.34430542588233948 0.9293707013130188 0.20147931575775146
0.79314428567886353 0.9558638334274292 0.21566665172576904
0.99495857954025269 0.96101492643356323 0.24327380955219269
0.004832039587199688 0.020885542035102844 0.57655614614486694
0.20467968285083771 0.023113833740353584 0.59707820415496826
0.61262756586074829 0.019883278757333755 0.58157777786254883
0.84523868560791016 0.022882888093590736 0.54930132627487183
0.98730432987213135 0.023332903161644936 0.53379678726196289
0.016859840601682663 0.25498414039611816 0.57965564727783203
0.16784429550170898 0.24250109493732452 0.57705140113830566
0.5908772349357605 0.23076771199703217 0.55957365036010742
0.8461076021194458 0.24147309362888336 0.49589213728904724
0.98774594068527222 0.25160297751426697 0.49292141199111938
0.02510102279484272 0.53669208288192749 0.54502731561660767
0.15511977672576904 0.53516989946365356 0.5327335000038147
0.46218371391296387 0.52608513832092285 0.5182260274887085
0.85738080739974976 0.5424119234085083 0.48939305543899536
0.99240195751190186 0.55937272310256958 0.50631970167160034
0.02488810196518898 0.77830153703689575 0.47660490870475769
0.15722230076789856 0.76941972970962524 0.4509451687335968
0.35542991757392883 0.77428328990936279 0.43594014644622803
0.83992153406143188 0.7898067831993103 0.44900727272033691
0.99268031120300293 0.77989798784255981 0.46266812086105347
0.014859577640891075 0.93045699596405029 0.41462960839271545
0.14455674588680267 0.92581725120544434 0.40792649984359741
0.32453635334968567 0.93605095148086548 0.38081198930740356
0.78939187526702881 0.96099996566772461 0.38011232018470764
0.99818044900894165 0.96690911054611206 0.42457550764083862
0.023757096379995346 0.014995410107076168 0.78110367059707642
0.22189067304134369 0.026780491694808006 0.80152922868728638
0.557472825050354 0.020787825807929039 0.81180709600448608
0.84231299161911011 0.02246437780559063 0.80489820241928101
0.98695158958435059 0.022453052923083305 0.79436182975769043
0.021076247096061707 0.23641134798526764 0.80095666646957397
0.1691274493932724 0.23173020780086517 0.80300611257553101
0.49541345238685608 0.21292589604854584 0.81393420696258545
0.84073370695114136 0.21711166203022003 0.79291152954101562
0.98808145523071289 0.2271140068769455 0.78328472375869751
0.019816573709249496 0.51815605163574219 0.79853582382202148
0.17594923079013824 0.51707810163497925 0.79666507244110107
0.33358237147331238 0.4976654052734375 0.80371439456939697
0.84513235092163086 0.51680654287338257 0.79271429777145386
0.98998957872390747 0.5277780294418335 0.78110241889953613
0.020106012001633644 0.78671425580978394 0.77897816896438599
0.16388218104839325 0.79203224182128906 0.77591758966445923
0.2741483747959137 0.79765725135803223 0.76971185207366943
0.79563707113265991 0.8081049919128418 0.78036367893218994
0.99172377586364746 0.80845886468887329 0.77888184785842896
0.010477402247488499 0.95639526844024658 0.74148005247116089
0.13076157867908478 0.95548635721206665 0.73312866687774658
0.21637991070747375 0.95688092708587646 0.70564872026443481
0.73151344060897827 0.97537016868591309 0.72153419256210327
0.99552887678146362 0.9875328540802002 0.74394118785858154
0.02514171227812767 0.023894740268588066 0.91878300905227661
0.20455789566040039 0.020036764442920685 0.93872207403182983
0.53447157144546509 0.023161765187978745 0.9440186619758606
0.84804058074951172 0.019414789974689484 0.94029456377029419
0.99043911695480347 0.017149802297353745 0.94545727968215942
0.019352229312062263 0.23745086789131165 0.94007498025894165
0.18310348689556122 0.22472919523715973 0.94430816173553467
0.48763757944107056 0.21414841711521149 0.94721007347106934
0.82996636629104614 0.21263664960861206 0.94413071870803833
0.97883802652359009 0.22491979598999023 0.94684910774230957
0.017855940386652946 0.50885802507400513 0.94661277532577515
0.16798503696918488 0.50345653295516968 0.94455456733703613
0.29786387085914612 0.48080006241798401 0.95455425977706909
0.82413488626480103 0.49293920397758484 0.95669245719909668
0.98014217615127563 0.50212389230728149 0.95907866954803467
0.019208511337637901 0.77738118171691895 0.95113968849182129
0.15992036461830139 0.77620780467987061 0.95092463493347168
0.28335872292518616 0.77536362409591675 0.957283616065979
0.7775498628616333 0.79964965581893921 0.96869522333145142
0.9860149621963501 0.8006710410118103 0.97453474998474121
0.0064591802656650543 0.96703755855560303 0.95966440439224243
0.14644815027713776 0.96582317352294922 0.96891754865646362
0.28305491805076599 0.9639962911605835 0.9671977162361145
0.65517324209213257 0.97874826192855835 0.97061926126480103
0.99438828229904175 0.99136734008789062 0.98842263221740723
