assets/lut/editingcorp farkling.cube
# Created by: G'MIC (https://gmic.eu)
TITLE "farkling"
# LUT size
LUT_3D_SIZE 13
# Data domain
DOMAIN_MIN 0.0 0.0 0.0
DOMAIN_MAX 1.0 1.0 1.0
# LUT data points
0.060005456209182739 0.069673545658588409 0.08354206383228302
0.10855183005332947 0.075484782457351685 0.08739905059337616
0.16147978603839874 0.08160274475812912 0.092939414083957672
0.22207911312580109 0.088792525231838226 0.09814191609621048
0.29257538914680481 0.098061293363571167 0.10428705811500549
0.37090903520584106 0.1102808341383934 0.11170008033514023
0.44767576456069946 0.12410429120063782 0.11886361986398697
0.51810938119888306 0.13752110302448273 0.12583139538764954
0.58354794979095459 0.14873948693275452 0.13319414854049683
0.64590680599212646 0.15865251421928406 0.14008623361587524
0.70429825782775879 0.16764360666275024 0.14538003504276276
0.76134020090103149 0.17665863037109375 0.14923715591430664
0.81719779968261719 0.1847323477268219 0.1516319066286087
0.06519712507724762 0.11942602694034576 0.086580313742160797
0.11447136104106903 0.12328206747770309 0.090329565107822418
0.16883903741836548 0.12829180061817169 0.09571201354265213
0.23062349855899811 0.13666494190692902 0.098955295979976654
0.30572953820228577 0.14642739295959473 0.10545001924037933
0.389974445104599 0.15937350690364838 0.11426152288913727
0.46977922320365906 0.17559516429901123 0.12155997753143311
0.53946679830551147 0.19031552970409393 0.1286395788192749
0.60283207893371582 0.20097993314266205 0.13683468103408813
0.66167175769805908 0.20902438461780548 0.14409023523330688
0.71772783994674683 0.21664443612098694 0.14867511391639709
0.77255350351333618 0.22454839944839478 0.15146467089653015
0.82706868648529053 0.23206287622451782 0.1532207727432251
0.070165731012821198 0.16976211965084076 0.090091913938522339
0.11934023350477219 0.17190267145633698 0.093218937516212463
0.17362213134765625 0.1762564480304718 0.096265695989131927
0.23707558214664459 0.18446721136569977 0.098004251718521118
0.31520694494247437 0.19245396554470062 0.10498935729265213
0.40218237042427063 0.20518545806407928 0.11439888179302216
0.48395895957946777 0.22361132502555847 0.12184217572212219
0.55413353443145752 0.24053716659545898 0.12979690730571747
0.61659097671508789 0.25108137726783752 0.13914991915225983
0.67431265115737915 0.25819972157478333 0.14680875837802887
0.72888278961181641 0.26482462882995605 0.15072304010391235
0.78232717514038086 0.27163586020469666 0.15222622454166412
0.83584505319595337 0.27875396609306335 0.15334095060825348
0.074325323104858398 0.22099857032299042 0.093773484230041504
0.12335571646690369 0.22243914008140564 0.095704428851604462
0.17782780528068542 0.2259683758020401 0.097330369055271149
0.24371752142906189 0.23189626634120941 0.098795406520366669
0.32406288385391235 0.23917776346206665 0.10327001661062241
0.41137570142745972 0.25154030323028564 0.11123217642307281
0.49280586838722229 0.26960209012031555 0.12061701714992523
0.56290704011917114 0.28703716397285461 0.13066573441028595
0.62502741813659668 0.29898211359977722 0.14056427776813507
0.68243622779846191 0.30667564272880554 0.14745992422103882
0.7370450496673584 0.31279146671295166 0.15101756155490875
0.79054713249206543 0.31899610161781311 0.15188589692115784
0.84375095367431641 0.32567510008811951 0.15234214067459106
0.078082546591758728 0.27169781923294067 0.098402343690395355
0.12668898701667786 0.27331644296646118 0.09974110871553421
0.18130366504192352 0.27685806155204773 0.10127470642328262
0.24805161356925964 0.28254908323287964 0.10275135189294815
0.33064514398574829 0.28989958763122559 0.10428684949874878
0.42028495669364929 0.30150702595710754 0.1092282310128212
0.50124174356460571 0.31765595078468323 0.11914063990116119
0.56913632154464722 0.33430737257003784 0.13089479506015778
0.6296272873878479 0.34650292992591858 0.14091485738754272
0.68738311529159546 0.35474121570587158 0.14697515964508057
0.74287873506546021 0.36089435219764709 0.14985483884811401
0.79746764898300171 0.36670172214508057 0.15060527622699738
0.85105031728744507 0.37323307991027832 0.15105567872524261
0.082094334065914154 0.32253584265708923 0.10445680469274521
0.13025173544883728 0.3242594301700592 0.10568958520889282
0.18390034139156342 0.3290562629699707 0.10827936232089996
0.2485218346118927 0.3374750018119812 0.11160380393266678
0.33209529519081116 0.34713959693908691 0.11293868720531464
0.42781150341033936 0.35680368542671204 0.11288803815841675
0.51157838106155396 0.36973360180854797 0.11923442035913467
0.57621681690216064 0.38361603021621704 0.13044506311416626
0.6347426176071167 0.39465498924255371 0.13961373269557953
0.6922876238822937 0.40261325240135193 0.14497484266757965
0.74850291013717651 0.40910643339157104 0.14733435213565826
0.80345028638839722 0.41508206725120544 0.14831601083278656
0.85763847827911377 0.42184120416641235 0.14947722852230072
0.087642759084701538 0.37424656748771667 0.11213713884353638
0.13584217429161072 0.37662380933761597 0.11356205493211746
0.18873500823974609 0.38321718573570251 0.11701926589012146
0.25117170810699463 0.39521554112434387 0.12298858910799026
0.33310991525650024 0.40886509418487549 0.12582036852836609
0.43512898683547974 0.41835430264472961 0.12144537270069122
0.52509653568267822 0.42600581049919128 0.12097283452749252
0.58751654624938965 0.43480303883552551 0.12899874150753021
0.64392364025115967 0.44249352812767029 0.13610725104808807
0.69977205991744995 0.45089805126190186 0.14132024347782135
0.75465017557144165 0.45797061920166016 0.14385639131069183
0.80924528837203979 0.46527427434921265 0.14610671997070312
0.86308211088180542 0.4734271764755249 0.14887583255767822
0.096282511949539185 0.42945724725723267 0.1225895881652832
0.14552758634090424 0.43310528993606567 0.12442772090435028
0.19940902292728424 0.44220077991485596 0.12908950448036194
0.26102510094642639 0.45750784873962402 0.13637174665927887
0.33958464860916138 0.47591888904571533 0.14133423566818237
0.44139733910560608 0.48860451579093933 0.13626046478748322
0.53675931692123413 0.49141404032707214 0.12861470878124237
0.60273510217666626 0.48945263028144836 0.12747262418270111
0.65773719549179077 0.49295651912689209 0.13104154169559479
0.70980483293533325 0.50007367134094238 0.13551503419876099
0.76191627979278564 0.50850397348403931 0.13996483385562897
0.81496137380599976 0.51844531297683716 0.14539332687854767
0.86752039194107056 0.52846825122833252 0.15078389644622803
0.11090334504842758 0.49189931154251099 0.13777849078178406
0.161982461810112 0.49789372086524963 0.14070141315460205
0.21776296198368073 0.50971382856369019 0.14673024415969849
0.28065386414527893 0.52752095460891724 0.15449658036231995
0.35703864693641663 0.54866945743560791 0.16043801605701447
0.44956061244010925 0.56648331880569458 0.15874823927879333
0.5409930944442749 0.57303059101104736 0.15142838656902313
0.61402040719985962 0.56563150882720947 0.14325886964797974
0.67055356502532959 0.55989760160446167 0.1377851814031601
0.71995258331298828 0.55764371156692505 0.13563960790634155
0.76945310831069946 0.56482529640197754 0.14113810658454895
0.82029461860656738 0.57609051465988159 0.149455726146698
0.8717072606086731 0.58671480417251587 0.1565176248550415
0.13411734998226166 0.56315898895263672 0.15838725864887238
0.18619610369205475 0.57102924585342407 0.1626611053943634
0.24375684559345245 0.58436423540115356 0.16955316066741943
0.30822688341140747 0.60278308391571045 0.17709966003894806
0.38311523199081421 0.62222796678543091 0.18237863481044769
0.4676767885684967 0.6416698694229126 0.1835101842880249
0.55183041095733643 0.65673375129699707 0.18233144283294678
0.62379199266433716 0.65988779067993164 0.17736129462718964
0.68004769086837769 0.64567172527313232 0.16418327391147614
0.72805118560791016 0.63261115550994873 0.15425175428390503
0.77533090114593506 0.63221257925033569 0.15534287691116333
0.8245348334312439 0.63877719640731812 0.1610187292098999
0.87481695413589478 0.64617592096328735 0.16624392569065094
0.16137611865997314 0.63775664567947388 0.18194498121738434
0.21476602554321289 0.64744162559509277 0.18732856214046478
0.27364405989646912 0.6613277792930603 0.19488987326622009
0.33889883756637573 0.67734628915786743 0.20166122913360596
0.41152432560920715 0.69299691915512085 0.20486587285995483
0.49000987410545349 0.70840895175933838 0.20561259984970093
0.56576919555664062 0.72433245182037354 0.20573697984218597
0.63186126947402954 0.73220169544219971 0.20295678079128265
0.68574661016464233 0.72400391101837158 0.19317068159580231
0.73242443799972534 0.71193939447402954 0.18416911363601685
0.77875375747680664 0.70470112562179565 0.17930068075656891
0.82732272148132324 0.70261627435684204 0.17772960662841797
0.87664538621902466 0.70353555679321289 0.17799997329711914
0.18964588642120361 0.71164721250534058 0.20564368367195129
0.24436640739440918 0.72207051515579224 0.21160583198070526
0.30351826548576355 0.73545777797698975 0.21893300116062164
0.36795246601104736 0.74889081716537476 0.22432230412960052
0.43703991174697876 0.76016718149185181 0.22536000609397888
0.50887894630432129 0.77118909358978271 0.22428348660469055
0.57760477066040039 0.78257077932357788 0.22318734228610992
0.63848423957824707 0.78991049528121948 0.22049282491207123
0.69049656391143799 0.78781628608703613 0.21472914516925812
0.73647177219390869 0.78052997589111328 0.20822300016880035
0.78227102756500244 0.77156132459640503 0.20111565291881561
0.8295290470123291 0.76392734050750732 0.19463895261287689
0.87800067663192749 0.75978350639343262 0.19036595523357391
0.21642036736011505 0.78215456008911133 0.22741632163524628
0.27167680859565735 0.79228854179382324 0.23281294107437134
0.33044642210006714 0.80359739065170288 0.23831009864807129
0.39289268851280212 0.81429332494735718 0.24198299646377563
0.45828598737716675 0.82308006286621094 0.24215355515480042
0.52434688806533813 0.83093661069869995 0.2403004914522171
0.58742719888687134 0.83860981464385986 0.23770807683467865
0.64469832181930542 0.84368699789047241 0.23447407782077789
0.69552856683731079 0.84379541873931885 0.23005732893943787
0.74183481931686401 0.8390764594078064 0.22432412207126617
0.78699398040771484 0.83095383644104004 0.21710152924060822
0.83307915925979614 0.82242363691329956 0.20939067006111145
0.88035154342651367 0.81559842824935913 0.20303918421268463
0.058640662580728531 0.069159157574176788 0.12874448299407959
0.10562126338481903 0.073964439332485199 0.13165204226970673
0.15668383240699768 0.079732038080692291 0.13680072128772736
0.21527138352394104 0.08723023533821106 0.14223815500736237
0.28540104627609253 0.096956901252269745 0.14837163686752319
0.36490118503570557 0.10948080569505692 0.15507636964321136
0.4428306519985199 0.12324782460927963 0.16185213625431061
0.51441454887390137 0.1365201473236084 0.16877886652946472
0.58120763301849365 0.14838087558746338 0.175725057721138
0.64372140169143677 0.15880128741264343 0.18218132853507996
0.70297223329544067 0.16798374056816101 0.18734729290008545
0.76053601503372192 0.17733034491539001 0.19139006733894348
0.81691038608551025 0.18651121854782104 0.1944916844367981
0.063907533884048462 0.11893089115619659 0.13226054608821869
0.11102872341871262 0.12199731171131134 0.13512921333312988
0.16290120780467987 0.12743149697780609 0.1400696188211441
0.22426889836788177 0.13661989569664001 0.14443269371986389
0.30092588067054749 0.14727789163589478 0.15026211738586426
0.38945329189300537 0.16139240562915802 0.15810319781303406
0.47100478410720825 0.17654909193515778 0.16543179750442505
0.53963518142700195 0.19007813930511475 0.17233733832836151
0.60266917943954468 0.20089446008205414 0.17975980043411255
0.66091400384902954 0.2093236893415451 0.18606923520565033
0.71659588813781738 0.21709367632865906 0.19033950567245483
0.77113986015319824 0.22531813383102417 0.19307486712932587
0.82614278793334961 0.23364920914173126 0.19559940695762634
0.069951616227626801 0.17127543687820435 0.13641197979450226
0.11596421152353287 0.17166376113891602 0.13941104710102081
0.16708311438560486 0.17614687979221344 0.14220838248729706
0.22941868007183075 0.18530881404876709 0.14480574429035187
0.30969423055648804 0.19489158689975739 0.15037098526954651
0.40155681967735291 0.20798501372337341 0.15837033092975616
0.48656478524208069 0.22508250176906586 0.16673514246940613
0.55657720565795898 0.24060530960559845 0.17482227087020874
0.61766678094863892 0.25150486826896667 0.18289270997047424
0.67424947023391724 0.25911283493041992 0.18917264044284821
0.72781825065612793 0.26541712880134583 0.19206435978412628
0.78074777126312256 0.2725946307182312 0.19442808628082275
0.83459633588790894 0.28063958883285522 0.19551889598369598
0.074790313839912415 0.22490476071834564 0.14078867435455322
0.1201438307762146 0.2243572324514389 0.14286293089389801
0.17056886851787567 0.22747026383876801 0.14440807700157166
0.23370157182216644 0.23373100161552429 0.14593379199504852
0.31517627835273743 0.24095121026039124 0.14933860301971436
0.407806396484375 0.25264957547187805 0.15623758733272552
0.49392682313919067 0.27008482813835144 0.16613985598087311
0.56500881910324097 0.28786623477935791 0.17648419737815857
0.62623453140258789 0.30057230591773987 0.18510323762893677
0.68272000551223755 0.30791452527046204 0.19063587486743927
0.73660123348236084 0.31417432427406311 0.19316905736923218
0.78953534364700317 0.3207264244556427 0.19439211487770081
0.84274142980575562 0.32815569639205933 0.19508463144302368
0.078771226108074188 0.27704605460166931 0.14638343453407288
0.12393056601285934 0.2772153913974762 0.14767551422119141
0.17365920543670654 0.27949011325836182 0.14912126958370209
0.23622263967990875 0.28430426120758057 0.15037475526332855
0.319792240858078 0.29029572010040283 0.15091978013515472
0.41576212644577026 0.30063968896865845 0.1544778048992157
0.50065535306930542 0.31770390272140503 0.16472251713275909
0.56890946626663208 0.33563864231109619 0.17703011631965637
0.63024264574050903 0.34794613718986511 0.18588916957378387
0.68784111738204956 0.35603624582290649 0.190426304936409
0.74302852153778076 0.3624451756477356 0.19222092628479004
0.79704517126083374 0.36901605129241943 0.19284574687480927
0.85037517547607422 0.3764282763004303 0.19363170862197876
0.083858966827392578 0.32922029495239258 0.15374274551868439
0.12835685908794403 0.32952111959457397 0.15452666580677032
0.17593789100646973 0.33208215236663818 0.15651969611644745
0.23436574637889862 0.3385779857635498 0.1597461998462677
0.31738802790641785 0.34669914841651917 0.16021688282489777
0.42193174362182617 0.3552696704864502 0.15742810070514679
0.51047110557556152 0.36923319101333618 0.16328766942024231
0.57557320594787598 0.3846229612827301 0.17522159218788147
0.63557058572769165 0.39523807168006897 0.18340837955474854
0.69328945875167847 0.40295565128326416 0.18755063414573669
0.74899923801422119 0.41011148691177368 0.1894095242023468
0.80354803800582886 0.41761982440948486 0.19060236215591431
0.85698604583740234 0.42574700713157654 0.19204722344875336
0.090835601091384888 0.3828805685043335 0.16299596428871155
0.13456258177757263 0.38246405124664307 0.16281513869762421
0.18040874600410461 0.38520693778991699 0.16503244638442993
0.23321112990379333 0.39465498924255371 0.17102530598640442
0.31006935238838196 0.40801993012428284 0.1744653582572937
0.421781986951828 0.41680920124053955 0.16699382662773132
0.52444183826446533 0.42467975616455078 0.16371667385101318
0.59085822105407715 0.43434309959411621 0.17144156992435455
0.64729589223861694 0.44186648726463318 0.17798310518264771
0.70166891813278198 0.44913104176521301 0.18192164599895477
0.75563037395477295 0.45761150121688843 0.18514324724674225
0.8095470666885376 0.46785709261894226 0.18813763558864594
0.86303889751434326 0.47746095061302185 0.19156037271022797
0.10044284909963608 0.43904653191566467 0.17407771944999695
0.14478769898414612 0.43900409340858459 0.17387820780277252
0.19118036329746246 0.44303613901138306 0.17638002336025238
0.24128924310207367 0.45630383491516113 0.18442787230014801
0.30986398458480835 0.47590899467468262 0.19238808751106262
0.41475534439086914 0.49009382724761963 0.18802094459533691
0.52880102396011353 0.49363669753074646 0.17678138613700867
0.60598140954971313 0.49386268854141235 0.17443676292896271
0.6615104079246521 0.49483644962310791 0.17524741590023041
0.71189743280410767 0.49839848279953003 0.17718301713466644
0.76302850246429443 0.50857102870941162 0.18191199004650116
0.81533294916152954 0.52119910717010498 0.18822081387042999
0.86773717403411865 0.53265351057052612 0.19390931725502014
0.1152346283197403 0.5013967752456665 0.18884877860546112
0.1613461971282959 0.50378066301345825 0.18997816741466522
0.209649458527565 0.5113489031791687 0.19424302875995636
0.26270356774330139 0.5269162654876709 0.20310424268245697
0.33073049783706665 0.54973864555358887 0.21214878559112549
0.42424100637435913 0.57085639238357544 0.21289932727813721
0.52850973606109619 0.57964658737182617 0.20502679049968719
0.61291056871414185 0.57576191425323486 0.19590497016906738
0.67267942428588867 0.56626313924789429 0.18724784255027771
0.72171789407730103 0.56084966659545898 0.18230631947517395
0.77052634954452515 0.56745564937591553 0.18615072965621948
0.82120656967163086 0.57972913980484009 0.19372478127479553
0.87241262197494507 0.59087395668029785 0.20041581988334656
0.13724260032176971 0.57141554355621338 0.20811989903450012
0.18504749238491058 0.57642298936843872 0.21094316244125366
0.23665235936641693 0.58664238452911377 0.21700355410575867
0.29447340965270996 0.60312497615814209 0.2255680114030838
0.36444929242134094 0.62387073040008545 0.23325155675411224
0.44941049814224243 0.64519774913787842 0.23645132780075073
0.54063129425048828 0.66140991449356079 0.23453463613986969
0.62084996700286865 0.66447710990905762 0.22775384783744812
0.68083363771438599 0.65159773826599121 0.21397727727890015
0.72966104745864868 0.6387593150138855 0.20363016426563263
0.77696400880813599 0.63680756092071533 0.20186692476272583
0.8262326717376709 0.64259171485900879 0.20579998195171356
0.87631130218505859 0.6498296856880188 0.21061989665031433
0.16324201226234436 0.64436918497085571 0.22968555986881256
0.21344737708568573 0.65209454298019409 0.23431475460529327
0.26816907525062561 0.6641574501991272 0.24221417307853699
0.32936835289001465 0.67935729026794434 0.24999213218688965
0.39924508333206177 0.69476592540740967 0.25457960367202759
0.47780764102935791 0.71074271202087402 0.2557220458984375
0.55802559852600098 0.7261195182800293 0.25507792830467224
0.62916105985641479 0.73416781425476074 0.25079017877578735
0.68650197982788086 0.72747951745986938 0.24061761796474457
0.73471260070800781 0.71616590023040771 0.23066429793834686
0.78133773803710938 0.70837587118148804 0.22462591528892517
0.82936477661132812 0.7057533860206604 0.22228538990020752
0.8783300518989563 0.70738977193832397 0.22238053381443024
0.19049301743507385 0.71657449007034302 0.25187152624130249
0.24284264445304871 0.72586971521377563 0.25770083069801331
0.29980218410491943 0.7385450005531311 0.26613381505012512
0.36181920766830444 0.75096112489700317 0.27261042594909668
0.42953437566757202 0.76160889863967896 0.27403026819229126
0.50187623500823975 0.7716938853263855 0.27236783504486084
0.57322293519973755 0.78246498107910156 0.27012616395950317
0.63724488019943237 0.78991591930389404 0.26626875996589661
0.69142115116119385 0.789467453956604 0.26023033261299133
0.7387535572052002 0.78302985429763794 0.25323107838630676
0.7845999002456665 0.77480751276016235 0.24586008489131927
0.831573486328125 0.76760560274124146 0.23958171904087067
0.8793952465057373 0.76374971866607666 0.23570570349693298
0.21704638004302979 0.78594660758972168 0.27358818054199219
0.27093437314033508 0.79532492160797119 0.27879148721694946
0.32844164967536926 0.80603820085525513 0.28555542230606079
0.38937199115753174 0.81607496738433838 0.28961652517318726
0.45404937863349915 0.8237156867980957 0.28958889842033386
0.52055007219314575 0.83041840791702271 0.28691613674163818
0.58544492721557617 0.83737039566040039 0.28323620557785034
0.64463472366333008 0.84292525053024292 0.27951020002365112
0.69662904739379883 0.84465610980987549 0.27515676617622375
0.74354422092437744 0.84162682294845581 0.26960772275924683
0.78871685266494751 0.8349108099937439 0.26266837120056152
0.83455061912536621 0.82684212923049927 0.2554970383644104
0.88163310289382935 0.82056373357772827 0.24941249191761017
0.059276536107063293 0.069657988846302032 0.17305596172809601
0.10484565049409866 0.073568843305110931 0.17498229444026947
0.15322311222553253 0.078919157385826111 0.17887909710407257
0.2085256427526474 0.085822761058807373 0.18406935036182404
0.27463206648826599 0.094808138906955719 0.18968439102172852
0.3499755859375 0.10587189346551895 0.19592602550983429
0.42778328061103821 0.11872761696577072 0.20261117815971375
0.5038486123085022 0.13253314793109894 0.20975592732429504
0.57509857416152954 0.14581327140331268 0.21683515608310699
0.64080393314361572 0.15753854811191559 0.22314086556434631
0.70188760757446289 0.16780297458171844 0.22839827835559845
0.76065373420715332 0.1782752126455307 0.232852503657341
0.8175780177116394 0.18801236152648926 0.23662683367729187
0.064920611679553986 0.11941201984882355 0.17683115601539612
0.10999390482902527 0.12192790955305099 0.17851091921329498
0.15847755968570709 0.12768799066543579 0.18218785524368286
0.21631227433681488 0.13628701865673065 0.18683448433876038
0.28944006562232971 0.14636972546577454 0.19262517988681793
0.3746279776096344 0.15873022377490997 0.19979070127010345
0.45830988883972168 0.17268790304660797 0.20710934698581696
0.53200596570968628 0.18628698587417603 0.21435815095901489
0.59798765182495117 0.19826778769493103 0.22142161428928375
0.65847861766815186 0.20828226208686829 0.22710889577865601
0.71484673023223877 0.21674896776676178 0.23101784288883209
0.76976919174194336 0.22560915350914001 0.23414860665798187
0.82562530040740967 0.2352108359336853 0.23758676648139954
0.070504508912563324 0.1724061518907547 0.18070138990879059
0.11452280730009079 0.17227999866008759 0.18261662125587463
0.16196121275424957 0.17761082947254181 0.18553318083286285
0.2200436145067215 0.18686659634113312 0.18906095623970032
0.29742559790611267 0.19604501128196716 0.19434519112110138
0.38955387473106384 0.20757336914539337 0.20182502269744873
0.47880753874778748 0.22269579768180847 0.2102753221988678
0.55315828323364258 0.23754486441612244 0.21845044195652008
0.61631900072097778 0.24958798289299011 0.22559930384159088
0.67317408323287964 0.25850287079811096 0.23067240417003632
0.72655028104782104 0.26566803455352783 0.23354315757751465
0.77934104204177856 0.27338385581970215 0.23506268858909607
0.83360046148300171 0.28257116675376892 0.2378726452589035
0.075670711696147919 0.22660604119300842 0.18590123951435089
0.11898931115865707 0.22588376700878143 0.1876453310251236
0.16551807522773743 0.22906021773815155 0.18972215056419373
0.22332198917865753 0.2357366532087326 0.19186195731163025
0.30159229040145874 0.24213975667953491 0.19504834711551666
0.39720365405082703 0.25254282355308533 0.20168530941009521
0.48954299092292786 0.26950237154960632 0.21166852116584778
0.56430679559707642 0.28670400381088257 0.22159165143966675
0.62661683559417725 0.29957029223442078 0.22890190780162811
0.68316876888275146 0.30826398730278015 0.23313497006893158
0.73649156093597412 0.31541964411735535 0.23490649461746216
0.78897464275360107 0.32276123762130737 0.23598332703113556
0.84199553728103638 0.33111155033111572 0.23765444755554199
0.081312455236911774 0.28051340579986572 0.19330233335494995
0.1244160532951355 0.28080862760543823 0.19467645883560181
0.1701648086309433 0.28236150741577148 0.19583827257156372
0.22643990814685822 0.28587892651557922 0.19672045111656189
0.30619716644287109 0.29036948084831238 0.19696076214313507
0.40670740604400635 0.29956266283988953 0.200335294008255
0.49809759855270386 0.31742984056472778 0.21105290949344635
0.56864142417907715 0.33606046438217163 0.22289516031742096
