assets/lut/editingcorp motus.cube
# Created by: G'MIC (https://gmic.eu)
TITLE "motus"
# LUT size
LUT_3D_SIZE 5
# Data domain
DOMAIN_MIN 0.0 0.0 0.0
DOMAIN_MAX 1.0 1.0 1.0
# LUT data points
0.023687025532126427 0.028072237968444824 0.031100763007998466
0.25392904877662659 0.0079450421035289764 0.020633967593312263
0.46483752131462097 0.0072988620959222317 0
0.66268420219421387 0.0050222808495163918 6.4625460254319478e-06
0.86713099479675293 0.0084339212626218796 0.0010044022928923368
0.0012019139248877764 0.23284941911697388 0.010117623955011368
0.28391602635383606 0.26095247268676758 0.0020508409943431616
0.51916646957397461 0.24994562566280365 0.0021855074446648359
0.73428303003311157 0.20917616784572601 0.0052485298365354538
0.93941360712051392 0.17099566757678986 0.022315919399261475
0 0.4394707977771759 0.0051954681985080242
0.21138091385364532 0.48022282123565674 0
0.54597753286361694 0.49400734901428223 0.0037264206912368536
0.7775033712387085 0.47989183664321899 0.014122862368822098
0.98726439476013184 0.4579789936542511 0.014211826957762241
9.5098155725281686e-05 0.66666018962860107 0.00062445848016068339
0.12050876766443253 0.70349985361099243 0.0057485392317175865
0.49033215641975403 0.72521138191223145 0.0074162948876619339
0.77604609727859497 0.72526651620864868 0.017808008939027786
0.99456411600112915 0.70924133062362671 0.010953177697956562
0.0012878119014203548 0.92028230428695679 0
0.10820399224758148 0.94514477252960205 0.0052298898808658123
0.41502118110656738 0.9635499119758606 0.0048756171017885208
0.73420906066894531 0.97018915414810181 0.005698230117559433
0.98714560270309448 0.96917891502380371 0.010048615746200085
0.011032000184059143 0.022343594580888748 0.24591748416423798
0.23664486408233643 0.017532648518681526 0.25586643815040588
0.46426558494567871 0.0083206770941615105 0.23792053759098053
0.66030257940292358 0.0020506016444414854 0.18639974296092987
0.85976266860961914 0.011305565945804119 0.10380950570106506
0.0019087548134848475 0.23755739629268646 0.25407505035400391
0.24335519969463348 0.26470810174942017 0.25869914889335632
0.51238375902175903 0.26471829414367676 0.23107771575450897
0.7270999550819397 0.22163653373718262 0.15652339160442352
0.92818111181259155 0.1432119607925415 0.069557473063468933
0.0053035211749374866 0.44469079375267029 0.2257239818572998
0.16102640330791473 0.47276014089584351 0.19089733064174652
0.51850956678390503 0.49996313452720642 0.14289134740829468
0.76914221048355103 0.48867422342300415 0.097640842199325562
0.98035162687301636 0.46043741703033447 0.05695699155330658
0.0043221120722591877 0.67681455612182617 0.10012156516313553
0.068801090121269226 0.69973564147949219 0.083312392234802246
0.45510366559028625 0.72912681102752686 0.035819288343191147
0.76376324892044067 0.7352975606918335 0.078160993754863739
0.99203544855117798 0.71999531984329224 0.040478814393281937
0.0062272315844893456 0.92759150266647339 0.012231475673615932
0.060550209134817123 0.94838798046112061 0.048996720463037491
0.3377956748008728 0.96498322486877441 0.035542923957109451
0.72235023975372314 0.97398340702056885 0.044905882328748703
0.98379051685333252 0.97316223382949829 0.072326794266700745
0.01145833358168602 0.025831589475274086 0.43339794874191284
0.21984089910984039 0.016345692798495293 0.44277054071426392
0.46205747127532959 0.012728043831884861 0.45079511404037476
0.67832964658737183 0.00055416329996660352 0.43706431984901428
0.87451648712158203 0.00014020134403835982 0.40966284275054932
0.0043640583753585815 0.24484787881374359 0.46040111780166626
0.21485815942287445 0.26357248425483704 0.46978098154067993
0.48973017930984497 0.27834737300872803 0.48413494229316711
0.72574496269226074 0.23906558752059937 0.46367540955543518
0.93072402477264404 0.18289923667907715 0.43228128552436829
0.0024123396724462509 0.45585128664970398 0.46949020028114319
0.15402072668075562 0.47320309281349182 0.47597596049308777
0.48678863048553467 0.50694876909255981 0.48325541615486145
0.75651097297668457 0.50251436233520508 0.46737310290336609
0.97839069366455078 0.47135743498802185 0.43226990103721619
0.0018469867063686252 0.69457513093948364 0.45991614460945129
0.070102334022521973 0.71204161643981934 0.45515373349189758
0.43199858069419861 0.73199665546417236 0.44658657908439636
0.75196844339370728 0.74466609954833984 0.42707487940788269
0.98720371723175049 0.73512214422225952 0.37191584706306458
0.0048456829972565174 0.94099241495132446 0.37756314873695374
0.053755171597003937 0.96096980571746826 0.38712868094444275
0.33328044414520264 0.96881169080734253 0.34718960523605347
0.70218449831008911 0.98112016916275024 0.2541789710521698
0.98223096132278442 0.98063409328460693 0.21936662495136261
0.017867084592580795 0.037363659590482712 0.61198824644088745
0.20717819035053253 0.023698216304183006 0.62054622173309326
0.44356504082679749 0.0082933912053704262 0.63643985986709595
0.67737632989883423 0 0.6403767466545105
0.88263380527496338 0 0.62254661321640015
0.015739589929580688 0.24939410388469696 0.65577155351638794
0.19789963960647583 0.25915557146072388 0.6646345853805542
0.45920085906982422 0.27550208568572998 0.68288969993591309
0.71934932470321655 0.2452990859746933 0.68957352638244629
0.9332013726234436 0.14248739182949066 0.66448515653610229
0.004774684552103281 0.46167758107185364 0.69038063287734985
0.15038029849529266 0.47863787412643433 0.69791305065155029
0.46002238988876343 0.50398403406143188 0.71107023954391479
0.73352712392807007 0.50849467515945435 0.71581751108169556
0.97220075130462646 0.48260283470153809 0.69626104831695557
8.0961341154761612e-05 0.70295757055282593 0.70608896017074585
0.071409501135349274 0.71790999174118042 0.70602864027023315
0.41282722353935242 0.73954302072525024 0.71141129732131958
0.7314990758895874 0.75525766611099243 0.71359068155288696
0.98637717962265015 0.74169301986694336 0.69764518737792969
0.0055471681989729404 0.95422786474227905 0.69166702032089233
0.064768515527248383 0.9699280858039856 0.69651085138320923
0.34402647614479065 0.97894704341888428 0.69667106866836548
0.68767064809799194 0.98745852708816528 0.69325321912765503
0.97890263795852661 0.98929214477539062 0.66769129037857056
0.035019654780626297 0.047414623200893402 0.7964053750038147
0.2095971554517746 0.024338606745004654 0.80492311716079712
0.43204414844512939 0.0040288590826094151 0.81958687305450439
0.66663223505020142 0 0.8309321403503418
0.88112747669219971 0.015109492465853691 0.82706916332244873
0.029205905273556709 0.25100475549697876 0.85203838348388672
0.19394773244857788 0.2482285350561142 0.86008858680725098
0.43656620383262634 0.24552275240421295 0.87601196765899658
0.70410680770874023 0.219044029712677 0.8872416615486145
0.9285731315612793 0.16597664356231689 0.87735468149185181
0.011266147717833519 0.46412438154220581 0.90197217464447021
0.14087101817131042 0.47716155648231506 0.9092680811882019
0.43420416116714478 0.49503210186958313 0.92269843816757202
0.71978193521499634 0.50094723701477051 0.93317645788192749
0.97014814615249634 0.47307038307189941 0.92861580848693848
0 0.70437592267990112 0.93153929710388184
0.047329667955636978 0.71992504596710205 0.93835735321044922
0.41769120097160339 0.7411152720451355 0.94856268167495728
0.71848154067993164 0.75240403413772583 0.9588586688041687
0.98097044229507446 0.74714583158493042 0.95815229415893555
0.00023803711519576609 0.95870035886764526 0.94226974248886108
0.034954190254211426 0.97408568859100342 0.94786649942398071
0.33713650703430176 0.98349690437316895 0.95206862688064575
0.68611806631088257 0.99124252796173096 0.96285343170166016
0.9780735969543457 0.99377846717834473 0.96158337593078613
