assets/lut/editingcorp husmes.cube
# Created by: G'MIC (https://gmic.eu)
TITLE "husmes"
# LUT size
LUT_3D_SIZE 5
# Data domain
DOMAIN_MIN 0.0 0.0 0.0
DOMAIN_MAX 1.0 1.0 1.0
# LUT data points
0.026784036308526993 0.031655047088861465 0.023465923964977264
0.4546673595905304 0.056121017783880234 0.025828536599874496
0.6734769344329834 0.10422279685735703 0.056179434061050415
0.77645081281661987 0.11110139638185501 0.067098192870616913
0.84060931205749512 0.1228443831205368 0.067474499344825745
0.052680175751447678 0.25852954387664795 0.034298960119485855
0.31521821022033691 0.25749760866165161 0.018507819622755051
0.66826504468917847 0.27012383937835693 0.048058319836854935
0.80252712965011597 0.26516562700271606 0.068501114845275879
0.85928678512573242 0.24546286463737488 0.068898282945156097
0.12293107062578201 0.51579934358596802 0.10455292463302612
0.22009924054145813 0.50928407907485962 0.078107647597789764
0.62639820575714111 0.54991817474365234 0.095704920589923859
0.83901351690292358 0.50273281335830688 0.10504873096942902
0.89894986152648926 0.46922513842582703 0.091239109635353088
0.17273262143135071 0.73532527685165405 0.19391267001628876
0.22160474956035614 0.72372716665267944 0.19126689434051514
0.49294784665107727 0.74895429611206055 0.12911085784435272
0.84045004844665527 0.76738399267196655 0.18330271542072296
0.9406435489654541 0.71937727928161621 0.1693195104598999
0.17186793684959412 0.80389267206192017 0.19790741801261902
0.20904405415058136 0.80221617221832275 0.18825706839561462
0.37576612830162048 0.8219372034072876 0.14237293601036072
0.74888736009597778 0.87770122289657593 0.17622022330760956
0.96351492404937744 0.87808161973953247 0.20449094474315643
0.025690654292702675 0.067848086357116699 0.33681115508079529
0.42931661009788513 0.064538456499576569 0.38042256236076355
0.68449646234512329 0.061339240521192551 0.30938175320625305
0.77452975511550903 0.074534021317958832 0.267417311668396
0.84245532751083374 0.082836136221885681 0.23459790647029877
0.024399582296609879 0.30818217992782593 0.30053949356079102
0.24079509079456329 0.27276331186294556 0.27057483792304993
0.66180622577667236 0.25966605544090271 0.21519666910171509
0.79221206903457642 0.26070401072502136 0.20078980922698975
0.8571057915687561 0.25368598103523254 0.197239950299263
0.08573787659406662 0.53111171722412109 0.25040701031684875
0.18875102698802948 0.51543748378753662 0.21036790311336517
0.61781054735183716 0.53667134046554565 0.16988873481750488
0.83508884906768799 0.49713480472564697 0.17281188070774078
0.89852380752563477 0.46703290939331055 0.16891656816005707
0.17076118290424347 0.73183125257492065 0.26193088293075562
0.22056113183498383 0.72236144542694092 0.24988190829753876
0.50154751539230347 0.7504192590713501 0.19278906285762787
0.84194475412368774 0.76306146383285522 0.24189992249011993
0.93940615653991699 0.71709460020065308 0.23115921020507812
0.17060074210166931 0.80171054601669312 0.24153028428554535
0.19784556329250336 0.80860155820846558 0.23278076946735382
0.3747677206993103 0.82186007499694824 0.15809284150600433
0.74781203269958496 0.87985527515411377 0.2269158810377121
0.96933132410049438 0.88172030448913574 0.25893160700798035
0.020480794832110405 0.089162416756153107 0.56865394115447998
0.38388547301292419 0.078225322067737579 0.67047286033630371
0.6742548942565918 0.08372962474822998 0.65989965200424194
0.78409832715988159 0.091979324817657471 0.63297754526138306
0.84752470254898071 0.097647212445735931 0.57430261373519897
0.02335287444293499 0.3580811619758606 0.56213432550430298
0.12225546687841415 0.29784253239631653 0.58089393377304077
0.62746399641036987 0.27252796292304993 0.61842149496078491
0.79181540012359619 0.27129793167114258 0.54791522026062012
0.85679858922958374 0.25936129689216614 0.49941423535346985
0.036236558109521866 0.57006502151489258 0.55379891395568848
0.10389167815446854 0.56116294860839844 0.54365593194961548
0.52298992872238159 0.54954832792282104 0.54580974578857422
0.82229375839233398 0.49363362789154053 0.45046782493591309
0.88896912336349487 0.477550208568573 0.42977404594421387
0.13662591576576233 0.75984090566635132 0.51509720087051392
0.20293393731117249 0.74865233898162842 0.50467479228973389
0.44102245569229126 0.75671380758285522 0.42747756838798523
0.84349524974822998 0.77192622423171997 0.42793181538581848
0.95223242044448853 0.72440379858016968 0.42146629095077515
0.15125223994255066 0.82921427488327026 0.43974518775939941
0.20098359882831573 0.82476842403411865 0.43698719143867493
0.37613594532012939 0.83430534601211548 0.36042854189872742
0.73981088399887085 0.8848760724067688 0.35503232479095459
0.96371322870254517 0.89137786626815796 0.37520289421081543
0.017105311155319214 0.097874842584133148 0.63587522506713867
0.36928868293762207 0.081875771284103394 0.75126034021377563
0.65293926000595093 0.089586339890956879 0.76916408538818359
0.78149974346160889 0.12913082540035248 0.79166144132614136
0.84641045331954956 0.11812790483236313 0.79104626178741455
0.025509912520647049 0.36025345325469971 0.65928995609283447
0.11756473779678345 0.29398226737976074 0.69336730241775513
0.598876953125 0.27545300126075745 0.78714829683303833
0.79203104972839355 0.30431339144706726 0.80276691913604736
0.85556387901306152 0.29703637957572937 0.79586309194564819
0.024010004475712776 0.56768977642059326 0.69931405782699585
0.097575105726718903 0.55156385898590088 0.6936144232749939
0.37549048662185669 0.49812221527099609 0.74639272689819336
0.80901575088500977 0.51592439413070679 0.82165408134460449
0.88278281688690186 0.51715660095214844 0.7989611029624939
0.12245474755764008 0.77810972929000854 0.75335550308227539
0.19099187850952148 0.77865630388259888 0.7552533745765686
0.33781683444976807 0.77307236194610596 0.74647122621536255
0.78868532180786133 0.81139665842056274 0.81346482038497925
0.94735538959503174 0.79571539163589478 0.80655914545059204
0.13886635005474091 0.86347824335098267 0.72454702854156494
0.17475493252277374 0.86174947023391724 0.71272170543670654
0.29779848456382751 0.8753807544708252 0.69869303703308105
0.6776885986328125 0.91860294342041016 0.72341495752334595
0.96392488479614258 0.93343788385391235 0.7143746018409729
0.020938992500305176 0.097031384706497192 0.69962930679321289
0.33861982822418213 0.080778457224369049 0.82282513380050659
0.62136989831924438 0.11107319593429565 0.84374856948852539
0.77758884429931641 0.14262053370475769 0.87313485145568848
0.84407788515090942 0.097082264721393585 0.87070184946060181
0.022409550845623016 0.35354176163673401 0.72789567708969116
0.13850168883800507 0.29477784037590027 0.76996833086013794
0.54706341028213501 0.2673046886920929 0.85849374532699585
0.78115004301071167 0.29992130398750305 0.87477916479110718
0.85167276859283447 0.2957349419593811 0.87460201978683472
0.018149446696043015 0.54054951667785645 0.76351833343505859
0.091831624507904053 0.52457445859909058 0.75945037603378296
0.3756558895111084 0.49015849828720093 0.81607401371002197
0.79015129804611206 0.51439470052719116 0.91137534379959106
0.8768305778503418 0.51682043075561523 0.90877336263656616
0.098795868456363678 0.75409525632858276 0.82674705982208252
0.15657438337802887 0.74719226360321045 0.82933425903320312
0.34367173910140991 0.74753987789154053 0.8352620005607605
0.75175577402114868 0.79734712839126587 0.93421792984008789
0.94313257932662964 0.79699474573135376 0.95322847366333008
0.13585484027862549 0.86682909727096558 0.85376125574111938
0.1807265430688858 0.86716651916503906 0.85031992197036743
0.33720475435256958 0.87873286008834839 0.8636554479598999
0.63036298751831055 0.92415714263916016 0.91116237640380859
0.95355498790740967 0.95212739706039429 0.96655172109603882
