assets/lut/editingcorpw Summer Sparkle.cube
LUT_3D_SIZE 16
DOMAIN_MIN 0.0 0.0 0.0
DOMAIN_MAX 1.0 1.0 1.0
0.000000 0.000000 0.000000
0.000000 0.000000 0.000000
0.000000 0.000000 0.000000
0.026514 0.000000 0.000000
0.158164 0.000000 0.000000
0.299881 0.000000 0.000000
0.456129 0.000000 0.000000
0.600423 0.000000 0.000000
0.717561 0.000000 0.000000
0.823543 0.000000 0.000000
0.920368 0.000000 0.000000
0.988596 0.000000 0.000000
1.000000 0.000000 0.000000
1.000000 0.000000 0.000000
1.000000 0.000000 0.000000
0.000000 0.000000 0.000000
0.029971 0.000000 0.000344
0.274488 0.000000 0.000000
0.432908 0.000000 0.000000
0.582982 0.000000 0.000000
0.704687 0.000000 0.000000
0.811970 0.000000 0.000000
0.910612 0.000000 0.000000
0.985575 0.000000 0.000000
0.999843 0.000000 0.000000
1.000000 0.000000 0.000000
1.000000 0.000000 0.000000
0.533333 0.000000 0.000000
0.000000 0.000000 0.000000
0.000000 0.000000 0.000000
0.000000 0.000000 0.000000
0.062909 0.000000 0.000000
0.212403 0.000000 0.000000
0.358864 0.000000 0.000000
0.508446 0.000000 0.000000
0.645893 0.000000 0.000000
0.760445 0.000000 0.000000
0.859497 0.000000 0.000000
0.934031 0.000000 0.000000
0.989787 0.000000 0.000000
0.999933 0.000000 0.000000
0.873016 0.000779 0.000000
0.733333 0.001659 0.000000
0.467302 0.001532 0.000000
0.000000 0.001219 0.000000
0.014397 0.000758 0.000000
0.050836 0.000479 0.000000
0.135318 0.000570 0.000000
0.389413 0.011283 0.000000
0.548634 0.010319 0.000000
0.671901 0.009287 0.000000
0.774387 0.008487 0.000000
0.862378 0.008672 0.000000
0.942600 0.009710 0.000000
0.993549 0.011351 0.000000
0.999960 0.013982 0.000000
1.000000 0.017455 0.000000
0.758730 0.032935 0.000000
0.000000 0.067262 0.000000
0.000000 0.069535 0.000000
0.000139 0.067327 0.000000
0.049968 0.062372 0.000000
0.175801 0.055440 0.000000
0.311702 0.050382 0.000000
0.544455 0.105408 0.000000
0.668311 0.099529 0.000000
0.773850 0.096617 0.000000
0.864681 0.097961 0.000000
0.926272 0.102888 0.000000
0.964917 0.110493 0.000000
0.957226 0.121460 0.000000
0.466659 0.151859 0.000000
0.466667 0.158862 0.000000
0.041270 0.184954 0.000000
0.073882 0.180395 0.000000
0.196566 0.173677 0.000000
0.264720 0.171065 0.000000
0.429481 0.164186 0.000000
0.603876 0.160602 0.000000
0.712786 0.158706 0.000000
0.825137 0.230498 0.000000
0.908352 0.237066 0.000000
0.979013 0.244699 0.000000
0.999833 0.252782 0.000000
1.000000 0.261148 0.000000
0.000000 0.297536 0.000000
0.000000 0.301542 0.000000
0.000000 0.303054 0.000000
0.007357 0.293227 0.000000
0.074011 0.286092 0.000000
0.167631 0.294128 0.000000
0.326633 0.281222 0.000000
0.491563 0.269473 0.000000
0.610782 0.269358 0.000000
0.700238 0.276606 0.000000
0.782132 0.286147 0.000000
0.828616 0.354027 0.000000
0.897550 0.367305 0.000000
0.964772 0.379053 0.000000
0.998632 0.390036 0.000000
1.000000 0.399939 0.000000
0.000000 0.416126 0.000000
0.000000 0.421161 0.000000
0.000000 0.423096 0.000000
0.012615 0.412899 0.000000
0.084046 0.407206 0.000000
0.187905 0.413188 0.000000
0.290645 0.423074 0.000000
0.471165 0.406461 0.000000
0.621447 0.395814 0.000000
0.730096 0.395711 0.000000
0.816927 0.402658 0.000000
0.880232 0.508781 0.000000
0.785985 0.521926 0.000000
0.160643 0.537220 0.000000
0.199338 0.544844 0.000000
0.214571 0.545331 0.000000
0.268035 0.549393 0.000000
0.447229 0.545441 0.000000
0.573966 0.532285 0.000000
0.661411 0.529050 0.000000
0.802522 0.533094 0.000000
0.890437 0.535903 0.000000
0.855635 0.546861 0.000000
0.875931 0.557136 0.000000
0.889571 0.569030 0.000000
0.157907 0.593692 0.000000
0.164165 0.598590 0.000000
0.058397 0.654631 0.000000
0.154868 0.657589 0.000000
0.264894 0.656878 0.000000
0.382664 0.669188 0.000000
0.503592 0.670878 0.000000
0.656854 0.654066 0.000000
0.787466 0.641916 0.000000
0.877216 0.644433 0.000000
0.954893 0.649237 0.000000
0.998465 0.654842 0.000000
1.000000 0.661159 0.000000
0.533333 0.689166 0.000000
0.000000 0.715916 0.000000
0.000000 0.719396 0.000000
0.000000 0.713708 0.000000
0.029902 0.698955 0.000000
0.080239 0.754554 0.000000
0.181944 0.758680 0.000000
0.304435 0.757688 0.000000
0.415725 0.761716 0.000000
0.502359 0.772777 0.000000
0.614169 0.770252 0.000000
0.750834 0.754695 0.000000
0.869157 0.743869 0.000000
0.949021 0.745339 0.000000
0.995652 0.748523 0.000000
1.000000 0.751312 0.000000
0.533333 0.783161 0.000000
0.000000 0.817815 0.000000
0.000000 0.820674 0.000000
0.000000 0.812081 0.000000
0.048250 0.798583 0.000000
0.121030 0.852461 0.000000
0.222714 0.855177 0.000000
0.345353 0.852705 0.000000
0.464421 0.851321 0.000000
0.543881 0.860469 0.000000
0.624369 0.865380 0.000000
0.731697 0.858773 0.000000
0.854622 0.842985 0.000000
0.953316 0.833097 0.000000
0.996085 0.833145 0.000000
1.000000 0.834099 0.000000
0.533333 0.873112 0.000000
0.000000 0.915861 0.000000
0.000178 0.915133 0.000000
0.027114 0.896661 0.000000
0.121360 0.894479 0.000000
0.180901 0.942563 0.000000
0.286020 0.941626 0.000000
0.410357 0.936377 0.000000
0.528332 0.930775 0.000000
0.598106 0.937811 0.000000
0.662325 0.944349 0.000000
0.750802 0.941416 0.000000
0.852706 0.930863 0.000000
0.957732 0.915245 0.000000
0.999069 0.907077 0.000000
1.000000 0.905420 0.000000
0.000000 0.986724 0.000000
0.000000 0.988500 0.000000
0.002376 0.986200 0.000000
0.057915 0.974920 0.000000
0.153807 0.975429 0.000000
0.368075 0.996802 0.000000
0.474967 0.996986 0.000000
0.559535 0.995544 0.000000
0.640778 0.992084 0.000000
0.714683 0.992453 0.000000
0.785311 0.994328 0.000000
0.868535 0.990243 0.000000
0.929325 0.984504 0.000000
0.814599 0.981659 0.000000
0.470533 0.984090 0.000000
0.525482 0.981024 0.000000
0.186572 0.999861 0.000000
0.291152 0.999521 0.000000
0.398862 0.999687 0.000000
0.495097 0.999837 0.000000
0.577334 0.999951 0.000000
0.897627 1.000000 0.000000
0.936066 1.000000 0.000000
0.221127 1.000000 0.000000
0.303082 1.000000 0.000000
0.432027 0.999795 0.000000
0.504319 0.998966 0.000000
0.367091 1.000000 0.000000
0.473825 1.000000 0.000000
0.571549 1.000000 0.000000
0.651222 1.000000 0.000000
0.714221 1.000000 0.000000
0.774363 1.000000 0.000000
0.836262 1.000000 0.000000
0.904915 1.000000 0.000000
0.958617 1.000000 0.000000
0.247941 1.000000 0.000000
0.000000 1.000000 0.000000
0.041347 1.000000 0.000000
0.155266 1.000000 0.000000
0.234947 1.000000 0.000000
0.324980 1.000000 0.000000
0.432914 1.000000 0.000000
0.546775 1.000000 0.000000
0.643544 1.000000 0.000000
0.717682 1.000000 0.000000
0.763889 1.000000 0.000000
0.810845 1.000000 0.000000
0.871643 1.000000 0.000000
0.941516 1.000000 0.000000
0.996672 1.000000 0.000000
0.133333 0.214603 0.000000
0.000000 0.133333 0.000000
0.000000 0.000000 0.000000
0.000000 0.000000 0.000000
0.027991 0.000000 0.000000
0.159921 0.000000 0.000000
0.301461 0.000000 0.000000
0.458111 0.000000 0.000000
0.603835 0.000000 0.000000
0.720799 0.000000 0.000000
0.826675 0.000000 0.000000
0.923230 0.000000 0.000000
0.990295 0.000000 0.000000
1.000000 0.000000 0.000000
1.000000 0.000000 0.000000
1.000000 0.000000 0.000000
0.133333 0.000000 0.000000
0.000000 0.000000 0.000000
0.836740 0.007070 0.000000
0.869499 0.005744 0.000000
0.886699 0.004654 0.000000
0.906182 0.003898 0.000000
0.927045 0.003444 0.000000
0.079410 0.003040 0.000000
0.094012 0.002690 0.000000
0.106505 0.002590 0.000000
0.133511 0.002771 0.000000
0.315835 0.003302 0.000000
0.517337 0.003866 0.000000
0.648203 0.004703 0.000000
0.755636 0.005762 0.000000
0.721256 0.013310 0.000000
0.789530 0.014458 0.000000
0.854328 0.014962 0.000000
0.857465 0.028822 0.000000
0.892661 0.026881 0.000000
0.909201 0.027869 0.000000
0.926558 0.028967 0.000000
0.075737 0.065914 0.000000
0.090866 0.068708 0.000000
0.104416 0.069230 0.000000
0.123062 0.063408 0.000000
0.223829 0.057447 0.000000
0.349794 0.053403 0.000000
0.432294 0.052346 0.000000
0.564145 0.050426 0.000000
0.667487 0.048648 0.000000
0.675888 0.050765 0.000005
0.755614 0.052271 0.000010
0.840712 0.053841 0.000000
0.951309 0.118837 0.000000
0.784560 0.136336 0.000000
0.793409 0.145583 0.000000
0.625161 0.162358 0.000000
0.069847 0.191997 0.000035
0.090239 0.194786 0.000044
0.263633 0.180935 0.000000
0.424724 0.172302 0.000000
0.477347 0.172396 0.000000
0.607096 0.167949 0.000000
0.719761 0.165676 0.000000
0.805970 0.167712 0.000000
0.911688 0.171478 0.000000
0.967546 0.179342 0.000000
0.984843 0.188969 0.000000
0.799575 0.206015 0.000000
0.270289 0.301077 0.000000
0.178756 0.304567 0.000000
0.237757 0.303217 0.000000
0.535667 0.289376 0.000000
0.614719 0.294416 0.000000
0.694455 0.300535 0.000000
0.776249 0.308228 0.000000
0.839577 0.317092 0.000000
0.822004 0.324275 0.000000
0.642503 0.331014 0.000000
0.659410 0.336413 0.000000
0.107773 0.355067 0.000000
0.122962 0.354955 0.000000
0.157015 0.358109 0.000000
0.192033 0.358666 0.000000
0.270243 0.352283 0.000000
0.493103 0.417325 0.000000
0.501711 0.409121 0.000000
0.601765 0.408195 0.000000
0.680790 0.413916 0.000000
0.743728 0.423438 0.000000
0.807344 0.434835 0.000000
0.891298 0.447498 0.000000
0.921098 0.458831 0.000000
0.828111 0.467604 0.000000
0.095130 0.478550 0.000000
0.109200 0.482803 0.000000
0.120467 0.483948 0.000000
0.138239 0.473809 0.000000
0.209623 0.474030 0.000000
0.303273 0.481428 0.000000
0.277457 0.496235 0.000000
0.508788 0.545185 0.000000
0.657161 0.540131 0.000000
0.801165 0.538484 0.000000
0.889004 0.541768 0.000000
0.940574 0.550026 0.000000
0.973283 0.561439 0.000000
0.462640 0.584919 0.000000
0.466622 0.593463 0.000000
0.333333 0.607983 0.000000
0.000000 0.613009 0.000000
0.105532 0.613907 0.000000
0.284729 0.614121 0.000000
0.379331 0.598866 0.000000
0.556994 0.602997 0.000000
0.672656 0.602354 0.000000
0.818885 0.598950 0.000000
0.360575 0.698192 0.000000
0.375246 0.702642 0.000000
0.380204 0.704292 0.000000
0.140993 0.706981 0.000000
0.071096 0.717847 0.000000
0.296475 0.727704 0.000000
0.412079 0.718771 0.000000
0.516081 0.703746 0.000000
0.701263 0.708141 0.000000
0.801557 0.705911 0.000000
0.872998 0.705427 0.000000
0.908659 0.709203 0.000000
0.518680 0.736715 0.000000
0.331815 0.751576 0.000000
0.347437 0.753581 0.000000
0.121057 0.758991 0.000000
0.140932 0.802138 0.000000
0.213195 0.799613 0.000000
0.300451 0.803319 0.000000
0.273990 0.814064 0.000000
0.376220 0.815313 0.000000
0.448485 0.823915 0.000000
0.540868 0.821950 0.000000
0.664825 0.810833 0.000000
0.785370 0.798350 0.000000
0.873322 0.796714 0.000000
0.929459 0.797361 0.000000
0.944560 0.798907 0.000000
0.468645 0.834735 0.000000
0.095899 0.863891 0.000000
0.108364 0.864901 0.000000
0.123936 0.853489 0.000000
0.186156 0.890847 0.000000
0.271507 0.892703 0.000000
0.363925 0.892704 0.000000
0.340640 0.897734 0.000000
0.440238 0.895890 0.000000
0.503392 0.903318 0.000000
0.581815 0.905888 0.000000
0.684453 0.899611 0.000000
0.798842 0.885940 0.000000
0.894535 0.876854 0.000000
0.933804 0.875052 0.000000
0.947985 0.874425 0.000000
0.161930 0.945199 0.000000
0.096921 0.953931 0.000000
0.106978 0.950295 0.000000
0.151946 0.932540 0.000000
0.216767 0.969986 0.000000
0.301386 0.971684 0.000000
0.392586 0.970071 0.000000
0.365585 0.966836 0.000000
0.470102 0.960178 0.000000
0.536113 0.962842 0.000000
0.601001 0.968585 0.000000
0.681982 0.967573 0.000000
0.774985 0.960748 0.000000
0.878698 0.947208 0.000000
0.935838 0.937276 0.000000
0.949622 0.935079 0.000000
0.092885 0.997151 0.000000
0.099450 0.997652 0.000000
0.109826 0.996688 0.000000
0.180076 0.992623 0.000000
0.246551 0.999504 0.000000
0.323914 0.999747 0.000000
0.320651 0.999985 0.000000
0.381575 0.999976 0.000000
0.502271 0.999952 0.000000
0.586024 0.999731 0.000000
0.647217 0.999951 0.000000
0.712426 0.999941 0.000009
0.789570 0.999779 0.000079
0.876526 0.996455 0.000038
0.954696 0.990451 0.000000
0.968328 0.985209 0.000000
0.111828 1.000000 0.000000
0.120868 1.000000 0.000000
0.134497 1.000000 0.000000
0.129491 1.000000 0.000000
0.227199 0.894603 0.000000
0.324318 0.894603 0.000007
0.437930 0.894603 0.000069
0.547608 0.894603 0.000093
0.648880 0.894603 0.000073
0.725859 0.894603 0.000014
0.778026 0.894603 0.000000
0.825512 0.894603 0.000000
0.882360 0.894603 0.000000
0.872254 0.894603 0.000000
0.637443 0.894603 0.000000
0.527746 0.889016 0.000000
0.089685 0.866667 0.000000
0.146095 0.866667 0.000000
0.267050 0.866667 0.000000
0.383867 0.866667 0.000000
0.694014 0.866667 0.000000
0.773460 0.866667 0.000000
0.842359 0.866667 0.000000
0.901923 0.866667 0.000000
0.622465 0.550730 0.000000
0.489984 0.382857 0.000000
0.513712 0.382857 0.000000
0.254612 0.382857 0.000000
0.171093 0.382857 0.000000
0.261070 0.382857 0.000000
0.311940 0.382857 0.000000
0.429094 0.382857 0.000000
0.535398 0.382857 0.000000
0.636227 0.382857 0.000000
0.733417 0.382857 0.000000
0.812829 0.382857 0.000000
0.940763 0.000000 0.000000
0.968286 0.000000 0.000000
0.982126 0.000000 0.000000
0.993826 0.000000 0.000000
0.582802 0.000000 0.000000
0.133311 0.000000 0.000000
0.133333 0.000000 0.000000
0.134758 0.000000 0.000000
0.077294 0.000000 0.000000
0.199979 0.000000 0.000000
0.322567 0.000000 0.000017
0.491124 0.000015 0.000034
0.634286 0.000000 0.000000
0.747856 0.000000 0.000001
0.854719 0.000000 0.000000
0.946241 0.000000 0.000000
0.998565 0.000361 0.000000
0.999896 0.000498 0.000000
1.000000 0.000712 0.000000
0.167619 0.004843 0.000000
0.107937 0.006779 0.000000
0.000000 0.007237 0.000098
0.053869 0.006696 0.001279
0.169847 0.005293 0.000477
0.370545 0.004167 0.000041
0.555261 0.003231 0.000022
0.690935 0.002755 0.000001
0.798851 0.002626 0.000000
0.893204 0.002766 0.000000
0.970951 0.003134 0.000000
0.996763 0.003682 0.000000
0.999973 0.004427 0.000000
0.133333 0.019655 0.000000
0.081270 0.023824 0.000000
0.001709 0.026582 0.000000
0.082056 0.024993 0.000000
0.360929 0.025207 0.000048
0.526832 0.023497 0.000000
0.641356 0.022691 0.000000
0.744815 0.020718 0.000000
0.835918 0.020186 0.000000
0.916800 0.019770 0.000000
0.955742 0.019200 0.000000
0.970141 0.019612 0.000000
0.981953 0.021337 0.000000
0.383649 0.047942 0.000000
0.132672 0.062618 0.000000
0.133333 0.066045 0.000000
0.733875 0.214620 0.000000
0.694527 0.223073 0.000000
0.048276 0.260573 0.000000
0.085703 0.263137 0.000000
0.136151 0.258689 0.000000
0.181581 0.249058 0.000000
0.287305 0.252446 0.000334
0.415326 0.245549 0.000786
0.546830 0.240121 0.001089
0.650352 0.242907 0.001192
0.731109 0.244483 0.001304
0.605210 0.250747 0.000328
0.609555 0.255330 0.000000
0.674092 0.260539 0.000000
0.723026 0.265695 0.000000
0.737394 0.268537 0.000000
0.264478 0.374537 0.000231
0.287404 0.379714 0.001700
0.321598 0.378133 0.004369
0.448820 0.378275 0.004557
0.654048 0.367579 0.006537
0.527824 0.378830 0.000009
0.583335 0.386895 0.000040
0.582174 0.394917 0.000000
0.641201 0.400499 0.000000
0.695415 0.403896 0.000000
0.729277 0.409520 0.000000
0.538079 0.418980 0.000000
0.182202 0.429166 0.000000
0.244845 0.430032 0.000000
0.273333 0.430350 0.000000
0.308630 0.423602 0.000179
0.931008 0.497986 0.001743
0.979465 0.509698 0.005496
0.877479 0.523093 0.010481
0.687619 0.539333 0.006215
0.000000 0.557948 0.000000
0.000000 0.561307 0.000000
0.007134 0.561447 0.000000
0.029383 0.553039 0.000000
0.098457 0.550271 0.000000
0.209859 0.553800 0.000000
0.352164 0.554634 0.000000
0.601745 0.541630 0.000000
0.715468 0.538326 0.000000
0.828687 0.536171 0.000089
0.920184 0.547326 0.000577
0.980614 0.559502 0.002498
0.997436 0.619696 0.003032
0.964189 0.631483 0.008415
0.152381 0.663989 0.003713
0.000000 0.678391 0.000000
0.000000 0.680328 0.000000
0.004812 0.671927 0.000000
0.055222 0.663772 0.000000
0.188772 0.668066 0.000000
0.304042 0.670180 0.000019
0.423844 0.670939 0.000170
0.553995 0.667031 0.000181
0.726175 0.655001 0.000051
0.832777 0.649626 0.000167
0.913793 0.651252 0.000307
0.968622 0.655766 0.000450
0.998328 0.665543 0.001204
0.035587 0.773537 0.000936
0.019491 0.777005 0.000768
0.042097 0.779805 0.001163
0.069738 0.772833 0.001434
0.135766 0.762562 0.001444
0.236941 0.764758 0.001150
0.351641 0.765936 0.000161
0.574369 0.763180 0.000111
0.683575 0.759447 0.000107
0.785482 0.756162 0.000229
0.880522 0.748037 0.001335
0.934123 0.745680 0.002492
0.738677 0.770797 0.001860
0.431239 0.796566 0.001801
0.431176 0.799113 0.001988
0.439212 0.796432 0.001662
0.310869 0.864001 0.003784
0.401249 0.854387 0.004372
0.506808 0.849125 0.004287
0.604651 0.846366 0.003623
0.488311 0.870022 0.002330
0.450463 0.875371 0.000175
0.501858 0.874271 0.000000
0.559135 0.864485 0.000084
0.627349 0.861120 0.001416
0.393838 0.880912 0.003369
0.401871 0.883395 0.004533
0.254574 0.898595 0.005878
0.237020 0.898146 0.006534
0.293930 0.901421 0.006790
0.371942 0.900298 0.005796
0.486813 0.893240 0.005330
0.698931 0.920112 0.008441
0.795111 0.910912 0.008299
0.850421 0.908260 0.007163
0.870962 0.907122 0.005872
0.175104 0.975344 0.004209
0.192660 0.977869 0.001455
0.208242 0.976067 0.000000
0.258700 0.963121 0.000022
0.351883 0.959681 0.001296
0.437182 0.957808 0.005084
0.496827 0.954170 0.007917
0.348778 0.956402 0.013324
0.428477 0.951859 0.013515
0.497942 0.956729 0.010773
0.583054 0.957470 0.010020
0.674225 0.950983 0.010670
0.724028 0.973797 0.014359
0.819323 0.961791 0.013640
0.866861 0.955282 0.011826
0.672161 0.965784 0.009836
0.186660 0.999533 0.007644
0.206085 0.999615 0.003457
0.240590 0.999063 0.000225
0.324942 0.998547 0.000294
0.409217 0.999126 0.001090
0.494962 0.998782 0.005383
0.409576 0.997813 0.019075
0.402496 0.996177 0.024430
0.473356 0.993128 0.022051
0.545713 0.994605 0.016744
0.621873 0.995198 0.016309
0.700515 0.992629 0.017058
0.782751 0.997644 0.019768
0.854157 0.993755 0.018338
0.719381 0.992912 0.018372
0.178248 1.000000 0.017140
0.202853 1.000000 0.016194
0.246796 1.000000 0.009402
0.336811 1.000000 0.007848
0.414529 1.000000 0.009499
0.499470 1.000000 0.012726
0.457126 0.929905 0.018484
0.401423 0.912381 0.027264
0.474543 0.912381 0.023016
0.542635 0.912381 0.016111
0.604225 0.912381 0.014633
0.669281 0.912381 0.015059
0.748816 0.912334 0.014764
0.864685 0.733332 0.000523
0.764025 0.733295 0.007590
0.211873 0.733333 0.022491
0.247258 0.733333 0.022422
0.301606 0.733333 0.019858
0.383524 0.733333 0.018830
0.445530 0.733333 0.019615
0.512397 0.733333 0.019099
0.463466 0.733333 0.016731
0.518639 0.733333 0.012518
0.474971 0.733333 0.008225
0.539478 0.733333 0.002999
0.602668 0.733333 0.002156
0.670513 0.733333 0.000923
0.751050 0.733333 0.000463
0.853944 0.733333 0.000062
0.812484 0.571429 0.000000
0.347396 0.000000 0.000000
0.378175 0.000000 0.000000
0.689470 0.000000 0.000000
0.783154 0.000000 0.000000
0.858784 0.000000 0.000000
0.748864 0.000000 0.001069
0.706590 0.000000 0.001900
0.732152 0.000000 0.002109
0.633033 0.000000 0.001721
0.612701 0.000000 0.001256
0.648806 0.000000 0.000612
0.118337 0.000000 0.000384
0.174919 0.000000 0.000250
0.230911 0.000000 0.000089
0.301038 0.000000 0.000025
0.589664 0.000000 0.000000
0.699486 0.000000 0.000000
0.787175 0.000000 0.000000
0.715441 0.001139 0.000138
0.737683 0.001598 0.000155
0.725074 0.001650 0.000360
0.733735 0.001092 0.000551
0.756209 0.000383 0.000408
0.784401 0.000495 0.000844
0.709971 0.000566 0.000981
0.151397 0.000642 0.000642
0.183802 0.000632 0.000508
0.224632 0.000521 0.000013
0.313572 0.000454 0.000000
0.478723 0.000438 0.000002
0.599517 0.000465 0.000000
0.596061 0.025113 0.000117
0.667242 0.026441 0.000083
0.740583 0.023290 0.000016
0.764361 0.022460 0.000263
0.819628 0.020296 0.000302
0.860481 0.017810 0.000112
0.606451 0.017614 0.000074
0.565874 0.018568 0.000045
0.303112 0.019852 0.000007
0.262293 0.020310 0.000014
0.330622 0.021309 0.000608
0.405923 0.024023 0.001270
0.591454 0.026658 0.002360
0.496343 0.039985 0.000264
0.583036 0.041415 0.000440
0.614189 0.044803 0.000196
0.808207 0.065938 0.000085
0.878757 0.067308 0.000006
0.916418 0.069900 0.000023
0.455684 0.099829 0.000006
0.479997 0.104256 0.000566
0.427944 0.112184 0.001763
0.265100 0.119976 0.003169
0.311896 0.118649 0.004995
0.318866 0.119133 0.004513
0.264645 0.118984 0.000540
0.456044 0.109680 0.000583
0.547944 0.106447 0.000032
0.637128 0.106656 0.000021
0.727755 0.108855 0.000012
0.829455 0.109605 0.000033
0.926243 0.115709 0.000170
0.967467 0.189479 0.003288
0.932729 0.201377 0.005016
0.266059 0.239830 0.006941
0.266662 0.245431 0.009396
0.042667 0.256933 0.001695
0.010508 0.251530 0.000000
0.077405 0.249874 0.000000
0.187615 0.239243 0.000000
0.301976 0.229902 0.000000
0.421683 0.229660 0.000000
0.535834 0.228512 0.000000
0.660310 0.222708 0.000000
0.769899 0.221334 0.000000
0.859627 0.226944 0.001240
0.926742 0.235448 0.003200
0.955091 0.244461 0.005356
0.981815 0.324193 0.012561
0.265327 0.357974 0.015263
0.266667 0.363011 0.017378
0.076190 0.372221 0.005335
0.007419 0.368073 0.000000
0.312165 0.353594 0.000000
0.416642 0.349772 0.000000
0.540696 0.354660 0.000066
0.640506 0.362501 0.000298
0.738279 0.368480 0.000590
0.836799 0.372103 0.000605
0.894858 0.373762 0.000883
0.549353 0.389337 0.001988
0.214315 0.406373 0.005288
0.232172 0.413659 0.009509
0.248506 0.415658 0.014632
0.684907 0.524004 0.043684
0.757397 0.531492 0.049901
0.825317 0.529621 0.060784
0.280029 0.544707 0.009752
0.318628 0.548966 0.017073
0.348235 0.555901 0.032386
0.373386 0.557606 0.046314
0.443230 0.558231 0.057137
0.524060 0.563244 0.064483
0.420169 0.571754 0.040676
0.272689 0.580314 0.005683
0.373512 0.570056 0.007363
0.443813 0.565266 0.008970
0.505887 0.560729 0.013405
0.581459 0.568643 0.026988
0.662864 0.578021 0.043479
0.703602 0.635144 0.048498
0.763757 0.641742 0.065230
0.711061 0.652647 0.062425
0.267149 0.664484 0.009424
0.314928 0.663772 0.015396
0.350511 0.663028 0.019592
0.389037 0.656397 0.027596
0.456697 0.661688 0.043690
0.526552 0.668082 0.061052
0.429390 0.676999 0.045476
0.273664 0.689797 0.009490
0.386424 0.683820 0.010473
0.463726 0.674110 0.012529
0.528223 0.668072 0.012672
0.608422 0.672159 0.021464
0.681913 0.678352 0.039498
0.710627 0.727769 0.043458
0.754362 0.731957 0.061298
0.215824 0.766085 0.012618
0.252132 0.770176 0.005978
0.303101 0.765576 0.015212
0.350948 0.755367 0.023497
0.415338 0.750440 0.027455
0.495051 0.754194 0.033787
0.569765 0.755337 0.042237
0.475125 0.767299 0.038613
0.312716 0.785897 0.018912
0.377597 0.787615 0.019373
0.479177 0.772529 0.022868
0.552877 0.764090 0.025642
0.632030 0.766454 0.032965
0.690783 0.768980 0.041829
0.734760 0.813091 0.049622
0.755214 0.814224 0.053927
0.236210 0.859072 0.028472
0.265095 0.863179 0.014896
0.306243 0.856974 0.017947
0.377096 0.842164 0.030849
0.463256 0.840704 0.039160
0.542231 0.841778 0.043809
0.618577 0.838996 0.046771
0.379777 0.865996 0.044582
0.352994 0.875181 0.037850
0.397870 0.874949 0.032446
0.485685 0.862049 0.033125
0.589845 0.852926 0.044151
0.673839 0.851825 0.050850
0.738224 0.850382 0.054182
0.583903 0.907232 0.065831
0.225510 0.943663 0.060040
0.264570 0.941194 0.050520
0.303679 0.938791 0.031794
0.368596 0.928417 0.029624
0.467444 0.923837 0.047930
0.562076 0.919291 0.061991
0.640046 0.914808 0.064175
0.593983 0.920592 0.065539
0.372744 0.944409 0.063768
0.414520 0.946611 0.052517
0.502369 0.940970 0.049336
0.599150 0.929030 0.059904
0.671277 0.924904 0.070811
0.710303 0.923026 0.075661
0.154203 0.980197 0.079359
0.180618 0.998201 0.096419
0.229308 0.995384 0.093428
0.273376 0.991917 0.085392
0.345295 0.989767 0.060541
0.422318 0.991123 0.045593
0.505052 0.990109 0.054314
0.608457 0.983910 0.072697
0.697614 0.976557 0.081014
0.643386 0.975122 0.083834
0.414261 0.982762 0.083722
0.447871 0.985536 0.063844
0.499018 0.985964 0.057174
0.590210 0.981345 0.063372
0.674418 0.972897 0.084440
0.718377 0.969051 0.093804
0.160702 1.000000 0.112088
0.185054 1.000000 0.127720
0.231286 1.000000 0.123468
0.278781 1.000000 0.113137
0.368502 1.000000 0.096601
0.441299 1.000000 0.074034
0.512466 1.000000 0.068102
0.605636 0.999983 0.074007
0.700361 0.999375 0.087517
0.646370 0.999450 0.099856
0.421738 0.999743 0.112596
0.461080 0.999757 0.090480
0.507871 0.999930 0.067015
0.586990 0.999639 0.065247
0.665756 0.998361 0.079984
0.723658 0.996550 0.101689
0.164943 1.000000 0.141867
0.188632 1.000000 0.153975
0.235371 1.000000 0.144436
0.309076 1.000000 0.129989
0.403367 1.000000 0.122964
0.473410 1.000000 0.102240
0.543605 1.000000 0.083514
