assets/lut/editingcorp basuco.cube
# Created by: G'MIC (https://gmic.eu)
TITLE "basuco"
# LUT size
LUT_3D_SIZE 5
# Data domain
DOMAIN_MIN 0.0 0.0 0.0
DOMAIN_MAX 1.0 1.0 1.0
# LUT data points
0.0029268153011798859 0.0015199847985059023 0.0054615093395113945
0.24986322224140167 0.0056689544580876827 0.0062675923109054565
0.61504930257797241 0.045134153217077255 0.015152576379477978
0.79573708772659302 0.037218056619167328 0.011655679903924465
0.89642822742462158 0.045209668576717377 0.01343847531825304
0.005642580334097147 0.19948393106460571 0.020660609006881714
0.19841274619102478 0.19284379482269287 0.0080657657235860825
0.57141977548599243 0.19064095616340637 0.012827480211853981
0.80372577905654907 0.20175623893737793 0.030671751126646996
0.90204727649688721 0.20578351616859436 0.045911811292171478
0.023436212912201881 0.43715563416481018 0.054010741412639618
0.1366070955991745 0.43848919868469238 0.044369760900735855
0.54410761594772339 0.43032649159431458 0.035842042416334152
0.82372188568115234 0.42669683694839478 0.053530391305685043
0.93173861503601074 0.42052918672561646 0.066235862672328949
0.074134618043899536 0.69800132513046265 0.10892404615879059
0.16758707165718079 0.69927525520324707 0.10852426290512085
0.45224234461784363 0.7175828218460083 0.087638929486274719
0.79829752445220947 0.70304948091506958 0.086423106491565704
0.94542723894119263 0.66821616888046265 0.094166561961174011
0.076050534844398499 0.82422530651092529 0.10841822624206543
0.16070814430713654 0.82006186246871948 0.11812347918748856
0.35446333885192871 0.8523324728012085 0.11425763368606567
0.73916471004486084 0.87744337320327759 0.10302086919546127
0.94805353879928589 0.86162149906158447 0.094847626984119415
0.00056672940263524652 0.019609250128269196 0.21517808735370636
0.23208111524581909 0.0072728474624454975 0.19966205954551697
0.6234702467918396 0.022668935358524323 0.17173783481121063
0.80250328779220581 0.034681059420108795 0.16333194077014923
0.90183734893798828 0.062357615679502487 0.15970031917095184
0.0022635366767644882 0.2017769068479538 0.19961044192314148
0.16861872375011444 0.19712355732917786 0.18372911214828491
0.57560199499130249 0.20042282342910767 0.15646055340766907
0.80567657947540283 0.20984466373920441 0.15534916520118713
0.90448009967803955 0.21798135340213776 0.16031360626220703
0.0158843994140625 0.44921389222145081 0.17586685717105865
0.13321134448051453 0.43956181406974792 0.16566866636276245
0.55453979969024658 0.441762775182724 0.13855952024459839
0.82387334108352661 0.43585720658302307 0.1453516036272049
0.92805963754653931 0.42933496832847595 0.15342402458190918
0.078157179057598114 0.69676929712295532 0.18407788872718811
0.16128019988536835 0.69635581970214844 0.18041501939296722
0.44319066405296326 0.71008944511413574 0.16547231376171112
0.79830533266067505 0.70007258653640747 0.16222810745239258
0.94726777076721191 0.6670566201210022 0.16277237236499786
0.095501214265823364 0.81997579336166382 0.16728419065475464
0.16648925840854645 0.82103258371353149 0.17917986214160919
0.35051536560058594 0.85122549533843994 0.18303278088569641
0.74230116605758667 0.88202744722366333 0.16808119416236877
0.94692200422286987 0.87499231100082397 0.16046266257762909
0.009389256127178669 0.028774470090866089 0.49140128493309021
0.17214310169219971 0.024795472621917725 0.46920785307884216
0.56429517269134521 0.042443759739398956 0.41524589061737061
0.80079621076583862 0.050016678869724274 0.39686769247055054
0.89968454837799072 0.065334171056747437 0.38466137647628784
0.005233121570199728 0.21596595644950867 0.4638996422290802
0.14155970513820648 0.20350170135498047 0.46050858497619629
0.5233573317527771 0.20858077704906464 0.41899207234382629
0.81118488311767578 0.24076192080974579 0.39480447769165039
0.90881973505020142 0.2464081197977066 0.38511621952056885
0.006056422833353281 0.45560795068740845 0.45139089226722717
0.12892530858516693 0.46030783653259277 0.44833549857139587
0.43121856451034546 0.49161863327026367 0.44716686010360718
0.81095486879348755 0.51000916957855225 0.44403612613677979
0.92558246850967407 0.49702426791191101 0.41444006562232971
0.073685392737388611 0.7116389274597168 0.40980315208435059
0.16418656706809998 0.71861171722412109 0.39753332734107971
0.38123917579650879 0.72561520338058472 0.37174350023269653
0.7935783863067627 0.7236906886100769 0.3356412947177887
0.94617235660552979 0.69893366098403931 0.34121522307395935
0.10892951488494873 0.84768885374069214 0.34653392434120178
0.17666824162006378 0.84045588970184326 0.3357219398021698
0.34625789523124695 0.85359233617782593 0.33694338798522949
0.74065154790878296 0.90116238594055176 0.29254975914955139
0.9433523416519165 0.87729769945144653 0.26777273416519165
0.014235193841159344 0.041523654013872147 0.66761606931686401
0.1718984991312027 0.038554757833480835 0.66540169715881348
0.49428057670593262 0.041104618459939957 0.64690452814102173
0.79998141527175903 0.058826819062232971 0.62409102916717529
0.89375847578048706 0.059781033545732498 0.62689119577407837
0.0099593671038746834 0.22994646430015564 0.68541330099105835
0.13806422054767609 0.22167322039604187 0.6919669508934021
0.38845095038414001 0.2101777046918869 0.69336837530136108
0.80522596836090088 0.24681544303894043 0.65788149833679199
0.89984786510467529 0.24836711585521698 0.64501488208770752
0.0031741722486913204 0.46909338235855103 0.71256721019744873
0.12188590317964554 0.46792313456535339 0.71637099981307983
0.32561770081520081 0.4852539598941803 0.73879903554916382
0.80883234739303589 0.53263187408447266 0.72684973478317261
0.92772567272186279 0.52551388740539551 0.70474302768707275
0.049787886440753937 0.72167569398880005 0.72261261940002441
0.14999788999557495 0.72248053550720215 0.71953445672988892
0.30657315254211426 0.72660094499588013 0.71975189447402954
0.78678399324417114 0.7752041220664978 0.71987724304199219
0.94919788837432861 0.76708507537841797 0.70741140842437744
0.095192253589630127 0.86698538064956665 0.69007700681686401
0.17293789982795715 0.87445592880249023 0.67824524641036987
0.3346465528011322 0.88604956865310669 0.67540735006332397
0.73981273174285889 0.9374505877494812 0.66988718509674072
0.9619324803352356 0.92707568407058716 0.62368685007095337
0.017213813960552216 0.04979400709271431 0.75757455825805664
0.16999131441116333 0.049242474138736725 0.75725740194320679
0.45594233274459839 0.054212950170040131 0.74682897329330444
0.79576563835144043 0.090112306177616119 0.73223096132278442
0.8904411792755127 0.087890058755874634 0.74346780776977539
0.0089759677648544312 0.22807422280311584 0.7825961709022522
0.14405502378940582 0.22508478164672852 0.78905379772186279
0.38727495074272156 0.21893088519573212 0.79327297210693359
0.79111510515213013 0.2451559454202652 0.77139735221862793
0.89454585313796997 0.25109541416168213 0.77103292942047119
0.011321946978569031 0.46081167459487915 0.82525813579559326
0.11835838854312897 0.46321064233779907 0.8290640115737915
0.33171734213829041 0.47780969738960266 0.85485440492630005
0.78538292646408081 0.52695554494857788 0.86504721641540527
0.92255681753158569 0.52159839868545532 0.8508269190788269
0.044145606458187103 0.70637482404708862 0.86876136064529419
0.13800615072250366 0.70283561944961548 0.87120288610458374
0.29977530241012573 0.70758593082427979 0.88024145364761353
0.74491554498672485 0.77334272861480713 0.91850680112838745
0.95305430889129639 0.78070151805877686 0.92260384559631348
0.061324011534452438 0.86205792427062988 0.89364665746688843
0.14854612946510315 0.86291784048080444 0.89246606826782227
0.29324078559875488 0.87411010265350342 0.89626586437225342
0.69351613521575928 0.93872791528701782 0.93759351968765259
0.96974164247512817 0.95670396089553833 0.92876636981964111
