assets/lut/editingcorp fezzle.cube
# Created by: G'MIC (https://gmic.eu)
TITLE "fezzle"
# LUT size
LUT_3D_SIZE 7
# Data domain
DOMAIN_MIN 0.0 0.0 0.0
DOMAIN_MAX 1.0 1.0 1.0
# LUT data points
0.10984956473112106 0.091360874474048615 0.21491250395774841
0.21215510368347168 0.093845680356025696 0.22479681670665741
0.33820986747741699 0.087431080639362335 0.22358310222625732
0.49629834294319153 0.064103111624717712 0.19490338861942291
0.66861152648925781 0.031621508300304413 0.14938130974769592
0.84391981363296509 0.020121915265917778 0.12617890536785126
0.98680788278579712 0.013463159091770649 0.1295124888420105
0.11314182728528976 0.20697391033172607 0.20684321224689484
0.2212836891412735 0.20825622975826263 0.22159987688064575
0.34753268957138062 0.20212219655513763 0.22096382081508636
0.50596463680267334 0.18286870419979095 0.19937391579151154
0.68547540903091431 0.15532027184963226 0.16635245084762573
0.86527830362319946 0.1405855119228363 0.16009975969791412
0.99565708637237549 0.13507702946662903 0.15667532384395599
0.10168011486530304 0.33040723204612732 0.1470969021320343
0.21939082443714142 0.33350184559822083 0.18317468464374542
0.35581690073013306 0.33390551805496216 0.21330250799655914
0.52295798063278198 0.32334348559379578 0.21147406101226807
0.71134704351425171 0.31169170141220093 0.20585134625434875
0.90646368265151978 0.30709227919578552 0.20035412907600403
0.99992746114730835 0.31054908037185669 0.20196299254894257
0.065300032496452332 0.47346207499504089 0.062030836939811707
0.19327493011951447 0.48594391345977783 0.11957821995019913
0.34813687205314636 0.49492654204368591 0.16573745012283325
0.52617746591567993 0.49004426598548889 0.17532452940940857
0.7235981822013855 0.48537915945053101 0.19730788469314575
0.90659558773040771 0.48857685923576355 0.21350675821304321
0.99827754497528076 0.49583154916763306 0.23154997825622559
0.037435449659824371 0.64022475481033325 0.027998412027955055
0.17794500291347504 0.66166132688522339 0.056439612060785294
0.33883976936340332 0.6715666651725769 0.090539492666721344
0.52245539426803589 0.67137283086776733 0.15521469712257385
0.7262805700302124 0.66948527097702026 0.18201188743114471
0.92299091815948486 0.67065125703811646 0.20609015226364136
1 0.67283976078033447 0.21233275532722473
0.050900164991617203 0.84307402372360229 0.034056119620800018
0.19784542918205261 0.86783760786056519 0.054691944271326065
0.35450613498687744 0.87749713659286499 0.08731880784034729
0.53851413726806641 0.87641602754592896 0.14348095655441284
0.7395862340927124 0.86003971099853516 0.15557068586349487
0.93526774644851685 0.85145920515060425 0.17830023169517517
1 0.84420293569564819 0.17403914034366608
0.089921228587627411 0.99736177921295166 0.036796987056732178
0.23461338877677917 0.99829816818237305 0.071239113807678223
0.3820699155330658 0.99777805805206299 0.11753594130277634
0.55964785814285278 0.9999006986618042 0.11753880977630615
0.75067728757858276 0.99487751722335815 0.1305113285779953
0.93723821640014648 0.99317967891693115 0.14210739731788635
1 0.98918789625167847 0.12671460211277008
0.075126111507415771 0.097745232284069061 0.32603108882904053
0.18929500877857208 0.097671568393707275 0.32996654510498047
0.32391548156738281 0.089816123247146606 0.31949511170387268
0.48265635967254639 0.066455960273742676 0.31241649389266968
0.65284639596939087 0.036432977765798569 0.30249172449111938
0.82568389177322388 0.020345814526081085 0.28976994752883911
0.97641879320144653 0.016054879873991013 0.28032967448234558
0.0774674192070961 0.21344578266143799 0.31261873245239258
0.1907455176115036 0.2134803980588913 0.32244342565536499
0.32386112213134766 0.2076772153377533 0.32172828912734985
0.48562639951705933 0.1880873441696167 0.31051400303840637
0.66520184278488159 0.16231508553028107 0.2981962263584137
0.84742850065231323 0.14532075822353363 0.2992110550403595
0.99059689044952393 0.14528836309909821 0.30446517467498779
0.06533532589673996 0.33721232414245605 0.29468575119972229
0.1847919225692749 0.34231385588645935 0.31327030062675476
0.32885536551475525 0.34289303421974182 0.3243219256401062
0.50075483322143555 0.33215853571891785 0.3232293426990509
0.69143474102020264 0.31950506567955017 0.32081177830696106
0.88632237911224365 0.31892585754394531 0.31609120965003967
0.99985766410827637 0.32564663887023926 0.32304888963699341
0.036411076784133911 0.48020431399345398 0.24833060801029205
0.16325370967388153 0.49489420652389526 0.28712055087089539
0.32297986745834351 0.50339680910110474 0.30670088529586792
0.50627177953720093 0.49819695949554443 0.31066504120826721
0.70393890142440796 0.49398097395896912 0.3175412118434906
0.88974690437316895 0.50060194730758667 0.31863346695899963
0.99581432342529297 0.50956261157989502 0.33720549941062927
0.021255314350128174 0.6494329571723938 0.21873293817043304
0.1521524041891098 0.67270064353942871 0.2614898681640625
0.31596240401268005 0.68780028820037842 0.28235459327697754
0.50276005268096924 0.68522530794143677 0.30281010270118713
0.70422369241714478 0.67934954166412354 0.31170704960823059
0.9022107720375061 0.68224161863327026 0.32039400935173035
1 0.68573999404907227 0.32914242148399353
0.036683265119791031 0.85338228940963745 0.22056253254413605
0.17027156054973602 0.8767554759979248 0.2625921368598938
0.32973384857177734 0.89220654964447021 0.28480973839759827
0.51363104581832886 0.88757574558258057 0.29732593894004822
0.71630191802978516 0.86773228645324707 0.30447760224342346
0.91690123081207275 0.86246979236602783 0.30856555700302124
1 0.8560376763343811 0.30252537131309509
0.070978380739688873 0.99842941761016846 0.22338974475860596
0.20943458378314972 0.99769467115402222 0.26719850301742554
0.35892948508262634 0.9999813437461853 0.30085432529449463
0.53487420082092285 0.99997919797897339 0.29921838641166687
0.72955048084259033 0.99495238065719604 0.30584046244621277
0.92475706338882446 0.99621593952178955 0.2914385199546814
1 0.99332880973815918 0.27029559016227722
0.0481429323554039 0.10154004395008087 0.40893995761871338
0.17021086812019348 0.097723133862018585 0.41874006390571594
0.3151584267616272 0.085809566080570221 0.41241604089736938
0.48058992624282837 0.063755810260772705 0.3961147665977478
0.6496814489364624 0.038945727050304413 0.38468816876411438
0.82188713550567627 0.023465115576982498 0.36230367422103882
0.97878962755203247 0.019996313378214836 0.35967281460762024
0.051184918731451035 0.21607120335102081 0.39091306924819946
0.1686522513628006 0.21411687135696411 0.40559518337249756
0.31081736087799072 0.20772635936737061 0.41255247592926025
0.47990500926971436 0.19089080393314362 0.39478868246078491
0.6607096791267395 0.16798947751522064 0.37995791435241699
0.84156179428100586 0.1539628803730011 0.37107321619987488
0.99218034744262695 0.15759199857711792 0.38075724244117737
0.040238756686449051 0.33996444940567017 0.37127426266670227
0.16184015572071075 0.34604409337043762 0.38822248578071594
0.31321251392364502 0.347005695104599 0.40495231747627258
0.49068805575370789 0.33843833208084106 0.40354520082473755
0.682242751121521 0.32781803607940674 0.39418214559555054
0.87033718824386597 0.3267732560634613 0.38937187194824219
0.99774253368377686 0.3358464241027832 0.40171515941619873
0.021198945119976997 0.48838302493095398 0.34129393100738525
0.14734925329685211 0.50319367647171021 0.36138322949409485
0.3083856999874115 0.51069545745849609 0.38159483671188354
0.49437123537063599 0.50870531797409058 0.39473649859428406
0.69248777627944946 0.50400108098983765 0.39994293451309204
0.87966179847717285 0.50806593894958496 0.39845862984657288
0.99560970067977905 0.51754331588745117 0.41145235300064087
0.018810587003827095 0.66322565078735352 0.32423126697540283
0.14259205758571625 0.68693250417709351 0.34903186559677124
0.3036048412322998 0.70076125860214233 0.36435368657112122
0.49265113472938538 0.69884377717971802 0.37974622845649719
0.69425022602081299 0.69107908010482788 0.39245539903640747
0.89103031158447266 0.69061267375946045 0.39644324779510498
1 0.69300222396850586 0.41319745779037476
0.030362118035554886 0.86684644222259521 0.31821075081825256
0.15976111590862274 0.88876515626907349 0.34534814953804016
0.31902185082435608 0.90040773153305054 0.35773828625679016
0.5019148588180542 0.89343839883804321 0.37276017665863037
0.70311629772186279 0.87626773118972778 0.38421842455863953
0.89669561386108398 0.86715602874755859 0.38490757346153259
1 0.86411947011947632 0.39691135287284851
0.053384728729724884 1 0.32672947645187378
0.18997557461261749 1 0.36233660578727722
0.34519007802009583 1 0.38470524549484253
0.52272593975067139 1 0.3919990062713623
0.71892845630645752 0.99910366535186768 0.39399287104606628
0.90943694114685059 0.99617385864257812 0.37978336215019226
1 0.99504184722900391 0.3812100887298584
0.027375629171729088 0.097096309065818787 0.55593043565750122
0.14339014887809753 0.096411608159542084 0.56670796871185303
0.28754186630249023 0.084180645644664764 0.56541270017623901
0.4613722562789917 0.061835885047912598 0.5504944920539856
0.64153945446014404 0.035886742174625397 0.52842074632644653
0.81800997257232666 0.017724219709634781 0.49906629323959351
0.98079979419708252 0.016302475705742836 0.48438870906829834
0.033007018268108368 0.2134803980588913 0.53271126747131348
0.14396148920059204 0.21548733115196228 0.5489882230758667
0.28702810406684875 0.20842044055461884 0.55792605876922607
0.46802371740341187 0.19043560326099396 0.54717153310775757
0.65786349773406982 0.16673430800437927 0.52472054958343506
0.84004324674606323 0.14668877422809601 0.50557619333267212
0.99415969848632812 0.15489886701107025 0.50857073068618774
0.026295531541109085 0.34011435508728027 0.50268959999084473
0.14257510006427765 0.34849023818969727 0.525867760181427
0.29526698589324951 0.34901955723762512 0.54844659566879272
0.48093870282173157 0.34161090850830078 0.55069231986999512
0.67974948883056641 0.33068764209747314 0.53484630584716797
0.87320762872695923 0.32648047804832458 0.53056567907333374
0.99999570846557617 0.33619818091392517 0.54240012168884277
0.017118640244007111 0.49036711454391479 0.46436893939971924
0.13272002339363098 0.50613272190093994 0.49338886141777039
0.29011052846908569 0.51489895582199097 0.52389037609100342
0.48030880093574524 0.5151936411857605 0.54067021608352661
0.68331360816955566 0.50903415679931641 0.54083049297332764
0.87869548797607422 0.51071417331695557 0.53813380002975464
1 0.51884478330612183 0.55102789402008057
0.01878458634018898 0.66593641042709351 0.44004574418067932
0.12881283462047577 0.68793493509292603 0.47013834118843079
0.28225228190422058 0.700908362865448 0.49743393063545227
0.47671958804130554 0.70178318023681641 0.51654249429702759
0.68091458082199097 0.69441276788711548 0.52659773826599121
0.87817031145095825 0.69281446933746338 0.53227800130844116
1 0.69668734073638916 0.54586505889892578
0.025589168071746826 0.86659425497055054 0.43846911191940308
0.14579054713249207 0.88606232404708862 0.46495345234870911
0.29965490102767944 0.89428967237472534 0.48702800273895264
0.48657003045082092 0.88930338621139526 0.50350725650787354
0.68744182586669922 0.87758743762969971 0.51313072443008423
0.88014000654220581 0.86955958604812622 0.5193023681640625
0.99976933002471924 0.86849474906921387 0.5351794958114624
0.040873493999242783 1 0.45446509122848511
0.17306235432624817 1 0.48315280675888062
0.32832840085029602 1 0.50515484809875488
0.50814151763916016 1 0.516765296459198
0.70314985513687134 0.99980467557907104 0.519001305103302
0.8888666033744812 0.99779123067855835 0.51670998334884644
1 0.99591773748397827 0.52494072914123535
0.011427007615566254 0.092384591698646545 0.7356751561164856
0.11656016856431961 0.095613636076450348 0.75497454404830933
0.25839322805404663 0.084230042994022369 0.75898134708404541
0.43905463814735413 0.060707077383995056 0.74792397022247314
0.63048011064529419 0.035692296922206879 0.72788363695144653
0.81401747465133667 0.017604079097509384 0.69720572233200073
0.97866696119308472 0.013994463719427586 0.66600370407104492
0.021907446905970573 0.2128436416387558 0.71139556169509888
0.124686099588871 0.21741665899753571 0.73602277040481567
0.26570054888725281 0.20981986820697784 0.75104856491088867
0.45244958996772766 0.19010110199451447 0.74744576215744019
0.65248376131057739 0.16642560064792633 0.72767126560211182
0.84328639507293701 0.1476733386516571 0.70667153596878052
0.99516075849533081 0.15102079510688782 0.69636088609695435
0.020822577178478241 0.34262707829475403 0.67518848180770874
0.12946997582912445 0.35179993510246277 0.70916467905044556
0.2780832052230835 0.35244846343994141 0.74102544784545898
0.46902525424957275 0.34261152148246765 0.7519717812538147
0.67595398426055908 0.32987415790557861 0.74534064531326294
0.87724858522415161 0.32297423481941223 0.73958992958068848
1 0.33020463585853577 0.73594176769256592
0.017305681481957436 0.49251678586006165 0.63328719139099121
0.12398946285247803 0.51028150320053101 0.6739317774772644
0.27593103051185608 0.52023327350616455 0.71446788311004639
0.47115442156791687 0.5170101523399353 0.73917382955551147
0.67851561307907104 0.51141977310180664 0.74748188257217407
0.88006395101547241 0.51210582256317139 0.74724256992340088
1 0.51878666877746582 0.74195975065231323
0.018578696995973587 0.66802048683166504 0.60287743806838989
0.12145016342401505 0.69188183546066284 0.64377415180206299
0.27131825685501099 0.70600765943527222 0.6816636323928833
0.46614658832550049 0.70439845323562622 0.70400869846343994
0.67058300971984863 0.6995583176612854 0.71697205305099487
0.86911219358444214 0.69725286960601807 0.72266751527786255
1 0.69930797815322876 0.72370165586471558
0.021581253036856651 0.86677610874176025 0.6001734733581543
0.13570114970207214 0.88881778717041016 0.63505178689956665
0.28635308146476746 0.89797353744506836 0.66481566429138184
0.47208428382873535 0.88961392641067505 0.68145632743835449
0.67181074619293213 0.88200348615646362 0.6916508674621582
0.8719145655632019 0.87266480922698975 0.70242947340011597
0.99998921155929565 0.86618012189865112 0.71283930540084839
0.030950389802455902 1 0.61285561323165894
0.15929841995239258 1 0.64426320791244507
0.31278437376022339 1 0.66845083236694336
0.49110746383666992 1 0.68054366111755371
0.68483108282089233 1 0.6841127872467041
0.87816911935806274 0.99811559915542603 0.68993985652923584
0.99975872039794922 0.99457168579101562 0.6988646388053894
0.0017604603199288249 0.087111771106719971 0.91016680002212524
0.095711894333362579 0.09284316748380661 0.94056802988052368
0.24048991501331329 0.080913901329040527 0.94632816314697266
0.42221850156784058 0.056461215019226074 0.93097883462905884
0.6156507134437561 0.034345138818025589 0.91675812005996704
0.80038821697235107 0.019403673708438873 0.90182524919509888
0.96286892890930176 0.011768505908548832 0.87062805891036987
0.0094549143686890602 0.2121807336807251 0.88844293355941772
0.1131967157125473 0.2164141833782196 0.92274993658065796
0.25677359104156494 0.20799955725669861 0.94149881601333618
0.44058412313461304 0.18754890561103821 0.9294477105140686
0.63929754495620728 0.16546498239040375 0.90772348642349243
0.82953959703445435 0.15200428664684296 0.90594005584716797
0.98509222269058228 0.14981971681118011 0.90540152788162231
0.015848705545067787 0.34511378407478333 0.85363024473190308
0.1230463981628418 0.35373523831367493 0.89482212066650391
0.27108925580978394 0.35417112708091736 0.92830944061279297
0.46105474233627319 0.34417909383773804 0.93205630779266357
0.66558301448822021 0.33115720748901367 0.9271436333656311
0.86835795640945435 0.32675850391387939 0.93638259172439575
0.99985098838806152 0.33052715659141541 0.93516582250595093
0.01649792306125164 0.49807921051979065 0.8107873797416687
0.11796431988477707 0.51466262340545654 0.85775208473205566
0.27078986167907715 0.52531498670578003 0.90162354707717896
0.469125896692276 0.52264094352722168 0.9279472827911377
0.67475730180740356 0.51596271991729736 0.93811190128326416
0.88030993938446045 0.51640361547470093 0.9434773325920105
1 0.52242553234100342 0.92254793643951416
0.016871374100446701 0.67759758234024048 0.77495557069778442
0.11396847665309906 0.70198613405227661 0.82479798793792725
0.26697352528572083 0.7171320915222168 0.86835497617721558
0.46378326416015625 0.71148407459259033 0.89086699485778809
0.66701316833496094 0.70565968751907349 0.9114387035369873
0.86750221252441406 0.70133668184280396 0.92115432024002075
1 0.70264703035354614 0.90479856729507446
0.019487224519252777 0.87817919254302979 0.76857608556747437
0.12809698283672333 0.9009174108505249 0.81288105249404907
0.27970048785209656 0.91363322734832764 0.84854412078857422
0.4649752676486969 0.89494508504867554 0.86408126354217529
0.66170060634613037 0.88780730962753296 0.87657648324966431
0.86201328039169312 0.87846577167510986 0.89359903335571289
0.99738138914108276 0.87335395812988281 0.89671033620834351
0.025097372010350227 1 0.7753676176071167
0.14931768178939819 1 0.81296694278717041
0.30091145634651184 1 0.84047746658325195
0.47764843702316284 0.99994885921478271 0.85300356149673462
0.66804951429367065 1 0.85486382246017456
0.86162698268890381 0.99899786710739136 0.86569368839263916
0.99486279487609863 0.99570626020431519 0.87822383642196655
0 0.078269645571708679 1
0.089641422033309937 0.08129100501537323 1
0.23590801656246185 0.070434302091598511 1
0.4105517566204071 0.04782562330365181 1
0.5966150164604187 0.025369800627231598 1
0.77733635902404785 0.014379673637449741 1
0.94150644540786743 0.0099134258925914764 0.99825847148895264
0.0031559963244944811 0.21045681834220886 0.99997663497924805
0.10728565603494644 0.21366623044013977 1
0.25325089693069458 0.20593138039112091 1
0.43095093965530396 0.18697868287563324 1
0.62116765975952148 0.16257487237453461 0.99603486061096191
0.80786967277526855 0.15376099944114685 0.99939572811126709
0.97149819135665894 0.15353628993034363 1
0.010284229181706905 0.34958052635192871 0.9942619800567627
0.11792780458927155 0.35720467567443848 0.99999713897705078
0.26658421754837036 0.35958936810493469 1
0.45299243927001953 0.35295349359512329 0.99960273504257202
0.65361917018890381 0.33913931250572205 0.99568188190460205
0.85289561748504639 0.33373245596885681 0.99993681907653809
0.99793052673339844 0.33536526560783386 1
0.012483604252338409 0.50744253396987915 0.96656769514083862
0.11003654450178146 0.52193546295166016 0.99406123161315918
0.26384404301643372 0.53430992364883423 0.99998635053634644
0.46250754594802856 0.536998450756073 1
0.66982352733612061 0.53033584356307983 1
0.87615567445755005 0.52680307626724243 1
1 0.52777290344238281 0.99750423431396484
0.012936610728502274 0.6907312273979187 0.9241187572479248
0.09883570671081543 0.7085881233215332 0.97448766231536865
0.25760769844055176 0.72524440288543701 0.99688231945037842
0.46084219217300415 0.72923243045806885 0.99987936019897461
0.66639399528503418 0.72200047969818115 1
0.86634594202041626 0.71171075105667114 1
0.99994164705276489 0.70772802829742432 0.99973398447036743
0.01892578974366188 0.89104008674621582 0.9162023663520813
0.11940465867519379 0.90231025218963623 0.964344322681427
0.26930758357048035 0.91081851720809937 0.99064546823501587
0.46106991171836853 0.91122686862945557 0.99418342113494873
0.66101014614105225 0.90166664123535156 0.99698394536972046
0.85596102476119995 0.88347166776657104 0.99962842464447021
0.99656593799591064 0.8774142861366272 0.99975532293319702
0.022621918469667435 1 0.92014068365097046
0.14168091118335724 1 0.95972359180450439
0.29031440615653992 1 0.98343056440353394
0.47052180767059326 1 0.98796367645263672
0.66248369216918945 1 0.98590493202209473
0.84976828098297119 0.99719858169555664 0.99024218320846558
0.98895657062530518 0.996346116065979 0.99568831920623779
