assets/lut/editingcorpw Mellow Merlot.cube
LUT_3D_SIZE 16
DOMAIN_MIN 0.0 0.0 0.0
DOMAIN_MAX 1.0 1.0 1.0
0.000309 0.000598 0.002091
0.027587 0.000000 0.000199
0.065022 0.000000 0.000000
0.097660 0.000000 0.000000
0.124823 0.000000 0.000000
0.157236 0.000000 0.000000
0.219663 0.000000 0.000000
0.307203 0.000552 0.000000
0.414560 0.014150 0.000000
0.530673 0.038497 0.005223
0.634546 0.058636 0.010303
0.710525 0.067267 0.011984
0.773657 0.073096 0.012581
0.827572 0.079715 0.012933
0.877184 0.087051 0.013227
0.924920 0.094775 0.013515
0.000000 0.021898 0.000000
0.021064 0.029741 0.000000
0.059176 0.029936 0.000000
0.097174 0.022555 0.000000
0.129003 0.020402 0.000000
0.165982 0.020978 0.000000
0.236562 0.026169 0.000000
0.334278 0.038378 0.000000
0.447333 0.061631 0.000000
0.560675 0.086285 0.004089
0.654084 0.104258 0.008247
0.722169 0.111313 0.009292
0.779114 0.116618 0.009528
0.829414 0.122892 0.009654
0.877199 0.130081 0.009846
0.924166 0.137704 0.010129
0.000000 0.042772 0.000000
0.011928 0.043808 0.000000
0.048629 0.058037 0.000000
0.091246 0.059024 0.000000
0.129099 0.053236 0.000000
0.174373 0.052990 0.000000
0.254436 0.063351 0.000000
0.361194 0.082111 0.000000
0.478733 0.108370 0.000000
0.584360 0.131635 0.002104
0.668100 0.146670 0.005341
0.729708 0.153108 0.005973
0.781464 0.158039 0.005910
0.829451 0.163761 0.005871
0.876414 0.170702 0.006023
0.923029 0.178312 0.006319
0.000000 0.063828 0.000000
0.005750 0.061560 0.000000
0.038973 0.062157 0.000000
0.085571 0.068383 0.000000
0.129094 0.075641 0.000000
0.182516 0.085453 0.000000
0.271782 0.100015 0.000000
0.385139 0.125659 0.000000
0.503028 0.153910 0.000000
0.599344 0.175055 0.000028
0.675310 0.187973 0.001765
0.732193 0.194462 0.002220
0.782040 0.199349 0.002093
0.828921 0.204952 0.002033
0.875585 0.212084 0.002254
0.922701 0.220124 0.002695
0.000000 0.085412 0.000000
0.002198 0.088881 0.000000
0.029475 0.087976 0.000000
0.082176 0.088031 0.000000
0.134541 0.090948 0.000000
0.196563 0.101060 0.000000
0.292196 0.125303 0.000000
0.408631 0.158873 0.000000
0.521129 0.192695 0.000000
0.608398 0.216933 0.000000
0.678317 0.231512 0.000000
0.732865 0.239735 0.000000
0.782193 0.245678 0.000000
0.829193 0.251943 0.000000
0.876936 0.259507 0.000002
0.925409 0.268378 0.002828
0.000000 0.121197 0.000000
0.000649 0.130156 0.000000
0.024660 0.131860 0.000000
0.081292 0.132814 0.000000
0.140771 0.132812 0.000000
0.213989 0.137201 0.000000
0.318931 0.157252 0.000000
0.436226 0.184102 0.000000
0.537473 0.212259 0.000000
0.618620 0.242410 0.000000
0.683590 0.271604 0.000000
0.737124 0.287703 0.000000
0.786883 0.298538 0.000000
0.834948 0.307378 0.000000
0.883409 0.316568 0.000700
0.932566 0.326357 0.005286
0.000000 0.165366 0.000000
0.000000 0.174946 0.000000
0.022825 0.179050 0.000000
0.082407 0.184062 0.000000
0.150014 0.191539 0.000000
0.234621 0.203238 0.000000
0.349997 0.222426 0.000000
0.464091 0.240794 0.000000
0.556943 0.255948 0.000000
0.633669 0.271937 0.000000
0.699510 0.293071 0.000000
0.752830 0.317281 0.000726
0.800795 0.344058 0.000641
0.846646 0.363975 0.001178
0.893193 0.377361 0.003499
0.940976 0.388447 0.008243
0.000000 0.209322 0.000000
0.000000 0.220016 0.000000
0.021445 0.226081 0.000000
0.084743 0.236419 0.000000
0.161643 0.252766 0.000000
0.258444 0.272944 0.000000
0.378479 0.299004 0.000113
0.491271 0.319457 0.001286
0.581274 0.333854 0.001737
0.652902 0.343127 0.003259
0.714595 0.348625 0.005405
0.768308 0.353527 0.008731
0.817322 0.367639 0.011111
0.861957 0.393862 0.011198
0.905153 0.423575 0.011269
0.949521 0.445916 0.013679
0.000000 0.255157 0.000000
0.000000 0.265802 0.000000
0.021559 0.275170 0.000000
0.090322 0.294327 0.000000
0.180117 0.319031 0.000000
0.291371 0.349752 0.000541
0.414984 0.383741 0.008099
0.519045 0.406700 0.014223
0.600647 0.420502 0.016178
0.666983 0.430399 0.016821
0.724450 0.435212 0.017661
0.776293 0.433189 0.019338
0.827137 0.428888 0.020866
0.875413 0.430944 0.022274
0.919655 0.448364 0.022623
0.961393 0.475208 0.022570
0.000000 0.298931 0.000000
0.000000 0.311166 0.000000
0.028520 0.327211 0.000000
0.106356 0.354417 0.000156
0.214231 0.391532 0.005634
0.340188 0.435389 0.014792
0.453810 0.469515 0.024118
0.544969 0.491714 0.030378
0.616725 0.506793 0.032368
0.678447 0.517318 0.032204
0.732635 0.523121 0.032170
0.781797 0.523927 0.032522
0.831062 0.521143 0.032585
0.880477 0.514034 0.032444
0.927362 0.504808 0.032497
0.969894 0.510126 0.032904
0.000000 0.336531 0.000000
0.000000 0.352081 0.000000
0.044555 0.377182 0.000138
0.138747 0.412182 0.005993
0.260130 0.459269 0.018647
0.388463 0.508064 0.030421
0.490766 0.541304 0.040032
0.570444 0.563759 0.045634
0.635158 0.581148 0.047903
0.690981 0.593610 0.048578
0.741376 0.601067 0.048894
0.788790 0.605102 0.048690
0.835482 0.606831 0.047716
0.881246 0.604199 0.046155
0.927250 0.596062 0.044332
0.972995 0.584687 0.044254
0.000000 0.372573 0.000000
0.008899 0.397296 0.000000
0.076671 0.429527 0.005922
0.181705 0.469002 0.017636
0.307916 0.519793 0.031551
0.430787 0.567573 0.044773
0.521534 0.599759 0.054671
0.593343 0.623341 0.060690
0.652763 0.641593 0.063524
0.704971 0.654289 0.064516
0.752611 0.662613 0.065542
0.797711 0.669117 0.065926
0.841565 0.673668 0.065060
0.884153 0.675039 0.062962
0.926600 0.673019 0.060661
0.970754 0.667589 0.059499
0.000000 0.412716 0.000000
0.027226 0.446332 0.004650
0.116402 0.481579 0.015696
0.226360 0.523752 0.028714
0.352920 0.575747 0.043813
0.466836 0.621173 0.058745
0.549739 0.651800 0.068947
0.614984 0.675884 0.075719
0.669685 0.694761 0.079260
0.718607 0.708108 0.081153
0.764374 0.717247 0.082526
0.808054 0.724466 0.082685
0.849419 0.729955 0.082317
0.889117 0.733939 0.081306
0.929174 0.735983 0.079573
0.970945 0.736319 0.078515
0.000000 0.462753 0.000000
0.056440 0.497829 0.012001
0.158921 0.533050 0.024992
0.272692 0.578044 0.039116
0.392533 0.628074 0.055957
0.497305 0.670625 0.072197
0.573724 0.700129 0.082740
0.634843 0.724002 0.090304
0.686116 0.742835 0.095018
0.732200 0.756756 0.098149
0.776105 0.767183 0.099959
0.817839 0.774688 0.100007
0.857923 0.780515 0.099598
0.896616 0.785530 0.099510
0.934950 0.790677 0.100264
0.974235 0.795281 0.101639
0.002918 0.516363 0.007916
0.096707 0.548873 0.020316
0.203059 0.585339 0.034303
0.316949 0.631068 0.049811
0.427192 0.678252 0.068411
0.523718 0.718266 0.085369
0.594726 0.747092 0.096608
0.652677 0.770509 0.104845
0.701792 0.788650 0.110792
0.746012 0.802646 0.115213
0.787859 0.814025 0.117662
0.827601 0.822147 0.118313
0.866817 0.828812 0.118500
0.905472 0.834866 0.119158
0.941463 0.841092 0.121072
0.973227 0.847528 0.124255
0.031959 0.569169 0.017808
0.138901 0.600410 0.029304
0.248230 0.639049 0.043762
0.358773 0.683604 0.060863
0.459998 0.728309 0.081221
0.547914 0.765868 0.098920
0.614494 0.794021 0.111035
0.669522 0.816925 0.120136
0.717184 0.834377 0.127473
0.760102 0.848209 0.132918
0.800372 0.859652 0.136619
0.839153 0.869055 0.138477
0.877445 0.876823 0.139700
0.914410 0.883657 0.141290
0.943134 0.889296 0.143163
0.970675 0.894544 0.146828
0.000000 0.000086 0.031012
0.025848 0.000000 0.032220
0.058912 0.000641 0.032592
0.104187 0.005122 0.031542
0.140205 0.007715 0.027636
0.172748 0.007252 0.023944
0.224093 0.006278 0.024345
0.306020 0.009636 0.028423
0.410018 0.022614 0.033230
0.527195 0.047551 0.037024
0.634940 0.069720 0.040618
0.714574 0.081272 0.043275
0.778296 0.088399 0.044968
0.832654 0.096026 0.047080
0.882534 0.103770 0.049511
0.930389 0.111935 0.051583
0.000000 0.022124 0.023178
0.019189 0.024483 0.025408
0.053694 0.027231 0.027462
0.102092 0.032318 0.026657
0.141240 0.035656 0.023360
0.178469 0.037240 0.020573
0.238136 0.040641 0.022006
0.330401 0.049317 0.027694
0.444647 0.070309 0.033302
0.561832 0.097141 0.037443
0.659182 0.117980 0.041276
0.729218 0.127738 0.043678
0.786971 0.134661 0.045584
0.837690 0.142359 0.047925
0.885649 0.150438 0.050638
0.932884 0.158684 0.053783
0.000000 0.042152 0.018285
0.012862 0.051668 0.019076
0.045992 0.066178 0.021414
0.095991 0.067621 0.020495
0.138566 0.062700 0.017059
0.182699 0.065163 0.015335
0.252308 0.074189 0.018463
0.357023 0.089991 0.026843
0.478311 0.117150 0.032443
0.589150 0.143848 0.036770
0.676679 0.162675 0.040304
0.738806 0.171088 0.042472
0.791201 0.177949 0.044434
0.839550 0.185524 0.047059
0.886787 0.193730 0.051103
0.934143 0.202307 0.055701
0.000000 0.063212 0.017317
0.005603 0.062779 0.016752
0.036494 0.077187 0.018204
0.085447 0.093101 0.015970
0.131797 0.095777 0.011411
0.184112 0.095909 0.011051
0.267129 0.108525 0.015787
0.382939 0.131726 0.024612
0.506572 0.162514 0.030578
0.608168 0.187961 0.035402
0.686840 0.204613 0.038531
0.743064 0.212554 0.040783
0.792779 0.219035 0.043026
0.840316 0.226481 0.046880
0.887615 0.235223 0.051584
0.935359 0.244597 0.056603
0.000000 0.086530 0.012502
0.002186 0.090700 0.015376
0.027756 0.098680 0.018390
0.076790 0.104337 0.016589
0.128989 0.108464 0.011435
0.190569 0.120744 0.010579
0.284353 0.144126 0.013819
0.405684 0.173361 0.021150
0.526220 0.206494 0.027700
0.619564 0.231687 0.032787
0.691309 0.247245 0.035603
0.745603 0.255674 0.038830
0.794438 0.262564 0.042257
0.842180 0.270591 0.046840
0.890352 0.280321 0.052234
0.939299 0.290835 0.057898
0.000000 0.123200 0.011263
0.000686 0.132731 0.015801
0.023462 0.141131 0.019742
0.069923 0.142953 0.018267
0.130570 0.142280 0.013882
0.203844 0.148206 0.012745
0.309463 0.171165 0.015557
0.432176 0.204738 0.021586
0.542912 0.241172 0.027672
0.629270 0.271750 0.031291
0.695906 0.293883 0.033184
0.749763 0.305672 0.037858
0.799509 0.315043 0.042726
0.848210 0.324281 0.047982
0.896763 0.334251 0.053840
0.945807 0.344563 0.059884
0.000000 0.165311 0.009659
0.000000 0.177297 0.017209
0.020722 0.186489 0.021731
0.068877 0.190795 0.020790
0.136618 0.196522 0.019972
0.220933 0.208720 0.020241
0.339416 0.233896 0.021997
0.461815 0.257940 0.028064
0.564064 0.280647 0.034957
0.644769 0.302710 0.038426
0.710066 0.329571 0.040315
0.761578 0.355930 0.043010
0.809649 0.373039 0.046720
0.856610 0.385159 0.051096
0.903673 0.395751 0.056407
0.950897 0.405787 0.062249
0.000000 0.208007 0.007948
0.000000 0.222874 0.018760
0.019511 0.232987 0.023672
0.071278 0.240102 0.023427
0.145509 0.253678 0.025242
0.243721 0.278043 0.028215
0.370691 0.312635 0.032851
0.491316 0.339957 0.040156
0.587940 0.359135 0.046467
0.661392 0.369154 0.048816
0.723346 0.376117 0.050873
0.775946 0.385784 0.054242
0.822891 0.406734 0.056623
0.866977 0.433769 0.058138
0.911175 0.454997 0.061151
0.956068 0.469414 0.065682
0.000000 0.252740 0.007432
0.000000 0.268601 0.020782
0.019214 0.279032 0.025609
0.078402 0.291656 0.026946
0.162601 0.316688 0.031597
0.277231 0.353891 0.038569
0.411590 0.398405 0.048373
0.521452 0.428393 0.057672
0.606654 0.445992 0.061651
0.673733 0.456764 0.062681
0.731282 0.461442 0.063315
0.782939 0.458167 0.064914
0.833006 0.454956 0.066630
0.879269 0.463698 0.068252
0.921463 0.487698 0.069217
0.962728 0.515864 0.070730
0.000000 0.292457 0.009019
0.000000 0.308340 0.023558
0.024102 0.321413 0.029121
0.095536 0.342166 0.033328
0.196366 0.379565 0.041891
0.326531 0.429257 0.053213
0.452665 0.474851 0.065398
0.549670 0.504424 0.074537
0.623671 0.523554 0.078203
0.685351 0.536554 0.078574
0.739318 0.543901 0.078336
0.787687 0.545531 0.078793
0.836088 0.542245 0.078744
0.883698 0.534014 0.078602
0.928860 0.529307 0.079704
0.971152 0.543183 0.081270
0.000000 0.328179 0.011823
0.000000 0.344737 0.026784
0.040302 0.364139 0.034841
0.125893 0.395252 0.042992
0.240508 0.440412 0.054677
0.375534 0.494936 0.068145
0.490677 0.539414 0.081617
0.576059 0.568493 0.090231
0.642647 0.588961 0.093884
0.698627 0.603495 0.094858
0.748300 0.612795 0.095415
0.794751 0.617848 0.095471
0.839754 0.619865 0.094493
0.883677 0.617119 0.093082
0.928759 0.610018 0.092678
0.974252 0.601849 0.094698
0.000000 0.363668 0.016916
0.006666 0.384629 0.032650
0.068809 0.413407 0.044288
0.168667 0.450445 0.055166
0.287529 0.498126 0.067788
0.418122 0.551849 0.083175
0.522518 0.594323 0.097227
0.599836 0.623182 0.105616
0.660526 0.644171 0.109490
0.712758 0.659007 0.111202
0.759855 0.668776 0.112377
0.803124 0.675767 0.113024
0.845154 0.680339 0.112354
0.886210 0.682124 0.110952
0.928481 0.681468 0.110420
0.973313 0.678605 0.112727
0.000000 0.402364 0.023354
0.022134 0.431472 0.041390
0.105912 0.466344 0.054631
0.213291 0.505016 0.066853
0.333333 0.553990 0.080875
0.454971 0.605487 0.098228
0.551296 0.645713 0.112671
0.622220 0.673692 0.121333
0.678295 0.694955 0.125796
0.727035 0.710275 0.128240
0.771704 0.720471 0.129762
0.813044 0.727775 0.130334
0.852791 0.733586 0.130498
0.891460 0.738491 0.130705
0.931713 0.742564 0.131563
0.974624 0.746026 0.134306
0.000000 0.449975 0.034267
0.046815 0.485120 0.052710
0.147967 0.519146 0.064766
0.259803 0.560335 0.078612
0.375840 0.608169 0.094421
0.487144 0.656995 0.113550
0.576112 0.694782 0.128108
0.642423 0.721808 0.137067
0.695788 0.742804 0.142605
0.741484 0.757764 0.146233
0.783541 0.768652 0.148163
0.823153 0.776533 0.148881
0.862002 0.783116 0.149476
0.900323 0.789675 0.151231
0.938951 0.797052 0.154994
0.976010 0.803765 0.159085
0.001184 0.505807 0.048255
0.083794 0.538826 0.063549
0.192128 0.573303 0.075991
0.306721 0.616308 0.091053
0.414249 0.661752 0.109144
0.516674 0.708313 0.129456
0.598573 0.743625 0.144294
0.661306 0.769896 0.154036
0.712660 0.790256 0.160862
0.756236 0.804521 0.165899
0.796545 0.815809 0.168672
0.834856 0.824832 0.170406
0.873027 0.832499 0.171829
0.910816 0.839679 0.174043
0.943964 0.846242 0.176832
0.974139 0.852969 0.180515
0.024715 0.563059 0.062378
0.124537 0.592990 0.074992
0.237705 0.629523 0.088315
0.351477 0.672516 0.104533
0.451063 0.716056 0.124975
0.544820 0.760130 0.146632
0.620498 0.793736 0.162380
0.679959 0.819218 0.173185
0.729365 0.838446 0.181349
0.771931 0.852566 0.187676
0.811399 0.864224 0.192245
0.849106 0.873822 0.195116
0.885187 0.881834 0.196653
0.916065 0.887819 0.197452
0.943683 0.892686 0.198349
0.971147 0.897631 0.201450
0.000000 0.000000 0.065435
0.025310 0.000000 0.071523
0.052325 0.000370 0.073816
0.096966 0.009015 0.075043
0.142264 0.016377 0.070599
0.181644 0.018928 0.065370
0.229021 0.018798 0.063212
0.304790 0.021269 0.069668
0.404131 0.030119 0.076823
0.519009 0.051266 0.080579
0.629689 0.075243 0.083216
0.713318 0.090358 0.088282
0.779191 0.100125 0.091680
0.834503 0.108724 0.094883
0.885436 0.117376 0.098461
0.934219 0.126181 0.102259
0.000000 0.021029 0.058835
0.018408 0.022908 0.065567
0.046150 0.025248 0.069090
0.093225 0.036012 0.072428
0.142481 0.045257 0.068641
0.184103 0.048862 0.063498
0.238973 0.052853 0.062554
0.325669 0.061068 0.071100
0.437370 0.076720 0.078505
0.556559 0.103441 0.082424
0.658593 0.126707 0.085728
0.731735 0.139798 0.090159
0.791064 0.148717 0.093527
0.842772 0.157520 0.097251
0.891434 0.166549 0.101345
0.939356 0.175809 0.105581
0.000000 0.046795 0.053916
0.013498 0.057139 0.059872
0.041276 0.060936 0.063371
0.087125 0.065277 0.066216
0.138903 0.070373 0.061934
0.183249 0.073932 0.057023
0.247701 0.083311 0.058624
0.347284 0.098675 0.069300
0.471547 0.122844 0.077376
0.588646 0.152785 0.082471
0.680380 0.175112 0.086987
0.744926 0.186905 0.091212
0.798819 0.195625 0.094998
0.848224 0.204678 0.099293
0.895931 0.214180 0.103987
0.943789 0.223920 0.108840
0.000000 0.062864 0.052803
0.006861 0.071981 0.055794
0.034766 0.088503 0.057335
0.077213 0.101700 0.057788
0.131935 0.102708 0.053194
0.181201 0.099377 0.049240
0.257398 0.113875 0.054071
0.371061 0.136614 0.065896
0.502519 0.168482 0.074680
0.611209 0.198273 0.081352
0.694212 0.219871 0.086541
0.752352 0.230441 0.090761
0.803135 0.239525 0.095182
0.851473 0.248892 0.100201
0.899522 0.258987 0.105687
0.948041 0.269889 0.111351
0.000000 0.085876 0.048550
0.002277 0.092012 0.052954
0.026276 0.103163 0.054609
0.070280 0.116624 0.054365
0.123328 0.128386 0.048688
0.179830 0.134542 0.043806
0.269729 0.150150 0.050212
0.395851 0.177170 0.061986
0.526151 0.213309 0.071801
0.626333 0.242489 0.079419
0.701868 0.262988 0.084638
0.756624 0.273104 0.089260
0.806267 0.282337 0.094257
0.854775 0.292539 0.099961
0.903408 0.303783 0.106220
0.952468 0.315803 0.112570
0.000000 0.125484 0.043516
0.000817 0.136315 0.050726
0.022619 0.143933 0.053440
0.063476 0.150366 0.053696
0.118709 0.151942 0.049790
0.187097 0.158320 0.046967
0.289883 0.183426 0.051346
0.420326 0.221701 0.059052
0.544794 0.258921 0.069803
0.638134 0.289573 0.077731
0.707972 0.310299 0.082403
0.762268 0.321421 0.088094
0.811943 0.331291 0.093987
0.860636 0.342173 0.100393
0.908906 0.353642 0.107013
0.956474 0.364916 0.113332
0.000000 0.167953 0.039371
0.000000 0.179697 0.048562
0.019992 0.188897 0.053270
0.060368 0.197181 0.054981
0.121953 0.203785 0.054773
0.201359 0.213797 0.055301
0.319735 0.239150 0.059023
0.452200 0.272134 0.065880
0.566159 0.304770 0.076378
0.652814 0.336149 0.083243
0.719594 0.362664 0.087063
0.771514 0.380250 0.091770
0.819683 0.391398 0.096823
0.866898 0.401715 0.102753
0.913487 0.411633 0.109290
0.959725 0.421596 0.115871
0.000000 0.209100 0.035583
0.000000 0.222142 0.046274
0.018580 0.234888 0.054301
0.063058 0.246209 0.058172
0.130714 0.258288 0.060465
0.222355 0.279290 0.064406
0.354176 0.318688 0.070882
0.485442 0.356356 0.080458
0.590466 0.381150 0.090083
0.668301 0.394573 0.094592
0.731305 0.405597 0.097203
0.782588 0.421598 0.100702
0.828252 0.445276 0.103284
0.873187 0.462826 0.107113
0.917695 0.475469 0.112248
0.962505 0.485997 0.118074
0.000000 0.248502 0.035052
0.000000 0.263490 0.047137
0.018403 0.278671 0.057759
0.072763 0.292809 0.063551
0.148745 0.312702 0.068530
0.256953 0.348595 0.075898
0.398357 0.400282 0.087454
0.518717 0.440443 0.099178
0.610477 0.464894 0.106558
0.680314 0.478593 0.108618
0.738356 0.484371 0.109438
0.789713 0.482076 0.111060
0.838280 0.484115 0.113080
0.881905 0.501212 0.114838
0.923102 0.526670 0.117308
0.965270 0.547911 0.121457
0.000000 0.284992 0.037852
0.000000 0.301236 0.050689
0.024676 0.318180 0.063126
0.090517 0.336390 0.071287
0.181684 0.366983 0.079803
0.304837 0.415253 0.090719
0.441245 0.469042 0.104788
0.549359 0.508829 0.116996
0.629380 0.533875 0.123757
0.692473 0.549666 0.125065
0.746610 0.558965 0.124908
0.794117 0.561269 0.125435
0.840947 0.557985 0.125561
0.886699 0.551782 0.126250
0.930423 0.557390 0.128838
0.971939 0.580652 0.132534
0.000000 0.320687 0.042113
0.000000 0.338146 0.055922
0.039389 0.357655 0.070139
0.117783 0.383779 0.081659
0.224348 0.423650 0.093020
0.353697 0.476229 0.105647
0.480296 0.528927 0.121529
0.577442 0.568232 0.133946
0.649128 0.593308 0.139791
0.706297 0.610137 0.141485
0.755958 0.621016 0.142281
0.800819 0.626257 0.142375
0.843571 0.628082 0.141710
0.886390 0.625525 0.141374
0.931367 0.620505 0.143645
0.977126 0.619166 0.149127
0.000000 0.357001 0.047929
0.008468 0.378067 0.063968
0.063735 0.403454 0.080737
0.157540 0.437903 0.094945
0.271358 0.480681 0.106850
0.396328 0.532402 0.120906
0.513153 0.583041 0.138344
0.602540 0.621070 0.150499
0.667628 0.646047 0.156093
0.720743 0.662999 0.158263
0.767196 0.673921 0.159669
0.808739 0.680762 0.160548
0.848864 0.685500 0.160499
0.889054 0.688086 0.160656
0.931948 0.689710 0.163440
0.977960 0.689908 0.170606
0.000000 0.397146 0.056125
0.021442 0.423886 0.075396
0.096307 0.455744 0.093982
0.200830 0.493132 0.107929
0.317767 0.537461 0.121136
0.434629 0.586983 0.137162
0.543372 0.635736 0.155557
0.625730 0.671075 0.167411
0.686178 0.695511 0.173415
0.735410 0.712462 0.176275
0.778764 0.723350 0.178032
0.818483 0.730857 0.179043
0.857122 0.737446 0.180352
0.895507 0.743882 0.182690
0.936086 0.750311 0.187003
0.979227 0.756359 0.193323
0.000000 0.444298 0.068198
0.043867 0.477572 0.090610
0.134189 0.511496 0.107803
0.246861 0.549944 0.121510
0.362980 0.594860 0.136633
0.470246 0.641710 0.154875
0.570563 0.687956 0.173938
0.646879 0.720708 0.185631
0.704148 0.744235 0.192357
0.750433 0.760347 0.196344
0.791194 0.771463 0.198689
0.829708 0.779990 0.200352
0.867912 0.787831 0.202462
0.906144 0.796149 0.206407
0.943736 0.804136 0.211395
0.977565 0.811255 0.216660
0.002421 0.500410 0.084980
0.076382 0.535014 0.107395
0.177242 0.568889 0.122780
0.294978 0.609453 0.137326
0.405220 0.653242 0.154933
0.505239 0.698504 0.175353
0.596547 0.741888 0.195254
0.667878 0.772696 0.207415
0.722313 0.794849 0.215102
0.766767 0.809900 0.220470
0.806229 0.821054 0.223889
0.843547 0.830209 0.226229
0.880381 0.838349 0.228321
0.915279 0.845250 0.230484
0.946701 0.851233 0.232836
0.974925 0.857810 0.236239
0.024466 0.560164 0.104349
0.112826 0.594546 0.125023
0.223028 0.628896 0.139864
0.342757 0.671207 0.156310
0.446948 0.713887 0.176530
0.541533 0.758753 0.200155
0.624051 0.799240 0.220735
0.690317 0.828206 0.234091
0.741715 0.848370 0.242870
0.784942 0.862566 0.248926
0.823382 0.873051 0.252777
0.858307 0.880486 0.254206
0.889132 0.886501 0.254189
0.916747 0.891260 0.253380
0.944064 0.895380 0.253296
0.971527 0.900481 0.256137
0.000000 0.000000 0.095662
0.024627 0.000000 0.104147
0.050975 0.000000 0.110545
0.081870 0.005799 0.114353
0.133062 0.016332 0.111810
0.178700 0.021928 0.105635
0.225520 0.023723 0.102503
0.296939 0.027351 0.107700
0.393705 0.036538 0.117631
0.507876 0.051731 0.123295
0.619420 0.075691 0.127807
0.706761 0.094026 0.135345
0.775526 0.107986 0.141416
0.831736 0.118325 0.145375
0.883768 0.128640 0.149410
0.933988 0.139089 0.153861
0.000000 0.020241 0.089675
0.017428 0.020646 0.099246
0.044603 0.024085 0.107704
0.078987 0.034606 0.113217
0.132340 0.046884 0.113481
0.180820 0.053962 0.106559
0.230950 0.057255 0.102449
0.312606 0.066936 0.109542
0.423617 0.081220 0.120269
0.544514 0.104329 0.126015
0.650598 0.129826 0.131265
0.728021 0.147190 0.138704
0.790134 0.159258 0.143780
0.843164 0.169627 0.147797
0.893473 0.180300 0.152414
0.942729 0.191262 0.157247
0.000000 0.047191 0.085493
0.012406 0.054351 0.095447
0.039745 0.058819 0.103845
0.073385 0.063547 0.108206
0.127117 0.072981 0.109427
0.180129 0.081312 0.102472
0.236543 0.088082 0.099524
0.329730 0.104832 0.108628
0.455569 0.125557 0.120136
0.579197 0.156258 0.127086
0.676421 0.181864 0.133490
0.745592 0.198097 0.140464
0.801846 0.209180 0.145312
0.852518 0.220012 0.150108
0.901576 0.231344 0.155636
0.950527 0.243213 0.161389
0.000000 0.065426 0.084031
0.007965 0.082762 0.092088
0.035277 0.094210 0.098802
0.066607 0.097530 0.101395
0.119498 0.100660 0.101046
0.177124 0.106018 0.094280
0.243798 0.118153 0.094714
0.349080 0.140878 0.105088
0.489153 0.171115 0.117418
0.607242 0.205253 0.126523
0.695396 0.231060 0.134121
0.757683 0.246240 0.140817
0.810563 0.257598 0.146414
0.860179 0.269360 0.152339
0.909340 0.281692 0.158900
0.958194 0.294187 0.165571
0.000000 0.084658 0.082610
0.002531 0.096928 0.089643
0.027360 0.112847 0.095109
0.059957 0.126050 0.095121
0.111421 0.137349 0.092354
0.174430 0.140676 0.087167
0.253708 0.151166 0.090381
0.372297 0.178906 0.101065
0.517390 0.217282 0.114476
0.627303 0.252231 0.125135
0.708189 0.277940 0.133271
0.765837 0.291993 0.139853
0.817293 0.304025 0.146408
0.866851 0.316651 0.153469
0.915245 0.329323 0.160744
0.962786 0.341544 0.167684
0.000000 0.125083 0.079877
0.000734 0.136694 0.087192
0.022534 0.146499 0.092552
0.056414 0.152854 0.092828
0.109185 0.160862 0.090196
0.174604 0.174186 0.086427
0.265822 0.196130 0.089287
0.398213 0.224741 0.098146
0.540065 0.266118 0.112793
0.643066 0.301575 0.124872
0.718192 0.326404 0.132755
0.773437 0.339773 0.139466
0.823615 0.351647 0.146147
0.871955 0.363685 0.153190
0.918901 0.375705 0.160396
0.964952 0.387421 0.167627
0.000000 0.172886 0.077274
0.000000 0.184062 0.084346
0.020705 0.194007 0.090215
0.055118 0.201975 0.092932
0.112063 0.211043 0.093406
0.185070 0.223051 0.094214
0.294422 0.244900 0.097363
0.432228 0.282911 0.104476
0.561562 0.326528 0.118728
0.658077 0.361336 0.130304
0.728739 0.385551 0.137137
0.781561 0.397958 0.142958
0.830129 0.408093 0.149056
0.876561 0.418224 0.155588
0.921667 0.428502 0.162417
0.966646 0.439101 0.169295
0.000000 0.215078 0.075986
0.000000 0.225933 0.082988
0.018558 0.236632 0.089486
0.058718 0.248648 0.095385
0.122673 0.263957 0.099888
0.205166 0.284733 0.105167
