assets/lut/editingcorpw Winter Whisper.cube
LUT_3D_SIZE 6
DOMAIN_MIN 0.0 0.0 0.0
DOMAIN_MAX 1.0 1.0 1.0
0.054841 0.054841 0.054841
0.391083 0.054841 0.054841
0.582016 0.054841 0.054841
0.755875 0.054841 0.054841
0.895079 0.054841 0.054841
0.895079 0.054841 0.054841
0.054841 0.326955 0.054841
0.276796 0.288845 0.054841
0.525676 0.217239 0.054841
0.715859 0.188362 0.054841
0.888446 0.172925 0.054841
0.895079 0.164355 0.054841
0.054841 0.512671 0.054841
0.146511 0.495649 0.054841
0.450069 0.469827 0.054841
0.663426 0.415090 0.054841
0.852411 0.386376 0.054841
0.895079 0.373139 0.054841
0.054841 0.680185 0.054841
0.093214 0.668635 0.054841
0.354554 0.652315 0.054841
0.606581 0.633276 0.054841
0.806077 0.593446 0.054841
0.895079 0.573835 0.054841
0.054841 0.844052 0.054841
0.069685 0.834857 0.054841
0.296382 0.822312 0.054841
0.534178 0.807710 0.054841
0.758671 0.792101 0.054841
0.895079 0.767273 0.054841
0.054841 0.932769 0.054841
0.059767 0.932769 0.054841
0.258306 0.932769 0.054841
0.485839 0.932769 0.054841
0.704213 0.932769 0.054841
0.893339 0.932769 0.054841
0.054841 0.054841 0.444538
0.374337 0.054841 0.407655
0.587463 0.054841 0.308181
0.763215 0.054841 0.259685
0.895079 0.054841 0.233397
0.895079 0.054841 0.217340
0.054841 0.309926 0.323182
0.267303 0.277644 0.287172
0.548327 0.235819 0.243279
0.731731 0.223352 0.229943
0.893395 0.213453 0.219436
0.895079 0.204557 0.210255
0.054841 0.510154 0.177621
0.132146 0.499672 0.138061
0.447163 0.466520 0.099561
0.676442 0.406789 0.122879
0.866048 0.381684 0.137052
0.895079 0.371006 0.143418
0.054841 0.679417 0.110184
0.082791 0.671149 0.085382
0.331262 0.654736 0.061288
0.604411 0.631058 0.057288
0.813297 0.586684 0.063612
0.895079 0.566834 0.069999
0.054841 0.843893 0.078978
0.061432 0.836636 0.062400
0.272510 0.825069 0.054841
0.520721 0.808640 0.054841
0.756881 0.790247 0.054841
0.895079 0.762991 0.054841
0.054841 0.932769 0.063111
0.055241 0.932769 0.055440
0.236970 0.932769 0.054841
0.469369 0.932769 0.054841
0.695506 0.932769 0.054841
0.893339 0.932769 0.054841
0.054841 0.054841 0.657344
0.297190 0.054841 0.651042
0.564451 0.054841 0.615154
0.757865 0.054841 0.547040
0.895079 0.054841 0.504205
0.895079 0.054841 0.479242
0.054841 0.250446 0.598752
0.252400 0.260645 0.614190
0.535615 0.226889 0.582271
0.737272 0.212908 0.503106
0.895079 0.205484 0.462582
0.895079 0.199391 0.441764
0.054841 0.495376 0.517054
0.123523 0.485599 0.506438
0.440746 0.458603 0.476358
0.698667 0.425642 0.441992
0.881900 0.415097 0.430547
0.895079 0.407748 0.422832
0.054841 0.673889 0.411972
0.068587 0.668553 0.377813
0.334517 0.658474 0.359118
0.602967 0.628511 0.326211
0.826378 0.589649 0.344949
0.895079 0.574644 0.356036
0.054841 0.840787 0.345293
0.056019 0.835874 0.310235
0.297207 0.827505 0.317727
0.511268 0.811114 0.280629
0.755393 0.788087 0.272629
0.895079 0.760958 0.285850
0.054841 0.932769 0.301537
0.054841 0.932769 0.269311
0.269933 0.932769 0.287615
0.462497 0.932769 0.255233
0.686913 0.932769 0.232140
0.893703 0.932769 0.231031
0.054841 0.054841 0.851724
0.262300 0.054841 0.850810
0.510839 0.054841 0.833701
0.737038 0.054841 0.803413
0.895079 0.054841 0.757831
0.895079 0.054841 0.728237
0.054841 0.227242 0.810321
0.247844 0.255485 0.820461
0.477447 0.231878 0.814363
0.715896 0.209334 0.779479
0.893998 0.197635 0.725888
0.895079 0.190635 0.693553
0.054841 0.448901 0.753148
0.156590 0.438037 0.762500
0.429888 0.446133 0.777870
0.687423 0.416258 0.747008
0.885616 0.405299 0.686955
0.895079 0.399467 0.656566
0.054841 0.661514 0.690581
0.073633 0.654615 0.683340
0.325511 0.646869 0.674304
0.594958 0.619337 0.644840
0.848594 0.589494 0.613116
0.895079 0.580014 0.603211
0.054841 0.834619 0.612395
0.054841 0.830345 0.591882
0.278057 0.825056 0.570921
0.498908 0.814958 0.538879
0.753445 0.785439 0.508663
0.895079 0.758786 0.524587
0.054841 0.932769 0.558395
0.054841 0.932769 0.533687
0.251675 0.932769 0.514562
0.467044 0.932769 0.503633
0.677243 0.932769 0.470053
0.894251 0.932769 0.463294
0.054841 0.054841 0.972030
0.245248 0.054841 0.972030
0.481120 0.054841 0.972030
0.702082 0.054841 0.972030
0.890787 0.054841 0.970870
0.892228 0.054841 0.959298
0.054841 0.216536 0.972030
0.244826 0.252187 0.972030
0.451255 0.235174 0.972030
0.676457 0.212814 0.972030
0.884059 0.196509 0.962927
0.893494 0.186276 0.935853
0.054841 0.426614 0.961694
0.175489 0.420828 0.965905
0.426278 0.442110 0.970083
0.646176 0.420487 0.967476
0.867385 0.402517 0.943867
0.894569 0.393271 0.904791
0.054841 0.629114 0.912473
0.097480 0.619746 0.916768
0.351161 0.618610 0.926240
0.585094 0.608447 0.941708
0.838214 0.579915 0.911052
0.895023 0.569649 0.859593
0.054841 0.824272 0.860616
0.056999 0.818856 0.854869
0.284946 0.812768 0.847916
0.489454 0.804022 0.838355
0.744711 0.775571 0.807928
0.895079 0.746514 0.777451
0.054841 0.932769 0.803454
0.054841 0.932769 0.789219
0.244580 0.932769 0.772775
0.449087 0.932769 0.750321
0.650759 0.932769 0.704865
0.894707 0.932769 0.674864
0.054841 0.054841 0.972030
0.235529 0.054841 0.972030
0.464669 0.054841 0.972030
0.682676 0.054841 0.972030
0.883049 0.054841 0.972030
0.891691 0.054841 0.972030
0.054841 0.211750 0.972030
0.242299 0.249596 0.972030
0.438981 0.236508 0.972030
0.655357 0.216589 0.972030
0.867100 0.198936 0.972030
0.892168 0.185943 0.972030
0.054841 0.418789 0.972030
0.185807 0.415796 0.972030
0.423743 0.439498 0.972030
0.626810 0.423110 0.972030
0.841177 0.405188 0.972030
0.893076 0.392344 0.972030
0.054841 0.616779 0.972030
0.117858 0.607429 0.972030
0.366094 0.609510 0.972030
0.582055 0.605224 0.972030
0.803904 0.583723 0.972030
0.893868 0.567144 0.972030
0.054841 0.807266 0.972030
0.064369 0.799818 0.972030
0.304505 0.794436 0.972030
0.512361 0.786365 0.972030
0.735270 0.765532 0.972030
0.894472 0.736471 0.972030
0.054841 0.931014 0.972030
0.054841 0.931014 0.972030
0.254251 0.931414 0.972030
0.454880 0.931887 0.972030
0.641105 0.932229 0.972030
0.895079 0.932723 0.972030
