assets/lut/editingcorp sino.cube
# Created by: G'MIC (https://gmic.eu)
TITLE "sino"
# LUT size
LUT_3D_SIZE 5
# Data domain
DOMAIN_MIN 0.0 0.0 0.0
DOMAIN_MAX 1.0 1.0 1.0
# LUT data points
0.029263244941830635 0.041969344019889832 0.038926608860492706
0.2651846706867218 0.11559539288282394 0.11018189042806625
0.61649066209793091 0.15654881298542023 0.1555020809173584
0.9216080904006958 0.27859768271446228 0.28745675086975098
0.96558821201324463 0.59503650665283203 0.59451675415039062
0.068124048411846161 0.18730939924716949 0.070006288588047028
0.29434749484062195 0.23307693004608154 0.11407864093780518
0.61987835168838501 0.29256388545036316 0.1677355170249939
0.91688233613967896 0.35041821002960205 0.28745105862617493
0.96591222286224365 0.60186028480529785 0.60243850946426392
0.11177757382392883 0.3662266731262207 0.12274817377328873
0.32635983824729919 0.41258585453033447 0.13295531272888184
0.6279299259185791 0.48026266694068909 0.20943035185337067
0.87289315462112427 0.53810542821884155 0.29607155919075012
0.96543848514556885 0.66363197565078735 0.59316498041152954
0.14641748368740082 0.59752923250198364 0.18122044205665588
0.33284211158752441 0.63303762674331665 0.18533098697662354
0.62101131677627563 0.68897122144699097 0.22146531939506531
0.84578520059585571 0.73380517959594727 0.29905077815055847
0.96442049741744995 0.76549416780471802 0.52428334951400757
0.18730488419532776 0.87530362606048584 0.2281784862279892
0.32990193367004395 0.89014428853988647 0.23299016058444977
0.56085824966430664 0.92156410217285156 0.23509544134140015
0.79402738809585571 0.93895161151885986 0.24903230369091034
0.96343427896499634 0.93018215894699097 0.32350426912307739
0.027477936819195747 0.096572965383529663 0.13354778289794922
0.26543310284614563 0.12963315844535828 0.183161661028862
0.66738545894622803 0.17578107118606567 0.25021007657051086
0.92889583110809326 0.29312625527381897 0.34667974710464478
0.96470588445663452 0.60529208183288574 0.61072516441345215
0.031975600868463516 0.18442951142787933 0.1807888001203537
0.18884573876857758 0.20310506224632263 0.19121067225933075
0.58561700582504272 0.29969322681427002 0.28851026296615601
0.89544665813446045 0.37349376082420349 0.36966615915298462
0.96413958072662354 0.60602086782455444 0.60501348972320557
0.068430759012699127 0.36118501424789429 0.23189008235931396
0.25723063945770264 0.3886106014251709 0.23444321751594543
0.57538455724716187 0.47522667050361633 0.30042815208435059
0.83926194906234741 0.53538066148757935 0.38736295700073242
0.9666629433631897 0.67068362236022949 0.61478537321090698
0.12491674721240997 0.58434724807739258 0.2799222469329834
0.30652418732643127 0.60769522190093994 0.28776699304580688
0.59209811687469482 0.68580114841461182 0.31417021155357361
0.8285486102104187 0.73304373025894165 0.38261252641677856
0.96618038415908813 0.77376419305801392 0.59095358848571777
0.17832599580287933 0.87511342763900757 0.32803046703338623
0.32202470302581787 0.88564062118530273 0.34056165814399719
0.55429500341415405 0.91434168815612793 0.3516310453414917
0.7929389476776123 0.93711185455322266 0.38211402297019958
0.9627111554145813 0.93156635761260986 0.43043562769889832
0.037988759577274323 0.14297755062580109 0.22096581757068634
0.14800356328487396 0.17211873829364777 0.26130834221839905
0.73416978120803833 0.23779554665088654 0.37769663333892822
0.93855279684066772 0.34400480985641479 0.49799498915672302
0.96470588445663452 0.61452788114547729 0.66901713609695435
0.056159328669309616 0.21485425531864166 0.26988434791564941
0.094991929829120636 0.23690482974052429 0.29416254162788391
0.63234990835189819 0.32642865180969238 0.39665579795837402
0.90222996473312378 0.41273128986358643 0.51745915412902832
0.96467262506484985 0.61611390113830566 0.66939347982406616
0.062053591012954712 0.36458995938301086 0.35487407445907593
0.084519237279891968 0.39895397424697876 0.38589867949485779
0.4777858555316925 0.44678342342376709 0.41846632957458496
0.81012469530105591 0.54375118017196655 0.52827483415603638
0.97122740745544434 0.6924431324005127 0.68998587131500244
0.090802781283855438 0.58106100559234619 0.44367444515228271
0.17532268166542053 0.6131475567817688 0.45545107126235962
0.52412551641464233 0.64851135015487671 0.45884650945663452
0.83154332637786865 0.73533535003662109 0.4987817108631134
0.97150987386703491 0.79138767719268799 0.68682301044464111
0.13948473334312439 0.86276692152023315 0.49552595615386963
0.26396512985229492 0.89480513334274292 0.49766576290130615
0.52174478769302368 0.905040442943573 0.51236104965209961
0.78943091630935669 0.93462985754013062 0.53813391923904419
0.96338140964508057 0.93888068199157715 0.59229975938796997
0.049188204109668732 0.18671533465385437 0.31835624575614929
0.06583869457244873 0.22026441991329193 0.36287057399749756
0.66415107250213623 0.29064464569091797 0.4438202977180481
0.93838691711425781 0.43616566061973572 0.62602615356445312
0.96541887521743774 0.62869518995285034 0.77032732963562012
0.070934191346168518 0.26489397883415222 0.38464614748954773
0.074484206736087799 0.28545939922332764 0.40643945336341858
0.50044381618499756 0.34476715326309204 0.46885165572166443
0.8998827338218689 0.49201187491416931 0.65913867950439453
0.96470588445663452 0.65762841701507568 0.7814520001411438
0.087288953363895416 0.38866084814071655 0.47106167674064636
0.13029500842094421 0.41817459464073181 0.50043183565139771
0.31426727771759033 0.4601210355758667 0.56440979242324829
0.84230542182922363 0.59272193908691406 0.69527608156204224
0.96995508670806885 0.72491514682769775 0.80130386352539062
0.10493310540914536 0.59426164627075195 0.58289903402328491
0.13563795387744904 0.61268377304077148 0.59946787357330322
0.25029456615447998 0.65711915493011475 0.63887220621109009
0.80923914909362793 0.74179297685623169 0.70382130146026611
0.96514499187469482 0.82268083095550537 0.81560444831848145
0.13437537848949432 0.85346585512161255 0.68500673770904541
0.17306260764598846 0.87267565727233887 0.68763452768325806
0.32774490118026733 0.91091203689575195 0.69869732856750488
0.77884137630462646 0.92850619554519653 0.73171484470367432
0.96460968255996704 0.94749528169631958 0.7790377140045166
0.085481815040111542 0.28286463022232056 0.61084777116775513
0.050771810114383698 0.29794281721115112 0.64200043678283691
0.39589869976043701 0.34182456135749817 0.69146126508712769
0.78082126379013062 0.43810310959815979 0.81592792272567749
0.96102094650268555 0.62584584951400757 0.87983262538909912
0.098019465804100037 0.36002802848815918 0.66179782152175903
0.083631940186023712 0.37460160255432129 0.68420219421386719
0.26203051209449768 0.41427266597747803 0.74162971973419189
0.74938493967056274 0.50019925832748413 0.84142249822616577
0.95648235082626343 0.67687147855758667 0.91839271783828735
0.13561557233333588 0.48273473978042603 0.72689950466156006
0.16898836195468903 0.49450132250785828 0.73948568105697632
0.19051235914230347 0.53250783681869507 0.80322849750518799
0.66619694232940674 0.6019519567489624 0.87980401515960693
0.95551168918609619 0.75258183479309082 0.92299437522888184
0.1568399965763092 0.65644484758377075 0.80108010768890381
0.2221015989780426 0.66661369800567627 0.80255573987960815
0.29285484552383423 0.68875879049301147 0.833720862865448
0.66136151552200317 0.75253605842590332 0.90810489654541016
0.95970189571380615 0.85758334398269653 0.94934022426605225
0.1596415787935257 0.86078041791915894 0.85316777229309082
0.22309817373752594 0.87076884508132935 0.86134552955627441
0.23978199064731598 0.8881223201751709 0.8769906759262085
0.62263286113739014 0.94541823863983154 0.93257826566696167
0.95693767070770264 0.96070277690887451 0.9507753849029541
