assets/lut/editingcorpw Pure Harmony.cube
LUT_3D_SIZE 16
DOMAIN_MIN 0.0 0.0 0.0
DOMAIN_MAX 1.0 1.0 1.0
0.135225 0.134066 0.125490
0.137539 0.136330 0.127565
0.149605 0.148116 0.138650
0.165506 0.164077 0.153848
0.181723 0.179971 0.169107
0.199893 0.198154 0.186618
0.220694 0.218942 0.206992
0.246476 0.244541 0.232291
0.275725 0.273741 0.261576
0.306133 0.304296 0.292753
0.337285 0.335698 0.325200
0.369580 0.368121 0.359069
0.405426 0.404242 0.396832
0.444562 0.443677 0.437818
0.487355 0.486579 0.481990
0.539788 0.539208 0.535302
0.153029 0.151498 0.142061
0.148446 0.146987 0.137639
0.162865 0.161277 0.151262
0.194987 0.193160 0.181865
0.208083 0.206289 0.194667
0.221238 0.219443 0.207377
0.239408 0.237479 0.225205
0.262792 0.260912 0.248580
0.290007 0.288159 0.276181
0.318551 0.316785 0.305598
0.348522 0.346881 0.336901
0.380244 0.378839 0.370241
0.414603 0.413500 0.406497
0.452563 0.451696 0.446133
0.493993 0.493294 0.488803
0.545922 0.545349 0.541509
0.208572 0.206735 0.195084
0.221792 0.219973 0.207969
0.189229 0.187613 0.176492
0.184184 0.182494 0.171565
0.220141 0.218275 0.206336
0.265458 0.263578 0.251267
0.309216 0.307396 0.295951
0.333403 0.331699 0.321135
0.352925 0.351443 0.341636
0.374864 0.373450 0.364622
0.398669 0.397437 0.389703
0.424676 0.423645 0.417020
0.455479 0.454620 0.449129
0.490224 0.489486 0.484942
0.528728 0.528088 0.524099
0.574230 0.573651 0.570117
0.282396 0.280503 0.268461
0.294681 0.292850 0.281011
0.284052 0.282183 0.270148
0.235520 0.233567 0.221480
0.208621 0.206751 0.195057
0.241465 0.239609 0.227396
0.294386 0.292540 0.280698
0.352011 0.350453 0.340624
0.409799 0.408652 0.401395
0.460535 0.459680 0.454376
0.484560 0.483821 0.479115
0.503075 0.502386 0.498053
0.526627 0.525976 0.521954
0.553511 0.552939 0.549179
0.583064 0.582530 0.579062
0.621686 0.621186 0.618182
0.388568 0.387268 0.379071
0.401197 0.399976 0.392368
0.391389 0.390116 0.382047
0.353567 0.351999 0.342212
0.293493 0.291653 0.279807
0.240562 0.238792 0.226474
0.274863 0.273012 0.260788
0.322847 0.321140 0.310134
0.383936 0.382581 0.374196
0.444072 0.443137 0.437258
0.501616 0.500963 0.496617
0.556382 0.555786 0.552065
0.604199 0.603704 0.600486
0.629059 0.628569 0.625621
0.651320 0.650887 0.648212
0.681386 0.681037 0.678688
0.483284 0.482551 0.477852
0.497407 0.496687 0.492268
0.486507 0.485756 0.481148
0.458827 0.457947 0.452607
0.415119 0.414008 0.406995
0.351293 0.349676 0.339788
0.277989 0.275981 0.263829
0.308598 0.306767 0.295299
0.353771 0.352227 0.342485
0.409986 0.408856 0.401587
0.472602 0.471748 0.466804
0.533861 0.533275 0.529314
0.590155 0.589636 0.586248
0.641816 0.641358 0.638581
0.691371 0.691005 0.688783
0.745876 0.745632 0.744045
0.569378 0.568774 0.565172
0.582905 0.582336 0.578894
0.576068 0.575476 0.571972
0.557204 0.556603 0.552884
0.526377 0.525710 0.521706
0.479570 0.478800 0.474000
0.413433 0.412300 0.405211
0.330587 0.328929 0.318225
0.345184 0.343526 0.333396
0.387556 0.386220 0.377971
0.438605 0.437622 0.431556
0.502274 0.501555 0.497241
0.566912 0.566355 0.562731
0.624659 0.624161 0.621188
0.678348 0.677981 0.675614
0.734499 0.734194 0.732479
0.632239 0.631763 0.628864
0.642968 0.642523 0.639748
0.642257 0.641806 0.639029
0.630131 0.629660 0.626738
0.611332 0.610808 0.607694
0.582971 0.582410 0.578973
0.540352 0.539730 0.535834
0.476067 0.475276 0.470362
0.390364 0.389056 0.380949
0.382431 0.381053 0.372569
0.425006 0.423962 0.417353
0.476274 0.475443 0.470599
0.535559 0.534947 0.531000
0.599744 0.599219 0.595941
0.661057 0.660644 0.658081
0.722311 0.722005 0.720162
0.684260 0.683894 0.681605
0.691682 0.691321 0.689111
0.696193 0.695836 0.693693
0.688292 0.687932 0.685684
0.675510 0.675105 0.672718
0.656837 0.656416 0.653810
0.630340 0.629867 0.626957
0.592525 0.591981 0.588646
0.536573 0.535911 0.531990
0.453743 0.452867 0.447276
0.423676 0.422577 0.415930
0.470947 0.470111 0.465106
0.522366 0.521726 0.517666
0.577687 0.577104 0.573591
0.637467 0.637004 0.634167
0.704451 0.704097 0.702034
0.732326 0.732027 0.730288
0.738336 0.738051 0.736384
0.742751 0.742487 0.740850
0.742004 0.741738 0.740091
0.733180 0.732905 0.731165
0.720144 0.719832 0.717965
0.701644 0.701305 0.699207
0.676066 0.675706 0.673282
0.641042 0.640588 0.637783
0.592418 0.591872 0.588512
0.520217 0.519582 0.515444
0.470601 0.469756 0.464756
0.522824 0.522165 0.518118
0.575925 0.575333 0.571803
0.631699 0.631235 0.628329
0.688381 0.687990 0.685738
0.778836 0.778622 0.777371
0.781448 0.781259 0.780014
0.785061 0.784878 0.783670
0.792752 0.792587 0.791476
0.787765 0.787582 0.786423
0.778866 0.778653 0.777401
0.766281 0.766073 0.764688
0.748922 0.748660 0.747109
0.725484 0.725185 0.723360
0.693917 0.693581 0.691377
0.651118 0.650690 0.648005
0.590564 0.590064 0.586694
0.534435 0.533800 0.529863
0.579950 0.579376 0.575909
0.635883 0.635413 0.632575
0.692714 0.692378 0.690181
0.829880 0.829733 0.828965
0.829411 0.829289 0.828516
0.833461 0.833336 0.832577
0.840035 0.839911 0.839223
0.846443 0.846333 0.845704
0.839133 0.839017 0.838334
0.829292 0.829156 0.828381
0.816660 0.816503 0.815621
0.800262 0.800108 0.799068
0.778588 0.778390 0.777133
0.749795 0.749557 0.747988
0.711306 0.710991 0.709015
0.658961 0.658557 0.655952
0.608534 0.608038 0.604872
0.646017 0.645579 0.642833
0.704518 0.704183 0.702138
0.875462 0.875431 0.874980
0.875178 0.875111 0.874664
0.878757 0.878688 0.878278
0.884597 0.884536 0.884156
0.892717 0.892658 0.892341
0.898351 0.898290 0.898003
0.891135 0.891078 0.890744
0.881763 0.881713 0.881315
0.870214 0.870140 0.869677
0.855404 0.855313 0.854729
0.835880 0.835771 0.835038
0.810234 0.810091 0.809144
0.775879 0.775678 0.774390
0.729621 0.729336 0.727556
0.688012 0.687651 0.685397
0.712282 0.711947 0.709987
0.923125 0.923095 0.922930
0.923256 0.923225 0.923060
0.926152 0.926122 0.925968
0.930408 0.930385 0.930245
0.936180 0.936173 0.936043
0.943749 0.943718 0.943633
0.948959 0.948928 0.948853
0.943520 0.943512 0.943422
0.936616 0.936598 0.936482
0.927467 0.927465 0.927310
0.915313 0.915288 0.915081
0.899212 0.899172 0.898882
0.877987 0.877941 0.877507
0.850104 0.849994 0.849384
0.812668 0.812531 0.811606
0.780075 0.779892 0.778653
0.961993 0.961993 0.961926
0.961367 0.961336 0.961300
0.963149 0.963146 0.963112
0.966494 0.966484 0.966447
0.971050 0.971025 0.970999
0.976691 0.976691 0.976684
0.983175 0.983175 0.983170
0.988173 0.988173 0.988170
0.985068 0.985068 0.985047
0.980962 0.980957 0.980931
0.975232 0.975226 0.975219
0.967022 0.967022 0.966985
0.955605 0.955599 0.955535
0.940462 0.940452 0.940333
0.921221 0.921195 0.921020
0.893675 0.893608 0.893296
0.997894 0.997894 0.997894
0.997467 0.997467 0.997467
0.998505 0.998505 0.998505
0.999902 0.999902 0.999902
1.000000 1.000000 1.000000
1.000000 1.000000 1.000000
1.000000 1.000000 1.000000
1.000000 1.000000 1.000000
1.000000 1.000000 1.000000
1.000000 1.000000 1.000000
1.000000 1.000000 1.000000
1.000000 1.000000 1.000000
1.000000 1.000000 1.000000
1.000000 1.000000 1.000000
0.995520 0.995520 0.995520
0.988128 0.988128 0.988128
0.135225 0.134066 0.125490
0.136482 0.134993 0.126418
0.135225 0.134066 0.125490
0.139654 0.138255 0.129499
0.165032 0.163507 0.153366
0.187302 0.185494 0.174502
0.211559 0.209730 0.197914
0.239722 0.237896 0.225592
0.269205 0.267357 0.255051
0.299003 0.297165 0.285412
0.329742 0.328093 0.317339
0.362219 0.360693 0.351301
0.398006 0.396758 0.388971
0.437037 0.436075 0.429923
0.479706 0.478937 0.474149
0.530120 0.529510 0.525530
0.139195 0.137650 0.128947
0.149037 0.147561 0.138197
0.159665 0.158053 0.148287
0.175588 0.173976 0.163420
0.191138 0.189500 0.178276
0.208929 0.207122 0.195408
0.229785 0.227920 0.215780
0.255772 0.253798 0.241491
0.283264 0.281408 0.269304
0.311834 0.310028 0.298665
0.341522 0.339874 0.329580
0.372756 0.371323 0.362399
0.407285 0.406122 0.398766
0.444780 0.443847 0.438008
0.486869 0.486098 0.481498
0.536318 0.535685 0.531779
0.217751 0.215874 0.203924
0.220873 0.218972 0.207024
0.187273 0.185531 0.174490
0.188827 0.187049 0.176004
0.227367 0.225526 0.213453
0.271256 0.269439 0.257138
0.305813 0.303981 0.292444
0.325571 0.323830 0.312937
0.345372 0.343784 0.333647
0.367213 0.365726 0.356567
0.390924 0.389626 0.381529
0.417486 0.416383 0.409453
0.448548 0.447661 0.441942
0.483509 0.482744 0.478038
0.522197 0.521535 0.517476
0.567292 0.566723 0.563095
0.295896 0.294050 0.282248
0.303544 0.301723 0.290138
0.279559 0.277689 0.265597
0.232857 0.231008 0.218876
0.210388 0.208569 0.196853
0.248090 0.246181 0.233878
0.300049 0.298207 0.286487
0.355977 0.354421 0.344748
0.412018 0.410893 0.403754
0.457765 0.456890 0.451483
0.476857 0.476047 0.471156
0.495788 0.495063 0.490613
0.519666 0.519021 0.514926
0.546942 0.546316 0.542497
0.578088 0.577549 0.574029
0.615235 0.614738 0.611642
0.401366 0.400147 0.392500
0.406394 0.405223 0.397825
0.387701 0.386375 0.378151
0.350290 0.348758 0.338844
0.291187 0.289349 0.277480
0.241519 0.239671 0.227438
0.279038 0.277197 0.265067
0.327110 0.325452 0.314583
0.386666 0.385327 0.377062
0.445334 0.444451 0.438602
0.501927 0.501273 0.496931
0.556274 0.555660 0.551943
0.602521 0.601999 0.598761
0.624625 0.624140 0.621148
0.647282 0.646842 0.644123
0.677445 0.677073 0.674691
0.491560 0.490791 0.486268
0.498273 0.497598 0.493198
0.484347 0.483633 0.478947
0.456672 0.455837 0.450417
0.413010 0.411894 0.404806
0.349328 0.347833 0.337871
0.277460 0.275478 0.263284
0.308929 0.307096 0.295615
0.355769 0.354242 0.344562
0.411625 0.410502 0.403336
0.473353 0.472590 0.467653
0.534115 0.533527 0.529566
0.589927 0.589396 0.586024
0.641021 0.640567 0.637762
0.692800 0.692459 0.690262
0.743398 0.743093 0.741500
0.574630 0.574082 0.570522
0.583962 0.583404 0.579961
0.574689 0.574088 0.570568
0.555643 0.555050 0.551328
0.524711 0.524084 0.520036
0.477926 0.477150 0.472315
0.411936 0.410790 0.403631
0.330089 0.328371 0.317657
0.345067 0.343459 0.333314
0.389116 0.387801 0.379625
0.439690 0.438716 0.432685
0.503440 0.502745 0.498445
0.567711 0.567094 0.563503
0.625127 0.624640 0.621660
0.678928 0.678541 0.676184
0.735294 0.735029 0.733314
0.635926 0.635453 0.632597
0.646333 0.645894 0.643163
0.642019 0.641568 0.638781
0.629894 0.629415 0.626486
0.610810 0.610328 0.607180
0.582134 0.581560 0.578124
0.538818 0.538184 0.534290
0.474122 0.473295 0.468332
0.388895 0.387610 0.379398
0.381867 0.380494 0.371979
0.424354 0.423263 0.416668
0.477224 0.476404 0.471565
0.536214 0.535601 0.531680
0.600058 0.599526 0.596270
0.663347 0.662942 0.660411
0.723799 0.723494 0.721655
0.687279 0.686896 0.684651
0.695131 0.694789 0.692623
0.697543 0.697199 0.695060
0.689279 0.688891 0.686662
0.676325 0.675934 0.673557
0.657544 0.657135 0.654538
0.630810 0.630336 0.627417
0.592488 0.591958 0.588611
0.535874 0.535259 0.531320
0.452835 0.451896 0.446287
0.423497 0.422367 0.415729
0.470778 0.469942 0.464930
0.522490 0.521852 0.517794
0.578594 0.578025 0.574531
0.638964 0.638510 0.635690
0.704995 0.704669 0.702624
0.734627 0.734353 0.732629
0.741519 0.741244 0.739602
0.746125 0.745869 0.744276
0.743477 0.743205 0.741589
0.734336 0.734048 0.732339
0.720800 0.720514 0.718627
0.701769 0.701426 0.699352
0.675709 0.675345 0.672939
0.640376 0.639921 0.637113
0.591697 0.591148 0.587786
0.519560 0.518909 0.514781
0.470600 0.469768 0.464762
0.522492 0.521828 0.517775
0.576904 0.576328 0.572819
0.632427 0.631959 0.629060
0.689016 0.688656 0.686403
0.780856 0.780667 0.779422
0.784784 0.784601 0.783412
0.788636 0.788456 0.787297
0.795402 0.795246 0.794147
0.789754 0.789590 0.788435
0.780636 0.780453 0.779202
0.767783 0.767549 0.766175
0.749890 0.749652 0.748083
0.725755 0.725461 0.723651
0.693622 0.693282 0.691097
0.650672 0.650245 0.647559
0.590107 0.589592 0.586223
0.534383 0.533723 0.529786
0.580244 0.579679 0.576216
0.635961 0.635517 0.632653
0.692049 0.691737 0.689516
0.829585 0.829443 0.828668
0.828908 0.828786 0.827993
0.831977 0.831846 0.831096
0.838544 0.838423 0.837727
0.844991 0.844896 0.844223
0.838489 0.838373 0.837684
0.829000 0.828877 0.828087
0.816037 0.815881 0.814983
0.799656 0.799479 0.798430
0.778080 0.777874 0.776615
0.749360 0.749101 0.747533
0.711047 0.710714 0.708732
0.658871 0.658467 0.655875
0.608725 0.608229 0.605062
0.646373 0.645923 0.643183
0.704183 0.703847 0.701783
0.874844 0.874782 0.874334
0.875905 0.875845 0.875400
0.878164 0.878088 0.877671
0.883146 0.883100 0.882710
0.891321 0.891267 0.890924
0.896540 0.896492 0.896194
0.890203 0.890140 0.889802
0.881722 0.881663 0.881260
0.870347 0.870283 0.869821
0.855366 0.855275 0.854704
0.835784 0.835664 0.834941
0.810031 0.809869 0.808918
0.775681 0.775482 0.774193
0.729307 0.729016 0.727242
0.687486 0.687132 0.684894
0.711397 0.711067 0.709096
0.922447 0.922420 0.922242
0.921872 0.921855 0.921679
0.924468 0.924446 0.924280
0.928810 0.928783 0.928646
0.934909 0.934889 0.934760
0.942801 0.942785 0.942687
0.948061 0.948058 0.947976
0.942839 0.942829 0.942741
0.936060 0.936036 0.935915
0.926966 0.926944 0.926784
0.914843 0.914790 0.914582
0.898853 0.898811 0.898516
0.877827 0.877771 0.877349
0.850016 0.849912 0.849302
0.812486 0.812346 0.811416
0.779630 0.779425 0.778187
0.961406 0.961406 0.961345
0.962745 0.962720 0.962682
0.963664 0.963652 0.963612
0.966001 0.965976 0.965944
0.970276 0.970257 0.970225
0.975984 0.975964 0.975959
0.982662 0.982661 0.982656
0.987789 0.987789 0.987789
0.984790 0.984790 0.984789
0.980798 0.980798 0.980790
0.975134 0.975134 0.975104
0.966935 0.966934 0.966899
0.955512 0.955489 0.955430
0.940338 0.940323 0.940214
0.920806 0.920746 0.920579
0.892673 0.892625 0.892289
0.997528 0.997528 0.997528
0.996881 0.996881 0.996881
0.997803 0.997803 0.997803
0.999371 0.999371 0.999371
1.000000 1.000000 1.000000
1.000000 1.000000 1.000000
1.000000 1.000000 1.000000
1.000000 1.000000 1.000000
1.000000 1.000000 1.000000
1.000000 1.000000 1.000000
1.000000 1.000000 1.000000
1.000000 1.000000 1.000000
1.000000 1.000000 1.000000
1.000000 1.000000 1.000000
0.995526 0.995526 0.995526
0.988073 0.988067 0.988067
0.135225 0.134066 0.125490
0.135225 0.134066 0.125490
0.142038 0.140723 0.131722
0.143129 0.141810 0.132821
0.140609 0.139321 0.130399
0.155184 0.153609 0.144075
0.180492 0.178957 0.168087
0.210314 0.208447 0.196783
0.241863 0.239884 0.227678
0.273862 0.271939 0.259718
0.306029 0.304185 0.292656
0.339955 0.338338 0.327981
0.376726 0.375304 0.366572
0.416635 0.415515 0.408542
0.459765 0.458930 0.453601
0.510753 0.510070 0.505882
0.135225 0.134066 0.125490
0.135225 0.134066 0.125490
0.153335 0.151810 0.142322
0.154116 0.152559 0.142962
0.152258 0.150777 0.141301
0.170919 0.169341 0.159052
0.196197 0.194470 0.183128
0.225814 0.223984 0.211898
0.255880 0.253895 0.241648
0.286274 0.284438 0.272423
0.317652 0.315906 0.304733
0.350556 0.348965 0.339071
0.386137 0.384796 0.376501
0.424313 0.423271 0.416650
0.467464 0.466641 0.461520
0.517478 0.516824 0.512723
0.152409 0.150963 0.141433
0.167625 0.166005 0.155839
0.195858 0.194063 0.182758
0.210506 0.208717 0.196967
0.230794 0.228868 0.216778
0.250538 0.248628 0.236396
0.270569 0.268733 0.256540
0.292545 0.290679 0.278814
0.315870 0.314110 0.302863
0.340462 0.338870 0.328534
0.366882 0.365433 0.356254
0.395502 0.394241 0.386334
0.427932 0.426896 0.420406
0.464028 0.463163 0.457959
0.503455 0.502735 0.498449
0.550662 0.550036 0.546259
0.291678 0.289846 0.277947
0.290955 0.289089 0.277182
0.272322 0.270426 0.258225
0.234633 0.232757 0.220588
0.234561 0.232654 0.220451
0.273087 0.271171 0.258952
0.321765 0.320029 0.308967
0.373376 0.371999 0.363102
0.415101 0.413988 0.406966
0.435687 0.434710 0.428494
0.453807 0.452898 0.447375
0.475083 0.474277 0.469368
0.500776 0.500074 0.495706
0.530026 0.529353 0.525383
0.563259 0.562680 0.559015
0.601611 0.601090 0.597843
0.389324 0.388035 0.379897
0.390126 0.388829 0.380693
0.372996 0.371576 0.362667
0.339260 0.337607 0.327242
0.287678 0.285828 0.273889
0.258210 0.256366 0.244070
0.297151 0.295319 0.283542
0.345860 0.344277 0.334178
0.401906 0.400698 0.393127
0.457760 0.456881 0.451480
0.512079 0.511439 0.507240
0.561880 0.561292 0.557623
0.591674 0.591138 0.587795
0.612117 0.611602 0.608469
0.635745 0.635275 0.632424
0.666722 0.666344 0.663834
0.480018 0.479274 0.474494
0.485613 0.484883 0.480232
0.472357 0.471549 0.466572
0.446059 0.445135 0.439336
0.404290 0.403106 0.395619
0.343303 0.341674 0.331457
0.281305 0.279338 0.267245
0.323357 0.321589 0.310610
0.368695 0.367291 0.358193
0.425158 0.424109 0.417512
0.484547 0.483754 0.479091
0.542895 0.542281 0.538417
0.596469 0.595930 0.592632
0.646148 0.645709 0.642967
0.697184 0.696826 0.694690
0.734841 0.734554 0.732833
0.568763 0.568173 0.564568
0.575934 0.575340 0.571843
0.566689 0.566100 0.562471
0.548050 0.547455 0.543647
0.517357 0.516722 0.512603
0.471562 0.470717 0.465731
0.406875 0.405719 0.398339
0.328978 0.327259 0.316495
0.351857 0.350289 0.340443
0.400129 0.398912 0.391260
0.449783 0.448880 0.443208
0.513510 0.512846 0.508685
0.575202 0.574632 0.571099
0.630851 0.630367 0.627458
0.683498 0.683126 0.680826
0.739007 0.738737 0.737065
0.636404 0.635939 0.633090
0.643309 0.642863 0.640102
0.637289 0.636822 0.633982
0.625278 0.624780 0.621812
0.606383 0.605887 0.602689
0.577782 0.577198 0.573698
0.534405 0.533785 0.529850
0.470156 0.469322 0.464251
0.387129 0.385809 0.377533
0.383826 0.382461 0.374054
0.431435 0.430444 0.424107
0.485754 0.484990 0.480353
0.544371 0.543765 0.539919
0.606472 0.605955 0.602764
0.668423 0.668036 0.665558
0.727747 0.727473 0.725672
0.693128 0.692785 0.690601
0.698692 0.698343 0.696218
0.694482 0.694116 0.691937
0.686258 0.685892 0.683627
0.673479 0.673099 0.670675
0.654730 0.654316 0.651674
0.628063 0.627585 0.624640
0.589701 0.589171 0.585793
0.532997 0.532374 0.528406
0.450575 0.449654 0.444000
0.425324 0.424247 0.417661
0.472522 0.471676 0.466714
0.527770 0.527125 0.523127
0.584273 0.583705 0.580283
0.644594 0.644149 0.641381
0.709616 0.709288 0.707291
0.740185 0.739923 0.738269
0.746977 0.746714 0.745122
0.747575 0.747328 0.745754
0.741533 0.741247 0.739614
0.732342 0.732054 0.730316
0.718760 0.718473 0.716581
0.699715 0.699357 0.697250
0.673636 0.673257 0.670849
0.638334 0.637871 0.635042
0.589673 0.589124 0.585743
0.517815 0.517176 0.513027
0.472450 0.471590 0.466636
0.524047 0.523378 0.519343
0.578267 0.577719 0.574208
0.634160 0.633696 0.630803
0.692902 0.692560 0.690354
0.785098 0.784915 0.783737
0.789084 0.788910 0.787740
0.792724 0.792564 0.791436
0.794788 0.794628 0.793522
0.788611 0.788428 0.787284
0.779544 0.779330 0.778097
0.766599 0.766385 0.765006
0.748649 0.748415 0.746847
0.724370 0.724078 0.722246
0.692203 0.691861 0.689636
0.649311 0.648884 0.646155
0.588647 0.588134 0.584747
0.534746 0.534121 0.530197
0.581584 0.581046 0.577574
0.637188 0.636713 0.633878
0.693239 0.692897 0.690706
0.832324 0.832206 0.831448
0.832198 0.832078 0.831324
0.835094 0.834974 0.834238
0.841502 0.841397 0.840718
0.844391 0.844291 0.843640
0.837726 0.837622 0.836910
0.828187 0.828068 0.827275
0.815169 0.815014 0.814115
0.798820 0.798661 0.797605
0.777243 0.777037 0.775762
0.748385 0.748150 0.746583
0.710001 0.709679 0.707680
0.657886 0.657478 0.654874
0.608279 0.607766 0.604600
0.647505 0.647069 0.644351
0.705184 0.704833 0.702787
0.876961 0.876901 0.876468
0.877542 0.877470 0.877051
0.879926 0.879865 0.879459
0.885054 0.884996 0.884616
0.892984 0.892926 0.892607
0.896114 0.896058 0.895747
0.889884 0.889832 0.889492
0.881478 0.881419 0.881032
0.869925 0.869857 0.869380
0.854906 0.854808 0.854233
0.835283 0.835159 0.834426
0.809494 0.809326 0.808379
0.775066 0.774861 0.773573
0.728498 0.728195 0.726421
0.687151 0.686792 0.684555
0.712583 0.712272 0.710306
0.923502 0.923477 0.923307
0.922919 0.922877 0.922708
0.925450 0.925425 0.925261
0.929749 0.929722 0.929577
0.935755 0.935729 0.935618
0.943562 0.943539 0.943448
0.947860 0.947835 0.947758
0.942665 0.942642 0.942553
0.935860 0.935839 0.935716
0.926729 0.926707 0.926559
0.914525 0.914490 0.914275
0.898540 0.898492 0.898196
0.877488 0.877425 0.877001
0.849607 0.849509 0.848884
0.811886 0.811737 0.810806
0.779363 0.779184 0.777929
0.961977 0.961965 0.961914
0.962940 0.962932 0.962877
0.963865 0.963848 0.963812
0.966304 0.966292 0.966258
0.970685 0.970673 0.970639
0.976326 0.976326 0.976317
0.982972 0.982964 0.982960
0.987815 0.987813 0.987813
0.984850 0.984844 0.984831
0.980834 0.980834 0.980825
0.975107 0.975107 0.975091
0.966871 0.966870 0.966833
0.955385 0.955379 0.955310
0.940206 0.940187 0.940082
0.920635 0.920588 0.920404
0.892506 0.892442 0.892128
0.997559 0.997559 0.997559
0.996911 0.996911 0.996911
0.997845 0.997845 0.997845
0.999391 0.999391 0.999391
1.000000 1.000000 1.000000
1.000000 1.000000 1.000000
1.000000 1.000000 1.000000
1.000000 1.000000 1.000000
1.000000 1.000000 1.000000
1.000000 1.000000 1.000000
1.000000 1.000000 1.000000
1.000000 1.000000 1.000000
1.000000 1.000000 1.000000
1.000000 1.000000 1.000000
0.995526 0.995526 0.995526
0.988055 0.988055 0.988055
0.135225 0.134066 0.125490
0.135225 0.134066 0.125490
0.135225 0.134066 0.125490
0.155116 0.153624 0.144008
0.167809 0.166223 0.155994
0.166159 0.164596 0.154385
0.168190 0.166698 0.156372
0.173942 0.172340 0.161749
0.194645 0.192901 0.181612
0.216901 0.215048 0.203194
0.251463 0.249473 0.237198
0.289019 0.287103 0.275198
0.328395 0.326677 0.315879
0.369877 0.368414 0.359381
0.413981 0.412876 0.405806
0.466212 0.465382 0.460212
0.135225 0.134066 0.125490
0.135225 0.134066 0.125490
0.135389 0.134204 0.125617
0.167252 0.165686 0.155515
0.175086 0.173489 0.162929
0.172633 0.171054 0.160563
0.173384 0.171813 0.161300
0.181050 0.179350 0.168596
0.202699 0.200878 0.189334
0.227043 0.225206 0.213113
0.263153 0.261148 0.248899
0.299964 0.298122 0.286422
0.338081 0.336477 0.326039
0.378156 0.376748 0.368084
0.422969 0.421908 0.415241
0.473543 0.472752 0.467802
0.140304 0.139023 0.130014
0.151016 0.149519 0.140113
0.173725 0.172108 0.161644
0.204446 0.202641 0.191038
0.201692 0.199941 0.188416
0.196895 0.195207 0.183760
0.203368 0.201563 0.190068
0.224612 0.222760 0.210760
0.250572 0.248651 0.236412
0.281145 0.279291 0.267195
0.312924 0.311096 0.299770
0.345997 0.344417 0.334339
0.381719 0.380380 0.371877
0.419851 0.418747 0.411929
0.461008 0.460155 0.454852
0.510876 0.510183 0.505997
0.187145 0.185525 0.174576
0.196152 0.194438 0.183166
0.228635 0.226803 0.214822
0.249081 0.247114 0.234848
0.268347 0.266397 0.254190
0.297031 0.295170 0.283458
0.320268 0.318568 0.307518
0.338662 0.337027 0.326667
0.358370 0.356836 0.347293
0.379964 0.378578 0.370001
0.403732 0.402526 0.394990
0.429589 0.428581 0.422139
0.458814 0.457944 0.452562
0.490759 0.490022 0.485471
0.528399 0.527744 0.523757
0.570425 0.569854 0.566272
0.361149 0.359643 0.350248
0.370066 0.368646 0.359607
0.370954 0.369521 0.360506
0.341012 0.339395 0.329091
0.294956 0.293106 0.281307
0.291345 0.289489 0.277590
0.328726 0.327099 0.316282
0.377788 0.376384 0.367703
0.428738 0.427743 0.421272
0.479143 0.478357 0.473564
0.519930 0.519242 0.515166
0.539786 0.539158 0.535265
0.560526 0.559908 0.556239
0.583995 0.583424 0.579990
0.610057 0.609544 0.606391
0.643027 0.642575 0.639798
0.469466 0.468629 0.463581
0.474764 0.473926 0.469055
0.462751 0.461913 0.456677
0.439095 0.438141 0.432095
0.401565 0.400359 0.392748
0.347155 0.345556 0.335509
0.309883 0.308085 0.296641
0.349470 0.347914 0.337953
0.393972 0.392704 0.384757
0.449627 0.448762 0.443092
0.505095 0.504362 0.500102
0.558979 0.558400 0.554693
0.608743 0.608239 0.605087
0.655974 0.655565 0.652924
0.691301 0.690954 0.688737
0.716866 0.716560 0.714632
0.556982 0.556409 0.552680
0.563712 0.563132 0.559477
0.554451 0.553872 0.550125
0.536214 0.535558 0.531637
0.506779 0.506096 0.501847
0.463651 0.462809 0.457580
0.404093 0.402887 0.395375
0.341225 0.339620 0.329301
0.375089 0.373658 0.364842
0.420526 0.419430 0.412654
0.471235 0.470382 0.465387
0.532167 0.531508 0.527539
0.589126 0.588607 0.585219
0.641689 0.641240 0.638439
0.692358 0.692023 0.689815
0.746600 0.746357 0.744765
0.628888 0.628412 0.625472
0.635415 0.634955 0.632106
0.629490 0.629011 0.626089
0.617621 0.617134 0.614060
0.598798 0.598267 0.594994
0.570100 0.569545 0.565951
