assets/lut/editingcorp jarklin.cube
# Created by: G'MIC (https://gmic.eu)
TITLE "jarklin"
# LUT size
LUT_3D_SIZE 7
# Data domain
DOMAIN_MIN 0.0 0.0 0.0
DOMAIN_MAX 1.0 1.0 1.0
# LUT data points
0.020369915291666985 0.014538618735969067 0.0090137701481580734
0.14829537272453308 0.025181489065289497 0.020212315022945404
0.34160679578781128 0.051732469350099564 0.05219675600528717
0.59352779388427734 0.10678332298994064 0.10381602495908737
0.75451236963272095 0.12028688937425613 0.13283045589923859
0.82513058185577393 0.14314636588096619 0.14245399832725525
0.89601284265518188 0.082403294742107391 0.12898968160152435
0.032733377069234848 0.12852662801742554 0.025774907320737839
0.1494603306055069 0.13456657528877258 0.032145675271749496
0.32712090015411377 0.15422737598419189 0.055869698524475098
0.56173896789550781 0.17874495685100555 0.093598246574401855
0.73282355070114136 0.2056695967912674 0.12828251719474792
0.81106173992156982 0.21977099776268005 0.13833558559417725
0.89000886678695679 0.20916065573692322 0.13606002926826477
0.060391772538423538 0.27458411455154419 0.046878095716238022
0.1546873152256012 0.27506318688392639 0.053876329213380814
0.32884055376052856 0.29502522945404053 0.071769222617149353
0.55754822492599487 0.31734049320220947 0.10731849074363708
0.7470276951789856 0.33423367142677307 0.14590536057949066
0.83676278591156006 0.3369147777557373 0.15602210164070129
0.90888047218322754 0.33492845296859741 0.15407562255859375
0.11714926362037659 0.45316615700721741 0.085186965763568878
0.18808579444885254 0.45336684584617615 0.089345969259738922
0.33323168754577637 0.47241252660751343 0.10186450183391571
0.56277525424957275 0.50235283374786377 0.13969482481479645
0.77894008159637451 0.51690143346786499 0.18548257648944855
0.87988960742950439 0.5123976469039917 0.19822205603122711
0.9512627124786377 0.50504553318023682 0.19589275121688843
0.18205942213535309 0.63687771558761597 0.13112154603004456
0.23801082372665405 0.63633537292480469 0.13280484080314636
0.34110286831855774 0.64790993928909302 0.13962522149085999
0.55854314565658569 0.69110429286956787 0.18026846647262573
0.78942149877548218 0.71146351099014282 0.22977109253406525
0.92026418447494507 0.705485999584198 0.25108116865158081
0.98799055814743042 0.69211965799331665 0.24977371096611023
0.20923379063606262 0.75860875844955444 0.15406578779220581
0.26802793145179749 0.76461625099182129 0.16038009524345398
0.34890463948249817 0.77594280242919922 0.16745524108409882
0.5380173921585083 0.82444435358047485 0.20583745837211609
0.77643054723739624 0.85992306470870972 0.25753480195999146
0.92765414714813232 0.8679618239402771 0.2893049418926239
0.99456572532653809 0.85821294784545898 0.2931998074054718
0.21246707439422607 0.83795630931854248 0.15876638889312744
0.27591577172279358 0.84292453527450562 0.16500161588191986
0.34225761890411377 0.84622019529342651 0.17057530581951141
0.51563358306884766 0.88879662752151489 0.20565846562385559
0.75840860605239868 0.94284236431121826 0.25920194387435913
0.92716419696807861 0.96902275085449219 0.29973214864730835
0.9996497631072998 0.97049111127853394 0.31262356042861938
0.016006439924240112 0.021304052323102951 0.1165388822555542
0.15155230462551117 0.024036198854446411 0.12952901422977448
0.36164361238479614 0.034130439162254333 0.14766445755958557
0.60282629728317261 0.073490962386131287 0.18251727521419525
0.7523689866065979 0.08458506315946579 0.20314015448093414
0.82547426223754883 0.085664011538028717 0.2075812965631485
0.89313137531280518 0.053566157817840576 0.20102269947528839
0.042478911578655243 0.13923268020153046 0.12809237837791443
0.16005854308605194 0.14500740170478821 0.13095483183860779
0.34428340196609497 0.15770818293094635 0.14235171675682068
0.58028841018676758 0.18503931164741516 0.17252849042415619
0.74756920337677002 0.21492113173007965 0.20360475778579712
0.82623517513275146 0.23068995773792267 0.20825172960758209
0.88931238651275635 0.21422937512397766 0.20630872249603271
0.064655393362045288 0.27689597010612488 0.13242314755916595
0.15846504271030426 0.28555184602737427 0.13441266119480133
0.33391526341438293 0.29931387305259705 0.1430584043264389
0.56879884004592896 0.31862178444862366 0.17145423591136932
0.75632971525192261 0.33766883611679077 0.2100931853055954
0.84316718578338623 0.34014520049095154 0.22031784057617188
0.90996897220611572 0.33669149875640869 0.22227364778518677
0.11676564067602158 0.45016118884086609 0.15386298298835754
0.19018997251987457 0.46145191788673401 0.15509438514709473
0.33465677499771118 0.47871926426887512 0.16109643876552582
0.56793725490570068 0.50353586673736572 0.19368550181388855
0.78148311376571655 0.51812708377838135 0.24457332491874695
0.88642877340316772 0.51514077186584473 0.26135402917861938
0.95959842205047607 0.51017111539840698 0.26254737377166748
0.18495047092437744 0.63748466968536377 0.19352585077285767
0.24986432492733002 0.64843481779098511 0.19767168164253235
0.34861168265342712 0.65611618757247925 0.19653657078742981
0.56151407957077026 0.6907423734664917 0.23139655590057373
0.7938838005065918 0.71453922986984253 0.2892335057258606
0.91875272989273071 0.70808488130569458 0.31460458040237427
0.98772376775741577 0.69850128889083862 0.31440979242324829
0.21912281215190887 0.76203733682632446 0.21962492167949677
0.28383973240852356 0.7733646035194397 0.2247653603553772
0.35138028860092163 0.77664816379547119 0.22394973039627075
0.53164470195770264 0.81840628385543823 0.26043546199798584
0.77459216117858887 0.86378544569015503 0.31969714164733887
0.92782962322235107 0.86986511945724487 0.3538949191570282
0.99488455057144165 0.86197978258132935 0.35968199372291565
0.22013655304908752 0.83366179466247559 0.22775405645370483
0.29029959440231323 0.84341955184936523 0.228742316365242
0.35157731175422668 0.84733551740646362 0.22911264002323151
0.51447141170501709 0.88876330852508545 0.26368054747581482
0.7523428201675415 0.94436353445053101 0.32013127207756042
0.92741626501083374 0.96595549583435059 0.36773973703384399
0.99995046854019165 0.96981370449066162 0.38257989287376404
0.025552533566951752 0.028084594756364822 0.27004942297935486
0.17264360189437866 0.026069058105349541 0.29716664552688599
0.38633853197097778 0.023521319031715393 0.30839604139328003
0.60915863513946533 0.072511635720729828 0.32220613956451416
0.75355648994445801 0.11552648991346359 0.33179062604904175
0.82380002737045288 0.079527460038661957 0.32373231649398804
0.87899571657180786 0.081564031541347504 0.3109494149684906
0.056339666247367859 0.15203578770160675 0.27049872279167175
0.16260641813278198 0.15225552022457123 0.28255549073219299
0.35587450861930847 0.15094944834709167 0.28969660401344299
0.58908993005752563 0.18848657608032227 0.30390691757202148
0.74783307313919067 0.21941544115543365 0.31894248723983765
0.82083672285079956 0.22491104900836945 0.31539946794509888
0.88236629962921143 0.22988557815551758 0.3154565691947937
0.073494523763656616 0.28929269313812256 0.26394784450531006
0.15427637100219727 0.29293718934059143 0.26694604754447937
0.32774347066879272 0.2988855242729187 0.27084437012672424
0.57295674085617065 0.32229003310203552 0.28954559564590454
0.76311022043228149 0.34953886270523071 0.31861838698387146
0.84982454776763916 0.35098543763160706 0.32377895712852478
0.91353434324264526 0.35534384846687317 0.33135160803794861
0.11982563883066177 0.46366098523139954 0.26488766074180603
0.18505667150020599 0.468361496925354 0.2638457715511322
0.32471340894699097 0.47894749045372009 0.26647990942001343
0.56856375932693481 0.50709092617034912 0.29360434412956238
0.78538703918457031 0.53027403354644775 0.33623847365379333
0.8898741602897644 0.52571260929107666 0.34450593590736389
0.9601130485534668 0.52799350023269653 0.35997650027275085
0.18376705050468445 0.64517837762832642 0.28196054697036743
0.23936864733695984 0.64802247285842896 0.27979868650436401
0.33893528580665588 0.65422093868255615 0.27710834145545959
0.56387078762054443 0.69345688819885254 0.30879998207092285
0.80016344785690308 0.72168999910354614 0.35992372035980225
0.92386949062347412 0.71355664730072021 0.38345828652381897
0.98850071430206299 0.71032494306564331 0.39937481284141541
0.21895365417003632 0.76706671714782715 0.29297769069671631
0.27261993288993835 0.76948529481887817 0.29168948531150818
0.35061484575271606 0.77821928262710571 0.29225853085517883
0.53877449035644531 0.82501709461212158 0.32565629482269287
0.78017067909240723 0.87110257148742676 0.37540671229362488
0.93258798122406006 0.87468171119689941 0.41007998585700989
0.99446439743041992 0.86868101358413696 0.43343353271484375
0.22219604253768921 0.83536237478256226 0.29721769690513611
0.27937841415405273 0.83913689851760864 0.29331108927726746
0.35059410333633423 0.84951090812683105 0.29353278875350952
0.52264785766601562 0.89814412593841553 0.32844454050064087
0.75675588846206665 0.95183950662612915 0.37317714095115662
0.92957621812820435 0.97065562009811401 0.41122192144393921
0.99872612953186035 0.96935242414474487 0.43894550204277039
0.091292649507522583 0.035393178462982178 0.50619995594024658
0.21161101758480072 0.040639284998178482 0.52388429641723633
0.3932030200958252 0.032256033271551132 0.5107683539390564
0.60364151000976562 0.068365670740604401 0.50180363655090332
0.74602395296096802 0.11272185295820236 0.49244478344917297
0.81580221652984619 0.10968533903360367 0.47625604271888733
0.86682033538818359 0.10931272059679031 0.45663920044898987
0.084819644689559937 0.15380857884883881 0.47415977716445923
0.17980358004570007 0.15537522733211517 0.48746940493583679
0.35115557909011841 0.15390796959400177 0.48488759994506836
0.58417463302612305 0.1861041784286499 0.48109358549118042
0.74336236715316772 0.22549049556255341 0.47641703486442566
0.81082791090011597 0.21708543598651886 0.46157529950141907
0.8747064471244812 0.24255344271659851 0.46136906743049622
0.092871300876140594 0.29270753264427185 0.43921726942062378
0.16611620783805847 0.29291939735412598 0.44891050457954407
0.31739082932472229 0.30477261543273926 0.45495885610580444
0.57013165950775146 0.3316652774810791 0.47060069441795349
0.7678142786026001 0.367319256067276 0.4864780604839325
0.85381275415420532 0.36792102456092834 0.48319435119628906
0.9153752326965332 0.37884798645973206 0.48447713255882263
0.13359913229942322 0.47170829772949219 0.42974111437797546
0.19492813944816589 0.4727080762386322 0.42965966463088989
0.32026928663253784 0.48598194122314453 0.43820133805274963
0.56747746467590332 0.51976996660232544 0.46677026152610779
0.79348760843276978 0.55544114112854004 0.50812363624572754
0.90053999423980713 0.5595206618309021 0.50960057973861694
0.96559417247772217 0.55928051471710205 0.51583188772201538
0.19170017540454865 0.65241652727127075 0.42932349443435669
0.24812750518321991 0.65353870391845703 0.42615169286727905
0.34850281476974487 0.66198265552520752 0.43153807520866394
0.5597841739654541 0.7006945013999939 0.45971319079399109
0.79997318983078003 0.73491847515106201 0.50500297546386719
0.92984360456466675 0.73604923486709595 0.52673518657684326
0.9948880672454834 0.73562872409820557 0.54443585872650146
0.22624021768569946 0.77466320991516113 0.41740602254867554
0.28145450353622437 0.77620267868041992 0.41650155186653137
0.36156037449836731 0.78853541612625122 0.42300859093666077
0.53486543893814087 0.83493196964263916 0.45061248540878296
0.77940475940704346 0.87861543893814087 0.48692181706428528
0.9333682656288147 0.88568484783172607 0.52158248424530029
0.99412596225738525 0.87869524955749512 0.54589569568634033
0.23328302800655365 0.84441667795181274 0.40518710017204285
0.28940188884735107 0.84675890207290649 0.40827652812004089
0.3685588538646698 0.86316418647766113 0.41693627834320068
0.5302884578704834 0.9119422435760498 0.4480532705783844
0.76064825057983398 0.9623216986656189 0.48329454660415649
0.93376928567886353 0.98112660646438599 0.52466082572937012
0.99647539854049683 0.97446078062057495 0.55382752418518066
0.13221551477909088 0.040224816650152206 0.70736223459243774
0.23097416758537292 0.049475427716970444 0.69787704944610596
0.39118483662605286 0.031429305672645569 0.66588073968887329
0.60573136806488037 0.051309369504451752 0.66490250825881958
0.74473047256469727 0.096904128789901733 0.65298157930374146
0.78940820693969727 0.069899946451187134 0.62087064981460571
0.85084009170532227 0.076794929802417755 0.59885329008102417
0.11644402146339417 0.16376775503158569 0.64728552103042603
0.20036280155181885 0.16188251972198486 0.66175955533981323
0.35281306505203247 0.16374078392982483 0.65064465999603271
0.57374966144561768 0.18772983551025391 0.64303815364837646
0.73193103075027466 0.21581071615219116 0.64135265350341797
0.80459886789321899 0.20308910310268402 0.62828701734542847
0.87587177753448486 0.22466446459293365 0.61838102340698242
0.12058940529823303 0.29848551750183105 0.60930711030960083
0.19513694941997528 0.30040270090103149 0.63107562065124512
0.33183294534683228 0.31650090217590332 0.63861221075057983
0.57077592611312866 0.34684127569198608 0.65844780206680298
0.76792371273040771 0.37418565154075623 0.67219781875610352
0.85734754800796509 0.37356257438659668 0.65661275386810303
0.92141228914260864 0.38374233245849609 0.64760369062423706
0.15910567343235016 0.47277268767356873 0.61327749490737915
0.22476810216903687 0.47485339641571045 0.62027037143707275
0.33017417788505554 0.4912753701210022 0.631522536277771
0.56605672836303711 0.53448748588562012 0.66063803434371948
0.79624241590499878 0.57786101102828979 0.69389092922210693
0.90585792064666748 0.58912456035614014 0.69389653205871582
0.96880078315734863 0.58283185958862305 0.68735969066619873
0.21303290128707886 0.65746313333511353 0.61768496036529541
0.27597203850746155 0.65980136394500732 0.61681526899337769
0.35184726119041443 0.67034375667572021 0.62225842475891113
0.54428917169570923 0.7141273021697998 0.6519506573677063
0.79532504081726074 0.75394183397293091 0.69335031509399414
0.93346446752548218 0.76472485065460205 0.71266317367553711
0.99338138103485107 0.76199513673782349 0.71405023336410522
0.24555766582489014 0.78671735525131226 0.59703743457794189
0.31117886304855347 0.79226279258728027 0.59810233116149902
0.37828841805458069 0.80364847183227539 0.60242545604705811
0.52353131771087646 0.84883701801300049 0.63335901498794556
0.7770237922668457 0.88910692930221558 0.67453855276107788
0.93518525362014771 0.89894187450408936 0.71000832319259644
0.99485152959823608 0.8962588906288147 0.72829216718673706
0.25150540471076965 0.85755997896194458 0.58075451850891113
0.3165377676486969 0.86518639326095581 0.5813022255897522
0.39466282725334167 0.87629085779190063 0.58985728025436401
0.53861898183822632 0.9245067834854126 0.62477904558181763
0.76202315092086792 0.97254163026809692 0.66255784034729004
0.92962652444839478 0.9907647967338562 0.71327519416809082
0.99709051847457886 0.98839789628982544 0.74947893619537354
0.13207268714904785 0.037354711443185806 0.77357608079910278
0.22575028240680695 0.041769169270992279 0.76765245199203491
0.38172689080238342 0.026370389387011528 0.7522081732749939
0.6091235876083374 0.028185989707708359 0.77598220109939575
0.74419945478439331 0.074569791555404663 0.75721484422683716
0.77689892053604126 0.066506572067737579 0.71442031860351562
0.85275095701217651 0.091377526521682739 0.71031230688095093
0.12620452046394348 0.17453955113887787 0.73436909914016724
0.20622307062149048 0.17275601625442505 0.74887824058532715
0.34550505876541138 0.16865600645542145 0.74757015705108643
0.55544745922088623 0.18116036057472229 0.74343562126159668
0.72312623262405396 0.21793483197689056 0.74686723947525024
0.80921453237533569 0.21841908991336823 0.74815100431442261
0.88669341802597046 0.22903648018836975 0.74022448062896729
0.1335376650094986 0.30481377243995667 0.71386229991912842
0.205087810754776 0.30564424395561218 0.73478877544403076
0.3304423987865448 0.32047900557518005 0.75577956438064575
0.55698418617248535 0.35447835922241211 0.78532534837722778
0.76384764909744263 0.37769255042076111 0.80974268913269043
0.86407375335693359 0.37317672371864319 0.80006200075149536
0.9309077262878418 0.37920129299163818 0.78306668996810913
0.17203953862190247 0.47002062201499939 0.73501253128051758
0.23747849464416504 0.47047224640846252 0.74653398990631104
0.3338504433631897 0.48826307058334351 0.7704041600227356
0.54744642972946167 0.54255944490432739 0.81024384498596191
0.79143965244293213 0.58643674850463867 0.84832054376602173
0.91045314073562622 0.59196025133132935 0.85291320085525513
0.97110515832901001 0.58897829055786133 0.83567756414413452
0.22506599128246307 0.647316575050354 0.76753765344619751
0.29173856973648071 0.6500849723815918 0.77142906188964844
0.37032082676887512 0.66261112689971924 0.79010248184204102
0.54665857553482056 0.7201123833656311 0.82993000745773315
0.79655849933624268 0.76729750633239746 0.86529409885406494
0.93297487497329712 0.77781891822814941 0.87172502279281616
0.99001801013946533 0.77629131078720093 0.85994148254394531
0.26301774382591248 0.78902977705001831 0.77120327949523926
0.33221036195755005 0.79764509201049805 0.77839809656143188
0.39842268824577332 0.81345188617706299 0.78239196538925171
0.53274691104888916 0.85843938589096069 0.81126511096954346
0.77312946319580078 0.90049368143081665 0.84889000654220581
0.93371546268463135 0.90955358743667603 0.867564857006073
0.99428266286849976 0.91223561763763428 0.87399601936340332
0.27060127258300781 0.87360537052154541 0.7682797908782959
0.34107840061187744 0.88779127597808838 0.77114200592041016
0.41319039463996887 0.89462786912918091 0.77613896131515503
0.5488097071647644 0.93631231784820557 0.80455970764160156
0.76728361845016479 0.98224020004272461 0.84147357940673828
0.93146806955337524 0.99450677633285522 0.87078648805618286
0.99889117479324341 0.99617612361907959 0.89269495010375977
0.12788780033588409 0.024471491575241089 0.83130729198455811
0.23380120098590851 0.052968926727771759 0.83801394701004028
0.37295746803283691 0.035689692944288254 0.81724452972412109
0.57085007429122925 0.054045286029577255 0.81566160917282104
0.7089848518371582 0.083710029721260071 0.7930113673210144
0.77377992868423462 0.08179117739200592 0.77882283926010132
0.8583904504776001 0.10320565849542618 0.7915833592414856
0.12298475950956345 0.15668462216854095 0.79452967643737793
0.20686465501785278 0.16935569047927856 0.80862575769424438
0.33184880018234253 0.17225968837738037 0.81316715478897095
0.54363584518432617 0.18264426290988922 0.81873452663421631
0.72094428539276123 0.22280196845531464 0.82137072086334229
0.81251555681228638 0.22157296538352966 0.82594162225723267
0.89328247308731079 0.2234998494386673 0.82522141933441162
0.1325291246175766 0.29703009128570557 0.77402669191360474
0.20246368646621704 0.30007749795913696 0.79271888732910156
0.31740212440490723 0.3168148398399353 0.82073521614074707
0.54704326391220093 0.35202470421791077 0.85519027709960938
0.75798565149307251 0.37975367903709412 0.88017159700393677
0.86743289232254028 0.37411224842071533 0.88687038421630859
0.94076299667358398 0.38193953037261963 0.87854385375976562
0.16912057995796204 0.46124181151390076 0.79883432388305664
0.23762939870357513 0.46244663000106812 0.81098693609237671
0.3397928774356842 0.48695087432861328 0.84290498495101929
0.54855334758758545 0.54454934597015381 0.88798147439956665
0.79085630178451538 0.59167224168777466 0.93190884590148926
0.91482824087142944 0.59436345100402832 0.94701552391052246
0.98086202144622803 0.59342712163925171 0.93658983707427979
0.2218068391084671 0.63762074708938599 0.84058672189712524
0.29351788759231567 0.6465269923210144 0.85280156135559082
0.38539078831672668 0.6676337718963623 0.87988156080245972
0.56602257490158081 0.72383588552474976 0.92361271381378174
0.79640382528305054 0.77103275060653687 0.96159368753433228
0.92977279424667358 0.78091239929199219 0.97373056411743164
0.99415343999862671 0.77736973762512207 0.96613579988479614
0.26890841126441956 0.79416924715042114 0.87614822387695312
0.33767789602279663 0.80525809526443481 0.88729619979858398
0.41268154978752136 0.81883889436721802 0.90066015720367432
0.54760509729385376 0.86075729131698608 0.93106544017791748
0.76214933395385742 0.90146774053573608 0.96276545524597168
0.92515105009078979 0.91419541835784912 0.97350996732711792
0.99561053514480591 0.91686755418777466 0.97831255197525024
0.2782520055770874 0.88827550411224365 0.89796870946884155
0.35080686211585999 0.90101492404937744 0.90890532732009888
0.42422780394554138 0.91162234544754028 0.91844707727432251
0.54913592338562012 0.94895273447036743 0.94153964519500732
0.75458705425262451 0.98819160461425781 0.97394901514053345
0.92383044958114624 0.99574297666549683 0.99005359411239624
0.9986412525177002 0.99847555160522461 0.99449896812438965
