assets/lut/editingcorp jarklin.cube
# Created by: G'MIC (https://gmic.eu)
TITLE "jarklin"
# LUT size
LUT_3D_SIZE 5
# Data domain
DOMAIN_MIN 0.0 0.0 0.0
DOMAIN_MAX 1.0 1.0 1.0
# LUT data points
0.020369915291666985 0.014538618735969067 0.0090137701481580734
0.23867757618427277 0.035976439714431763 0.03304189071059227
0.59352779388427734 0.10678332298994064 0.10381602495908737
0.79068440198898315 0.11967423558235168 0.13601145148277283
0.89601284265518188 0.082403294742107391 0.12898968160152435
0.04303494468331337 0.1988738477230072 0.034296058118343353
0.23183594644069672 0.209499791264534 0.050828643143177032
0.55673855543136597 0.23996026813983917 0.097678631544113159
0.78292238712310791 0.26522013545036316 0.14130523800849915
0.89464658498764038 0.2656993567943573 0.14163878560066223
0.11714926362037659 0.45316615700721741 0.085186965763568878
0.24803072214126587 0.45967760682106018 0.093306370079517365
0.56277525424957275 0.50235283374786377 0.13969482481479645
0.84364157915115356 0.51613271236419678 0.19681046903133392
0.9512627124786377 0.50504553318023682 0.19589275121688843
0.20025511085987091 0.70556247234344482 0.14559482038021088
0.29229077696800232 0.71135896444320679 0.15120428800582886
0.55123710632324219 0.77016943693161011 0.19683922827243805
0.87390375137329102 0.79634261131286621 0.26468223333358765
0.99281042814254761 0.78078669309616089 0.27400639653205872
0.21246707439422607 0.83795630931854248 0.15876638889312744
0.30416244268417358 0.84305834770202637 0.166312575340271
0.51563358306884766 0.88879662752151489 0.20565846562385559
0.85837870836257935 0.95974040031433105 0.28255876898765564
0.9996497631072998 0.97049111127853394 0.31262356042861938
0.017907984554767609 0.025098614394664764 0.18908143043518066
0.26086628437042236 0.023278269916772842 0.21283045411109924
0.6090317964553833 0.072665147483348846 0.24446108937263489
0.79253321886062622 0.10632778704166412 0.26311805844306946
0.88643938302993774 0.060876179486513138 0.25097852945327759
0.057947795838117599 0.21151228249073029 0.19432513415813446
0.23759558796882629 0.21875934302806854 0.19908449053764343
0.57803559303283691 0.24609808623790741 0.22418645024299622
0.79917985200881958 0.27550989389419556 0.25697141885757446
0.89535129070281982 0.27383840084075928 0.25949057936668396
0.11760442703962326 0.4560333788394928 0.20257680118083954
0.24648697674274445 0.47075042128562927 0.20259277522563934
0.56933242082595825 0.50418829917907715 0.23397660255432129
0.84712284803390503 0.52161109447479248 0.29372796416282654
0.96100044250488281 0.51718467473983765 0.30492338538169861
0.20779649913311005 0.71229743957519531 0.24444785714149475
0.30130848288536072 0.72118997573852539 0.24458169937133789
0.55149674415588379 0.76584833860397339 0.27867403626441956
0.87559187412261963 0.80165928602218628 0.35726356506347656
0.99155151844024658 0.78987377882003784 0.3761633038520813
0.22036740183830261 0.83243036270141602 0.26110002398490906
0.31236723065376282 0.84217733144760132 0.25542780756950378
0.51799297332763672 0.89247417449951172 0.29281160235404968
0.85365903377532959 0.96091222763061523 0.36932274699211121
0.9996567964553833 0.96877437829971313 0.41151607036590576
0.091292649507522583 0.035393178462982178 0.50619995594024658
0.29426231980323792 0.034192133694887161 0.51921629905700684
0.60364151000976562 0.068365670740604401 0.50180363655090332
0.78481000661849976 0.1134406179189682 0.48365280032157898
0.86682033538818359 0.10931272059679031 0.45663920044898987
0.084951616823673248 0.21704567968845367 0.4559100866317749
0.23460623621940613 0.21997840702533722 0.46868059039115906
0.57629400491714478 0.24940061569213867 0.47394967079162598
0.79718953371047974 0.27982458472251892 0.47142153978347778
0.89100426435470581 0.30046024918556213 0.47032818198204041
0.13359913229942322 0.47170829772949219 0.42974111437797546
0.24329386651515961 0.47701027989387512 0.43212896585464478
0.56747746467590332 0.51976996660232544 0.46677026152610779
0.85888689756393433 0.56064248085021973 0.51422703266143799
0.96559417247772217 0.55928051471710205 0.51583188772201538
0.21390022337436676 0.7235952615737915 0.42445471882820129
0.30509117245674133 0.72584164142608643 0.42339125275611877
0.54888302087783813 0.77607530355453491 0.45513403415679932
0.87941533327102661 0.81804448366165161 0.514534592628479
0.99550652503967285 0.81294167041778564 0.54662907123565674
0.23328302800655365 0.84441667795181274 0.40518710017204285
0.32266178727149963 0.85174655914306641 0.4102807343006134
0.5302884578704834 0.9119422435760498 0.4480532705783844
0.86213815212249756 0.97607266902923584 0.50073921680450439
0.99647539854049683 0.97446078062057495 0.55382752418518066
0.13453337550163269 0.043869122862815857 0.74494832754135132
0.29210320115089417 0.03406892716884613 0.71706914901733398
0.60937154293060303 0.035474244505167007 0.72846847772598267
0.76665002107620239 0.088219195604324341 0.69328880310058594
0.84888601303100586 0.076385915279388428 0.65936213731765747
0.12254118174314499 0.23240289092063904 0.67972344160079956
0.25872969627380371 0.23452192544937134 0.70510107278823853
0.56216049194335938 0.26320496201515198 0.71440190076828003
0.79195189476013184 0.27881917357444763 0.72128444910049438
0.90130656957626343 0.29408749938011169 0.70050650835037231
0.16868089139461517 0.47208535671234131 0.68560576438903809
0.27661424875259399 0.47687894105911255 0.7050817608833313
0.55720698833465576 0.54139029979705811 0.74593758583068848
0.86274760961532593 0.59173113107681274 0.78141540288925171
0.96897679567337036 0.58749371767044067 0.76576066017150879
0.24253970384597778 0.73224949836730957 0.69826358556747437
0.34053885936737061 0.74088084697723389 0.70062440633773804
0.53327560424804688 0.79546761512756348 0.73730474710464478
0.88036245107650757 0.84279447793960571 0.78825217485427856
0.9931531548500061 0.84480440616607666 0.79875844717025757
0.26184830069541931 0.86658984422683716 0.67787843942642212
0.36513230204582214 0.87944614887237549 0.67882996797561646
0.54556363821029663 0.93039864301681519 0.71847242116928101
0.86133825778961182 0.99028933048248291 0.76751148700714111
0.99781686067581177 0.99346685409545898 0.82681286334991455
0.12788780033588409 0.024471491575241089 0.83130729198455811
0.29571187496185303 0.047191545367240906 0.82798737287521362
0.57085007429122925 0.054045286029577255 0.81566160917282104
0.73886936902999878 0.069717362523078918 0.77779251337051392
0.8583904504776001 0.10320565849542618 0.7915833592414856
0.12460348010063171 0.2230372279882431 0.77939838171005249
0.24880723655223846 0.23488436639308929 0.80653661489486694
0.53973877429962158 0.25645706057548523 0.83516776561737061
0.79392623901367188 0.28826910257339478 0.85299175977706909
0.91507017612457275 0.28806149959564209 0.84840214252471924
0.16912057995796204 0.46124181151390076 0.79883432388305664
0.28053480386734009 0.47032681107521057 0.82512801885604858
0.54855334758758545 0.54454934597015381 0.88798147439956665
0.86578190326690674 0.59611958265304565 0.9426872730255127
0.98086202144622803 0.59342712163925171 0.93658983707427979
0.24910649657249451 0.72309648990631104 0.85904920101165771
0.35658654570579529 0.73953509330749512 0.87928330898284912
0.5613287091255188 0.79873883724212646 0.93039953708648682
0.8691861629486084 0.85069721937179565 0.97137963771820068
0.995094895362854 0.85318803787231445 0.97240364551544189
0.2782520055770874 0.88827550411224365 0.89796870946884155
0.38510909676551819 0.90496039390563965 0.91286945343017578
0.54913592338562012 0.94895273447036743 0.94153964519500732
0.85305500030517578 0.99444764852523804 0.98406386375427246
0.9986412525177002 0.99847555160522461 0.99449896812438965
