assets/lut/editingcorp lotta.cube
# Created by: G'MIC (https://gmic.eu)
TITLE "lotta"
# LUT size
LUT_3D_SIZE 7
# Data domain
DOMAIN_MIN 0.0 0.0 0.0
DOMAIN_MAX 1.0 1.0 1.0
# LUT data points
0.0031693102791905403 0.0054609710350632668 0.0048011182807385921
0.034518595784902573 0.020882295444607735 0.022692108526825905
0.19154411554336548 0.052393101155757904 0.050886642187833786
0.32870841026306152 0.071350768208503723 0.065100260078907013
0.46761634945869446 0.089941509068012238 0.066878281533718109
0.60888034105300903 0.11188046634197235 0.072519548237323761
0.76468002796173096 0.13159024715423584 0.082171648740768433
0.019825579598546028 0.057683397084474564 0.029915230348706245
0.076253779232501984 0.08160051703453064 0.038893800228834152
0.25120148062705994 0.11820711940526962 0.052515216171741486
0.3755195140838623 0.13371054828166962 0.062895737588405609
0.50263303518295288 0.15776321291923523 0.068610519170761108
0.64788609743118286 0.19139765202999115 0.075810916721820831
0.80846452713012695 0.22289586067199707 0.089357949793338776
0.078098669648170471 0.19055415689945221 0.091132372617721558
0.11469503492116928 0.21007390320301056 0.09848494827747345
0.27143922448158264 0.23606856167316437 0.097831293940544128
0.42728161811828613 0.28346353769302368 0.066402554512023926
0.55308014154434204 0.29663676023483276 0.061946328729391098
0.69221013784408569 0.32256224751472473 0.065674334764480591
0.84940445423126221 0.34803557395935059 0.088907800614833832
0.14057940244674683 0.3377348780632019 0.18739126622676849
0.24227342009544373 0.36722478270530701 0.19135218858718872
0.35666203498840332 0.37034997344017029 0.21256051957607269
0.44793790578842163 0.39498689770698547 0.16791994869709015
0.59418982267379761 0.45350569486618042 0.10062409937381744
0.74266952276229858 0.4797939658164978 0.077767148613929749
0.8930402398109436 0.50159186124801636 0.10012940317392349
0.29695793986320496 0.46249514818191528 0.24236902594566345
0.38306072354316711 0.48782810568809509 0.27254176139831543
0.46891358494758606 0.51511663198471069 0.32466727495193481
0.51304930448532104 0.50941294431686401 0.31910279393196106
0.61079919338226318 0.54895895719528198 0.23712250590324402
0.77386361360549927 0.61956846714019775 0.14592073857784271
0.92645025253295898 0.66220813989639282 0.1191260814666748
0.41844615340232849 0.56120675802230835 0.33214226365089417
0.46500974893569946 0.58808839321136475 0.36752289533615112
0.52850210666656494 0.61819267272949219 0.40006333589553833
0.59711962938308716 0.63905125856399536 0.41369155049324036
0.66550111770629883 0.64987576007843018 0.38239577412605286
0.80098253488540649 0.71600878238677979 0.29483607411384583
0.94695878028869629 0.80047881603240967 0.2250010222196579
0.45893341302871704 0.65922904014587402 0.39517316222190857
0.48992633819580078 0.68468934297561646 0.4073185920715332
0.55267924070358276 0.71378087997436523 0.42592722177505493
0.64985066652297974 0.75669896602630615 0.456839919090271
0.75079602003097534 0.79453772306442261 0.46460482478141785
0.84984898567199707 0.83033972978591919 0.45643037557601929
0.94838851690292358 0.89769488573074341 0.47497084736824036
0.012550997547805309 0.028220875188708305 0.034529518336057663
0.018266281113028526 0.026832759380340576 0.053579680621623993
0.14353936910629272 0.03744811937212944 0.072579585015773773
0.3063008189201355 0.053556628525257111 0.088348165154457092
0.45645606517791748 0.061913106590509415 0.10409988462924957
0.60455018281936646 0.060566607862710953 0.10711739957332611
0.7531510591506958 0.077169708907604218 0.12639033794403076
0.01184686366468668 0.074020206928253174 0.071875371038913727
0.049144834280014038 0.10473448783159256 0.10941740870475769
0.24636189639568329 0.120392806828022 0.11089721322059631
0.38265401124954224 0.12644225358963013 0.10395679622888565
0.51494622230529785 0.1353667676448822 0.11345694959163666
0.65754139423370361 0.14566816389560699 0.12108484655618668
0.80822432041168213 0.17645792663097382 0.14510206878185272
0.048280902206897736 0.18971607089042664 0.10245811939239502
0.091388151049613953 0.2288169264793396 0.13818348944187164
0.28031426668167114 0.2628229558467865 0.16181787848472595
0.44130215048789978 0.29674896597862244 0.13875779509544373
0.56968599557876587 0.30258333683013916 0.12741616368293762
0.71501010656356812 0.31562480330467224 0.12559294700622559
0.8656851053237915 0.34054705500602722 0.15483273565769196
0.12190292775630951 0.3304612934589386 0.17484176158905029
0.14752101898193359 0.36304932832717896 0.19680255651473999
0.33615726232528687 0.3914150595664978 0.22633671760559082
0.4526960551738739 0.40931659936904907 0.21042867004871368
0.60538893938064575 0.46372601389884949 0.15490584075450897
0.75700229406356812 0.47795107960700989 0.13666637241840363
0.90689241886138916 0.5000646710395813 0.17372603714466095
0.20397482812404633 0.44407570362091064 0.23126235604286194
0.28365632891654968 0.47147586941719055 0.23827251791954041
0.43465223908424377 0.51098382472991943 0.30193430185317993
0.51335686445236206 0.51689332723617554 0.33128708600997925
0.61095303297042847 0.55156010389328003 0.27025169134140015
0.78361779451370239 0.62576282024383545 0.18063902854919434
0.93357592821121216 0.66475337743759155 0.19505193829536438
0.36564144492149353 0.55157870054244995 0.31956249475479126
0.41559228301048279 0.57712268829345703 0.34402236342430115
0.49859553575515747 0.6116325855255127 0.38084486126899719
0.59474509954452515 0.64604991674423218 0.41751956939697266
0.66734158992767334 0.65860402584075928 0.40405583381652832
0.80061429738998413 0.71973049640655518 0.3145962655544281
0.94567775726318359 0.80001288652420044 0.26573377847671509
0.43885281682014465 0.65766769647598267 0.40229788422584534
0.46954721212387085 0.68236684799194336 0.41295230388641357
0.53128707408905029 0.71083170175552368 0.43307980895042419
0.63372933864593506 0.75641548633575439 0.46591576933860779
0.74513942003250122 0.80414319038391113 0.4859670102596283
0.85050946474075317 0.83809846639633179 0.49286863207817078
0.94409036636352539 0.89769738912582397 0.519084632396698
0.012018361128866673 0.056426342576742172 0.085634030401706696
0.010941674001514912 0.084783174097537994 0.14084643125534058
0.086083397269248962 0.039851542562246323 0.1600729376077652
0.25388434529304504 0.045987732708454132 0.18221175670623779
0.39455786347389221 0.05290018767118454 0.1930190771818161
0.55206406116485596 0.06003296747803688 0.21579067409038544
0.7140541672706604 0.074421979486942291 0.23261082172393799
0.012683479115366936 0.12095857411623001 0.147807776927948
0.019054936245083809 0.15904141962528229 0.19790589809417725
0.16534529626369476 0.11221160739660263 0.23214904963970184
0.33586323261260986 0.095854036509990692 0.22584898769855499
0.47806990146636963 0.1028079017996788 0.2216542661190033
0.61766761541366577 0.1030154824256897 0.21790862083435059
0.7848740816116333 0.15072257816791534 0.2468658834695816
0.0086177755147218704 0.21077908575534821 0.2071356326341629
0.060442473739385605 0.25750169157981873 0.25592482089996338
0.25603097677230835 0.31767165660858154 0.32008218765258789
0.45048773288726807 0.31747680902481079 0.31877514719963074
0.58802503347396851 0.3266567587852478 0.30485880374908447
0.72405487298965454 0.32617154717445374 0.28416377305984497
0.86696869134902954 0.35339131951332092 0.29376935958862305
0.053905948996543884 0.33637994527816772 0.26071599125862122
0.15187563002109528 0.38290351629257202 0.30957558751106262
0.33701324462890625 0.43985277414321899 0.39938604831695557
0.46888461709022522 0.46601399779319763 0.3845253586769104
0.62425726652145386 0.49327680468559265 0.34233841300010681
0.77514863014221191 0.49859058856964111 0.3238283097743988
0.91386663913726807 0.51493597030639648 0.32694759964942932
0.1193799152970314 0.43267649412155151 0.29031887650489807
0.23736138641834259 0.47911545634269714 0.3518315851688385
0.39473614096641541 0.52604055404663086 0.41185024380683899
0.50152015686035156 0.55255091190338135 0.44124892354011536
0.61826354265213013 0.58503025770187378 0.40531077980995178
0.79722499847412109 0.64586591720581055 0.34978160262107849
0.94156759977340698 0.66721469163894653 0.34512022137641907
0.21804046630859375 0.5206792950630188 0.34187009930610657
0.33296748995780945 0.56475579738616943 0.38044637441635132
0.43444398045539856 0.60501539707183838 0.41012465953826904
0.55676668882369995 0.64895761013031006 0.4564419686794281
0.66112381219863892 0.67638105154037476 0.4712311327457428
0.80245369672775269 0.7369500994682312 0.41884645819664001
0.94589704275131226 0.80219566822052002 0.38597539067268372
0.37142884731292725 0.64143079519271851 0.42746499180793762
0.41675916314125061 0.67075097560882568 0.44079074263572693
0.47943231463432312 0.70380765199661255 0.4544854462146759
0.58363628387451172 0.74791640043258667 0.48033702373504639
0.71442884206771851 0.80059075355529785 0.51791679859161377
0.84903550148010254 0.84580844640731812 0.53622019290924072
0.94925022125244141 0.90492957830429077 0.55460983514785767
0.011764706112444401 0.10289077460765839 0.15146706998348236
0.010928090661764145 0.14268766343593597 0.20712733268737793
0.037341728806495667 0.11035880446434021 0.24617937207221985
0.20034748315811157 0.063853196799755096 0.25319218635559082
0.32175430655479431 0.064460724592208862 0.27953380346298218
0.46620941162109375 0.069750137627124786 0.33435550332069397
0.62620240449905396 0.094779863953590393 0.36431312561035156
0.011764706112444401 0.16529199481010437 0.21042688190937042
0.013168394565582275 0.20713800191879272 0.26543143391609192
0.11054422706365585 0.20510099828243256 0.30445331335067749
0.27530065178871155 0.1147235631942749 0.31679606437683105
0.387748122215271 0.09444090723991394 0.32408097386360168
0.51951462030410767 0.069450050592422485 0.35400629043579102
0.71140867471694946 0.17933423817157745 0.41513314843177795
0.0093880295753479004 0.26444679498672485 0.30032476782798767
0.03712024912238121 0.31117081642150879 0.3507828414440155
0.22082923352718353 0.36457434296607971 0.40586322546005249
0.38285109400749207 0.32459220290184021 0.43147283792495728
0.5308685302734375 0.31141689419746399 0.4447605311870575
0.67423337697982788 0.31300252676010132 0.4478759765625
0.82161599397659302 0.36798542737960815 0.46589305996894836
0.004292207770049572 0.36023002862930298 0.35567495226860046
0.061451781541109085 0.39378589391708374 0.39085975289344788
0.31131196022033691 0.46458837389945984 0.46924152970314026
0.44807279109954834 0.50032764673233032 0.50245356559753418
0.60812884569168091 0.50693827867507935 0.50982809066772461
0.76818883419036865 0.51510775089263916 0.50053888559341431
0.89711642265319824 0.53294187784194946 0.50113421678543091
0.097140803933143616 0.45288625359535217 0.40981131792068481
0.2313179224729538 0.49369269609451294 0.4505196213722229
0.39215528964996338 0.54063290357589722 0.51047027111053467
0.49333107471466064 0.57798159122467041 0.5508124828338623
0.61466991901397705 0.61211538314819336 0.54148691892623901
0.80095493793487549 0.65735882520675659 0.52039891481399536
0.93936723470687866 0.67574548721313477 0.51778590679168701
0.23707181215286255 0.53745198249816895 0.44996702671051025
0.33840349316596985 0.57947838306427002 0.48450565338134766
0.42677599191665649 0.61838209629058838 0.51694792509078979
0.53293764591217041 0.65765297412872314 0.55351716279983521
0.64446979761123657 0.69520503282546997 0.57904362678527832
0.80406218767166138 0.75833392143249512 0.56893151998519897
0.94393140077590942 0.81476372480392456 0.54994350671768188
0.32336881756782532 0.6334846019744873 0.48887366056442261
0.38026174902915955 0.67088860273361206 0.51026540994644165
0.44884252548217773 0.70891529321670532 0.52995204925537109
0.54425442218780518 0.75243353843688965 0.54875582456588745
0.67482727766036987 0.80325454473495483 0.57367002964019775
0.83097332715988159 0.85401540994644165 0.60863310098648071
0.93665808439254761 0.90163552761077881 0.68565148115158081
0.011764706112444401 0.14970679581165314 0.20658305287361145
0.007779484149068594 0.19604599475860596 0.26845714449882507
0.032026268541812897 0.20448286831378937 0.30461904406547546
0.1769278347492218 0.11123908311128616 0.328835129737854
0.30338835716247559 0.10887983441352844 0.33528771996498108
0.41541838645935059 0.11295782029628754 0.38165318965911865
0.53355473279953003 0.11528200656175613 0.43002018332481384
0.011764706112444401 0.21132355928421021 0.27138635516166687
0.0091880951076745987 0.25161010026931763 0.32045480608940125
0.10122972726821899 0.30105948448181152 0.38324627280235291
0.25001201033592224 0.19934371113777161 0.39865273237228394
0.36278507113456726 0.15007944405078888 0.38698592782020569
0.45144060254096985 0.11009563505649567 0.4081064760684967
0.61351484060287476 0.22008359432220459 0.49503242969512939
0.012318046763539314 0.30619373917579651 0.36470305919647217
0.014038983732461929 0.34296604990959167 0.4064190685749054
0.17382818460464478 0.40222018957138062 0.47250762581825256
0.3504956066608429 0.38912290334701538 0.49998959898948669
0.48190832138061523 0.33935266733169556 0.51233518123626709
0.58544403314590454 0.31492051482200623 0.52296990156173706
0.72561657428741455 0.38543683290481567 0.57260769605636597
0.0034067491069436073 0.40323638916015625 0.42920374870300293
0.074609450995922089 0.4387919008731842 0.46873036026954651
0.28648409247398376 0.49397966265678406 0.52896595001220703
0.42747586965560913 0.53130239248275757 0.56398332118988037
0.53935980796813965 0.50918018817901611 0.58749955892562866
0.69196391105651855 0.51002895832061768 0.60561710596084595
0.82174032926559448 0.53780567646026611 0.62801837921142578
0.079936057329177856 0.47884783148765564 0.47191247344017029
0.1503128856420517 0.50530755519866943 0.49831041693687439
0.32266786694526672 0.54981052875518799 0.54612427949905396
0.48029008507728577 0.59918570518493652 0.60242486000061035
0.58291864395141602 0.62768542766571045 0.63141298294067383
0.76499557495117188 0.65133017301559448 0.65192270278930664
0.92306280136108398 0.67818957567214966 0.66643959283828735
0.22623862326145172 0.55048704147338867 0.5171201229095459
0.31889551877975464 0.59069502353668213 0.55536538362503052
0.43177399039268494 0.62871015071868896 0.59368276596069336
0.52953863143920898 0.66562813520431519 0.63216179609298706
0.62301695346832275 0.70129317045211792 0.66527611017227173
0.78208309412002563 0.75842845439910889 0.68110108375549316
0.94800466299057007 0.82080119848251343 0.69636523723602295
0.31805983185768127 0.64065605401992798 0.56092458963394165
0.38543048501014709 0.68230587244033813 0.5937652587890625
0.4599074125289917 0.7195696234703064 0.62142598628997803
0.54008990526199341 0.75759774446487427 0.63782453536987305
0.62913167476654053 0.80368798971176147 0.64804410934448242
0.79993736743927002 0.85703283548355103 0.67955958843231201
0.92695075273513794 0.9037318229675293 0.78133004903793335
0.011764706112444401 0.19568178057670593 0.26426446437835693
0.0064504435285925865 0.25649294257164001 0.33522289991378784
0.056187678128480911 0.30723124742507935 0.40245246887207031
0.19408309459686279 0.23104614019393921 0.42654916644096375
0.33762097358703613 0.16655449569225311 0.42625996470451355
0.4075799286365509 0.1670457124710083 0.42943546175956726
0.4991544783115387 0.1788003146648407 0.4745350182056427
0.012107908725738525 0.25897222757339478 0.33249577879905701
0.0037853466346859932 0.29857015609741211 0.37813600897789001
0.070440299808979034 0.36258018016815186 0.45518231391906738
0.25080233812332153 0.33977290987968445 0.47993472218513489
0.39029771089553833 0.24792133271694183 0.48704075813293457
0.43890306353569031 0.18342117965221405 0.45899206399917603
0.55712258815765381 0.27922844886779785 0.53155064582824707
0.01195342093706131 0.34171897172927856 0.40931797027587891
3.0278224585345015e-05 0.374155193567276 0.44652774930000305
0.067430637776851654 0.42810457944869995 0.51154184341430664
0.33714818954467773 0.47520935535430908 0.56113982200622559
0.45551067590713501 0.40333282947540283 0.57843375205993652
0.54626071453094482 0.37186282873153687 0.57070517539978027
0.64633405208587646 0.42686384916305542 0.61557227373123169
0.018380288034677505 0.43998163938522339 0.49983727931976318
0.058980319648981094 0.47160223126411438 0.53126448392868042
0.22790461778640747 0.51871627569198608 0.58908379077911377
0.40232348442077637 0.56373339891433716 0.62940245866775513
0.50494259595870972 0.54795283079147339 0.63042944669723511
0.62193530797958374 0.52272826433181763 0.6538202166557312
0.73071920871734619 0.55219870805740356 0.68529641628265381
0.082605905830860138 0.51481872797012329 0.53894579410552979
0.11616462469100952 0.53991806507110596 0.56236368417739868
0.3041461706161499 0.58368432521820068 0.61536383628845215
0.46256077289581299 0.63224583864212036 0.66317212581634521
0.56800717115402222 0.653076171875 0.68744182586669922
0.68100100755691528 0.63652592897415161 0.71933752298355103
0.83788901567459106 0.67017781734466553 0.76214969158172607
0.18568539619445801 0.57593780755996704 0.56808030605316162
0.20313249528408051 0.60386669635772705 0.59798139333724976
0.313203364610672 0.63801664113998413 0.63516438007354736
0.49539092183113098 0.68988233804702759 0.6895517110824585
0.60423845052719116 0.72384744882583618 0.72654426097869873
0.73538422584533691 0.75307387113571167 0.76869034767150879
0.91763848066329956 0.81112533807754517 0.81590443849563599
0.28948760032653809 0.65937501192092896 0.62385445833206177
0.33329817652702332 0.69697922468185425 0.65890383720397949
0.42873653769493103 0.73514252901077271 0.69056278467178345
0.52548301219940186 0.76971668004989624 0.72123926877975464
0.60780066251754761 0.80404043197631836 0.74673843383789062
0.77184176445007324 0.85185831785202026 0.7827032208442688
0.90372699499130249 0.89673584699630737 0.87080317735671997
0.013506017625331879 0.23316815495491028 0.30726352334022522
0.0080981682986021042 0.31860378384590149 0.40565556287765503
0.042745567858219147 0.37405961751937866 0.4747832715511322
0.21659603714942932 0.38005790114402771 0.50475585460662842
0.37730994820594788 0.29536983370780945 0.53272092342376709
0.45227342844009399 0.2738177478313446 0.5239066481590271
0.49510732293128967 0.26010313630104065 0.52150171995162964
0.01313496008515358 0.31119954586029053 0.39347118139266968
0.016112847253680229 0.35264101624488831 0.44679957628250122
0.025835208594799042 0.40095922350883484 0.50618582963943481
0.28006941080093384 0.44927534461021423 0.55131441354751587
0.39923766255378723 0.37370291352272034 0.5740472674369812
0.4928077757358551 0.32608801126480103 0.56543564796447754
0.54933232069015503 0.35085418820381165 0.57624292373657227
0.0039555416442453861 0.37804386019706726 0.45426627993583679
0.00010723039304139093 0.41465607285499573 0.50116366147994995
0.047355324029922485 0.4585699737071991 0.55745786428451538
0.32622981071472168 0.52250641584396362 0.61768275499343872
0.42871853709220886 0.4868825376033783 0.62486952543258667
0.54692822694778442 0.44348898530006409 0.63605344295501709
0.61569011211395264 0.46920549869537354 0.6476738452911377
0.039738748222589493 0.47067552804946899 0.5449790358543396
0.035460155457258224 0.50008237361907959 0.57958441972732544
0.12011337280273438 0.53433507680892944 0.62305521965026855
0.35650435090065002 0.58939290046691895 0.67830175161361694
0.47403669357299805 0.59888404607772827 0.68220371007919312
0.58655059337615967 0.55288881063461304 0.70489311218261719
0.68449991941452026 0.57203668355941772 0.71992981433868408
0.12417393177747726 0.55522310733795166 0.61388802528381348
0.13356231153011322 0.58160978555679321 0.63893693685531616
0.29351580142974854 0.6218143105506897 0.69037997722625732
0.42643386125564575 0.6592596173286438 0.73125916719436646
0.51834261417388916 0.68358415365219116 0.75630378723144531
0.62835830450057983 0.65943557024002075 0.7732502818107605
0.77424025535583496 0.66729903221130371 0.80888420343399048
0.17348049581050873 0.61509865522384644 0.6356012225151062
0.17420198023319244 0.64609187841415405 0.66891157627105713
0.2797204852104187 0.68538433313369751 0.71184325218200684
0.43424683809280396 0.72740530967712402 0.76573890447616577
0.54192656278610229 0.75650429725646973 0.80572682619094849
0.6730535626411438 0.76459544897079468 0.82464206218719482
0.83701354265213013 0.77618169784545898 0.8606988787651062
0.24611370265483856 0.6914324164390564 0.68429774045944214
0.25966939330101013 0.72650587558746338 0.71925050020217896
0.32631212472915649 0.7642744779586792 0.75366377830505371
0.41958007216453552 0.80199599266052246 0.79433280229568481
0.5112343430519104 0.83674758672714233 0.83100110292434692
0.70961493253707886 0.86289137601852417 0.86164981126785278
0.88197261095046997 0.89983552694320679 0.90349429845809937
