assets/lut/editingcorp stringa.cube
# Created by: G'MIC (https://gmic.eu)
TITLE "stringa"
# LUT size
LUT_3D_SIZE 5
# Data domain
DOMAIN_MIN 0.0 0.0 0.0
DOMAIN_MAX 1.0 1.0 1.0
# LUT data points
0.04126962274312973 0.027871090918779373 0.028102336451411247
0.24917064607143402 0.039995711296796799 0.021107647567987442
0.46425604820251465 0.044267438352108002 0.019497277215123177
0.70537745952606201 0.040271129459142685 0.020429978147149086
0.96961688995361328 0.037954606115818024 0.020906830206513405
0.087024182081222534 0.21652916073799133 0.078023575246334076
0.31249859929084778 0.2131836861371994 0.026164514943957329
0.49862197041511536 0.26208579540252686 0.025626687332987785
0.73414880037307739 0.26642155647277832 0.024229161441326141
0.9864201545715332 0.26763859391212463 0.020996034145355225
0.14606307446956635 0.42184340953826904 0.10778822004795074
0.33106905221939087 0.4132312536239624 0.047455403953790665
0.51117932796478271 0.44818446040153503 0.01103394478559494
0.73665082454681396 0.49761486053466797 0.034152626991271973
0.99390923976898193 0.49919226765632629 0.029084928333759308
0.19610989093780518 0.64631021022796631 0.16262753307819366
0.36343342065811157 0.64303606748580933 0.12824946641921997
0.52835869789123535 0.62236684560775757 0.057474788278341293
0.72070413827896118 0.68196529150009155 0.020927188917994499
0.99129194021224976 0.74085122346878052 0.025918504223227501
0.23653306066989899 0.83932292461395264 0.19904701411724091
0.39004558324813843 0.83490544557571411 0.19161173701286316
0.55107617378234863 0.84117752313613892 0.15470995008945465
0.71795010566711426 0.84580492973327637 0.068871758878231049
0.96674495935440063 0.93547195196151733 0.023487105965614319
0.038069181144237518 0.074266217648983002 0.13075026869773865
0.23814132809638977 0.066097408533096313 0.1611926406621933
0.43760311603546143 0.053347073495388031 0.17871876060962677
0.67638611793518066 0.042542744427919388 0.22170010209083557
0.95411080121994019 0.030331660062074661 0.24676336348056793
0.022604983299970627 0.25376430153846741 0.25432562828063965
0.25146776437759399 0.25311172008514404 0.24736323952674866
0.47783297300338745 0.26059672236442566 0.24366806447505951
0.71464747190475464 0.26576006412506104 0.25250166654586792
0.97877669334411621 0.26734882593154907 0.25415170192718506
0.064937680959701538 0.44045951962471008 0.30320745706558228
0.26780349016189575 0.43670445680618286 0.2748870849609375
0.49145621061325073 0.45104494690895081 0.23299254477024078
0.73736864328384399 0.49603527784347534 0.26314732432365417
0.99423855543136597 0.49982216954231262 0.26548311114311218
0.13737012445926666 0.64612090587615967 0.32917463779449463
0.31932574510574341 0.64973610639572144 0.31162366271018982
0.50354313850402832 0.6321103572845459 0.25572666525840759
0.70271009206771851 0.68189781904220581 0.23343399167060852
0.99491035938262939 0.7462308406829834 0.2641749382019043
0.20346003770828247 0.83184564113616943 0.35270965099334717
0.35919943451881409 0.83469694852828979 0.34913486242294312
0.5293688178062439 0.84454470872879028 0.32452124357223511
0.69153064489364624 0.84323585033416748 0.27423429489135742
0.95559322834014893 0.9443202018737793 0.24345165491104126
0.078512705862522125 0.12428943067789078 0.22777006030082703
0.19112111628055573 0.12816858291625977 0.28681308031082153
0.41044476628303528 0.12866613268852234 0.25403758883476257
0.6289791464805603 0.079626820981502533 0.3311055600643158
0.89765256643295288 0.059544149786233902 0.4277462363243103
0.037090271711349487 0.28392943739891052 0.33799996972084045
0.17638519406318665 0.30089923739433289 0.3647322952747345
0.45135957002639771 0.27832517027854919 0.35925379395484924
0.66825222969055176 0.26202091574668884 0.40456381440162659
0.94087189435958862 0.2773088812828064 0.46734079718589783
0.073049284517765045 0.46114534139633179 0.46096500754356384
0.25455310940742493 0.47209340333938599 0.47740122675895691
0.46741196513175964 0.47499880194664001 0.47412711381912231
0.7042044997215271 0.48290899395942688 0.480948805809021
0.98176950216293335 0.49889931082725525 0.49395304918289185
0.1163620725274086 0.656333327293396 0.51380765438079834
0.2718428373336792 0.65709662437438965 0.51039677858352661
0.46828994154930115 0.65171629190444946 0.48388287425041199
0.67334389686584473 0.66119647026062012 0.45765671133995056
0.98880636692047119 0.74364155530929565 0.4969734251499176
0.16053523123264313 0.82793384790420532 0.53511267900466919
0.31154808402061462 0.83085113763809204 0.5298725962638855
0.49931761622428894 0.84423482418060303 0.51548594236373901
0.66758459806442261 0.83556073904037476 0.47555002570152283
0.93263411521911621 0.93704390525817871 0.4730733335018158
0.12198564410209656 0.18452569842338562 0.31925222277641296
0.1900562196969986 0.19582189619541168 0.35719940066337585
0.38766813278198242 0.12503592669963837 0.49434071779251099
0.59625810384750366 0.18755127489566803 0.3862660825252533
0.79858380556106567 0.1435016393661499 0.50216597318649292
0.09389389306306839 0.31905332207679749 0.41356763243675232
0.17901776731014252 0.33447104692459106 0.43906763195991516
0.37796002626419067 0.33817905187606812 0.52321642637252808
0.63157016038894653 0.3181174099445343 0.47349256277084351
0.82852631807327271 0.30493074655532837 0.57459831237792969
0.09841398149728775 0.4904119074344635 0.57034826278686523
0.23520217835903168 0.5016445517539978 0.60140472650527954
0.41952976584434509 0.51778072118759155 0.61897021532058716
0.64355170726776123 0.49492922425270081 0.59442007541656494
0.87801820039749146 0.48970857262611389 0.66596728563308716
0.14628763496875763 0.66864407062530518 0.66701263189315796
0.28104028105735779 0.6692771315574646 0.67458254098892212
0.44899833202362061 0.67339074611663818 0.68925195932388306
0.64710402488708496 0.66408979892730713 0.67877310514450073
0.95162969827651978 0.72212237119674683 0.72320342063903809
0.15389278531074524 0.84249532222747803 0.70662540197372437
0.28903314471244812 0.83906763792037964 0.71085131168365479
0.45654386281967163 0.85130214691162109 0.72008532285690308
0.65318411588668823 0.85160762071609497 0.71433389186859131
0.92249542474746704 0.92495453357696533 0.720600426197052
0.14236018061637878 0.23443645238876343 0.41353407502174377
0.21430404484272003 0.25145053863525391 0.44485390186309814
0.31798389554023743 0.26181814074516296 0.51576048135757446
0.60457873344421387 0.19073496758937836 0.64832174777984619
0.75453799962997437 0.2516334056854248 0.5710378885269165
0.13829852640628815 0.36039045453071594 0.50642925500869751
0.22029072046279907 0.37439322471618652 0.52812427282333374
0.3299202024936676 0.39491176605224609 0.58180719614028931
0.61297529935836792 0.35481840372085571 0.71762937307357788
0.76165473461151123 0.38114044070243835 0.63569319248199463
0.11154790967702866 0.5270037055015564 0.65809351205825806
0.23063427209854126 0.53495705127716064 0.6780703067779541
0.39588630199432373 0.54562824964523315 0.70727646350860596
0.59800034761428833 0.54019451141357422 0.76892799139022827
0.78022843599319458 0.53403776884078979 0.70987099409103394
0.18298459053039551 0.69297075271606445 0.77640706300735474
0.30561375617980957 0.69233143329620361 0.7910158634185791
0.46237954497337341 0.69024592638015747 0.83111345767974854
0.6158679723739624 0.70695632696151733 0.80893623828887939
0.80700153112411499 0.69724583625793457 0.78907507658004761
0.20680421590805054 0.85855329036712646 0.87026399374008179
0.33068418502807617 0.8517879843711853 0.87429213523864746
0.49418827891349792 0.85849970579147339 0.89083999395370483
0.67843157052993774 0.87343102693557739 0.9147714376449585
0.84211665391921997 0.88004916906356812 0.92254972457885742
