assets/lut/editingcorp levex.cube
# Created by: G'MIC (https://gmic.eu)
TITLE "levex"
# LUT size
LUT_3D_SIZE 13
# Data domain
DOMAIN_MIN 0.0 0.0 0.0
DOMAIN_MAX 1.0 1.0 1.0
# LUT data points
0.034372426569461823 0.032416384667158127 0.029723508283495903
0.11750616878271103 0.039667736738920212 0.035824015736579895
0.21039992570877075 0.04856356605887413 0.03815167024731636
0.31238237023353577 0.046600565314292908 0.040430463850498199
0.42058375477790833 0.042616438120603561 0.036651041358709335
0.50554174184799194 0.037678062915802002 0.022018013522028923
0.57248616218566895 0.031984783709049225 0.0044559403322637081
0.63226085901260376 0.021733960136771202 0.00028686522273346782
0.69254273176193237 0.0069843069650232792 0
0.7616390585899353 0.00015810798504389822 7.5845155151910149e-06
0.83877670764923096 0.00016744277672842145 0.0065354742109775543
0.91362565755844116 0.051565311849117279 0.071379266679286957
0.97276782989501953 0.2168489545583725 0.20958139002323151
0.041893064975738525 0.099008701741695404 0.041470471769571304
0.11156439781188965 0.10119029134511948 0.0470619797706604
0.19486883282661438 0.10757361352443695 0.048588622361421585
0.28881609439849854 0.11006985604763031 0.049159780144691467
0.39319488406181335 0.10759864002466202 0.044629655778408051
0.48531636595726013 0.10206225514411926 0.029461909085512161
0.55863332748413086 0.095659337937831879 0.010822206735610962
0.62056076526641846 0.081608712673187256 0.002027788432314992
0.6815636157989502 0.052923671901226044 7.880715565988794e-05
0.75008773803710938 0.016900096088647842 0
0.82631528377532959 0.0041488497518002987 0.0014657712308689952
0.90578806400299072 0.045372489839792252 0.05110473558306694
0.97091454267501831 0.19569191336631775 0.18284177780151367
0.056984409689903259 0.16189199686050415 0.054497122764587402
0.1175614595413208 0.16490583121776581 0.062205925583839417
0.19571699202060699 0.17545744776725769 0.062736541032791138
0.28779801726341248 0.18647991120815277 0.057470973581075668
0.3870387077331543 0.18861520290374756 0.047302801162004471
0.47730788588523865 0.18511500954627991 0.032295782119035721
0.55158185958862305 0.18043360114097595 0.015843290835618973
0.61468446254730225 0.16923584043979645 0.0051203412003815174
0.67599886655807495 0.14306662976741791 0.00094324746169149876
0.74525755643844604 0.1063624694943428 4.4878790504299104e-05
0.82315546274185181 0.088363051414489746 0.003177642822265625
0.90454721450805664 0.12875509262084961 0.053482234477996826
0.97173714637756348 0.24192635715007782 0.17618267238140106
0.065278403460979462 0.23457548022270203 0.061124630272388458
0.12363149970769882 0.23618145287036896 0.069836653769016266
0.19854432344436646 0.2491011917591095 0.072205789387226105
0.28861531615257263 0.26540425419807434 0.068091452121734619
0.38669165968894958 0.27297165989875793 0.055236414074897766
0.47584682703018188 0.27529925107955933 0.037378571927547455
0.5514758825302124 0.27550721168518066 0.020965306088328362
0.61599826812744141 0.27120062708854675 0.0095663629472255707
0.67742562294006348 0.25788813829421997 0.0049141827039420605
0.74717038869857788 0.23807103931903839 0.0031045502983033657
0.82965439558029175 0.2331610769033432 0.0090398900210857391
0.91331952810287476 0.26113280653953552 0.05980205163359642
0.97818362712860107 0.3356471061706543 0.18104995787143707
0.059278927743434906 0.32095080614089966 0.062478877604007721
0.11655571311712265 0.32159334421157837 0.07072322815656662
0.19035761058330536 0.3316364586353302 0.075618192553520203
0.27688568830490112 0.34904414415359497 0.07810637354850769
0.3747062087059021 0.36235865950584412 0.069367982447147369
0.47144424915313721 0.36862450838088989 0.049843568354845047
0.5547444224357605 0.37106871604919434 0.02941315621137619
0.62448853254318237 0.37028610706329346 0.014266578480601311
0.68736797571182251 0.36884221434593201 0.0096064098179340363
0.75764745473861694 0.36717337369918823 0.0090449312701821327
0.84371966123580933 0.37226453423500061 0.012471785768866539
0.92904329299926758 0.39283403754234314 0.062040738761425018
0.98740124702453613 0.43868863582611084 0.19232434034347534
0.04177480936050415 0.4099067747592926 0.063188262283802032
0.096873477101325989 0.41130968928337097 0.069205202162265778
0.17319872975349426 0.41740691661834717 0.074142321944236755
0.26501885056495667 0.43127313256263733 0.080318853259086609
0.36675569415092468 0.44791468977928162 0.079602770507335663
0.46861943602561951 0.4583953320980072 0.066633023321628571
0.55985236167907715 0.46269136667251587 0.042894460260868073
0.63649511337280273 0.46508890390396118 0.016595175489783287
0.70349699258804321 0.4696953296661377 0.0054328767582774162
0.77683520317077637 0.47511082887649536 0.0039313221350312233
0.86370480060577393 0.48349189758300781 0.0067223343066871166
0.9445500373840332 0.49916794896125793 0.063104905188083649
0.99327224493026733 0.52826452255249023 0.21677950024604797
0.020639561116695404 0.49109843373298645 0.058494042605161667
0.073097854852676392 0.49497783184051514 0.064947031438350677
0.15548177063465118 0.49809679388999939 0.069995597004890442
0.25817283987998962 0.50808209180831909 0.077026411890983582
0.36785173416137695 0.5235288143157959 0.081904441118240356
0.47348314523696899 0.53644073009490967 0.078540459275245667
0.56578332185745239 0.54496920108795166 0.061875961720943451
0.64427274465560913 0.55208724737167358 0.02920195646584034
0.71700763702392578 0.5590057373046875 0.0044531282037496567
0.79558169841766357 0.56485235691070557 0.00028821159503422678
0.88186502456665039 0.57144039869308472 0.0021024069283157587
0.95746362209320068 0.58189922571182251 0.062939584255218506
0.99612408876419067 0.60088527202606201 0.2539820671081543
0.0090780220925807953 0.56108558177947998 0.049282491207122803
0.059668894857168198 0.56889969110488892 0.057391222566366196
0.14877407252788544 0.57165336608886719 0.063349612057209015
0.26173198223114014 0.57742685079574585 0.07046450674533844
0.37875628471374512 0.58888870477676392 0.077387310564517975
0.48718065023422241 0.60160273313522339 0.081039100885391235
0.57590967416763306 0.61415302753448486 0.078712210059165955
0.64903867244720459 0.62583637237548828 0.059885840862989426
0.72346991300582886 0.63392126560211182 0.032676007598638535
0.80638456344604492 0.63847792148590088 0.013964035548269749
0.89243561029434204 0.64251869916915894 0.010314731858670712
0.96432292461395264 0.64766496419906616 0.079817645251750946
0.99630844593048096 0.65951740741729736 0.30282241106033325
0.012987383641302586 0.62055301666259766 0.044440101832151413
0.068555019795894623 0.62997263669967651 0.053005848079919815
0.16084140539169312 0.63459020853042603 0.058273524045944214
0.27701997756958008 0.63922280073165894 0.066274605691432953
0.39692431688308716 0.64773541688919067 0.075608059763908386
0.50493264198303223 0.6598471999168396 0.083393782377243042
0.58928126096725464 0.67459321022033691 0.09299895167350769
0.65681695938110352 0.68878889083862305 0.098843671381473541
0.72892481088638306 0.69733798503875732 0.091646067798137665
0.81295806169509888 0.70183336734771729 0.068346641957759857
0.90071547031402588 0.70488756895065308 0.04549885168671608
0.97052812576293945 0.70648497343063354 0.10450060665607452
0.99668353796005249 0.71485698223114014 0.34938782453536987
0.02664794959127903 0.67842209339141846 0.049626756459474564
0.086751170456409454 0.68822407722473145 0.056319516152143478
0.18126919865608215 0.69395017623901367 0.060617901384830475
0.29658102989196777 0.69915688037872314 0.071989826858043671
0.41427668929100037 0.70717024803161621 0.086850032210350037
0.51911288499832153 0.71934700012207031 0.09928460419178009
0.60015630722045898 0.73621058464050293 0.11360780149698257
0.66541832685470581 0.75240713357925415 0.1328989714384079
0.73440086841583252 0.76162976026535034 0.15107446908950806
0.81684637069702148 0.76632595062255859 0.14759857952594757
0.90549516677856445 0.77221775054931641 0.12261255085468292
0.97366321086883545 0.77579009532928467 0.17243893444538116
0.99787384271621704 0.78282439708709717 0.39240619540214539
0.039488967508077621 0.74652767181396484 0.068255916237831116
0.09870687872171402 0.75466310977935791 0.076099053025245667
0.19381886720657349 0.75922262668609619 0.081704176962375641
0.30984923243522644 0.7638707160949707 0.096230797469615936
0.42728611826896667 0.77217942476272583 0.11515884101390839
0.52992838621139526 0.78577888011932373 0.12852562963962555
0.60758763551712036 0.80497348308563232 0.1392381340265274
0.67102253437042236 0.82383507490158081 0.15877410769462585
0.73886549472808838 0.83569836616516113 0.18989910185337067
0.81908828020095825 0.84343737363815308 0.21734127402305603
0.90522336959838867 0.85340398550033569 0.23355056345462799
0.97054636478424072 0.8607177734375 0.30640676617622375
0.99738746881484985 0.86707383394241333 0.45685383677482605
0.051118094474077225 0.82429319620132446 0.1036822721362114
0.10313660651445389 0.83006513118743896 0.11683020740747452
0.19462759792804718 0.83219325542449951 0.12742394208908081
0.31583496928215027 0.83472335338592529 0.14268398284912109
0.43856894969940186 0.84292817115783691 0.1621326208114624
0.54017752408981323 0.85731387138366699 0.17763634026050568
0.61335963010787964 0.87616217136383057 0.18969899415969849
0.67455393075942993 0.89330649375915527 0.21195428073406219
0.74350035190582275 0.90687620639801025 0.24281051754951477
0.82345956563949585 0.92076414823532104 0.27813097834587097
0.90869927406311035 0.93080341815948486 0.34622371196746826
0.97383534908294678 0.93921440839767456 0.44600686430931091
0.99916183948516846 0.94324994087219238 0.54520297050476074
0.073462933301925659 0.90121620893478394 0.15272708237171173
0.11745163798332214 0.90569263696670532 0.17144614458084106
0.20409327745437622 0.90541946887969971 0.18680870532989502
0.3273780345916748 0.90542000532150269 0.20441415905952454
0.45226418972015381 0.91184425354003906 0.22865299880504608
0.55310702323913574 0.92283344268798828 0.25593438744544983
0.62268620729446411 0.93469220399856567 0.28915688395500183
0.68223834037780762 0.94336670637130737 0.33694475889205933
0.7497183084487915 0.9518662691116333 0.38888287544250488
0.83036893606185913 0.96610987186431885 0.42463874816894531
0.91510677337646484 0.97765934467315674 0.48667615652084351
0.97814136743545532 0.9869038462638855 0.56533282995223999
0.99997198581695557 0.99209469556808472 0.62675535678863525
0.01159820519387722 0.041494734585285187 0.087662473320960999
0.087547019124031067 0.033737272024154663 0.090661033987998962
0.21160867810249329 0.035763386636972427 0.076175868511199951
0.33101159334182739 0.038036569952964783 0.072833254933357239
0.43757355213165283 0.036862406879663467 0.068072959780693054
0.52115017175674438 0.032392732799053192 0.051913782954216003
0.58763104677200317 0.024785583838820457 0.031465865671634674
0.64842021465301514 0.010872351005673409 0.018533280119299889
0.7127079963684082 0.00064439960988238454 0.0098286494612693787
0.78616619110107422 0 0.0030184576753526926
0.86622452735900879 0.00043994680163450539 0.01332747470587492
0.93561220169067383 0.078289330005645752 0.10224913060665131
0.98070138692855835 0.28418514132499695 0.27949091792106628
0.022679556161165237 0.10879130661487579 0.083598807454109192
0.085574790835380554 0.096189357340335846 0.089264556765556335
0.19083487987518311 0.094996087253093719 0.083204470574855804
0.30353453755378723 0.099821187555789948 0.080786429345607758
0.4089023768901825 0.098838672041893005 0.076249048113822937
0.50098055601119995 0.093030430376529694 0.060424085706472397
0.57400500774383545 0.084494106471538544 0.040096987038850784
0.63714170455932617 0.064850464463233948 0.024460960179567337
0.7015615701675415 0.030401701107621193 0.012075685895979404
0.77491158246994019 0.0053583630360662937 0.0037111917044967413
0.85618549585342407 0.0046226950362324715 0.01151752844452858
0.93104261159896851 0.074861325323581696 0.086953073740005493
0.97916901111602783 0.26285123825073242 0.2575647234916687
0.042187411338090897 0.17018537223339081 0.08539687842130661
0.095911033451557159 0.16101880371570587 0.097786232829093933
0.18470777571201324 0.16383714973926544 0.099203057587146759
0.2889498770236969 0.17511385679244995 0.095524653792381287
0.3957366943359375 0.17718906700611115 0.084465533494949341
0.4902242124080658 0.17420652508735657 0.067216061055660248
0.5655098557472229 0.16861040890216827 0.049102768301963806
0.6293138861656189 0.15340341627597809 0.034160420298576355
0.69279360771179199 0.12198840826749802 0.021999118849635124
0.76582401990890503 0.086925610899925232 0.013629060238599777
0.84827864170074463 0.086006313562393188 0.025911368429660797
0.92537784576416016 0.15617470443248749 0.10042543709278107
0.97731375694274902 0.30228373408317566 0.25703644752502441
0.055429946631193161 0.23938003182411194 0.085699982941150665
0.10887105762958527 0.22780434787273407 0.10203258693218231
0.18823438882827759 0.23377062380313873 0.109894759953022
0.28191182017326355 0.25141492486000061 0.11154249310493469
0.38850942254066467 0.25987046957015991 0.097687676548957825
0.48464861512184143 0.26466876268386841 0.076537191867828369
0.56221336126327515 0.2656211256980896 0.058690778911113739
0.62653207778930664 0.26029503345489502 0.045665200799703598
0.68877482414245605 0.24463723599910736 0.036476884037256241
0.7609437108039856 0.22562231123447418 0.03158009797334671
0.84696590900421143 0.22854623198509216 0.043016202747821808
0.92876940965652466 0.27480682730674744 0.10922960937023163
0.98306334018707275 0.3700718879699707 0.25150948762893677
0.05370311439037323 0.3246341347694397 0.080756917595863342
0.10696813464164734 0.31207716464996338 0.099656425416469574
0.18366633355617523 0.31236746907234192 0.11193177103996277
0.27165555953979492 0.33117756247520447 0.12120847404003143
0.37404969334602356 0.34900519251823425 0.11448834091424942
0.47659355401992798 0.35889473557472229 0.092978790402412415
0.56143617630004883 0.36401894688606262 0.073692187666893005
0.63040816783905029 0.36403137445449829 0.05728517472743988
0.6937749981880188 0.36291775107383728 0.046676680445671082
0.76588654518127441 0.36435216665267944 0.043707933276891708
0.85496139526367188 0.37046122550964355 0.05226835235953331
0.93921017646789551 0.39578771591186523 0.11313087493181229
0.99050772190093994 0.45317474007606506 0.25498315691947937
0.03831520676612854 0.41372698545455933 0.076551400125026703
0.089438483119010925 0.40263712406158447 0.097212426364421844
0.1671687513589859 0.39808601140975952 0.11132058501243591
0.26060593128204346 0.41237175464630127 0.123765729367733
0.36425513029098511 0.43481659889221191 0.12717202305793762
0.47007009387016296 0.45035704970359802 0.11682435870170593
0.56297796964645386 0.45874848961830139 0.095390662550926208
0.63917607069015503 0.46365723013877869 0.065272793173789978
0.70781236886978149 0.46972537040710449 0.04282480850815773
0.78379464149475098 0.47701147198677063 0.037119187414646149
0.87218326330184937 0.48469805717468262 0.048641189932823181
0.95098990201950073 0.50058048963546753 0.11967969685792923
0.99421924352645874 0.53443759679794312 0.27963036298751831
0.017782397568225861 0.49364736676216125 0.075116388499736786
0.066205181181430817 0.48726415634155273 0.097224578261375427
0.14849801361560822 0.48147043585777283 0.11181078106164932
0.25278958678245544 0.49062338471412659 0.12434583157300949
0.36444315314292908 0.51162087917327881 0.13525809347629547
0.4737088680267334 0.52972769737243652 0.13776041567325592
0.56840276718139648 0.54263174533843994 0.12426714599132538
0.6480596661567688 0.55340105295181274 0.082851052284240723
0.72269827127456665 0.56195497512817383 0.042455486953258514
0.80275571346282959 0.56775391101837158 0.033523425459861755
0.88941890001296997 0.57378160953521729 0.044940531253814697
0.96065157651901245 0.58415257930755615 0.12673389911651611
0.99490022659301758 0.60481166839599609 0.31930151581764221
0.0060314401052892208 0.56324523687362671 0.071094155311584473
0.051501389592885971 0.5635453462600708 0.096586816012859344
0.1400151401758194 0.5598176121711731 0.11170376092195511
0.25540348887443542 0.56406164169311523 0.12389414012432098
0.37541085481643677 0.57856780290603638 0.13740630447864532
0.48659494519233704 0.59515082836151123 0.14866167306900024
0.57825362682342529 0.61116534471511841 0.15131796896457672
0.65398114919662476 0.62539756298065186 0.12671461701393127
0.73005157709121704 0.63507527112960815 0.090729355812072754
0.81428772211074829 0.63982307910919189 0.06809728592634201
0.90146380662918091 0.6435508131980896 0.06392950564622879
0.969371497631073 0.64941138029098511 0.13696163892745972
0.99616551399230957 0.66204196214675903 0.3489173948764801
0.007831992581486702 0.62349927425384521 0.064803391695022583
0.056702617555856705 0.62755292654037476 0.092396676540374756
0.14869286119937897 0.62686252593994141 0.1098392978310585
0.26851919293403625 0.6286737322807312 0.12461850047111511
0.39249405264854431 0.63819068670272827 0.14054286479949951
0.50375109910964966 0.65240222215652466 0.15532030165195465
0.59049057960510254 0.66948568820953369 0.1702432781457901
0.65994125604629517 0.68533319234848022 0.17798912525177002
0.73352879285812378 0.69571423530578613 0.16778084635734558
0.81998604536056519 0.70131915807723999 0.13814684748649597
0.90886789560317993 0.70487803220748901 0.1168685182929039
0.97453248500823975 0.70735281705856323 0.1817411333322525
0.99772578477859497 0.7165074348449707 0.38630443811416626
0.021273624151945114 0.68207758665084839 0.063611246645450592
0.073853515088558197 0.68706518411636353 0.091326557099819183
0.16636386513710022 0.68839532136917114 0.11292914301156998
0.28512898087501526 0.68997704982757568 0.13371185958385468
0.40804630517959595 0.69728493690490723 0.1545766294002533
0.51624000072479248 0.71134471893310547 0.17148181796073914
0.59946542978286743 0.72989624738693237 0.19068589806556702
0.66615539789199829 0.74747854471206665 0.21366339921951294
0.73682570457458496 0.75927037000656128 0.22840100526809692
0.82240134477615356 0.7666051983833313 0.21786046028137207
0.91266345977783203 0.7723459005355835 0.19938729703426361
0.97994703054428101 0.77620440721511841 0.25068652629852295
0.99989515542984009 0.78515887260437012 0.42047017812728882
0.038136966526508331 0.7500603199005127 0.079202167689800262
0.089972339570522308 0.75362378358840942 0.10666791349649429
0.18094517290592194 0.75382363796234131 0.1303778737783432
0.29907238483428955 0.75473332405090332 0.15601825714111328
0.42072269320487976 0.76228982210159302 0.18106712400913239
0.5263635516166687 0.77755790948867798 0.19778150320053101
0.60649824142456055 0.79794889688491821 0.21349607408046722
0.67156392335891724 0.81839841604232788 0.23266434669494629
0.74088793992996216 0.83399075269699097 0.25570181012153625
0.82424360513687134 0.8440936803817749 0.28010967373847961
0.91307371854782104 0.85377275943756104 0.30076029896736145
0.97965461015701294 0.86199665069580078 0.36054638028144836
0.99998849630355835 0.86841475963592529 0.47989234328269958
0.058009397238492966 0.82763105630874634 0.11669442802667618
0.10625877976417542 0.82837897539138794 0.14231088757514954
0.19507156312465668 0.82448136806488037 0.164411261677742
0.31355723738670349 0.82424026727676392 0.18898120522499084
0.43506255745887756 0.83256691694259644 0.21511220932006836
0.53798568248748779 0.84864181280136108 0.23688125610351562
0.61366206407546997 0.86711353063583374 0.25839030742645264
0.67615419626235962 0.88658666610717773 0.27821147441864014
0.7458375096321106 0.905753493309021 0.29435154795646667
0.82800495624542236 0.91871660947799683 0.34076604247093201
0.91390198469161987 0.93078583478927612 0.4064461886882782
0.97838610410690308 0.94304537773132324 0.48367059230804443
0.99984008073806763 0.94449043273925781 0.553325355052948
0.089566908776760101 0.90426504611968994 0.16742612421512604
0.1344698965549469 0.90159767866134644 0.19076104462146759
0.22003255784511566 0.89473491907119751 0.21048761904239655
0.33542343974113464 0.89329546689987183 0.23469609022140503
0.45372116565704346 0.90149557590484619 0.26504224538803101
0.55296331644058228 0.91500949859619141 0.29935076832771301
0.62455803155899048 0.9270128607749939 0.34216266870498657
0.68419867753982544 0.93727189302444458 0.38629975914955139
0.75301826000213623 0.9523388147354126 0.41527178883552551
0.83301699161529541 0.96471905708312988 0.46280217170715332
0.91515427827835083 0.97845947742462158 0.52055996656417847
0.97437804937362671 0.98928630352020264 0.57388955354690552
0.99829643964767456 0.99051851034164429 0.60641944408416748
0.00017920101527124643 0.05541209876537323 0.14417876303195953
0.030782826244831085 0.039633344858884811 0.16885250806808472
0.16012130677700043 0.02837371826171875 0.15140226483345032
0.31520554423332214 0.024894161149859428 0.12784086167812347
0.43532028794288635 0.023017149418592453 0.11581284552812576
0.5215294361114502 0.022260209545493126 0.10074416548013687
0.59077811241149902 0.018694665282964706 0.081956528127193451
0.65571564435958862 0.0058387606404721737 0.064715981483459473
0.72456580400466919 2.154182038793806e-05 0.049777910113334656
0.80164128541946411 0 0.039487920701503754
0.88177007436752319 0.0051407008431851864 0.056331992149353027
0.94656825065612793 0.11882924288511276 0.14948701858520508
0.98422205448150635 0.32933089137077332 0.32454091310501099
0.003016109112650156 0.1243588775396347 0.13186965882778168
0.028279563412070274 0.10859910398721695 0.15651261806488037
0.14010199904441833 0.092068061232566833 0.15043219923973083
0.29078835248947144 0.086004026234149933 0.13181619346141815
0.41329151391983032 0.080072037875652313 0.1218293160200119
0.50765484571456909 0.076867498457431793 0.10694677382707596
0.58170914649963379 0.070203252136707306 0.087929606437683105
0.64793330430984497 0.047699138522148132 0.070786647498607635
0.71691030263900757 0.013382870703935623 0.055368728935718536
0.79450559616088867 0.00077399460133165121 0.044463153928518295
0.87710332870483398 0.010893055237829685 0.058845534920692444
0.94799000024795532 0.12308458983898163 0.14166915416717529
0.98595672845840454 0.32362589240074158 0.31647554039955139
0.019866285845637321 0.18720486760139465 0.12493019551038742
0.047920871526002884 0.17396825551986694 0.14986397325992584
0.14162054657936096 0.1600278913974762 0.1540142297744751
0.27559629082679749 0.1594480574131012 0.14313310384750366
0.40000656247138977 0.15935289859771729 0.12933942675590515
0.49757754802703857 0.15851236879825592 0.11408448964357376
0.57503706216812134 0.1517176628112793 0.097550638020038605
0.64215189218521118 0.12981550395488739 0.082478784024715424
0.70980691909790039 0.090802915394306183 0.069991618394851685
0.78744673728942871 0.062921829521656036 0.062239225953817368
0.87314540147781372 0.084642164409160614 0.076995372772216797
0.94773155450820923 0.18338494002819061 0.1554262787103653
0.98573869466781616 0.34923416376113892 0.32294660806655884
0.03428376093506813 0.25600787997245789 0.1201152577996254
0.066634193062782288 0.24347259104251862 0.14613188803195953
0.15435329079627991 0.22969838976860046 0.15543162822723389
0.26448225975036621 0.23517642915248871 0.15819884836673737
0.38256171345710754 0.2458767294883728 0.14818122982978821
0.48682281374931335 0.25227367877960205 0.12897302210330963
0.56926572322845459 0.25155651569366455 0.1119176521897316
0.63682264089584351 0.23934584856033325 0.098382063210010529
0.70295184850692749 0.21637825667858124 0.088427267968654633
0.78064876794815063 0.20232748985290527 0.08353036642074585
0.86987757682800293 0.21957704424858093 0.097273819148540497
0.94756472110748291 0.28391170501708984 0.16944342851638794
0.98769795894622803 0.39692652225494385 0.32320410013198853
0.036711450666189194 0.3377479612827301 0.10897596925497055
0.075465753674507141 0.32168781757354736 0.1376417875289917
0.15913642942905426 0.30525228381156921 0.15256412327289581
0.25839653611183167 0.31319653987884521 0.16544003784656525
