assets/lut/editingcorpw Frosted Silver.cube
LUT_3D_SIZE 16
DOMAIN_MIN 0.0 0.0 0.0
DOMAIN_MAX 1.0 1.0 1.0
0.164187 0.128634 0.166262
0.164187 0.128634 0.166262
0.182046 0.128603 0.168338
0.223569 0.129561 0.174325
0.266813 0.129739 0.176755
0.314000 0.130343 0.178134
0.363244 0.132973 0.182529
0.416791 0.138894 0.191049
0.473103 0.146749 0.200790
0.531133 0.155905 0.211027
0.591882 0.165621 0.221988
0.659431 0.175180 0.233066
0.739156 0.184421 0.244798
0.823868 0.195608 0.257334
0.910094 0.210801 0.270793
1.000000 0.237003 0.289372
0.164163 0.128689 0.166256
0.164159 0.128761 0.166256
0.188292 0.128933 0.168260
0.231257 0.129104 0.170663
0.272221 0.130001 0.172890
0.317345 0.131069 0.174924
0.364848 0.135706 0.181406
0.417742 0.141742 0.190124
0.473119 0.149437 0.199899
0.530603 0.158402 0.210322
0.591693 0.168045 0.221176
0.659968 0.177742 0.232328
0.738989 0.186768 0.243921
0.822198 0.197684 0.256148
0.907333 0.212251 0.269329
1.000000 0.238334 0.288145
0.183499 0.157784 0.166299
0.192865 0.156556 0.167166
0.205037 0.157316 0.168052
0.247581 0.155386 0.162427
0.294733 0.146303 0.161929
0.337115 0.145082 0.168063
0.382023 0.149941 0.178362
0.432989 0.155632 0.188160
0.486070 0.162648 0.198100
0.541929 0.170895 0.208564
0.601623 0.179678 0.219162
0.668574 0.188533 0.230182
0.747191 0.197811 0.241661
0.830598 0.208886 0.254009
0.915484 0.223686 0.267342
1.000000 0.248387 0.285130
0.221335 0.187607 0.175643
0.226818 0.187416 0.176522
0.236759 0.187033 0.178138
0.248752 0.189988 0.180491
0.287956 0.195616 0.177363
0.348376 0.189035 0.172372
0.401559 0.184352 0.176003
0.453839 0.184887 0.182401
0.503630 0.188837 0.192647
0.557409 0.194786 0.203307
0.616260 0.201993 0.214151
0.683567 0.210052 0.224950
0.760121 0.219084 0.236238
0.840354 0.229667 0.248095
0.922563 0.243417 0.260935
1.000000 0.267522 0.278794
0.261295 0.226664 0.190250
0.267021 0.227898 0.191179
0.278098 0.225085 0.192631
0.288122 0.228003 0.194549
0.303136 0.232985 0.197475
0.338402 0.243034 0.197397
0.407119 0.243666 0.185760
0.467381 0.234269 0.184452
0.524776 0.232832 0.188234
0.584508 0.233817 0.193273
0.641590 0.238029 0.204367
0.707361 0.244027 0.215174
0.781882 0.252248 0.226603
0.860831 0.262667 0.238477
0.941189 0.275723 0.251386
1.000000 0.296330 0.268065
0.296483 0.262394 0.202213
0.303350 0.266215 0.203732
0.312163 0.262986 0.204843
0.322795 0.262437 0.206631
0.335100 0.267052 0.209122
0.352392 0.274052 0.212894
0.383319 0.287553 0.216800
0.455354 0.296288 0.201871
0.526885 0.293425 0.192581
0.594256 0.285783 0.192068
0.660853 0.287999 0.196078
0.736147 0.291075 0.198886
0.808628 0.297044 0.209512
0.883073 0.305559 0.221756
0.959039 0.316375 0.234366
1.000000 0.334905 0.251255
0.332616 0.300560 0.213504
0.340287 0.306437 0.215645
0.346772 0.303140 0.216356
0.357891 0.298177 0.217804
0.368037 0.301969 0.219969
0.382690 0.308580 0.223240
0.402270 0.317767 0.227575
0.431965 0.333036 0.233205
0.504875 0.349972 0.218974
0.589615 0.356420 0.200859
0.667525 0.351995 0.195529
0.748181 0.349353 0.194370
0.828075 0.355044 0.196967
0.910793 0.361264 0.198330
0.986279 0.369042 0.207713
1.000000 0.382568 0.225376
0.364477 0.336058 0.222879
0.371797 0.342106 0.224910
0.376876 0.339256 0.225500
0.386806 0.334220 0.226815
0.398260 0.334628 0.228871
0.411853 0.341802 0.231974
0.430010 0.351509 0.236207
0.452526 0.363553 0.241374
0.482451 0.380370 0.248298
0.555920 0.404204 0.236057
0.649787 0.418689 0.214164
0.746590 0.424196 0.196518
0.836315 0.421667 0.190241
0.920421 0.423620 0.188925
0.990793 0.426338 0.189357
1.000000 0.433185 0.191483
0.395129 0.371319 0.231131
0.400817 0.376109 0.232549
0.405148 0.373723 0.233058
0.413776 0.369615 0.234309
0.425850 0.365246 0.236210
0.438782 0.372515 0.239206
0.456058 0.382853 0.243080
0.478038 0.395850 0.248088
0.505114 0.411624 0.254121
0.537913 0.430464 0.261831
0.616773 0.464155 0.253129
0.721035 0.486572 0.227181
0.828706 0.500407 0.197930
0.923076 0.503237 0.184799
0.998269 0.497079 0.176874
1.000000 0.499535 0.180007
0.427704 0.409565 0.238602
0.432843 0.414063 0.239804
0.436247 0.411605 0.240228
0.443860 0.407964 0.241258
0.455407 0.403178 0.243139
0.468922 0.406012 0.245768
0.485567 0.416620 0.249396
0.506380 0.429601 0.253845
0.532094 0.445118 0.259152
0.563928 0.464059 0.265690
0.602393 0.486311 0.274107
0.687349 0.529670 0.270953
0.796051 0.558229 0.242460
0.900017 0.574031 0.207083
0.980609 0.570209 0.171992
1.000000 0.565374 0.163009
0.463539 0.451972 0.244114
0.466828 0.454377 0.244755
0.469898 0.452266 0.245212
0.477010 0.449335 0.246281
0.487990 0.445185 0.248038
0.501946 0.441993 0.250401
0.519500 0.453968 0.253971
0.541942 0.468855 0.258292
0.569738 0.486671 0.263578
0.602911 0.507183 0.269798
0.641505 0.530144 0.277470
0.684853 0.555230 0.287737
0.767141 0.604340 0.293413
0.876274 0.637855 0.263114
0.966833 0.649592 0.222873
1.000000 0.655818 0.177554
0.497966 0.492296 0.245664
0.504463 0.498492 0.246723
0.504585 0.493464 0.246588
0.511255 0.490900 0.247675
0.524038 0.489849 0.249791
0.539703 0.486946 0.252580
0.558258 0.494780 0.255715
0.580148 0.509167 0.259470
0.605301 0.524947 0.264042
0.636118 0.543899 0.269864
0.674159 0.567425 0.277672
0.718023 0.594815 0.287810
0.762887 0.622187 0.300459
0.832710 0.667638 0.311609
0.922762 0.693481 0.278583
1.000000 0.713624 0.242344
0.557501 0.558935 0.246512
0.563601 0.564316 0.247421
0.561747 0.557594 0.247179
0.564765 0.551471 0.247698
0.573378 0.546514 0.249198
0.588226 0.543145 0.251646
0.609017 0.545408 0.255345
0.635734 0.564228 0.259998
0.664983 0.583963 0.265607
0.696719 0.604617 0.272361
0.732485 0.627704 0.280992
0.772937 0.654116 0.292029
0.817701 0.683689 0.306367
0.859391 0.710248 0.322712
0.914663 0.750844 0.343312
0.997656 0.787747 0.332103
0.605664 0.611396 0.240385
0.608951 0.613683 0.240839
0.606237 0.606415 0.240622
0.610508 0.602240 0.241390
0.622069 0.600967 0.243284
0.638312 0.599701 0.246061
0.657149 0.596712 0.249468
0.679543 0.608648 0.253477
0.705485 0.626348 0.258605
0.736430 0.647655 0.265487
0.773629 0.673738 0.275072
0.814885 0.702820 0.287788
0.856156 0.731716 0.303551
0.892708 0.756151 0.320885
0.923743 0.775548 0.338806
0.975555 0.820322 0.378979
0.711617 0.727285 0.235172
0.723292 0.739137 0.237846
0.722083 0.733058 0.237274
0.724639 0.726639 0.237588
0.733000 0.721629 0.239198
0.747024 0.717544 0.241965
0.765762 0.713775 0.245929
0.786879 0.716669 0.251094
0.810413 0.733444 0.259017
0.836293 0.751776 0.269233
0.865232 0.772518 0.283000
0.897321 0.796588 0.302336
0.929538 0.821300 0.327862
0.957671 0.842120 0.355971
0.980548 0.857306 0.381945
1.000000 0.879704 0.424024
0.801938 0.832120 0.234440
0.809531 0.839908 0.240269
0.809506 0.835306 0.238151
0.814975 0.832486 0.238621
0.826761 0.831980 0.241898
0.842741 0.831144 0.246616
0.862174 0.829124 0.251982
0.884129 0.826712 0.258536
0.902098 0.838791 0.273174
0.922326 0.854392 0.293938
0.944152 0.871916 0.321599
0.964562 0.887333 0.352184
0.983929 0.901756 0.385547
0.999732 0.914659 0.420093
1.000000 0.926336 0.455470
1.000000 0.938476 0.495644
0.164041 0.128744 0.166616
0.164041 0.128744 0.166616
0.185087 0.128239 0.168920
0.226065 0.129648 0.174481
0.267910 0.133340 0.179063
0.312072 0.137661 0.185074
0.360238 0.142017 0.191610
0.414224 0.148026 0.199843
0.468863 0.155313 0.208656
0.524773 0.163417 0.218128
0.583966 0.172128 0.227866
0.650581 0.180892 0.238151
0.730208 0.189401 0.249281
0.815424 0.199269 0.261213
0.902189 0.213317 0.274273
0.995807 0.236509 0.291112
0.163937 0.128873 0.166780
0.164066 0.129128 0.166901
0.191190 0.128922 0.168847
0.232322 0.130991 0.171858
0.271621 0.134740 0.177218
0.314470 0.139458 0.183694
0.361744 0.144340 0.190739
0.414617 0.150352 0.198977
0.469033 0.157470 0.207849
0.525187 0.165676 0.217351
0.584800 0.174302 0.227200
0.651820 0.183046 0.237509
0.730408 0.191369 0.248512
0.813181 0.201087 0.259925
0.894288 0.213350 0.271801
0.994337 0.237811 0.289828
0.182677 0.160394 0.171133
0.192852 0.159163 0.172350
0.207366 0.159448 0.174383
0.249538 0.156698 0.170841
0.293457 0.151070 0.172968
0.333840 0.152733 0.180432
0.380201 0.157227 0.188797
0.430676 0.162571 0.197248
0.482302 0.168963 0.206146
0.536626 0.176603 0.215607
0.595099 0.184578 0.225317
0.661466 0.192938 0.235500
0.740385 0.201781 0.246491
0.824157 0.212206 0.258366
0.909592 0.226144 0.271276
1.000000 0.249104 0.288043
0.220616 0.190874 0.182817
0.226423 0.190860 0.183706
0.239111 0.189276 0.185451
0.250988 0.192404 0.187704
0.290951 0.197766 0.184907
0.348863 0.190893 0.181456
0.400821 0.187475 0.184648
0.450768 0.188533 0.191340
0.499539 0.192458 0.200611
0.552121 0.198118 0.210227
0.610061 0.205053 0.220127
0.676740 0.212890 0.230397
0.753251 0.221370 0.241066
0.833075 0.231404 0.252321
0.911703 0.243442 0.263888
1.000000 0.267226 0.281623
0.262116 0.230321 0.195982
0.267577 0.231690 0.196884
0.279739 0.228365 0.198415
0.290396 0.230201 0.200289
0.304924 0.234823 0.203206
0.340317 0.244376 0.202652
0.407620 0.244202 0.191911
0.466184 0.234589 0.190822
0.522014 0.233652 0.194690
0.579553 0.234826 0.200325
0.635786 0.238998 0.210656
0.701604 0.245152 0.220994
0.776838 0.253444 0.231800
0.856169 0.263854 0.243343
0.937171 0.276773 0.255826
1.000000 0.297141 0.272041
0.297239 0.265501 0.206570
0.304016 0.269249 0.208231
0.312912 0.265971 0.209278
0.324542 0.264076 0.210931
0.336449 0.268500 0.213444
0.353246 0.275126 0.217106
0.383900 0.288036 0.220434
0.454697 0.295775 0.206160
0.524354 0.291968 0.197813
0.590241 0.284791 0.197355
0.656336 0.287132 0.201261
0.731394 0.290397 0.204455
0.803164 0.296776 0.215283
0.877429 0.305118 0.226785
0.947016 0.313054 0.237690
1.000000 0.334148 0.255070
0.332971 0.303127 0.217038
0.340384 0.308628 0.219052
0.347040 0.305317 0.219733
0.358752 0.299777 0.221122
0.369022 0.303051 0.223204
0.383475 0.309507 0.226386
0.402809 0.318597 0.230880
0.432434 0.333597 0.236372
0.504642 0.349665 0.222244
0.587892 0.355167 0.205326
0.664771 0.350391 0.200259
0.745188 0.348419 0.199469
0.825555 0.354502 0.202090
0.908499 0.360724 0.203570
0.983814 0.368858 0.213558
1.000000 0.382979 0.230735
0.364930 0.338331 0.225803
0.372221 0.344404 0.227850
0.377555 0.341573 0.228382
0.387560 0.336449 0.229535
0.399277 0.335774 0.231642
0.412528 0.342620 0.234625
0.430085 0.351749 0.238734
0.452084 0.363310 0.243810
0.481655 0.379832 0.250668
0.554817 0.403199 0.238449
0.648322 0.417462 0.217431
0.744381 0.422658 0.201023
0.833873 0.419923 0.194900
0.916821 0.422008 0.193878
0.982302 0.422139 0.193491
1.000000 0.431667 0.196129
0.395973 0.373725 0.233544
0.402105 0.379000 0.235209
0.406613 0.376775 0.235783
0.415280 0.372503 0.236878
0.427600 0.367303 0.238714
0.440474 0.374413 0.241650
0.457693 0.384510 0.245618
0.479271 0.397146 0.250555
0.505633 0.412245 0.256479
0.537872 0.430605 0.264081
0.616521 0.463744 0.255357
0.720662 0.486032 0.230044
0.828279 0.499787 0.201994
0.922483 0.502449 0.189739
0.998042 0.496338 0.182184
1.000000 0.501652 0.186756
0.428417 0.411782 0.240727
0.434411 0.417274 0.242176
0.438194 0.415061 0.242625
0.445782 0.411220 0.243622
0.457128 0.406014 0.245345
0.470377 0.407622 0.247929
0.486505 0.417687 0.251427
0.506928 0.430148 0.255776
0.532257 0.445382 0.261147
0.563886 0.464141 0.267627
0.602261 0.486416 0.276151
0.687320 0.529516 0.272955
0.795428 0.557536 0.244953
0.895619 0.570475 0.209900
0.977730 0.567790 0.176557
1.000000 0.566379 0.169584
0.465278 0.455201 0.246207
0.469145 0.458295 0.247014
0.472560 0.456507 0.247473
0.479770 0.453356 0.248452
0.490606 0.449012 0.250190
0.504534 0.444721 0.252549
0.522067 0.456499 0.255987
0.544003 0.470875 0.260353
0.570985 0.487953 0.265540
0.603463 0.507749 0.271667
0.641615 0.530327 0.279399
0.684980 0.555450 0.289714
0.767632 0.604588 0.295409
0.876427 0.637751 0.265440
0.968525 0.650684 0.226494
1.000000 0.659395 0.185263
0.502440 0.498513 0.247802
0.512445 0.508516 0.249457
0.515109 0.506187 0.249813
0.521563 0.503120 0.250867
0.532263 0.499282 0.252587
0.545457 0.493467 0.254832
0.562164 0.498530 0.257803
0.583482 0.512373 0.261498
0.607964 0.527370 0.266007
0.638236 0.545806 0.271892
0.675866 0.569049 0.279788
0.718749 0.595559 0.289826
0.762025 0.621518 0.302002
0.831193 0.666242 0.312720
0.922810 0.693375 0.280548
1.000000 0.716365 0.247255
0.563528 0.566449 0.248844
0.569895 0.572069 0.249890
0.571297 0.568657 0.250069
0.575767 0.563834 0.250760
0.584351 0.558400 0.252171
0.599032 0.554321 0.254587
0.617335 0.553201 0.257833
0.640817 0.568982 0.262160
0.667601 0.586408 0.267527
0.698092 0.605950 0.274228
0.733199 0.628501 0.282675
0.773794 0.654978 0.293922
0.818446 0.684453 0.308366
0.860247 0.711181 0.325032
0.917193 0.753616 0.347103
0.999272 0.792625 0.339511
0.611824 0.618859 0.242510
0.619964 0.626349 0.243611
0.619439 0.621250 0.243658
0.623520 0.616640 0.244347
0.633370 0.613232 0.246054
0.647655 0.609561 0.248466
0.664327 0.604175 0.251565
0.684992 0.613833 0.255561
0.709843 0.630539 0.260670
0.740354 0.651399 0.267693
0.777114 0.677102 0.277367
0.817212 0.705119 0.290080
0.856914 0.732529 0.305488
0.892621 0.756170 0.322450
0.924217 0.776147 0.340838
0.976995 0.822277 0.382846
0.717459 0.734744 0.237888
0.726304 0.743543 0.240139
0.728327 0.741016 0.240365
0.733696 0.737509 0.241189
0.742929 0.733211 0.242889
0.756468 0.728435 0.245535
0.773797 0.722855 0.249009
0.792833 0.722782 0.253812
0.813784 0.736994 0.261294
0.837905 0.753502 0.271157
0.866074 0.773562 0.284843
0.897951 0.797372 0.304277
0.930003 0.821951 0.329889
0.958117 0.842754 0.358186
0.981647 0.858866 0.385523
1.000000 0.882284 0.429979
0.805643 0.837491 0.239395
0.815673 0.848118 0.247848
0.817197 0.845213 0.246709
0.822500 0.842231 0.246823
0.832949 0.840121 0.249022
0.847422 0.837479 0.252293
0.865475 0.833836 0.256528
0.886642 0.830150 0.262131
0.904038 0.841222 0.276485
0.923796 0.856345 0.297143
0.945226 0.873362 0.324785
0.965185 0.888268 0.354871
0.984155 0.902171 0.387365
0.999719 0.914711 0.421276
1.000000 0.926361 0.456566
1.000000 0.938610 0.497004
0.150283 0.134316 0.200046
0.156643 0.128354 0.200429
0.202383 0.122457 0.200999
0.245412 0.121824 0.198305
0.275911 0.140872 0.200873
0.309685 0.161172 0.211588
0.353754 0.175124 0.222484
0.407114 0.180166 0.229704
0.461266 0.184789 0.236424
0.517484 0.190562 0.243619
0.577380 0.196903 0.251585
0.644911 0.203508 0.260218
0.725347 0.210014 0.270027
0.811077 0.218474 0.280897
0.898382 0.230847 0.293023
0.992865 0.252750 0.309502
0.157021 0.140593 0.199004
0.162786 0.136489 0.200184
0.203500 0.132535 0.200492
0.243581 0.134977 0.198642
0.273602 0.150975 0.203106
0.307826 0.167809 0.213420
0.354723 0.176310 0.221912
0.407643 0.180496 0.228406
0.461975 0.185585 0.235349
0.518024 0.191471 0.242724
0.578194 0.198112 0.250735
0.645965 0.204915 0.259508
0.725198 0.211387 0.269056
0.808660 0.219374 0.279438
0.889554 0.229771 0.289931
0.991136 0.253412 0.307951
0.177473 0.171543 0.203261
0.186544 0.171534 0.203603
0.214515 0.169170 0.203231
0.246893 0.170600 0.205220
0.281936 0.174578 0.209538
0.324587 0.178282 0.214605
0.372793 0.182564 0.220587
0.422765 0.187239 0.226877
0.474576 0.192530 0.233603
0.529308 0.198648 0.241002
0.588457 0.205269 0.248834
0.655777 0.212289 0.257531
0.735471 0.219540 0.267322
0.819866 0.228723 0.278025
0.905842 0.241425 0.290066
0.999292 0.263499 0.306557
0.206826 0.203789 0.203081
0.215318 0.204089 0.204823
0.240645 0.200165 0.207670
0.259170 0.200704 0.210368
0.300896 0.203358 0.208300
0.350131 0.198835 0.209067
0.396643 0.200061 0.214020
0.443049 0.203411 0.220720
0.492018 0.207859 0.227727
0.545035 0.213545 0.235329
0.603629 0.220234 0.243558
0.671025 0.227503 0.252379
0.748191 0.235188 0.261807
0.828699 0.244447 0.272023
0.907460 0.255379 0.282406
1.000000 0.279081 0.300124
0.257942 0.241681 0.215316
0.264273 0.243372 0.216725
0.278958 0.239506 0.217601
0.296457 0.236446 0.219408
0.310284 0.240750 0.222143
0.347780 0.249213 0.220858
0.410110 0.245723 0.213813
0.464971 0.239218 0.214242
0.519301 0.240202 0.218670
0.572495 0.243111 0.225931
0.629356 0.247939 0.234553
0.696151 0.254556 0.243537
0.772225 0.262845 0.253180
0.852177 0.273023 0.263716
0.933712 0.285676 0.275340
1.000000 0.306127 0.291062
0.294719 0.273912 0.221872
0.301503 0.278034 0.224024
0.311686 0.274613 0.224613
0.328103 0.269125 0.226057
0.340431 0.272913 0.228497
0.356811 0.279411 0.232298
0.389388 0.292049 0.234568
0.459200 0.297800 0.222458
0.525140 0.291794 0.216916
0.588608 0.287918 0.218087
0.654933 0.290684 0.222080
0.726662 0.294987 0.227997
0.798648 0.301842 0.237857
0.873559 0.310403 0.248089
0.943524 0.318435 0.257713
1.000000 0.340648 0.275163
0.331077 0.310211 0.229587
0.338521 0.315641 0.231935
0.345770 0.312314 0.232349
0.358772 0.306351 0.233295
0.371718 0.306251 0.235360
0.386168 0.312750 0.238762
0.405382 0.321804 0.243392
0.435901 0.337185 0.248709
0.508531 0.351604 0.235345
0.589555 0.355206 0.222224
0.665802 0.349320 0.218035
0.744320 0.350132 0.219240
0.824909 0.356339 0.222299
0.906816 0.362890 0.225581
0.980924 0.371839 0.236626
1.000000 0.386395 0.252486
0.363713 0.344516 0.236195
0.370899 0.350591 0.238450
0.376723 0.347747 0.238896
0.387468 0.342630 0.239841
0.401354 0.338386 0.241662
0.414603 0.345197 0.244799
0.432108 0.354321 0.249015
0.454042 0.365878 0.254324
0.484101 0.382851 0.261352
0.558466 0.405192 0.249315
0.652033 0.418462 0.230778
0.745700 0.421924 0.218519
0.834879 0.418909 0.213406
0.916195 0.422697 0.214147
0.981934 0.422936 0.213708
1.000000 0.433340 0.217270
0.395322 0.379455 0.242518
0.401331 0.384748 0.244257
0.406149 0.382393 0.244737
0.415326 0.378087 0.245670
0.428578 0.372113 0.247289
0.442351 0.376650 0.250224
0.459527 0.386826 0.254355
0.481115 0.399418 0.259530
0.507379 0.414460 0.265692
0.540221 0.433269 0.273596
0.620103 0.465782 0.264873
0.724148 0.487180 0.242044
0.830775 0.499755 0.218254
0.923931 0.501547 0.209069
0.998195 0.495406 0.202617
1.000000 0.501754 0.208145
0.428116 0.417092 0.248554
0.434196 0.422633 0.250130
0.438133 0.420468 0.250527
0.446013 0.416547 0.251421
0.457896 0.411221 0.252929
0.471805 0.409459 0.255252
0.487891 0.419489 0.258960
0.508356 0.431982 0.263533
0.533781 0.447237 0.269136
0.565666 0.466169 0.276069
0.604465 0.488790 0.285010
0.690778 0.531524 0.281807
0.798443 0.558683 0.255802
0.897893 0.570558 0.223871
0.978955 0.567159 0.196598
1.000000 0.565571 0.190755
0.465132 0.460242 0.253147
0.469217 0.463500 0.254050
0.472688 0.461556 0.254435
0.480111 0.458420 0.255402
0.491522 0.454069 0.257029
0.505968 0.448109 0.259226
0.523486 0.458271 0.262803
0.545469 0.472605 0.267315
0.572386 0.489561 0.272669
0.604874 0.509381 0.279227
0.643220 0.532079 0.287340
0.686924 0.557448 0.298256
0.770610 0.606521 0.303803
0.879045 0.639058 0.275729
0.970419 0.650986 0.239364
1.000000 0.658631 0.202426
0.503124 0.503978 0.254142
0.512730 0.513567 0.255896
0.515700 0.511453 0.256286
0.522376 0.508247 0.257216
0.533136 0.504151 0.258749
0.546654 0.498086 0.260863
0.563042 0.499715 0.263714
0.584358 0.513498 0.267682
0.608740 0.528439 0.272409
0.639371 0.547122 0.278578
0.677499 0.570778 0.286988
0.720428 0.597388 0.297484
0.763444 0.623170 0.310061
0.833163 0.667954 0.320798
0.924984 0.694537 0.289440
1.000000 0.717048 0.258606
0.562091 0.569304 0.254640
0.568924 0.575446 0.255803
0.570087 0.571713 0.255895
0.574803 0.566874 0.256468
0.584715 0.562455 0.257941
0.600427 0.559117 0.260452
0.618637 0.555061 0.263498
0.641526 0.569984 0.267920
0.668242 0.587356 0.273511
0.698648 0.606773 0.280445
0.733994 0.629517 0.289341
0.774893 0.656279 0.301104
0.819635 0.685889 0.316041
0.861392 0.712637 0.333137
0.918446 0.755086 0.355253
0.999541 0.792868 0.347428
0.611350 0.622460 0.247886
0.619525 0.630090 0.249180
0.619238 0.625131 0.249113
0.623609 0.620571 0.249756
0.633740 0.617257 0.251378
0.648331 0.613626 0.253697
0.665290 0.607961 0.256680
0.685439 0.614652 0.260581
0.710393 0.631404 0.265954
0.741186 0.652517 0.273345
0.778285 0.678528 0.283472
0.818333 0.706543 0.296540
0.857750 0.733691 0.312330
0.893293 0.757211 0.329547
0.924959 0.777301 0.348361
0.977841 0.823869 0.391018
0.714798 0.736241 0.243531
0.724038 0.745411 0.245961
0.726178 0.742939 0.246173
0.731751 0.739505 0.246966
0.741415 0.735467 0.248549
0.755608 0.731144 0.251070
0.773202 0.725526 0.254421
0.792291 0.722699 0.258762
0.813151 0.736790 0.266360
0.837542 0.753508 0.276437
0.866346 0.774218 0.290618
0.898441 0.798258 0.310571
0.930470 0.822820 0.336505
0.958360 0.843455 0.364913
0.981709 0.859408 0.392058
1.000000 0.882506 0.435989
0.803561 0.839383 0.245493
0.813463 0.849866 0.253955
0.815108 0.847054 0.252901
0.820530 0.844078 0.252875
0.831008 0.841840 0.254862
0.845542 0.838975 0.257847
0.863719 0.835213 0.261723
0.885441 0.830936 0.266946
0.903621 0.841247 0.281008
0.923674 0.856632 0.302078
0.945232 0.873802 0.330108
0.965130 0.888635 0.360051
0.984076 0.902477 0.392413
0.999683 0.915006 0.426271
1.000000 0.926681 0.461595
1.000000 0.938982 0.502043
0.151175 0.141738 0.239036
0.156940 0.138602 0.239448
0.196932 0.137186 0.239835
0.251364 0.134898 0.239699
0.293153 0.137169 0.236158
0.332988 0.143368 0.235087
0.370444 0.166934 0.241607
0.410228 0.190754 0.253169
0.452047 0.214701 0.267383
0.502216 0.230034 0.279061
0.563806 0.233744 0.285795
0.633113 0.238200 0.293584
0.715044 0.243073 0.302764
0.802043 0.249903 0.312991
0.890362 0.260656 0.324677
0.986254 0.281590 0.341289
0.162454 0.152318 0.236088
0.166586 0.149546 0.238031
0.199041 0.145844 0.238595
0.251274 0.144250 0.238531
0.292140 0.145592 0.235694
0.331535 0.152139 0.235403
0.368298 0.173638 0.242220
0.408138 0.196087 0.254067
0.450803 0.218417 0.268127
0.503073 0.229946 0.278076
0.564968 0.234035 0.284970
0.634091 0.238803 0.292828
0.714649 0.243523 0.301592
0.799395 0.249912 0.311296
0.880628 0.258014 0.320672
0.984509 0.281455 0.339571
0.187378 0.187835 0.240476
0.195335 0.187133 0.240948
0.215428 0.179207 0.241160
0.257726 0.173978 0.240740
0.298156 0.173650 0.239372
0.334566 0.183211 0.241544
0.370867 0.200637 0.250189
0.410319 0.218278 0.261568
0.458072 0.229209 0.270750
0.514411 0.232963 0.276729
0.575050 0.237740 0.283405
0.644116 0.243138 0.291214
0.725316 0.248992 0.300228
0.810943 0.256917 0.310441
0.897951 0.268288 0.321919
0.992888 0.289831 0.338598
0.209506 0.215246 0.241366
0.215484 0.216523 0.242544
0.234917 0.215595 0.242413
0.266701 0.212714 0.242052
0.301404 0.213842 0.243677
0.336873 0.220616 0.249237
0.379319 0.226034 0.254996
0.426536 0.230133 0.260161
0.476661 0.234606 0.265577
0.531039 0.239900 0.271740
0.591024 0.246020 0.278743
0.659527 0.252532 0.286562
0.738047 0.259289 0.295138
0.819795 0.267613 0.304576
0.898938 0.277172 0.313946
0.999187 0.301584 0.332516
0.234851 0.258472 0.245448
0.241175 0.260866 0.246858
0.259036 0.257796 0.245107
0.294984 0.250711 0.247239
0.317551 0.249343 0.249682
0.359508 0.253823 0.247749
0.410704 0.248700 0.246808
0.458744 0.250803 0.251694
0.506698 0.254236 0.257504
0.558842 0.259009 0.263934
0.616789 0.264802 0.270946
0.685190 0.271867 0.278874
0.762797 0.280169 0.287781
0.843943 0.290281 0.297597
0.926508 0.302863 0.308595
1.000000 0.323761 0.324391
0.276957 0.289799 0.244419
0.285595 0.294186 0.247864
0.302330 0.290416 0.249834
0.325060 0.283848 0.250486
0.346406 0.279890 0.252367
0.362499 0.286345 0.256358
0.399308 0.297995 0.256795
0.465832 0.299137 0.249198
0.525989 0.291370 0.246948
0.585275 0.294296 0.251956
0.649067 0.298216 0.257499
0.716461 0.304372 0.265736
0.789678 0.312060 0.274371
0.865657 0.321194 0.283654
0.936256 0.329207 0.291878
1.000000 0.353521 0.310161
0.323360 0.323799 0.251366
0.330726 0.329395 0.254238
0.339791 0.325768 0.254242
0.355921 0.319545 0.254669
0.375726 0.312202 0.255834
0.390544 0.318287 0.259404
0.409731 0.327492 0.264437
0.442913 0.343295 0.269047
0.515968 0.354449 0.257765
0.591952 0.353944 0.250204
0.666479 0.348509 0.248094
0.742434 0.353708 0.252479
0.823305 0.360208 0.256407
0.900710 0.368351 0.264462
0.974927 0.378346 0.275168
1.000000 0.393798 0.289807
0.359112 0.356774 0.255151
0.366262 0.362985 0.257865
0.373092 0.360089 0.258063
0.385705 0.354769 0.258596
0.402822 0.347537 0.259732
0.418227 0.349798 0.262647
