assets/lut/editingcorp valize.cube
# Created by: G'MIC (https://gmic.eu)
TITLE "valize"
# LUT size
LUT_3D_SIZE 7
# Data domain
DOMAIN_MIN 0.0 0.0 0.0
DOMAIN_MAX 1.0 1.0 1.0
# LUT data points
0.044852729886770248 0.036653734743595123 0.040963489562273026
0.2299828976392746 0.05609424039721489 0.054397102445363998
0.43422803282737732 0.090788193047046661 0.072821840643882751
0.61255252361297607 0.14307853579521179 0.1095418706536293
0.81826072931289673 0.18736022710800171 0.1419999897480011
0.98666632175445557 0.24477848410606384 0.17933763563632965
1 0.31511345505714417 0.2293696403503418
0.11947403103113174 0.2153182327747345 0.073199346661567688
0.25313571095466614 0.2212107926607132 0.081863522529602051
0.43689760565757751 0.23121388256549835 0.092723429203033447
0.61742335557937622 0.26579439640045166 0.12407736480236053
0.80940628051757812 0.3048473596572876 0.14853975176811218
0.97691464424133301 0.35010692477226257 0.18691630661487579
0.99928182363510132 0.40375247597694397 0.2486589252948761
0.21186366677284241 0.41454875469207764 0.13175444304943085
0.30877840518951416 0.41275134682655334 0.13831745088100433
0.45662680268287659 0.4053587019443512 0.13944768905639648
0.61798882484436035 0.43132990598678589 0.14850461483001709
0.80249810218811035 0.47520905733108521 0.15927053987979889
0.98128330707550049 0.49919283390045166 0.1924624890089035
1 0.52577662467956543 0.25923675298690796
0.29540744423866272 0.58807909488677979 0.16009978950023651
0.37953150272369385 0.59031736850738525 0.1642274409532547
0.50000786781311035 0.58282530307769775 0.16040065884590149
0.63347655534744263 0.5857771635055542 0.16583855450153351
0.80273747444152832 0.6083979606628418 0.17321304976940155
0.97321325540542603 0.63173854351043701 0.20717249810695648
0.99926412105560303 0.65534889698028564 0.28782206773757935
0.37859803438186646 0.75390636920928955 0.1863703727722168
0.44927871227264404 0.75613683462142944 0.19600567221641541
0.54696297645568848 0.75639593601226807 0.18901516497135162
0.66069942712783813 0.75361067056655884 0.19400008022785187
0.82123303413391113 0.75696033239364624 0.20999327301979065
0.9755365252494812 0.76794195175170898 0.24896927177906036
1 0.79095578193664551 0.35319840908050537
0.50025838613510132 0.94082850217819214 0.32364583015441895
0.54490631818771362 0.93241280317306519 0.33452495932579041
0.60723364353179932 0.94155579805374146 0.33446702361106873
0.70280593633651733 0.93584150075912476 0.35352620482444763
0.83316534757614136 0.93821954727172852 0.3699394166469574
0.9705851674079895 0.93327206373214722 0.41804242134094238
1 0.93750131130218506 0.50701171159744263
0.65643256902694702 1 0.58532130718231201
0.67293632030487061 0.99994629621505737 0.57982814311981201
0.70668625831604004 0.99992996454238892 0.59136348962783813
0.77210932970046997 1 0.6114305853843689
0.86072045564651489 0.99985998868942261 0.60643893480300903
0.97380280494689941 1 0.63614016771316528
1 0.99948132038116455 0.63448071479797363
0.072285503149032593 0.05137321725487709 0.1862272322177887
0.2290022224187851 0.070212177932262421 0.19930918514728546
0.41897338628768921 0.11233165860176086 0.20847970247268677
0.5950998067855835 0.14680440723896027 0.22472506761550903
0.79686325788497925 0.1777942031621933 0.24378424882888794
0.97279238700866699 0.23906747996807098 0.26763209700584412
0.99967426061630249 0.32893550395965576 0.31396615505218506
0.15340064465999603 0.2089293897151947 0.19544847309589386
0.26085469126701355 0.21923309564590454 0.20645974576473236
0.41973540186882019 0.23437075316905975 0.21579530835151672
0.59228610992431641 0.26018059253692627 0.2284383624792099
0.78708833456039429 0.29140558838844299 0.24296392500400543
0.95902037620544434 0.3428378701210022 0.26954746246337891
0.99844503402709961 0.41393762826919556 0.32518994808197021
0.23532503843307495 0.39578324556350708 0.22846449911594391
0.32017892599105835 0.4030764102935791 0.23140636086463928
0.4524097740650177 0.39792418479919434 0.23207849264144897
0.6029474139213562 0.42505145072937012 0.23775206506252289
0.78960138559341431 0.46642389893531799 0.24512669444084167
0.96696251630783081 0.49629399180412292 0.26933088898658752
0.99901121854782104 0.53122401237487793 0.3323250412940979
0.29975557327270508 0.58456236124038696 0.24634131789207458
0.38032355904579163 0.58651113510131836 0.24630118906497955
0.50099664926528931 0.57658416032791138 0.24163641035556793
0.62941271066665649 0.57869476079940796 0.24164479970932007
0.79841458797454834 0.60648512840270996 0.24737377464771271
0.96733230352401733 0.63269281387329102 0.27898260951042175
0.99768298864364624 0.6585918664932251 0.36383187770843506
0.38042101263999939 0.75180238485336304 0.27111431956291199
0.45090332627296448 0.75504392385482788 0.27675670385360718
0.5531618595123291 0.7522614598274231 0.27283713221549988
0.66532313823699951 0.75202864408493042 0.27943187952041626
0.82061862945556641 0.75597429275512695 0.29141312837600708
0.97491329908370972 0.76596295833587646 0.33031466603279114
0.99897712469100952 0.79042166471481323 0.44064298272132874
0.50917643308639526 0.931427001953125 0.40222430229187012
0.54973012208938599 0.93597352504730225 0.40480241179466248
0.61563706398010254 0.93777716159820557 0.40883311629295349
0.7073712944984436 0.93720561265945435 0.42524829506874084
0.83879667520523071 0.93560802936553955 0.44610467553138733
0.97290754318237305 0.9287869930267334 0.47301420569419861
1 0.93177860975265503 0.55140942335128784
0.66382390260696411 1 0.61820894479751587
0.68102645874023438 1 0.6178784966468811
0.71383148431777954 1 0.62222647666931152
0.77548718452453613 1 0.62931257486343384
0.87075871229171753 1 0.64614486694335938
0.9743727445602417 0.99961727857589722 0.64979797601699829
1 0.99912649393081665 0.66526061296463013
0.10468781739473343 0.083192802965641022 0.35757178068161011
0.23861300945281982 0.10423600673675537 0.35969880223274231
0.41561287641525269 0.13200010359287262 0.34656274318695068
0.58575129508972168 0.14722214639186859 0.3567480742931366
0.7869524359703064 0.16255590319633484 0.38379773497581482
0.97322165966033936 0.2134694904088974 0.40885633230209351
1 0.3209158182144165 0.44576483964920044
0.18725486099720001 0.23010577261447906 0.34597253799438477
0.28351932764053345 0.23959052562713623 0.34884247183799744
0.42718020081520081 0.24398495256900787 0.34698444604873657
0.58498990535736084 0.2484772652387619 0.35705345869064331
0.77959954738616943 0.26708117127418518 0.37861353158950806
0.95719528198242188 0.32099044322967529 0.41000920534133911
0.99975669384002686 0.41748249530792236 0.4652656614780426
0.25252899527549744 0.3996938169002533 0.35929968953132629
0.32910728454589844 0.40423405170440674 0.35734060406684875
0.45827013254165649 0.40077808499336243 0.35604092478752136
0.60232192277908325 0.41545236110687256 0.36286157369613647
0.78324854373931885 0.44521448016166687 0.38080450892448425
0.9652717113494873 0.48542505502700806 0.41819548606872559
0.99928605556488037 0.54706108570098877 0.48600015044212341
0.30009898543357849 0.57633489370346069 0.37283626198768616
0.37439265847206116 0.57966715097427368 0.37481123208999634
0.50179129838943481 0.57136213779449463 0.37709501385688782
0.62838923931121826 0.57694011926651001 0.37230673432350159
0.78860247135162354 0.60265189409255981 0.38553640246391296
0.96557730436325073 0.63146591186523438 0.43361452221870422
0.99931639432907104 0.66238689422607422 0.51292210817337036
0.3918662965297699 0.74564206600189209 0.40745806694030762
0.45909714698791504 0.7503511905670166 0.41773149371147156
0.55651140213012695 0.74876731634140015 0.41984131932258606
0.66488850116729736 0.74450671672821045 0.41878309845924377
0.81310224533081055 0.7481265664100647 0.43200564384460449
0.97223711013793945 0.76803469657897949 0.47381895780563354
0.99999380111694336 0.79844862222671509 0.56249421834945679
0.53727257251739502 0.92955487966537476 0.52070772647857666
0.57291537523269653 0.93031531572341919 0.52281290292739868
0.62896376848220825 0.93058890104293823 0.52519720792770386
0.71427261829376221 0.9272497296333313 0.53305435180664062
0.84073293209075928 0.9303547739982605 0.55157184600830078
0.97363781929016113 0.92519605159759521 0.56956058740615845
0.99999690055847168 0.94196689128875732 0.63815993070602417
0.69028353691101074 1 0.68313813209533691
0.70780962705612183 1 0.68344151973724365
0.73506104946136475 1 0.68316912651062012
0.78964805603027344 0.99998170137405396 0.68163371086120605
0.87833726406097412 0.99999427795410156 0.69726425409317017
0.97054636478424072 0.99980956315994263 0.70275890827178955
1 1 0.72187107801437378
0.14665624499320984 0.13273698091506958 0.55656629800796509
0.27021634578704834 0.14342710375785828 0.55671703815460205
0.43699464201927185 0.15526163578033447 0.5335618257522583
0.58876699209213257 0.15655498206615448 0.53169924020767212
0.77652335166931152 0.15492303669452667 0.54821968078613281
0.97292357683181763 0.19053998589515686 0.57413399219512939
1 0.32536327838897705 0.593616783618927
0.20542179048061371 0.25794821977615356 0.54055726528167725
0.30755609273910522 0.2638649046421051 0.54173046350479126
0.45356196165084839 0.26115411520004272 0.53061318397521973
0.59452313184738159 0.25192001461982727 0.53172498941421509
0.77658671140670776 0.25379979610443115 0.54437911510467529
0.95857530832290649 0.29691869020462036 0.56721162796020508
1 0.40972229838371277 0.60715562105178833
0.26410964131355286 0.41603034734725952 0.53543150424957275
0.34568440914154053 0.41792184114456177 0.53587144613265991
0.48118302226066589 0.41561958193778992 0.53574192523956299
0.61594313383102417 0.41155627369880676 0.53748637437820435
0.78610044717788696 0.42696651816368103 0.55032646656036377
0.96790087223052979 0.4742756187915802 0.57917875051498413
1 0.55435407161712646 0.63080024719238281
0.30606260895729065 0.57517695426940918 0.54010313749313354
0.38713103532791138 0.57901835441589355 0.54102367162704468
0.51650512218475342 0.57927137613296509 0.54630464315414429
0.6403692364692688 0.58104890584945679 0.54459953308105469
0.79015636444091797 0.59893351793289185 0.56107711791992188
0.9690173864364624 0.63004499673843384 0.59883302450180054
1 0.6810765266418457 0.65425336360931396
0.41256049275398254 0.74056875705718994 0.57908850908279419
0.47314992547035217 0.74293023347854614 0.57829004526138306
0.5697333812713623 0.7438349723815918 0.58283513784408569
0.67331761121749878 0.74226909875869751 0.58048552274703979
0.8114553689956665 0.74819278717041016 0.59430426359176636
0.9696357250213623 0.7730637788772583 0.62776923179626465
1 0.81293272972106934 0.69048523902893066
0.57529652118682861 0.92653989791870117 0.65644246339797974
0.60200685262680054 0.92178308963775635 0.65392470359802246
0.64807689189910889 0.92722827196121216 0.65479075908660889
0.72930490970611572 0.92406415939331055 0.66092038154602051
0.84745550155639648 0.93045759201049805 0.67303478717803955
0.97395080327987671 0.92619997262954712 0.68488073348999023
0.99997752904891968 0.9441642165184021 0.73642194271087646
0.72926992177963257 1 0.76756221055984497
0.74661332368850708 1 0.77051723003387451
0.76854425668716431 1 0.77285945415496826
0.81471329927444458 1 0.77271729707717896
0.88779133558273315 1 0.77589881420135498
0.96792769432067871 0.99967831373214722 0.77528673410415649
1 0.99930417537689209 0.78963685035705566
0.18527881801128387 0.1777881532907486 0.76467674970626831
0.30711209774017334 0.18206661939620972 0.76539170742034912
0.47232991456985474 0.18618708848953247 0.74851256608963013
0.61137765645980835 0.17745175957679749 0.74045264720916748
0.77541029453277588 0.17296761274337769 0.73070448637008667
0.94930678606033325 0.21239268779754639 0.73806244134902954
0.99962139129638672 0.34751412272453308 0.7523532509803772
0.22685794532299042 0.2854149341583252 0.74633675813674927
0.32561656832695007 0.29107385873794556 0.75609761476516724
0.47312930226325989 0.28680497407913208 0.74607819318771362
0.61479157209396362 0.27790269255638123 0.73941481113433838
0.78603160381317139 0.2726549506187439 0.73564106225967407
0.96290665864944458 0.31088227033615112 0.73593282699584961
0.9993712306022644 0.43853965401649475 0.75242239236831665
0.28270125389099121 0.44851744174957275 0.73383665084838867
0.36715546250343323 0.44961050152778625 0.73927921056747437
0.49818438291549683 0.44598951935768127 0.73240447044372559
0.63141876459121704 0.44236201047897339 0.73058754205703735
0.79446697235107422 0.44731757044792175 0.73018622398376465
0.97145092487335205 0.48377141356468201 0.73674386739730835
0.99998754262924194 0.56683129072189331 0.76564329862594604
0.33853575587272644 0.59424108266830444 0.71953028440475464
0.41948485374450684 0.59893321990966797 0.72499573230743408
0.53679227828979492 0.6021193265914917 0.72240281105041504
0.65530049800872803 0.60122442245483398 0.72416114807128906
0.80147731304168701 0.60961312055587769 0.73173362016677856
0.96588557958602905 0.63626980781555176 0.74931550025939941
0.99988704919815063 0.69525045156478882 0.78830909729003906
0.42486289143562317 0.74327462911605835 0.72545057535171509
0.49017655849456787 0.74899101257324219 0.73085200786590576
0.58671170473098755 0.75300693511962891 0.74008232355117798
0.68865644931793213 0.74990952014923096 0.73987674713134766
0.8154035210609436 0.75942617654800415 0.74701112508773804
0.96140474081039429 0.78187882900238037 0.7709164023399353
0.99944204092025757 0.8286404013633728 0.81926369667053223
0.58716166019439697 0.92596697807312012 0.78233343362808228
0.61684674024581909 0.92043507099151611 0.78052824735641479
0.6715465784072876 0.92315071821212769 0.78462058305740356
0.74911844730377197 0.92600184679031372 0.79256480932235718
0.8524242639541626 0.9271429181098938 0.80016320943832397
0.97277039289474487 0.9335445761680603 0.81407368183135986
0.99896520376205444 0.95559900999069214 0.85218536853790283
0.75087505578994751 1 0.85461777448654175
0.77315646409988403 0.99913030862808228 0.86009198427200317
0.80049949884414673 0.99838793277740479 0.86882913112640381
0.8454621434211731 1 0.87026375532150269
0.90344291925430298 0.99957412481307983 0.8723950982093811
0.97187113761901855 0.99916112422943115 0.87398278713226318
0.99995100498199463 1 0.8857385516166687
0.23428745567798615 0.23808912932872772 0.94652825593948364
0.3364270031452179 0.24078552424907684 0.94143426418304443
0.48242199420928955 0.24622428417205811 0.93211811780929565
0.6254885196685791 0.24929343163967133 0.93501067161560059
0.77930659055709839 0.26656141877174377 0.92107921838760376
0.94295680522918701 0.29761606454849243 0.90842312574386597
1 0.37538847327232361 0.9231070876121521
0.27360838651657104 0.3369007408618927 0.93500643968582153
0.3632606565952301 0.34297659993171692 0.93363428115844727
0.49429574608802795 0.34397399425506592 0.92872375249862671
0.63257324695587158 0.34890434145927429 0.9282066822052002
0.7819553017616272 0.36164146661758423 0.92900705337524414
0.9582100510597229 0.38522684574127197 0.91708695888519287
1 0.46634736657142639 0.91956746578216553
0.36913871765136719 0.49947008490562439 0.91515541076660156
0.43568003177642822 0.50005698204040527 0.92062067985534668
0.53649532794952393 0.49913442134857178 0.91706281900405884
0.65134763717651367 0.50529855489730835 0.91698598861694336
0.79436963796615601 0.51123261451721191 0.91623568534851074
0.96149724721908569 0.53143227100372314 0.91214960813522339
1 0.58492249250411987 0.92078095674514771
0.46629628539085388 0.63894331455230713 0.91073358058929443
0.51671355962753296 0.63980096578598022 0.91874897480010986
0.59113901853561401 0.64359772205352783 0.91185706853866577
0.68691784143447876 0.64739441871643066 0.91359472274780273
0.811279296875 0.6529119610786438 0.91808301210403442
0.96130764484405518 0.66328877210617065 0.9109613299369812
1 0.70452141761779785 0.92343771457672119
0.5382390022277832 0.77563756704330444 0.91889792680740356
0.57251214981079102 0.77893930673599243 0.91577094793319702
0.63651818037033081 0.78249198198318481 0.91358953714370728
0.7239609956741333 0.78254204988479614 0.91040146350860596
0.83471429347991943 0.78693115711212158 0.911429762840271
0.96191227436065674 0.80286997556686401 0.92033809423446655
1 0.8402906060218811 0.93462651968002319
0.61350500583648682 0.93748331069946289 0.92304939031600952
0.63863623142242432 0.93841159343719482 0.92677181959152222
0.69113963842391968 0.93536090850830078 0.92569166421890259
0.76903229951858521 0.93733525276184082 0.92678099870681763
0.86235255002975464 0.93444657325744629 0.93020200729370117
0.97176384925842285 0.94368070363998413 0.93699830770492554
1 0.95958083868026733 0.95422160625457764
0.75815057754516602 1 0.94084590673446655
0.7752997875213623 0.99925559759140015 0.94241482019424438
0.80582207441329956 0.99952983856201172 0.94604843854904175
0.86734628677368164 0.99991708993911743 0.95514219999313354
0.93702429533004761 0.99815171957015991 0.96218955516815186
0.98719096183776855 0.99971240758895874 0.96788769960403442
1 1 0.97703689336776733
0.37680789828300476 0.37706676125526428 0.99990648031234741
0.4354645311832428 0.37024495005607605 1
0.53329908847808838 0.37645408511161804 1
0.64614182710647583 0.40140476822853088 1
0.77449280023574829 0.45309406518936157 0.99889999628067017
0.92963945865631104 0.49971875548362732 0.9972606897354126
0.99921786785125732 0.51632052659988403 1
0.40937379002571106 0.45237413048744202 1
0.47397002577781677 0.46253722906112671 0.99954628944396973
0.56058382987976074 0.46628287434577942 1
0.66183853149414062 0.4841269850730896 1
0.78618097305297852 0.51858186721801758 1
0.94447392225265503 0.55038923025131226 1
1 0.5738711953163147 1
0.51705628633499146 0.58168840408325195 0.99845850467681885
0.55556267499923706 0.5872911810874939 0.99816763401031494
0.6154436469078064 0.58892440795898438 0.99996912479400635
0.69486314058303833 0.60003447532653809 1
0.80219811201095581 0.61677372455596924 0.99818181991577148
0.9437481164932251 0.63260412216186523 1
0.99988329410552979 0.65183645486831665 1
0.61807799339294434 0.70494037866592407 0.99791187047958374
0.63244152069091797 0.70349419116973877 0.99977487325668335
0.67651945352554321 0.70791375637054443 1
0.7433173656463623 0.71751850843429565 1
0.83239603042602539 0.72665214538574219 1
0.94199556112289429 0.73080408573150635 0.99925678968429565
0.99589967727661133 0.74590635299682617 0.99975711107254028
0.66470742225646973 0.81561702489852905 0.99959844350814819
0.67966079711914062 0.81554794311523438 0.99778062105178833
0.72521024942398071 0.82098358869552612 0.99916422367095947
0.78988707065582275 0.83220607042312622 1
0.86577379703521729 0.84274053573608398 0.99854052066802979
0.95655947923660278 0.84928244352340698 0.99801123142242432
0.99981707334518433 0.86350762844085693 0.99757969379425049
0.71643394231796265 0.92953246831893921 0.99735575914382935
0.73169249296188354 0.9296225905418396 0.99772942066192627
0.77123630046844482 0.93305850028991699 0.99765419960021973
0.8358568549156189 0.94112443923950195 0.99996519088745117
0.90684384107589722 0.95062035322189331 0.99901509284973145
0.97811883687973022 0.96141749620437622 0.99957758188247681
1 0.96983635425567627 1
0.80394041538238525 0.99865484237670898 0.99894946813583374
0.80533623695373535 0.99683237075805664 0.9975895881652832
0.83814120292663574 0.99965298175811768 0.99800896644592285
0.89444935321807861 0.99958336353302002 0.99993103742599487
0.9617956280708313 1 1
0.99957168102264404 1 1
1 1 1
