assets/lut/editingcorpw Amber Ambience.cube
LUT_3D_SIZE 16
DOMAIN_MIN 0.0 0.0 0.0
DOMAIN_MAX 1.0 1.0 1.0
0.101961 0.105882 0.113725
0.129412 0.112157 0.113725
0.167059 0.113725 0.114509
0.214118 0.116863 0.127059
0.252549 0.116078 0.127843
0.298039 0.117647 0.117647
0.341177 0.123922 0.130196
0.393725 0.130196 0.138039
0.450196 0.136471 0.144314
0.510588 0.140392 0.149020
0.572549 0.141176 0.152941
0.637647 0.147451 0.163137
0.707451 0.149020 0.162353
0.785882 0.152157 0.165490
0.867451 0.150588 0.166274
0.949020 0.156863 0.172549
0.096470 0.143529 0.111372
0.128082 0.142984 0.115533
0.168627 0.143529 0.120785
0.204915 0.143059 0.119007
0.248627 0.143529 0.130196
0.290196 0.145098 0.135686
0.339608 0.149498 0.132004
0.390588 0.152157 0.138823
0.446117 0.147660 0.149124
0.504314 0.156863 0.152157
0.570980 0.162353 0.156078
0.636556 0.163070 0.163682
0.711373 0.169412 0.166274
0.789595 0.171660 0.163817
0.867451 0.173333 0.167059
0.950588 0.175686 0.185098
0.084706 0.188236 0.112157
0.122353 0.179608 0.116863
0.164414 0.180751 0.118655
0.207843 0.180392 0.127843
0.247739 0.177255 0.128889
0.291765 0.177255 0.128627
0.338824 0.177255 0.138823
0.389804 0.179182 0.142745
0.445490 0.181177 0.149804
0.505882 0.186667 0.151059
0.571765 0.192157 0.153725
0.639216 0.192157 0.169412
0.712090 0.196930 0.167126
0.785882 0.197647 0.170196
0.864209 0.205595 0.170092
0.947451 0.208628 0.173333
0.078431 0.225883 0.118431
0.115869 0.222641 0.121569
0.157647 0.221176 0.120785
0.202779 0.224673 0.120359
0.259608 0.219608 0.119215
0.291765 0.221176 0.131765
0.337255 0.215111 0.142640
0.382745 0.220392 0.153726
0.445916 0.225166 0.155653
0.507451 0.224314 0.158431
0.571765 0.232941 0.166274
0.639896 0.235869 0.161568
0.716862 0.237647 0.165490
0.790880 0.241569 0.171339
0.863529 0.247059 0.172549
0.944314 0.261961 0.189020
0.061961 0.262745 0.120784
0.096471 0.269804 0.124706
0.141177 0.268445 0.114719
0.188235 0.271373 0.116078
0.244945 0.265337 0.116863
0.301176 0.269804 0.121569
0.349019 0.265098 0.127843
0.397438 0.267451 0.146248
0.444706 0.267451 0.157647
0.503291 0.273486 0.161569
0.568627 0.277647 0.164706
0.639215 0.278431 0.163921
0.712262 0.285490 0.164915
0.786666 0.288628 0.172549
0.865337 0.296471 0.179369
0.946667 0.302745 0.185882
0.007843 0.313725 0.121569
0.067451 0.315294 0.109804
0.119216 0.320000 0.115294
0.178824 0.316863 0.115294
0.234510 0.320000 0.115294
0.286275 0.321569 0.113725
0.352157 0.321569 0.114510
0.408628 0.325490 0.127059
0.461961 0.322353 0.142745
0.515294 0.317647 0.163921
0.560784 0.329412 0.180392
0.629804 0.335686 0.170196
0.712941 0.340392 0.166275
0.794510 0.343529 0.175687
0.876863 0.351373 0.179608
0.952941 0.345098 0.188235
0.001569 0.372549 0.105098
0.009994 0.374730 0.105882
0.084706 0.373333 0.109804
0.148131 0.371085 0.099242
0.220392 0.374117 0.107451
0.287059 0.378039 0.106667
0.351440 0.380392 0.102200
0.421961 0.386667 0.105882
0.479320 0.380601 0.113516
0.535686 0.385098 0.128627
0.589804 0.387451 0.149804
0.646753 0.384792 0.170330
0.717647 0.393726 0.178824
0.790693 0.400680 0.180392
0.872157 0.409412 0.185882
0.952157 0.410980 0.186667
0.000784 0.435294 0.096471
0.000000 0.434510 0.087059
0.026824 0.431731 0.094476
0.122353 0.429804 0.087843
0.205856 0.435294 0.081360
0.263529 0.439216 0.080784
0.346667 0.442353 0.085490
0.412191 0.450263 0.087485
0.483922 0.447059 0.083137
0.559006 0.451870 0.088837
0.621177 0.453333 0.109020
0.683138 0.455686 0.123922
0.740818 0.457188 0.146174
0.803137 0.461176 0.174118
0.869804 0.467451 0.191843
0.950589 0.474510 0.174118
0.003922 0.498039 0.058824
0.006536 0.498144 0.066248
0.003922 0.496471 0.055686
0.073793 0.500751 0.049479
0.174902 0.502745 0.045490
0.257255 0.495686 0.043137
0.329621 0.507346 0.040889
0.407843 0.508235 0.030588
0.479149 0.518925 0.034151
0.554510 0.526274 0.025882
0.640000 0.528628 0.027451
0.700811 0.529412 0.060079
0.763922 0.526274 0.087843
0.829020 0.527910 0.101266
0.882353 0.533333 0.155294
0.944313 0.543529 0.192941
0.000000 0.569412 0.011765
0.004706 0.569412 0.007059
0.000209 0.569307 0.011765
0.006275 0.567059 0.003922
0.135514 0.567537 0.004228
0.225098 0.569412 0.001569
0.319216 0.575686 0.000784
0.397229 0.581386 0.000680
0.471372 0.585882 0.001569
0.553725 0.592941 0.000000
0.639216 0.603138 0.000000
0.711372 0.606274 0.003922
0.780967 0.603346 0.006013
0.845490 0.604706 0.021961
0.914988 0.605729 0.041501
0.981961 0.600784 0.090980
0.003922 0.639216 0.007843
0.001569 0.646274 0.000000
0.001569 0.640000 0.007059
0.001569 0.646275 0.000784
0.050981 0.648627 0.001569
0.207843 0.639216 0.007843
0.291765 0.650196 0.001569
0.393726 0.642353 0.000000
0.472157 0.661176 0.000000
0.549020 0.668235 0.004706
0.635294 0.670588 0.007843
0.709020 0.675294 0.000000
0.793726 0.682353 0.008627
0.862745 0.682353 0.008627
0.924705 0.678431 0.000000
1.000000 0.678431 0.003922
0.000000 0.719216 0.003137
0.004945 0.720545 0.000000
0.002353 0.720784 0.001569
0.003242 0.718327 0.000889
0.006275 0.717647 0.005491
0.160784 0.720000 0.000000
0.283750 0.724706 0.000000
0.372549 0.721569 0.001569
0.463111 0.726484 0.002249
0.542745 0.734117 0.000000
0.629020 0.739608 0.001569
0.702506 0.740153 0.000000
0.787451 0.751372 0.000784
0.872419 0.754509 0.004549
0.937255 0.756078 0.001569
1.000000 0.751372 0.007843
0.001569 0.784314 0.003138
0.001569 0.792941 0.007059
0.003989 0.797356 0.000359
0.003922 0.793726 0.002353
0.004026 0.793935 0.000000
0.072941 0.803921 0.000000
0.251765 0.792941 0.002353
0.350229 0.798790 0.001076
0.449412 0.801569 0.004706
0.533438 0.803242 0.000680
0.618039 0.805490 0.000000
0.698039 0.814902 0.000000
0.775619 0.819608 0.001210
0.864314 0.822745 0.004706
0.941856 0.832627 0.003817
0.999216 0.828235 0.000784
0.004706 0.865883 0.000000
0.005176 0.874510 0.001883
0.003138 0.869804 0.003922
0.004348 0.870229 0.003138
0.004706 0.869020 0.006275
0.007059 0.876079 0.000000
0.208104 0.868235 0.001464
0.330196 0.876079 0.002353
0.423821 0.873726 0.000000
0.521569 0.879216 0.004706
0.599215 0.880784 0.000000
0.686170 0.881673 0.000000
0.774902 0.885490 0.000784
0.853333 0.888627 0.004706
0.927059 0.888628 0.001569
0.996078 0.900392 0.000784
0.003922 0.944314 0.003922
0.000784 0.945882 0.000784
0.000889 0.947555 0.007739
0.001569 0.945098 0.005490
0.002353 0.941415 0.002592
0.004706 0.945098 0.008628
0.138823 0.946666 0.007059
0.304209 0.947347 0.000000
0.407059 0.945098 0.004706
0.505950 0.940325 0.000478
0.595294 0.946667 0.003922
0.676863 0.946666 0.002353
0.759320 0.952157 0.003138
0.838431 0.945882 0.000000
0.907384 0.949019 0.002353
0.983529 0.953725 0.000000
0.000000 0.996078 0.000000
0.000000 1.000000 0.000000
0.003138 0.996862 0.000784
0.003138 0.996862 0.000784
0.002353 0.997647 0.001569
0.000000 0.996078 0.000000
0.086274 1.000000 0.000000
0.271373 0.993726 0.003138
0.381177 1.000000 0.003138
0.480000 1.000000 0.003922
0.576471 0.996078 0.003922
0.665883 0.996078 0.009412
0.748235 0.996862 0.000000
0.820393 1.000000 0.000000
0.890980 0.998431 0.003137
0.964706 1.000000 0.003922
0.090981 0.112941 0.150588
0.132003 0.111372 0.151133
0.167843 0.111373 0.150588
0.214013 0.116287 0.153045
0.251765 0.127059 0.151373
0.290196 0.130196 0.157647
0.337972 0.137561 0.156795
0.392941 0.135686 0.162353
0.446484 0.142170 0.165699
0.504314 0.141961 0.173333
0.568627 0.138823 0.174118
0.637886 0.147451 0.176471
0.705882 0.148235 0.176471
0.786562 0.147346 0.184105
0.867451 0.146667 0.189020
0.945882 0.150588 0.201569
0.097322 0.141655 0.157714
0.127862 0.142582 0.153304
0.168254 0.143529 0.156385
0.208363 0.148961 0.152839
0.246581 0.151133 0.162659
0.282696 0.149498 0.159694
0.339760 0.153793 0.163329
0.388168 0.157341 0.163309
0.447113 0.156964 0.176857
0.506428 0.159761 0.171220
0.572377 0.163682 0.178345
0.639475 0.163539 0.178039
0.712941 0.165490 0.184553
0.790753 0.164286 0.190886
0.868952 0.169240 0.188474
0.950110 0.173095 0.207977
0.090196 0.180392 0.146667
0.120478 0.182745 0.151305
0.161210 0.182611 0.147093
0.206850 0.180967 0.154771
0.240889 0.181072 0.161935
0.291765 0.179608 0.158431
0.334118 0.182506 0.169307
0.392381 0.183104 0.177680
0.444340 0.185673 0.172758
0.505778 0.186771 0.175582
0.569412 0.190588 0.180392
0.639216 0.191612 0.186600
0.711731 0.196862 0.186599
0.790065 0.197856 0.188811
0.864784 0.199111 0.186667
0.945098 0.205490 0.199216
0.074249 0.221647 0.145987
0.103747 0.226822 0.155294
0.149908 0.222954 0.150954
0.200613 0.223766 0.151625
0.252601 0.222066 0.159686
0.296000 0.216575 0.165177
0.336282 0.218973 0.174391
0.393150 0.221177 0.181176
0.447126 0.225633 0.177164
0.507085 0.222640 0.181438
0.573019 0.232732 0.178144
0.638406 0.230405 0.181798
0.712471 0.236863 0.188235
0.789629 0.238005 0.185870
0.871059 0.245961 0.197177
0.948915 0.246065 0.195608
0.040784 0.266666 0.143529
0.080956 0.268542 0.147518
0.128993 0.270588 0.140654
0.187451 0.270170 0.141281
0.243137 0.274271 0.146495
0.295686 0.268236 0.149020
0.349087 0.269020 0.158499
0.395085 0.264314 0.172915
0.442144 0.266771 0.182536
0.500459 0.274749 0.187757
0.569412 0.277647 0.189804
0.639761 0.282114 0.188780
0.713725 0.284601 0.185673
0.789909 0.288837 0.187451
0.867451 0.294902 0.190588
0.947451 0.294902 0.198431
0.001569 0.318431 0.136470
0.039283 0.321875 0.133333
0.098824 0.322353 0.140392
0.170092 0.313830 0.134588
0.229020 0.320785 0.139608
0.287059 0.316078 0.135686
0.356624 0.327843 0.142439
0.407843 0.320000 0.149019
0.466091 0.320889 0.171660
0.510588 0.319216 0.178039
0.568627 0.321569 0.193726
0.635600 0.328082 0.195123
0.712157 0.334902 0.185098
0.785882 0.342745 0.195660
0.869020 0.349020 0.195294
0.943529 0.351373 0.203137
0.000717 0.370435 0.131220
0.003051 0.374022 0.128340
0.062439 0.372549 0.124639
0.146761 0.367868 0.124661
0.208866 0.373266 0.118125
0.284228 0.375993 0.128934
0.343271 0.380765 0.122994
0.412855 0.385643 0.126103
0.478637 0.383056 0.134097
0.542267 0.381961 0.153076
0.585883 0.382506 0.169105
0.644715 0.385576 0.189708
0.716145 0.394271 0.198977
0.792598 0.400772 0.195299
0.873247 0.407126 0.195294
0.955122 0.419369 0.201501
0.003137 0.432157 0.115294
0.000478 0.432157 0.114577
0.005938 0.435003 0.108370
0.104889 0.431686 0.105673
0.189334 0.434405 0.103425
0.269020 0.434510 0.105882
0.342506 0.436796 0.106360
0.407059 0.446633 0.106667
0.485490 0.448627 0.100601
0.555869 0.457725 0.115503
0.616471 0.454902 0.131765
0.678498 0.455447 0.146428
0.735754 0.453334 0.172482
0.799895 0.460183 0.194301
0.872575 0.465673 0.210876
0.950588 0.476863 0.205490
0.000000 0.494432 0.091555
0.006685 0.496966 0.088947
0.001778 0.501542 0.078431
0.042083 0.502029 0.077856
0.159530 0.501856 0.074092
0.251974 0.503738 0.070902
0.328066 0.505056 0.071969
0.397856 0.512366 0.065203
0.482314 0.521890 0.064264
0.551372 0.522457 0.059712
0.632157 0.528418 0.068810
0.699012 0.527999 0.096811
0.763451 0.529307 0.123451
0.829440 0.527356 0.130360
0.885804 0.530196 0.180601
0.948340 0.536680 0.211765
0.002353 0.567059 0.032941
0.000239 0.573333 0.021894
0.003033 0.571085 0.028026
0.000784 0.570196 0.021072
0.114950 0.570742 0.018891
0.221176 0.571765 0.010980
0.316691 0.572549 0.015141
0.396653 0.574118 0.011556
0.471268 0.586457 0.009987
0.554032 0.592157 0.003989
0.635294 0.600784 0.001569
0.712157 0.606274 0.006581
0.785360 0.604706 0.027660
0.851451 0.602928 0.063320
0.915466 0.605251 0.091220
0.981961 0.605490 0.123137
0.003137 0.641569 0.000000
0.012138 0.639933 0.000239
0.000000 0.644706 0.000000
0.000000 0.643346 0.000000
0.043137 0.642353 0.000000
0.189804 0.643137 0.003922
0.294118 0.647843 0.000000
0.381176 0.653334 0.003137
0.473726 0.654902 0.000000
0.544314 0.661177 0.003922
0.629804 0.665098 0.000000
0.711850 0.677408 0.000000
0.796078 0.679215 0.003138
0.859504 0.683033 0.000680
0.927843 0.678431 0.000000
0.991372 0.682353 0.010980
0.002047 0.716863 0.000239
0.004562 0.720144 0.003654
0.001502 0.719148 0.000784
0.001506 0.718724 0.001149
0.005012 0.720000 0.001023
0.144314 0.720478 0.002831
0.268829 0.718766 0.000478
0.367537 0.721808 0.006887
0.458492 0.725947 0.000197
0.535074 0.734596 0.000239
0.621109 0.735925 0.000000
0.702793 0.742630 0.002114
0.784792 0.748713 0.000784
0.869187 0.757898 0.000922
0.940631 0.757169 0.001262
0.997714 0.755772 0.000000
0.002353 0.794510 0.000000
0.002047 0.797341 0.004228
0.003137 0.793300 0.002779
0.002876 0.798327 0.004915
0.003817 0.796967 0.001778
0.054902 0.796863 0.001569
0.237408 0.801330 0.002286
0.347877 0.796078 0.001076
0.441464 0.801464 0.001778
0.530196 0.805385 0.000784
0.614902 0.808627 0.001569
0.695925 0.814118 0.000000
0.777255 0.819608 0.000426
0.861961 0.821856 0.002144
0.943320 0.834196 0.004497
0.999216 0.828235 0.000000
0.004602 0.872262 0.000680
0.003221 0.870881 0.002649
0.002248 0.874719 0.003817
0.003200 0.869629 0.003451
0.003347 0.870693 0.004027
0.002248 0.872366 0.000680
0.192259 0.869015 0.001485
0.321569 0.873150 0.000000
0.421156 0.872878 0.001038
0.517856 0.874405 0.000784
0.603922 0.877438 0.005386
0.684265 0.880650 0.000155
0.769098 0.881778 0.001569
0.849524 0.885486 0.001106
0.923817 0.894222 0.001778
0.998536 0.894536 0.004706
0.006275 0.943529 0.003922
0.004945 0.944859 0.000478
0.002562 0.941281 0.002928
0.002562 0.946457 0.002249
0.000784 0.949087 0.001569
0.004706 0.940392 0.001569
0.121636 0.942984 0.006275
0.294588 0.946562 0.001360
0.402144 0.946562 0.000000
0.501789 0.948235 0.002898
0.593725 0.944313 0.000784
0.678670 0.946121 0.001808
0.756288 0.951373 0.000000
0.832261 0.949124 0.000000
0.914816 0.954271 0.000239
0.988235 0.949804 0.000784
0.000000 0.997647 0.001569
0.001808 0.998431 0.000478
0.004706 0.997647 0.000000
0.003608 0.993830 0.000680
0.000000 0.998431 0.003137
0.000000 0.998431 0.000000
0.065441 0.997886 0.000000
0.267451 0.999216 0.000000
0.383529 0.999216 0.002249
0.483922 0.999216 0.003138
0.578039 0.997647 0.003922
0.660937 1.000000 0.000239
0.736470 1.000000 0.000000
0.818928 0.997751 0.000680
0.893334 0.999216 0.000000
0.965490 1.000000 0.002353
0.093334 0.112941 0.195294
0.127843 0.113725 0.199216
0.165356 0.111081 0.190162
0.212549 0.116863 0.197647
0.256523 0.124915 0.196183
0.295687 0.126274 0.199216
0.343529 0.135686 0.197647
0.388235 0.141176 0.202711
0.450196 0.140392 0.202353
0.508915 0.139137 0.199111
0.576471 0.139607 0.202353
0.641569 0.138039 0.214118
0.709737 0.135978 0.212840
0.792941 0.138039 0.217255
0.871372 0.130876 0.218249
0.949804 0.134902 0.221961
0.090981 0.145098 0.197647
0.129718 0.141894 0.193419
0.164863 0.144381 0.197938
0.205908 0.144523 0.192471
0.249203 0.149699 0.195660
0.290981 0.157647 0.194510
0.336642 0.156078 0.196796
0.391731 0.158364 0.205064
0.446065 0.156863 0.202719
0.508131 0.159895 0.204706
0.571765 0.160000 0.208627
0.641091 0.157647 0.208082
0.714084 0.156930 0.214902
0.792366 0.157438 0.217935
0.869124 0.153725 0.219137
0.946667 0.159216 0.210981
0.092908 0.180392 0.200291
0.121143 0.181244 0.194667
0.152233 0.177900 0.199076
0.201927 0.181961 0.198431
0.240460 0.184765 0.201648
0.296112 0.182320 0.201568
0.334902 0.185098 0.194442
0.387599 0.187442 0.203141
0.446992 0.184381 0.201076
0.506437 0.186347 0.204389
0.567417 0.190655 0.209838
0.637647 0.192583 0.213109
0.713228 0.193936 0.213046
0.791731 0.187025 0.210846
0.868594 0.192027 0.215105
0.944179 0.193658 0.219675
0.074510 0.224314 0.200000
0.105412 0.223425 0.190222
0.143238 0.219899 0.190947
0.199216 0.221535 0.179832
0.243137 0.221281 0.194405
0.283922 0.220392 0.205490
0.333438 0.221072 0.207634
0.386667 0.222745 0.209479
0.443428 0.223104 0.204706
0.507346 0.225203 0.208157
0.572549 0.226667 0.211765
0.643137 0.229699 0.213908
0.715787 0.230589 0.220392
0.787810 0.236146 0.215619
0.871268 0.236863 0.216366
0.950588 0.240000 0.223529
0.031268 0.266667 0.177359
0.062745 0.266458 0.184104
0.112408 0.271652 0.176021
0.172183 0.269124 0.176000
0.240380 0.264196 0.174887
0.299974 0.265098 0.179033
0.341177 0.263268 0.202144
0.390186 0.265699 0.210741
0.440680 0.268915 0.203033
0.511472 0.266444 0.217808
0.567373 0.273621 0.206484
0.639530 0.278222 0.212654
0.715932 0.280889 0.216896
0.792941 0.284601 0.215791
0.871921 0.289831 0.222524
0.945307 0.293228 0.219608
0.000784 0.317647 0.166275
0.007843 0.315294 0.170980
0.076213 0.317356 0.165065
0.152157 0.312941 0.162353
0.220079 0.316183 0.163347
0.290980 0.321569 0.166274
0.353725 0.320000 0.170980
0.403002 0.316863 0.187877
0.451765 0.316863 0.209412
0.508445 0.316967 0.216262
0.571765 0.322353 0.219608
0.645490 0.327059 0.221176
0.719283 0.332907 0.212908
0.799216 0.338039 0.222745
0.870484 0.346248 0.221281
0.950589 0.350588 0.230588
0.002353 0.370981 0.158431
0.002047 0.375753 0.160852
0.019563 0.375261 0.154801
0.122719 0.370510 0.153046
0.199634 0.375007 0.147869
0.276862 0.371765 0.153726
0.344792 0.380153 0.149498
0.412549 0.385457 0.153591
0.477229 0.383739 0.176052
0.532549 0.382850 0.185203
0.585098 0.380392 0.203921
0.645423 0.385098 0.221483
0.720784 0.391014 0.218824
0.796078 0.395294 0.220288
0.876968 0.405699 0.224209
0.949020 0.414118 0.231373
0.000784 0.434443 0.144448
0.003496 0.432515 0.139832
0.003926 0.433232 0.140670
0.066241 0.437289 0.140594
0.175842 0.436162 0.134962
0.256695 0.433725 0.129210
0.331697 0.441210 0.137389
0.402425 0.447198 0.142032
0.480359 0.453468 0.141961
0.551158 0.454075 0.146471
0.619742 0.454118 0.175261
0.675294 0.452549 0.188235
0.735753 0.452410 0.213257
0.798723 0.457187 0.226375
0.871925 0.463229 0.227621
0.956863 0.476571 0.239641
0.005490 0.498823 0.129412
0.003033 0.501751 0.120889
0.000717 0.500818 0.116078
0.007799 0.500750 0.112583
0.141229 0.500392 0.118902
0.234510 0.501961 0.105883
0.319686 0.504209 0.108340
0.395653 0.510588 0.109020
0.476146 0.517715 0.107092
0.555294 0.525281 0.105098
0.627451 0.524706 0.117647
0.695686 0.526379 0.139503
0.760784 0.527485 0.160426
0.823888 0.526275 0.176695
0.888523 0.532444 0.211660
0.955294 0.536471 0.236863
0.000209 0.567739 0.091555
0.002928 0.569830 0.088105
0.001291 0.570090 0.093426
0.002458 0.569987 0.077072
0.075944 0.568477 0.071362
0.208837 0.570196 0.069072
0.302693 0.574223 0.062484
0.381285 0.581985 0.055229
0.472941 0.585778 0.058980
0.551514 0.589699 0.055785
0.633307 0.598327 0.050144
0.713412 0.605699 0.055634
0.786274 0.606274 0.095446
0.848314 0.605490 0.120470
0.917554 0.603527 0.141037
0.980392 0.603608 0.170771
0.000784 0.643921 0.012549
0.000000 0.647059 0.014902
0.003563 0.641143 0.018106
0.000784 0.647843 0.010196
0.016889 0.644026 0.008418
0.163921 0.647843 0.021176
0.280784 0.644706 0.003137
0.374902 0.651406 0.001927
0.461961 0.654118 0.000784
0.541072 0.662850 0.004497
0.625098 0.669804 0.005491
0.716863 0.678431 0.000784
0.796078 0.682712 0.004975
0.865883 0.679216 0.017255
0.934222 0.677438 0.048000
0.991373 0.678431 0.101961
0.002353 0.719216 0.001569
0.002047 0.719215 0.000478
0.002779 0.721927 0.000000
0.005961 0.719425 0.006170
0.003347 0.718327 0.000105
0.096471 0.720784 0.003138
0.255888 0.723922 0.002898
0.360359 0.723989 0.000717
0.446484 0.726641 0.004026
0.534797 0.733438 0.001359
0.618824 0.739608 0.001569
0.700631 0.742984 0.000784
0.787810 0.748235 0.001143
0.871268 0.758222 0.000209
0.939713 0.756968 0.000680
0.998431 0.755294 0.000000
0.000717 0.796930 0.000426
0.006207 0.793793 0.002286
0.003138 0.797638 0.000215
0.002712 0.797288 0.000359
0.006234 0.792532 0.007637
0.007126 0.800000 0.000000
0.218039 0.800358 0.000784
0.340607 0.792874 0.000645
0.431866 0.800852 0.000784
0.524576 0.807701 0.001247
0.611698 0.811474 0.000717
0.698465 0.816538 0.000784
0.779464 0.820397 0.000359
0.861670 0.823171 0.003205
0.941965 0.832494 0.003163
1.000000 0.828661 0.003496
0.005490 0.870588 0.007059
0.001882 0.873726 0.001882
0.007059 0.869938 0.001076
0.002712 0.869871 0.000359
0.002353 0.872052 0.001098
0.000784 0.872941 0.000784
0.156445 0.874405 0.000105
0.315362 0.871798 0.000000
0.414678 0.873367 0.001569
0.514510 0.875294 0.003922
0.598431 0.877647 0.000784
0.683922 0.883242 0.000784
0.766275 0.887059 0.000359
0.848269 0.886633 0.000359
0.926170 0.893647 0.000209
0.996862 0.895686 0.001569
0.008314 0.944418 0.005386
0.002458 0.944732 0.003138
0.002048 0.945778 0.001182
0.003817 0.939817 0.001673
0.000633 0.949442 0.001706
0.003817 0.944314 0.006065
0.082667 0.946562 0.001673
0.279045 0.946495 0.000400
0.399895 0.943634 0.001464
0.500918 0.947010 0.000000
0.587242 0.949019 0.002249
0.673046 0.949595 0.000000
0.751407 0.950397 0.000359
0.831373 0.953621 0.002928
0.913549 0.951024 0.002583
0.993203 0.950013 0.003242
0.003138 1.000000 0.006274
0.003922 0.997647 0.000784
0.006342 0.996437 0.003855
0.003922 0.995294 0.002353
0.005124 0.994824 0.003137
0.000000 0.993726 0.003922
0.039216 1.000000 0.000000
0.242711 0.998431 0.006342
0.372549 0.998431 0.001569
0.474405 1.000000 0.000889
0.571765 1.000000 0.000000
0.658824 1.000000 0.000784
0.742454 0.997221 0.001143
0.821961 1.000000 0.000784
0.895686 1.000000 0.000105
0.962353 0.999216 0.000784
0.096470 0.112941 0.245490
0.123608 0.112157 0.244026
0.159216 0.112941 0.251765
0.205782 0.118073 0.246633
0.251765 0.123137 0.236078
0.301961 0.126274 0.243137
0.349386 0.134117 0.239320
0.392941 0.134118 0.234510
0.450622 0.136336 0.238655
0.514510 0.134902 0.253333
0.576471 0.133333 0.249412
0.646065 0.124131 0.245699
0.715294 0.116078 0.247843
0.797221 0.107025 0.252908
0.876078 0.100392 0.254118
0.949804 0.106667 0.256471
0.098196 0.139713 0.238902
0.120284 0.146730 0.242024
0.157752 0.146457 0.242667
0.202547 0.147814 0.247206
0.253229 0.146353 0.241150
0.294118 0.151373 0.238640
0.342934 0.156025 0.241204
0.390118 0.159216 0.236967
0.449132 0.161276 0.239662
0.507242 0.158327 0.245699
0.576262 0.148340 0.249412
0.646245 0.140035 0.249259
0.718849 0.136941 0.244915
0.795692 0.139206 0.249858
0.873621 0.137569 0.248993
0.953830 0.131660 0.254902
0.091765 0.176470 0.243137
0.120209 0.180863 0.242457
0.151731 0.177188 0.235585
0.201210 0.180751 0.243137
0.241673 0.176784 0.237386
0.290980 0.183529 0.234510
0.339033 0.183529 0.243137
0.389535 0.184448 0.244504
0.445849 0.183955 0.249121
0.512157 0.184000 0.248418
0.577255 0.179608 0.244706
0.649882 0.175791 0.250457
0.720067 0.177187 0.249905
0.794084 0.172549 0.252482
0.876654 0.172654 0.253438
0.952941 0.170980 0.261961
0.077221 0.216336 0.239014
0.110307 0.221882 0.240061
0.141378 0.222319 0.240493
0.188590 0.221750 0.238714
0.238431 0.222745 0.240359
0.289479 0.219249 0.240560
0.331381 0.219054 0.238296
0.396930 0.221244 0.246566
0.445486 0.218187 0.245055
0.507227 0.223238 0.247910
0.576829 0.223104 0.251339
0.647418 0.219312 0.249521
0.721636 0.219966 0.250196
0.797719 0.219823 0.259030
0.873658 0.223462 0.254835
0.949737 0.226734 0.263238
0.033726 0.261960 0.234510
0.070588 0.269804 0.241046
0.117177 0.266458 0.235294
0.165356 0.266600 0.229804
0.230827 0.266256 0.226838
0.292549 0.263530 0.235294
0.332444 0.265987 0.245594
0.387660 0.267346 0.257830
0.442062 0.266308 0.249770
0.507145 0.268781 0.247537
0.575687 0.272942 0.250196
0.644706 0.273726 0.250301
0.719895 0.273830 0.251085
0.800068 0.275653 0.255619
0.877408 0.277408 0.262573
0.952941 0.283137 0.252549
0.000784 0.320785 0.229020
0.002719 0.312366 0.229438
0.040784 0.319216 0.221177
0.126140 0.314577 0.208628
0.207059 0.318431 0.210196
0.281568 0.318431 0.207059
0.351895 0.317072 0.227451
0.403137 0.317647 0.236078
0.451048 0.311664 0.250981
0.506667 0.316078 0.246275
0.568627 0.322353 0.247843
0.647059 0.325490 0.247163
0.728628 0.327843 0.250981
0.796370 0.330846 0.250555
0.871373 0.335686 0.254902
0.956863 0.341176 0.268235
0.001464 0.377725 0.213542
0.003608 0.373030 0.214275
0.001778 0.375477 0.204810
0.068171 0.375752 0.194674
0.179033 0.370091 0.191582
0.257307 0.372026 0.191843
0.348994 0.379401 0.198917
0.412340 0.377569 0.206797
0.473107 0.377380 0.220752
0.526954 0.376575 0.235817
0.574745 0.380601 0.256837
0.651983 0.384179 0.258480
0.721673 0.383843 0.251190
0.800526 0.392494 0.256213
0.878536 0.399216 0.259608
0.961151 0.404706 0.264314
0.000000 0.437647 0.184314
0.000784 0.434615 0.188130
0.001995 0.437221 0.183104
0.007014 0.436571 0.180392
0.142640 0.435869 0.179922
0.234510 0.435294 0.175686
