assets/lut/editingcorp fatos.cube
# Created by: G'MIC (https://gmic.eu)
TITLE "fatos"
# LUT size
LUT_3D_SIZE 13
# Data domain
DOMAIN_MIN 0.0 0.0 0.0
DOMAIN_MAX 1.0 1.0 1.0
# LUT data points
0.011309171095490456 0.0096884332597255707 0.011689533479511738
0.13120883703231812 0.011011804454028606 0.014293386600911617
0.29039216041564941 0.019748762249946594 0.010041225701570511
0.3993394672870636 0.044732920825481415 0.021779334172606468
0.49037480354309082 0.06897137314081192 0.044593915343284607
0.57791119813919067 0.092779122292995453 0.065396375954151154
0.66787177324295044 0.11747781932353973 0.087316177785396576
0.75184649229049683 0.11499888449907303 0.10452735424041748
0.80615425109863281 0.1059878021478653 0.1120510920882225
0.83994603157043457 0.11578840017318726 0.11596719920635223
0.87267976999282837 0.13668529689311981 0.11856454610824585
0.90843093395233154 0.12432505190372467 0.11867424100637436
0.94584321975708008 0.16271869838237762 0.12589098513126373
0.0098620392382144928 0.083579838275909424 0.030460642650723457
0.093228645622730255 0.080843918025493622 0.028747154399752617
0.24982409179210663 0.086053468286991119 0.028105029836297035
0.3859955370426178 0.10623345524072647 0.038306877017021179
0.48217085003852844 0.124130979180336 0.053224794566631317
0.56338304281234741 0.13958284258842468 0.066746562719345093
0.64872348308563232 0.16212689876556396 0.08262740820646286
0.73017418384552002 0.18621507287025452 0.09946151077747345
0.78962051868438721 0.19704964756965637 0.10949552804231644
0.83054333925247192 0.19608481228351593 0.11398659646511078
0.86474347114562988 0.20729713141918182 0.1182771697640419
0.90083032846450806 0.20760373771190643 0.12081907689571381
0.94116854667663574 0.21414777636528015 0.12489096075296402
0.0011546864407137036 0.19363877177238464 0.054711658507585526
0.048852808773517609 0.1869637668132782 0.051669999957084656
0.19491395354270935 0.18050727248191833 0.046676978468894958
0.36451277136802673 0.1873304694890976 0.046696934849023819
0.47830674052238464 0.19816608726978302 0.057417761534452438
0.55940085649490356 0.20530632138252258 0.069010712206363678
0.6416739821434021 0.21490152180194855 0.081477448344230652
0.72147828340530396 0.23041017353534698 0.096230693161487579
0.78480082750320435 0.24133114516735077 0.10700000077486038
0.82901424169540405 0.24337036907672882 0.11282942444086075
0.86229759454727173 0.24562661349773407 0.1171204075217247
0.89617615938186646 0.24474358558654785 0.11996787786483765
0.93566066026687622 0.24909009039402008 0.12314031273126602
0.0046500409953296185 0.28458845615386963 0.07833678275346756
0.037167865782976151 0.27905932068824768 0.073303714394569397
0.14065979421138763 0.27217555046081543 0.068379558622837067
0.31099915504455566 0.27686145901679993 0.065356552600860596
0.46503308415412903 0.28869315981864929 0.070431925356388092
0.56199359893798828 0.29352355003356934 0.078062884509563446
0.64245587587356567 0.29400411248207092 0.087471023201942444
0.7200247049331665 0.29689553380012512 0.099425293505191803
0.78459280729293823 0.30149936676025391 0.10997528582811356
0.83246946334838867 0.30329495668411255 0.11695799231529236
0.8671499490737915 0.3029734194278717 0.12073212862014771
0.89967453479766846 0.30228087306022644 0.12304246425628662
0.93635410070419312 0.30522435903549194 0.12500837445259094
0.021825199946761131 0.36626210808753967 0.097315184772014618
0.042434588074684143 0.36254382133483887 0.093658506870269775
0.10501686483621597 0.35644346475601196 0.089780710637569427
0.24792385101318359 0.35875245928764343 0.088341131806373596
0.42793440818786621 0.3722836971282959 0.090512938797473907
0.55915683507919312 0.38173019886016846 0.095915131270885468
0.6480705738067627 0.38276553153991699 0.10281050205230713
0.72258007526397705 0.3806951642036438 0.110384501516819
0.78856611251831055 0.37838566303253174 0.11845420300960541
0.83941447734832764 0.37667542695999146 0.12455496937036514
0.87622755765914917 0.37579041719436646 0.12824435532093048
0.90851753950119019 0.375631183385849 0.13001641631126404
0.9436105489730835 0.37564021348953247 0.13100704550743103
0.044488344341516495 0.44624361395835876 0.11599881201982498
0.065931089222431183 0.44374856352806091 0.11598291993141174
0.10713086277246475 0.43701985478401184 0.11294220387935638
0.20629581809043884 0.43460026383399963 0.10891086608171463
0.37250548601150513 0.4460243284702301 0.10983147472143173
0.5334324836730957 0.45999294519424438 0.11655867099761963
0.64361333847045898 0.46395424008369446 0.12287376075983047
0.72582107782363892 0.46200883388519287 0.12707160413265228
0.79514217376708984 0.45641067624092102 0.13158206641674042
0.84894663095474243 0.45239540934562683 0.13573776185512543
0.88639581203460693 0.45130380988121033 0.13800255954265594
0.91856306791305542 0.44964078068733215 0.13873662054538727
0.95288664102554321 0.44753962755203247 0.13957203924655914
0.069849275052547455 0.52589070796966553 0.13854682445526123
0.094071485102176666 0.52426999807357788 0.14074243605136871
0.12221880257129669 0.51696622371673584 0.13641743361949921
0.1811944842338562 0.50980544090270996 0.12730342149734497
0.31175872683525085 0.51477503776550293 0.12420087307691574
0.47877281904220581 0.52863025665283203 0.13027060031890869
0.61606115102767944 0.53782391548156738 0.13868987560272217
0.71846139430999756 0.53782671689987183 0.14423291385173798
0.79857951402664185 0.53201377391815186 0.14715370535850525
0.85629153251647949 0.52696114778518677 0.14849363267421722
0.89411479234695435 0.52549272775650024 0.14945489168167114
0.92755675315856934 0.52248430252075195 0.15015052258968353
0.96274715662002563 0.51931965351104736 0.15066802501678467
0.092839136719703674 0.60426586866378784 0.16334265470504761
0.11521270126104355 0.60298430919647217 0.16431522369384766
0.13680945336818695 0.59601306915283203 0.15932497382164001
0.17651031911373138 0.58698421716690063 0.14872607588768005
0.26755052804946899 0.58426803350448608 0.14074409008026123
0.41164988279342651 0.59297150373458862 0.1410956084728241
0.56245720386505127 0.60623455047607422 0.15092426538467407
0.69026428461074829 0.61225885152816772 0.16148525476455688
0.79083645343780518 0.60753017663955688 0.16405376791954041
0.85968869924545288 0.60163581371307373 0.16289979219436646
0.90166252851486206 0.600913405418396 0.16347110271453857
0.93731105327606201 0.59767395257949829 0.16474378108978271
0.97295838594436646 0.59410595893859863 0.1662624329328537
0.11555000394582748 0.6784592866897583 0.18789750337600708
0.13896024227142334 0.67870908975601196 0.1885010302066803
0.16280998289585114 0.67501628398895264 0.18447846174240112
0.19685748219490051 0.66804701089859009 0.17581558227539062
0.25438195466995239 0.66068351268768311 0.16586509346961975
0.34889784455299377 0.66039741039276123 0.16043801605701447
0.48522481322288513 0.67212867736816406 0.16733573377132416
0.63503402471542358 0.68391388654708862 0.17892327904701233
0.76411843299865723 0.68373745679855347 0.18169891834259033
0.85708063840866089 0.67887705564498901 0.1814725250005722
0.91201883554458618 0.67833554744720459 0.18323561549186707
0.94880527257919312 0.67753440141677856 0.18670500814914703
0.98143672943115234 0.67420536279678345 0.18911007046699524
0.13831348717212677 0.74476802349090576 0.20988141000270844
0.16639202833175659 0.74764102697372437 0.21220530569553375
0.19702544808387756 0.7486308217048645 0.20986615121364594
0.23394817113876343 0.74717545509338379 0.20481264591217041
0.27833080291748047 0.74278050661087036 0.19702093303203583
0.33211436867713928 0.73647385835647583 0.18784801661968231
0.4240233302116394 0.7386358380317688 0.18569789826869965
0.56721055507659912 0.74987113475799561 0.1929795891046524
0.72075569629669189 0.75911962985992432 0.19958731532096863
0.8423038125038147 0.76266270875930786 0.20414227247238159
0.91516554355621338 0.76255828142166138 0.21006253361701965
0.95446550846099854 0.76169604063034058 0.21621668338775635
0.98460465669631958 0.75777578353881836 0.21967968344688416
0.15694276988506317 0.79939401149749756 0.22595725953578949
0.18919408321380615 0.80403172969818115 0.22861768305301666
0.2248736172914505 0.80864816904067993 0.22901317477226257
0.26320162415504456 0.81117957830429077 0.2267366349697113
0.30076688528060913 0.80850023031234741 0.22079731523990631
0.33548435568809509 0.80079281330108643 0.21106722950935364
0.39758846163749695 0.79810327291488647 0.20445539057254791
0.51927703619003296 0.80787628889083862 0.20715335011482239
0.67858576774597168 0.82570624351501465 0.21591931581497192
0.82219678163528442 0.83985918760299683 0.22650700807571411
0.91120308637619019 0.8435550332069397 0.23748679459095001
0.95433741807937622 0.84196066856384277 0.24772354960441589
0.98393398523330688 0.83633583784103394 0.25279602408409119
0.16899615526199341 0.8432774543762207 0.23516766726970673
0.202373206615448 0.84819155931472778 0.23804472386837006
0.23765407502651215 0.85325992107391357 0.23930846154689789
0.27291849255561829 0.85575228929519653 0.23798061907291412
0.30496138334274292 0.85343718528747559 0.23326751589775085
0.33526515960693359 0.84676700830459595 0.2252652645111084
0.38536670804023743 0.84402364492416382 0.21872347593307495
0.48688748478889465 0.85227590799331665 0.21911275386810303
0.64130705595016479 0.87304955720901489 0.22812612354755402
0.79862684011459351 0.89382284879684448 0.24178411066532135
0.90577393770217896 0.90410393476486206 0.25705698132514954
0.95635902881622314 0.905906081199646 0.27139872312545776
0.98534804582595825 0.90129536390304565 0.27950605750083923
0.17486262321472168 0.88240337371826172 0.23945307731628418
0.20713447034358978 0.88548088073730469 0.24216930568218231
0.23992498219013214 0.88904184103012085 0.24311032891273499
0.27186280488967896 0.89064449071884155 0.24254566431045532
0.30143749713897705 0.8880845308303833 0.23875576257705688
0.33117690682411194 0.88285768032073975 0.23290084302425385
0.37568545341491699 0.8798028826713562 0.2277219295501709
0.46447032690048218 0.88708966970443726 0.22788527607917786
0.61302322149276733 0.90816682577133179 0.23706677556037903
0.77577883005142212 0.93178445100784302 0.25171232223510742
0.89571988582611084 0.94777601957321167 0.26907050609588623
0.95388150215148926 0.95391923189163208 0.28612419962882996
0.9851112961769104 0.95312327146530151 0.29757031798362732
0.0084306159988045692 0.015509108081459999 0.096254073083400726
0.11934980750083923 0.017007177695631981 0.095463350415229797
0.28158247470855713 0.020239662379026413 0.061934705823659897
0.39606747031211853 0.036754518747329712 0.057289034128189087
0.48763749003410339 0.057801160961389542 0.083460621535778046
0.57592058181762695 0.079027064144611359 0.10172952711582184
0.6641659140586853 0.09605841338634491 0.11806272715330124
0.74554330110549927 0.089656949043273926 0.13297933340072632
0.79911500215530396 0.093192905187606812 0.14113627374172211
0.83354431390762329 0.091759279370307922 0.14266355335712433
0.86691868305206299 0.096696414053440094 0.14344967901706696
0.90135657787322998 0.092529147863388062 0.14447633922100067
0.93796074390411377 0.13673414289951324 0.15356507897377014
0.0067448634654283524 0.094468317925930023 0.10882321745157242
0.081768125295639038 0.093184873461723328 0.1011049896478653
0.24197641015052795 0.090958312153816223 0.086291566491127014
0.38240304589271545 0.10318674147129059 0.082396820187568665
0.48123982548713684 0.11942880600690842 0.093165695667266846
0.56355887651443481 0.13522060215473175 0.10268285125494003
0.64749592542648315 0.15820492804050446 0.11561119556427002
0.72856849431991577 0.18130660057067871 0.13247852027416229
0.78618663549423218 0.20042206346988678 0.14186742901802063
0.82621347904205322 0.19903092086315155 0.14516091346740723
0.86156046390533447 0.20840002596378326 0.14968843758106232
0.89660298824310303 0.20847678184509277 0.15219274163246155
0.93496310710906982 0.21885445713996887 0.15668851137161255
0.00023363898799289018 0.20070496201515198 0.11922728270292282
0.046091236174106598 0.19516861438751221 0.11229044944047928
0.19078746438026428 0.18602427840232849 0.10151614248752594
0.36076632142066956 0.1887146383523941 0.092793725430965424
0.47851923108100891 0.19728252291679382 0.096283286809921265
0.55993169546127319 0.20240561664104462 0.10391484946012497
0.64168637990951538 0.21251262724399567 0.11531715840101242
0.72291761636734009 0.23011995851993561 0.13024279475212097
0.785877525806427 0.2420324832201004 0.14049696922302246
0.82739275693893433 0.24408252537250519 0.14483733475208282
0.86148655414581299 0.24668413400650024 0.15028935670852661
0.89576166868209839 0.24821273982524872 0.15399822592735291
0.93424141407012939 0.25147077441215515 0.15753479301929474
0.0039546443149447441 0.29078531265258789 0.13145846128463745
0.039059493690729141 0.28672364354133606 0.12558647990226746
0.14320960640907288 0.27954375743865967 0.1176203116774559
0.31211146712303162 0.28161266446113586 0.1069074273109436
0.46062514185905457 0.29044067859649658 0.10640480369329453
0.55968022346496582 0.29210859537124634 0.111283078789711
0.64187741279602051 0.29178526997566223 0.11962194740772247
0.71979790925979614 0.29621613025665283 0.13178887963294983
0.78508132696151733 0.29963523149490356 0.14159747958183289
0.83123266696929932 0.30108809471130371 0.14726695418357849
0.86618059873580933 0.30284082889556885 0.15217606723308563
0.89947760105133057 0.30377519130706787 0.15631029009819031
0.93654054403305054 0.30512088537216187 0.15903334319591522
0.024949615821242332 0.3710334300994873 0.14076431095600128
0.053128335624933243 0.36790090799331665 0.13628612458705902
0.11564600467681885 0.36003926396369934 0.13110321760177612
0.24343375861644745 0.35893511772155762 0.12569867074489594
0.41965845227241516 0.37245741486549377 0.12365873903036118
0.55300384759902954 0.38092643022537231 0.12891297042369843
0.64345508813858032 0.38166511058807373 0.13559634983539581
0.71823477745056152 0.37970992922782898 0.1417357474565506
0.78554540872573853 0.37609511613845825 0.14830796420574188
0.83755636215209961 0.375 0.15380719304084778
0.87442481517791748 0.37598100304603577 0.15834163129329681
0.90681284666061401 0.37738975882530212 0.16171522438526154
0.94245731830596924 0.37429863214492798 0.16365309059619904
0.051740009337663651 0.44828340411186218 0.15327557921409607
0.079949803650379181 0.44661930203437805 0.15332850813865662
0.11627523601055145 0.43766945600509644 0.14913353323936462
0.20064114034175873 0.43210282921791077 0.14229056239128113
0.36354386806488037 0.44392967224121094 0.14242860674858093
0.52463620901107788 0.45916420221328735 0.15360397100448608
0.63749980926513672 0.46393528580665588 0.1606171727180481
0.72026157379150391 0.46076074242591858 0.15999692678451538
0.79147326946258545 0.45401257276535034 0.16199089586734772
0.84713661670684814 0.45053070783615112 0.16573300957679749
0.88425123691558838 0.45039695501327515 0.16826267540454865
0.91574138402938843 0.44933032989501953 0.17019209265708923
0.95007705688476562 0.4461764395236969 0.17133691906929016
0.078726597130298615 0.52837198972702026 0.1749424934387207
0.10795711725950241 0.52705198526382446 0.17739561200141907
0.13472044467926025 0.51842415332794189 0.1727430671453476
0.1897457093000412 0.51021718978881836 0.16175614297389984
0.31691744923591614 0.51492404937744141 0.15907794237136841
0.47755065560340881 0.52900862693786621 0.16844560205936432
0.61289650201797485 0.53772503137588501 0.17718382179737091
0.71470379829406738 0.53592789173126221 0.17855320870876312
0.7957385778427124 0.52964520454406738 0.17882212996482849
0.85512495040893555 0.52547889947891235 0.18018397688865662
0.89228206872940063 0.52442741394042969 0.1813695877790451
0.92408949136734009 0.52131086587905884 0.18242530524730682
0.95878368616104126 0.51798981428146362 0.18256084620952606
0.10219098627567291 0.60776418447494507 0.20077504217624664
0.12648634612560272 0.60616683959960938 0.20154719054698944
0.14893507957458496 0.59879809617996216 0.19565671682357788
0.18967141211032867 0.5896449089050293 0.18430005013942719
0.27934885025024414 0.58743339776992798 0.17595683038234711
0.41497802734375 0.59492695331573486 0.17720228433609009
0.56128323078155518 0.60673630237579346 0.18786251544952393
0.69166398048400879 0.61271077394485474 0.19778355956077576
0.79195481538772583 0.60804665088653564 0.19871163368225098
0.86001855134963989 0.60224425792694092 0.1969493180513382
0.90083992481231689 0.59959119558334351 0.1970110684633255
0.93438345193862915 0.59662652015686035 0.19809514284133911
0.96901386976242065 0.59274250268936157 0.19844715297222137
0.12426435947418213 0.68435412645339966 0.22669415175914764
0.14794841408729553 0.68333488702774048 0.2261093407869339
0.17171783745288849 0.67837238311767578 0.22087506949901581
0.20492783188819885 0.67098915576934814 0.21113844215869904
0.26044607162475586 0.66362696886062622 0.20020724833011627
0.34729960560798645 0.66155391931533813 0.19461244344711304
0.48206397891044617 0.67280876636505127 0.20327821373939514
0.63951009511947632 0.68701767921447754 0.21756497025489807
0.76828503608703613 0.68715232610702515 0.21980489790439606
0.85865628719329834 0.68102008104324341 0.21777164936065674
0.91237455606460571 0.67689627408981323 0.21817448735237122
0.94727331399917603 0.67609906196594238 0.22012890875339508
0.97922134399414062 0.67338097095489502 0.22094163298606873
0.1460186243057251 0.75189065933227539 0.25057768821716309
0.17346122860908508 0.75243383646011353 0.2496478408575058
0.20323285460472107 0.75217944383621216 0.24600225687026978
0.23627179861068726 0.74912697076797485 0.23947356641292572
0.27420002222061157 0.74215507507324219 0.22985681891441345
0.32639926671981812 0.73501878976821899 0.22165791690349579
0.42360684275627136 0.73918676376342773 0.22316113114356995
0.56994473934173584 0.75261819362640381 0.23248812556266785
0.72308510541915894 0.7628515362739563 0.238883376121521
0.84486621618270874 0.76313376426696777 0.2421419769525528
0.91640985012054443 0.76055347919464111 0.24671266973018646
0.9541589617729187 0.76094043254852295 0.25246348977088928
0.98366868495941162 0.75806516408920288 0.25419390201568604
0.1625954657793045 0.80457609891891479 0.26496756076812744
0.19411478936672211 0.80706226825714111 0.26570716500282288
0.22973313927650452 0.8107839822769165 0.26483789086341858
0.2654145359992981 0.81224411725997925 0.2616373598575592
0.29855567216873169 0.80733752250671387 0.25474691390991211
0.33534237742424011 0.7999764084815979 0.24666188657283783
0.40000289678573608 0.7989925742149353 0.2430696040391922
0.51887971162796021 0.81023257970809937 0.24717789888381958
0.6761816143989563 0.82797336578369141 0.25599035620689392
0.81947308778762817 0.83971965312957764 0.2662622332572937
0.9093245267868042 0.84357017278671265 0.27795732021331787
0.95289093255996704 0.84490829706192017 0.28847002983093262
0.98258602619171143 0.83970421552658081 0.29199433326721191
0.17190627753734589 0.84448587894439697 0.27169579267501831
0.20478372275829315 0.84777688980102539 0.27387505769729614
0.24088837206363678 0.85293161869049072 0.27444636821746826
0.27727016806602478 0.85570991039276123 0.27312669157981873
0.31082037091255188 0.85331708192825317 0.26897570490837097
0.34376278519630432 0.84691256284713745 0.2627311646938324
0.39069065451622009 0.84479224681854248 0.25742989778518677
0.48669001460075378 0.85434925556182861 0.2588391900062561
0.63562911748886108 0.87528365850448608 0.2684880793094635
0.7901301383972168 0.89534062147140503 0.28324148058891296
0.89868330955505371 0.90771579742431641 0.30025357007980347
0.95381897687911987 0.91128826141357422 0.31444749236106873
0.98537492752075195 0.9070243239402771 0.32047554850578308
0.17609423398971558 0.88224583864212036 0.27423113584518433
0.2083761990070343 0.88335257768630981 0.27619767189025879
0.24259531497955322 0.88732969760894775 0.2776179313659668
0.27674433588981628 0.88938915729522705 0.27742746472358704
0.30902650952339172 0.88759505748748779 0.27489864826202393
0.34101653099060059 0.88304227590560913 0.270457923412323
0.38367307186126709 0.88153916597366333 0.26605355739593506
0.46856352686882019 0.89009565114974976 0.26715078949928284
0.60757523775100708 0.91045540571212769 0.27692738175392151
0.76438307762145996 0.93420493602752686 0.29374688863754272
0.88547253608703613 0.95190989971160889 0.31279432773590088
0.95211124420166016 0.95984101295471191 0.32905745506286621
0.98825091123580933 0.95906418561935425 0.33804872632026672
0.0046092462725937366 0.029801057651638985 0.21228340268135071
0.095693610608577728 0.03007691353559494 0.20327787101268768
0.25229689478874207 0.027524417266249657 0.16604231297969818
0.38429197669029236 0.03414091095328331 0.14650340378284454
0.48671162128448486 0.050341915339231491 0.15391765534877777
0.57618409395217896 0.069673828780651093 0.15861564874649048
0.66179317235946655 0.086585864424705505 0.16647234559059143
0.73942172527313232 0.096969529986381531 0.17860960960388184
0.79340463876724243 0.10777376592159271 0.1849791556596756
0.83015811443328857 0.094366796314716339 0.18287515640258789
0.86308246850967407 0.081489101052284241 0.1802707314491272
0.89889359474182129 0.092333756387233734 0.18269039690494537
0.93707191944122314 0.12175680696964264 0.19075542688369751
0.0014473410556092858 0.11367911845445633 0.21076564490795135
0.061868347227573395 0.11249362677335739 0.19972547888755798
0.2173621654510498 0.10395872592926025 0.17797097563743591
0.37106227874755859 0.10466226190328598 0.16108721494674683
0.48179376125335693 0.11612953990697861 0.15834201872348785
0.56619787216186523 0.130234494805336 0.15708161890506744
0.64978158473968506 0.15103070437908173 0.16394476592540741
0.73033368587493896 0.17549563944339752 0.17884506285190582
0.78639811277389526 0.19828362762928009 0.18606077134609222
0.82569998502731323 0.19715462625026703 0.18650873005390167
0.86055886745452881 0.19974076747894287 0.18946805596351624
0.897560715675354 0.20666706562042236 0.19123494625091553
0.93584436178207397 0.21674981713294983 0.19442436099052429
0.00031169815338216722 0.20946177840232849 0.20619487762451172
0.03992888331413269 0.20757225155830383 0.19788858294487
0.17180484533309937 0.19819946587085724 0.1858510822057724
0.34807747602462769 0.19083459675312042 0.16769538819789886
0.47719022631645203 0.19533756375312805 0.15881349146366119
0.56291264295578003 0.1988036185503006 0.15630726516246796
0.64490163326263428 0.20821230113506317 0.1618143618106842
0.72503989934921265 0.22635440528392792 0.17462490499019623
0.78532081842422485 0.23724551498889923 0.18188577890396118
0.82603567838668823 0.24033538997173309 0.18458248674869537
0.86101007461547852 0.24668991565704346 0.19015155732631683
0.89799314737319946 0.25278881192207336 0.19396054744720459
0.93656301498413086 0.25782325863838196 0.19678792357444763
0.0089908074587583542 0.29800203442573547 0.2039991170167923
0.043283112347126007 0.29702690243721008 0.19924965500831604
0.13579557836055756 0.29138058423995972 0.19268588721752167
0.29694092273712158 0.28801020979881287 0.17849300801753998
0.45544731616973877 0.29236960411071777 0.16587089002132416
0.55910986661911011 0.29095026850700378 0.16045162081718445
0.64220398664474487 0.28991979360580444 0.16345535218715668
0.72019392251968384 0.29485377669334412 0.17253300547599792
0.78393125534057617 0.29880797863006592 0.17943020164966583
0.829731285572052 0.30058243870735168 0.1835346519947052
0.86523401737213135 0.30303987860679626 0.18891552090644836
0.90041434764862061 0.30534884333610535 0.1935160756111145
0.93860530853271484 0.30756831169128418 0.19695469737052917
0.033104736357927322 0.37649762630462646 0.20182715356349945
0.065493807196617126 0.3756287693977356 0.19712907075881958
0.12153740972280502 0.3685900866985321 0.1911209374666214
0.23749460279941559 0.36594861745834351 0.18274687230587006
0.41704493761062622 0.37718614935874939 0.17487367987632751
0.54702943563461304 0.38116317987442017 0.17404252290725708
0.63770735263824463 0.37945055961608887 0.17607839405536652
