assets/lut/editingcorpw Garden Glamour.cube
LUT_3D_SIZE 6
DOMAIN_MIN 0.0 0.0 0.0
DOMAIN_MAX 1.0 1.0 1.0
0.021129 0.037472 0.019760
0.128729 0.016591 0.005501
0.344569 0.015591 0.005652
0.573929 0.025370 0.008623
0.775868 0.035826 0.012086
0.939277 0.062594 0.021559
0.000000 0.152813 0.016335
0.154129 0.140913 0.004544
0.405113 0.128778 0.008842
0.597027 0.132482 0.010720
0.779292 0.149439 0.016093
0.928371 0.171796 0.024060
0.000000 0.288100 0.032702
0.147587 0.289541 0.033078
0.402272 0.249587 0.009144
0.611978 0.263500 0.010950
0.771652 0.278855 0.015832
0.913003 0.296814 0.024233
0.000000 0.430070 0.063918
0.160752 0.453113 0.068656
0.398555 0.468377 0.068518
0.599250 0.425895 0.044238
0.765223 0.391396 0.024607
0.905056 0.454790 0.037071
0.000235 0.536056 0.080573
0.217410 0.600819 0.108938
0.462239 0.655818 0.135407
0.630737 0.662360 0.129872
0.771958 0.644521 0.111114
0.911336 0.595321 0.079442
0.071033 0.677706 0.117622
0.288848 0.734703 0.151714
0.518681 0.798649 0.191679
0.661796 0.818496 0.194842
0.782667 0.818906 0.181461
0.905907 0.815957 0.173005
0.018655 0.054331 0.131852
0.165604 0.077421 0.146810
0.346263 0.052941 0.142963
0.581890 0.034356 0.147473
0.790582 0.059512 0.156462
0.950738 0.093970 0.167024
0.003721 0.167182 0.144334
0.166874 0.197998 0.177164
0.410492 0.180592 0.156314
0.634804 0.170207 0.158057
0.815769 0.191318 0.161753
0.954036 0.218964 0.170851
0.016366 0.347738 0.172386
0.153096 0.374017 0.201631
0.408744 0.324891 0.171302
0.664200 0.309040 0.166284
0.817463 0.321051 0.166678
0.941912 0.340718 0.175534
0.010449 0.469454 0.189408
0.161911 0.505256 0.225102
0.389118 0.523917 0.237588
0.642623 0.506445 0.224073
0.807540 0.501486 0.202190
0.936714 0.517654 0.205888
0.022644 0.561478 0.199080
0.199704 0.611300 0.248705
0.435685 0.677979 0.295729
0.660776 0.716769 0.310349
0.796445 0.685205 0.283301
0.933952 0.667972 0.266336
0.072642 0.685611 0.235854
0.293123 0.758209 0.308680
0.513435 0.830272 0.369806
0.697741 0.873608 0.390010
0.808450 0.865044 0.367164
0.919583 0.842782 0.344822
0.033098 0.071408 0.251548
0.171594 0.092787 0.273713
0.337324 0.083289 0.289472
0.561602 0.090866 0.336569
0.775065 0.102682 0.356641
0.930703 0.122317 0.352312
0.021364 0.189927 0.271276
0.176472 0.220755 0.306349
0.356072 0.228784 0.329152
0.611733 0.231304 0.357577
0.812494 0.245310 0.364221
0.946017 0.262220 0.360225
0.022505 0.357700 0.308139
0.167710 0.378504 0.341985
0.360084 0.391385 0.372757
0.666508 0.381148 0.371851
0.837011 0.390757 0.368429
0.955086 0.406704 0.371885
0.018482 0.482950 0.318015
0.176586 0.531784 0.353552
0.371579 0.580242 0.406245
0.663086 0.560888 0.405826
0.845907 0.560441 0.401992
0.967160 0.590465 0.427739
0.037827 0.593639 0.330928
0.208868 0.645815 0.373050
0.429551 0.712415 0.442536
0.662972 0.758858 0.482821
0.831131 0.750675 0.489589
0.957732 0.771101 0.499260
0.079098 0.712833 0.370571
0.299922 0.795561 0.442402
0.513957 0.854472 0.509573
0.699907 0.903301 0.550124
0.825853 0.909006 0.546836
0.927641 0.873486 0.531112
0.050227 0.090573 0.377536
0.194771 0.117740 0.413119
0.352254 0.127498 0.454647
0.558723 0.132379 0.480813
0.795198 0.156687 0.525369
0.937925 0.180786 0.549988
0.042075 0.218889 0.408051
0.202471 0.261000 0.456985
0.371327 0.285126 0.505807
0.594655 0.290400 0.525322
0.824011 0.314874 0.559956
0.955575 0.339779 0.586757
0.025827 0.349482 0.420894
0.196624 0.398575 0.480755
0.375446 0.435882 0.532609
0.626143 0.459700 0.573762
0.845857 0.480451 0.597270
0.977618 0.505503 0.616850
0.030693 0.494669 0.445207
0.199445 0.541717 0.499054
0.379966 0.578434 0.545094
0.631750 0.610499 0.598875
0.861874 0.623652 0.608366
0.979566 0.641190 0.617040
0.049261 0.615760 0.462041
0.230716 0.675697 0.521919
0.427227 0.736357 0.579211
0.645836 0.786275 0.640006
0.847198 0.783894 0.641586
0.964151 0.782429 0.648772
0.093369 0.747543 0.503058
0.298284 0.817049 0.573762
0.491541 0.864381 0.624797
0.685817 0.918206 0.676197
0.831177 0.927279 0.679475
0.937115 0.894127 0.661818
0.072850 0.122031 0.526975
0.224375 0.155013 0.573184
0.381760 0.172104 0.627966
0.561770 0.184245 0.661901
0.806274 0.233575 0.711738
0.987255 0.268884 0.743376
0.063675 0.250526 0.550178
0.227616 0.299255 0.607264
0.401555 0.326436 0.665835
0.599830 0.356423 0.713690
0.846662 0.413726 0.770882
1.000000 0.438234 0.784692
0.039886 0.367915 0.550859
0.220476 0.434510 0.625162
0.407517 0.474698 0.682398
0.622359 0.516908 0.735650
0.861835 0.561492 0.790644
1.000000 0.585444 0.802830
0.044926 0.510359 0.570495
0.216420 0.550844 0.626139
0.408999 0.602799 0.683748
0.627687 0.657910 0.744990
0.863510 0.693714 0.798379
0.988976 0.704961 0.797142
0.072124 0.651533 0.596510
0.254697 0.698583 0.658774
0.439834 0.736676 0.709068
0.633949 0.781699 0.757949
0.846829 0.819646 0.806550
0.975006 0.819178 0.791215
0.114377 0.770060 0.619928
0.309757 0.826022 0.690896
0.498971 0.878655 0.742718
0.667145 0.916990 0.784456
0.826613 0.936602 0.810927
0.948337 0.923184 0.797152
0.087308 0.152279 0.678794
0.246805 0.185412 0.730235
0.407235 0.205791 0.787883
0.602079 0.256606 0.862680
0.819201 0.315493 0.921078
1.000000 0.377374 0.958556
0.075762 0.277834 0.692357
0.246108 0.323805 0.750069
0.425464 0.351251 0.808015
0.637920 0.411151 0.882572
0.850902 0.478851 0.947714
1.000000 0.542741 0.999323
0.050108 0.391475 0.682324
0.238232 0.455690 0.758707
0.438809 0.503775 0.825177
0.670417 0.570798 0.895853
0.866174 0.622092 0.949537
1.000000 0.660843 0.986607
0.047069 0.506860 0.688677
0.231856 0.570688 0.755255
0.440444 0.632669 0.824493
0.677107 0.705325 0.892816
0.868901 0.746716 0.939778
1.000000 0.761668 0.957624
0.089806 0.664853 0.715431
0.273444 0.702178 0.778450
0.463731 0.744626 0.826393
0.665237 0.808733 0.874808
0.848234 0.849891 0.926196
0.983570 0.859696 0.940884
0.142786 0.796469 0.741193
0.329585 0.841751 0.806808
0.516162 0.883730 0.855950
0.665734 0.903365 0.881345
0.821618 0.936262 0.916559
0.953258 0.946768 0.931361
