assets/lut/editingcorpw Rustic Radiance.cube
LUT_3D_SIZE 6
DOMAIN_MIN 0.0 0.0 0.0
DOMAIN_MAX 1.0 1.0 1.0
0.132357 0.136873 0.163027
0.228452 0.163509 0.176156
0.380627 0.216062 0.199722
0.566919 0.285533 0.232108
0.756417 0.373315 0.266013
0.938140 0.495644 0.332769
0.201346 0.223649 0.176865
0.246047 0.220138 0.193071
0.416017 0.245472 0.196802
0.586689 0.303616 0.229560
0.766531 0.387290 0.262946
0.942254 0.502873 0.328111
0.331743 0.364483 0.200650
0.376959 0.372094 0.203483
0.429381 0.358111 0.247893
0.607409 0.392401 0.254121
0.808586 0.448120 0.244967
0.966241 0.539153 0.312493
0.458344 0.513091 0.204031
0.491740 0.519262 0.203001
0.570742 0.535516 0.217383
0.622457 0.517379 0.295273
0.775042 0.575317 0.335636
0.968163 0.629438 0.348754
0.590051 0.714797 0.164266
0.607902 0.713957 0.163424
0.674467 0.726736 0.172476
0.758508 0.750610 0.255431
0.808368 0.734239 0.432305
0.924071 0.777169 0.585657
0.706600 0.926543 0.231235
0.724056 0.927245 0.236594
0.792440 0.928533 0.254185
0.885191 0.935992 0.352502
0.977093 0.940191 0.593432
0.987121 0.923003 0.793057
0.164352 0.168276 0.240269
0.252066 0.182333 0.241478
0.370298 0.268338 0.262947
0.553743 0.321217 0.283931
0.745267 0.398036 0.310470
0.924474 0.513158 0.379864
0.198190 0.246205 0.244859
0.268499 0.252296 0.248572
0.405605 0.283641 0.261467
0.575234 0.332126 0.279501
0.756490 0.408842 0.306376
0.930900 0.520396 0.376068
0.323163 0.376307 0.245895
0.374599 0.381190 0.246406
0.436574 0.370422 0.279976
0.614395 0.403496 0.283131
0.801899 0.462034 0.289079
0.959169 0.554166 0.361451
0.453308 0.522801 0.238263
0.488872 0.530381 0.238088
0.572762 0.542770 0.249067
0.624916 0.525257 0.322308
0.777781 0.583376 0.363536
0.970246 0.636622 0.383760
0.582920 0.721660 0.209612
0.603411 0.724074 0.209779
0.675696 0.735268 0.216522
0.757773 0.754478 0.292157
0.807581 0.739305 0.462999
0.925462 0.783727 0.608811
0.697114 0.929466 0.280638
0.716291 0.931414 0.289973
0.784407 0.930901 0.299587
0.882012 0.937304 0.385753
0.975142 0.941488 0.610938
0.986206 0.924724 0.801627
0.230088 0.222464 0.365111
0.293467 0.233488 0.365479
0.435430 0.263936 0.361452
0.574107 0.334728 0.361420
0.710674 0.484264 0.457239
0.886729 0.597119 0.558911
0.264201 0.286009 0.365954
0.311410 0.288519 0.368353
0.440448 0.303302 0.362012
0.569667 0.378465 0.374929
0.722114 0.489233 0.454344
0.894479 0.599762 0.553816
0.297719 0.406194 0.369080
0.339847 0.411364 0.371702
0.461702 0.412534 0.374494
0.619596 0.449533 0.394220
0.772605 0.522838 0.446371
0.927981 0.620374 0.541255
0.399403 0.551053 0.351261
0.445060 0.557005 0.356740
0.563599 0.558535 0.355501
0.630084 0.555805 0.429538
0.787187 0.614408 0.471690
0.973190 0.661086 0.503982
0.533756 0.737368 0.350441
0.559970 0.742852 0.354735
0.646580 0.747732 0.356645
0.747906 0.765520 0.413604
0.801182 0.756318 0.566073
0.927882 0.801438 0.676267
0.642774 0.934435 0.414679
0.664067 0.935971 0.421814
0.739879 0.935571 0.429038
0.863325 0.940136 0.484755
0.966117 0.945849 0.667492
0.983099 0.930986 0.830295
0.280277 0.291331 0.573199
0.329611 0.295374 0.570190
0.465184 0.312635 0.557271
0.618782 0.340477 0.552627
0.764977 0.407527 0.564006
0.868260 0.641474 0.693861
0.295140 0.328859 0.564475
0.340252 0.332975 0.567808
0.469835 0.344558 0.558377
0.621699 0.369332 0.555829
0.758350 0.441077 0.565061
0.855017 0.666371 0.709615
0.326070 0.445074 0.571006
0.365148 0.447818 0.575362
0.482731 0.446073 0.570336
0.628637 0.467489 0.565992
0.739792 0.574741 0.613436
0.849148 0.736041 0.760547
0.357089 0.586795 0.575057
0.389797 0.591713 0.579470
0.492791 0.595669 0.576719
0.628508 0.608328 0.598940
0.776458 0.663260 0.643576
0.918261 0.738225 0.721863
0.352090 0.766744 0.548310
0.384154 0.772015 0.550254
0.536038 0.770041 0.582575
0.707140 0.777786 0.584903
0.786366 0.782573 0.703681
0.936355 0.828435 0.769537
0.490062 0.943658 0.607806
0.518994 0.944819 0.609757
0.626671 0.946222 0.619593
0.796280 0.948020 0.640821
0.944413 0.952553 0.749918
0.979657 0.942724 0.874418
0.326506 0.374920 0.810806
0.368955 0.378173 0.810533
0.496343 0.393682 0.808206
0.642451 0.430743 0.802100
0.779103 0.476217 0.797581
0.915160 0.558288 0.802658
0.336487 0.404662 0.810886
0.378293 0.408874 0.813143
0.499608 0.421579 0.810283
0.642030 0.454003 0.802002
0.775250 0.492961 0.793863
0.914444 0.575302 0.804545
0.368076 0.506985 0.811287
0.389076 0.502548 0.814017
0.500523 0.511657 0.813761
0.641693 0.540494 0.808906
0.776736 0.571760 0.803107
0.910431 0.646358 0.814508
0.373656 0.645418 0.814183
0.403556 0.650472 0.818667
0.490890 0.652371 0.818940
0.623586 0.653567 0.816016
0.769488 0.676454 0.807160
0.890892 0.786818 0.851553
0.368735 0.799334 0.823249
0.395759 0.803007 0.826154
0.482638 0.807354 0.827433
0.615582 0.813760 0.828001
0.777593 0.824152 0.842896
0.936498 0.877194 0.886763
0.421338 0.963061 0.840592
0.446957 0.964446 0.841721
0.520643 0.965866 0.838515
0.649826 0.966006 0.834876
0.894554 0.961844 0.851724
0.979437 0.963177 0.932238
0.516686 0.578027 0.976623
0.533861 0.582031 0.976281
0.598352 0.599902 0.974987
0.702541 0.637928 0.971472
0.825053 0.689375 0.966357
0.948913 0.735805 0.964721
0.517149 0.592877 0.975048
0.535037 0.597870 0.975099
0.598081 0.613570 0.973868
0.701085 0.648233 0.970358
0.822843 0.695534 0.965070
0.947717 0.741695 0.964007
0.522582 0.654914 0.974682
0.538848 0.658020 0.974477
0.600849 0.671335 0.973626
0.703590 0.699413 0.971363
0.826687 0.740193 0.967038
0.950225 0.778951 0.966070
0.522649 0.750429 0.972601
0.537348 0.751580 0.972871
0.592067 0.753807 0.972851
0.692245 0.766279 0.972547
0.825791 0.799230 0.969231
0.954186 0.833188 0.968951
0.563726 0.871305 0.975549
0.576012 0.871977 0.975654
0.623644 0.874076 0.975900
0.708669 0.877904 0.976275
0.830127 0.883827 0.976799
0.966430 0.908538 0.976379
0.660578 0.983948 0.983093
0.668610 0.984027 0.983081
0.707039 0.985138 0.983691
0.782431 0.987292 0.985083
0.893248 0.990131 0.987732
0.997009 0.998291 0.998596
