assets/lut/editingcorp boyado.cube
# Created by: G'MIC (https://gmic.eu)
TITLE "boyado"
# LUT size
LUT_3D_SIZE 13
# Data domain
DOMAIN_MIN 0.0 0.0 0.0
DOMAIN_MAX 1.0 1.0 1.0
# LUT data points
0.013826661743223667 0.018182672560214996 0.010980509221553802
0.074445627629756927 0.02172636054456234 0.015515659935772419
0.19127456843852997 0.017063889652490616 0.014046837575733662
0.33268734812736511 0.014900910668075085 0.0128529267385602
0.4674815833568573 0.013312201015651226 0.013101466000080109
0.59181898832321167 0.011042067781090736 0.011347198858857155
0.70636773109436035 0.012575710192322731 0.0095655405893921852
0.7973334789276123 0.015389850363135338 0.01093736570328474
0.85408055782318115 0.012139922939240932 0.0089612472802400589
0.88946992158889771 0.0070717008784413338 0.0047341291792690754
0.92182236909866333 0.0037838057614862919 0.002051439369097352
0.95872664451599121 0.0025926926173269749 0.0014705882640555501
0.99476057291030884 0.003152002114802599 0.0017342959763482213
0.0111733078956604 0.067262984812259674 0.024727810174226761
0.057411957532167435 0.072007559239864349 0.020708195865154266
0.16838081181049347 0.068495012819766998 0.014430984854698181
0.31418582797050476 0.06653701514005661 0.012316176667809486
0.45242083072662354 0.061796598136425018 0.012386186979711056
0.57531678676605225 0.053433824330568314 0.01229197159409523
0.69054043292999268 0.05218810960650444 0.010999776422977448
0.78359651565551758 0.051544953137636185 0.010031546466052532
0.84487628936767578 0.045854426920413971 0.0083399303257465363
0.88396459817886353 0.038232512772083282 0.005123392678797245
0.91790509223937988 0.033574018627405167 0.0029857561457902193
0.95540100336074829 0.032267492264509201 0.0029981874395161867
0.99289870262145996 0.035674691200256348 0.0044467700645327568
0.012115658260881901 0.13279494643211365 0.044814750552177429
0.048830579966306686 0.13778291642665863 0.035110145807266235
0.140518918633461 0.14183954894542694 0.01865093782544136
0.28888487815856934 0.14173534512519836 0.012270265258848667
0.43701520562171936 0.13462598621845245 0.01211649551987648
0.56536847352981567 0.12380975484848022 0.011746799573302269
0.68079310655593872 0.1159961149096489 0.01046453695744276
0.77402973175048828 0.10840150713920593 0.0091197742149233818
0.83766305446624756 0.097273014485836029 0.0081268008798360825
0.87945997714996338 0.086709819734096527 0.0069964542053639889
0.91511476039886475 0.082496359944343567 0.0054387860000133514
0.95319408178329468 0.082618087530136108 0.0067824716679751873
0.99167263507843018 0.087366290390491486 0.0097160041332244873
0.01375102624297142 0.21019655466079712 0.057388022541999817
0.042636390775442123 0.21361567080020905 0.047934513539075851
0.10821694880723953 0.22405770421028137 0.025810541585087776
0.2535851001739502 0.229225754737854 0.01469847746193409
0.41354921460151672 0.22614884376525879 0.011080064810812473
0.5539136528968811 0.21885104477405548 0.0092666624113917351
0.67584705352783203 0.20713147521018982 0.0085564106702804565
0.77086925506591797 0.19237536191940308 0.0080504920333623886
0.83710706233978271 0.17658305168151855 0.0077205882407724857
0.88114547729492188 0.16401983797550201 0.0077411876991391182
0.9167749285697937 0.15951161086559296 0.0090409368276596069
0.95340979099273682 0.15955387055873871 0.011625686660408974
0.99096304178237915 0.16397289931774139 0.013361822813749313
0.0093388576060533524 0.29892325401306152 0.056300248950719833
0.035692475736141205 0.2984677255153656 0.050980139523744583
0.091455332934856415 0.30641260743141174 0.034973129630088806
0.21673278510570526 0.31706422567367554 0.021119151264429092
0.37692120671272278 0.3257148265838623 0.012675236910581589
0.53132158517837524 0.32834365963935852 0.0080464081838726997
0.664969801902771 0.31769189238548279 0.0080460039898753166
0.7679181694984436 0.29847943782806396 0.0094917742535471916
0.83977800607681274 0.28018158674240112 0.0092113716527819633
0.88750380277633667 0.26757574081420898 0.010179691947996616
0.92241948843002319 0.26196116209030151 0.013393745757639408
0.95575195550918579 0.26071316003799438 0.016442617401480675
0.99101299047470093 0.26371967792510986 0.014522298239171505
0.0093519324436783791 0.39640635251998901 0.053006265312433243
0.035944949835538864 0.39219027757644653 0.050766393542289734
0.088138699531555176 0.39412394165992737 0.042875595390796661
0.19179041683673859 0.40545818209648132 0.031345352530479431
0.34052297472953796 0.42714241147041321 0.018444135785102844
0.50204724073410034 0.44531309604644775 0.0090813133865594864
0.64696663618087769 0.44094356894493103 0.0086964629590511322
0.76047009229660034 0.4197273850440979 0.011724150739610195
0.84148067235946655 0.39988306164741516 0.011584293097257614
0.89455240964889526 0.38646712899208069 0.011925775557756424
0.93028992414474487 0.37993675470352173 0.015993723645806313
0.96098244190216064 0.37715262174606323 0.018645074218511581
0.99267607927322388 0.37725818157196045 0.014681288972496986
0.019143003970384598 0.49911165237426758 0.054796226322650909
0.045530866831541061 0.49279320240020752 0.053699195384979248
0.090577639639377594 0.48852643370628357 0.050785738974809647
0.17555084824562073 0.49606320261955261 0.043361183255910873
0.31019017100334167 0.52513128519058228 0.028613550588488579
0.47108429670333862 0.56061583757400513 0.013902192935347557
0.62222546339035034 0.56778901815414429 0.009481482207775116
0.7462952733039856 0.54952090978622437 0.011266999877989292
0.83927762508392334 0.52850323915481567 0.011837588623166084
0.90006512403488159 0.51302421092987061 0.013398563489317894
0.93824213743209839 0.50441581010818481 0.016746850684285164
0.96725082397460938 0.50001639127731323 0.018213219940662384
0.99447143077850342 0.49771562218666077 0.014237377792596817
0.03640453889966011 0.60399222373962402 0.059666696935892105
0.063098520040512085 0.59834879636764526 0.058792188763618469
0.10260159522294998 0.59170335531234741 0.057723309844732285
0.17267149686813354 0.59385395050048828 0.053178869187831879
0.2861657440662384 0.61607605218887329 0.040934767574071884
0.43225595355033875 0.65071046352386475 0.024821069091558456
0.58407872915267944 0.67404848337173462 0.014128007926046848
0.72052103281021118 0.67300248146057129 0.01143276784569025
0.82898521423339844 0.65536868572235107 0.012511518783867359
0.89972764253616333 0.63882237672805786 0.015092438086867332
0.94161295890808105 0.62984520196914673 0.01787281408905983
0.97055089473724365 0.6257818341255188 0.018641408532857895
0.99531030654907227 0.62260985374450684 0.014971325173974037
0.053704608231782913 0.70432496070861816 0.063294306397438049
0.082294449210166931 0.70144009590148926 0.063550971448421478
0.11929728090763092 0.69600540399551392 0.063770458102226257
0.17644266784191132 0.69264900684356689 0.061648648232221603
0.26580697298049927 0.69935989379882812 0.053584665060043335
0.38972121477127075 0.72187966108322144 0.03909606859087944
0.53661882877349854 0.75697928667068481 0.023228185251355171
0.68175691366195679 0.77742892503738403 0.013592933304607868
0.80396968126296997 0.769267737865448 0.013379429467022419
0.88829946517944336 0.7546837329864502 0.016558747738599777
0.93920964002609253 0.74686241149902344 0.019215947017073631
0.97060924768447876 0.74426627159118652 0.019581260159611702
0.99493288993835449 0.74237573146820068 0.015706500038504601
0.06268947571516037 0.78744572401046753 0.066881172358989716
0.093856737017631531 0.78926301002502441 0.068722352385520935
0.12975397706031799 0.78791391849517822 0.069658897817134857
0.17549729347229004 0.78097790479660034 0.069559909403324127
0.24581025540828705 0.77757138013839722 0.064771346747875214
0.35201787948608398 0.79163253307342529 0.052230279892683029
0.49028864502906799 0.82462286949157715 0.034965798258781433
0.63813436031341553 0.85205972194671631 0.021046865731477737
0.77116215229034424 0.85480344295501709 0.017100315541028976
0.87090754508972168 0.8475077748298645 0.018528882414102554
0.93475472927093506 0.84329688549041748 0.019385498017072678
0.97305130958557129 0.84334748983383179 0.019264191389083862
0.99729049205780029 0.84174162149429321 0.014669246040284634
0.06096222996711731 0.85044080018997192 0.070782728493213654
0.092188350856304169 0.85476565361022949 0.074003718793392181
0.12392833828926086 0.85523766279220581 0.076000720262527466
0.16155533492565155 0.84896039962768555 0.076785564422607422
0.21976988017559052 0.84390419721603394 0.073943778872489929
0.3147026002407074 0.85201197862625122 0.063706129789352417
0.44662004709243774 0.87515044212341309 0.047681368887424469
0.59786230325698853 0.89867502450942993 0.032414499670267105
0.74243277311325073 0.91008520126342773 0.022902799770236015
0.85716795921325684 0.91263186931610107 0.019340381026268005
0.93305301666259766 0.91423243284225464 0.018647527322173119
0.97913086414337158 0.9167446494102478 0.016524147242307663
0.99973577260971069 0.91620111465454102 0.011321782134473324
0.051270235329866409 0.89748638868331909 0.072138302028179169
0.079678282141685486 0.90086102485656738 0.076355904340744019
0.10619370639324188 0.90087622404098511 0.07897600531578064
0.1381007581949234 0.89638012647628784 0.080867111682891846
0.18892009556293488 0.89236527681350708 0.079011701047420502
0.27567467093467712 0.89745771884918213 0.070963270962238312
0.40588781237602234 0.91384702920913696 0.055779878050088882
0.56209248304367065 0.93378591537475586 0.03913554921746254
0.71712350845336914 0.94866377115249634 0.025426048785448074
0.84536373615264893 0.95779693126678467 0.017092341557145119
0.93001574277877808 0.96520340442657471 0.013438206166028976
0.98328375816345215 0.97126036882400513 0.010644231922924519
1 0.97352725267410278 0.0060554053634405136
0.036823377013206482 0.93654823303222656 0.06719575822353363
0.063447959721088409 0.93814504146575928 0.071864485740661621
0.088058367371559143 0.93722587823867798 0.074842058122158051
0.11784026026725769 0.93401378393173218 0.076623477041721344
0.1647026389837265 0.93113213777542114 0.075853236019611359
0.24663999676704407 0.93444180488586426 0.069230712950229645
0.3754551112651825 0.94793045520782471 0.054665122181177139
0.53216409683227539 0.96600520610809326 0.036994785070419312
0.6894909143447876 0.9822467565536499 0.021274790167808533
0.82288718223571777 0.99262082576751709 0.011154653504490852
0.91672646999359131 0.99754995107650757 0.006237449124455452
0.97861897945404053 0.99972426891326904 0.0036458931863307953
1 1 0.0012401057174429297
0.014474846422672272 0.018199950456619263 0.053761202841997147
0.068616174161434174 0.017954165115952492 0.067086100578308105
0.18094314634799957 0.018506413325667381 0.067596703767776489
0.32608899474143982 0.018718225881457329 0.064772240817546844
0.46494948863983154 0.017625471577048302 0.064971297979354858
0.59233391284942627 0.013114704750478268 0.061642173677682877
0.70823174715042114 0.012116151861846447 0.053807906806468964
0.79817330837249756 0.013646967709064484 0.053191643208265305
0.85241848230361938 0.012513702735304832 0.05205884575843811
0.8830597996711731 0.010020610876381397 0.044652018696069717
0.91345995664596558 0.007196089718490839 0.039068020880222321
0.951649010181427 0.0060783983208239079 0.038020338863134384
0.99121922254562378 0.0073218699544668198 0.040031790733337402
0.010927881114184856 0.071116477251052856 0.068032540380954742
0.055358301848173141 0.072284013032913208 0.068935155868530273
0.16315723955631256 0.071293339133262634 0.063266709446907043
0.31133320927619934 0.069683969020843506 0.060054942965507507
0.45303082466125488 0.065078675746917725 0.060917917639017105
0.57856971025466919 0.055427372455596924 0.060068331658840179
0.6931336522102356 0.049931053072214127 0.055505521595478058
0.78647416830062866 0.049152523279190063 0.050881419330835342
0.84660911560058594 0.045976601541042328 0.046376381069421768
0.88230735063552856 0.040858160704374313 0.040190182626247406
0.91294795274734497 0.037181045860052109 0.036409415304660797
0.94989556074142456 0.037121251225471497 0.038117814809083939
0.98994773626327515 0.041484173387289047 0.043659582734107971
0.0103199677541852 0.13406260311603546 0.084836669266223907
0.047218561172485352 0.13614080846309662 0.078289628028869629
0.13893039524555206 0.14001941680908203 0.062434639781713486
0.28755590319633484 0.1415175199508667 0.055685423314571381
0.43889746069908142 0.13523456454277039 0.055903550237417221
0.56811857223510742 0.123140849173069 0.054144345223903656
0.68292975425720215 0.1128993034362793 0.049904212355613708
0.77825343608856201 0.10608842223882675 0.044191829860210419
0.84325569868087769 0.098074175417423248 0.038918141275644302
0.88237112760543823 0.089454025030136108 0.035040311515331268
0.91310644149780273 0.084902368485927582 0.033553536981344223
0.94919782876968384 0.085456550121307373 0.038805734366178513
0.98898804187774658 0.091212056577205658 0.046892590820789337
0.012788286432623863 0.20742715895175934 0.093420363962650299
0.043813742697238922 0.20823624730110168 0.088222861289978027
0.10987710207700729 0.22054105997085571 0.067747496068477631
0.25380399823188782 0.22875086963176727 0.05518772080540657
0.41548845171928406 0.22704213857650757 0.049448546022176743
0.55536550283432007 0.21755366027355194 0.04335397481918335
0.67628920078277588 0.2038077712059021 0.03908831998705864
0.77537757158279419 0.19027717411518097 0.036722652614116669
0.8439289927482605 0.17693907022476196 0.033576484769582748
0.88536918163299561 0.16568492352962494 0.031917884945869446
0.91640371084213257 0.16025969386100769 0.033094998449087143
0.95029139518737793 0.1600760817527771 0.039412509649991989
0.98874551057815552 0.16514800488948822 0.045823998749256134
0.01117178238928318 0.29484963417053223 0.088896326720714569
0.041328728199005127 0.29136872291564941 0.088886961340904236
0.098836742341518402 0.3014407753944397 0.074930839240550995
0.22133542597293854 0.31599247455596924 0.058448221534490585
0.37892067432403564 0.32700356841087341 0.04510185495018959
0.53171807527542114 0.32767036557197571 0.035594161599874496
0.66554099321365356 0.31517249345779419 0.034483097493648529
0.77224946022033691 0.29628318548202515 0.037613362073898315
0.84561252593994141 0.27905604243278503 0.035100389271974564
0.89060759544372559 0.26731327176094055 0.032434917986392975
0.92206686735153198 0.26127070188522339 0.035505946725606918
0.95393747091293335 0.25992909073829651 0.04152139276266098
0.99045282602310181 0.26248049736022949 0.043253596872091293
0.012217532843351364 0.39334553480148315 0.082331232726573944
0.039676263928413391 0.38712084293365479 0.082898430526256561
0.091547183692455292 0.38958871364593506 0.076955772936344147
0.19293969869613647 0.40389764308929443 0.064092583954334259
0.34017831087112427 0.4268854558467865 0.047124721109867096
0.50106561183929443 0.44349521398544312 0.034690812230110168
0.64792323112487793 0.43769997358322144 0.036417793482542038
0.76547122001647949 0.41676050424575806 0.043263290077447891
0.84607440233230591 0.39795652031898499 0.039239156991243362
0.89707159996032715 0.38538220524787903 0.034927953034639359
0.93008899688720703 0.37841519713401794 0.038511358201503754
0.95950090885162354 0.37544509768486023 0.043674007058143616
0.99199444055557251 0.37490874528884888 0.043144781142473221
0.023467898368835449 0.49649658799171448 0.084609150886535645
0.04933103546500206 0.48992842435836792 0.082659535109996796
0.092130027711391449 0.48602044582366943 0.080184385180473328
0.17438676953315735 0.49484306573867798 0.072717718780040741
0.30645555257797241 0.5230218768119812 0.056087598204612732
0.4661041796207428 0.55359578132629395 0.040335141122341156
0.62074470520019531 0.56181305646896362 0.037704993039369583
0.74935644865036011 0.54770231246948242 0.042331065982580185
0.8425905704498291 0.52770227193832397 0.041572540998458862
0.90162032842636108 0.51198679208755493 0.039450731128454208
0.93808305263519287 0.50261175632476807 0.041803143918514252
0.96648108959197998 0.4977295994758606 0.046130310744047165
0.99424254894256592 0.49581018090248108 0.046180620789527893
0.040879372507333755 0.60181063413619995 0.090320199728012085
0.066838853061199188 0.59725236892700195 0.086413152515888214
0.10287019610404968 0.59027349948883057 0.085828222334384918
0.16936670243740082 0.5923193097114563 0.082498379051685333
0.28053301572799683 0.61318778991699219 0.070362061262130737
0.42728522419929504 0.64611983299255371 0.05388953909277916
0.58237528800964355 0.67160743474960327 0.044349938631057739
0.7221604585647583 0.67538917064666748 0.043562676757574081
0.82993930578231812 0.65900158882141113 0.044785130769014359
0.90031951665878296 0.64011770486831665 0.04519214853644371
0.94150888919830322 0.6289365291595459 0.046801503747701645
0.97018283605575562 0.62363773584365845 0.050006356090307236
0.99473971128463745 0.62082195281982422 0.049540292471647263
0.056833755224943161 0.70309293270111084 0.093362040817737579
0.084207929670810699 0.70037162303924561 0.091888204216957092
0.11756347864866257 0.69427341222763062 0.092679284512996674
0.17110501229763031 0.68981325626373291 0.092750564217567444
0.25962343811988831 0.69739258289337158 0.086346030235290527
0.38681593537330627 0.72224521636962891 0.07161751389503479
0.5365755558013916 0.75800299644470215 0.057172603905200958
0.68275517225265503 0.78061091899871826 0.049952145665884018
0.80392807722091675 0.77369523048400879 0.048580709844827652
0.88798540830612183 0.75750172138214111 0.049419030547142029
0.93836933374404907 0.74738293886184692 0.051242932677268982
0.96977639198303223 0.74341946840286255 0.052984453737735748
0.99479198455810547 0.74013763666152954 0.050845950841903687
0.066218510270118713 0.78679805994033813 0.097336575388908386
0.095146983861923218 0.78783535957336426 0.09857737272977829
0.12635095417499542 0.78472107648849487 0.10079123079776764
0.16960239410400391 0.7781146764755249 0.10220099240541458
0.23955442011356354 0.77628415822982788 0.098998501896858215
0.34832644462585449 0.79119378328323364 0.087400235235691071
0.48863375186920166 0.82318317890167236 0.071360446512699127
0.63761091232299805 0.85064446926116943 0.059096809476613998
0.77047765254974365 0.85590803623199463 0.053690578788518906
0.87001556158065796 0.84965270757675171 0.053285650908946991
0.93314880132675171 0.84505122900009155 0.055248454213142395
0.97105932235717773 0.84345781803131104 0.056035030633211136
0.9967581033706665 0.84035861492156982 0.051202826201915741
0.067376032471656799 0.84794652462005615 0.10385622829198837
0.095779925584793091 0.85125064849853516 0.10667127370834351
0.12317223846912384 0.85116863250732422 0.10872961580753326
0.1577271968126297 0.84599143266677856 0.11040665954351425
0.21423453092575073 0.84163230657577515 0.10862969607114792
0.30916202068328857 0.85003167390823364 0.099591843783855438
0.4424947202205658 0.87265849113464355 0.084531180560588837
0.59475255012512207 0.89645934104919434 0.070022702217102051
0.73976880311965942 0.90954864025115967 0.060736965388059616
0.85500282049179077 0.91372132301330566 0.05733470618724823
0.93091279268264771 0.91526347398757935 0.057696741074323654
0.97679561376571655 0.91709524393081665 0.056718729436397552
0.99937063455581665 0.9161795973777771 0.050010740756988525
0.060966134071350098 0.89186137914657593 0.10806422680616379
0.086889766156673431 0.89474892616271973 0.11130655556917191
0.109646275639534 0.89594823122024536 0.11273275315761566
0.13709202408790588 0.89282882213592529 0.11415953934192657
0.18482053279876709 0.89022845029830933 0.11352343112230301
0.2713836133480072 0.89503616094589233 0.10624151676893234
0.40199735760688782 0.91111451387405396 0.091761477291584015
0.55874049663543701 0.9312596321105957 0.075678668916225433
0.71407485008239746 0.94715505838394165 0.063445448875427246
0.84259015321731567 0.95736414194107056 0.056031994521617889
0.92976349592208862 0.96472597122192383 0.053411729633808136
0.98275017738342285 0.9704936146736145 0.051240060478448868
1 0.97288691997528076 0.043599206954240799
0.047880537807941437 0.92931467294692993 0.10352198034524918
0.072557456791400909 0.93029612302780151 0.10647530853748322
0.093704938888549805 0.93073469400405884 0.10779893398284912
0.11905571073293686 0.92900103330612183 0.10901300609111786
0.163538858294487 0.92777764797210693 0.10861056298017502
0.24631468951702118 0.93210834264755249 0.10203073173761368
0.37443608045578003 0.94536632299423218 0.087958559393882751
0.53131753206253052 0.96317887306213379 0.071362875401973724
0.68983733654022217 0.97985923290252686 0.057266745716333389
0.8247523307800293 0.99141991138458252 0.047252099961042404
0.92090481519699097 0.99708718061447144 0.041730348020792007
0.98130828142166138 0.99936646223068237 0.037925105541944504
1 1 0.029788477346301079
0.0089915255084633827 0.02340514212846756 0.1229318380355835
0.051950089633464813 0.021970592439174652 0.13971205055713654
0.15703260898590088 0.021583093330264091 0.14262239634990692
0.30198800563812256 0.021695798262953758 0.1369846910238266
0.44558629393577576 0.019925989210605621 0.13696128129959106
0.57818025350570679 0.015289261937141418 0.13965681195259094
0.69899743795394897 0.013154751621186733 0.13616374135017395
0.79362159967422485 0.013068763539195061 0.1316690593957901
0.8477557897567749 0.011925836093723774 0.12495078146457672
0.87654668092727661 0.010429741814732552 0.11499007046222687
0.90641766786575317 0.0091569637879729271 0.10937336832284927
0.94590109586715698 0.0097367828711867332 0.10888256132602692
0.98805743455886841 0.012920544482767582 0.1105596199631691
0.010175083763897419 0.080169543623924255 0.13012959063053131
0.048172641545534134 0.080022357404232025 0.137811079621315
0.15031740069389343 0.077480897307395935 0.13641723990440369
0.29611411690711975 0.074458569288253784 0.13202862441539764
0.43944475054740906 0.069484308362007141 0.13188573718070984
0.56839632987976074 0.059426236897706985 0.1329718679189682
0.68500751256942749 0.051414743065834045 0.12980169057846069
0.7818949818611145 0.048967219889163971 0.12189090251922607
0.84381580352783203 0.046204958111047745 0.11318740993738174
0.87894803285598755 0.041736289858818054 0.10517896711826324
0.9086342453956604 0.03911629319190979 0.10092651098966599
0.94542378187179565 0.04188334196805954 0.10328394919633865
0.98695319890975952 0.048466239124536514 0.10897774994373322
0.010578664019703865 0.13928668200969696 0.14096729457378387
0.045585870742797852 0.14032885432243347 0.14199088513851166
0.13642852008342743 0.14220665395259857 0.1338828057050705
0.28346097469329834 0.14337317645549774 0.12832117080688477
0.43232187628746033 0.1391303688287735 0.12574282288551331
0.56142520904541016 0.12695054709911346 0.12306765466928482
0.67625135183334351 0.11417282372713089 0.11768902093172073
0.77504676580429077 0.10745816677808762 0.10742150247097015
0.84319090843200684 0.10032001882791519 0.097720682621002197
0.88178282976150513 0.0915708988904953 0.091876193881034851
0.91065388917922974 0.087593615055084229 0.088730394840240479
0.94594258069992065 0.089745491743087769 0.094837680459022522
0.98651039600372314 0.097502283751964569 0.10358916968107224
0.0093581555411219597 0.20724985003471375 0.14368626475334167
0.038804519921541214 0.20816193521022797 0.14369165897369385
0.10672620683908463 0.21841944754123688 0.13405267894268036
0.25122511386871338 0.22845962643623352 0.1240108385682106
0.41263666749000549 0.23090179264545441 0.1147429347038269
0.55184227228164673 0.22125148773193359 0.10602875053882599
0.67154067754745483 0.20591668784618378 0.098139867186546326
0.77375054359436035 0.19253711402416229 0.091979280114173889
0.84523135423660278 0.18053221702575684 0.084053695201873779
0.88610023260116577 0.16879887878894806 0.079559564590454102
0.91543596982955933 0.16221845149993896 0.078572653234004974
0.9494594931602478 0.16249553859233856 0.084966965019702911
0.98780447244644165 0.16883961856365204 0.09257100522518158
0.0081642903387546539 0.2915286123752594 0.13542608916759491
0.036454025655984879 0.28825616836547852 0.13850685954093933
