assets/lut/editingcorp soldi.cube
# Created by: G'MIC (https://gmic.eu)
TITLE "soldi"
# LUT size
LUT_3D_SIZE 13
# Data domain
DOMAIN_MIN 0.0 0.0 0.0
DOMAIN_MAX 1.0 1.0 1.0
# LUT data points
0.0072215511463582516 0.0048209694214165211 0.0087769599631428719
0.063311636447906494 0.012480657547712326 0.0057521597482264042
0.20724937319755554 0.033292148262262344 0.0064710578881204128
0.35461670160293579 0.047698061913251877 0.0088891871273517609
0.47612544894218445 0.060257181525230408 0.0073818881064653397
0.58551687002182007 0.046389754861593246 0.0041481917724013329
0.69406723976135254 0.043192427605390549 0.0026206222828477621
0.78465139865875244 0.052352216094732285 0.0033889771439135075
0.83000743389129639 0.043989997357130051 0.0031860501039773226
0.84424901008605957 0.029563365504145622 0.0018293493194505572
0.8563196063041687 0.017546501010656357 0.00020123650028835982
0.87766396999359131 0.0088782366365194321 0
0.907501220703125 0.0042583541944622993 5.834242983837612e-05
0.0067860172130167484 0.047814417630434036 0.0054077445529401302
0.060592036694288254 0.0554962158203125 0.0070915822871029377
0.18618182837963104 0.077819287776947021 0.0057223900221288204
0.33630043268203735 0.096262894570827484 0.005120385903865099
0.46706783771514893 0.10575660318136215 0.0040931552648544312
0.57517558336257935 0.09638870507478714 0.0037233240436762571
0.67804491519927979 0.087396956980228424 0.0045023299753665924
0.77223646640777588 0.085426673293113708 0.0037892211694270372
0.82622867822647095 0.074007757008075714 0.0041926517151296139
0.8429187536239624 0.060571737587451935 0.0039521311409771442
0.85484522581100464 0.049839243292808533 0.0015304415719583631
0.8761405348777771 0.041892390698194504 0.00058964750496670604
0.90748739242553711 0.036067739129066467 0.0010926938848569989
0.00010896570893237367 0.11395781487226486 0.0041379891335964203
0.029339823871850967 0.11881673336029053 0.0064026177860796452
0.14610210061073303 0.14047957956790924 0.0065313153900206089
0.30645400285720825 0.16530752182006836 0.0033418843522667885
0.45237687230110168 0.17732468247413635 0.0015776690561324358
0.56689751148223877 0.16662198305130005 0.003687750082463026
0.67222839593887329 0.14860257506370544 0.0065232519991695881
0.77424472570419312 0.13461174070835114 0.0046968944370746613
0.83948838710784912 0.11885817348957062 0.0036884082946926355
0.85898971557617188 0.10675694793462753 0.0042861937545239925
0.86552435159683228 0.09850553423166275 0.0034521513152867556
0.8821861743927002 0.091704770922660828 0.0030324000399559736
0.91316479444503784 0.087190873920917511 0.0045002656988799572
0 0.19716313481330872 0.0075101214461028576
0.017123129218816757 0.19707927107810974 0.0097303353250026703
0.11943057179450989 0.21782311797142029 0.0077128391712903976
0.27611300349235535 0.24783362448215485 0.0021113527473062277
0.43144160509109497 0.26645499467849731 6.247127748792991e-05
0.5596994161605835 0.26159241795539856 0.0010446734959259629
0.67520618438720703 0.24292342364788055 0.00293757114559412
0.7839018702507019 0.21745315194129944 0.0020041223615407944
0.85796988010406494 0.19416344165802002 0.0015820522094145417
0.88201785087585449 0.18216089904308319 0.0025822508614510298
0.88621300458908081 0.17581284046173096 0.0031422933097928762
0.89878541231155396 0.16958270967006683 0.0045135496184229851
0.92884212732315063 0.16642768681049347 0.006754647009074688
0.013739671558141708 0.30228498578071594 0.020583746954798698
0.032057445496320724 0.29945141077041626 0.021310649812221527
0.11086364090442657 0.31260928511619568 0.016172312200069427
0.25164759159088135 0.34007617831230164 0.0052248039282858372
0.40844079852104187 0.36277639865875244 3.4526750823715702e-05
0.54483473300933838 0.36447077989578247 0.00030523561872541904
0.66784918308258057 0.34891790151596069 0.0013632531045004725
0.78249257802963257 0.32075822353363037 0.0010981840314343572
0.86656302213668823 0.29313606023788452 0.0012696209596469998
0.901347815990448 0.27875566482543945 0.0025430717505514622
0.90997958183288574 0.27303814888000488 0.003982963040471077
0.92365694046020508 0.26720216870307922 0.0061333747580647469
0.95187503099441528 0.26410964131355286 0.0088510848581790924
0.073084287345409393 0.41976535320281982 0.038486644625663757
0.077838137745857239 0.41389203071594238 0.038872320204973221
0.12474306672811508 0.41630735993385315 0.031238377094268799
0.24581468105316162 0.43692243099212646 0.013023062609136105
0.39377745985984802 0.45972439646720886 0.00064588058739900589
0.52675032615661621 0.4660244882106781 0.00023930867610033602
0.64989417791366577 0.45544761419296265 0.0025300567504018545
0.77066850662231445 0.42859563231468201 0.0038672802038490772
0.86992979049682617 0.39789518713951111 0.003626460675150156
0.91966342926025391 0.37908673286437988 0.0046367421746253967
0.93340021371841431 0.37232193350791931 0.0060537299141287804
0.9470941424369812 0.3680938184261322 0.0079727321863174438
0.97190606594085693 0.36578267812728882 0.0099233286455273628
0.15447390079498291 0.53433132171630859 0.050820518285036087
0.15955255925655365 0.52870321273803711 0.050757136195898056
0.18457745015621185 0.52444100379943848 0.043519128113985062
0.27130797505378723 0.53421580791473389 0.022682802751660347
0.39500811696052551 0.55062496662139893 0.0029585594311356544
0.515433669090271 0.56168454885482788 0.00032507203286513686
0.63042104244232178 0.55892652273178101 0.005295861978083849
0.75146424770355225 0.53747773170471191 0.0082340016961097717
0.86333703994750977 0.50572663545608521 0.0073888888582587242
0.93264627456665039 0.48130032420158386 0.0062670987099409103
0.9535406231880188 0.47097936272621155 0.0068553849123418331
0.96428513526916504 0.46800404787063599 0.008791784755885601
0.98541879653930664 0.46697628498077393 0.010368167422711849
0.2346796840429306 0.63835543394088745 0.061608705669641495
0.25004118680953979 0.63576662540435791 0.061331775039434433
0.2622978687286377 0.62886166572570801 0.058262605220079422
0.31161949038505554 0.62833023071289062 0.041728630661964417
0.40771672129631042 0.63756400346755981 0.015797274187207222
0.51757717132568359 0.64846897125244141 0.0034791834186762571
0.62694483995437622 0.65161418914794922 0.0061466144397854805
0.73796665668487549 0.64054381847381592 0.0091851325705647469
0.84622055292129517 0.61558449268341064 0.0078761084005236626
0.93093818426132202 0.5889783501625061 0.0059895832091569901
0.96430814266204834 0.5741727352142334 0.0060909045860171318
0.97745209932327271 0.57070249319076538 0.0083888331428170204
0.99388706684112549 0.57214450836181641 0.010318576358258724
0.29301732778549194 0.72807210683822632 0.071571215987205505
0.30868387222290039 0.72698867321014404 0.073363810777664185
0.31578323245048523 0.72043681144714355 0.074607416987419128
0.3426385223865509 0.71608233451843262 0.065905265510082245
0.41622760891914368 0.71974503993988037 0.039811376482248306
0.52289623022079468 0.72761267423629761 0.015279986895620823
0.63590747117996216 0.73332858085632324 0.0073165143840014935
0.73803478479385376 0.72940504550933838 0.0076581020839512348
0.83082956075668335 0.71649551391601562 0.0062297745607793331
0.91469132900238037 0.69702470302581787 0.005392157007008791
0.96186703443527222 0.68449598550796509 0.0055131199769675732
0.98228663206100464 0.68218648433685303 0.0067980899475514889
0.99707162380218506 0.68292975425720215 0.0077467826195061207
0.33350583910942078 0.80135083198547363 0.074368782341480255
0.34848585724830627 0.80095243453979492 0.076756812632083893
0.35658720135688782 0.79667478799819946 0.077437333762645721
0.36982041597366333 0.79139953851699829 0.076215200126171112
0.42145606875419617 0.79064714908599854 0.05923125147819519
0.52288663387298584 0.79608064889907837 0.028581282123923302
0.64141780138015747 0.80203056335449219 0.0078452015295624733
0.74552351236343384 0.8011055588722229 0.0047303591854870319
0.83490359783172607 0.79340916872024536 0.0056407107040286064
0.91109573841094971 0.78673624992370605 0.0065841376781463623
0.96045249700546265 0.78691744804382324 0.0065384358167648315
0.98415529727935791 0.78648489713668823 0.0070413476787507534
0.99773281812667847 0.78325480222702026 0.0063167349435389042
0.35508573055267334 0.84671545028686523 0.075291953980922699
0.37098100781440735 0.84901851415634155 0.074900805950164795
0.38088420033454895 0.84759068489074707 0.074283182621002197
0.38810980319976807 0.84182828664779663 0.076555542647838593
0.42512485384941101 0.8376498818397522 0.067262835800647736
0.51465636491775513 0.84237980842590332 0.039285697042942047
0.6334385871887207 0.85135549306869507 0.012196963652968407
0.74464023113250732 0.85361391305923462 0.0051797754131257534
0.83890306949615479 0.84893286228179932 0.0067282584495842457
0.9119836688041687 0.84623807668685913 0.0077205882407724857
0.95823287963867188 0.85111194849014282 0.0077701793052256107
0.98390209674835205 0.85394823551177979 0.0084457844495773315
0.99773281812667847 0.84920918941497803 0.0076112933456897736
0.36043521761894226 0.87081640958786011 0.074990488588809967
0.37482675909996033 0.87371158599853516 0.073815532028675079
0.38380333781242371 0.87319201231002808 0.07294444739818573
0.39219468832015991 0.86773133277893066 0.074786588549613953
0.42068511247634888 0.86236459016799927 0.070518523454666138
0.49819085001945496 0.86546969413757324 0.049510985612869263
0.6155669093132019 0.87807130813598633 0.022601483389735222
0.73391306400299072 0.88707375526428223 0.0099538769572973251
0.83450353145599365 0.88797181844711304 0.0078393677249550819
0.9081263542175293 0.88444972038269043 0.0077205882407724857
0.95398217439651489 0.88412821292877197 0.0080632530152797699
0.98063111305236816 0.88776510953903198 0.010069648735225201
0.99773281812667847 0.88585090637207031 0.008821120485663414
0.35928452014923096 0.88589936494827271 0.069488272070884705
0.37298962473869324 0.88790124654769897 0.066628322005271912
0.3834490180015564 0.88730859756469727 0.064445927739143372
0.39605432748794556 0.88356435298919678 0.064498439431190491
0.42748695611953735 0.87925660610198975 0.061062097549438477
0.49824985861778259 0.88342422246932983 0.04619719460606575
0.60748094320297241 0.89631116390228271 0.024856388568878174
0.7229340672492981 0.90883499383926392 0.012316131964325905
0.82537341117858887 0.9145018458366394 0.0076566059142351151
0.90106195211410522 0.91289252042770386 0.0063654882833361626
0.94843029975891113 0.91007936000823975 0.006563269067555666
0.97809159755706787 0.91017442941665649 0.0074020386673510075
0.99761146306991577 0.90920555591583252 0.0056972727179527283
0.003731895936653018 0.010945084504783154 0.05002930760383606
0.041867200285196304 0.0087964227423071861 0.0494270920753479
0.18324755132198334 0.018295975401997566 0.051732111722230911
0.33992880582809448 0.029165364801883698 0.051030658185482025
0.46535453200340271 0.034932903945446014 0.045081328600645065
0.57481503486633301 0.028614552691578865 0.036921631544828415
0.68372243642807007 0.035570062696933746 0.028792722150683403
0.77664649486541748 0.037838760763406754 0.026129091158509254
0.82764846086502075 0.026043238118290901 0.025871485471725464
0.84273344278335571 0.016870610415935516 0.023441091179847717
0.85145741701126099 0.013039203360676765 0.017286129295825958
0.87232506275177002 0.010182743892073631 0.014244124293327332
0.90350031852722168 0.006043408066034317 0.018390461802482605
0.010211764834821224 0.056372445076704025 0.04509378969669342
0.057597454637289047 0.056592695415019989 0.045531537383794785
0.17570875585079193 0.07057373970746994 0.045177847146987915
0.32728672027587891 0.08236713707447052 0.041235409677028656
0.45865297317504883 0.086881972849369049 0.034461513161659241
0.56720983982086182 0.082374840974807739 0.029009470716118813
0.67184793949127197 0.081779271364212036 0.024481918662786484
0.7673870325088501 0.074077785015106201 0.022493818774819374
0.82449907064437866 0.057377144694328308 0.022610010579228401
0.84222298860549927 0.045693624764680862 0.021881761029362679
0.85158717632293701 0.043286342173814774 0.018843423575162888
0.87296187877655029 0.041512865573167801 0.016641683876514435
0.90562093257904053 0.035913296043872833 0.019935816526412964
0.00082961434964090586 0.11864576488733292 0.04033806174993515
0.03310910239815712 0.1210273876786232 0.039251171052455902
0.14387772977352142 0.13852396607398987 0.037186820060014725
0.30289402604103088 0.16077797114849091 0.030223159119486809
0.45017910003662109 0.17191419005393982 0.023147014901041985
0.56481260061264038 0.16092957556247711 0.022474296391010284
0.67115312814712524 0.14503777027130127 0.022079767659306526
0.77197659015655518 0.12784908711910248 0.019559867680072784
0.83626049757003784 0.10883209854364395 0.018447203561663628
0.85518407821655273 0.094191715121269226 0.019344719126820564
0.86081254482269287 0.089017890393733978 0.01958731934428215
0.88033592700958252 0.086875602602958679 0.019294902682304382
0.91404837369918823 0.083115413784980774 0.022599447518587112
0 0.19719415903091431 0.035578738898038864
0.019693875685334206 0.19616478681564331 0.034984186291694641
0.1198122650384903 0.21612647175788879 0.029241777956485748
0.2763921320438385 0.24797406792640686 0.019648756831884384
0.43261206150054932 0.26720863580703735 0.014960899017751217
0.56098192930221558 0.26045909523963928 0.016385486349463463
0.67754137516021729 0.2409670352935791 0.016207676380872726
0.78454494476318359 0.21601271629333496 0.013154632411897182
0.85612881183624268 0.19259215891361237 0.012307963334023952
0.87964051961898804 0.17748536169528961 0.013936270959675312
0.8847353458404541 0.17056906223297119 0.015409072861075401
0.90111398696899414 0.16481378674507141 0.016937166452407837
0.9339754581451416 0.16186241805553436 0.021441575139760971
0.015965241938829422 0.29911896586418152 0.041273873299360275
0.033747237175703049 0.29624593257904053 0.040063478052616119
0.11195186525583267 0.30983820557594299 0.029928110539913177
0.25266963243484497 0.33918601274490356 0.015829706564545631
0.40807786583900452 0.36249396204948425 0.0097931502386927605
0.54475688934326172 0.36274394392967224 0.012379739433526993
0.66923671960830688 0.34633526206016541 0.012847241945564747
0.78422576189041138 0.32038307189941406 0.009652724489569664
0.86653417348861694 0.29317435622215271 0.009917539544403553
0.90064626932144165 0.27694505453109741 0.013629748485982418
0.9108879566192627 0.27017658948898315 0.014775669202208519
0.92894178628921509 0.26497435569763184 0.015960782766342163
0.96143078804016113 0.26210564374923706 0.021046701818704605
0.076932959258556366 0.4170946478843689 0.055369149893522263
0.085332460701465607 0.41336676478385925 0.05224030464887619
0.13402582705020905 0.41613417863845825 0.038347713649272919
0.24826866388320923 0.43618679046630859 0.017878828570246696
0.39095619320869446 0.45927870273590088 0.0056489533744752407
0.523811936378479 0.46692594885826111 0.0085550341755151749
0.64906352758407593 0.45553752779960632 0.01253808755427599
0.77134525775909424 0.42869758605957031 0.012323028407990932
0.86907351016998291 0.39785420894622803 0.01331036165356636
0.91883474588394165 0.37659841775894165 0.016619738191366196
0.93417239189147949 0.36945191025733948 0.016362942755222321
0.95137006044387817 0.36674803495407104 0.016082135960459709
0.98044359683990479 0.36446458101272583 0.019889652729034424
0.15863408148288727 0.53339469432830811 0.063696965575218201
0.16503027081489563 0.52897554636001587 0.060166377574205399
0.19192777574062347 0.52492189407348633 0.048315864056348801
0.27215540409088135 0.53427088260650635 0.025612132623791695
0.39097461104393005 0.55116873979568481 0.0062697618268430233
0.51257365942001343 0.56348687410354614 0.0057183955796062946
0.63100767135620117 0.56009954214096069 0.013979848474264145
0.75195115804672241 0.53825199604034424 0.018572699278593063
0.86311995983123779 0.50389927625656128 0.019146295264363289
0.93168121576309204 0.4776228666305542 0.018595436587929726
0.95386713743209839 0.46859437227249146 0.016089525073766708
0.96822589635848999 0.46593254804611206 0.01644427701830864
0.99080896377563477 0.46473380923271179 0.019756017252802849
0.2343473881483078 0.63599902391433716 0.073121525347232819
0.24392695724964142 0.63354980945587158 0.072304502129554749
0.2569061815738678 0.62723451852798462 0.067166946828365326
0.30593562126159668 0.62698888778686523 0.049333743751049042
0.40244531631469727 0.63677561283111572 0.021733198314905167
0.51616024971008301 0.64814549684524536 0.0089534232392907143
0.62833994626998901 0.65200322866439819 0.015117780305445194
0.73800545930862427 0.6413801908493042 0.022767070680856705
0.84432649612426758 0.61422330141067505 0.022285521030426025
0.92627161741256714 0.58637887239456177 0.019826881587505341
0.96370983123779297 0.57350796461105347 0.017498405650258064
0.98051249980926514 0.56961631774902344 0.018109610304236412
0.99647760391235352 0.56856304407119751 0.021305937319993973
0.28980520367622375 0.72386980056762695 0.085182607173919678
0.30057042837142944 0.72311359643936157 0.087796665728092194
0.3076762855052948 0.71819514036178589 0.088452883064746857
0.33585450053215027 0.71371734142303467 0.079332582652568817
0.41345202922821045 0.71721726655960083 0.049919098615646362
0.52257364988327026 0.72485488653182983 0.023290237411856651
0.63730263710021973 0.73070627450942993 0.018420888110995293
0.74036175012588501 0.7287590503692627 0.023091590031981468
0.82917767763137817 0.71640533208847046 0.022541150450706482
0.91076368093490601 0.69636845588684082 0.020981747657060623
0.9614594578742981 0.68390172719955444 0.019715536385774612
0.98436444997787476 0.68134504556655884 0.019240105524659157
0.99807953834533691 0.67987692356109619 0.019214240834116936
0.33108612895011902 0.79591566324234009 0.088244855403900146
0.34364181756973267 0.79711616039276123 0.091851070523262024
0.35331481695175171 0.79621952772140503 0.092358909547328949
0.36941090226173401 0.79095745086669922 0.089980028569698334
0.42245608568191528 0.78835219144821167 0.071795985102653503
0.5215141773223877 0.79231733083724976 0.041590344160795212
0.63933849334716797 0.79876577854156494 0.023174868896603584
0.74634367227554321 0.80070620775222778 0.021635303273797035
0.83503574132919312 0.79515355825424194 0.023062298074364662
0.9086030125617981 0.78582113981246948 0.022870605811476707
0.9582141637802124 0.78212416172027588 0.022038718685507774
0.98364973068237305 0.78315412998199463 0.021236704662442207
0.99774420261383057 0.78016763925552368 0.019375819712877274
0.35296881198883057 0.84166204929351807 0.087669596076011658
0.36848247051239014 0.84493988752365112 0.089382395148277283
0.38086041808128357 0.84727227687835693 0.088219814002513885
0.39108407497406006 0.84264814853668213 0.088799342513084412
0.42736726999282837 0.83677536249160767 0.079526565968990326
0.51284497976303101 0.83966368436813354 0.053332563489675522
0.62936985492706299 0.84891408681869507 0.0285478625446558
0.74302124977111816 0.8563309907913208 0.021828925237059593
0.83833092451095581 0.85491418838500977 0.023255875334143639
0.90993940830230713 0.84713375568389893 0.023702016100287437
0.95648199319839478 0.84593492746353149 0.023535171523690224
0.9811815619468689 0.85084289312362671 0.024325007572770119
0.9974789023399353 0.84881830215454102 0.022017564624547958
0.35767504572868347 0.8655884861946106 0.085459552705287933
0.3727264404296875 0.86804318428039551 0.085647299885749817
0.38439095020294189 0.87018930912017822 0.083924204111099243
0.39451196789741516 0.86700910329818726 0.083520926535129547
0.42516893148422241 0.86286741495132446 0.078177087008953094
0.50159579515457153 0.86555546522140503 0.057462159544229507
0.61551475524902344 0.87765961885452271 0.032744180411100388
0.73309516906738281 0.89054596424102783 0.024077994748950005
0.83350759744644165 0.89282757043838501 0.024663738906383514
0.90757596492767334 0.88400328159332275 0.024022899568080902
0.95375782251358032 0.87967300415039062 0.023974280804395676
0.98082530498504639 0.88508051633834839 0.025533998385071754
0.99773484468460083 0.88579797744750977 0.022996041923761368
0.35705316066741943 0.881888747215271 0.076066486537456512
0.3717694878578186 0.88242542743682861 0.072507463395595551
0.38396176695823669 0.88299030065536499 0.068657897412776947
0.39780417084693909 0.88096863031387329 0.066655717790126801
0.43028953671455383 0.87868893146514893 0.063548080623149872
0.50180298089981079 0.88274455070495605 0.049335762858390808
0.60833096504211426 0.89536696672439575 0.031205136328935623
0.72284424304962158 0.90932643413543701 0.024617109447717667
0.82462131977081299 0.91432309150695801 0.023699875921010971
0.90150254964828491 0.9096795916557312 0.022764647379517555
0.95138746500015259 0.90518957376480103 0.022154580801725388
0.98085719347000122 0.90677225589752197 0.021418463438749313
0.99844574928283691 0.90814840793609619 0.017513858154416084
0.00057054409990087152 0.018538756296038628 0.1207050234079361
0.030014127492904663 0.016797024756669998 0.1271374523639679
0.157356858253479 0.013265407644212246 0.13574603199958801
0.3150661289691925 0.012493537738919258 0.13262109458446503
0.44459453225135803 0.012959125451743603 0.12362056225538254
0.55550366640090942 0.014302960596978664 0.11277136951684952
0.66372835636138916 0.017975691705942154 0.10087564587593079
0.76111161708831787 0.014521609991788864 0.090829275548458099
0.81902021169662476 0.0073339724913239479 0.085219532251358032
0.83624565601348877 0.0060063679702579975 0.079176299273967743
0.84425085783004761 0.010782608762383461 0.069583430886268616
0.86574524641036987 0.013732356950640678 0.065561510622501373
0.89768737554550171 0.0099530983716249466 0.068888150155544281
0.0047836005687713623 0.072451315820217133 0.11661412566900253
0.043387826532125473 0.06955738365650177 0.1165003776550293
0.1565854549407959 0.067118518054485321 0.12215676158666611
0.30659952759742737 0.062832549214363098 0.11991927027702332
0.43594041466712952 0.055681444704532623 0.10806504637002945
0.54680705070495605 0.054245457053184509 0.097234003245830536
0.65297925472259521 0.052814528346061707 0.088985294103622437
0.75213617086410522 0.045947819948196411 0.081176921725273132
0.81525206565856934 0.034195501357316971 0.074743218719959259
0.83623886108398438 0.029057940468192101 0.069194406270980835
0.84745877981185913 0.039934419095516205 0.063030257821083069
0.8690187931060791 0.044024612754583359 0.059703439474105835
0.90181159973144531 0.037572208791971207 0.062939345836639404
0.001161732361651957 0.13433335721492767 0.11405199766159058
0.031870044767856598 0.13309723138809204 0.11009081453084946
0.1347745805978775 0.1400628387928009 0.10823404788970947
0.28821727633476257 0.14896237850189209 0.10351850092411041
0.43162819743156433 0.1494540274143219 0.092158220708370209
0.54994124174118042 0.14295314252376556 0.082241415977478027
0.65978920459747314 0.1303141862154007 0.074999898672103882
0.762492835521698 0.1116359755396843 0.067653864622116089
0.82869517803192139 0.091195046901702881 0.060566473752260208
0.84815371036529541 0.078011997044086456 0.056306637823581696
0.85600847005844116 0.0814833864569664 0.053628135472536087
0.87502884864807129 0.080506883561611176 0.052053011953830719
0.91003948450088501 0.078207157552242279 0.056050632148981094
0 0.20742876827716827 0.10575684159994125
0.01998983696103096 0.2026982307434082 0.10211589932441711
0.11505597829818726 0.21809393167495728 0.094397373497486115
0.26936066150665283 0.24383050203323364 0.085030637681484222
0.4236266016960144 0.25877973437309265 0.077054314315319061
0.55346488952636719 0.25533756613731384 0.069014005362987518
0.67199194431304932 0.23901745676994324 0.059547021985054016
0.78094238042831421 0.21198450028896332 0.05065486952662468
0.85361242294311523 0.18601877987384796 0.04447542130947113
0.87589991092681885 0.1701398491859436 0.04217345267534256
0.88206225633621216 0.16533888876438141 0.04052378237247467
0.89867490530014038 0.15612651407718658 0.040552012622356415
0.93388515710830688 0.15443482995033264 0.045029256492853165
