assets/lut/editingcorp falua.cube
# Created by: G'MIC (https://gmic.eu)
TITLE "falua"
# LUT size
LUT_3D_SIZE 13
# Data domain
DOMAIN_MIN 0.0 0.0 0.0
DOMAIN_MAX 1.0 1.0 1.0
# LUT data points
0.016350556164979935 0.010014582425355911 0.0078825559467077255
0.084839046001434326 0.0096723074093461037 0.0057723401114344597
0.20392516255378723 0.014040360227227211 0.0052478713914752007
0.34675866365432739 0.015526760369539261 0.0034965963568538427
0.49363300204277039 0.015439246781170368 0.0052730487659573555
0.63772439956665039 0.017558049410581589 0.0085844304412603378
0.76428377628326416 0.02208239957690239 0.0090736392885446548
0.84615242481231689 0.021425748243927956 0.0047483555972576141
0.885459303855896 0.017441289499402046 0.0022939795162528753
0.90689367055892944 0.013259334489703178 0.0041148914024233818
0.9239499568939209 0.011493952013552189 0.010084234178066254
0.94148659706115723 0.016088822856545448 0.0092184180393815041
0.96235555410385132 0.023106802254915237 0.0053590959869325161
0.0077599468640983105 0.058687832206487656 0.015538997016847134
0.052858017385005951 0.05449637770652771 0.011042576283216476
0.1649499237537384 0.057217869907617569 0.0094457734376192093
0.31384876370429993 0.059401985257863998 0.0072798784822225571
0.46693718433380127 0.05677419900894165 0.0076056537218391895
0.61432343721389771 0.053229745477437973 0.0091585498303174973
0.74945545196533203 0.052370574325323105 0.0093085793778300285
0.84204667806625366 0.04958527535200119 0.0077054938301444054
0.88553816080093384 0.047575108706951141 0.0088766505941748619
0.9062994122505188 0.043119139969348907 0.010454424656927586
0.92209345102310181 0.037406578660011292 0.010495848022401333
0.9394187331199646 0.037368264049291611 0.0071754306554794312
0.96153503656387329 0.045782770961523056 0.0034274081699550152
0.0030180539470165968 0.13180540502071381 0.022342966869473457
0.029927900061011314 0.12695834040641785 0.021149026229977608
0.11216790974140167 0.12526270747184753 0.018905969336628914
0.2665286660194397 0.12730257213115692 0.011750673875212669
0.4389708936214447 0.12462446838617325 0.0052355299703776836
0.59457212686538696 0.11739175766706467 0.0049429950304329395
0.73504388332366943 0.10726846754550934 0.0060326368547976017
0.84012889862060547 0.097572118043899536 0.0059360130690038204
0.89186084270477295 0.093469791114330292 0.0096111670136451721
0.91206026077270508 0.087578102946281433 0.011581541039049625
0.92550855875015259 0.077201217412948608 0.009039904922246933
0.94191646575927734 0.07161298394203186 0.0044812820851802826
0.96450376510620117 0.079866938292980194 0.00234222412109375
0.0040978826582431793 0.21367816627025604 0.036151360720396042
0.02326120063662529 0.20963825285434723 0.038589760661125183
0.06564851850271225 0.21010078489780426 0.035361435264348984
0.18750305473804474 0.21507686376571655 0.023757889866828918
0.39061781764030457 0.21600247919559479 0.007154516875743866
0.57094818353652954 0.21067653596401215 0.0010523028904572129
0.71673059463500977 0.19741307199001312 0.0022771647199988365
0.83095449209213257 0.18261913955211639 0.0038580053951591253
0.8945692777633667 0.17153885960578918 0.0087652020156383514
0.9188467264175415 0.16074550151824951 0.011015559546649456
0.9324028491973877 0.14767244458198547 0.0069979648105800152
0.9489368200302124 0.13821710646152496 0.0025939042679965496
0.97107499837875366 0.13979259133338928 0.0016246720915660262
0.006136531475931406 0.30327287316322327 0.059461303055286407
0.020516639575362206 0.29911085963249207 0.060646552592515945
0.03603077307343483 0.29966732859611511 0.058850936591625214
0.11035075783729553 0.30920052528381348 0.052775796502828598
0.30947127938270569 0.32146266102790833 0.028425224125385284
0.53390741348266602 0.32589912414550781 0.0013949375133961439
0.69733816385269165 0.315020352602005 4.3083641685370822e-06
0.81747531890869141 0.29586422443389893 0.0021740184165537357
0.89398092031478882 0.27657678723335266 0.0088481530547142029
0.92524266242980957 0.26078641414642334 0.009996974840760231
0.93955010175704956 0.24526423215866089 0.00526453647762537
0.95701730251312256 0.23035013675689697 0.002359981182962656
0.97930675745010376 0.2233196496963501 0.0019458247115835547
0.0081485370174050331 0.39812496304512024 0.095493987202644348
0.02506021223962307 0.39328628778457642 0.095245644450187683
0.037969194352626801 0.39008018374443054 0.091724172234535217
0.075462594628334045 0.40192586183547974 0.093159802258014679
0.21490941941738129 0.42663124203681946 0.079234197735786438
0.46019327640533447 0.44644194841384888 0.025531694293022156
0.66265136003494263 0.44422408938407898 0.0011627047788351774
0.79294067621231079 0.42283684015274048 0.0039666569791734219
0.88561886548995972 0.3965877890586853 0.0096338009461760521
0.92870569229125977 0.3757706880569458 0.011126499623060226
0.9460485577583313 0.35892403125762939 0.0068520638160407543
0.96489483118057251 0.33956807851791382 0.0049280803650617599
0.98723512887954712 0.32506850361824036 0.0045519513078033924
0.010251468047499657 0.49594786763191223 0.1394590437412262
0.031623344868421555 0.49081707000732422 0.13974356651306152
0.044372424483299255 0.48448771238327026 0.13362061977386475
0.061117734760046005 0.49471575021743774 0.12968249619007111
0.14732314646244049 0.5249294638633728 0.12796863913536072
0.36250573396682739 0.55490189790725708 0.10369791090488434
0.59942489862442017 0.56706255674362183 0.037959303706884384
0.76400363445281982 0.55307096242904663 0.010618067346513271
0.87630379199981689 0.52318322658538818 0.010025831870734692
0.93472182750701904 0.49722877144813538 0.012383928522467613
0.95783501863479614 0.47851192951202393 0.010497193783521652
0.97447526454925537 0.4577731192111969 0.0093400543555617332
0.99352788925170898 0.43957340717315674 0.0080637466162443161
0.011480039916932583 0.59559476375579834 0.1828138530254364
0.036113575100898743 0.58952957391738892 0.18262267112731934
0.053373180329799652 0.57994890213012695 0.17574210464954376
0.066077589988708496 0.58469367027282715 0.16693250834941864
0.11764201521873474 0.61196392774581909 0.16480933129787445
0.27093300223350525 0.64506548643112183 0.16316021978855133
0.49382397532463074 0.67004996538162231 0.12447539716959
0.70113390684127808 0.67441147565841675 0.063820183277130127
0.85461151599884033 0.65671694278717041 0.012756961397826672
0.93742114305496216 0.63065624237060547 0.0030721027869731188
0.96927344799041748 0.6075865626335144 0.0041994429193437099
0.98336666822433472 0.58299821615219116 0.0076801972463726997
0.99758619070053101 0.56116598844528198 0.0092633562162518501
0.011568241752684116 0.69188421964645386 0.21897183358669281
0.037363972514867783 0.68399053812026978 0.21907898783683777
0.056877106428146362 0.67569261789321899 0.21440237760543823
0.066364049911499023 0.6758192777633667 0.2041647732257843
0.089139275252819061 0.69064801931381226 0.19038845598697662
0.18322329223155975 0.71911501884460449 0.18635028600692749
0.36790025234222412 0.74982976913452148 0.19565674662590027
0.59122788906097412 0.77124881744384766 0.15629439055919647
0.78825521469116211 0.77617925405502319 0.060057021677494049
0.91328138113021851 0.76190066337585449 0.012967233546078205
0.96882790327072144 0.7377769947052002 0.0021368288435041904
0.98640793561935425 0.71019423007965088 0.0051122331060469151
0.99892598390579224 0.6858869194984436 0.0054620928131043911
0.010179063305258751 0.75730270147323608 0.23854151368141174
0.034458577632904053 0.75106501579284668 0.23961977660655975
0.054685778915882111 0.74752974510192871 0.23907400667667389
0.064393013715744019 0.7476387619972229 0.23157872259616852
0.074582070112228394 0.75305068492889404 0.21447853744029999
0.12906427681446075 0.77481883764266968 0.20097063481807709
0.27102485299110413 0.80440276861190796 0.21698783338069916
0.47192880511283875 0.82972466945648193 0.23084641993045807
0.67377340793609619 0.84665924310684204 0.18861941993236542
0.84218806028366089 0.85296052694320679 0.10943735390901566
0.94400817155838013 0.84498476982116699 0.040143556892871857
0.97662132978439331 0.82607740163803101 0.026275798678398132
0.99404293298721313 0.80312579870223999 0.017950229346752167
0.0082611832767724991 0.78551638126373291 0.24272805452346802
0.030075911432504654 0.78164845705032349 0.24181742966175079
0.050714753568172455 0.7812950611114502 0.24466097354888916
0.065855465829372406 0.78159689903259277 0.24353624880313873
0.08126569539308548 0.78664553165435791 0.23456037044525146
0.12354489415884018 0.80566859245300293 0.22364427149295807
0.22701193392276764 0.83295607566833496 0.22754266858100891
0.38946801424026489 0.85812759399414062 0.24950039386749268
0.57376080751419067 0.87973946332931519 0.26865476369857788
0.75774848461151123 0.89733386039733887 0.21954840421676636
0.89875227212905884 0.90782183408737183 0.1227300763130188
0.95425504446029663 0.90725815296173096 0.082305759191513062
0.97408580780029297 0.89326679706573486 0.067258186638355255
0.0089080659672617912 0.80290186405181885 0.24154876172542572
0.030031898990273476 0.80013096332550049 0.23964737355709076
0.050245098769664764 0.80051779747009277 0.24305157363414764
0.069377243518829346 0.79947108030319214 0.24426884949207306
0.088763110339641571 0.8028029203414917 0.23993375897407532
0.12439776957035065 0.82227247953414917 0.23265092074871063
0.20362025499343872 0.84943860769271851 0.23051586747169495
0.33814486861228943 0.87524580955505371 0.24342669546604156
0.51128673553466797 0.89852714538574219 0.27103719115257263
0.69876325130462646 0.91934609413146973 0.25101554393768311
0.86501049995422363 0.93660181760787964 0.16293774545192719
0.94610404968261719 0.94691920280456543 0.11070176959037781
0.96590584516525269 0.94432204961776733 0.10285460203886032
0.0091892462223768234 0.82479393482208252 0.24301470816135406
0.030511504039168358 0.82372134923934937 0.24259930849075317
0.04974588006734848 0.82312804460525513 0.24300536513328552
0.067517086863517761 0.82107812166213989 0.24267865717411041
0.085949793457984924 0.82425427436828613 0.238865926861763
0.11664053052663803 0.84177571535110474 0.23467642068862915
0.1808350682258606 0.86741459369659424 0.23534759879112244
0.29454165697097778 0.89338856935501099 0.24941369891166687
0.45373243093490601 0.91706228256225586 0.27323159575462341
0.63490355014801025 0.93835771083831787 0.26621207594871521
0.80952781438827515 0.95636129379272461 0.19553260505199432
0.91739362478256226 0.96906769275665283 0.13547128438949585
0.95531767606735229 0.97235554456710815 0.12232746928930283
0.016563504934310913 0.011110253632068634 0.04261157289147377
0.087792418897151947 0.0085858367383480072 0.042073104530572891
0.21093551814556122 0.010074181482195854 0.040514882653951645
0.35232135653495789 0.013356301933526993 0.033510785549879074
0.49796703457832336 0.014674153178930283 0.039199244230985641
0.64071309566497803 0.014351310208439827 0.043813325464725494
0.76526296138763428 0.016059141606092453 0.038609359413385391
0.84569358825683594 0.016671065241098404 0.029020301997661591
0.8829721212387085 0.015498053282499313 0.019264116883277893
0.90365612506866455 0.013486869633197784 0.018576903268694878
0.92133998870849609 0.011910906061530113 0.026495585218071938
0.9404413104057312 0.014272428117692471 0.025777764618396759
0.96236896514892578 0.018087215721607208 0.02283325232565403
0.0086720334365963936 0.06208324059844017 0.061353333294391632
0.052904617041349411 0.057449027895927429 0.057826366275548935
0.16650654375553131 0.055406711995601654 0.052123334258794785
0.31551223993301392 0.058055564761161804 0.044495061039924622
0.4674372673034668 0.057193323969841003 0.044635772705078125
0.61379760503768921 0.052871763706207275 0.044867079704999924
0.7477567195892334 0.049747899174690247 0.039750806987285614
0.83967679738998413 0.047328725457191467 0.033382773399353027
0.88051402568817139 0.047525219619274139 0.032325085252523422
0.90018439292907715 0.044278942048549652 0.031516280025243759
0.91841816902160645 0.039508387446403503 0.029026001691818237
0.93769162893295288 0.038824431598186493 0.025042289867997169
0.96037811040878296 0.043644655495882034 0.021935915574431419
0.0049660177901387215 0.13403353095054626 0.065274275839328766
0.028558500111103058 0.12977094948291779 0.061650533229112625
0.1127140149474144 0.12547746300697327 0.055338587611913681
0.26342517137527466 0.12526716291904449 0.045304138213396072
0.43211719393730164 0.12459785491228104 0.035714048892259598
0.58691507577896118 0.11811481416225433 0.031902775168418884
0.73115402460098267 0.10594522953033447 0.029841823503375053
0.83787643909454346 0.096053823828697205 0.027227753773331642
0.88841438293457031 0.09160054475069046 0.030479550361633301
0.90725076198577881 0.086789913475513458 0.03214326873421669
0.92146211862564087 0.079612374305725098 0.027239466086030006
0.93962258100509644 0.075207144021987915 0.022125139832496643
0.9630010724067688 0.079161055386066437 0.020885856822133064
0.0050870706327259541 0.21508342027664185 0.069248765707015991
0.019649282097816467 0.21110169589519501 0.069059543311595917
0.062734745442867279 0.21033824980258942 0.063765205442905426
0.18726679682731628 0.21275953948497772 0.050605099648237228
0.3829304575920105 0.21553531289100647 0.028566697612404823
0.56453615427017212 0.21202774345874786 0.01605905219912529
0.71333378553390503 0.19721683859825134 0.017191089689731598
0.82764935493469238 0.18063963949680328 0.0205867700278759
0.89149659872055054 0.16839304566383362 0.02594413049519062
0.91478151082992554 0.15828804671764374 0.027690572664141655
0.92888474464416504 0.14768160879611969 0.021900610998272896
0.94644945859909058 0.13929906487464905 0.017239993438124657
0.96932905912399292 0.13874775171279907 0.017240740358829498
0.0073765474371612072 0.30347386002540588 0.083970300853252411
0.019876517355442047 0.30000346899032593 0.082606777548789978
0.029989728704094887 0.30068251490592957 0.081510551273822784
0.10109952837228775 0.30864828824996948 0.075055032968521118
0.30506256222724915 0.3199709951877594 0.044416256248950958
0.533042311668396 0.32441112399101257 0.0097117554396390915
0.69369375705718994 0.31392905116081238 0.0061400318518280983
0.81098353862762451 0.29337671399116516 0.017430549487471581
0.88858580589294434 0.2731856107711792 0.025201356038451195
0.92193806171417236 0.25682911276817322 0.023783605545759201
0.93701481819152832 0.24246151745319366 0.017338726669549942
0.95460760593414307 0.22925415635108948 0.013161408714950085
0.977425217628479 0.22246155142784119 0.01430912408977747
0.0090489108115434647 0.39606976509094238 0.11116701364517212
0.024974822998046875 0.39420974254608154 0.11254845559597015
0.028233980759978294 0.39282417297363281 0.11108312010765076
0.064003869891166687 0.40307846665382385 0.11000135540962219
0.21770106256008148 0.42397212982177734 0.093857787549495697
0.46228086948394775 0.44221609830856323 0.044212698936462402
0.65858203172683716 0.44116988778114319 0.012652154080569744
0.78659981489181519 0.41927987337112427 0.023653890937566757
0.88051557540893555 0.39252522587776184 0.030289938673377037
0.92629289627075195 0.37107807397842407 0.025923650711774826
0.94355475902557373 0.35396111011505127 0.018792904913425446
0.96119922399520874 0.33634111285209656 0.014623903669416904
0.98443359136581421 0.32372993230819702 0.014450028538703918
0.010044531896710396 0.49217644333839417 0.15157876908779144
0.030533270910382271 0.49121996760368347 0.15552020072937012
0.039003767073154449 0.48631632328033447 0.15057338774204254
0.054270006716251373 0.49503478407859802 0.14254425466060638
0.14404620230197906 0.52257955074310303 0.13859549164772034
0.35763180255889893 0.5515558123588562 0.11619134247303009
0.59300512075424194 0.56399089097976685 0.059412609785795212
0.75959783792495728 0.550487220287323 0.036079421639442444
0.8738400936126709 0.52131533622741699 0.032694604247808456
0.93158829212188721 0.49451485276222229 0.029742207378149033
0.95132195949554443 0.47488123178482056 0.02648640051484108
0.96754759550094604 0.45411783456802368 0.022084688767790794
0.98958981037139893 0.43638521432876587 0.019583968445658684
0.01100495271384716 0.59110498428344727 0.19785381853580475
0.035321883857250214 0.58836621046066284 0.19886723160743713
0.05188935250043869 0.58024519681930542 0.19391167163848877
0.064117118716239929 0.58241277933120728 0.18401983380317688
0.11013617366552353 0.6071053147315979 0.17519994080066681
0.26289081573486328 0.64115238189697266 0.1718561053276062
0.49085703492164612 0.66812855005264282 0.14147433638572693
0.70069485902786255 0.67322033643722534 0.091521382331848145
0.85249990224838257 0.65515649318695068 0.040422849357128143
0.93530905246734619 0.62952715158462524 0.019330656155943871
0.96147388219833374 0.60453146696090698 0.021866712719202042
0.97465807199478149 0.57836633920669556 0.024609331041574478
0.99394756555557251 0.55644315481185913 0.023566108196973801
0.011463300324976444 0.68911409378051758 0.23688606917858124
0.035984247922897339 0.68416869640350342 0.23776121437549591
0.055465266108512878 0.67412543296813965 0.23400363326072693
0.065229468047618866 0.66934287548065186 0.22293989360332489
0.082936078310012817 0.68254077434539795 0.20489324629306793
0.17988505959510803 0.71283960342407227 0.20115606486797333
0.37323436141014099 0.74723351001739502 0.21119745075702667
0.59317278861999512 0.76858747005462646 0.18591247498989105
0.78548789024353027 0.77329957485198975 0.099043391644954681
0.91512393951416016 0.76196306943893433 0.029174745082855225
0.96272724866867065 0.73448199033737183 0.019228138029575348
0.9792020320892334 0.70498079061508179 0.02334677055478096
0.99735844135284424 0.6811860203742981 0.017495322972536087
0.010462338104844093 0.75673633813858032 0.25878900289535522
0.032504033297300339 0.75407624244689941 0.26128888130187988
0.050832726061344147 0.74780356884002686 0.25978854298591614
0.060247085988521576 0.7413756251335144 0.25049817562103271
0.073232077062129974 0.74562925100326538 0.23510563373565674
0.13745449483394623 0.76845347881317139 0.22590145468711853
0.28262153267860413 0.80073636770248413 0.23606817424297333
0.47404935956001282 0.82677894830703735 0.25450912117958069
0.67158442735671997 0.84493446350097656 0.22028662264347076
0.84431362152099609 0.85386055707931519 0.13054627180099487
0.93908852338790894 0.84293848276138306 0.070361658930778503
0.97349202632904053 0.82231295108795166 0.046632416546344757
0.99555027484893799 0.7992786169052124 0.02342439629137516
0.0091332681477069855 0.78436839580535889 0.2625156044960022
0.03093445673584938 0.78573650121688843 0.26513481140136719
0.049686640501022339 0.78506547212600708 0.26730164885520935
0.063764207065105438 0.78120154142379761 0.26589521765708923
0.082309573888778687 0.78372043371200562 0.25992569327354431
0.1279623806476593 0.80184239149093628 0.24860395491123199
0.22804258763790131 0.82990521192550659 0.2439047247171402
0.38465756177902222 0.85547071695327759 0.26654890179634094
0.57059907913208008 0.87714123725891113 0.29006120562553406
0.75854200124740601 0.89720708131790161 0.2425367683172226
0.89601427316665649 0.90780162811279297 0.15408197045326233
0.94872385263442993 0.90626657009124756 0.11159467697143555
0.97416967153549194 0.89122539758682251 0.080707564949989319
0.0097870323807001114 0.80044150352478027 0.26122751832008362
0.030937045812606812 0.80324363708496094 0.26319164037704468
0.050245098769664764 0.80491727590560913 0.26624894142150879
0.067256957292556763 0.80289089679718018 0.2672959566116333
0.084416225552558899 0.80520272254943848 0.26322475075721741
0.11609560251235962 0.82121193408966064 0.2513982355594635
0.18687550723552704 0.84731823205947876 0.2411501407623291
0.31796488165855408 0.8726385235786438 0.25206220149993896
0.50318676233291626 0.89464104175567627 0.28451567888259888
0.69765967130661011 0.9180946946144104 0.27473530173301697
0.86231803894042969 0.93720740079879761 0.19326817989349365
0.93990379571914673 0.94832831621170044 0.14357824623584747
0.96313852071762085 0.94513964653015137 0.12645262479782104
0.0088294679298996925 0.82288730144500732 0.2613467276096344
0.030144531279802322 0.82545012235641479 0.26257109642028809
0.048855770379304886 0.82673472166061401 0.26386532187461853
0.062720097601413727 0.82453936338424683 0.26306828856468201
0.074771374464035034 0.82657963037490845 0.25776073336601257
0.096328437328338623 0.84174025058746338 0.24829608201980591
0.14716078341007233 0.86622685194015503 0.24176286160945892
0.25364446640014648 0.89195996522903442 0.25307035446166992
0.42595997452735901 0.91453731060028076 0.28423863649368286
0.62296080589294434 0.93696528673171997 0.29222017526626587
0.8102383017539978 0.95710128545761108 0.22065696120262146
0.92342275381088257 0.97077333927154541 0.1548532098531723
0.9603002667427063 0.97466492652893066 0.13918977975845337
0.01377283688634634 0.017084144055843353 0.12921175360679626
0.085809759795665741 0.01156565360724926 0.12588946521282196
0.21610137820243835 0.012701565399765968 0.10873076319694519
0.36304634809494019 0.015523678623139858 0.091237299144268036
0.50724887847900391 0.015488808043301105 0.097405798733234406
0.64496463537216187 0.014719884842634201 0.10278939455747604
0.76473408937454224 0.014511168003082275 0.097492128610610962
0.8439098596572876 0.015030027367174625 0.089117027819156647
0.88207340240478516 0.01565602608025074 0.074846260249614716
0.90230703353881836 0.015191994607448578 0.06603577733039856
0.92110401391983032 0.013509443961083889 0.06602795422077179
0.94054192304611206 0.012923805043101311 0.064012043178081512
0.96257084608078003 0.013901385478675365 0.061299823224544525
0.0085690217092633247 0.074131891131401062 0.12703107297420502
0.05508282408118248 0.065140143036842346 0.12991258502006531
0.16881631314754486 0.060300864279270172 0.12164489179849625
0.32171908020973206 0.059830266982316971 0.10807792842388153
0.47504252195358276 0.058250740170478821 0.10614115744829178
0.61696535348892212 0.052937392145395279 0.10547292232513428
0.7449536919593811 0.050577964633703232 0.099173404276371002
0.83633852005004883 0.048713549971580505 0.090999171137809753
0.87928056716918945 0.048529725521802902 0.087004639208316803
0.89904415607452393 0.04634426161646843 0.081505388021469116
0.91760772466659546 0.042593624442815781 0.072984300553798676
0.93761754035949707 0.040902186185121536 0.066129870712757111
0.96034598350524902 0.041952513158321381 0.063057869672775269
0.0082912817597389221 0.14450474083423615 0.13028295338153839
0.031654581427574158 0.13738398253917694 0.12813869118690491
0.10981186479330063 0.12882302701473236 0.122592493891716
0.26153162121772766 0.12492480129003525 0.10949309170246124
0.43429660797119141 0.12130710482597351 0.09707939624786377
0.58764064311981201 0.1134481355547905 0.091713011264801025
0.72704535722732544 0.10433268547058105 0.085565529763698578
0.83471465110778809 0.095444850623607635 0.076926015317440033
0.88676601648330688 0.089630603790283203 0.077091097831726074
0.90668231248855591 0.085236825048923492 0.075014211237430573
0.92140096426010132 0.081845484673976898 0.06740366667509079
0.94031518697738647 0.07858741283416748 0.06219857931137085
0.96342754364013672 0.079632684588432312 0.06183992326259613
0.0072278189472854137 0.22549892961978912 0.13755536079406738
0.02312806062400341 0.21981817483901978 0.1319863349199295
0.064609810709953308 0.21567732095718384 0.12344793975353241
0.18976870179176331 0.21344342827796936 0.10900579392910004
0.38436576724052429 0.21266089379787445 0.085671491920948029
0.55975842475891113 0.20731727778911591 0.073626577854156494
0.70511376857757568 0.19373489916324615 0.070040307939052582
0.82344186305999756 0.17841100692749023 0.065807148814201355
0.89309978485107422 0.16581571102142334 0.063627950847148895
0.91822165250778198 0.15587358176708221 0.061831917613744736
0.93110108375549316 0.14901800453662872 0.055765833705663681
0.94819658994674683 0.14252229034900665 0.053454633802175522
0.97062826156616211 0.14076972007751465 0.055857952684164047
