assets/lut/editingcorp dimmer.cube
# Created by: G'MIC (https://gmic.eu)
TITLE "dimmer"
# LUT size
LUT_3D_SIZE 13
# Data domain
DOMAIN_MIN 0.0 0.0 0.0
DOMAIN_MAX 1.0 1.0 1.0
# LUT data points
0.059606991708278656 0.057504929602146149 0.052111398428678513
0.097352467477321625 0.064219534397125244 0.050223466008901596
0.14584934711456299 0.06850164383649826 0.048205386847257614
0.19813695549964905 0.069116272032260895 0.053429249674081802
0.24665872752666473 0.064905725419521332 0.058159742504358292
0.28952127695083618 0.05529315397143364 0.05607147142291069
0.33254054188728333 0.045932170003652573 0.052700940519571304
0.38113927841186523 0.039067152887582779 0.049763113260269165
0.43871885538101196 0.035924140363931656 0.045855861157178879
0.50424867868423462 0.037108536809682846 0.039000567048788071
0.5769956111907959 0.042581371963024139 0.029434608295559883
0.65859019756317139 0.064095214009284973 0.021067675203084946
0.73929852247238159 0.097878493368625641 0.01952107809484005
0.071968883275985718 0.089831754565238953 0.067037187516689301
0.11073367297649384 0.091921471059322357 0.063835635781288147
0.16170132160186768 0.095657140016555786 0.058977793902158737
0.21621367335319519 0.098020382225513458 0.06041095033288002
0.26670226454734802 0.096291124820709229 0.064134992659091949
0.31135281920433044 0.088373593986034393 0.064020372927188873
0.35511571168899536 0.077564358711242676 0.060117371380329132
0.40242046117782593 0.069257356226444244 0.056424204260110855
0.45800477266311646 0.064905591309070587 0.057088125497102737
0.52160269021987915 0.072171516716480255 0.052801650017499924
0.59575802087783813 0.095080658793449402 0.04040977731347084
0.68225032091140747 0.13985024392604828 0.027703318744897842
0.76500415802001953 0.18903392553329468 0.027561411261558533
0.085325278341770172 0.13592515885829926 0.087669789791107178
0.12069184333086014 0.13776132464408875 0.086181357502937317
0.1786583811044693 0.13537976145744324 0.074211210012435913
0.2412143349647522 0.13802564144134521 0.067210659384727478
0.29153084754943848 0.14214950799942017 0.070558659732341766
0.33673107624053955 0.14097492396831512 0.072862453758716583
0.3841005265712738 0.13163729012012482 0.069522261619567871
0.43460699915885925 0.12039646506309509 0.064374200999736786
0.48866349458694458 0.11884996294975281 0.063256897032260895
0.55171811580657959 0.13730813562870026 0.054837726056575775
0.62740904092788696 0.17474851012229919 0.037320844829082489
0.71166390180587769 0.2271435409784317 0.02573101595044136
0.78902918100357056 0.27712377905845642 0.033305972814559937
0.10650230944156647 0.19637849926948547 0.11345723271369934
0.13252338767051697 0.20460046827793121 0.11763521283864975
0.18857298791408539 0.20117612183094025 0.10469865798950195
0.26259034872055054 0.19925934076309204 0.08660387247800827
0.31786486506462097 0.20333990454673767 0.083243004977703094
0.36372381448745728 0.21517287194728851 0.084112145006656647
0.41409948468208313 0.22256685793399811 0.080736137926578522
0.46992725133895874 0.21533186733722687 0.071968227624893188
0.52680820226669312 0.21406692266464233 0.062354456633329391
0.59086054563522339 0.23193089663982391 0.046910140663385391
0.66551017761230469 0.26944765448570251 0.026942100375890732
0.74248808622360229 0.31035590171813965 0.020693296566605568
0.80967468023300171 0.3445475697517395 0.037260271608829498
0.14087113738059998 0.26297098398208618 0.14425873756408691
0.16243088245391846 0.27790197730064392 0.14941710233688354
0.20086587965488434 0.28249189257621765 0.14247755706310272
0.27752378582954407 0.28010880947113037 0.11592084169387817
0.34242039918899536 0.28209522366523743 0.097738929092884064
0.38991045951843262 0.29412367939949036 0.097600571811199188
0.43893009424209595 0.31542536616325378 0.097668483853340149
0.49531129002571106 0.32428011298179626 0.089029349386692047
0.55745518207550049 0.32336729764938354 0.069889441132545471
0.62522590160369873 0.33235713839530945 0.043845053762197495
0.69957035779953003 0.3569716215133667 0.020431099459528923
0.77127152681350708 0.38386756181716919 0.016229307278990746
0.83093559741973877 0.4063015878200531 0.037945274263620377
0.1769358366727829 0.33174994587898254 0.17963883280754089
0.19900527596473694 0.34475067257881165 0.18415747582912445
0.22851216793060303 0.35264313220977783 0.17934270203113556
0.288958340883255 0.35880869626998901 0.15250244736671448
0.35687410831451416 0.36121150851249695 0.12421191483736038
0.41214075684547424 0.36546817421913147 0.11657749116420746
0.46168386936187744 0.38249191641807556 0.11804420500993729
0.51442945003509521 0.40325337648391724 0.11682283133268356
0.57746756076812744 0.41480186581611633 0.10072452574968338
0.65026330947875977 0.4228302538394928 0.066813841462135315
0.72565740346908569 0.43528684973716736 0.033519282937049866
0.7924075722694397 0.45106038451194763 0.030094670131802559
0.84626471996307373 0.46655070781707764 0.054197080433368683
0.21323564648628235 0.39781114459037781 0.21844139695167542
0.23816750943660736 0.40896984934806824 0.22550816833972931
0.26625910401344299 0.41918143630027771 0.22227272391319275
0.3071708083152771 0.43050083518028259 0.20060783624649048
0.3662477433681488 0.43544566631317139 0.16725333034992218
0.42745193839073181 0.43714204430580139 0.14577469229698181
0.48122102022171021 0.44571730494499207 0.14043231308460236
0.53493988513946533 0.46527105569839478 0.14194861054420471
0.59641385078430176 0.48733079433441162 0.13759316504001617
0.67050528526306152 0.50015455484390259 0.10665881633758545
0.7456699013710022 0.50567066669464111 0.070079371333122253
0.80559784173965454 0.51313847303390503 0.067856341600418091
0.85324978828430176 0.52322101593017578 0.090433739125728607
0.25261297821998596 0.45802861452102661 0.2612767219543457
0.27828961610794067 0.47125163674354553 0.27105191349983215
0.309417724609375 0.48531919717788696 0.2645413875579834
0.34754419326782227 0.49987185001373291 0.23878851532936096
0.38994845747947693 0.51114696264266968 0.21003301441669464
0.43994233012199402 0.51660871505737305 0.18703295290470123
0.49635308980941772 0.51712268590927124 0.17407780885696411
0.55513179302215576 0.52638083696365356 0.1678214967250824
0.61827600002288818 0.5465208888053894 0.1629459410905838
0.69136834144592285 0.56134366989135742 0.13939203321933746
0.76187759637832642 0.56720471382141113 0.11080396920442581
0.81637114286422729 0.57191312313079834 0.10729724913835526
0.85839670896530151 0.57934999465942383 0.12532787024974823
0.29403799772262573 0.51257461309432983 0.30564999580383301
0.31696885824203491 0.52760446071624756 0.31847402453422546
0.34848508238792419 0.54486680030822754 0.31129881739616394
0.39011856913566589 0.56536591053009033 0.27933764457702637
0.42805612087249756 0.58197993040084839 0.25264072418212891
0.46564695239067078 0.58916634321212769 0.23725451529026031
0.51513564586639404 0.58738195896148682 0.21947850286960602
0.57398104667663574 0.58982038497924805 0.20320193469524384
0.63918519020080566 0.59898602962493896 0.19210539758205414
0.71095806360244751 0.60754722356796265 0.17038324475288391
0.7782367467880249 0.61435037851333618 0.14774493873119354
0.82776725292205811 0.62265408039093018 0.14444483816623688
0.86490142345428467 0.63288915157318115 0.15932729840278625
0.33738613128662109 0.56401509046554565 0.35131824016571045
0.3548620343208313 0.57692766189575195 0.36948281526565552
0.37877628207206726 0.59126824140548706 0.37248364090919495
0.41955134272575378 0.61506396532058716 0.3438321053981781
0.46407684683799744 0.63779634237289429 0.30992782115936279
0.49999186396598816 0.6458057165145874 0.28420242667198181
0.53990423679351807 0.64418774843215942 0.258716881275177
0.59672421216964722 0.64721488952636719 0.24291911721229553
0.65960055589675903 0.6503751277923584 0.2310863584280014
0.72923064231872559 0.64798390865325928 0.20564143359661102
0.79348409175872803 0.65016019344329834 0.18369175493717194
0.83931154012680054 0.66320031881332397 0.18580047786235809
0.8726348876953125 0.67945492267608643 0.20538443326950073
0.38348609209060669 0.61868846416473389 0.39975613355636597
0.39894863963127136 0.62935143709182739 0.42059728503227234
0.41638422012329102 0.63761246204376221 0.43728315830230713
0.44920176267623901 0.65514868497848511 0.43100431561470032
0.49589475989341736 0.67886084318161011 0.39845466613769531
0.53522241115570068 0.69165521860122681 0.35182511806488037
0.56915640830993652 0.69241780042648315 0.30941244959831238
0.62657028436660767 0.69668978452682495 0.28624820709228516
0.68781375885009766 0.69680148363113403 0.26592695713043213
0.74668914079666138 0.69357305765151978 0.2456987202167511
0.80090814828872681 0.69503140449523926 0.23297277092933655
0.8461768627166748 0.70521867275238037 0.23654675483703613
0.87884217500686646 0.72347187995910645 0.25871947407722473
0.43202406167984009 0.67775076627731323 0.45350682735443115
0.45295649766921997 0.69028693437576294 0.47377195954322815
0.47496530413627625 0.69916218519210815 0.49441346526145935
0.50400835275650024 0.71106159687042236 0.50262421369552612
0.54183095693588257 0.72778469324111938 0.48087930679321289
0.57497251033782959 0.73884075880050659 0.43572747707366943
0.60559362173080444 0.74244201183319092 0.38872787356376648
0.65448707342147827 0.74301981925964355 0.34728512167930603
0.71594619750976562 0.73911267518997192 0.30650803446769714
0.76586264371871948 0.73998904228210449 0.29024863243103027
0.80628442764282227 0.74563825130462646 0.28986117243766785
0.84784984588623047 0.75230729579925537 0.29292717576026917
0.8824385404586792 0.76516735553741455 0.30923116207122803
0.48073515295982361 0.73731738328933716 0.51199877262115479
0.50684219598770142 0.74930548667907715 0.53393340110778809
0.53571820259094238 0.75900793075561523 0.55454623699188232
0.56766855716705322 0.77323371171951294 0.55726641416549683
0.59639650583267212 0.78623175621032715 0.53830760717391968
0.61852926015853882 0.79140990972518921 0.5061601996421814
0.64302974939346313 0.79121655225753784 0.47077545523643494
0.67956703901290894 0.7912604808807373 0.42234113812446594
0.7360873818397522 0.78648018836975098 0.36783063411712646
0.78624290227890015 0.7852364182472229 0.34122031927108765
0.82303571701049805 0.7906649112701416 0.33814936876296997
0.8563801646232605 0.79707056283950806 0.34312784671783447
0.88995867967605591 0.80600035190582275 0.35466885566711426
0.06142711266875267 0.069300875067710876 0.087854109704494476
0.099479600787162781 0.07103373110294342 0.086724177002906799
0.15051509439945221 0.075254522264003754 0.079298637807369232
0.20573015511035919 0.072042591869831085 0.082334794104099274
0.2544386088848114 0.065396510064601898 0.086211845278739929
0.29609772562980652 0.059944827109575272 0.085399523377418518
0.33786806464195251 0.055750545114278793 0.087899379432201385
0.38540190458297729 0.051749151200056076 0.089386790990829468
0.44219568371772766 0.049132000654935837 0.084431909024715424
0.5086478590965271 0.050475176423788071 0.073743619024753571
0.58334207534790039 0.05407918244600296 0.057277247309684753
0.66644793748855591 0.072681158781051636 0.041199013590812683
0.74727737903594971 0.10457355529069901 0.038623571395874023
0.067679449915885925 0.11139333248138428 0.1008821502327919
0.10683705657720566 0.10816888511180878 0.10438494384288788
0.16285760700702667 0.10695599019527435 0.096843898296356201
0.22740328311920166 0.10527072846889496 0.092710204422473907
0.28074818849563599 0.10142146050930023 0.096659652888774872
0.32499101758003235 0.096140734851360321 0.098876059055328369
0.3678429126739502 0.08989233523607254 0.098743721842765808
0.41321951150894165 0.085779599845409393 0.10003593564033508
0.46647918224334717 0.082489341497421265 0.10371334850788116
0.52881914377212524 0.090532682836055756 0.098313093185424805
0.60517650842666626 0.11517763137817383 0.075557246804237366
0.69304674863815308 0.15702575445175171 0.049323976039886475
0.77376246452331543 0.20408979058265686 0.043970894068479538
0.081142768263816833 0.1635788232088089 0.12594346702098846
0.11836493760347366 0.16438466310501099 0.12795096635818481
0.18382249772548676 0.15393614768981934 0.11143312603235245
0.25732657313346863 0.15366047620773315 0.098316684365272522
0.31090652942657471 0.15716901421546936 0.10407619178295135
0.3559536337852478 0.15779115259647369 0.11019287258386612
0.4020538330078125 0.15125128626823425 0.11127587407827377
0.44859734177589417 0.14412179589271545 0.11342402547597885
0.4997134804725647 0.14572001993656158 0.11916056275367737
0.55972194671630859 0.16369880735874176 0.11551634967327118
0.63553935289382935 0.20066116750240326 0.09101472795009613
0.72102773189544678 0.24683001637458801 0.061630848795175552
0.79475134611129761 0.29049107432365417 0.058266822248697281
0.10725241154432297 0.22424536943435669 0.15308825671672821
0.13645963370800018 0.22790899872779846 0.15583513677120209
0.19005279242992401 0.22031481564044952 0.14690844714641571
0.27213269472122192 0.21981559693813324 0.12227817624807358
0.33548593521118164 0.22883902490139008 0.11510696262121201
0.38236209750175476 0.2406155914068222 0.12035375833511353
0.4309631884098053 0.24720849096775055 0.12506209313869476
0.48306602239608765 0.24222473800182343 0.12839889526367188
0.53656208515167236 0.24357393383979797 0.1306253969669342
0.59673166275024414 0.26172825694084167 0.12602002918720245
0.66961240768432617 0.29692500829696655 0.10887309163808823
0.74623042345046997 0.3311532735824585 0.09218241274356842
0.81224220991134644 0.36022597551345825 0.091818176209926605
0.14556804299354553 0.29002794623374939 0.1889290064573288
0.17301228642463684 0.29877516627311707 0.18763767182826996
0.20506392419338226 0.29539704322814941 0.18942345678806305
0.27796655893325806 0.29551252722740173 0.16648872196674347
0.35301569104194641 0.30454036593437195 0.13596159219741821
0.40427088737487793 0.31722626090049744 0.13294324278831482
0.45313078165054321 0.33747109770774841 0.14242786169052124
0.50746476650238037 0.34769001603126526 0.14836013317108154
0.56585597991943359 0.34776824712753296 0.14553588628768921
0.62959116697311401 0.35729292035102844 0.13416548073291779
0.70133203268051147 0.38043504953384399 0.11834661662578583
0.7721860408782959 0.40345263481140137 0.11152154952287674
0.83155661821365356 0.42381033301353455 0.11747635155916214
0.18176001310348511 0.35872277617454529 0.22895123064517975
0.20882618427276611 0.36598372459411621 0.22969654202461243
0.23748327791690826 0.36257874965667725 0.22656780481338501
0.29431021213531494 0.36639386415481567 0.21024057269096375
0.36575210094451904 0.37520194053649902 0.17242376506328583
0.42354142665863037 0.38555577397346497 0.15267562866210938
0.4738195538520813 0.40171191096305847 0.15767131745815277
0.5264926552772522 0.42181026935577393 0.16849258542060852
0.58678758144378662 0.43449091911315918 0.16876015067100525
0.65598136186599731 0.44309356808662415 0.15105009078979492
0.72857034206390381 0.45357435941696167 0.13109494745731354
0.79292327165603638 0.46682044863700867 0.13256415724754333
0.84458959102630615 0.48099324107170105 0.14905716478824615
0.21767686307430267 0.42591577768325806 0.26714137196540833
0.24579609930515289 0.4323943555355072 0.27790740132331848
0.27432820200920105 0.43321305513381958 0.28035470843315125
0.31461092829704285 0.43650943040847778 0.26629900932312012
0.3761734664440155 0.44517537951469421 0.22336699068546295
0.43818119168281555 0.45403179526329041 0.18749886751174927
0.49274590611457825 0.46277523040771484 0.1751430481672287
0.54600095748901367 0.48163133859634399 0.18294402956962585
0.60640984773635864 0.50644767284393311 0.19056534767150879
0.67903149127960205 0.52018553018569946 0.1747363805770874
0.75063908100128174 0.52139568328857422 0.15795332193374634
0.80591499805450439 0.52524852752685547 0.16903434693813324
0.84964501857757568 0.53337812423706055 0.1928756982088089
0.25922447443008423 0.48649716377258301 0.30606627464294434
0.28627964854240417 0.49769705533981323 0.32597991824150085
0.31626749038696289 0.50472748279571533 0.334114670753479
0.35209152102470398 0.50810235738754272 0.32267683744430542
0.39872151613235474 0.51586705446243286 0.28912478685379028
0.45006102323532104 0.52695935964584351 0.25106152892112732
0.5080876350402832 0.53438812494277954 0.21683095395565033
0.56733673810958862 0.54699075222015381 0.20417043566703796
0.62981021404266357 0.56860208511352539 0.20666609704494476
0.70127171277999878 0.58490937948226929 0.19969595968723297
0.76904308795928955 0.58783125877380371 0.19150207936763763
0.81766337156295776 0.58585488796234131 0.20265528559684753
0.85518187284469604 0.58792519569396973 0.2253444641828537
0.30450528860092163 0.53944176435470581 0.34503620862960815
0.32774737477302551 0.55618393421173096 0.37052023410797119
0.35868313908576965 0.57065171003341675 0.38249322772026062
0.40107086300849915 0.57832908630371094 0.36786225438117981
0.44247302412986755 0.58563697338104248 0.34719914197921753
0.47719404101371765 0.59824824333190918 0.32107973098754883
0.52693188190460205 0.60758161544799805 0.27934136986732483
0.58839994668960571 0.614937424659729 0.24400585889816284
0.65528202056884766 0.62231087684631348 0.23034229874610901
0.72463279962539673 0.63301032781600952 0.22638437151908875
0.78689312934875488 0.64360612630844116 0.2242731899023056
0.82955968379974365 0.64298754930496216 0.23606278002262115
0.86144489049911499 0.6434096097946167 0.25629428029060364
0.35043343901634216 0.58818084001541138 0.38369905948638916
0.36870083212852478 0.60513138771057129 0.4104485809803009
0.39512354135513306 0.62083262205123901 0.42615488171577454
0.43721979856491089 0.63480162620544434 0.41609466075897217
0.48281684517860413 0.64734262228012085 0.39710986614227295
0.51816642284393311 0.66319125890731812 0.36724579334259033
0.55553072690963745 0.67444103956222534 0.32769691944122314
0.60920482873916626 0.67925161123275757 0.29657590389251709
0.67524200677871704 0.6771465539932251 0.27624309062957764
0.74300819635391235 0.67742276191711426 0.26205107569694519
0.80188000202178955 0.68444424867630005 0.25731316208839417
0.83926033973693848 0.69052577018737793 0.27670034766197205
0.86751270294189453 0.69707834720611572 0.30184203386306763
0.39597555994987488 0.63998746871948242 0.42721885442733765
0.41206979751586914 0.65426689386367798 0.45106640458106995
0.4321402907371521 0.665566086769104 0.47148227691650391
0.46450987458229065 0.67685568332672119 0.48210898041725159
0.51052141189575195 0.68878555297851562 0.47378623485565186
0.55241763591766357 0.70528519153594971 0.4367167055606842
0.58385580778121948 0.72308963537216187 0.38494578003883362
0.6320948600769043 0.73230433464050293 0.35354679822921753
0.6938207745552063 0.73098677396774292 0.32906290888786316
0.75580984354019165 0.72793394327163696 0.30895218253135681
0.80953359603881836 0.73188620805740356 0.30220186710357666
0.84506809711456299 0.73794454336166382 0.32222709059715271
0.87252438068389893 0.7485535740852356 0.35076072812080383
0.44020026922225952 0.69812321662902832 0.48187157511711121
0.45974457263946533 0.71094071865081787 0.50276291370391846
0.48064982891082764 0.71964734792709351 0.52467852830886841
0.50704735517501831 0.72737854719161987 0.54295575618743896
0.54681026935577393 0.73373329639434814 0.54453462362289429
0.58758455514907837 0.74179905652999878 0.51907867193222046
0.61887580156326294 0.75465965270996094 0.47269749641418457
0.66037482023239136 0.7664954662322998 0.42616698145866394
0.71630704402923584 0.77125126123428345 0.38155218958854675
0.77242541313171387 0.77190011739730835 0.3565267026424408
0.81672245264053345 0.77552968263626099 0.35240209102630615
0.84947609901428223 0.77981507778167725 0.36567291617393494
0.87831288576126099 0.78748089075088501 0.38789036870002747
0.48506045341491699 0.75738292932510376 0.5426790714263916
0.50917607545852661 0.7685692310333252 0.56442934274673462
0.53485530614852905 0.77695542573928833 0.58491843938827515
0.56320172548294067 0.78514069318771362 0.59604889154434204
0.59576243162155151 0.78978246450424194 0.59496086835861206
0.62855923175811768 0.78956252336502075 0.58273869752883911
0.65912705659866333 0.79017937183380127 0.55692875385284424
0.69280576705932617 0.79991590976715088 0.50430864095687866
0.74175512790679932 0.8080899715423584 0.44248974323272705
0.79607558250427246 0.8094475269317627 0.40482997894287109
0.83334386348724365 0.81388705968856812 0.39605692028999329
0.8597797155380249 0.81773465871810913 0.4052937924861908
0.886921226978302 0.82338696718215942 0.42205983400344849
0.059817325323820114 0.079321108758449554 0.15172548592090607
0.093713022768497467 0.078222937881946564 0.16136163473129272
0.14663660526275635 0.082175053656101227 0.14571592211723328
0.20807981491088867 0.082274690270423889 0.13427254557609558
0.25940796732902527 0.075416117906570435 0.13012558221817017
0.30095615983009338 0.069790169596672058 0.1277996152639389
0.3410031795501709 0.065619118511676788 0.13023188710212708
0.38635390996932983 0.061687871813774109 0.13030299544334412
0.44093969464302063 0.057988200336694717 0.1258130818605423
0.50524389743804932 0.055811654776334763 0.1183181032538414
0.58061546087265015 0.063043795526027679 0.10115022957324982
0.66474050283432007 0.087740972638130188 0.079591609537601471
0.74463200569152832 0.12304513901472092 0.071004591882228851
0.062460567802190781 0.12737710773944855 0.1643076092004776
0.095673248171806335 0.13329234719276428 0.18002134561538696
0.1512589305639267 0.12518113851547241 0.17261442542076111
0.22974935173988342 0.12275960296392441 0.15009123086929321
0.29125380516052246 0.1185392364859581 0.14735402166843414
0.3387153148651123 0.11359896510839462 0.14954359829425812
0.381805419921875 0.10833032429218292 0.15015816688537598
0.42580172419548035 0.10757706314325333 0.15225690603256226
0.47633379697799683 0.10975021868944168 0.15759925544261932
0.53317570686340332 0.11566947400569916 0.1577770859003067
0.60503697395324707 0.1375366598367691 0.13798888027667999
0.69214868545532227 0.18105535209178925 0.10801780223846436
0.77118712663650513 0.23028643429279327 0.098597235977649689
0.074150934815406799 0.18800167739391327 0.1956603080034256
0.10736275464296341 0.20739252865314484 0.21190257370471954
0.16392906010150909 0.19597449898719788 0.20281104743480682
0.25198644399642944 0.18227449059486389 0.17308270931243896
0.32391068339347839 0.18303556740283966 0.16387616097927094
0.37617620825767517 0.18320292234420776 0.16968926787376404
0.42380574345588684 0.17747756838798523 0.17359107732772827
0.46696934103965759 0.17648382484912872 0.17966847121715546
0.51399797201156616 0.18451042473316193 0.19099651277065277
0.56567418575286865 0.20146504044532776 0.19722297787666321
0.63337188959121704 0.23151831328868866 0.18052467703819275
0.7173888087272644 0.2718295156955719 0.14879435300827026
0.78976505994796753 0.31263095140457153 0.14356024563312531
0.099577181041240692 0.25515422224998474 0.22822737693786621
0.13074606657028198 0.27474701404571533 0.23699171841144562
0.17856593430042267 0.27186769247055054 0.2347998172044754
0.27447521686553955 0.25303032994270325 0.19589938223361969
0.35664087533950806 0.25918644666671753 0.17281213402748108
0.40780583024024963 0.27170410752296448 0.1838899701833725
0.4550737738609314 0.27879399061203003 0.19796560704708099
0.50093555450439453 0.27452373504638672 0.20921909809112549
0.54793977737426758 0.27968516945838928 0.22295282781124115
0.59994345903396606 0.29851064085960388 0.23302079737186432
0.66357851028442383 0.32779109477996826 0.23016431927680969
0.73665910959243774 0.3529018759727478 0.2110271155834198
0.80181407928466797 0.37837529182434082 0.20053571462631226
0.13536128401756287 0.32425025105476379 0.26337838172912598
0.16567157208919525 0.3443865180015564 0.26100140810012817
0.20074044167995453 0.34027683734893799 0.26691433787345886
0.28275582194328308 0.32478863000869751 0.2443714439868927
0.37496805191040039 0.33049789071083069 0.19889524579048157
0.4284195601940155 0.34495729207992554 0.19217817485332489
