assets/lut/editingcorp nigrum.cube
# Created by: G'MIC (https://gmic.eu)
TITLE "nigrum"
# LUT size
LUT_3D_SIZE 5
# Data domain
DOMAIN_MIN 0.0 0.0 0.0
DOMAIN_MAX 1.0 1.0 1.0
# LUT data points
0.010274805128574371 0.013891975395381451 0.015297459438443184
0.15460164844989777 0.0082016289234161377 0.0056421170011162758
0.36924120783805847 0.0091439643874764442 0.0051384721882641315
0.60159409046173096 0.012017552740871906 0.0017653671093285084
0.84766703844070435 0.018658790737390518 0.0050263646990060806
0.016341324895620346 0.19755741953849792 0.013346144929528236
0.22205621004104614 0.21020267903804779 0.0059698065742850304
0.46268704533576965 0.21199259161949158 0.0029104943387210369
0.68480378389358521 0.16969776153564453 0.0052296356298029423
0.88912665843963623 0.079260729253292084 0.0032743117772042751
0.13049720227718353 0.41046825051307678 0.078641466796398163
0.33164173364639282 0.45969963073730469 0.081490099430084229
0.56326067447662354 0.50149863958358765 0.078595958650112152
0.80996692180633545 0.51112014055252075 0.073065407574176788
0.97451412677764893 0.58281362056732178 0.34378278255462646
0.29317548871040344 0.62569773197174072 0.1535293310880661
0.45258596539497375 0.67329257726669312 0.16306883096694946
0.64040553569793701 0.73150491714477539 0.17294646799564362
0.85967433452606201 0.77803647518157959 0.23641136288642883
0.97749686241149902 0.84720635414123535 0.514107346534729
0.32964387536048889 0.79036253690719604 0.20278327167034149
0.48977240920066833 0.83545327186584473 0.21223317086696625
0.6761782169342041 0.90118569135665894 0.22545458376407623
0.87763482332229614 0.94091260433197021 0.34012198448181152
0.97727155685424805 0.96205365657806396 0.59532159566879272
0.039418719708919525 0.081725999712944031 0.21692349016666412
0.19998852908611298 0.047986678779125214 0.20615744590759277
0.38568267226219177 0.00045037362724542618 0.14676932990550995
0.59166508913040161 0.013785029761493206 0.096813753247261047
0.83912760019302368 0.01969216950237751 0.038737606257200241
0.035130985081195831 0.24995188415050507 0.2401641458272934
0.25273904204368591 0.26626098155975342 0.24522912502288818
0.49984616041183472 0.20703478157520294 0.19089809060096741
0.69181078672409058 0.12763373553752899 0.10180770605802536
0.88662225008010864 0.059555485844612122 0.052589088678359985
0.056464280933141708 0.41484609246253967 0.21302375197410583
0.29279646277427673 0.46556392312049866 0.23449757695198059
0.56676572561264038 0.52048194408416748 0.26920920610427856
0.82498741149902344 0.52469229698181152 0.25225409865379333
0.97605812549591064 0.59544080495834351 0.44288045167922974
0.19373096525669098 0.59285187721252441 0.25540795922279358
0.38094806671142578 0.64298981428146362 0.26729077100753784
0.61490547657012939 0.72079509496688843 0.29338496923446655
0.85896039009094238 0.78189873695373535 0.34960231184959412
0.97737389802932739 0.85153400897979736 0.59572488069534302
0.28482389450073242 0.77157795429229736 0.30572670698165894
0.43605130910873413 0.80975574254989624 0.30926936864852905
0.6439635157585144 0.88244783878326416 0.34364917874336243
0.87258082628250122 0.94058799743652344 0.43136662244796753
0.98285305500030518 0.96978306770324707 0.67617672681808472
0.071792781352996826 0.13718928396701813 0.38751256465911865
0.16712233424186707 0.17215725779533386 0.44436642527580261
0.44575181603431702 0.085183806717395782 0.38027405738830566
0.61092901229858398 0.011527596041560173 0.34728971123695374
0.84924989938735962 0.020553484559059143 0.35820391774177551
0.076975516974925995 0.29701212048530579 0.42354908585548401
0.1715431809425354 0.33717620372772217 0.47472968697547913
0.53821092844009399 0.30604872107505798 0.45943489670753479
0.73340260982513428 0.20216017961502075 0.42291072010993958
0.92775124311447144 0.21284040808677673 0.42768615484237671
0.067056082189083099 0.4636726975440979 0.43258795142173767
0.24178500473499298 0.50480419397354126 0.46508142352104187
0.56827390193939209 0.55281490087509155 0.49746561050415039
0.82732683420181274 0.56510323286056519 0.51446068286895752
0.97426408529281616 0.65760296583175659 0.60958778858184814
0.15450212359428406 0.61468654870986938 0.43968412280082703
0.33783522248268127 0.65653538703918457 0.44690856337547302
0.58843094110488892 0.7188904881477356 0.48976784944534302
0.84143894910812378 0.78122466802597046 0.53806173801422119
0.97694391012191772 0.87219369411468506 0.70711809396743774
0.20484867691993713 0.762978196144104 0.43568480014801025
0.38671207427978516 0.80466604232788086 0.4489690363407135
0.61211824417114258 0.87269413471221924 0.48292741179466248
0.84614962339401245 0.93309855461120605 0.5588984489440918
0.97769933938980103 0.96710234880447388 0.7527194619178772
0.10704374313354492 0.19724181294441223 0.53347218036651611
0.14791227877140045 0.24346759915351868 0.59609264135360718
0.45562490820884705 0.25444132089614868 0.61550098657608032
0.66406196355819702 0.16933096945285797 0.54858940839767456
0.86151969432830811 0.14938557147979736 0.5657951831817627
0.10079911351203918 0.34099552035331726 0.55781012773513794
0.13765208423137665 0.37367105484008789 0.60396242141723633
0.48106786608695984 0.41571149230003357 0.64980566501617432
0.74222344160079956 0.36020669341087341 0.61717689037322998
0.93012815713882446 0.39095297455787659 0.64022582769393921
0.087851673364639282 0.49303856492042542 0.57217288017272949
0.15939231216907501 0.51709729433059692 0.60707682371139526
0.48972782492637634 0.57183325290679932 0.65196794271469116
0.78814727067947388 0.60478365421295166 0.67673546075820923
0.96434736251831055 0.65688812732696533 0.72440230846405029
0.11632177233695984 0.62320244312286377 0.57882243394851685
0.20353281497955322 0.64887303113937378 0.59917587041854858
0.52148950099945068 0.72015655040740967 0.64696437120437622
0.80491918325424194 0.78207123279571533 0.69271385669708252
0.97315973043441772 0.86666548252105713 0.7942931056022644
0.13365130126476288 0.75394433736801147 0.56915074586868286
0.31061795353889465 0.80536717176437378 0.60410618782043457
0.5696445107460022 0.87782770395278931 0.64283090829849243
0.82270187139511108 0.92428195476531982 0.69325155019760132
0.97956424951553345 0.96788269281387329 0.83290833234786987
0.13872529566287994 0.26787588000297546 0.67776399850845337
0.17418563365936279 0.3008175790309906 0.71644347906112671
0.39077123999595642 0.3409724235534668 0.75479298830032349
0.70787614583969116 0.34762194752693176 0.74964457750320435
0.88520944118499756 0.33081299066543579 0.73459869623184204
0.13601177930831909 0.39033830165863037 0.68668246269226074
0.18355965614318848 0.41780292987823486 0.72252708673477173
0.385599285364151 0.44981464743614197 0.76059854030609131
0.7282441258430481 0.4891757071018219 0.77652567625045776
0.91763025522232056 0.50490176677703857 0.77738326787948608
0.12319891154766083 0.51777344942092896 0.69690108299255371
0.14011856913566589 0.53272104263305664 0.71817553043365479
0.36883065104484558 0.56693977117538452 0.75453644990921021
0.73049944639205933 0.63111066818237305 0.79197323322296143
0.93478655815124512 0.68223172426223755 0.81982755661010742
0.11820165812969208 0.62184220552444458 0.67584890127182007
0.13972087204456329 0.63570642471313477 0.69570893049240112
0.40112784504890442 0.69595885276794434 0.75903642177581787
0.73644685745239258 0.77142482995986938 0.81094348430633545
0.95239055156707764 0.84263855218887329 0.85314786434173584
0.11994732171297073 0.72435098886489868 0.66908514499664307
0.1858891099691391 0.76337909698486328 0.69884657859802246
0.32944849133491516 0.84669309854507446 0.7674219012260437
0.75404995679855347 0.927165687084198 0.82908159494400024
0.97112476825714111 0.95958346128463745 0.89190429449081421
