assets/lut/editingcorp valize.cube
# Created by: G'MIC (https://gmic.eu)
TITLE "valize"
# LUT size
LUT_3D_SIZE 13
# Data domain
DOMAIN_MIN 0.0 0.0 0.0
DOMAIN_MAX 1.0 1.0 1.0
# LUT data points
0.044852729886770248 0.036653734743595123 0.040963489562273026
0.13078813254833221 0.046631593257188797 0.048010420054197311
0.2299828976392746 0.05609424039721489 0.054397102445363998
0.33388048410415649 0.070295609533786774 0.060884140431880951
0.43422803282737732 0.090788193047046661 0.072821840643882751
0.52577167749404907 0.11559010297060013 0.090786844491958618
0.61255252361297607 0.14307853579521179 0.1095418706536293
0.70902162790298462 0.16715756058692932 0.12646475434303284
0.81826072931289673 0.18736022710800171 0.1419999897480011
0.92120486497879028 0.21291226148605347 0.15946324169635773
0.98666632175445557 0.24477848410606384 0.17933763563632965
1 0.27899587154388428 0.20251540839672089
1 0.31511345505714417 0.2293696403503418
0.077406205236911774 0.1222241148352623 0.053998041898012161
0.14955280721187592 0.13055209815502167 0.05965862050652504
0.2369609922170639 0.13628284633159637 0.063743948936462402
0.33437439799308777 0.14425438642501831 0.068629816174507141
0.43368089199066162 0.15671120584011078 0.080158919095993042
0.52758729457855225 0.17374728620052338 0.098707161843776703
0.61584460735321045 0.19654718041419983 0.11578407883644104
0.70942258834838867 0.21816964447498322 0.13029748201370239
0.81028854846954346 0.2360934317111969 0.14417558908462524
0.90818971395492554 0.25925138592720032 0.16165263950824738
0.97787761688232422 0.29004785418510437 0.18317799270153046
0.99979859590530396 0.32243669033050537 0.20967364311218262
0.99997431039810181 0.35569217801094055 0.23993520438671112
0.11947403103113174 0.2153182327747345 0.073199346661567688
0.17843703925609589 0.21978335082530975 0.078900344669818878
0.25313571095466614 0.2212107926607132 0.081863522529602051
0.34246820211410522 0.22388572990894318 0.08339276909828186
0.43689760565757751 0.23121388256549835 0.092723429203033447
0.528603196144104 0.24532783031463623 0.10934171825647354
0.61742335557937622 0.26579439640045166 0.12407736480236053
0.7102845311164856 0.28663083910942078 0.13611613214015961
0.80940628051757812 0.3048473596572876 0.14853975176811218
0.90666937828063965 0.3254145085811615 0.16469419002532959
0.97691464424133301 0.35010692477226257 0.18691630661487579
0.99974572658538818 0.37579041719436646 0.2152087390422821
0.99928182363510132 0.40375247597694397 0.2486589252948761
0.16603115200996399 0.31394955515861511 0.10060737282037735
0.21601690351963043 0.31669434905052185 0.10762056708335876
0.2780551016330719 0.31451213359832764 0.10998189449310303
0.35564106702804565 0.31214293837547302 0.11052612960338593
0.44332721829414368 0.31499981880187988 0.11575984209775925
0.53109580278396606 0.32681944966316223 0.12615223228931427
0.61724686622619629 0.34748432040214539 0.13574111461639404
0.70837295055389404 0.3698059618473053 0.14404982328414917
0.80943816900253296 0.38915237784385681 0.15392209589481354
0.91094040870666504 0.40618047118186951 0.16867175698280334
0.98316299915313721 0.42337250709533691 0.18984824419021606
1 0.44040095806121826 0.21813294291496277
0.99993985891342163 0.46191391348838806 0.25337511301040649
0.21186366677284241 0.41454875469207764 0.13175444304943085
0.25593510270118713 0.41785630583763123 0.13829976320266724
0.30877840518951416 0.41275134682655334 0.13831745088100433
0.37644606828689575 0.40678727626800537 0.13769032061100006
0.45662680268287659 0.4053587019443512 0.13944768905639648
0.537994384765625 0.41273894906044006 0.1444663405418396
0.61798882484436035 0.43132990598678589 0.14850461483001709
0.70358866453170776 0.45495966076850891 0.15247637033462524
0.80249810218811035 0.47520905733108521 0.15927053987979889
0.90685814619064331 0.48861879110336304 0.17226108908653259
0.98128330707550049 0.49919283390045166 0.1924624890089035
1 0.51019817590713501 0.22135430574417114
1 0.52577662467956543 0.25923675298690796
0.25489011406898499 0.50784009695053101 0.15296439826488495
0.29571521282196045 0.51188594102859497 0.15800552070140839
0.34469988942146301 0.5070490837097168 0.15619765222072601
0.40619033575057983 0.50135678052902222 0.15331201255321503
0.47681871056556702 0.49658247828483582 0.15359361469745636
0.55032521486282349 0.4989086389541626 0.1569637656211853
0.623241126537323 0.51119649410247803 0.15884460508823395
0.70231562852859497 0.53020220994949341 0.1601794958114624
0.79764795303344727 0.54879081249237061 0.16526927053928375
0.9007866382598877 0.56051182746887207 0.17717407643795013
0.97530192136764526 0.56937545537948608 0.19732296466827393
0.99973160028457642 0.57818549871444702 0.22819645702838898
0.99998366832733154 0.59087347984313965 0.27042913436889648
0.29540744423866272 0.58807909488677979 0.16009978950023651
0.33328205347061157 0.59214633703231812 0.1648535281419754
0.37953150272369385 0.59031736850738525 0.1642274409532547
0.43639051914215088 0.58672606945037842 0.16129887104034424
0.50000786781311035 0.58282530307769775 0.16040065884590149
0.56602621078491211 0.58182829618453979 0.16325175762176514
0.63347655534744263 0.5857771635055542 0.16583855450153351
0.7090524435043335 0.59479743242263794 0.16789059340953827
0.80273747444152832 0.6083979606628418 0.17321304976940155
0.90169215202331543 0.6210440993309021 0.18536144495010376
0.97321325540542603 0.63173854351043701 0.20717249810695648
0.99932599067687988 0.64229094982147217 0.24044720828533173
0.99926412105560303 0.65534889698028564 0.28782206773757935
0.33553424477577209 0.66646993160247803 0.16661512851715088
0.37054276466369629 0.67008405923843384 0.1710708886384964
0.41287991404533386 0.66863983869552612 0.17341753840446472
0.46494629979133606 0.66737490892410278 0.1706603467464447
0.52267062664031982 0.66677951812744141 0.16751876473426819
0.58214592933654785 0.66519182920455933 0.16853043437004089
0.64558815956115723 0.66395789384841919 0.1725853830575943
0.71862274408340454 0.6649315357208252 0.17858333885669708
0.8109736442565918 0.67281961441040039 0.18524995446205139
0.90757393836975098 0.68429100513458252 0.19808420538902283
0.97592264413833618 0.69505977630615234 0.22283442318439484
0.99932599067687988 0.70689445734024048 0.26040497422218323
0.99978649616241455 0.7211606502532959 0.31332206726074219
0.37859803438186646 0.75390636920928955 0.1863703727722168
0.41060227155685425 0.75684702396392822 0.19173212349414825
0.44927871227264404 0.75613683462142944 0.19600567221641541
0.49566724896430969 0.75603795051574707 0.19368447363376617
0.54696297645568848 0.75639593601226807 0.18901516497135162
0.60075557231903076 0.75591164827346802 0.18891933560371399
0.66069942712783813 0.75361067056655884 0.19400008022785187
0.73307693004608154 0.75325125455856323 0.20253089070320129
0.82123303413391113 0.75696033239364624 0.20999327301979065
0.91178250312805176 0.76180577278137207 0.22143934667110443
0.9755365252494812 0.76794195175170898 0.24896927177906036
0.99916726350784302 0.77782940864562988 0.29371607303619385
1 0.79095578193664551 0.35319840908050537
0.43178620934486389 0.8497282862663269 0.23482085764408112
0.4595504105091095 0.85156756639480591 0.24152220785617828
0.4925723671913147 0.85057538747787476 0.24665188789367676
0.53063106536865234 0.85145455598831177 0.24553138017654419
0.57427072525024414 0.85328114032745361 0.24185845255851746
0.62247228622436523 0.8521270751953125 0.24237433075904846
0.67880457639694214 0.84911715984344482 0.24901245534420013
0.7471434473991394 0.85108590126037598 0.26039004325866699
0.82830846309661865 0.85217458009719849 0.26833406090736389
0.9118112325668335 0.8511282205581665 0.27898094058036804
0.9726518988609314 0.85126250982284546 0.30868363380432129
0.99813437461853027 0.85541254281997681 0.35536634922027588
1 0.86519813537597656 0.41601914167404175
0.50025838613510132 0.94082850217819214 0.32364583015441895
0.52084672451019287 0.93625110387802124 0.32955825328826904
0.54490631818771362 0.93241280317306519 0.33452495932579041
0.57301050424575806 0.93495374917984009 0.33517211675643921
0.60723364353179932 0.94155579805374146 0.33446702361106873
0.65066039562225342 0.94059461355209351 0.3414064347743988
0.70280593633651733 0.93584150075912476 0.35352620482444763
0.76263320446014404 0.93665081262588501 0.36328980326652527
0.83316534757614136 0.93821954727172852 0.3699394166469574
0.90932703018188477 0.93573909997940063 0.38551676273345947
0.9705851674079895 0.93327206373214722 0.41804242134094238
0.99791353940963745 0.93339067697525024 0.45985013246536255
1 0.93750131130218506 0.50701171159744263
0.57836306095123291 0.99291449785232544 0.44873586297035217
0.59162992238998413 0.98937571048736572 0.45043766498565674
0.60655152797698975 0.98532819747924805 0.45201912522315979
0.62582600116729736 0.98618680238723755 0.45420217514038086
0.65221601724624634 0.99171209335327148 0.45925500988960266
0.68935823440551758 0.9930884838104248 0.47240889072418213
0.73518794775009155 0.99095571041107178 0.48936715722084045
0.78451323509216309 0.98841375112533569 0.49201181530952454
0.84399014711380005 0.98741883039474487 0.49324813485145569
0.91280919313430786 0.98881149291992188 0.51071035861968994
0.97309988737106323 0.98925459384918213 0.54313522577285767
0.99935805797576904 0.98750650882720947 0.56939601898193359
1 0.98505091667175293 0.58652651309967041
0.65643256902694702 1 0.58532130718231201
0.66439914703369141 1 0.58141154050827026
0.67293632030487061 0.99994629621505737 0.57982814311981201
0.68637627363204956 0.99985063076019287 0.58359330892562866
0.70668625831604004 0.99992996454238892 0.59136348962783813
0.73573011159896851 1 0.60158342123031616
0.77210932970046997 1 0.6114305853843689
0.81143909692764282 0.99995797872543335 0.60920196771621704
0.86072045564651489 0.99985998868942261 0.60643893480300903
0.92070990800857544 1 0.61826479434967041
0.97380280494689941 1 0.63614016771316528
0.99866539239883423 1 0.64052283763885498
1 0.99948132038116455 0.63448071479797363
0.057413961738348007 0.041570194065570831 0.11072999238967896
0.136500284075737 0.049814756959676743 0.11825046688318253
0.22821953892707825 0.058191817253828049 0.12643001973628998
0.32470762729644775 0.077235952019691467 0.13336686789989471
0.42258000373840332 0.10081848502159119 0.14181272685527802
0.51478356122970581 0.12379783391952515 0.15340855717658997
0.59868460893630981 0.14719673991203308 0.1668076366186142
0.69270998239517212 0.16695383191108704 0.17885452508926392
0.80302911996841431 0.18434897065162659 0.18976093828678131
0.90654265880584717 0.20911283791065216 0.20237520337104797
0.97659039497375488 0.24384023249149323 0.21919472515583038
0.99964851140975952 0.28318312764167786 0.24037675559520721
0.99997431039810181 0.32390111684799194 0.26708829402923584
0.089856334030628204 0.12209931761026382 0.11852551996707916
0.15497687458992004 0.12898696959018707 0.12450763583183289
0.23401673138141632 0.13542231917381287 0.13122893869876862
0.32377240061759949 0.14797818660736084 0.13845433294773102
0.41968747973442078 0.16275082528591156 0.14745891094207764
0.51377266645431519 0.17797622084617615 0.1586591899394989
0.60064488649368286 0.19677649438381195 0.16999971866607666
0.69287049770355225 0.21451310813426971 0.17994767427444458
0.79531127214431763 0.23076899349689484 0.18957871198654175
0.89526546001434326 0.25442415475845337 0.20234546065330505
0.96844196319580078 0.287435382604599 0.22066624462604523
0.99796110391616821 0.32433789968490601 0.24494820833206177
0.99952900409698486 0.36281970143318176 0.27469706535339355
0.13273650407791138 0.20859436690807343 0.13292157649993896
0.18472948670387268 0.21326853334903717 0.13844434916973114
0.25228074193000793 0.21662633121013641 0.14348594844341278
0.33518749475479126 0.22281225025653839 0.1479216068983078
0.42510724067687988 0.23218074440956116 0.15510618686676025
0.5155329704284668 0.24637098610401154 0.16541865468025208
0.60309016704559326 0.26517537236213684 0.17502421140670776
0.69507580995559692 0.28289386630058289 0.1830144077539444
0.79530429840087891 0.29957088828086853 0.19150674343109131
0.89377826452255249 0.32057094573974609 0.20367981493473053
0.96665781736373901 0.34735909104347229 0.22225692868232727
0.99729883670806885 0.37674370408058167 0.24748919904232025
0.99898934364318848 0.40932714939117432 0.2803497314453125
0.17921856045722961 0.30302762985229492 0.15412487089633942
0.22413446009159088 0.30789995193481445 0.15995588898658752
0.28160503506660461 0.30836805701255798 0.16315306723117828
0.35452631115913391 0.30843591690063477 0.16497543454170227
0.43662893772125244 0.31314483284950256 0.1691313236951828
0.52100086212158203 0.32599690556526184 0.17607314884662628
0.60564184188842773 0.34714394807815552 0.18256258964538574
0.69630217552185059 0.36788785457611084 0.18785484135150909
0.79768377542495728 0.38582471013069153 0.19438660144805908
0.8987308144569397 0.40325185656547546 0.20547527074813843
0.97222572565078735 0.42123693227767944 0.22311842441558838
0.99906927347183228 0.44096705317497253 0.2475484162569046
0.99953383207321167 0.4654809832572937 0.28289720416069031
0.22283634543418884 0.40351757407188416 0.17769686877727509
0.26366540789604187 0.40948152542114258 0.18278884887695312
0.3145388662815094 0.40811952948570251 0.18304465711116791
0.37941789627075195 0.40433767437934875 0.1820409744977951
0.45419228076934814 0.40315324068069458 0.18385125696659088
0.53130275011062622 0.41109579801559448 0.18766459822654724
0.60939520597457886 0.43028891086578369 0.19043043255805969
0.69542181491851807 0.45336893200874329 0.19275286793708801
0.79616659879684448 0.4733605682849884 0.19701559841632843
0.90099138021469116 0.48834881186485291 0.20640650391578674
0.97668015956878662 0.50041025876998901 0.22348041832447052
0.99984776973724365 0.51156306266784668 0.24885906279087067
0.99996364116668701 0.52854949235916138 0.28760549426078796
0.26198029518127441 0.50065010786056519 0.19384732842445374
0.30050599575042725 0.50664645433425903 0.19756914675235748
0.349112868309021 0.50553584098815918 0.19548317790031433
0.41023474931716919 0.50186258554458618 0.19229252636432648
0.47760847210884094 0.49558562040328979 0.19241976737976074
0.54666107892990112 0.49597951769828796 0.19474558532238007
0.6177375316619873 0.50818312168121338 0.19581878185272217
0.69789731502532959 0.52813595533370972 0.19624994695186615
0.79544961452484131 0.54734063148498535 0.1995251476764679
0.90009492635726929 0.56176531314849854 0.20834112167358398
0.97567403316497803 0.57230186462402344 0.22529877722263336
0.99971181154251099 0.58078634738922119 0.2540549635887146
0.99960440397262573 0.59376615285873413 0.29805716872215271
0.29935917258262634 0.58493524789810181 0.19946584105491638
0.33566242456436157 0.59118795394897461 0.20281058549880981
0.38199588656425476 0.59076696634292603 0.20088350772857666
0.4395308792591095 0.58771109580993652 0.1970057338476181
0.50184369087219238 0.58194887638092041 0.19552484154701233
0.56512385606765747 0.57869666814804077 0.19765958189964294
0.63087707757949829 0.58292669057846069 0.19934634864330292
0.70663100481033325 0.59383010864257812 0.20035019516944885
0.80115151405334473 0.60824030637741089 0.20388020575046539
0.90051889419555664 0.6221122145652771 0.21360743045806885
0.97216856479644775 0.63324981927871704 0.2327238917350769
0.99888688325881958 0.64453792572021484 0.26491418480873108
0.99888473749160767 0.65789377689361572 0.31542575359344482
0.33769670128822327 0.66447585821151733 0.20434445142745972
0.3711279034614563 0.66947662830352783 0.20702923834323883
0.41435426473617554 0.66942369937896729 0.20723696053028107
0.46741208434104919 0.66728055477142334 0.20396248996257782
0.52551227807998657 0.66493469476699829 0.20108614861965179
0.58472979068756104 0.66274905204772949 0.20205636322498322
0.64591890573501587 0.66252446174621582 0.20540706813335419
0.71925824880599976 0.66531985998153687 0.20961214601993561
0.81084060668945312 0.67353874444961548 0.21501848101615906
0.9061199426651001 0.68390548229217529 0.22632379829883575
0.97426420450210571 0.69440895318984985 0.24939797818660736
0.99910229444503784 0.70739912986755371 0.28869101405143738
0.99905538558959961 0.72223490476608276 0.34519922733306885
0.38099753856658936 0.75342488288879395 0.22396181523799896
0.41141727566719055 0.75649464130401611 0.22661849856376648
0.45066657662391663 0.75632059574127197 0.22839066386222839
0.49886611104011536 0.75510174036026001 0.22503077983856201
0.55152332782745361 0.75395959615707397 0.2208210676908493
0.60455310344696045 0.7548786997795105 0.22318318486213684
0.66296517848968506 0.75345468521118164 0.22932124137878418
0.73422384262084961 0.75413906574249268 0.23648522794246674
0.82164591550827026 0.7569233775138855 0.24310825765132904
0.91183167695999146 0.7611812949180603 0.25473946332931519
0.97593462467193604 0.76684474945068359 0.2811836302280426
0.99932599067687988 0.77732294797897339 0.32796481251716614
0.99974018335342407 0.79121506214141846 0.38927623629570007
0.43545705080032349 0.84924829006195068 0.27278938889503479
0.4613368809223175 0.85163420438766479 0.27560266852378845
0.4939822256565094 0.85118955373764038 0.27852016687393188
0.5340692400932312 0.85046923160552979 0.27594926953315735
0.5791318416595459 0.85107260942459106 0.27356219291687012
0.62659341096878052 0.85225069522857666 0.27805304527282715
0.68150633573532104 0.85214173793792725 0.28674596548080444
0.7488139271736145 0.85214191675186157 0.29608872532844543
0.82958614826202393 0.85223555564880371 0.30383026599884033
0.91260570287704468 0.85207450389862061 0.31543448567390442
0.97422170639038086 0.85205352306365967 0.34267920255661011
0.9992634654045105 0.85613316297531128 0.38971492648124695
1 0.8652881383895874 0.44907006621360779
0.50373691320419312 0.93682271242141724 0.35833746194839478
0.52304995059967041 0.93691861629486084 0.36041483283042908
0.54624885320663452 0.93542730808258057 0.36296391487121582
0.57532238960266113 0.9366457462310791 0.36293703317642212
0.61146330833435059 0.93997019529342651 0.36471521854400635
0.65406060218811035 0.9407692551612854 0.37255081534385681
0.70459878444671631 0.9386446475982666 0.3838580846786499
0.76497137546539307 0.93781429529190063 0.3935454785823822
0.83612042665481567 0.93878740072250366 0.40194863080978394
0.91071230173110962 0.93812781572341919 0.41467902064323425
0.97134339809417725 0.93408364057540894 0.44007101655006409
0.99854904413223267 0.93175351619720459 0.4786837100982666
1 0.93425107002258301 0.5244213342666626
0.5810922384262085 0.99233323335647583 0.47375142574310303
0.59383726119995117 0.99242669343948364 0.4739900529384613
0.60796523094177246 0.99130725860595703 0.47501730918884277
0.62778842449188232 0.99167519807815552 0.47689765691757202
0.65524256229400635 0.99326497316360474 0.48194974660873413
0.69114929437637329 0.99390172958374023 0.49218428134918213
0.73524469137191772 0.99212187528610229 0.50395840406417847
0.78670573234558105 0.98998594284057617 0.51089185476303101
0.84775364398956299 0.99048972129821777 0.51783734560012817
0.91420668363571167 0.99115973711013794 0.53062981367111206
0.97164303064346313 0.98814892768859863 0.54969817399978638
0.99886363744735718 0.98347878456115723 0.57155525684356689
1 0.98146843910217285 0.59506011009216309
0.6590082049369812 1 0.59928929805755615
0.66716957092285156 1 0.59763264656066895
0.67572557926177979 1 0.59685862064361572
0.6887323260307312 1 0.59915000200271606
0.70893514156341553 1 0.60452532768249512
0.73705077171325684 1 0.61205869913101196
0.77275741100311279 1 0.61877954006195068
0.81445109844207764 1 0.62110048532485962
0.86575198173522949 1 0.62451916933059692
0.92361629009246826 1 0.6322820782661438
0.97349196672439575 1 0.63934093713760376
0.99880170822143555 0.99983233213424683 0.64316099882125854
1 0.9994465708732605 0.64900732040405273
0.072285503149032593 0.05137321725487709 0.1862272322177887
0.14376293122768402 0.060437176376581192 0.19226756691932678
0.2290022224187851 0.070212177932262421 0.19930918514728546
0.32123658061027527 0.089236587285995483 0.20421677827835083
0.41897338628768921 0.11233165860176086 0.20847970247268677
0.51114696264266968 0.131617471575737 0.21500776708126068
0.5950998067855835 0.14680440723896027 0.22472506761550903
0.68875277042388916 0.16079780459403992 0.23472245037555695
0.79686325788497925 0.1777942031621933 0.24378424882888794
0.90042507648468018 0.20337414741516113 0.25367334485054016
0.97279238700866699 0.23906747996807098 0.26763209700584412
0.99890106916427612 0.28250128030776978 0.28813135623931885
0.99967426061630249 0.32893550395965576 0.31396615505218506
0.1091785654425621 0.12842954695224762 0.18730279803276062
0.16706010699272156 0.13632452487945557 0.19299812614917755
0.23960228264331818 0.14291146397590637 0.19983549416065216
0.32340583205223083 0.15498574078083038 0.20608215034008026
0.41452795267105103 0.16964134573936462 0.21116089820861816
0.50523066520690918 0.18262879550457001 0.21731844544410706
0.59150129556655884 0.19432339072227478 0.22556701302528381
0.68462318181991577 0.20633463561534882 0.23377293348312378
0.78919380903244019 0.22353495657444 0.24260830879211426
0.89031541347503662 0.24895927309989929 0.2532297670841217
0.96368992328643799 0.28308054804801941 0.26926723122596741
0.99612504243850708 0.32374259829521179 0.29147997498512268
0.99910503625869751 0.36744099855422974 0.3206360936164856
0.15340064465999603 0.2089293897151947 0.19544847309589386
0.19969883561134338 0.21521586179733276 0.20081250369548798
0.26085469126701355 0.21923309564590454 0.20645974576473236
0.33591106534004211 0.22506575286388397 0.21116249263286591
0.41973540186882019 0.23437075316905975 0.21579530835151672
0.50603175163269043 0.24636952579021454 0.2216612845659256
0.59228610992431641 0.26018059253692627 0.2284383624792099
0.68503654003143311 0.27440565824508667 0.23535077273845673
0.78708833456039429 0.29140558838844299 0.24296392500400543
0.8858952522277832 0.3142600953578949 0.25378555059432983
0.95902037620544434 0.3428378701210022 0.26954746246337891
0.99357718229293823 0.37605684995651245 0.29306858777999878
0.99844503402709961 0.41393762826919556 0.32518994808197021
0.19740331172943115 0.29729673266410828 0.21089376509189606
0.23731838166713715 0.30435523390769958 0.21509240567684174
0.28970664739608765 0.30557334423065186 0.21844778954982758
0.3566642701625824 0.30588120222091675 0.22060178220272064
0.4332510232925415 0.31062778830528259 0.22359046339988708
0.51340514421463013 0.3234306275844574 0.22813768684864044
0.59645664691925049 0.34200316667556763 0.23322820663452148
0.68721622228622437 0.36025497317314148 0.23814199864864349
0.78866839408874512 0.37777248024940491 0.24428063631057739
0.88830685615539551 0.39620375633239746 0.25399884581565857
0.96167808771133423 0.41694867610931396 0.26931548118591309
0.99519437551498413 0.43980735540390015 0.29203405976295471
0.99860876798629761 0.46922805905342102 0.32682442665100098
0.23532503843307495 0.39578324556350708 0.22846449911594391
0.27215605974197388 0.40350815653800964 0.23161524534225464
0.32017892599105835 0.4030764102935791 0.23140636086463928
0.38192814588546753 0.39891397953033447 0.23074370622634888
0.4524097740650177 0.39792418479919434 0.23207849264144897
0.526111900806427 0.40628859400749207 0.23495288193225861
0.6029474139213562 0.42505145072937012 0.23775206506252289
0.68899202346801758 0.4472942054271698 0.24053511023521423
0.78960138559341431 0.46642389893531799 0.24512669444084167
0.89211386442184448 0.48232057690620422 0.25410735607147217
0.96696251630783081 0.49629399180412292 0.26933088898658752
0.99770939350128174 0.5104365348815918 0.29366987943649292
0.99901121854782104 0.53122401237487793 0.3323250412940979
0.26762139797210693 0.49673148989677429 0.24148820340633392
0.30351421236991882 0.5029606819152832 0.24353455007076263
0.35048282146453857 0.50054252147674561 0.24088463187217712
0.41006779670715332 0.49523380398750305 0.23804971575737
0.47606334090232849 0.48927581310272217 0.23784953355789185
