assets/lut/editingcorp convold.cube
# Created by: G'MIC (https://gmic.eu)
TITLE "convold"
# LUT size
LUT_3D_SIZE 7
# Data domain
DOMAIN_MIN 0.0 0.0 0.0
DOMAIN_MAX 1.0 1.0 1.0
# LUT data points
0.065869241952896118 0.039315689355134964 0.13705256581306458
0.2834726870059967 0.033139441162347794 0.096376471221446991
0.52080219984054565 0.032721873372793198 0.09477958083152771
0.73454946279525757 0.030868351459503174 0.094142377376556396
0.90339779853820801 0.03151906281709671 0.097067110240459442
0.97582399845123291 0.028735516592860222 0.086672522127628326
1 0.018682412803173065 0.090540029108524323
0.067671380937099457 0.26239860057830811 0.11854448169469833
0.25089731812477112 0.23731386661529541 0.096285305917263031
0.48234280943870544 0.22573456168174744 0.096732214093208313
0.69948893785476685 0.2160087376832962 0.097884461283683777
0.88015991449356079 0.21733382344245911 0.10354700684547424
0.96770119667053223 0.21386896073818207 0.10451272875070572
0.99888437986373901 0.20825129747390747 0.10023792088031769
0.065362118184566498 0.50243097543716431 0.11329956352710724
0.2181360274553299 0.48056936264038086 0.099698416888713837
0.44075635075569153 0.47471725940704346 0.0947127565741539
0.66064977645874023 0.46723321080207825 0.093680843710899353
0.85644006729125977 0.45739269256591797 0.10240578651428223
0.96208399534225464 0.45361107587814331 0.1038057804107666
0.99877786636352539 0.44406554102897644 0.095730364322662354
0.060228925198316574 0.71575719118118286 0.1040693074464798
0.19426557421684265 0.69836443662643433 0.093035601079463959
0.40294098854064941 0.68821036815643311 0.099537685513496399
0.6196218729019165 0.68459498882293701 0.10348371416330338
0.82578444480895996 0.67992383241653442 0.10505787283182144
0.96508628129959106 0.67662167549133301 0.098940156400203705
1 0.66907787322998047 0.095820501446723938
0.053354211151599884 0.89423424005508423 0.087205074727535248
0.16019314527511597 0.88477998971939087 0.092648312449455261
0.3588205873966217 0.86778658628463745 0.10091829299926758
0.58012187480926514 0.86089634895324707 0.10447888821363449
0.79225784540176392 0.86629664897918701 0.10437618941068649
0.95282483100891113 0.86490488052368164 0.098869353532791138
0.99995100498199463 0.86143440008163452 0.098822757601737976
0.048894800245761871 0.97812026739120483 0.088527053594589233
0.14020231366157532 0.97701776027679443 0.094233088195323944
0.31712394952774048 0.96625864505767822 0.10369717329740524
0.5371207594871521 0.95912021398544312 0.1097964271903038
0.75591558218002319 0.9645841121673584 0.10834468901157379
0.93877714872360229 0.96533942222595215 0.099825553596019745
0.99977165460586548 0.97650063037872314 0.095898568630218506
0.057655859738588333 0.99113798141479492 0.094879552721977234
0.14738179743289948 0.99346745014190674 0.090161174535751343
0.29430237412452698 0.99044859409332275 0.10451832413673401
0.49717524647712708 0.98878198862075806 0.10898036509752274
0.70916157960891724 0.99014818668365479 0.10536440461874008
0.8926885724067688 0.99484050273895264 0.096210658550262451
0.99402278661727905 1 0.083579011261463165
0.067403040826320648 0.03557853028178215 0.37346723675727844
0.27943718433380127 0.024420300498604774 0.30842500925064087
0.51375299692153931 0.025541970506310463 0.25631958246231079
0.73228174448013306 0.027754839509725571 0.22279223799705505
0.89826738834381104 0.027637377381324768 0.20251618325710297
0.96628421545028687 0.027066983282566071 0.17951923608779907
0.99892324209213257 0.016386847943067551 0.18869648873806
0.065736137330532074 0.25508990883827209 0.34511801600456238
0.24886086583137512 0.23100964725017548 0.27243617177009583
0.47792273759841919 0.22261632978916168 0.22937209904193878
0.70115238428115845 0.21325205266475677 0.20462559163570404
0.8867982029914856 0.20521402359008789 0.18325498700141907
0.96538734436035156 0.2000308632850647 0.18093958497047424
0.99714744091033936 0.19670593738555908 0.1682436466217041
0.064863391220569611 0.50325137376785278 0.31298929452896118
0.21908320486545563 0.47644823789596558 0.24438343942165375
0.43887287378311157 0.46658331155776978 0.20425653457641602
0.6600072979927063 0.45944055914878845 0.17743293941020966
0.85615462064743042 0.45079481601715088 0.16959661245346069
0.96461129188537598 0.44917526841163635 0.16540148854255676
0.99836868047714233 0.43902650475502014 0.1587262749671936
0.047504425048828125 0.71471256017684937 0.26137024164199829
0.18006435036659241 0.69068640470504761 0.21052221953868866
0.39746379852294922 0.68601161241531372 0.18976587057113647
0.61894333362579346 0.68251359462738037 0.17265169322490692
0.82540774345397949 0.67910087108612061 0.16884757578372955
0.9654422402381897 0.67181968688964844 0.16896714270114899
0.99947202205657959 0.66579723358154297 0.16425825655460358
0.048496425151824951 0.89547514915466309 0.2188946008682251
0.15547685325145721 0.88190352916717529 0.18824376165866852
0.35758262872695923 0.87969684600830078 0.17432637512683868
0.5762861967086792 0.86714571714401245 0.16503748297691345
0.78722399473190308 0.87127208709716797 0.16677498817443848
0.95088791847229004 0.86544787883758545 0.17365114390850067
0.99960625171661377 0.86094862222671509 0.17514799535274506
0.049503445625305176 0.97576719522476196 0.20147275924682617
0.13479407131671906 0.96515333652496338 0.17412211000919342
0.30970165133476257 0.97173362970352173 0.16717545688152313
0.52994340658187866 0.96438270807266235 0.16993461549282074
0.74995905160903931 0.96807658672332764 0.16966669261455536
0.93781411647796631 0.96617001295089722 0.17255778610706329
1 0.97331315279006958 0.17409296333789825
0.056112326681613922 0.9910883903503418 0.18836118280887604
0.13731721043586731 0.98577022552490234 0.16160005331039429
0.28034597635269165 0.98751980066299438 0.16125467419624329
0.48691502213478088 0.98617368936538696 0.16796028614044189
0.70358389616012573 0.98541736602783203 0.16891719400882721
0.89577984809875488 0.98737835884094238 0.17344962060451508
0.9991147518157959 0.99960494041442871 0.16669847071170807
0.065035320818424225 0.035664264112710953 0.6337968111038208
0.27219542860984802 0.025516839697957039 0.56041455268859863
0.50909531116485596 0.025299191474914551 0.51415199041366577
0.72970676422119141 0.028379013761878014 0.47243776917457581
0.89840376377105713 0.027113208547234535 0.42989253997802734
0.96814370155334473 0.019430182874202728 0.403665691614151
0.99895358085632324 0.019758576527237892 0.38435906171798706
0.042986057698726654 0.25137743353843689 0.58666175603866577
0.2339518815279007 0.22951963543891907 0.53246146440505981
0.46902614831924438 0.22088716924190521 0.49056676030158997
0.69022113084793091 0.21467588841915131 0.44587209820747375
0.87468355894088745 0.20683979988098145 0.39923873543739319
0.96384811401367188 0.19699789583683014 0.36939516663551331
0.9978262186050415 0.20079196989536285 0.33307656645774841
0.047189675271511078 0.49755987524986267 0.55182063579559326
0.20744892954826355 0.47432249784469604 0.48519507050514221
0.42836073040962219 0.46097895503044128 0.4404636025428772
0.64901489019393921 0.4554608166217804 0.40024954080581665
0.84897726774215698 0.44886690378189087 0.35413423180580139
0.9655001163482666 0.44645896553993225 0.32265648245811462
0.99876254796981812 0.43734756112098694 0.30139774084091187
0.048793360590934753 0.716278076171875 0.51684927940368652
0.18210916221141815 0.69543063640594482 0.44690605998039246
0.38918983936309814 0.68162703514099121 0.39519742131233215
0.61078286170959473 0.67987442016601562 0.35053884983062744
0.82055580615997314 0.67766052484512329 0.32207462191581726
0.96349292993545532 0.6690942645072937 0.30012285709381104
0.99923515319824219 0.6647953987121582 0.274649977684021
0.048165969550609589 0.89398062229156494 0.47501173615455627
0.15581990778446198 0.88384997844696045 0.41244730353355408
0.34589585661888123 0.86858952045440674 0.36133649945259094
0.56342554092407227 0.86493772268295288 0.31937342882156372
0.77474647760391235 0.87150812149047852 0.29208695888519287
0.94363832473754883 0.86255192756652832 0.28178927302360535
0.99866145849227905 0.85964524745941162 0.27520376443862915
0.049224253743886948 0.9723166823387146 0.43183597922325134
0.13297700881958008 0.96663486957550049 0.36970263719558716
0.29763641953468323 0.96557116508483887 0.3247331976890564
0.51398622989654541 0.96677905321121216 0.29766884446144104
0.73550152778625488 0.97016149759292603 0.26829442381858826
0.92927592992782593 0.96454399824142456 0.25311547517776489
1 0.97043687105178833 0.25951352715492249
0.05509580671787262 0.98804348707199097 0.38374185562133789
0.13320361077785492 0.98353970050811768 0.32780227065086365
0.27200430631637573 0.98765069246292114 0.28737229108810425
0.47491291165351868 0.98860436677932739 0.27607694268226624
0.69434648752212524 0.98735105991363525 0.24883395433425903
0.89698070287704468 0.98354071378707886 0.24441878497600555
0.99985063076019287 0.99574261903762817 0.2488829642534256
0.071148410439491272 0.032157223671674728 0.84055626392364502
0.2679017186164856 0.02293681725859642 0.79112547636032104
0.49778673052787781 0.025388874113559723 0.76324731111526489
0.71452760696411133 0.031391575932502747 0.74555402994155884
0.88813233375549316 0.031736768782138824 0.70265483856201172
0.96976906061172485 0.026465561240911484 0.67798918485641479
0.99822002649307251 0.029940616339445114 0.66411685943603516
0.049220066517591476 0.24056376516819 0.81963104009628296
0.23013828694820404 0.22091643512248993 0.78089934587478638
0.461149662733078 0.21681514382362366 0.75008714199066162
0.6820446252822876 0.21660231053829193 0.71755719184875488
0.86639904975891113 0.21231445670127869 0.67579144239425659
0.96478980779647827 0.20336826145648956 0.64601695537567139
0.9965214729309082 0.20594345033168793 0.61949807405471802
0.051938373595476151 0.48505270481109619 0.78942334651947021
0.20396970212459564 0.4649118185043335 0.74175006151199341
0.41964641213417053 0.45337548851966858 0.70557129383087158
0.64197760820388794 0.44985324144363403 0.67206203937530518
0.84758251905441284 0.44556984305381775 0.6349109411239624
0.9681740403175354 0.43718147277832031 0.59802031517028809
0.9971584677696228 0.43111658096313477 0.56997454166412354
0.0578804612159729 0.70618158578872681 0.78406816720962524
0.17989031970500946 0.69187873601913452 0.71903520822525024
0.37903964519500732 0.67734253406524658 0.67368620634078979
0.59839224815368652 0.67226910591125488 0.63200193643569946
0.81266289949417114 0.66944295167922974 0.59428924322128296
0.96121084690093994 0.66003942489624023 0.55538272857666016
0.99524480104446411 0.65663212537765503 0.52178943157196045
0.057656113058328629 0.89165925979614258 0.74490618705749512
0.15223045647144318 0.88520944118499756 0.68592160940170288
0.33329656720161438 0.86929440498352051 0.63686704635620117
0.55232363939285278 0.86258459091186523 0.59385234117507935
0.76667660474777222 0.86386144161224365 0.55238634347915649
0.94475311040878296 0.85336458683013916 0.51546472311019897
0.99867254495620728 0.8513907790184021 0.4836086630821228
0.053836178034543991 0.96655428409576416 0.71640199422836304
0.13056719303131104 0.96868371963500977 0.64781147241592407
0.29111555218696594 0.966450035572052 0.5934252142906189
0.50743889808654785 0.96664929389953613 0.55300414562225342
0.72737830877304077 0.97086924314498901 0.50632959604263306
0.9212416410446167 0.96630710363388062 0.46415102481842041
0.99994254112243652 0.97062027454376221 0.44444316625595093
0.053064323961734772 0.9828956127166748 0.65791779756546021
0.13219799101352692 0.98199450969696045 0.59866392612457275
0.27291786670684814 0.98616784811019897 0.54951423406600952
0.47116601467132568 0.98843890428543091 0.51392656564712524
0.68897944688796997 0.98823529481887817 0.46577200293540955
0.89263546466827393 0.98569959402084351 0.42919462919235229
0.99986463785171509 0.99352681636810303 0.41793853044509888
0.067524917423725128 0.028137087821960449 0.92262947559356689
0.25463226437568665 0.018683355301618576 0.91167950630187988
0.4839995801448822 0.020598975941538811 0.91403985023498535
0.70428496599197388 0.027259303256869316 0.912131667137146
0.88363265991210938 0.029601616784930229 0.88344424962997437
0.96833205223083496 0.020917885005474091 0.86980289220809937
0.997852623462677 0.022392991930246353 0.86494100093841553
0.054265625774860382 0.23854963481426239 0.91526049375534058
0.22157061100006104 0.21525959670543671 0.90916651487350464
0.45025807619094849 0.20725634694099426 0.91095364093780518
0.66977971792221069 0.20441934466362 0.8933340311050415
0.85689890384674072 0.20161010324954987 0.86974227428436279
0.96233463287353516 0.19359202682971954 0.86097609996795654
0.9955524206161499 0.19422073662281036 0.84950637817382812
0.059347953647375107 0.48394113779067993 0.90738439559936523
0.19443304836750031 0.4574165940284729 0.89530348777770996
0.41044306755065918 0.44309872388839722 0.88901990652084351
0.63043618202209473 0.4404958188533783 0.87791687250137329
0.83448213338851929 0.43727326393127441 0.85861873626708984
0.96448087692260742 0.42780300974845886 0.84178429841995239
0.99814021587371826 0.42166277766227722 0.82729458808898926
0.052314653992652893 0.69716441631317139 0.91496020555496216
0.16197310388088226 0.67912024259567261 0.89476042985916138
0.37121278047561646 0.66604697704315186 0.88293015956878662
0.59086316823959351 0.66309499740600586 0.86715954542160034
0.79902905225753784 0.66020065546035767 0.84259366989135742
0.95596718788146973 0.6533961296081543 0.81939464807510376
0.99874818325042725 0.65023910999298096 0.79789531230926514
0.052186928689479828 0.87954819202423096 0.9025043249130249
0.13890250027179718 0.87045121192932129 0.88444721698760986
0.33163437247276306 0.86426502466201782 0.86594772338867188
0.55067098140716553 0.85858947038650513 0.84137225151062012
0.75806349515914917 0.8500514030456543 0.81623679399490356
0.94127333164215088 0.84610050916671753 0.79356181621551514
0.99897414445877075 0.84406822919845581 0.76370012760162354
0.052976243197917938 0.96830868721008301 0.89920896291732788
0.12565407156944275 0.96416634321212769 0.86886996030807495
0.29278934001922607 0.96746546030044556 0.84127694368362427
0.5086556077003479 0.96621167659759521 0.81719303131103516
0.72324442863464355 0.96335923671722412 0.78652608394622803
0.91580778360366821 0.96275848150253296 0.7573922872543335
0.9999508261680603 0.96251356601715088 0.72269827127456665
0.053887926042079926 0.98376548290252686 0.86265397071838379
0.13440562784671783 0.9815753698348999 0.82952558994293213
0.27626258134841919 0.9856685996055603 0.80538773536682129
0.46921083331108093 0.98798161745071411 0.78658837080001831
0.68074655532836914 0.98670965433120728 0.74999934434890747
0.88559037446975708 0.98602545261383057 0.71394228935241699
0.99942123889923096 0.99145668745040894 0.68288964033126831
0.065198920667171478 0.025658596307039261 0.94462013244628906
0.24360458552837372 0.01762034185230732 0.94398778676986694
0.4738934338092804 0.018382353708148003 0.95388782024383545
0.70028597116470337 0.019967397674918175 0.95544683933258057
0.88429313898086548 0.022143853828310966 0.94601857662200928
0.96972537040710449 0.0098282312974333763 0.94191175699234009
0.9994957447052002 0.0084011303260922432 0.94172221422195435
0.053042646497488022 0.22686651349067688 0.94014197587966919
0.20392359793186188 0.20917335152626038 0.94174391031265259
0.43150219321250916 0.2017304003238678 0.95101732015609741
0.65681880712509155 0.18742208182811737 0.94719260931015015
0.85315513610839844 0.18349258601665497 0.94183349609375
0.96410065889358521 0.17947375774383545 0.94493108987808228
0.99853610992431641 0.18053349852561951 0.9442628026008606
0.054995037615299225 0.47344928979873657 0.94126361608505249
0.18138876557350159 0.45235154032707214 0.94010812044143677
0.39915472269058228 0.43991604447364807 0.94313174486160278
0.61978721618652344 0.43157291412353516 0.94204521179199219
0.8279794454574585 0.42453721165657043 0.94441455602645874
0.96736377477645874 0.41889557242393494 0.9460989236831665
1 0.41137200593948364 0.94469940662384033
0.052136320620775223 0.69087570905685425 0.94280636310577393
0.15255782008171082 0.6750674843788147 0.94329619407653809
0.36053386330604553 0.66285067796707153 0.94621479511260986
0.58097738027572632 0.65868532657623291 0.94643783569335938
0.79215908050537109 0.65448117256164551 0.94787168502807617
0.95812422037124634 0.64926779270172119 0.94492512941360474
1 0.64263123273849487 0.93846786022186279
0.051094159483909607 0.87987983226776123 0.93866902589797974
0.13271358609199524 0.86982369422912598 0.94117981195449829
0.32317832112312317 0.86092221736907959 0.94276851415634155
0.5414697527885437 0.85324609279632568 0.94113528728485107
0.7464110255241394 0.84472280740737915 0.9417184591293335
0.93082344532012939 0.84514880180358887 0.93787747621536255
0.99990034103393555 0.83964961767196655 0.92542171478271484
0.054766051471233368 0.97239798307418823 0.94502776861190796
0.13264474272727966 0.96705371141433716 0.94425129890441895
0.2914874255657196 0.97117692232131958 0.94503903388977051
0.49588280916213989 0.97248309850692749 0.93928581476211548
0.70638281106948853 0.96914654970169067 0.93503314256668091
0.90134227275848389 0.96596139669418335 0.93023991584777832
0.99681568145751953 0.95858252048492432 0.91646510362625122
0.056687567383050919 0.98825263977050781 0.93914616107940674
0.14089910686016083 0.98561525344848633 0.93460661172866821
0.27510914206504822 0.9900696873664856 0.93303781747817993
0.45663049817085266 0.992087721824646 0.93148523569107056
0.66467583179473877 0.99100619554519653 0.925323486328125
0.87713778018951416 0.98950564861297607 0.91167014837265015
0.99868571758270264 0.98855853080749512 0.88789170980453491
0.070021443068981171 0.030321696773171425 0.96271699666976929
0.24050140380859375 0.021088454872369766 0.96007424592971802
0.46133047342300415 0.019020289182662964 0.96290129423141479
0.68306642770767212 0.017739433795213699 0.96623307466506958
0.87342357635498047 0.024512706324458122 0.96408587694168091
0.96916037797927856 0.011737479828298092 0.96671551465988159
1 0.0059391693212091923 0.96948528289794922
0.056362494826316833 0.21777236461639404 0.96402227878570557
0.19007003307342529 0.20502567291259766 0.96184247732162476
0.41459375619888306 0.19811247289180756 0.96308189630508423
0.64119148254394531 0.1793779581785202 0.96472865343093872
0.84844386577606201 0.17983701825141907 0.96322727203369141
0.96484124660491943 0.17731517553329468 0.96409910917282104
0.99798381328582764 0.17343969643115997 0.9674186110496521
0.051707997918128967 0.46236249804496765 0.96441221237182617
0.16288875043392181 0.44116109609603882 0.9639706015586853
0.38012391328811646 0.42812487483024597 0.96296489238739014
0.60997158288955688 0.41801244020462036 0.96333795785903931
0.81617063283920288 0.41424781084060669 0.9638177752494812
0.96106505393981934 0.40844982862472534 0.96488851308822632
1 0.40069931745529175 0.97069132328033447
0.053802937269210815 0.68470162153244019 0.96323531866073608
0.1518334299325943 0.66213726997375488 0.9639706015586853
0.34653085470199585 0.6499062180519104 0.96237742900848389
0.56660538911819458 0.64696943759918213 0.96360516548156738
0.77661556005477905 0.64874756336212158 0.96470588445663452
0.95217853784561157 0.63951236009597778 0.96486198902130127
1 0.63085579872131348 0.97114086151123047
0.053163968026638031 0.87380433082580566 0.96264350414276123
0.14450493454933167 0.84927976131439209 0.96172678470611572
0.31684702634811401 0.84479773044586182 0.96045917272567749
0.5275338888168335 0.84100878238677979 0.96259665489196777
0.73721367120742798 0.84063810110092163 0.963875412940979
0.92773944139480591 0.83222663402557373 0.96205192804336548
0.99993234872817993 0.83281630277633667 0.96612954139709473
0.058375250548124313 0.97092324495315552 0.96537595987319946
0.14677092432975769 0.95811259746551514 0.96484220027923584
0.29089146852493286 0.96564149856567383 0.96596765518188477
0.48180389404296875 0.9672120213508606 0.96626853942871094
0.69255143404006958 0.96455347537994385 0.96867728233337402
0.89354449510574341 0.96231371164321899 0.96672141551971436
0.9985927939414978 0.95963156223297119 0.96474540233612061
0.058578431606292725 0.98742437362670898 0.96450424194335938
0.14934270083904266 0.98733913898468018 0.96669632196426392
0.27610102295875549 0.99100297689437866 0.96671539545059204
0.44646671414375305 0.98882412910461426 0.96540111303329468
0.65711337327957153 0.99486249685287476 0.97297906875610352
0.86483526229858398 0.99416595697402954 0.97263437509536743
0.99372750520706177 0.98806279897689819 0.96319019794464111
