assets/lut/editingcorp vubes.cube
# Created by: G'MIC (https://gmic.eu)
TITLE "vubes"
# LUT size
LUT_3D_SIZE 7
# Data domain
DOMAIN_MIN 0.0 0.0 0.0
DOMAIN_MAX 1.0 1.0 1.0
# LUT data points
0.041070301085710526 0.038392789661884308 0.027921924367547035
0.15518711507320404 0.032871082425117493 0.025721680372953415
0.29129984974861145 0.031302373856306076 0.016671514138579369
0.4455166757106781 0.053861640393733978 0.044057734310626984
0.57263517379760742 0.070463560521602631 0.055696375668048859
0.64813750982284546 0.062014933675527573 0.049011394381523132
0.72621017694473267 0.061120517551898956 0.05056622251868248
0.070701256394386292 0.15079718828201294 0.045827362686395645
0.16770277917385101 0.1481698602437973 0.046489670872688293
0.29698669910430908 0.15110664069652557 0.055357269942760468
0.44160664081573486 0.15390357375144958 0.065170645713806152
0.58109444379806519 0.16876745223999023 0.081927850842475891
0.67172396183013916 0.16625054180622101 0.083277970552444458
0.75085711479187012 0.16931314766407013 0.08607955276966095
0.087119385600090027 0.27096378803253174 0.059150651097297668
0.17452973127365112 0.27287018299102783 0.062082238495349884
0.30957761406898499 0.28181231021881104 0.074605576694011688
0.47040519118309021 0.29177039861679077 0.089778304100036621
0.6327054500579834 0.3091767430305481 0.11181730031967163
0.73014253377914429 0.30823782086372375 0.11681319773197174
0.79775840044021606 0.30272760987281799 0.11835066974163055
0.10190833359956741 0.4243074357509613 0.088186629116535187
0.17126902937889099 0.41869476437568665 0.087463244795799255
0.31561067700386047 0.43645778298377991 0.10527541488409042
0.5053601861000061 0.4649803638458252 0.13088558614253998
0.69453209638595581 0.49780082702636719 0.17844925820827484
0.7993243932723999 0.50613892078399658 0.1986769437789917
0.8604729175567627 0.49609619379043579 0.1980661004781723
0.14364834129810333 0.59194731712341309 0.13315321505069733
0.21084171533584595 0.58489644527435303 0.13135109841823578
0.33727401494979858 0.60038596391677856 0.1506144255399704
0.54475301504135132 0.64737313985824585 0.20223052799701691
0.728829026222229 0.67588567733764648 0.25442448258399963
0.84520989656448364 0.68256205320358276 0.28526240587234497
0.91642767190933228 0.68055242300033569 0.28974166512489319
0.19238957762718201 0.72205358743667603 0.17009422183036804
0.27417221665382385 0.72545653581619263 0.17532971501350403
0.3758963942527771 0.73433750867843628 0.19233645498752594
0.56662708520889282 0.78622263669967651 0.25950655341148376
0.74539494514465332 0.81818521022796631 0.31647315621376038
0.86806732416152954 0.82757836580276489 0.34829634428024292
0.95228409767150879 0.82804930210113525 0.35679000616073608
0.2164178341627121 0.81320035457611084 0.18596319854259491
0.2923026978969574 0.81221777200698853 0.19153605401515961
0.37355077266693115 0.81051802635192871 0.19841413199901581
0.5396953821182251 0.85233849287033081 0.25818684697151184
0.73522114753723145 0.90403056144714355 0.33425232768058777
0.88129180669784546 0.93114727735519409 0.37982866168022156
0.97801053524017334 0.93959897756576538 0.39420598745346069
0.025964369997382164 0.025738883763551712 0.11517776548862457
0.16046470403671265 0.026567690074443817 0.13021738827228546
0.29830813407897949 0.030108403414487839 0.12531648576259613
0.45303082466125488 0.04861043393611908 0.13603544235229492
0.57812970876693726 0.04186452180147171 0.099256880581378937
0.65060907602310181 0.048609700053930283 0.10459379106760025
0.72748255729675293 0.04331931471824646 0.10207987576723099
0.066405154764652252 0.15038277208805084 0.13493388891220093
0.17234364151954651 0.15446256101131439 0.1386478990316391
0.30400776863098145 0.15934738516807556 0.14666202664375305
0.4556717574596405 0.1666577160358429 0.15025478601455688
0.59480136632919312 0.17711630463600159 0.15693746507167816
0.67633306980133057 0.16913680732250214 0.15516753494739532
0.75367563962936401 0.16643866896629333 0.15721428394317627
0.081555984914302826 0.27320489287376404 0.13721930980682373
0.17743827402591705 0.27737897634506226 0.14389032125473022
0.31457343697547913 0.28636467456817627 0.15289229154586792
0.47568905353546143 0.29514998197555542 0.15710489451885223
0.64066237211227417 0.31345441937446594 0.18025286495685577
0.72872281074523926 0.3092728853225708 0.18301458656787872
0.80307137966156006 0.31253328919410706 0.19470800459384918
0.10040713846683502 0.421083003282547 0.15615631639957428
0.17696768045425415 0.42058846354484558 0.15786029398441315
0.31249630451202393 0.4368986189365387 0.17195984721183777
0.50214403867721558 0.46723908185958862 0.19838277995586395
0.69539201259613037 0.49900192022323608 0.24793577194213867
0.80114632844924927 0.50425422191619873 0.26421990990638733
0.86684292554855347 0.50064945220947266 0.26778700947761536
0.14371830224990845 0.58498585224151611 0.19742344319820404
0.2097199410200119 0.58467960357666016 0.19457899034023285
0.32207822799682617 0.59300774335861206 0.20774756371974945
0.54324674606323242 0.64749276638031006 0.27145567536354065
0.73044049739837646 0.678780198097229 0.32312995195388794
0.84649288654327393 0.68573158979415894 0.35094901919364929
0.91994136571884155 0.68452858924865723 0.35978993773460388
0.19467753171920776 0.71329599618911743 0.23783278465270996
0.27143162488937378 0.72319340705871582 0.24176846444606781
0.36132130026817322 0.72601109743118286 0.24978405237197876
0.55771374702453613 0.77885639667510986 0.3199649453163147
0.74002528190612793 0.81893885135650635 0.38054880499839783
0.86260735988616943 0.83220827579498291 0.41466796398162842
0.94613087177276611 0.83444666862487793 0.42624503374099731
0.22468274831771851 0.80626708269119263 0.25652921199798584
0.30050200223922729 0.80897402763366699 0.26583364605903625
0.37126454710960388 0.80536448955535889 0.26380610466003418
0.53948652744293213 0.84945499897003174 0.32505586743354797
0.74092298746109009 0.90723824501037598 0.40850222110748291
0.87971675395965576 0.93471461534500122 0.45103603601455688
0.97579491138458252 0.94437700510025024 0.46668988466262817
0.029321543872356415 0.031529877334833145 0.25525739789009094
0.18146428465843201 0.046404700726270676 0.27487406134605408
0.33892726898193359 0.052386712282896042 0.29058343172073364
0.49452322721481323 0.057281821966171265 0.28899902105331421
0.61794388294219971 0.060810402035713196 0.28362303972244263
0.69011497497558594 0.056406702846288681 0.27280703186988831
0.76077055931091309 0.039129234850406647 0.26101529598236084
0.075586505234241486 0.15783014893531799 0.26291584968566895
0.18368808925151825 0.16517746448516846 0.27139288187026978
0.32912474870681763 0.17896221578121185 0.2845192551612854
0.48721882700920105 0.18313388526439667 0.28457987308502197
0.63129222393035889 0.19805468618869781 0.2921319305896759
0.70786631107330322 0.18709380924701691 0.28524640202522278
0.78689408302307129 0.19156341254711151 0.28788325190544128
0.089663319289684296 0.27843436598777771 0.25952222943305969
0.18493989109992981 0.28713551163673401 0.26984480023384094
0.32814750075340271 0.30398556590080261 0.28442361950874329
0.49189883470535278 0.31059762835502625 0.28604891896247864
0.66811776161193848 0.33463925123214722 0.30980733036994934
0.75547891855239868 0.33157342672348022 0.31096786260604858
0.83355575799942017 0.34307375550270081 0.32396119832992554
0.10730107873678207 0.42506319284439087 0.26474431157112122
0.18630944192409515 0.42898067831993103 0.26922696828842163
0.32589402794837952 0.4552137553691864 0.28746870160102844
0.51908755302429199 0.48581406474113464 0.31295356154441833
0.69769132137298584 0.50545805692672729 0.34263843297958374
0.8066713809967041 0.51253563165664673 0.36011433601379395
0.87584656476974487 0.51223254203796387 0.36130574345588684
0.15229633450508118 0.59409862756729126 0.29690545797348022
0.21613363921642303 0.59356230497360229 0.29132539033889771
0.31832143664360046 0.59347784519195557 0.29158523678779602
0.54136377573013306 0.64908075332641602 0.35133647918701172
0.72953402996063232 0.67778295278549194 0.39502599835395813
0.84711706638336182 0.68447405099868774 0.42408153414726257
0.91868036985397339 0.68389278650283813 0.43143430352210999
0.20337150990962982 0.72226452827453613 0.32475310564041138
0.27571871876716614 0.72884595394134521 0.32390260696411133
0.36539784073829651 0.73177284002304077 0.32687351107597351
0.55663543939590454 0.77894902229309082 0.38492459058761597
0.74517655372619629 0.82101821899414062 0.4473232626914978
0.86628246307373047 0.82969558238983154 0.47873219847679138
0.94784122705459595 0.8298720121383667 0.48749077320098877
0.22850479185581207 0.80445176362991333 0.3297048807144165
0.29612627625465393 0.80593585968017578 0.33245962858200073
0.37608969211578369 0.81230831146240234 0.33477091789245605
0.54552406072616577 0.85492020845413208 0.39492204785346985
0.74086159467697144 0.90755325555801392 0.47448721528053284
0.88058316707611084 0.93109583854675293 0.51587355136871338
0.97688066959381104 0.94146746397018433 0.53322738409042358
0.05972830206155777 0.040542736649513245 0.39402517676353455
0.19383580982685089 0.045101914554834366 0.42016229033470154
0.39571139216423035 0.093147113919258118 0.46884062886238098
0.56754648685455322 0.1057417169213295 0.48148262500762939
0.68170201778411865 0.10696756839752197 0.47095185518264771
0.74471402168273926 0.075081922113895416 0.45279425382614136
0.81753873825073242 0.10102908313274384 0.44610309600830078
0.10014887899160385 0.17867635190486908 0.41275525093078613
0.20057079195976257 0.18358410894870758 0.42103743553161621
0.3754410445690155 0.22040434181690216 0.45470976829528809
0.55496460199356079 0.23799918591976166 0.46975648403167725
0.68827062845230103 0.24245153367519379 0.46632575988769531
0.75780123472213745 0.24146777391433716 0.45389878749847412
0.83274966478347778 0.24900597333908081 0.45275199413299561
0.11837689578533173 0.30247899889945984 0.42067345976829529
0.21152414381504059 0.31526902318000793 0.42984429001808167
0.36406278610229492 0.33902797102928162 0.4517398476600647
0.54258114099502563 0.35456061363220215 0.46576142311096191
0.70990598201751709 0.37890943884849548 0.48337337374687195
0.79208755493164062 0.37582600116729736 0.48269718885421753
0.85928058624267578 0.37328889966011047 0.47897428274154663
0.12217400968074799 0.44486472010612488 0.42124080657958984
0.19616402685642242 0.4472123384475708 0.42270493507385254
0.35216432809829712 0.48211038112640381 0.45036172866821289
0.55777716636657715 0.51937401294708252 0.48633089661598206
0.72434908151626587 0.54002028703689575 0.50987476110458374
0.82314389944076538 0.54191166162490845 0.51655858755111694
0.89277690649032593 0.53983199596405029 0.51607459783554077
0.16969634592533112 0.61926639080047607 0.44709664583206177
0.23108981549739838 0.61519330739974976 0.44143059849739075
0.34525972604751587 0.62123775482177734 0.44644895195960999
0.5643811821937561 0.67397624254226685 0.50182533264160156
0.74280637502670288 0.69890755414962769 0.53754895925521851
0.85357040166854858 0.70117807388305664 0.55680137872695923
0.92592543363571167 0.70034021139144897 0.55936402082443237
0.22563372552394867 0.74854892492294312 0.46278426051139832
0.29772749543190002 0.75017625093460083 0.46185806393623352
0.38710281252861023 0.75319451093673706 0.46004503965377808
0.56143009662628174 0.78645271062850952 0.49977084994316101
0.74350154399871826 0.82841223478317261 0.55535084009170532
0.86759907007217407 0.84164375066757202 0.58309108018875122
0.95134925842285156 0.84013497829437256 0.58731353282928467
0.24307575821876526 0.81889182329177856 0.45286259055137634
0.31044375896453857 0.82010102272033691 0.44953116774559021
0.39554595947265625 0.83029806613922119 0.45228555798530579
0.55531436204910278 0.86247855424880981 0.49940627813339233
0.73786836862564087 0.90977805852890015 0.56535273790359497
0.8786197304725647 0.93804609775543213 0.60478633642196655
0.9781305193901062 0.94778668880462646 0.62228888273239136
0.077960506081581116 0.054176945239305496 0.51155644655227661
0.19769920408725739 0.045802515000104904 0.54061806201934814
0.426229327917099 0.092037394642829895 0.61391782760620117
0.62316393852233887 0.18109652400016785 0.65578097105026245
0.72728222608566284 0.16369728744029999 0.64511966705322266
0.78561019897460938 0.13924692571163177 0.62457853555679321
0.85654419660568237 0.15819163620471954 0.6160581111907959
0.12518428266048431 0.20353387296199799 0.55318140983581543
0.22513505816459656 0.20674310624599457 0.56597000360488892
0.41104796528816223 0.24463388323783875 0.60887038707733154
0.61433672904968262 0.29657933115959167 0.64913308620452881
0.73668855428695679 0.29316839575767517 0.64642655849456787
0.79617434740066528 0.28201958537101746 0.6263962984085083
0.86723673343658447 0.28126448392868042 0.61846709251403809
0.16463339328765869 0.35373643040657043 0.59433728456497192
0.25578150153160095 0.36097925901412964 0.60496199131011963
0.42321759462356567 0.3895038366317749 0.63388216495513916
0.61133956909179688 0.42065370082855225 0.66029781103134155
0.75532615184783936 0.43752357363700867 0.67395848035812378
0.82507127523422241 0.42656698822975159 0.65970420837402344
0.88797688484191895 0.4161914587020874 0.64390367269515991
0.16252990067005157 0.49081966280937195 0.59841501712799072
0.23676688969135284 0.49470987915992737 0.6010240912437439
0.41177323460578918 0.53188079595565796 0.63725781440734863
0.59499984979629517 0.55332905054092407 0.65486305952072144
0.74609255790710449 0.57445436716079712 0.67444300651550293
0.83599746227264404 0.57428842782974243 0.67049998044967651
0.90830641984939575 0.57082617282867432 0.66642880439758301
0.20274236798286438 0.64487648010253906 0.61397188901901245
0.27138611674308777 0.6462324857711792 0.61410772800445557
0.38097557425498962 0.65250694751739502 0.6177331805229187
0.58597373962402344 0.69386827945709229 0.66073334217071533
0.74946892261505127 0.71447283029556274 0.68484628200531006
0.85979950428009033 0.7176361083984375 0.69683980941772461
0.93461406230926514 0.71941381692886353 0.69491827487945557
0.25806882977485657 0.77018868923187256 0.62530148029327393
0.3375580906867981 0.78011626005172729 0.62756788730621338
0.4149811863899231 0.77747762203216553 0.62174910306930542
0.57347309589385986 0.79874289035797119 0.65197557210922241
0.75170892477035522 0.83547282218933105 0.69453012943267822
0.87939304113388062 0.85426729917526245 0.71842294931411743
0.96005839109420776 0.85695260763168335 0.71972274780273438
0.27547934651374817 0.84404921531677246 0.61292815208435059
0.34897145628929138 0.85090768337249756 0.61366713047027588
0.42540779709815979 0.85484427213668823 0.613331139087677
0.57090002298355103 0.87557244300842285 0.64463663101196289
0.74858605861663818 0.91777646541595459 0.69416624307632446
0.8884844183921814 0.94704103469848633 0.72532510757446289
0.98387283086776733 0.95737159252166748 0.7387128472328186
0.076521836221218109 0.053169414401054382 0.58218872547149658
0.19742444157600403 0.056449711322784424 0.60828876495361328
0.41383036971092224 0.11212288588285446 0.67697703838348389
0.62347853183746338 0.18581198155879974 0.73837262392044067
0.74490606784820557 0.19999764859676361 0.75132137537002563
0.80925029516220093 0.18857181072235107 0.74064385890960693
0.8764653205871582 0.18992044031620026 0.73707884550094604
0.13240718841552734 0.21189197897911072 0.63998615741729736
0.23041824996471405 0.21289895474910736 0.65381890535354614
0.41095462441444397 0.24926008284091949 0.69402068853378296
0.61974865198135376 0.2974589467048645 0.74347424507141113
0.75310838222503662 0.31314554810523987 0.75815457105636597
0.8197442889213562 0.30741813778877258 0.75395911931991577
0.88812607526779175 0.3084615170955658 0.74642539024353027
0.18364579975605011 0.37458533048629761 0.7031739354133606
0.28297659754753113 0.38512358069419861 0.71955770254135132
0.44557797908782959 0.40814650058746338 0.74537652730941772
0.61965781450271606 0.43058034777641296 0.76433628797531128
0.77043849229812622 0.45990473031997681 0.79624265432357788
0.84762477874755859 0.45601314306259155 0.79409587383270264
0.91135960817337036 0.44872134923934937 0.77777284383773804
0.19448637962341309 0.51825618743896484 0.72689276933670044
0.28193408250808716 0.52871835231781006 0.73745262622833252
0.45207637548446655 0.563498854637146 0.77246791124343872
0.62409573793411255 0.5802910327911377 0.79101240634918213
0.7623400092124939 0.59646761417388916 0.80645120143890381
0.85804015398025513 0.60119068622589111 0.80780768394470215
0.92950499057769775 0.59780418872833252 0.79876923561096191
0.23637248575687408 0.66598868370056152 0.74986106157302856
0.32125785946846008 0.67619127035140991 0.76369065046310425
0.44646421074867249 0.69203996658325195 0.78026276826858521
0.62069380283355713 0.71823108196258545 0.80879044532775879
0.76252728700637817 0.73000776767730713 0.81745797395706177
0.86902004480361938 0.73300075531005859 0.82178980112075806
0.94572162628173828 0.73545777797698975 0.81822234392166138
0.28926020860671997 0.78894364833831787 0.76682162284851074
0.37171190977096558 0.79898190498352051 0.77508032321929932
0.45191985368728638 0.80240583419799805 0.77536624670028687
0.60014349222183228 0.8233262300491333 0.80293411016464233
0.76551657915115356 0.85319465398788452 0.82980871200561523
0.88887530565261841 0.86780154705047607 0.84608989953994751
0.96574980020523071 0.86836802959442139 0.84346622228622437
0.30792811512947083 0.86912828683853149 0.76052570343017578
0.38540437817573547 0.87422937154769897 0.76836174726486206
0.45864817500114441 0.87910056114196777 0.76950317621231079
0.59501379728317261 0.90145397186279297 0.79750996828079224
0.76358050107955933 0.93653339147567749 0.83138775825500488
0.89823335409164429 0.95849299430847168 0.8518255352973938
0.98796677589416504 0.963836669921875 0.85864585638046265
0.041282773017883301 0.040263351052999496 0.6534760594367981
0.19105806946754456 0.063474006950855255 0.68068963289260864
0.40397387742996216 0.12914887070655823 0.74114060401916504
0.61493015289306641 0.19108383357524872 0.80041086673736572
0.74512267112731934 0.21564981341362 0.81877142190933228
0.8154028058052063 0.21040371060371399 0.81412547826766968
0.88173764944076538 0.20394186675548553 0.81262952089309692
0.12012498080730438 0.20971383154392242 0.70797020196914673
0.23821981251239777 0.22069862484931946 0.7229539155960083
0.41498550772666931 0.25552812218666077 0.76109665632247925
0.61840087175369263 0.29840528964996338 0.81086742877960205
0.75323808193206787 0.3185158371925354 0.82779324054718018
0.82716828584671021 0.32459121942520142 0.82794225215911865
0.89662808179855347 0.32671955227851868 0.82864385843276978
0.18932953476905823 0.37706694006919861 0.77071601152420044
0.2946922779083252 0.3884023129940033 0.784035325050354
0.45701432228088379 0.41798225045204163 0.81626349687576294
0.61674606800079346 0.42878678441047668 0.83105528354644775
0.76668322086334229 0.4599689245223999 0.85883867740631104
0.84996688365936279 0.4577062726020813 0.8629457950592041
0.92132836580276489 0.4632057249546051 0.86193805932998657
0.20515184104442596 0.52036935091018677 0.79852795600891113
0.30292394757270813 0.53645175695419312 0.81166321039199829
0.46312636137008667 0.57022839784622192 0.84517532587051392
0.62823331356048584 0.58487731218338013 0.86328035593032837
0.76915949583053589 0.60669589042663574 0.88612329959869385
0.86812400817871094 0.61273288726806641 0.89567011594772339
0.94292664527893066 0.61360037326812744 0.89472818374633789
0.24919858574867249 0.67398899793624878 0.83239316940307617
0.3321128785610199 0.68052786588668823 0.83887875080108643
0.44618275761604309 0.69202196598052979 0.85475993156433105
0.62507849931716919 0.7251051664352417 0.8899419903755188
0.76861542463302612 0.74126130342483521 0.90754097700119019
0.873462975025177 0.7430955171585083 0.91402238607406616
0.95399057865142822 0.74666988849639893 0.91560488939285278
0.30229014158248901 0.8022192120552063 0.86181008815765381
0.38189169764518738 0.80837029218673706 0.86463093757629395
0.46120193600654602 0.81253987550735474 0.87076461315155029
0.61249381303787231 0.83658444881439209 0.90262025594711304
0.76955109834671021 0.86159485578536987 0.92491614818572998
0.88764941692352295 0.87014144659042358 0.9361804723739624
0.96863770484924316 0.87299108505249023 0.9383925199508667
0.32372394204139709 0.88677769899368286 0.8705904483795166
0.40659236907958984 0.89069408178329468 0.88126623630523682
0.48762199282646179 0.89914238452911377 0.88893955945968628
0.61945414543151855 0.92197173833847046 0.91705536842346191
0.77318251132965088 0.94701188802719116 0.93940949440002441
0.90180546045303345 0.95899540185928345 0.95230066776275635
0.98881739377975464 0.96648049354553223 0.9576718807220459
