assets/lut/editingcorpw Amber Ambience.cube
LUT_3D_SIZE 6
DOMAIN_MIN 0.0 0.0 0.0
DOMAIN_MAX 1.0 1.0 1.0
0.101961 0.105882 0.113725
0.214118 0.116863 0.127059
0.341177 0.123922 0.130196
0.510588 0.140392 0.149020
0.707451 0.149020 0.162353
0.949020 0.156863 0.172549
0.078431 0.225883 0.118431
0.202779 0.224673 0.120359
0.337255 0.215111 0.142640
0.507451 0.224314 0.158431
0.716862 0.237647 0.165490
0.944314 0.261961 0.189020
0.001569 0.372549 0.105098
0.148131 0.371085 0.099242
0.351440 0.380392 0.102200
0.535686 0.385098 0.128627
0.717647 0.393726 0.178824
0.952157 0.410980 0.186667
0.000000 0.569412 0.011765
0.006275 0.567059 0.003922
0.319216 0.575686 0.000784
0.553725 0.592941 0.000000
0.780967 0.603346 0.006013
0.981961 0.600784 0.090980
0.001569 0.784314 0.003138
0.003922 0.793726 0.002353
0.251765 0.792941 0.002353
0.533438 0.803242 0.000680
0.775619 0.819608 0.001210
0.999216 0.828235 0.000784
0.000000 0.996078 0.000000
0.003138 0.996862 0.000784
0.086274 1.000000 0.000000
0.480000 1.000000 0.003922
0.748235 0.996862 0.000000
0.964706 1.000000 0.003922
0.096470 0.112941 0.245490
0.205782 0.118073 0.246633
0.349386 0.134117 0.239320
0.514510 0.134902 0.253333
0.715294 0.116078 0.247843
0.949804 0.106667 0.256471
0.077221 0.216336 0.239014
0.188590 0.221750 0.238714
0.331381 0.219054 0.238296
0.507227 0.223238 0.247910
0.721636 0.219966 0.250196
0.949737 0.226734 0.263238
0.001464 0.377725 0.213542
0.068171 0.375752 0.194674
0.348994 0.379401 0.198917
0.526954 0.376575 0.235817
0.721673 0.383843 0.251190
0.961151 0.404706 0.264314
0.003137 0.567059 0.135686
0.007193 0.569412 0.141244
0.282510 0.573543 0.123555
0.550827 0.589019 0.123682
0.781751 0.603138 0.168000
0.980392 0.600000 0.235294
0.002353 0.796863 0.000000
0.001995 0.796795 0.001501
0.180549 0.798536 0.005856
0.517176 0.807948 0.000105
0.776538 0.822028 0.001076
0.999216 0.828235 0.000784
0.000000 1.000000 0.000000
0.001501 0.999216 0.002779
0.006745 0.998431 0.000000
0.469019 0.996862 0.000000
0.735686 1.000000 0.000784
0.968627 0.996078 0.003922
0.075294 0.114510 0.400000
0.189124 0.118431 0.405595
0.347623 0.118364 0.406208
0.520000 0.111372 0.413333
0.732549 0.041569 0.421961
0.968627 0.000000 0.419608
0.030588 0.211189 0.411870
0.172992 0.211827 0.407413
0.348969 0.210263 0.411707
0.528784 0.201464 0.411817
0.741072 0.179503 0.418719
0.971451 0.139608 0.417255
0.000000 0.373333 0.411832
0.061032 0.371118 0.411648
0.323463 0.365873 0.411028
0.525423 0.364945 0.408800
0.745098 0.371048 0.414357
0.969957 0.381482 0.424859
0.006275 0.577255 0.389804
0.004026 0.577150 0.383425
0.110417 0.577188 0.341961
0.529344 0.588302 0.343358
0.776523 0.583425 0.394614
0.962353 0.601569 0.436079
0.003137 0.804706 0.272941
0.001569 0.805595 0.262066
0.003683 0.806035 0.258413
0.459608 0.807948 0.229333
0.777322 0.820392 0.260460
1.000000 0.817255 0.310588
0.007059 0.998431 0.070588
0.004497 0.997647 0.064993
0.007126 0.996078 0.046992
0.393725 0.996078 0.002353
0.711373 1.000000 0.048628
0.964706 1.000000 0.128627
0.036079 0.112157 0.610981
0.181176 0.112941 0.611765
0.360000 0.098039 0.606275
0.551134 0.055926 0.607537
0.745098 0.004131 0.624314
0.985098 0.002353 0.642353
0.000000 0.206274 0.616471
0.148011 0.199574 0.619966
0.352157 0.192157 0.619713
0.540938 0.170980 0.614663
0.750379 0.130301 0.624314
0.990588 0.011765 0.629020
0.004706 0.367059 0.621961
0.000680 0.361882 0.621072
0.297867 0.349259 0.623052
0.538174 0.344007 0.625950
0.764706 0.333438 0.631582
0.996863 0.322353 0.619608
0.002659 0.566753 0.624620
0.001330 0.572310 0.628781
0.171115 0.569651 0.623223
0.518518 0.563213 0.618106
0.762121 0.574085 0.622536
0.980870 0.594338 0.627451
0.003033 0.806745 0.593412
0.005386 0.802771 0.590013
0.003242 0.808732 0.571294
0.377561 0.815732 0.537622
0.771403 0.811444 0.541426
0.997542 0.806588 0.602353
0.000000 0.995294 0.458039
0.004706 0.996862 0.455686
0.001569 0.996863 0.450980
0.289135 0.996556 0.444467
0.685699 0.999320 0.439111
0.975686 0.997647 0.492549
0.000000 0.090981 0.825882
0.169412 0.086275 0.824314
0.363922 0.058824 0.826667
0.563713 0.000000 0.829019
0.752089 0.005916 0.829445
0.986666 0.003138 0.846275
0.000784 0.185882 0.824313
0.102812 0.182387 0.829378
0.345987 0.169516 0.828653
0.553046 0.140026 0.829699
0.761277 0.074801 0.832807
0.986667 0.002353 0.849412
0.005490 0.339608 0.831372
0.000889 0.340706 0.829908
0.285931 0.336231 0.837953
0.528679 0.327372 0.828915
0.756504 0.314443 0.832650
0.997647 0.280000 0.850196
0.002928 0.561569 0.837438
0.002353 0.555608 0.838902
0.170300 0.551163 0.836392
0.505146 0.549406 0.838139
0.755336 0.549846 0.836161
0.998013 0.544314 0.844497
0.000000 0.787877 0.835720
0.000784 0.784740 0.838790
0.002712 0.787092 0.838432
0.463041 0.790330 0.844062
0.764486 0.794515 0.833013
0.994084 0.810264 0.836011
0.001569 1.000000 0.799216
0.001569 0.997647 0.799216
0.003137 0.996078 0.795294
0.229542 0.995974 0.776680
0.732190 0.999641 0.791866
0.983530 0.999216 0.797647
0.000000 0.047059 1.000000
0.144314 0.032942 1.000000
0.352157 0.000000 0.996078
0.552941 0.000000 1.000000
0.749019 0.000784 1.000000
0.960784 0.000000 1.000000
0.000784 0.165490 0.996078
0.064403 0.159574 0.996369
0.343582 0.145987 0.999216
0.549019 0.108235 0.996863
0.752941 0.028235 0.992157
0.946667 0.000784 1.000000
0.002353 0.330980 0.998431
0.006850 0.327163 1.000000
0.278193 0.321808 0.992635
0.525490 0.315294 1.000000
0.741961 0.301176 0.998431
0.951373 0.287059 0.992941
0.000000 0.546667 0.998431
0.001569 0.538824 0.997647
0.202353 0.538823 1.000000
0.503223 0.532549 0.998670
0.745778 0.530405 0.994405
0.960000 0.538824 0.997647
0.000784 0.770980 0.999216
0.002353 0.770196 1.000000
0.166275 0.772549 0.996863
0.527529 0.776261 0.998536
0.778823 0.786241 0.999574
0.967059 0.798431 1.000000
0.003922 0.996078 1.000000
0.000784 0.996862 0.996862
0.000000 0.995294 1.000000
0.480000 1.000000 0.996078
0.831373 0.999216 0.999216
1.000000 1.000000 0.992157
