assets/lut/editingcorp mercato.cube
# Created by: G'MIC (https://gmic.eu)
TITLE "mercato"
# LUT size
LUT_3D_SIZE 13
# Data domain
DOMAIN_MIN 0.0 0.0 0.0
DOMAIN_MAX 1.0 1.0 1.0
# LUT data points
0.010543583892285824 0.0085177402943372726 0.011520400643348694
0.12910416722297668 0.0088827395811676979 0.012106158770620823
0.32601821422576904 0.023416556417942047 0.024601761251688004
0.47828572988510132 0.048074670135974884 0.04296628013253212
0.5926092267036438 0.063706792891025543 0.05269164964556694
0.69238287210464478 0.084762603044509888 0.063745550811290741
0.78469151258468628 0.084191955626010895 0.062485143542289734
0.86114275455474854 0.075948320329189301 0.055773269385099411
0.88889205455780029 0.079208210110664368 0.056404486298561096
0.90685981512069702 0.080788664519786835 0.054661978036165237
0.92271637916564941 0.075852334499359131 0.049965336918830872
0.93889772891998291 0.072343207895755768 0.048770200461149216
0.95438051223754883 0.080378256738185883 0.05499044805765152
0.01023394986987114 0.032200217247009277 0.01668364554643631
0.076067440211772919 0.035209625959396362 0.015528719872236252
0.27084726095199585 0.054893180727958679 0.021781157702207565
0.44587257504463196 0.084505178034305573 0.043528072535991669
0.57212918996810913 0.1066998615860939 0.057721052318811417
0.67849832773208618 0.12545567750930786 0.06622721254825592
0.77691119909286499 0.12316177785396576 0.06658153235912323
0.85302698612213135 0.11601751297712326 0.064324244856834412
0.88408857583999634 0.11538773775100708 0.064380571246147156
0.90643894672393799 0.1141168624162674 0.061555121093988419
0.92252004146575928 0.10874846577644348 0.05827394500374794
0.93971872329711914 0.10523521900177002 0.056382376700639725
0.95448160171508789 0.10785504430532455 0.058142013847827911
0.0098300855606794357 0.11160683631896973 0.026401638984680176
0.039419692009687424 0.10927930474281311 0.024190790951251984
0.17493902146816254 0.12287335842847824 0.031702466309070587
0.38183307647705078 0.16259114444255829 0.051718872040510178
0.53613406419754028 0.19022855162620544 0.062765680253505707
0.65769058465957642 0.19646875560283661 0.066511593759059906
0.76464623212814331 0.18459057807922363 0.065168537199497223
0.85230237245559692 0.17718872427940369 0.062595352530479431
0.88543373346328735 0.16980746388435364 0.063074462115764618
0.90772742033004761 0.15694992244243622 0.061218142509460449
0.92437648773193359 0.15149641036987305 0.060483686625957489
0.94117897748947144 0.15532132983207703 0.062246944755315781
0.95211100578308105 0.15821091830730438 0.062584638595581055
0.0091577563434839249 0.24035157263278961 0.051020260900259018
0.031585395336151123 0.23571279644966125 0.047466665506362915
0.11052604764699936 0.23561231791973114 0.042847190052270889
0.30799242854118347 0.25947818160057068 0.067922540009021759
0.48795753717422485 0.28630328178405762 0.074637196958065033
0.62936395406723022 0.2969602644443512 0.06941533088684082
0.74684077501296997 0.28955838084220886 0.066168077290058136
0.84618186950683594 0.27515521645545959 0.062137722969055176
0.8962407112121582 0.25987184047698975 0.060900669544935226
0.91760540008544922 0.24629463255405426 0.062583848834037781
0.93151175975799561 0.23524022102355957 0.063263148069381714
0.94580978155136108 0.22896231710910797 0.065112784504890442
0.95502585172653198 0.22751888632774353 0.066457800567150116
0.0083621600642800331 0.35816475749015808 0.077837653458118439
0.031491778790950775 0.35379672050476074 0.077767208218574524
0.092372968792915344 0.34890568256378174 0.072019346058368683
0.2442857027053833 0.35932603478431702 0.078598275780677795
0.43641912937164307 0.37692853808403015 0.092417605221271515
0.59537738561630249 0.39764875173568726 0.091011613607406616
0.72201359272003174 0.3978581428527832 0.073483392596244812
0.83174014091491699 0.37823095917701721 0.065933749079704285
0.89907711744308472 0.35931587219238281 0.062116421759128571
0.92576277256011963 0.34812489151954651 0.063006319105625153
0.94030523300170898 0.33474785089492798 0.06276964396238327
0.95471435785293579 0.31921148300170898 0.062486745417118073
0.96800458431243896 0.31380483508110046 0.06330166757106781
0.0087896157056093216 0.46759888529777527 0.11505912244319916
0.029658643528819084 0.4618687629699707 0.11323843896389008
0.072983548045158386 0.45618543028831482 0.10885681211948395
0.18041783571243286 0.45670440793037415 0.10082325339317322
0.37710174918174744 0.46822097897529602 0.10309968888759613
0.55760014057159424 0.48622331023216248 0.12946127355098724
0.69370394945144653 0.50225591659545898 0.095400787889957428
0.81181877851486206 0.49176263809204102 0.066897928714752197
0.89510536193847656 0.46893963217735291 0.060600653290748596
0.93224376440048218 0.45342773199081421 0.058988593518733978
0.94966399669647217 0.43940696120262146 0.057513680309057236
0.96521520614624023 0.4221784770488739 0.058029353618621826
0.97969609498977661 0.40434211492538452 0.05944804847240448
0.015482150949537754 0.56521987915039062 0.15041007101535797
0.03276418149471283 0.56117331981658936 0.14946942031383514
0.06142546609044075 0.5556567907333374 0.14608548581600189
0.15595553815364838 0.55591064691543579 0.14012937247753143
0.31842467188835144 0.56533408164978027 0.13647535443305969
0.51549625396728516 0.5770527720451355 0.14778320491313934
0.66397225856781006 0.5880160927772522 0.16076759994029999
0.79236513376235962 0.59741514921188354 0.090660467743873596
0.88661980628967285 0.58292418718338013 0.054198950529098511
0.94008392095565796 0.56355899572372437 0.044298313558101654
0.95968377590179443 0.5442320704460144 0.047613810747861862
0.97379404306411743 0.52702385187149048 0.05099194124341011
0.98602825403213501 0.50702446699142456 0.052483368664979935
0.026225939393043518 0.65297597646713257 0.178584024310112
0.041289985179901123 0.64916998147964478 0.17764392495155334
0.064206890761852264 0.64755624532699585 0.175426185131073
0.13804568350315094 0.64670538902282715 0.1740797758102417
0.2625211775302887 0.65149301290512085 0.17245219647884369
0.45881712436676025 0.66567039489746094 0.1698918491601944
0.6264529824256897 0.67510986328125 0.19132071733474731
0.75640767812728882 0.68165266513824463 0.19182243943214417
0.86676210165023804 0.69120728969573975 0.087631836533546448
0.94568705558776855 0.6831592321395874 0.032094977796077728
0.96590477228164673 0.65851974487304688 0.034298870712518692
0.98191243410110474 0.63977509737014771 0.034540407359600067
0.99195575714111328 0.61940479278564453 0.041253436356782913
0.036440335214138031 0.72283846139907837 0.19887761771678925
0.052333444356918335 0.71768349409103394 0.19811457395553589
0.074737280607223511 0.71580225229263306 0.19599954783916473
0.12664110958576202 0.71264016628265381 0.19657854735851288
0.21756796538829803 0.71529358625411987 0.19795016944408417
0.39522644877433777 0.72686988115310669 0.19516460597515106
0.57113271951675415 0.7417522668838501 0.19236519932746887
0.71460127830505371 0.7455255389213562 0.21328514814376831
0.8191036581993103 0.74929690361022949 0.19270092248916626
0.91457831859588623 0.76529377698898315 0.090041548013687134
0.95970511436462402 0.75917822122573853 0.056185435503721237
0.98313999176025391 0.74575269222259521 0.037966471165418625
0.99180632829666138 0.72176754474639893 0.039942499250173569
0.043554238975048065 0.76879197359085083 0.21230693161487579
0.058975353837013245 0.76398086547851562 0.21138153970241547
0.079181358218193054 0.76421689987182617 0.21025684475898743
0.11001481860876083 0.76202636957168579 0.21282662451267242
0.17656823992729187 0.76505237817764282 0.21530970931053162
0.33675980567932129 0.77331411838531494 0.21251820027828217
0.50143194198608398 0.7848479151725769 0.20920863747596741
0.66455084085464478 0.79424631595611572 0.20747813582420349
0.77552419900894165 0.79390430450439453 0.23102810978889465
0.8626055121421814 0.79932159185409546 0.21557909250259399
0.92307126522064209 0.81460219621658325 0.16779546439647675
0.95772701501846313 0.81371265649795532 0.12625265121459961
0.97906595468521118 0.80474555492401123 0.083021633327007294
0.045510206371545792 0.79028773307800293 0.2162247896194458
0.059673592448234558 0.78704982995986938 0.21581892669200897
0.074908144772052765 0.78730291128158569 0.21563805639743805
0.10038347542285919 0.78830766677856445 0.21724052727222443
0.15092048048973083 0.79059028625488281 0.21888576447963715
0.28371873497962952 0.79926681518554688 0.21848979592323303
0.43631270527839661 0.81272119283676147 0.21986854076385498
0.59991365671157837 0.82335740327835083 0.21294909715652466
0.73733246326446533 0.82908284664154053 0.22090364992618561
0.82212609052658081 0.82495534420013428 0.26291161775588989
0.88571172952651978 0.83085888624191284 0.26928669214248657
0.92185407876968384 0.83954674005508423 0.24726077914237976
0.94408351182937622 0.83722537755966187 0.21388264000415802
0.046125523746013641 0.81144940853118896 0.21650965511798859
0.057319700717926025 0.80855756998062134 0.21715685725212097
0.068017818033695221 0.80925911664962769 0.21688070893287659
0.089387677609920502 0.81096810102462769 0.2170131504535675
0.12871833145618439 0.81262725591659546 0.21759988367557526
0.20300003886222839 0.81789106130599976 0.21783965826034546
0.37371346354484558 0.82741636037826538 0.21993212401866913
0.55304157733917236 0.83925759792327881 0.21560132503509521
0.700461745262146 0.84971481561660767 0.21415674686431885
0.79675710201263428 0.84690976142883301 0.25061008334159851
0.86449527740478516 0.84392052888870239 0.29470059275627136
0.90352720022201538 0.84913593530654907 0.29647287726402283
0.92392116785049438 0.85494637489318848 0.28785896301269531
0.044786956161260605 0.82995486259460449 0.21627958118915558
0.053819078952074051 0.82786601781845093 0.21715685725212097
0.062231369316577911 0.82849800586700439 0.21687059104442596
0.07483942061662674 0.83037865161895752 0.21609736979007721
0.10225658118724823 0.83208352327346802 0.21642096340656281
0.13622508943080902 0.83419919013977051 0.21625916659832001
0.28700792789459229 0.84198886156082153 0.21985645592212677
0.49598950147628784 0.85553526878356934 0.22138321399688721
0.6632346510887146 0.86939740180969238 0.21394887566566467
0.77601689100265503 0.86878770589828491 0.23792199790477753
0.84986275434494019 0.86590361595153809 0.28798398375511169
0.89603239297866821 0.86776125431060791 0.30495157837867737
0.92143815755844116 0.87337660789489746 0.30133593082427979
0.010711968876421452 0.014233039692044258 0.048824235796928406
0.12271302193403244 0.010735096409916878 0.062536604702472687
0.32444289326667786 0.01271082554012537 0.060402333736419678
0.48191577196121216 0.024733465164899826 0.068192288279533386
0.59501206874847412 0.03619016706943512 0.078044191002845764
0.69020408391952515 0.072177127003669739 0.096572712063789368
0.78195643424987793 0.069084629416465759 0.091071441769599915
0.86309200525283813 0.046437222510576248 0.078286938369274139
0.88840746879577637 0.054372437298297882 0.075997233390808105
0.90626215934753418 0.047122955322265625 0.061765469610691071
0.92178440093994141 0.042296778410673141 0.053348541259765625
0.9376366138458252 0.038820065557956696 0.049824465066194534
0.95392036437988281 0.050379704684019089 0.063616976141929626
0.009774436242878437 0.047608934342861176 0.065951451659202576
0.06824774295091629 0.04214661568403244 0.064706839621067047
0.26509279012680054 0.051143750548362732 0.064530529081821442
0.44738465547561646 0.076243065297603607 0.076906181871891022
0.57263779640197754 0.099293731153011322 0.087601378560066223
0.67886853218078613 0.11624044924974442 0.093370638787746429
0.77523565292358398 0.11804009228944778 0.093145273625850677
0.85639858245849609 0.1162836104631424 0.088787615299224854
0.88672274351119995 0.11367413401603699 0.090882726013660431
0.90619134902954102 0.10578783601522446 0.082686372101306915
0.92186111211776733 0.098534509539604187 0.075379408895969391
0.93800979852676392 0.097211532294750214 0.074219167232513428
0.95422154664993286 0.10240188241004944 0.076906256377696991
0.012763064354658127 0.12151704728603363 0.07295043021440506
0.040289681404829025 0.11865223944187164 0.068172767758369446
0.16551946103572845 0.12667250633239746 0.067177668213844299
0.37690293788909912 0.1618940532207489 0.079826474189758301
0.5351945161819458 0.18633916974067688 0.085705116391181946
0.6577000617980957 0.19417966902256012 0.08832097053527832
0.76313084363937378 0.18499307334423065 0.090044192969799042
0.85113924741744995 0.18260930478572845 0.084507301449775696
0.88561499118804932 0.17644457519054413 0.086741864681243896
0.90848881006240845 0.16276103258132935 0.08316744863986969
0.92476361989974976 0.15638808906078339 0.081038258969783783
0.9399486780166626 0.15615828335285187 0.083467520773410797
0.9539642333984375 0.15874245762825012 0.079294182360172272
0.012301022186875343 0.24428418278694153 0.082322061061859131
0.036231786012649536 0.24069969356060028 0.079400874674320221
0.10419116914272308 0.23691727221012115 0.071546740829944611
0.30344787240028381 0.25907823443412781 0.090499371290206909
0.4851936399936676 0.28414738178253174 0.094271160662174225
0.62820565700531006 0.29642951488494873 0.089721649885177612
0.74498426914215088 0.28811505436897278 0.086501732468605042
0.84140980243682861 0.27404600381851196 0.082966402173042297
0.89593929052352905 0.2600589394569397 0.083842135965824127
0.91662085056304932 0.24913381040096283 0.082519218325614929
0.9323878288269043 0.23973922431468964 0.08236655592918396
0.94701749086380005 0.23247157037258148 0.083488479256629944
0.9593542218208313 0.22718824446201324 0.080171592533588409
0.0086559373885393143 0.35741555690765381 0.099633969366550446
0.029524559155106544 0.35247606039047241 0.097481749951839447
0.090201646089553833 0.3485775887966156 0.09149642288684845
0.23983730375766754 0.3557179868221283 0.091771401464939117
0.43382421135902405 0.37541019916534424 0.11154284328222275
0.59349656105041504 0.39558985829353333 0.11112502217292786
0.72109317779541016 0.39566242694854736 0.092680014669895172
0.8262445330619812 0.37856769561767578 0.0841965451836586
0.89859175682067871 0.35887113213539124 0.080227330327033997
0.92399722337722778 0.34748697280883789 0.080134913325309753
0.94033753871917725 0.33555331826210022 0.081482455134391785
0.95526272058486938 0.32448557019233704 0.083628937602043152
0.96989154815673828 0.31608742475509644 0.080411575734615326
0.0087631670758128166 0.46568390727043152 0.13563558459281921
0.029222391545772552 0.46216872334480286 0.13452142477035522
0.072304457426071167 0.45697218179702759 0.13071425259113312
0.17502216994762421 0.45657557249069214 0.12041605263948441
0.37634080648422241 0.46815574169158936 0.12323283404111862
0.55511319637298584 0.48365208506584167 0.1498185396194458
0.69214326143264771 0.49888521432876587 0.11822708696126938
0.80958521366119385 0.49162858724594116 0.085958756506443024
0.89371287822723389 0.46736204624176025 0.077884763479232788
0.93071120977401733 0.452617347240448 0.075119227170944214
0.94923484325408936 0.43869933485984802 0.075184963643550873
0.9648173451423645 0.42254501581192017 0.077661953866481781
0.97828423976898193 0.40630483627319336 0.07736988365650177
0.013860231265425682 0.56382352113723755 0.16937915980815887
0.031858153641223907 0.56143039464950562 0.16784599423408508
0.063589088618755341 0.55689495801925659 0.16530771553516388
0.14078602194786072 0.55521178245544434 0.15817831456661224
0.3178107738494873 0.56462264060974121 0.1554751992225647
0.51495122909545898 0.57463884353637695 0.16661474108695984
0.66367429494857788 0.58698219060897827 0.17772370576858521
0.79385256767272949 0.59599977731704712 0.10404957830905914
0.88425660133361816 0.58178853988647461 0.070631615817546844
0.9364924430847168 0.56540769338607788 0.062928490340709686
0.95926636457443237 0.54461169242858887 0.065155163407325745
0.97383373975753784 0.52451854944229126 0.068505667150020599
0.98504638671875 0.50817406177520752 0.070026367902755737
0.024481499567627907 0.65272551774978638 0.19693414866924286
0.040409985929727554 0.65223842859268188 0.19613108038902283
0.060542896389961243 0.64611208438873291 0.19280453026294708
0.12622791528701782 0.64670848846435547 0.19107010960578918
0.27212816476821899 0.64841222763061523 0.18806086480617523
0.45927137136459351 0.66435223817825317 0.18832910060882568
0.62466490268707275 0.67438513040542603 0.20842435956001282
0.75630742311477661 0.68040496110916138 0.20494981110095978
0.866180419921875 0.68754684925079346 0.10657726973295212
0.9412962794303894 0.68090027570724487 0.053038578480482101
0.96712863445281982 0.6593928337097168 0.048936311155557632
0.98208039999008179 0.63947445154190063 0.051355518400669098
0.99047815799713135 0.61895424127578735 0.059313546866178513
0.036681216210126877 0.71888303756713867 0.21551282703876495
0.053458943963050842 0.72010511159896851 0.21637734770774841
0.074230343103408813 0.71447670459747314 0.21321955323219299
0.11771373450756073 0.71007668972015381 0.21268382668495178
0.2240796685218811 0.71361345052719116 0.21261632442474365
0.40089142322540283 0.72419542074203491 0.20934136211872101
0.57202523946762085 0.74084240198135376 0.20946767926216125
0.71498411893844604 0.74480313062667847 0.23598654568195343
0.81987422704696655 0.74910038709640503 0.21588735282421112
0.91315847635269165 0.76318091154098511 0.10933637619018555
0.95642566680908203 0.75534176826477051 0.074482530355453491
0.98232388496398926 0.7451164722442627 0.055266123265028
0.99234730005264282 0.72398900985717773 0.045898139476776123
0.044697824865579605 0.76907801628112793 0.22913545370101929
0.061955798417329788 0.76614415645599365 0.22839696705341339
0.082936353981494904 0.76550096273422241 0.22864563763141632
0.11428224295377731 0.7630731463432312 0.22854392230510712
0.18104609847068787 0.76377749443054199 0.22769249975681305
0.33742421865463257 0.77077889442443848 0.22502826154232025
0.50839829444885254 0.78385710716247559 0.2205965667963028
0.66690313816070557 0.79630231857299805 0.22253555059432983
0.77478158473968506 0.79372936487197876 0.24897485971450806
0.86358886957168579 0.79875272512435913 0.22600296139717102
0.92176693677902222 0.80969613790512085 0.18651269376277924
0.95751893520355225 0.81376701593399048 0.14385113120079041
0.979358971118927 0.8051072359085083 0.10141106694936752
0.047125380486249924 0.79159891605377197 0.23155795037746429
0.062274754047393799 0.78816789388656616 0.23126079142093658
0.080086603760719299 0.78895068168640137 0.23141753673553467
0.10891051590442657 0.78897356986999512 0.23118202388286591
0.16098086535930634 0.79093724489212036 0.2312837690114975
0.27993273735046387 0.79883641004562378 0.23333798348903656
0.44249549508094788 0.8112756609916687 0.23423413932323456
0.60543864965438843 0.82375967502593994 0.22780095040798187
0.73599040508270264 0.83017838001251221 0.23811042308807373
0.82587307691574097 0.82722026109695435 0.2806294858455658
0.88698983192443848 0.8300970196723938 0.28825041651725769
0.92247492074966431 0.83762365579605103 0.25936496257781982
0.94724541902542114 0.83717244863510132 0.2267385721206665
0.04831758514046669 0.81163334846496582 0.23421007394790649
0.060110803693532944 0.80866146087646484 0.23399965465068817
0.07233765721321106 0.80831104516983032 0.23259292542934418
0.097628332674503326 0.81040006875991821 0.23232966661453247
0.13866943120956421 0.81222200393676758 0.23215308785438538
0.21908321976661682 0.81710249185562134 0.23377580940723419
0.38384291529655457 0.82580184936523438 0.23715580999851227
0.55873709917068481 0.8398975133895874 0.23265719413757324
0.6999548077583313 0.84945034980773926 0.23311439156532288
0.79893714189529419 0.84701043367385864 0.26729431748390198
0.86580502986907959 0.84301066398620605 0.31066864728927612
0.9042479395866394 0.84902769327163696 0.31248858571052551
0.92417240142822266 0.85491096973419189 0.30493924021720886
0.048126474022865295 0.82910537719726562 0.23486520349979401
0.05571320652961731 0.82770943641662598 0.23486520349979401
0.06496468186378479 0.82651346921920776 0.23341217637062073
0.080511443316936493 0.82848608493804932 0.23174856603145599
0.10779227316379547 0.82980173826217651 0.23117370903491974
0.15319395065307617 0.83343780040740967 0.23195160925388336
0.31516334414482117 0.83978098630905151 0.23673167824745178
0.50370234251022339 0.85475701093673706 0.23626545071601868
0.66355109214782715 0.8686290979385376 0.2314005047082901
0.77630209922790527 0.86583775281906128 0.2542915940284729
0.84830987453460693 0.8617740273475647 0.30312800407409668
0.89638495445251465 0.86426270008087158 0.32385295629501343
0.92114174365997314 0.87223857641220093 0.31808412075042725
0.012662371620535851 0.031787797808647156 0.16960851848125458
0.097070597112178802 0.019389418885111809 0.18307821452617645
0.3020922839641571 0.010013251565396786 0.18098743259906769
0.48523631691932678 0.017172839492559433 0.16613571345806122
0.59969425201416016 0.026407323777675629 0.16456100344657898
0.69343078136444092 0.042624931782484055 0.17175084352493286
0.77928608655929565 0.063020624220371246 0.16763664782047272
0.85412406921386719 0.044388402253389359 0.16761216521263123
0.88140052556991577 0.044445216655731201 0.15915994346141815
0.89907240867614746 0.041025828570127487 0.14131416380405426
0.91392427682876587 0.039890889078378677 0.12666039168834686
0.93045490980148315 0.033422596752643585 0.12117831408977509
0.94905418157577515 0.031597256660461426 0.11758973449468613
0.01003735139966011 0.092004828155040741 0.17362380027770996
0.054983220994472504 0.071496345102787018 0.168036088347435
0.24371437728404999 0.052762124687433243 0.16710984706878662
0.44997325539588928 0.061324998736381531 0.15568162500858307
0.57692927122116089 0.081831850111484528 0.15809185802936554
0.67947483062744141 0.099844418466091156 0.16271045804023743
0.77098327875137329 0.11335275322198868 0.15916188061237335
0.84606385231018066 0.11303630471229553 0.1592327207326889
0.882640540599823 0.10891952365636826 0.15042558312416077
0.90140175819396973 0.10933750867843628 0.14243561029434204
0.91698884963989258 0.10429102927446365 0.1331334263086319
0.93201881647109985 0.09341093897819519 0.12848547101020813
0.9499632716178894 0.096997953951358795 0.13313782215118408
0.020921429619193077 0.16286058723926544 0.17717979848384857
0.040052734315395355 0.15234388411045074 0.17022737860679626
0.15569472312927246 0.13884265720844269 0.16239386796951294
0.37914898991584778 0.14805398881435394 0.15297827124595642
0.53857517242431641 0.16512855887413025 0.15147975087165833
0.657298743724823 0.17655150592327118 0.14829930663108826
0.75826573371887207 0.17561408877372742 0.15012101829051971
0.84586876630783081 0.17596258223056793 0.1478058248758316
0.88676995038986206 0.17348401248455048 0.14090465009212494
0.90606784820556641 0.16547811031341553 0.13654990494251251
0.92199808359146118 0.16462314128875732 0.12765035033226013
0.93698132038116455 0.15681499242782593 0.12542340159416199
0.95469295978546143 0.15786731243133545 0.12502147257328033
0.027222892269492149 0.2709597647190094 0.18527780473232269
0.044770527631044388 0.26454299688339233 0.17704637348651886
0.098447032272815704 0.25430890917778015 0.16186843812465668
0.29613322019577026 0.26236283779144287 0.15668852627277374
0.4837239682674408 0.28006535768508911 0.15804159641265869
0.62694579362869263 0.28863230347633362 0.14408440887928009
0.74128973484039307 0.28207078576087952 0.13954167068004608
0.83785253763198853 0.27046579122543335 0.12947858870029449
0.89530652761459351 0.25777575373649597 0.12560102343559265
0.91587978601455688 0.24717254936695099 0.11703965067863464
0.93159300088882446 0.24208289384841919 0.11696796864271164
0.94680255651473999 0.2367808073759079 0.11976524442434311
0.96297919750213623 0.22534018754959106 0.1117764487862587
0.017349483445286751 0.37388476729393005 0.18905997276306152
0.03583112359046936 0.36684876680374146 0.17742438614368439
0.082333147525787354 0.3605671226978302 0.17143839597702026
0.2266353964805603 0.35966521501541138 0.15009140968322754
