assets/lut/editingcorp picola.cube
# Created by: G'MIC (https://gmic.eu)
TITLE "picola"
# LUT size
LUT_3D_SIZE 7
# Data domain
DOMAIN_MIN 0.0 0.0 0.0
DOMAIN_MAX 1.0 1.0 1.0
# LUT data points
0.0055068968795239925 0.0067843715660274029 0.0070011960342526436
0.12568354606628418 0.0095753837376832962 0.0071732765063643456
0.45178419351577759 0.016616761684417725 0.0061407648026943207
0.74689346551895142 0.004751930944621563 0.006204941775649786
0.88669222593307495 0.010203163139522076 0.0081887487322092056
0.92791569232940674 0.011665479280054569 0.00040714038186706603
0.97991085052490234 0.0088150622323155403 0
0.014268209226429462 0.15991894900798798 0.027203923091292381
0.10989653319120407 0.13317227363586426 0.025722458958625793
0.40005084872245789 0.13998617231845856 0.0063956165686249733
0.70508891344070435 0.11227868497371674 0.003557736286893487
0.88384222984313965 0.092314794659614563 0.010001717135310173
0.92545902729034424 0.084854274988174438 0.0039021510165184736
0.97864234447479248 0.091691158711910248 0.0010125403059646487
0.041796516627073288 0.39150625467300415 0.029000375419855118
0.11862103641033173 0.37414202094078064 0.035596899688243866
0.32155618071556091 0.33524265885353088 0.045807648450136185
0.65282142162322998 0.33017343282699585 0.0057722055353224277
0.865500807762146 0.29018348455429077 0.015009412541985512
0.93007862567901611 0.25733271241188049 0.0056522893719375134
0.97993868589401245 0.23666641116142273 0.0087959142401814461
0.064389266073703766 0.6219753623008728 0.057488832622766495
0.12551048398017883 0.61590737104415894 0.05492197722196579
0.2559610903263092 0.58905404806137085 0.063176803290843964
0.52571862936019897 0.55837655067443848 0.063217967748641968
0.85798972845077515 0.52460694313049316 0.010457326658070087
0.94298642873764038 0.48164314031600952 0.010999791324138641
0.9862479567527771 0.44440683722496033 0.0076936609111726284
0.072290949523448944 0.82902336120605469 0.072387158870697021
0.12124819308519363 0.82471495866775513 0.071168325841426849
0.21392291784286499 0.8153839111328125 0.061328094452619553
0.37639406323432922 0.77801012992858887 0.096915148198604584
0.72036898136138916 0.75282961130142212 0.072997450828552246
0.95626658201217651 0.72735399007797241 0.0077228769659996033
0.99690341949462891 0.67708396911621094 0.0092056570574641228
0.069798864424228668 0.92944401502609253 0.072694577276706696
0.11477420479059219 0.92833882570266724 0.079469911754131317
0.18403257429599762 0.92959630489349365 0.076822452247142792
0.33373862504959106 0.92755353450775146 0.066662825644016266
0.52886348962783813 0.89441931247711182 0.14499478042125702
0.84686237573623657 0.90008813142776489 0.084710001945495605
0.96310150623321533 0.87900739908218384 0.05749206617474556
0.068616800010204315 0.97813922166824341 0.074525706470012665
0.10141957551240921 0.97564667463302612 0.076916716992855072
0.13081514835357666 0.97067487239837646 0.068841613829135895
0.24998275935649872 0.97648650407791138 0.048798535019159317
0.43750828504562378 0.95688128471374512 0.10862136632204056
0.76775938272476196 0.95523226261138916 0.11984682083129883
0.93113285303115845 0.96838480234146118 0.088527634739875793
0.020125593990087509 0.013883299194276333 0.14368394017219543
0.14781466126441956 0.020136231556534767 0.17239746451377869
0.42165210843086243 0.031222952529788017 0.19000871479511261
0.7442975640296936 0.016982987523078918 0.17521710693836212
0.88641083240509033 0.020106012001633644 0.14407409727573395
0.92702025175094604 0.014350861310958862 0.11731797456741333
0.97767019271850586 0.015804843977093697 0.1103694811463356
0.025071088224649429 0.13469229638576508 0.15619802474975586
0.12350025773048401 0.13919275999069214 0.14996331930160522
0.38197576999664307 0.14357465505599976 0.14272640645503998
0.69372749328613281 0.12199036777019501 0.12718024849891663
0.87910968065261841 0.096483580768108368 0.098998993635177612
0.92637103796005249 0.085601180791854858 0.085526183247566223
0.9775012731552124 0.092868521809577942 0.095044396817684174
0.082868777215480804 0.36185130476951599 0.14775627851486206
0.1347966343164444 0.36479455232620239 0.13093036413192749
0.32675883173942566 0.34458631277084351 0.12057863175868988
0.64213854074478149 0.32851061224937439 0.073949865996837616
0.86639094352722168 0.2865450382232666 0.073430292308330536
0.92910087108612061 0.25783547759056091 0.054889991879463196
0.98014426231384277 0.23974013328552246 0.073276668787002563
0.064961209893226624 0.62360286712646484 0.11274293065071106
0.13432139158248901 0.60943758487701416 0.11424605548381805
0.24130968749523163 0.58324533700942993 0.11896225810050964
0.51632773876190186 0.5503544807434082 0.11958299577236176
0.8602481484413147 0.52356219291687012 0.05059364065527916
0.93655514717102051 0.47816741466522217 0.047070372849702835
0.98440450429916382 0.44421583414077759 0.053345788270235062
0.056732311844825745 0.82595634460449219 0.11873599886894226
0.10452201962471008 0.81813973188400269 0.11491239815950394
0.20133340358734131 0.80950957536697388 0.10280393809080124
0.37186247110366821 0.77621328830718994 0.14193479716777802
0.71411669254302979 0.75041532516479492 0.11592739075422287
0.95426058769226074 0.72291272878646851 0.053058937191963196
0.99615514278411865 0.6743045449256897 0.056527215987443924
0.063348792493343353 0.9235268235206604 0.11752700805664062
0.11084739863872528 0.92494624853134155 0.12712091207504272
0.18230932950973511 0.92499589920043945 0.12715733051300049
0.336171954870224 0.92486953735351562 0.11486188322305679
0.52947646379470825 0.89373385906219482 0.19046337902545929
0.84851056337356567 0.89786350727081299 0.1340949684381485
0.95526206493377686 0.88577938079833984 0.10171884298324585
0.063320323824882507 0.97682636976242065 0.096452526748180389
0.10351818054914474 0.97539973258972168 0.099591515958309174
0.12227968871593475 0.9730374813079834 0.089544408023357391
0.21786879003047943 0.98150479793548584 0.079762130975723267
0.4342578649520874 0.95766931772232056 0.14170257747173309
0.74689197540283203 0.95243376493453979 0.16452603042125702
0.92408400774002075 0.96999585628509521 0.12283729016780853
0.11515981703996658 0.026481958106160164 0.45071166753768921
0.22601529955863953 0.039510957896709442 0.44461527466773987
0.42160290479660034 0.046108979731798172 0.44773018360137939
0.70555812120437622 0.048983391374349594 0.447884202003479
0.88174116611480713 0.02338123694062233 0.42138630151748657
0.92544692754745483 0.017964607104659081 0.39008980989456177
0.97715300321578979 0.018675830215215683 0.36196810007095337
0.11125323921442032 0.14828434586524963 0.38933661580085754
0.1936151534318924 0.1477733850479126 0.3859245777130127
0.37845835089683533 0.16113126277923584 0.40451335906982422
0.6700323224067688 0.15808400511741638 0.41237995028495789
0.88103479146957397 0.10941500216722488 0.37802344560623169
0.91758155822753906 0.10247413814067841 0.34993532299995422
0.97423917055130005 0.099454112350940704 0.32767075300216675
0.10261994600296021 0.33865183591842651 0.38276678323745728
0.1431877464056015 0.33146488666534424 0.38012886047363281
0.3366946280002594 0.34743466973304749 0.37811246514320374
0.63226425647735596 0.34349584579467773 0.35637703537940979
0.87241244316101074 0.30633920431137085 0.32531043887138367
0.93255424499511719 0.2878381609916687 0.30693012475967407
0.98228555917739868 0.26544225215911865 0.29017037153244019
0.17770831286907196 0.57769018411636353 0.37451949715614319
0.20817315578460693 0.57008153200149536 0.35919332504272461
0.30552935600280762 0.57692945003509521 0.33702272176742554
0.53816395998001099 0.55698895454406738 0.31694075465202332
0.85881656408309937 0.52613097429275513 0.22333228588104248
0.94105440378189087 0.4904000461101532 0.21157325804233551
0.98796176910400391 0.46730896830558777 0.22464054822921753
0.12767374515533447 0.81282937526702881 0.28693267703056335
0.17155389487743378 0.80710846185684204 0.27585506439208984
0.25374248623847961 0.79794985055923462 0.25549831986427307
0.40038347244262695 0.77701091766357422 0.26329195499420166
0.72179502248764038 0.74867582321166992 0.21110132336616516
0.95815962553024292 0.72039026021957397 0.13097381591796875
0.9985119104385376 0.67938148975372314 0.1519252210855484
0.081920623779296875 0.92048901319503784 0.2095547616481781
0.12318010628223419 0.92651075124740601 0.21864226460456848
0.19133001565933228 0.92494469881057739 0.21553735435009003
0.3368566632270813 0.92360794544219971 0.19169135391712189
0.53236293792724609 0.89360725879669189 0.25669422745704651
0.85657989978790283 0.89780539274215698 0.1880568265914917
0.95716887712478638 0.88577842712402344 0.16681040823459625
0.053588777780532837 0.97615677118301392 0.1174018383026123
0.085512213408946991 0.97369939088821411 0.12789741158485413
0.12427178025245667 0.9775281548500061 0.11820675432682037
0.27304622530937195 0.98119568824768066 0.11589715629816055
0.42540758848190308 0.95812296867370605 0.14314176142215729
0.74980288743972778 0.95296037197113037 0.17124083638191223
0.92181265354156494 0.96901720762252808 0.11317750811576843
0.18463350832462311 0.026774581521749496 0.70891726016998291
0.29599463939666748 0.034166105091571808 0.71439522504806519
0.46604958176612854 0.073295354843139648 0.69871503114700317
0.68895000219345093 0.093323379755020142 0.70530343055725098
0.82444703578948975 0.10363911837339401 0.68548667430877686
0.87536084651947021 0.063991248607635498 0.65417051315307617
0.92840367555618286 0.041463110595941544 0.61953210830688477
0.16735431551933289 0.1557767242193222 0.67674154043197632
0.25045588612556458 0.15564797818660736 0.67775458097457886
0.42235314846038818 0.17126034200191498 0.66821372509002686
0.66350853443145752 0.16805656254291534 0.68550646305084229
0.8230779767036438 0.2024245411157608 0.64965629577636719
0.88463670015335083 0.17199729382991791 0.62309950590133667
0.94411152601242065 0.14635583758354187 0.5885968804359436
0.18013700842857361 0.34900227189064026 0.62828606367111206
0.24226319789886475 0.33907780051231384 0.61915296316146851
0.38366565108299255 0.34632211923599243 0.62454491853713989
0.60171377658843994 0.35024338960647583 0.63145679235458374
0.84117549657821655 0.32512533664703369 0.61847579479217529
0.91377812623977661 0.31118839979171753 0.58904045820236206
0.96586048603057861 0.29901319742202759 0.55927461385726929
0.13809932768344879 0.56421458721160889 0.63115447759628296
0.17339290678501129 0.55565959215164185 0.62133890390396118
0.25805053114891052 0.56044477224349976 0.62657433748245239
0.55637663602828979 0.57482761144638062 0.60644066333770752
0.82850766181945801 0.55092120170593262 0.56979215145111084
0.93885129690170288 0.5228840708732605 0.54590332508087158
0.97635495662689209 0.5100935697555542 0.5228075385093689
0.22933125495910645 0.77687269449234009 0.59547877311706543
0.31404682993888855 0.76763129234313965 0.58268016576766968
0.35199344158172607 0.76390993595123291 0.581859290599823
0.49331820011138916 0.77927100658416748 0.55955594778060913
0.7589074969291687 0.76059740781784058 0.53973960876464844
0.94838809967041016 0.72655206918716431 0.45412164926528931
0.99582815170288086 0.70227563381195068 0.46258851885795593
0.22702889144420624 0.89858865737915039 0.51032882928848267
0.28114837408065796 0.89337879419326782 0.50910067558288574
0.31703674793243408 0.90276092290878296 0.50463598966598511
0.40363654494285583 0.91845345497131348 0.49367421865463257
0.62097889184951782 0.90979021787643433 0.53272521495819092
0.87931340932846069 0.89863592386245728 0.45807328820228577
0.96904468536376953 0.89016115665435791 0.42896071076393127
0.17172592878341675 0.95735627412796021 0.42530739307403564
0.20181873440742493 0.95417922735214233 0.41815203428268433
0.25046515464782715 0.95847064256668091 0.41818332672119141
0.34614494442939758 0.97227615118026733 0.42282828688621521
0.54176980257034302 0.97412639856338501 0.43835508823394775
0.81145286560058594 0.96313315629959106 0.447845458984375
0.9442746639251709 0.97635692358016968 0.38831105828285217
0.19071589410305023 0.030951211228966713 0.80446279048919678
0.29496496915817261 0.036542091518640518 0.80866998434066772
0.47034409642219543 0.064471222460269928 0.80258947610855103
0.68916910886764526 0.062510892748832703 0.81502628326416016
0.86872470378875732 0.038150802254676819 0.86237066984176636
0.91001802682876587 0.046747483313083649 0.8614954948425293
0.94676017761230469 0.061009291559457779 0.84046041965484619
0.17912277579307556 0.15510167181491852 0.79849523305892944
0.26690530776977539 0.15810295939445496 0.80685180425643921
0.43821284174919128 0.16985292732715607 0.80273056030273438
0.65524405241012573 0.18544022738933563 0.81006914377212524
0.85499167442321777 0.1488116979598999 0.85096168518066406
0.90041571855545044 0.14666986465454102 0.84684789180755615
0.94520473480224609 0.15863373875617981 0.8193281888961792
0.22327490150928497 0.34457206726074219 0.78080236911773682
0.27878454327583313 0.33885073661804199 0.7832828164100647
0.41331732273101807 0.3525422215461731 0.80124968290328979
0.60990440845489502 0.34760603308677673 0.80038821697235107
0.82360321283340454 0.32244846224784851 0.83291101455688477
0.89824730157852173 0.30885624885559082 0.81719017028808594
0.93961453437805176 0.31329914927482605 0.78624236583709717
0.18883249163627625 0.5559077262878418 0.80155307054519653
0.26215234398841858 0.54451638460159302 0.79674720764160156
0.36339297890663147 0.55721664428710938 0.7972111701965332
0.5746530294418335 0.58306318521499634 0.77980434894561768
0.79968935251235962 0.57214319705963135 0.80607384443283081
0.89249151945114136 0.55880284309387207 0.79197627305984497
0.93915700912475586 0.555195152759552 0.77042198181152344
0.17482298612594604 0.76330643892288208 0.81115847826004028
0.17573457956314087 0.75358498096466064 0.81004667282104492
0.22749215364456177 0.75113528966903687 0.80953764915466309
0.43029326200485229 0.76452857255935669 0.81923317909240723
0.76145124435424805 0.77591365575790405 0.79960101842880249
0.91710638999938965 0.76450484991073608 0.77905464172363281
0.96299475431442261 0.75878775119781494 0.77165472507476807
0.28255674242973328 0.8818814754486084 0.76861590147018433
0.33205756545066833 0.87787008285522461 0.75790303945541382
0.38652428984642029 0.88295847177505493 0.75737655162811279
0.45860463380813599 0.89459389448165894 0.76795262098312378
0.70106041431427002 0.90603834390640259 0.77707397937774658
0.89902669191360474 0.90186548233032227 0.76251351833343506
0.97226911783218384 0.898079514503479 0.74616712331771851
0.28520405292510986 0.93758547306060791 0.7201845645904541
0.34737178683280945 0.93540233373641968 0.71087628602981567
0.38817745447158813 0.93936842679977417 0.71350347995758057
0.45031675696372986 0.95293521881103516 0.73558884859085083
0.66786378622055054 0.97230261564254761 0.74781012535095215
0.86842930316925049 0.9621625542640686 0.77070850133895874
0.95636081695556641 0.9708181619644165 0.73561364412307739
0.19745065271854401 0.040430676192045212 0.84930986166000366
0.29079717397689819 0.035182338207960129 0.84745383262634277
0.4576791524887085 0.058001246303319931 0.84481853246688843
0.67324656248092651 0.06136360764503479 0.8625948429107666
0.85686856508255005 0.039804868400096893 0.90127342939376831
0.90988051891326904 0.02979716844856739 0.90636008977890015
0.95737230777740479 0.051229275763034821 0.9003480076789856
0.1837044358253479 0.15207000076770782 0.84380179643630981
0.26338985562324524 0.14861303567886353 0.84760940074920654
0.42381581664085388 0.16614606976509094 0.84716582298278809
0.63638472557067871 0.17700739204883575 0.85784482955932617
0.84563630819320679 0.14606185257434845 0.89941859245300293
0.91214454174041748 0.12831960618495941 0.90883713960647583
0.95878636837005615 0.13687501847743988 0.91112887859344482
0.21139897406101227 0.32666382193565369 0.82255607843399048
0.26968377828598022 0.32470652461051941 0.82941371202468872
0.40264582633972168 0.34391242265701294 0.84555912017822266
0.60721081495285034 0.34356653690338135 0.85628676414489746
0.82890897989273071 0.31014323234558105 0.89763039350509644
0.92664128541946411 0.27968510985374451 0.9238707423210144
0.9552045464515686 0.28890588879585266 0.91128790378570557
0.21627023816108704 0.5334784984588623 0.84710860252380371
0.29299694299697876 0.528267502784729 0.840099036693573
0.38079869747161865 0.5452502965927124 0.85020488500595093
0.58184278011322021 0.57846355438232422 0.84913527965545654
0.78463196754455566 0.57126510143280029 0.86840510368347168
0.92232072353363037 0.53016746044158936 0.91619974374771118
0.9578743577003479 0.52943730354309082 0.90699511766433716
0.11641243100166321 0.73843711614608765 0.8941771388053894
0.1397315114736557 0.73639017343521118 0.89704853296279907
0.20342978835105896 0.73009359836578369 0.90296536684036255
0.44403794407844543 0.75524061918258667 0.90648084878921509
0.74980521202087402 0.77649980783462524 0.89207738637924194
0.91672974824905396 0.76414376497268677 0.91751021146774292
0.96432864665985107 0.76152437925338745 0.91631537675857544
0.18368078768253326 0.87994343042373657 0.89890366792678833
0.20725439488887787 0.87661170959472656 0.89866393804550171
0.24864839017391205 0.87587916851043701 0.89598566293716431
0.36972105503082275 0.88958323001861572 0.9056810736656189
0.66692417860031128 0.89951825141906738 0.91073596477508545
0.89223730564117432 0.90215885639190674 0.90801656246185303
0.96983426809310913 0.90856683254241943 0.91654235124588013
0.19278053939342499 0.93580806255340576 0.89225113391876221
0.25587773323059082 0.93255817890167236 0.88001000881195068
0.30440300703048706 0.93253642320632935 0.88151651620864868
0.37764695286750793 0.95106840133666992 0.89285790920257568
0.63052690029144287 0.96473181247711182 0.90410697460174561
0.88523733615875244 0.96838361024856567 0.90778219699859619
0.96839708089828491 0.97512400150299072 0.9073035717010498
0.19389715790748596 0.024792809039354324 0.90845590829849243
0.29426681995391846 0.028327686712145805 0.90844535827636719
0.44316944479942322 0.057634599506855011 0.90632063150405884
0.63319432735443115 0.09655577689409256 0.91644036769866943
0.83715176582336426 0.068214386701583862 0.95902347564697266
0.91785275936126709 0.035730771720409393 0.96390503644943237
0.96270465850830078 0.02700590156018734 0.96137732267379761
0.18232035636901855 0.13884705305099487 0.90823286771774292
0.26526841521263123 0.14219893515110016 0.91090583801269531
0.41263905167579651 0.16294237971305847 0.90993839502334595
0.59983909130096436 0.19042354822158813 0.91307210922241211
0.80975067615509033 0.17522162199020386 0.94903457164764404
0.91371828317642212 0.14629614353179932 0.96523052453994751
0.96243017911911011 0.14251939952373505 0.96905434131622314
0.2143014520406723 0.30682140588760376 0.88777542114257812
0.25656935572624207 0.31004315614700317 0.89689987897872925
0.40621295571327209 0.34100332856178284 0.90669852495193481
0.58026647567749023 0.34763741493225098 0.91051602363586426
0.789020836353302 0.3205772340297699 0.94776183366775513
0.9209175705909729 0.2894599437713623 0.98009645938873291
0.96098428964614868 0.28848913311958313 0.97608703374862671
0.24891673028469086 0.51097804307937622 0.8935735821723938
0.28597858548164368 0.50693416595458984 0.89644575119018555
0.39217588305473328 0.52873426675796509 0.91065508127212524
0.57775425910949707 0.57496744394302368 0.91180795431137085
0.77542018890380859 0.57220065593719482 0.92670035362243652
0.91307628154754639 0.53012382984161377 0.96587353944778442
0.96199047565460205 0.52166438102722168 0.96623653173446655
0.10266858339309692 0.70183467864990234 0.95220887660980225
0.13471108675003052 0.69587957859039307 0.9493333101272583
0.20835714042186737 0.6992495059967041 0.95728862285614014
0.44333991408348083 0.73339134454727173 0.96620833873748779
0.74734026193618774 0.76736807823181152 0.95785653591156006
0.91186386346817017 0.75892025232315063 0.97587472200393677
0.97200673818588257 0.75452595949172974 0.97831100225448608
0.16175734996795654 0.86106175184249878 0.95939028263092041
0.19552037119865417 0.85719621181488037 0.95862787961959839
0.23628924787044525 0.8573194146156311 0.96163082122802734
0.35712230205535889 0.87552225589752197 0.9743952751159668
0.66525447368621826 0.89494794607162476 0.9771924614906311
0.90160661935806274 0.90665465593338013 0.97953116893768311
0.97468847036361694 0.90933406352996826 0.98976022005081177
0.17675486207008362 0.92313867807388306 0.96349102258682251
0.22334633767604828 0.92602449655532837 0.95819419622421265
0.27606800198554993 0.92196023464202881 0.96372276544570923
0.35359406471252441 0.94597548246383667 0.97426861524581909
0.62504971027374268 0.9598844051361084 0.97748863697052002
0.89006376266479492 0.96507138013839722 0.98256456851959229
0.97487163543701172 0.97573918104171753 0.98862761259078979
