assets/lut/editingcorpw Morning Mist.cube
LUT_3D_SIZE 16
DOMAIN_MIN 0.0 0.0 0.0
DOMAIN_MAX 1.0 1.0 1.0
0.015128 0.014143 0.013767
0.052402 0.019449 0.018939
0.080051 0.023299 0.015846
0.104279 0.029752 0.011546
0.154770 0.037177 0.011357
0.226662 0.042203 0.015540
0.295079 0.051508 0.014712
0.356533 0.062916 0.013336
0.413475 0.071374 0.014710
0.465876 0.077090 0.017722
0.515307 0.084446 0.019987
0.562112 0.092821 0.022557
0.608197 0.102232 0.025481
0.652156 0.111912 0.028780
0.695082 0.122103 0.032362
0.736532 0.131965 0.036159
0.023162 0.040219 0.028024
0.057326 0.058893 0.027834
0.097141 0.060640 0.025879
0.138286 0.062137 0.025235
0.194172 0.068841 0.023641
0.262099 0.074951 0.026817
0.327459 0.086165 0.026254
0.388820 0.097275 0.025212
0.444054 0.105190 0.025829
0.492965 0.110689 0.028455
0.540301 0.118073 0.030896
0.585616 0.126385 0.033890
0.629633 0.135259 0.037094
0.672074 0.144492 0.040622
0.713328 0.154565 0.044425
0.753015 0.165065 0.048418
0.035614 0.061063 0.049054
0.071500 0.079202 0.050747
0.113528 0.091789 0.041493
0.164138 0.099865 0.034041
0.225747 0.102404 0.032987
0.290891 0.107922 0.036551
0.356310 0.120228 0.036737
0.417755 0.130863 0.036252
0.471513 0.138015 0.036391
0.518223 0.143583 0.038972
0.562753 0.150459 0.041849
0.606366 0.158157 0.045281
0.649493 0.166750 0.048849
0.690741 0.175738 0.052641
0.730137 0.185940 0.056660
0.768654 0.196619 0.060813
0.041417 0.105272 0.065785
0.079850 0.120992 0.072442
0.129983 0.123716 0.065042
0.193269 0.122472 0.053609
0.254651 0.128232 0.046097
0.315926 0.138885 0.044660
0.381185 0.150626 0.046602
0.440768 0.162555 0.045478
0.491525 0.170571 0.044595
0.537852 0.176146 0.047315
0.581249 0.183111 0.051019
0.623443 0.190724 0.055053
0.666164 0.198877 0.059075
0.707152 0.207533 0.063267
0.745584 0.218310 0.067627
0.783321 0.229281 0.072036
0.049168 0.152293 0.084360
0.086594 0.167244 0.092096
0.137053 0.170758 0.085043
0.206518 0.168936 0.069506
0.277681 0.167229 0.059775
0.346035 0.167330 0.058186
0.410913 0.171448 0.060886
0.465904 0.184452 0.058813
0.513451 0.198530 0.054764
0.555336 0.210425 0.054539
0.596538 0.219743 0.057619
0.637742 0.228534 0.061548
0.679279 0.237084 0.065961
0.720163 0.246017 0.070770
0.759180 0.256150 0.075834
0.796480 0.267285 0.080836
0.057791 0.200356 0.105266
0.095197 0.213713 0.112405
0.143158 0.219333 0.106103
0.212227 0.223772 0.089254
0.287230 0.228138 0.076413
0.363234 0.227465 0.071015
0.437901 0.219367 0.070065
0.496759 0.213479 0.072728
0.545988 0.215587 0.074140
0.585407 0.229796 0.072310
0.619134 0.251708 0.068147
0.655919 0.267293 0.068794
0.695016 0.279734 0.071558
0.734877 0.290902 0.075787
0.772981 0.302386 0.080881
0.808493 0.314295 0.086447
0.070492 0.243546 0.128659
0.108469 0.258260 0.132773
0.156277 0.268977 0.125980
0.223133 0.280956 0.110917
0.300551 0.293064 0.098877
0.375571 0.299108 0.092870
0.449511 0.295611 0.088258
0.514169 0.289229 0.084565
0.568796 0.280827 0.084194
0.617338 0.268698 0.089008
0.658137 0.270642 0.092404
0.691842 0.289012 0.090016
0.721790 0.316962 0.086833
0.753096 0.341054 0.087616
0.786469 0.357812 0.091481
0.819510 0.371386 0.096940
0.088479 0.277001 0.152843
0.129764 0.293817 0.153877
0.181009 0.311182 0.145258
0.250961 0.328990 0.132831
0.330604 0.348259 0.124206
0.401814 0.361313 0.118843
0.465646 0.365535 0.114760
0.528440 0.364673 0.109802
0.581723 0.360891 0.106328
0.628879 0.352880 0.106334
0.675271 0.340954 0.108950
0.720516 0.331095 0.113079
0.757698 0.339121 0.114762
0.784207 0.365617 0.113204
0.807332 0.398110 0.112677
0.832823 0.423642 0.114734
0.110831 0.306587 0.176231
0.159494 0.327500 0.174967
0.217909 0.348656 0.165566
0.289742 0.370016 0.155368
0.369023 0.393480 0.149943
0.435345 0.410627 0.146212
0.491231 0.419874 0.143949
0.545994 0.424819 0.140250
0.596260 0.425611 0.136609
0.640671 0.423545 0.134474
0.682162 0.420384 0.133478
0.725156 0.415821 0.134306
0.768658 0.407658 0.136683
0.807694 0.404490 0.139521
0.836781 0.419904 0.140698
0.859746 0.447640 0.141425
0.138912 0.338495 0.199414
0.196859 0.362381 0.195674
0.262111 0.381958 0.184723
0.332764 0.405768 0.178246
0.408752 0.432695 0.176025
0.471800 0.453231 0.174103
0.523088 0.466465 0.173125
0.569519 0.475796 0.172610
0.613617 0.481165 0.170622
0.655216 0.483431 0.168002
0.694496 0.484696 0.165141
0.731653 0.487967 0.163983
0.770066 0.488310 0.164148
0.809915 0.483177 0.165316
0.848226 0.477195 0.168418
0.880633 0.483303 0.171730
0.174726 0.375879 0.222311
0.239383 0.396905 0.215174
0.307636 0.414599 0.204501
0.376287 0.439962 0.201854
0.448676 0.468621 0.202255
0.509751 0.492273 0.201600
0.557217 0.508281 0.203040
0.598181 0.520650 0.204101
0.636206 0.529385 0.204514
0.672613 0.535745 0.203952
0.709355 0.540461 0.201180
0.742954 0.546821 0.199365
0.775135 0.553679 0.198589
0.809658 0.556611 0.198659
0.846167 0.555532 0.200564
0.885158 0.551231 0.204941
0.214623 0.414576 0.243002
0.285068 0.430472 0.233563
0.353741 0.448569 0.225950
0.419188 0.475425 0.226772
0.486720 0.505267 0.229664
0.547440 0.529659 0.230662
0.592335 0.547903 0.233377
0.628980 0.562232 0.235596
0.661698 0.573052 0.238003
0.693989 0.582058 0.239165
0.725289 0.590038 0.238538
0.756445 0.597390 0.236648
0.785934 0.606498 0.236159
0.814920 0.615226 0.237090
0.846086 0.622286 0.239233
0.881704 0.624667 0.243191
0.258141 0.451923 0.262241
0.332453 0.465771 0.253178
0.400559 0.484934 0.249394
0.461943 0.513164 0.253611
0.524283 0.543500 0.259158
0.583333 0.568252 0.261789
0.627214 0.586827 0.265361
0.660492 0.601427 0.269144
0.689450 0.613851 0.272615
0.717539 0.624892 0.274568
0.745242 0.634594 0.275316
0.771487 0.643623 0.275742
0.799260 0.652902 0.275435
0.826086 0.664063 0.277283
0.852810 0.675476 0.281322
0.882761 0.685068 0.286351
0.305649 0.490158 0.283538
0.382942 0.504067 0.275742
0.448194 0.524929 0.276686
0.505337 0.553984 0.284066
0.562623 0.584559 0.292800
0.618717 0.609461 0.297194
0.660629 0.627186 0.301536
0.691723 0.641169 0.306217
0.717831 0.653781 0.310078
0.742535 0.665638 0.312523
0.766465 0.676581 0.314652
0.790199 0.686252 0.315806
0.814981 0.696256 0.317277
0.840317 0.707482 0.319232
0.864851 0.720674 0.324038
0.889560 0.733422 0.330408
0.359998 0.532591 0.309440
0.437216 0.548199 0.305546
0.499159 0.570688 0.310383
0.552505 0.598954 0.320801
0.604039 0.630024 0.332801
0.654907 0.654567 0.339969
0.693196 0.671354 0.344622
0.722516 0.683975 0.348663
0.746259 0.695177 0.352054
0.768066 0.706447 0.354977
0.789474 0.717557 0.356970
0.810932 0.727341 0.358117
0.833240 0.737074 0.359465
0.856111 0.748108 0.361996
0.878910 0.759793 0.365174
0.901161 0.772390 0.370349
0.419631 0.582227 0.345113
0.495337 0.598598 0.343908
0.553529 0.620530 0.350375
0.602127 0.647603 0.363136
0.648390 0.678567 0.377234
0.692239 0.703305 0.386927
0.726848 0.719461 0.393126
0.753578 0.731306 0.397211
0.774945 0.740397 0.398957
0.794374 0.749856 0.400826
0.813639 0.759431 0.402181
0.832422 0.768109 0.402749
0.851949 0.776237 0.403003
0.873039 0.785591 0.403345
0.894198 0.796049 0.405308
0.915095 0.807551 0.408954
0.006875 0.015457 0.039757
0.043942 0.024054 0.043742
0.079752 0.033369 0.041395
0.109038 0.039769 0.033832
0.149833 0.046153 0.031269
0.220641 0.050694 0.035278
0.289299 0.056853 0.037777
0.354856 0.067457 0.038066
0.415385 0.078371 0.040961
0.469487 0.086203 0.045212
0.519584 0.094543 0.047748
0.567217 0.103868 0.050068
0.613437 0.113446 0.052833
0.657571 0.123968 0.055974
0.699708 0.134395 0.059417
0.741069 0.145344 0.063108
0.013161 0.049678 0.051802
0.051695 0.058085 0.057627
0.095754 0.063776 0.058442
0.137858 0.069187 0.051054
0.190465 0.076832 0.045051
0.258536 0.082769 0.047255
0.326158 0.090761 0.049662
0.390939 0.102880 0.049517
0.450045 0.114475 0.051668
0.499902 0.122115 0.055116
0.547899 0.129919 0.057618
0.593173 0.138892 0.060500
0.636948 0.148869 0.063625
0.679098 0.159601 0.067058
0.719356 0.170144 0.070769
0.758987 0.181103 0.074694
0.026841 0.070349 0.070488
0.061507 0.090380 0.073195
0.103773 0.106593 0.069792
0.160567 0.107616 0.062035
0.227087 0.108829 0.057273
0.290136 0.114690 0.058514
0.359647 0.125307 0.061097
0.425097 0.138345 0.061222
0.481460 0.149060 0.062652
0.528828 0.156434 0.065564
0.574568 0.164082 0.068287
0.617183 0.173119 0.071588
0.659173 0.182695 0.075078
0.700159 0.193127 0.078798
0.738752 0.203676 0.082814
0.775612 0.215261 0.087049
0.036081 0.112810 0.086734
0.075257 0.129734 0.093623
0.119969 0.142919 0.093330
0.177702 0.147347 0.080470
0.249079 0.150047 0.067052
0.315317 0.152230 0.067334
0.388877 0.160975 0.071089
0.454314 0.173943 0.071855
0.507242 0.183566 0.072594
0.553863 0.190086 0.075473
0.597056 0.197643 0.078794
0.638420 0.206348 0.082540
0.679877 0.215603 0.086422
0.719205 0.225770 0.090478
0.756153 0.236731 0.094895
0.791257 0.248338 0.099537
0.048867 0.164423 0.104249
0.087605 0.182680 0.114892
0.130429 0.195575 0.118270
0.190464 0.194653 0.103362
0.266754 0.189986 0.088205
0.338411 0.192139 0.081517
0.411739 0.199521 0.080742
0.475649 0.209793 0.081718
0.527495 0.219483 0.080388
0.573360 0.226730 0.082900
0.615521 0.234169 0.086926
0.656183 0.242726 0.091529
0.696823 0.251908 0.095900
0.735755 0.262401 0.100527
0.771931 0.273938 0.105670
0.805820 0.285826 0.111064
0.063833 0.213388 0.125256
0.100642 0.233080 0.138636
0.141200 0.246467 0.142810
0.197944 0.248552 0.128299
0.273082 0.250709 0.110060
0.353888 0.254293 0.101025
0.434000 0.249968 0.097951
0.500553 0.244923 0.096480
0.551268 0.251466 0.094497
0.594028 0.263862 0.094260
0.632256 0.276769 0.095191
0.671559 0.286916 0.098570
0.711563 0.296939 0.102784
0.750089 0.308191 0.108817
0.785087 0.320769 0.115571
0.818723 0.332885 0.122319
0.083355 0.250060 0.148026
0.118490 0.271920 0.163412
0.160015 0.285917 0.165810
0.215565 0.293288 0.152774
0.290537 0.305945 0.137345
0.372314 0.318368 0.127370
0.447648 0.322236 0.121438
0.515890 0.317020 0.116965
0.572739 0.309058 0.114529
0.622145 0.301246 0.116921
0.660592 0.311111 0.117078
0.691752 0.334286 0.116219
0.726179 0.352216 0.118829
0.761296 0.366931 0.123679
0.794562 0.379519 0.129898
0.827010 0.391550 0.136798
0.104172 0.281340 0.172252
0.139571 0.303491 0.188421
0.185550 0.319486 0.188245
0.243988 0.333555 0.175978
0.321397 0.353229 0.164059
0.402130 0.372486 0.156026
0.469033 0.382553 0.150396
0.533057 0.383778 0.144222
0.587950 0.381317 0.139219
0.635103 0.374690 0.138525
0.681421 0.364904 0.141229
0.722986 0.364078 0.143533
0.754044 0.382648 0.144232
0.779058 0.411688 0.144856
0.805267 0.436355 0.148480
0.834355 0.453560 0.154432
0.126062 0.310421 0.197509
0.165522 0.334114 0.213629
0.219005 0.352527 0.211207
0.284261 0.370560 0.198853
0.359166 0.394605 0.191106
0.436473 0.417740 0.185844
0.497402 0.432031 0.181237
0.553980 0.438449 0.176213
0.604809 0.441059 0.171283
0.649159 0.439268 0.168436
0.690427 0.437002 0.167824
0.731759 0.432830 0.168922
0.772766 0.427586 0.171411
0.806541 0.435843 0.173709
0.829972 0.463197 0.176151
0.850977 0.496655 0.179845
0.150292 0.341988 0.224189
0.197970 0.369053 0.239336
0.258309 0.387156 0.233889
0.328035 0.406033 0.222618
0.398547 0.432549 0.218958
0.471724 0.459020 0.216099
0.529564 0.476343 0.212305
0.578929 0.486909 0.209800
0.624483 0.493153 0.206251
0.665569 0.495273 0.203101
0.703562 0.497153 0.200529
0.737951 0.500769 0.200478
0.775167 0.501035 0.201483
0.813645 0.497264 0.204004
0.849953 0.497359 0.208575
0.877811 0.516341 0.214139
0.181246 0.379594 0.252381
0.235138 0.406319 0.264286
0.302554 0.421682 0.255231
0.372534 0.441852 0.247018
0.438255 0.469868 0.247259
0.507810 0.497967 0.246811
0.563598 0.517672 0.244276
0.608216 0.531454 0.243203
0.647939 0.540319 0.241429
0.683860 0.546205 0.239927
0.718258 0.550625 0.237010
0.749396 0.557169 0.236307
0.780627 0.564484 0.236978
0.813611 0.568094 0.239116
0.850856 0.568175 0.244218
0.889107 0.568021 0.251636
0.216810 0.421585 0.280909
0.276857 0.443465 0.287589
0.349599 0.458471 0.278285
0.416956 0.479731 0.274685
0.477880 0.508812 0.277901
0.542834 0.537439 0.279552
0.597691 0.558846 0.278694
0.639424 0.574028 0.278531
0.673678 0.585075 0.278453
0.704666 0.592741 0.277571
0.734111 0.599114 0.276344
0.763415 0.607139 0.275382
0.791910 0.616704 0.276459
0.819934 0.626487 0.279792
0.850779 0.634273 0.285233
0.886721 0.636894 0.291866
0.256393 0.464209 0.309001
0.322767 0.481709 0.311201
0.399088 0.497676 0.304029
0.462766 0.520099 0.304718
0.518787 0.549697 0.310583
0.578423 0.579075 0.315102
0.632083 0.600676 0.315701
0.671662 0.616108 0.316740
0.701846 0.627450 0.317810
0.727838 0.636594 0.317840
0.753639 0.644810 0.317335
0.778932 0.653905 0.317798
0.805556 0.663689 0.318903
0.831937 0.675273 0.322364
0.857689 0.687117 0.328030
0.886514 0.696482 0.334323
0.302452 0.508687 0.339323
0.375578 0.524985 0.340733
0.451773 0.542477 0.337433
0.511524 0.566298 0.341451
0.562996 0.594743 0.349153
0.616791 0.624000 0.356936
0.667061 0.645702 0.359116
0.703794 0.660399 0.360742
0.730168 0.670942 0.362394
0.753296 0.680226 0.362621
0.776126 0.689302 0.362456
0.798590 0.697742 0.362567
0.821944 0.707796 0.363876
0.845977 0.719164 0.366371
0.868903 0.731011 0.370382
0.892734 0.742891 0.376530
0.355984 0.558285 0.376852
0.433789 0.574275 0.377728
0.507061 0.592762 0.377429
0.562603 0.615682 0.383279
0.609346 0.642350 0.392450
0.657197 0.671533 0.401849
0.701570 0.692977 0.406814
0.734975 0.706562 0.409511
0.758800 0.716071 0.410554
0.779052 0.724081 0.410493
0.799406 0.732476 0.410087
0.819156 0.739851 0.408614
0.840233 0.748534 0.408251
0.861497 0.758257 0.409088
0.882425 0.768815 0.411373
0.903521 0.780679 0.415854
0.413420 0.610563 0.418078
0.492796 0.626072 0.418669
0.561890 0.644040 0.419444
0.612820 0.664982 0.425930
0.655160 0.690989 0.436098
0.696264 0.719343 0.447504
0.734867 0.739645 0.454252
0.764527 0.751768 0.457374
0.786409 0.760102 0.458063
0.804521 0.766932 0.458115
0.822278 0.773525 0.457195
0.840055 0.779320 0.454697
0.858484 0.786334 0.452182
0.877637 0.794518 0.450631
0.896639 0.803895 0.451003
0.916102 0.814630 0.453394
0.000000 0.023742 0.064237
0.033727 0.034433 0.071426
0.068562 0.045802 0.072848
0.105100 0.053399 0.065863
0.145662 0.058261 0.058219
0.212412 0.060026 0.056759
0.281415 0.064672 0.060827
0.348181 0.071652 0.064590
0.413294 0.082736 0.068719
0.471195 0.092687 0.074032
0.522603 0.102164 0.077411
0.571331 0.112854 0.079111
0.617970 0.123003 0.081312
0.662160 0.134379 0.084036
0.703271 0.145887 0.087170
0.743899 0.156831 0.090653
0.009645 0.057848 0.081354
0.045356 0.066354 0.090691
0.083900 0.076298 0.095041
0.128360 0.084647 0.089270
0.179745 0.088508 0.075500
0.247137 0.093654 0.071373
0.317233 0.098971 0.074104
0.387677 0.107678 0.075768
0.451427 0.120127 0.078572
0.505031 0.130705 0.083195
0.553649 0.139805 0.085941
0.599548 0.150041 0.088234
0.643545 0.160564 0.091014
0.685295 0.172075 0.094200
0.724751 0.183912 0.097713
0.762710 0.195379 0.101652
0.021703 0.089699 0.099217
0.055954 0.105112 0.106203
0.095812 0.114905 0.111976
0.149038 0.119457 0.108465
0.213160 0.121495 0.093013
0.279517 0.127209 0.085783
0.351688 0.133911 0.087145
0.425047 0.144871 0.087522
0.486006 0.157753 0.089543
0.536841 0.167754 0.093136
0.582942 0.177230 0.095601
0.626172 0.187206 0.098477
0.667395 0.197732 0.101726
0.707442 0.209098 0.105085
0.745025 0.221325 0.109145
0.780110 0.232988 0.114009
0.035822 0.126290 0.118247
0.070983 0.143222 0.125983
0.109317 0.159274 0.129421
0.163782 0.170298 0.121450
0.236447 0.166352 0.106279
0.307695 0.164073 0.099793
0.383905 0.170604 0.099091
0.457826 0.183434 0.099365
0.516205 0.196294 0.100567
0.564612 0.205176 0.103433
0.608844 0.213950 0.106082
0.649731 0.223733 0.109482
0.690197 0.234260 0.113218
0.728258 0.245625 0.117103
0.763135 0.257600 0.121828
0.795935 0.269709 0.127370
0.048960 0.178985 0.134455
0.085976 0.197729 0.145784
0.126495 0.213076 0.152293
0.180213 0.221908 0.146189
0.247880 0.220310 0.126479
0.321942 0.218896 0.113956
0.403979 0.219544 0.111763
0.479923 0.226928 0.111871
0.539033 0.237220 0.111376
0.587160 0.243852 0.113611
0.630120 0.251207 0.116602
0.670220 0.260634 0.120490
0.709349 0.271077 0.124701
0.745756 0.282642 0.129544
0.778975 0.295321 0.135761
0.810224 0.308686 0.142924
0.068167 0.223856 0.153508
0.104622 0.245210 0.167889
0.143745 0.263122 0.176391
0.193410 0.273467 0.173034
0.258508 0.275274 0.154607
0.337402 0.276882 0.139128
0.421498 0.277832 0.131883
0.494102 0.280176 0.128730
0.552929 0.284667 0.126229
0.601751 0.291201 0.126034
0.645234 0.297716 0.128749
0.685972 0.305623 0.132678
0.724792 0.315459 0.137524
0.760646 0.327337 0.143361
0.793368 0.340550 0.151447
0.824427 0.353704 0.159214
0.090075 0.257228 0.174903
0.126074 0.280234 0.191371
0.164942 0.300050 0.201541
0.213377 0.312432 0.199323
0.278357 0.320786 0.183666
0.359594 0.331511 0.168445
0.441511 0.341912 0.159695
0.515195 0.341248 0.153976
0.575499 0.336093 0.149584
0.623134 0.337951 0.149137
0.662401 0.349527 0.149389
0.698891 0.364104 0.150993
0.736006 0.375512 0.155528
0.770711 0.387106 0.161999
0.803318 0.398652 0.169732
0.834213 0.410518 0.177672
0.112694 0.287349 0.198516
0.149034 0.311350 0.216163
0.189532 0.332320 0.227506
0.240493 0.346688 0.224891
0.309147 0.361382 0.211121
0.389708 0.379953 0.200216
0.466615 0.396579 0.191688
0.534239 0.402099 0.184318
0.593938 0.400102 0.177426
0.643386 0.394692 0.175345
0.687875 0.388386 0.177211
0.723593 0.399172 0.177701
0.751123 0.424640 0.178699
0.779679 0.446289 0.183473
0.809296 0.463954 0.190453
0.839495 0.477633 0.199188
0.135512 0.316857 0.223755
0.173918 0.342626 0.242714
0.218103 0.365232 0.254808
0.276843 0.380947 0.250415
0.348885 0.399523 0.238786
0.422570 0.423857 0.232295
0.494980 0.444774 0.225483
0.555742 0.454788 0.218565
0.611393 0.457452 0.211482
0.658134 0.456234 0.206866
0.699505 0.453617 0.206310
0.738628 0.448323 0.207316
0.775804 0.450101 0.209278
0.802960 0.472621 0.212625
0.824197 0.507222 0.218535
0.847570 0.538493 0.227567
0.159983 0.348081 0.250074
0.203427 0.377413 0.270595
0.253178 0.400462 0.282329
0.320235 0.415809 0.275162
0.390366 0.437262 0.266785
0.457267 0.464886 0.264439
0.525981 0.488866 0.259830
0.581747 0.502658 0.253813
0.631576 0.509097 0.248086
0.674230 0.511131 0.243272
0.711907 0.512302 0.240755
0.745117 0.514080 0.240788
0.780869 0.513318 0.242881
0.818499 0.512499 0.247206
0.850408 0.525016 0.254362
0.873466 0.558742 0.264080
0.188649 0.384310 0.278147
0.237148 0.415762 0.299745
0.292384 0.436197 0.309418
0.366110 0.452375 0.300340
0.432733 0.475439 0.295738
0.494546 0.504816 0.297090
0.559024 0.530518 0.294653
0.611355 0.547732 0.289926
0.654462 0.557396 0.285916
0.691918 0.561866 0.282262
0.725895 0.565043 0.278681
0.756838 0.570371 0.277517
0.786700 0.577244 0.279977
0.819516 0.581339 0.284968
0.856825 0.582177 0.293396
0.893191 0.587400 0.303717
0.223661 0.427414 0.308999
0.275661 0.455661 0.330206
0.338679 0.474864 0.337363
0.413706 0.492875 0.330337
0.476219 0.516629 0.329337
0.533457 0.546648 0.332872
0.593272 0.572785 0.332675
0.643738 0.591390 0.329559
0.681287 0.602868 0.327424
0.712442 0.609085 0.324754
0.741664 0.614246 0.321467
0.769832 0.621899 0.320571
0.797796 0.630811 0.322337
0.825707 0.640435 0.327459
0.856499 0.646885 0.334524
0.891665 0.648630 0.343333
0.262907 0.473792 0.344149
0.319858 0.499255 0.364077
0.389921 0.518667 0.370011
0.464150 0.538137 0.366309
0.522534 0.562311 0.368238
0.574495 0.591016 0.373445
0.629324 0.617444 0.375222
0.677663 0.636102 0.373430
0.710538 0.647410 0.372154
0.736314 0.654859 0.370328
0.761040 0.661819 0.368441
0.785946 0.669939 0.367824
0.811435 0.678711 0.368746
0.836620 0.689119 0.371759
0.861619 0.699382 0.377239
0.890045 0.706838 0.384188
0.308850 0.526115 0.386192
0.372016 0.549264 0.404311
0.445806 0.568772 0.410310
0.517097 0.589269 0.409290
0.571622 0.612200 0.413130
0.618438 0.638514 0.419291
0.666942 0.664955 0.422791
0.711120 0.682810 0.422428
0.740622 0.693070 0.421506
0.763128 0.700529 0.419905
0.784061 0.707673 0.418176
0.805181 0.714620 0.415903
0.827337 0.722597 0.415068
0.849711 0.732198 0.416178
0.871760 0.742417 0.418985
0.894648 0.752823 0.424726
0.360715 0.580964 0.431690
0.427046 0.601833 0.447170
0.502348 0.620241 0.451783
0.569377 0.639741 0.452723
0.618868 0.661425 0.458018
0.660564 0.686433 0.464536
0.701797 0.710834 0.469808
0.740957 0.727372 0.471088
0.768347 0.737019 0.469873
0.788241 0.743893 0.468369
0.806549 0.749669 0.466309
0.824567 0.755185 0.463113
0.844044 0.761776 0.459980
0.864413 0.769845 0.458246
0.884087 0.779383 0.459213
0.903951 0.790160 0.463308
0.415813 0.635532 0.476007
0.482338 0.653980 0.489738
0.557394 0.671616 0.494107
0.619425 0.689483 0.496376
0.664263 0.710252 0.501720
0.701083 0.733019 0.508594
0.735343 0.754722 0.514757
0.768367 0.769218 0.516204
0.793418 0.777562 0.515066
0.811663 0.783881 0.514059
0.827793 0.789122 0.512231
0.844112 0.793225 0.508766
0.861524 0.798385 0.504498
0.879673 0.805202 0.500682
0.898009 0.813395 0.499339
0.915960 0.822900 0.500610
0.000823 0.036297 0.089919
0.033204 0.047682 0.099913
0.063862 0.060906 0.106943
0.095698 0.072367 0.107701
0.137685 0.076934 0.098310
0.197523 0.077727 0.090649
0.273030 0.080913 0.093761
0.339937 0.083890 0.096952
0.407000 0.090150 0.102491
0.465641 0.101294 0.108184
0.518158 0.112823 0.112850
0.568580 0.123799 0.113732
0.616651 0.134514 0.114166
0.661896 0.145612 0.115241
0.703578 0.157075 0.117614
0.742935 0.168542 0.120713
0.012506 0.072326 0.109893
0.046293 0.081732 0.122250
0.080116 0.093408 0.131509
0.116817 0.104950 0.134547
0.163939 0.110686 0.123618
0.227843 0.113358 0.110401
0.302011 0.117347 0.109562
0.374034 0.122900 0.112123
0.442355 0.131661 0.114486
0.499960 0.142997 0.117968
0.551559 0.154301 0.120832
0.599636 0.164350 0.121104
0.645197 0.174908 0.122359
0.687449 0.186495 0.124897
0.726117 0.198597 0.128398
0.762276 0.210904 0.132635
0.024822 0.108029 0.130365
0.058425 0.119947 0.142311
0.094023 0.129424 0.153194
0.134955 0.139283 0.158119
0.191730 0.145315 0.147394
0.258901 0.148648 0.129552
0.331972 0.153793 0.125188
0.409769 0.161809 0.125807
0.478796 0.172841 0.125500
0.534316 0.184333 0.128153
0.583692 0.194849 0.129920
0.628844 0.204955 0.131064
0.671014 0.215562 0.133505
0.710626 0.227138 0.136792
0.746666 0.239664 0.140829
0.779891 0.252754 0.146023
0.039387 0.141248 0.152957
0.072167 0.159744 0.163966
0.106741 0.175193 0.172654
0.149900 0.183059 0.177322
0.216851 0.185890 0.165948
0.290164 0.186779 0.146982
0.361418 0.191942 0.140254
0.442742 0.202164 0.139663
0.511778 0.215114 0.138176
0.565609 0.225858 0.139777
0.613048 0.235247 0.140670
0.655343 0.245400 0.142929
0.695182 0.256535 0.146317
0.731858 0.268129 0.150225
0.765301 0.280770 0.155654
0.796414 0.294524 0.161931
0.053073 0.188326 0.172633
0.087752 0.208403 0.185591
0.123984 0.225785 0.195060
0.166656 0.239500 0.196897
0.230801 0.245605 0.181974
0.308533 0.240317 0.163009
0.387313 0.237810 0.156111
0.469387 0.247177 0.154018
0.538937 0.260441 0.152488
0.592453 0.268533 0.152244
0.638253 0.275917 0.153247
0.678402 0.285371 0.155855
0.715798 0.296542 0.160254
0.750211 0.308550 0.165349
0.782175 0.321335 0.171937
0.812350 0.335155 0.179288
0.071781 0.232387 0.192715
0.107428 0.254963 0.207230
0.144003 0.275471 0.218704
0.186335 0.290413 0.221885
0.247709 0.298374 0.209302
0.320926 0.299941 0.187864
0.402985 0.300156 0.175059
0.486406 0.302495 0.171524
0.557367 0.309779 0.170478
0.611567 0.315909 0.168699
0.656947 0.321912 0.169387
0.696476 0.329991 0.171786
0.733133 0.339905 0.176296
0.766573 0.352066 0.181891
0.797643 0.365486 0.188618
0.827043 0.379194 0.196896
0.092679 0.268383 0.214411
0.128688 0.291285 0.229556
0.166068 0.313530 0.242432
0.207960 0.331325 0.247878
0.267719 0.341851 0.239122
0.341509 0.348726 0.220978
0.425176 0.355440 0.205644
0.506159 0.360333 0.198043
0.574738 0.363126 0.193686
0.627842 0.368168 0.191298
0.671889 0.375584 0.190582
0.710005 0.384446 0.192530
0.746112 0.394516 0.196976
0.778631 0.407222 0.203873
0.809205 0.421033 0.212906
0.838706 0.434879 0.222497
0.114046 0.299778 0.237488
0.151539 0.323133 0.252960
0.190643 0.346247 0.266834
0.234780 0.365395 0.273751
0.296772 0.379730 0.267646
0.372037 0.392791 0.253313
