assets/lut/editingcorp onda.cube
# Created by: G'MIC (https://gmic.eu)
TITLE "onda"
# LUT size
LUT_3D_SIZE 7
# Data domain
DOMAIN_MIN 0.0 0.0 0.0
DOMAIN_MAX 1.0 1.0 1.0
# LUT data points
0.0045261755585670471 0.010839768685400486 0.011121892370283604
0.175765261054039 0.0063716662116348743 0.019276352599263191
0.49893283843994141 0.051936924457550049 0.035774711519479752
0.78151226043701172 0.094027303159236908 0.062311314046382904
0.92798149585723877 0.11973272264003754 0.069363959133625031
0.92329108715057373 0.10320556908845901 0.060912922024726868
0.95343106985092163 0.1037091538310051 0.065869152545928955
0.014310604892671108 0.1246006116271019 0.04465382918715477
0.11767901480197906 0.11676637083292007 0.037928264588117599
0.43617543578147888 0.12199495732784271 0.041452251374721527
0.73868125677108765 0.15123990178108215 0.06905529648065567
0.91215169429779053 0.15614527463912964 0.080456510186195374
0.92335385084152222 0.13850526511669159 0.080506421625614166
0.9524306058883667 0.16278780996799469 0.09328942745923996
0.06771436333656311 0.28865775465965271 0.095149002969264984
0.092820845544338226 0.27789640426635742 0.089572116732597351
0.33246698975563049 0.28399872779846191 0.07492268830537796
0.6910703182220459 0.3020109236240387 0.060009840875864029
0.91785484552383423 0.28266739845275879 0.078120529651641846
0.95089703798294067 0.26676619052886963 0.082324907183647156
0.97216260433197021 0.27555450797080994 0.094502605497837067
0.1449832022190094 0.48822596669197083 0.17890734970569611
0.14738728106021881 0.475119948387146 0.17583820223808289
0.25749516487121582 0.45900055766105652 0.16129383444786072
0.591968834400177 0.49688193202018738 0.12062069773674011
0.90035271644592285 0.49205416440963745 0.033002637326717377
0.9883996844291687 0.45322009921073914 0.042105101048946381
0.99092322587966919 0.45089787244796753 0.066695958375930786
0.2945551872253418 0.70461815595626831 0.31380495429039001
0.28380569815635681 0.68817412853240967 0.30630117654800415
0.32009637355804443 0.66982549428939819 0.28898587822914124
0.51126301288604736 0.66686689853668213 0.29680910706520081
0.80709606409072876 0.69721829891204834 0.1855781078338623
0.99790894985198975 0.6958237886428833 0.00094104843446984887
1 0.67729699611663818 0.0035483865067362785
0.42008763551712036 0.83990556001663208 0.41458377242088318
0.41499614715576172 0.83188468217849731 0.40877839922904968
0.42600259184837341 0.82912749052047729 0.40739116072654724
0.52832269668579102 0.82132625579833984 0.40184709429740906
0.74312800168991089 0.83591556549072266 0.46498677134513855
0.91104584932327271 0.84915697574615479 0.38021305203437805
0.95593756437301636 0.84433120489120483 0.34587970376014709
0.4178318977355957 0.85064935684204102 0.41852250695228577
0.41522997617721558 0.84281283617019653 0.41291144490242004
0.42473319172859192 0.85160517692565918 0.4200235903263092
0.4999924898147583 0.85995680093765259 0.42614597082138062
0.70700305700302124 0.87933099269866943 0.47712579369544983
0.8709750771522522 0.88467133045196533 0.54947000741958618
0.9229239821434021 0.88520824909210205 0.60337167978286743
0.0071272156201303005 0.016421180218458176 0.10844862461090088
0.13764999806880951 0.012662924826145172 0.11443061381578445
0.46855753660202026 0.03197416290640831 0.12398192286491394
0.76819109916687012 0.035756338387727737 0.12491025775671005
0.91849887371063232 0.074585288763046265 0.11204159259796143
0.92435377836227417 0.05726439505815506 0.06490529328584671
0.95515042543411255 0.064539112150669098 0.074883900582790375
0.02016080915927887 0.12602914869785309 0.11961781978607178
0.1066083237528801 0.11881569027900696 0.11278799921274185
0.4225727915763855 0.12636344134807587 0.11037708073854446
0.72691035270690918 0.14476194977760315 0.12327057868242264
0.91051816940307617 0.16030131280422211 0.11841489374637604
0.92291265726089478 0.13828600943088531 0.10205558687448502
0.95895254611968994 0.13671346008777618 0.10131533443927765
0.058994367718696594 0.2805820107460022 0.12288039177656174
0.085095815360546112 0.2720608115196228 0.1156366840004921
0.33157548308372498 0.28483563661575317 0.098156645894050598
0.69200021028518677 0.30431607365608215 0.083346299827098846
0.91317856311798096 0.28220802545547485 0.084068059921264648
0.94760578870773315 0.26004999876022339 0.087621264159679413
0.97438555955886841 0.25648176670074463 0.086638070642948151
0.14643789827823639 0.48069304227828979 0.18964935839176178
0.14316375553607941 0.46739676594734192 0.1780165433883667
0.24456840753555298 0.45001035928726196 0.16546960175037384
0.58578014373779297 0.48879280686378479 0.12188156694173813
0.89661604166030884 0.4860173761844635 0.047185875475406647
0.97930550575256348 0.44792437553405762 0.054177332669496536
0.99541902542114258 0.43983170390129089 0.054492652416229248
0.29452311992645264 0.6982530951499939 0.31433308124542236
0.28224474191665649 0.68590831756591797 0.30488991737365723
0.3074287474155426 0.66962546110153198 0.28494173288345337
0.50198894739151001 0.66627424955368042 0.28951629996299744
0.81212985515594482 0.69230955839157104 0.17691642045974731
0.9951099157333374 0.68706631660461426 0.0036046195309609175
1 0.67174190282821655 0
0.41632631421089172 0.83465826511383057 0.4119514524936676
0.42202776670455933 0.83544707298278809 0.41606977581977844
0.42008304595947266 0.82799333333969116 0.41016682982444763
0.51806962490081787 0.82297050952911377 0.40279954671859741
0.74022805690765381 0.83528423309326172 0.46001240611076355
0.91142898797988892 0.84959739446640015 0.38021889328956604
0.95760935544967651 0.8420257568359375 0.34114587306976318
0.41320982575416565 0.84096318483352661 0.41760843992233276
0.41914206743240356 0.84468996524810791 0.41799134016036987
0.42117184400558472 0.84806424379348755 0.41969221830368042
0.50227028131484985 0.85917264223098755 0.42977461218833923
0.71131688356399536 0.87551701068878174 0.47233116626739502
0.87604606151580811 0.88523179292678833 0.56905806064605713
0.93073403835296631 0.88298499584197998 0.59078800678253174
0.01709899865090847 0.03604329377412796 0.30116954445838928
0.11184807866811752 0.031118670478463173 0.3003200888633728
0.41537678241729736 0.042357590049505234 0.31177356839179993
0.72723430395126343 0.059013906866312027 0.31175848841667175
0.88247179985046387 0.090334244072437286 0.31196624040603638
0.89549869298934937 0.076903216540813446 0.29694518446922302
0.92505037784576416 0.064188666641712189 0.2846284806728363
0.047357641160488129 0.14604955911636353 0.27136176824569702
0.097692780196666718 0.13286437094211578 0.26715603470802307
0.36419403553009033 0.13028524816036224 0.27399620413780212
0.68582737445831299 0.15590623021125793 0.28145116567611694
0.8845176100730896 0.17630331218242645 0.28796902298927307
0.90223246812820435 0.16749632358551025 0.26933476328849792
0.93406981229782104 0.16696341335773468 0.26635575294494629
0.057519037276506424 0.27073821425437927 0.24417681992053986
0.074152760207653046 0.26471829414367676 0.24026487767696381
0.29863011837005615 0.2714102566242218 0.24013915657997131
0.65115886926651001 0.28408131003379822 0.25040459632873535
0.88965648412704468 0.28992179036140442 0.24566985666751862
0.92922508716583252 0.26474058628082275 0.22588250041007996
0.9542350172996521 0.26401564478874207 0.21705099940299988
0.13561485707759857 0.4664076566696167 0.26316121220588684
0.12942793965339661 0.45245444774627686 0.24838031828403473
0.23101586103439331 0.44441291689872742 0.22591403126716614
0.5695798397064209 0.47983020544052124 0.2254764586687088
0.88706260919570923 0.47987580299377441 0.17251786589622498
0.97374099493026733 0.44448551535606384 0.14400139451026917
0.99413210153579712 0.43779078125953674 0.14675013720989227
0.28864309191703796 0.68885105848312378 0.34499302506446838
0.27194187045097351 0.67232644557952881 0.32823827862739563
0.30045613646507263 0.66094285249710083 0.31232941150665283
0.4904237687587738 0.65480411052703857 0.30665260553359985
0.79966461658477783 0.6878170371055603 0.20367318391799927
0.99593788385391235 0.68246519565582275 0.018582751974463463
1 0.66899842023849487 0.0093673709779977798
0.40894284844398499 0.83063369989395142 0.424337238073349
0.41108360886573792 0.82919716835021973 0.42045101523399353
0.41811954975128174 0.82517796754837036 0.41631510853767395
0.52067548036575317 0.82636290788650513 0.41453510522842407
0.73596501350402832 0.83111351728439331 0.46506181359291077
0.91261762380599976 0.84562766551971436 0.36209264397621155
0.96609175205230713 0.84257453680038452 0.30454203486442566
0.41523897647857666 0.84692889451980591 0.43390634655952454
0.4207911491394043 0.84772014617919922 0.42635840177536011
0.43031126260757446 0.84624946117401123 0.42306056618690491
0.51788979768753052 0.85774588584899902 0.4326728880405426
0.71318334341049194 0.87712013721466064 0.47495052218437195
0.87118899822235107 0.88441681861877441 0.56123471260070801
0.92640584707260132 0.8821602463722229 0.59660005569458008
0.089341782033443451 0.07876066118478775 0.52368021011352539
0.13496112823486328 0.076828569173812866 0.51900786161422729
0.34528574347496033 0.077034726738929749 0.54167264699935913
0.67885899543762207 0.12770560383796692 0.54829317331314087
0.83762967586517334 0.15286272764205933 0.522838294506073
0.84198081493377686 0.14351040124893188 0.49900490045547485
0.87311744689941406 0.1275475025177002 0.49187514185905457
0.11668587476015091 0.20254550874233246 0.47879037261009216
0.12340427190065384 0.18938490748405457 0.47240856289863586
0.30210432410240173 0.17176754772663116 0.48533052206039429
0.64109742641448975 0.19464543461799622 0.5008881688117981
0.83508598804473877 0.24241600930690765 0.4808858335018158
0.85027343034744263 0.24103981256484985 0.46514236927032471
0.88024568557739258 0.23572154343128204 0.46593520045280457
0.099000506103038788 0.29266682267189026 0.44008272886276245
0.10414621978998184 0.28221485018730164 0.43206369876861572
0.24292798340320587 0.27828511595726013 0.43419164419174194
0.579143226146698 0.281839519739151 0.44173255562782288
0.82899719476699829 0.31190997362136841 0.43592995405197144
0.87169945240020752 0.30639484524726868 0.42717882990837097
0.90066385269165039 0.29946276545524597 0.41736924648284912
0.12886995077133179 0.44572639465332031 0.41795843839645386
0.12309054285287857 0.42984563112258911 0.40308380126953125
0.20374774932861328 0.43060001730918884 0.39532768726348877
0.52991980314254761 0.46003538370132446 0.42054581642150879
0.84015381336212158 0.47128570079803467 0.42751914262771606
0.93556374311447144 0.45524787902832031 0.41208991408348083
0.96094006299972534 0.45087963342666626 0.41145351529121399
0.27298775315284729 0.66541051864624023 0.44205981492996216
0.26559305191040039 0.65585190057754517 0.43710651993751526
0.28838855028152466 0.6409679651260376 0.41535109281539917
0.47111746668815613 0.63804715871810913 0.40902125835418701
0.78328907489776611 0.68109071254730225 0.40980720520019531
0.98663967847824097 0.67394381761550903 0.3420557975769043
0.99830633401870728 0.66570413112640381 0.31825715303421021
0.3998105525970459 0.81111174821853638 0.48560142517089844
0.40834158658981323 0.8175048828125 0.48296493291854858
0.41383874416351318 0.81655228137969971 0.47544106841087341
0.5102003812789917 0.81449031829833984 0.47369709610939026
0.72066831588745117 0.82278376817703247 0.51009881496429443
0.90836215019226074 0.8406633734703064 0.45775490999221802
0.96510046720504761 0.84191077947616577 0.41951125860214233
0.41536149382591248 0.84194540977478027 0.48820418119430542
0.42101311683654785 0.84223991632461548 0.47663861513137817
0.43115219473838806 0.84741038084030151 0.46988838911056519
0.51774197816848755 0.85794615745544434 0.47685202956199646
0.71008491516113281 0.87820309400558472 0.50570225715637207
0.87760275602340698 0.88478058576583862 0.58330529928207397
0.93182659149169922 0.88132977485656738 0.60686087608337402
0.14568918943405151 0.13330771028995514 0.66985124349594116
0.16801582276821136 0.13165538012981415 0.6676795482635498
0.30022522807121277 0.13943548500537872 0.70153790712356567
0.62949961423873901 0.21033188700675964 0.76555240154266357
0.83676803112030029 0.26501718163490295 0.76475715637207031
0.83568155765533447 0.27174538373947144 0.75432026386260986
0.86135345697402954 0.26587814092636108 0.74434125423431396
0.16980335116386414 0.26607257127761841 0.65565955638885498
0.1783476322889328 0.25515726208686829 0.6527518630027771
0.27393817901611328 0.24802352488040924 0.67353439331054688
0.57886958122253418 0.2584286630153656 0.73124194145202637
0.82005101442337036 0.31009611487388611 0.74016207456588745
0.83493274450302124 0.3083612322807312 0.71613895893096924
0.86607086658477783 0.31764319539070129 0.71692782640457153
0.16756819188594818 0.3461189866065979 0.64249700307846069
0.18006032705307007 0.34299609065055847 0.64653366804122925
0.23727619647979736 0.33499905467033386 0.64973658323287964
0.51215881109237671 0.33651340007781982 0.68762463331222534
0.7991974949836731 0.36524787545204163 0.69166195392608643
0.83891957998275757 0.36293825507164001 0.67019939422607422
0.87074160575866699 0.35904151201248169 0.66616499423980713
0.15997770428657532 0.45577073097229004 0.6367037296295166
0.16192685067653656 0.44555798172950745 0.62561804056167603
0.20459216833114624 0.43889954686164856 0.62740427255630493
0.43877378106117249 0.45460227131843567 0.6487928032875061
0.77327120304107666 0.47132939100265503 0.64124363660812378
0.85958737134933472 0.47134095430374146 0.62203454971313477
0.89218491315841675 0.47108149528503418 0.62325936555862427
0.26516371965408325 0.6329229474067688 0.64442753791809082
0.26789119839668274 0.62918746471405029 0.63558107614517212
0.27886664867401123 0.6129717230796814 0.61376291513442993
0.43570995330810547 0.62322741746902466 0.60738009214401245
0.75152873992919922 0.66502684354782104 0.64529240131378174
0.9279676079750061 0.67126166820526123 0.64254605770111084
0.95460885763168335 0.65810197591781616 0.62048149108886719
0.44026154279708862 0.80638021230697632 0.64754724502563477
0.43795835971832275 0.8023872971534729 0.63478684425354004
0.43896687030792236 0.79697513580322266 0.62323504686355591
0.51491975784301758 0.79580032825469971 0.60982024669647217
0.71020650863647461 0.80685847997665405 0.64680105447769165
0.90738821029663086 0.84522253274917603 0.65641951560974121
0.96521145105361938 0.84511005878448486 0.64106500148773193
0.4417826235294342 0.83211851119995117 0.62060028314590454
0.44179770350456238 0.82890939712524414 0.61225974559783936
0.44869086146354675 0.83326715230941772 0.60209834575653076
0.51956415176391602 0.84229248762130737 0.59745919704437256
0.69615530967712402 0.86224234104156494 0.62996858358383179
0.86631852388381958 0.88036537170410156 0.68755173683166504
0.92541050910949707 0.8824271559715271 0.7078971266746521
0.13673865795135498 0.14728231728076935 0.66723340749740601
0.16362926363945007 0.15175090730190277 0.67109948396682739
0.29395008087158203 0.15755456686019897 0.71055930852890015
0.61388546228408813 0.21669846773147583 0.78165930509567261
0.83833581209182739 0.28982651233673096 0.80896085500717163
0.83581316471099854 0.28556433320045471 0.80571538209915161
0.85264641046524048 0.28776076436042786 0.815146803855896
0.17528215050697327 0.26901012659072876 0.67787164449691772
0.18471691012382507 0.26250004768371582 0.67439550161361694
0.26989257335662842 0.25848925113677979 0.69970917701721191
0.54835963249206543 0.27159789204597473 0.77182102203369141
0.81995922327041626 0.32789725065231323 0.80624830722808838
0.83235698938369751 0.33268377184867859 0.80357968807220459
0.85686320066452026 0.33728495240211487 0.81049108505249023
0.19146521389484406 0.35878124833106995 0.69558680057525635
0.19793081283569336 0.35402119159698486 0.69825273752212524
0.2485540360212326 0.35353732109069824 0.70997828245162964
0.46810731291770935 0.36007905006408691 0.76246672868728638
0.78375959396362305 0.39582949876785278 0.81152856349945068
0.84324640035629272 0.39886981248855591 0.81882387399673462
0.8717806339263916 0.39694997668266296 0.8118366003036499
0.18597227334976196 0.47416061162948608 0.73094898462295532
0.18618018925189972 0.46442192792892456 0.72814691066741943
0.22557215392589569 0.46022984385490417 0.73287343978881836
0.39887169003486633 0.475422203540802 0.77172058820724487
0.73726946115493774 0.51040732860565186 0.816325843334198
0.85692834854125977 0.51191610097885132 0.81673526763916016
0.88323390483856201 0.50766187906265259 0.80626624822616577
0.24638761579990387 0.60996752977371216 0.78944867849349976
0.2393757551908493 0.59907197952270508 0.77775055170059204
0.249855637550354 0.58844351768493652 0.77696675062179565
0.36688679456710815 0.59921395778656006 0.79643756151199341
0.70394694805145264 0.65384930372238159 0.8370976448059082
0.88901722431182861 0.66601377725601196 0.83478790521621704
0.91300946474075317 0.65246593952178955 0.81406706571578979
0.42067989706993103 0.75946658849716187 0.82375103235244751
0.41641104221343994 0.75325137376785278 0.81501179933547974
0.42791295051574707 0.75438886880874634 0.80836278200149536
0.49770587682723999 0.76095056533813477 0.80265706777572632
0.69786149263381958 0.79856079816818237 0.83030182123184204
0.89726155996322632 0.83996272087097168 0.86246204376220703
0.95080327987670898 0.83969944715499878 0.85882222652435303
0.45548972487449646 0.79389351606369019 0.81673258543014526
0.45675382018089294 0.79403543472290039 0.81236028671264648
0.46288838982582092 0.79798543453216553 0.80437076091766357
0.53260433673858643 0.81518733501434326 0.79201221466064453
0.70448857545852661 0.85011488199234009 0.79696333408355713
0.87410420179367065 0.89025390148162842 0.85232949256896973
0.92974507808685303 0.89969879388809204 0.86469477415084839
0.14392027258872986 0.16935038566589355 0.66978913545608521
0.16805586218833923 0.17468181252479553 0.67309433221817017
0.2946171760559082 0.17323645949363708 0.71095621585845947
0.59890222549438477 0.22050376236438751 0.77416640520095825
0.84003531932830811 0.28567242622375488 0.80588918924331665
0.83755481243133545 0.28221136331558228 0.80429947376251221
0.85203385353088379 0.29256662726402283 0.81581324338912964
0.17177999019622803 0.26130861043930054 0.67952525615692139
0.18247534334659576 0.25676894187927246 0.67924207448959351
0.27672511339187622 0.25464147329330444 0.70673459768295288
0.5477866530418396 0.26745307445526123 0.77221190929412842
0.81448453664779663 0.33040294051170349 0.80692976713180542
0.83284586668014526 0.33270961046218872 0.80708444118499756
0.85244935750961304 0.34014809131622314 0.8124353289604187
0.18054863810539246 0.35247328877449036 0.69252663850784302
0.18940746784210205 0.34725168347358704 0.69402527809143066
0.24930819869041443 0.35018303990364075 0.71042704582214355
0.46035057306289673 0.35720503330230713 0.76130956411361694
0.76128977537155151 0.38893762230873108 0.80750769376754761
0.83974361419677734 0.39470666646957397 0.80968761444091797
0.86976546049118042 0.39865532517433167 0.80997520685195923
0.17835785448551178 0.46673062443733215 0.72674965858459473
0.18416033685207367 0.45846995711326599 0.72667580842971802
0.22882929444313049 0.45512726902961731 0.73479336500167847
0.406200110912323 0.47755330801010132 0.77277129888534546
0.73371106386184692 0.50892889499664307 0.82232797145843506
0.86075466871261597 0.51757466793060303 0.8316914439201355
0.88991177082061768 0.52003532648086548 0.83482038974761963
0.23482422530651093 0.60232174396514893 0.79019314050674438
0.24064970016479492 0.5969422459602356 0.78527325391769409
0.24872708320617676 0.58581209182739258 0.78624242544174194
0.3834892213344574 0.60187304019927979 0.80992555618286133
0.6895020604133606 0.64991337060928345 0.85205185413360596
0.88640332221984863 0.66928881406784058 0.87282121181488037
0.90995198488235474 0.66774880886077881 0.87606281042098999
0.41419318318367004 0.75237035751342773 0.85442620515823364
0.4121212363243103 0.74695152044296265 0.85011106729507446
0.40470868349075317 0.73713332414627075 0.8458666205406189
0.47978594899177551 0.74596536159515381 0.85332846641540527
0.6923292875289917 0.7907981276512146 0.87812173366546631
0.89939212799072266 0.82766658067703247 0.91844463348388672
0.95221257209777832 0.83033174276351929 0.92034858465194702
0.44834840297698975 0.78478848934173584 0.86665284633636475
0.44581902027130127 0.77873563766479492 0.85699665546417236
0.44992807507514954 0.77543383836746216 0.85949265956878662
0.52143114805221558 0.79479312896728516 0.86445456743240356
0.71015119552612305 0.83320039510726929 0.87923514842987061
0.8920668363571167 0.89626181125640869 0.92565542459487915
0.94422668218612671 0.91025960445404053 0.941913902759552
