assets/lut/editingcorp huesio.cube
# Created by: G'MIC (https://gmic.eu)
TITLE "huesio"
# LUT size
LUT_3D_SIZE 13
# Data domain
DOMAIN_MIN 0.0 0.0 0.0
DOMAIN_MAX 1.0 1.0 1.0
# LUT data points
0.075135968625545502 0.08023332804441452 0.081673592329025269
0.12020154297351837 0.087904296815395355 0.080392234027385712
0.18393963575363159 0.10283146053552628 0.070766478776931763
0.25048884749412537 0.11561527848243713 0.065309010446071625
0.3124312162399292 0.13540126383304596 0.072038732469081879
0.3656669557094574 0.14927516877651215 0.076715730130672455
0.41487255692481995 0.1639629453420639 0.083269856870174408
0.46286118030548096 0.18138958513736725 0.093318387866020203
0.5054355263710022 0.20225599408149719 0.10206881910562515
0.54753357172012329 0.22649012506008148 0.10872792452573776
0.58160072565078735 0.24607706069946289 0.11338828504085541
0.61079502105712891 0.26463839411735535 0.12151496857404709
0.63688766956329346 0.28066939115524292 0.12867647409439087
0.073463901877403259 0.10351875424385071 0.086437195539474487
0.12259972095489502 0.1107274517416954 0.084637224674224854
0.19700637459754944 0.12523610889911652 0.073471888899803162
0.26762640476226807 0.14254593849182129 0.065653212368488312
0.33232805132865906 0.16233278810977936 0.07037854939699173
0.38980144262313843 0.18167926371097565 0.079797737300395966
0.43961909413337708 0.19684833288192749 0.089105419814586639
0.48181301355361938 0.20819255709648132 0.09821077436208725
0.51803368330001831 0.21693632006645203 0.10605637729167938
0.55325096845626831 0.23148790001869202 0.11197409778833389
0.58842098712921143 0.25299358367919922 0.11705783009529114
0.61755895614624023 0.26984012126922607 0.12335936725139618
0.64129769802093506 0.28631418943405151 0.12825387716293335
0.068221084773540497 0.1328081488609314 0.0942344069480896
0.1118362694978714 0.13932567834854126 0.094365842640399933
0.19734100997447968 0.15372905135154724 0.08217475563287735
0.28136298060417175 0.17248982191085815 0.073655419051647186
0.35207796096801758 0.19359327852725983 0.074238859117031097
0.4158991277217865 0.21909907460212708 0.08413289487361908
0.47139295935630798 0.24202163517475128 0.096272699534893036
0.51956701278686523 0.26042571663856506 0.10904493182897568
0.55372494459152222 0.26497748494148254 0.11678607761859894
0.57715803384780884 0.26080039143562317 0.11849793046712875
0.60324209928512573 0.26854050159454346 0.12099842727184296
0.6277310848236084 0.28044533729553223 0.12501873075962067
0.64930647611618042 0.29535886645317078 0.12616132199764252
0.0679597407579422 0.16563421487808228 0.10271675139665604
0.10392189770936966 0.17497007548809052 0.10100618004798889
0.18536761403083801 0.19760170578956604 0.095083795487880707
0.29721838235855103 0.21742622554302216 0.086959555745124817
0.37213405966758728 0.22785033285617828 0.08285994827747345
0.43794950842857361 0.25186923146247864 0.093040198087692261
0.49847856163978577 0.28054726123809814 0.10822753608226776
0.55317193269729614 0.30633318424224854 0.12230967730283737
0.59514749050140381 0.32023140788078308 0.12834157049655914
0.62111854553222656 0.31723245978355408 0.12896132469177246
0.62942838668823242 0.29908502101898193 0.1272287517786026
0.6424030065536499 0.29690971970558167 0.12706784904003143
0.66004908084869385 0.30750635266304016 0.12799005210399628
0.073760688304901123 0.19673411548137665 0.10940611362457275
0.091209694743156433 0.20156458020210266 0.10623601078987122
0.16557995975017548 0.23057551681995392 0.10289785265922546
0.29585334658622742 0.26726067066192627 0.10580113530158997
0.38746750354766846 0.2714577317237854 0.096776105463504791
0.45609614253044128 0.28453409671783447 0.10226977616548538
0.51860594749450684 0.31416842341423035 0.11794348061084747
0.57629299163818359 0.33952435851097107 0.13139726221561432
0.62551975250244141 0.35858368873596191 0.13954302668571472
0.65989077091217041 0.365550696849823 0.14156968891620636
0.67548197507858276 0.35521066188812256 0.13998118042945862
0.66825383901596069 0.32752040028572083 0.13451419770717621
0.67431211471557617 0.32568970322608948 0.13338693976402283
0.078514531254768372 0.22845391929149628 0.11245767772197723
0.084695838391780853 0.22948256134986877 0.10895834863185883
0.14810118079185486 0.25864869356155396 0.10770775377750397
0.28403392434120178 0.3114200234413147 0.1191655620932579
0.40269860625267029 0.34119722247123718 0.12744666635990143
0.47596657276153564 0.33745720982551575 0.1217629536986351
0.53635579347610474 0.34559100866317749 0.12560190260410309
0.5955803394317627 0.37074065208435059 0.13901475071907043
0.64956861734390259 0.39187812805175781 0.14798235893249512
0.6923946738243103 0.40389218926429749 0.15166769921779633
0.71126353740692139 0.40141195058822632 0.15138879418373108
0.70434445142745972 0.37191042304039001 0.14494557678699493
0.69309937953948975 0.34785890579223633 0.13913081586360931
0.078107468783855438 0.26234737038612366 0.1138019934296608
0.088950693607330322 0.26876267790794373 0.11037126183509827
0.12603229284286499 0.28395560383796692 0.11034469306468964
0.25335052609443665 0.33764535188674927 0.12073992192745209
0.39092102646827698 0.38843432068824768 0.14132179319858551
0.49355238676071167 0.40823394060134888 0.15330617129802704
0.55602419376373291 0.39713776111602783 0.14544126391410828
0.61535990238189697 0.40586349368095398 0.14876474440097809
0.673561692237854 0.4257514476776123 0.15735884010791779
0.71552842855453491 0.44030264019966125 0.16166935861110687
0.74077725410461426 0.44542276859283447 0.16187140345573425
0.74547237157821655 0.43040922284126282 0.15776282548904419
0.72686481475830078 0.3876250684261322 0.14824645221233368
0.083704881370067596 0.30184751749038696 0.11301720142364502
0.096435278654098511 0.31046131253242493 0.10969323664903641
0.12226637452840805 0.32003894448280334 0.1101674810051918
0.20121033489704132 0.35351407527923584 0.11640011519193649
0.32771256566047668 0.40657117962837219 0.13329893350601196
0.46791765093803406 0.45882153511047363 0.16603876650333405
0.56876975297927856 0.47842812538146973 0.18000166118144989
0.63829874992370605 0.46473217010498047 0.16950777173042297
0.69710743427276611 0.46658721566200256 0.16825425624847412
0.73824858665466309 0.47878524661064148 0.17147117853164673
0.76679474115371704 0.48877671360969543 0.17262530326843262
0.78059250116348267 0.48805040121078491 0.17174936830997467
0.77484303712844849 0.46207922697067261 0.16703163087368011
0.092474855482578278 0.34400653839111328 0.11732765287160873
0.10177771002054214 0.34951406717300415 0.11389856040477753
0.12156786769628525 0.35841202735900879 0.11043757945299149
0.15268127620220184 0.37021207809448242 0.10766733437776566
0.22391019761562347 0.40130433440208435 0.11559400707483292
0.36898300051689148 0.46213260293006897 0.14862008392810822
0.52606523036956787 0.52354264259338379 0.18892011046409607
0.64711713790893555 0.54096239805221558 0.2020341157913208
0.71341216564178467 0.52280348539352417 0.18627986311912537
0.76044458150863647 0.52124196290969849 0.18070673942565918
0.78524315357208252 0.52741986513137817 0.18127596378326416
0.80074185132980347 0.52845489978790283 0.18081226944923401
0.80476045608520508 0.51933640241622925 0.17909948527812958
0.096339941024780273 0.38066196441650391 0.12680517137050629
0.10475371032953262 0.38567101955413818 0.1227266788482666
0.11735533177852631 0.39195734262466431 0.11562978476285934
0.14311173558235168 0.40084373950958252 0.11339114606380463
0.17426897585391998 0.41419646143913269 0.11303363740444183
0.23677945137023926 0.44126459956169128 0.12053662538528442
0.38581347465515137 0.50379848480224609 0.15702146291732788
0.59382492303848267 0.57715785503387451 0.20863159000873566
0.7144513726234436 0.59198266267776489 0.21715764701366425
0.77248227596282959 0.57150804996490479 0.19704201817512512
0.79866588115692139 0.56597721576690674 0.19008556008338928
0.81300449371337891 0.56464487314224243 0.18945084512233734
0.82481563091278076 0.56010085344314575 0.18775969743728638
0.095997020602226257 0.41133555769920349 0.1433778703212738
0.10535534471273422 0.41954708099365234 0.13808754086494446
0.1199791431427002 0.42412838339805603 0.12789075076580048
0.14268119633197784 0.43174982070922852 0.12436795979738235
0.17094254493713379 0.44117379188537598 0.12325975298881531
0.2062612771987915 0.45630452036857605 0.12372128665447235
0.26280495524406433 0.48162242770195007 0.13024546205997467
0.43870413303375244 0.55410122871398926 0.17312507331371307
0.65985113382339478 0.62968635559082031 0.22694723308086395
0.76983183622360229 0.63563919067382812 0.22591865062713623
0.80924147367477417 0.6120983362197876 0.2021087110042572
0.8231126070022583 0.60365200042724609 0.19924984872341156
0.83307641744613647 0.59558552503585815 0.19648319482803345
0.098057687282562256 0.43974363803863525 0.15565453469753265
0.10824396461248398 0.44763070344924927 0.14905431866645813
0.12079660594463348 0.45360413193702698 0.14041098952293396
0.14168639481067657 0.46053221821784973 0.13658455014228821
0.16638661921024323 0.46797916293144226 0.13404327630996704
0.19716033339500427 0.48007586598396301 0.13245679438114166
0.23710496723651886 0.49790319800376892 0.13243642449378967
0.2983364462852478 0.52440929412841797 0.13696937263011932
0.47611257433891296 0.59518527984619141 0.18177767097949982
0.70965421199798584 0.67183405160903931 0.24035288393497467
0.81182384490966797 0.67119449377059937 0.23483377695083618
0.83095204830169678 0.64230388402938843 0.21016636490821838
0.84010565280914307 0.63289481401443481 0.20535565912723541
0.10312392562627792 0.4663049578666687 0.16249276697635651
0.11097150295972824 0.47090545296669006 0.15821981430053711
0.12072951346635818 0.47651344537734985 0.15311001241207123
0.14080788195133209 0.48394793272018433 0.14965169131755829
0.16557705402374268 0.49302715063095093 0.14538377523422241
0.19516871869564056 0.50405591726303101 0.14114834368228912
0.22991943359375 0.51921355724334717 0.13924455642700195
0.27325046062469482 0.53732091188430786 0.1388799250125885
0.34128963947296143 0.5639919638633728 0.14694370329380035
0.51145130395889282 0.632671058177948 0.19199825823307037
0.76943767070770264 0.71199649572372437 0.25727209448814392
0.83909374475479126 0.68731516599655151 0.23562632501125336
0.84357112646102905 0.6573830246925354 0.21427090466022491
0.067925125360488892 0.089525826275348663 0.1150774210691452
0.10469751060009003 0.093314945697784424 0.11678954213857651
0.16592453420162201 0.10527390241622925 0.11310795694589615
0.23252762854099274 0.12235690653324127 0.10499179363250732
0.29701292514801025 0.1416279673576355 0.10229933261871338
0.36195382475852966 0.16280573606491089 0.10022953897714615
0.4188275933265686 0.18380582332611084 0.10309050232172012
0.47150102257728577 0.20427943766117096 0.11464354395866394
0.51850289106369019 0.22426405549049377 0.12288852781057358
0.56054455041885376 0.24375000596046448 0.12659347057342529
0.59494894742965698 0.26086780428886414 0.12898081541061401
0.6195218563079834 0.27210932970046997 0.12816993892192841
0.64056378602981567 0.28346455097198486 0.12921358644962311
0.067042045295238495 0.10706847161054611 0.11499696969985962
0.11027658730745316 0.11482545733451843 0.11901966482400894
0.18442408740520477 0.12846274673938751 0.11026283353567123
0.25935453176498413 0.14524735510349274 0.098090186715126038
0.32613667845726013 0.16403456032276154 0.093823812901973724
0.38808336853981018 0.18757027387619019 0.10012301057577133
0.44278702139854431 0.20704212784767151 0.10488338023424149
0.48825857043266296 0.21913696825504303 0.11318811029195786
0.5283665657043457 0.23144194483757019 0.1219603568315506
0.56416022777557373 0.24468959867954254 0.12488316744565964
0.59752351045608521 0.2618701159954071 0.12728127837181091
0.62302041053771973 0.2737976610660553 0.12745290994644165
0.64361429214477539 0.28650888800621033 0.12921610474586487
0.059696465730667114 0.13864330947399139 0.12366633862257004
0.099321760237216949 0.14598178863525391 0.12559917569160461
0.18493664264678955 0.15829457342624664 0.11778205633163452
0.27303758263587952 0.17688076198101044 0.10612728446722031
0.34886792302131653 0.19839930534362793 0.098660729825496674
0.41407424211502075 0.22340452671051025 0.10393582284450531
0.4721759557723999 0.24700894951820374 0.11189921945333481
0.52007436752319336 0.26129767298698425 0.12184306234121323
0.55280464887619019 0.26060342788696289 0.12508997321128845
0.57597440481185913 0.25620648264884949 0.1240895614027977
0.60387527942657471 0.26517501473426819 0.12571988999843597
0.62860012054443359 0.27654311060905457 0.12713043391704559
0.64797455072402954 0.29142805933952332 0.12979982793331146
0.062348056584596634 0.17236356437206268 0.13426788151264191
0.089502818882465363 0.17830067873001099 0.13179382681846619
0.16594439744949341 0.19808575510978699 0.12548527121543884
0.27971178293228149 0.21836233139038086 0.11607158929109573
0.3657899796962738 0.23461936414241791 0.10825785994529724
0.43560388684272766 0.25842985510826111 0.11171287298202515
0.4989868700504303 0.28667369484901428 0.12366147339344025
0.55498474836349487 0.31246837973594666 0.13576973974704742
0.59438925981521606 0.32087621092796326 0.14000698924064636
0.61625277996063232 0.3096960186958313 0.13615840673446655
0.62545096874237061 0.29122075438499451 0.13164804875850677
0.64252150058746338 0.29294276237487793 0.13181407749652863
0.65938305854797363 0.30342718958854675 0.13335099816322327
0.06840437650680542 0.20297007262706757 0.14196772873401642
0.083673842251300812 0.20635475218296051 0.13691945374011993
0.15187452733516693 0.23112447559833527 0.13187694549560547
0.27509757876396179 0.26712492108345032 0.13160638511180878
0.37790331244468689 0.27875211834907532 0.12260377407073975
0.45153868198394775 0.28992605209350586 0.1194702610373497
0.51899075508117676 0.31906887888908386 0.1316591203212738
0.57927143573760986 0.34758701920509338 0.14599482715129852
0.62805861234664917 0.36383709311485291 0.15199361741542816
0.66080623865127563 0.3653683066368103 0.15082818269729614
0.67062032222747803 0.34832602739334106 0.14552959799766541
0.66718822717666626 0.3237878680229187 0.13944858312606812
0.67637568712234497 0.32377868890762329 0.13822971284389496
0.07215755432844162 0.23325659334659576 0.14404459297657013
0.079265028238296509 0.23315902054309845 0.13961978256702423
0.13301517069339752 0.25527462363243103 0.13150849938392639
0.25550663471221924 0.30223244428634644 0.13840432465076447
0.38031837344169617 0.33717471361160278 0.14583781361579895
0.46862959861755371 0.33935606479644775 0.13696973025798798
0.53564965724945068 0.35028621554374695 0.13959410786628723
0.59885168075561523 0.37725204229354858 0.15170884132385254
0.65553218126296997 0.39810910820960999 0.15854138135910034
0.69639056921005249 0.4071274995803833 0.16129006445407867
0.71437180042266846 0.40151602029800415 0.15889935195446014
0.70167279243469238 0.36554300785064697 0.14887705445289612
0.69348609447479248 0.34567087888717651 0.1433938592672348
0.073387399315834045 0.26403206586837769 0.14209678769111633
0.084455691277980804 0.27178540825843811 0.13751527667045593
0.11623962968587875 0.28350615501403809 0.13601478934288025
0.22228792309761047 0.3281581699848175 0.13977609574794769
0.36185351014137268 0.38117519021034241 0.15740364789962769
0.48085883259773254 0.41054514050483704 0.17023015022277832
0.55564874410629272 0.40548142790794373 0.16118422150611877
0.61993241310119629 0.41720759868621826 0.16163657605648041
0.68007445335388184 0.4339718222618103 0.16667914390563965
0.72465229034423828 0.4462677538394928 0.17019966244697571
0.74791133403778076 0.44958841800689697 0.16905127465724945
0.74549061059951782 0.4271385669708252 0.16240483522415161
0.72654557228088379 0.3857542872428894 0.15220187604427338
0.08372025191783905 0.30715939402580261 0.13711515069007874
0.094027124345302582 0.31415721774101257 0.1325259804725647
0.11684968322515488 0.3219645619392395 0.13365122675895691
0.17831158638000488 0.34903329610824585 0.1321256160736084
0.30289474129676819 0.40033277869224548 0.14621222019195557
0.44583821296691895 0.45528954267501831 0.17514193058013916
0.56297999620437622 0.48303383588790894 0.1923513263463974
0.64319586753845215 0.47656750679016113 0.18300232291221619
0.70307314395904541 0.47624722123146057 0.17767605185508728
0.7487410306930542 0.48598694801330566 0.17790982127189636
0.77406829595565796 0.49440306425094604 0.17860139906406403
0.78429162502288818 0.49041679501533508 0.1767912358045578
0.77734333276748657 0.46438241004943848 0.17123818397521973
0.093890048563480377 0.34859770536422729 0.13523487746715546
0.10038416087627411 0.35226345062255859 0.13289006054401398
0.12073460221290588 0.36171126365661621 0.13010333478450775
0.14451080560684204 0.3718181848526001 0.12146089971065521
0.20698574185371399 0.3987000584602356 0.12497296929359436
0.34518006443977356 0.45660692453384399 0.15486305952072144
0.51121896505355835 0.52053666114807129 0.19411100447177887
0.64581966400146484 0.54799079895019531 0.2113853245973587
0.71899574995040894 0.53187304735183716 0.1963174045085907
0.76720792055130005 0.5277518630027771 0.18888150155544281
0.78999423980712891 0.53119039535522461 0.18778623640537262
0.80413222312927246 0.53313487768173218 0.18756832182407379
0.8110886812210083 0.5296369194984436 0.18671296536922455
0.098340503871440887 0.38411560654640198 0.14216475188732147
0.10450774431228638 0.3894447386264801 0.13713352382183075
0.11830704659223557 0.39696389436721802 0.13125714659690857
0.13919617235660553 0.40334144234657288 0.12642435729503632
0.16801299154758453 0.41620877385139465 0.12471768260002136
0.22329427301883698 0.44037115573883057 0.13076676428318024
0.36779007315635681 0.49928313493728638 0.16303198039531708
0.58120393753051758 0.57817447185516357 0.21447984874248505
0.71611297130584717 0.59938555955886841 0.22607147693634033
0.77661055326461792 0.57857495546340942 0.20538055896759033
0.80260270833969116 0.57112270593643188 0.19695182144641876
0.81671935319900513 0.56957787275314331 0.19622746109962463
0.82770156860351562 0.56528151035308838 0.19504116475582123
0.098524861037731171 0.41486319899559021 0.15521036088466644
0.10658455640077591 0.42244929075241089 0.14960595965385437
0.12104213982820511 0.42819464206695557 0.14290894567966461
0.14139467477798462 0.435667484998703 0.1390279084444046
0.16802939772605896 0.44578161835670471 0.13670583069324493
0.2010100930929184 0.4590381383895874 0.13498255610466003
0.25661715865135193 0.48273679614067078 0.14011736214160919
0.42422649264335632 0.55191904306411743 0.1791388988494873
0.65795183181762695 0.63444113731384277 0.23448987305164337
0.76947152614593506 0.63977253437042236 0.23350663483142853
0.81084638833999634 0.61662489175796509 0.20936036109924316
0.82667356729507446 0.60767817497253418 0.2043900340795517
0.83640265464782715 0.600006103515625 0.20212970674037933
0.10139679163694382 0.44369456171989441 0.16650179028511047
0.11040136218070984 0.45191732048988342 0.16103251278400421
0.12232162058353424 0.45785757899284363 0.15539029240608215
0.14073526859283447 0.46477773785591125 0.15098066627979279
0.16490283608436584 0.47348606586456299 0.14804781973361969
0.19591245055198669 0.48490548133850098 0.14556929469108582
0.23477369546890259 0.50091248750686646 0.14445687830448151
0.29216355085372925 0.52426820993423462 0.14668267965316772
0.46823346614837646 0.59426063299179077 0.18833796679973602
0.71422708034515381 0.67745786905288696 0.24889613687992096
0.81498748064041138 0.67575669288635254 0.24065041542053223
0.83445066213607788 0.64542454481124878 0.21349057555198669
0.84299802780151367 0.63486778736114502 0.20817333459854126
0.10940737277269363 0.47240504622459412 0.17298983037471771
0.11418108642101288 0.47717630863189697 0.17099355161190033
0.12286607176065445 0.48145937919616699 0.16635264456272125
0.14013479650020599 0.48846611380577087 0.16167692840099335
0.16214495897293091 0.49692884087562561 0.15787632763385773
0.19159969687461853 0.5070950984954834 0.15440712869167328
0.22309984266757965 0.52083158493041992 0.15199460089206696
0.26966336369514465 0.53770703077316284 0.15013232827186584
0.33217126131057739 0.56310796737670898 0.15321467816829681
0.50849372148513794 0.63592630624771118 0.20001575350761414
0.77218925952911377 0.71763759851455688 0.26519834995269775
0.84145677089691162 0.69230151176452637 0.24076293408870697
0.84427142143249512 0.66208386421203613 0.21578346192836761
0.056438416242599487 0.10467235743999481 0.15675187110900879
0.085525721311569214 0.10747954249382019 0.15679493546485901
0.14262282848358154 0.11375618726015091 0.15249033272266388
0.20453059673309326 0.12584881484508514 0.14879022538661957
0.26563563942909241 0.14483253657817841 0.1469082236289978
0.34198233485221863 0.17176784574985504 0.14338280260562897
0.41272157430648804 0.19915726780891418 0.14407682418823242
0.47439000010490417 0.22484008967876434 0.14984191954135895
0.52883350849151611 0.2459568977355957 0.15438763797283173
0.57564395666122437 0.26232707500457764 0.1508171409368515
0.61278879642486572 0.27669414877891541 0.14700129628181458
0.63519388437271118 0.28451475501060486 0.14505010843276978
0.6510816216468811 0.28903788328170776 0.13816076517105103
0.057309601455926895 0.12026817351579666 0.15659403800964355
0.08378291130065918 0.12586043775081635 0.16371753811836243
0.14862154424190521 0.13510692119598389 0.16097772121429443
0.22547750174999237 0.15197184681892395 0.1538853794336319
0.29876232147216797 0.17092138528823853 0.14628978073596954
0.37497684359550476 0.19514685869216919 0.14332512021064758
0.43971696496009827 0.22030200064182281 0.14606289565563202
0.49640989303588867 0.24197810888290405 0.1481219083070755
0.54374974966049194 0.25813114643096924 0.15077394247055054
0.58350759744644165 0.27002629637718201 0.14809650182723999
0.61776566505432129 0.28137791156768799 0.14461375772953033
0.63926082849502563 0.28815194964408875 0.14155957102775574
0.65288627147674561 0.291951984167099 0.13749167323112488
0.0548081174492836 0.14086605608463287 0.15846133232116699
0.078762665390968323 0.14950272440910339 0.16539882123470306
0.14814002811908722 0.16310116648674011 0.17022407054901123
0.24755457043647766 0.18531158566474915 0.16467361152172089
0.33410751819610596 0.20402495563030243 0.15027241408824921
0.40881270170211792 0.22835271060466766 0.14834943413734436
0.47263446450233459 0.25254726409912109 0.14833025634288788
0.52562940120697021 0.27113336324691772 0.14885498583316803
0.56396710872650146 0.27728936076164246 0.14712217450141907
0.59383243322372437 0.27831333875656128 0.14344112575054169
0.62311041355133057 0.28499642014503479 0.14431151747703552
0.64196431636810303 0.2884223461151123 0.14072488248348236
0.65226238965988159 0.2919275164604187 0.13673928380012512
0.056386537849903107 0.17478713393211365 0.16951914131641388
0.07441449910402298 0.1812191903591156 0.16871260106563568
0.13356263935565948 0.19766777753829956 0.17059776186943054
0.24867406487464905 0.22492961585521698 0.17175078392028809
0.35183277726173401 0.24606925249099731 0.16598361730575562
0.43235936760902405 0.26931378245353699 0.16163532435894012
0.50010639429092407 0.29467499256134033 0.15768532454967499
0.55583196878433228 0.31579864025115967 0.15768767893314362
0.59538072347640991 0.32141423225402832 0.15933628380298615
0.61666285991668701 0.30572482943534851 0.14962555468082428
0.63143676519393921 0.2931024432182312 0.14556169509887695
0.64781016111373901 0.29390272498130798 0.14198499917984009
0.6611628532409668 0.30072182416915894 0.13953530788421631
0.061867553740739822 0.21314935386180878 0.18350224196910858
0.077705532312393188 0.21611541509628296 0.17927916347980499
0.12078710645437241 0.22904399037361145 0.17466610670089722
0.23209385573863983 0.26361992955207825 0.17583444714546204
0.35552665591239929 0.28650346398353577 0.17314518988132477
0.44836762547492981 0.30457240343093872 0.16968625783920288
0.52019989490509033 0.33198302984237671 0.16737280786037445
0.58586055040359497 0.35938867926597595 0.17067766189575195
