assets/lut/editingcorp huesio.cube
# Created by: G'MIC (https://gmic.eu)
TITLE "huesio"
# LUT size
LUT_3D_SIZE 5
# Data domain
DOMAIN_MIN 0.0 0.0 0.0
DOMAIN_MAX 1.0 1.0 1.0
# LUT data points
0.075135968625545502 0.08023332804441452 0.081673592329025269
0.25048884749412537 0.11561527848243713 0.065309010446071625
0.41487255692481995 0.1639629453420639 0.083269856870174408
0.54753357172012329 0.22649012506008148 0.10872792452573776
0.63688766956329346 0.28066939115524292 0.12867647409439087
0.0679597407579422 0.16563421487808228 0.10271675139665604
0.29721838235855103 0.21742622554302216 0.086959555745124817
0.49847856163978577 0.28054726123809814 0.10822753608226776
0.62111854553222656 0.31723245978355408 0.12896132469177246
0.66004908084869385 0.30750635266304016 0.12799005210399628
0.078107468783855438 0.26234737038612366 0.1138019934296608
0.25335052609443665 0.33764535188674927 0.12073992192745209
0.55602419376373291 0.39713776111602783 0.14544126391410828
0.71552842855453491 0.44030264019966125 0.16166935861110687
0.72686481475830078 0.3876250684261322 0.14824645221233368
0.096339941024780273 0.38066196441650391 0.12680517137050629
0.14311173558235168 0.40084373950958252 0.11339114606380463
0.38581347465515137 0.50379848480224609 0.15702146291732788
0.77248227596282959 0.57150804996490479 0.19704201817512512
0.82481563091278076 0.56010085344314575 0.18775969743728638
0.10312392562627792 0.4663049578666687 0.16249276697635651
0.14080788195133209 0.48394793272018433 0.14965169131755829
0.22991943359375 0.51921355724334717 0.13924455642700195
0.51145130395889282 0.632671058177948 0.19199825823307037
0.84357112646102905 0.6573830246925354 0.21427090466022491
0.055450364947319031 0.12393685430288315 0.19391565024852753
0.16958732903003693 0.13654814660549164 0.18672968447208405
0.3943081796169281 0.20741741359233856 0.18211030960083008
0.58936804533004761 0.27957677841186523 0.18385206162929535
0.66969430446624756 0.29944425821304321 0.15869483351707458
0.05374247208237648 0.17407511174678802 0.19983194768428802
0.19416114687919617 0.22924509644508362 0.23517775535583496
0.49896612763404846 0.30714935064315796 0.21907651424407959
0.63686853647232056 0.32323962450027466 0.18836455047130585
0.68220996856689453 0.31613188982009888 0.15718285739421844
0.077616266906261444 0.29944583773612976 0.2525191605091095
0.15027277171611786 0.32255423069000244 0.23212289810180664
0.54362004995346069 0.43586233258247375 0.24646981060504913
0.74556100368499756 0.47012600302696228 0.21287611126899719
0.72781813144683838 0.37543794512748718 0.16451631486415863
0.10301144421100616 0.40050926804542542 0.22123512625694275
0.1299675852060318 0.41751432418823242 0.19060291349887848
0.32384061813354492 0.49535110592842102 0.18948906660079956
0.78458869457244873 0.59452062845230103 0.22356659173965454
0.83711367845535278 0.57724171876907349 0.20916050672531128
0.1111292690038681 0.47759857773780823 0.21265451610088348
0.13676796853542328 0.50053924322128296 0.19633960723876953
0.2115398645401001 0.52790838479995728 0.18035104870796204
0.48725491762161255 0.63570541143417358 0.21204495429992676
0.84996479749679565 0.67569094896316528 0.22983469069004059
0.066786639392375946 0.19275893270969391 0.30109584331512451
0.10476154834032059 0.19726419448852539 0.27788683772087097
0.3149297833442688 0.24219860136508942 0.25240057706832886
0.5843316912651062 0.31125277280807495 0.24382828176021576
0.74520069360733032 0.33834558725357056 0.29970693588256836
0.066778339445590973 0.23130212724208832 0.31354659795761108
0.11201374977827072 0.26339682936668396 0.34027314186096191
0.39372661709785461 0.33730983734130859 0.33832171559333801
0.64927917718887329 0.37305524945259094 0.31241682171821594
0.79062056541442871 0.38073122501373291 0.34055924415588379
0.072095148265361786 0.28410005569458008 0.33238840103149414
0.11259334534406662 0.32640179991722107 0.36711236834526062
0.43748319149017334 0.47855681180953979 0.46177452802658081
0.79199498891830444 0.53418540954589844 0.44314679503440857
0.82819896936416626 0.44045418500900269 0.36544138193130493
0.14876005053520203 0.47065961360931396 0.43540218472480774
0.17038078606128693 0.49072766304016113 0.43478444218635559
0.24274967610836029 0.52571326494216919 0.42400747537612915
0.82079356908798218 0.66735458374023438 0.35900050401687622
0.86921483278274536 0.63359445333480835 0.29905948042869568
0.13018010556697845 0.50774621963500977 0.30487656593322754
0.14051879942417145 0.51504260301589966 0.28137826919555664
0.1893177330493927 0.54461699724197388 0.25671011209487915
0.47179311513900757 0.64755427837371826 0.25167441368103027
0.86089777946472168 0.69401460886001587 0.25364914536476135
0.09363720566034317 0.2886374294757843 0.41732081770896912
0.11896607279777527 0.29294103384017944 0.4024905264377594
0.20009961724281311 0.31927436590194702 0.40628984570503235
0.57161194086074829 0.38111016154289246 0.43524312973022461
0.73702669143676758 0.37232205271720886 0.43914404511451721
0.090181790292263031 0.30897945165634155 0.43378108739852905
0.12126060575246811 0.32418331503868103 0.44859787821769714
0.21732130646705627 0.35605025291442871 0.44950279593467712
0.61517715454101562 0.42771086096763611 0.50173944234848022
0.77864313125610352 0.4168703556060791 0.50899827480316162
0.10058979690074921 0.34845960140228271 0.45316791534423828
0.12855304777622223 0.37624409794807434 0.47882720828056335
0.25425639748573303 0.44220772385597229 0.54167187213897705
0.69814008474349976 0.51759487390518188 0.61741441488265991
0.81424522399902344 0.46329697966575623 0.57065236568450928
0.14060895144939423 0.43763181567192078 0.50025606155395508
0.17371703684329987 0.47029775381088257 0.52683490514755249
0.22200243175029755 0.51358407735824585 0.56512248516082764
0.79084318876266479 0.78859025239944458 0.75056809186935425
0.90442562103271484 0.80096763372421265 0.75814688205718994
0.23671194911003113 0.60308206081390381 0.59890592098236084
0.26124998927116394 0.63029223680496216 0.62246596813201904
0.28170844912528992 0.65119153261184692 0.63699829578399658
0.39538729190826416 0.72653728723526001 0.6682744026184082
0.90836364030838013 0.8333735466003418 0.5844651460647583
0.11049488931894302 0.34834146499633789 0.49556991457939148
0.12920279800891876 0.36315280199050903 0.51444774866104126
0.18980976939201355 0.38015255331993103 0.52111279964447021
0.49047517776489258 0.46593347191810608 0.65501010417938232
0.75024735927581787 0.4458758533000946 0.67002862691879272
0.11815852671861649 0.37694856524467468 0.52581882476806641
0.13393804430961609 0.38771519064903259 0.54171901941299438
0.18126708269119263 0.39867991209030151 0.54548043012619019
0.55945354700088501 0.50348502397537231 0.70593386888504028
0.7655218243598938 0.47330552339553833 0.69173717498779297
0.12711600959300995 0.39708796143531799 0.53918099403381348
0.13754801452159882 0.39732298254966736 0.5442693829536438
0.18386010825634003 0.41365242004394531 0.56221097707748413
0.60019099712371826 0.53454244136810303 0.74025160074234009
0.81004494428634644 0.51019591093063354 0.73613429069519043
0.16466335952281952 0.47298094630241394 0.58001708984375
0.18621218204498291 0.49668636918067932 0.59920191764831543
0.212856724858284 0.51897799968719482 0.62314802408218384
0.73518085479736328 0.7578544020652771 0.84822696447372437
0.87002503871917725 0.66985559463500977 0.81199920177459717
0.21920453011989594 0.55914241075515747 0.62347382307052612
0.24006545543670654 0.58335584402084351 0.64482557773590088
0.26258581876754761 0.60123938322067261 0.66795283555984497
0.33780351281166077 0.65465134382247925 0.71869891881942749
0.90981632471084595 0.90588235855102539 0.88631129264831543
