assets/lut/editingcorp convold.cube
# Created by: G'MIC (https://gmic.eu)
TITLE "convold"
# LUT size
LUT_3D_SIZE 13
# Data domain
DOMAIN_MIN 0.0 0.0 0.0
DOMAIN_MAX 1.0 1.0 1.0
# LUT data points
0.065869241952896118 0.039315689355134964 0.13705256581306458
0.15837454795837402 0.035185106098651886 0.10979657620191574
0.2834726870059967 0.033139441162347794 0.096376471221446991
0.40671932697296143 0.033633377403020859 0.090682283043861389
0.52080219984054565 0.032721873372793198 0.09477958083152771
0.62967705726623535 0.031175112351775169 0.094186820089817047
0.73454946279525757 0.030868351459503174 0.094142377376556396
0.82984298467636108 0.030932333320379257 0.097649626433849335
0.90339779853820801 0.03151906281709671 0.097067110240459442
0.94895398616790771 0.03143271803855896 0.091058842837810516
0.97582399845123291 0.028735516592860222 0.086672522127628326
0.99385756254196167 0.02361501008272171 0.087234959006309509
1 0.018682412803173065 0.090540029108524323
0.064850747585296631 0.1452580988407135 0.12751132249832153
0.15301185846328735 0.13446331024169922 0.10493090748786926
0.27000486850738525 0.12609532475471497 0.09596068412065506
0.38679301738739014 0.12376341223716736 0.092614717781543732
0.50179386138916016 0.12034358829259872 0.093756131827831268
0.61223196983337402 0.11569470912218094 0.094807974994182587
0.71862739324569702 0.11402896046638489 0.097217023372650146
0.81527906656265259 0.11491226404905319 0.10090897232294083
0.89241266250610352 0.11663511395454407 0.1009075716137886
0.94279372692108154 0.11665495485067368 0.098479866981506348
0.97177135944366455 0.11359350383281708 0.09691881388425827
0.99014008045196533 0.10894540697336197 0.097632236778736115
0.99978029727935791 0.10443884134292603 0.097731061279773712
0.067671380937099457 0.26239860057830811 0.11854448169469833
0.14692571759223938 0.24799540638923645 0.10286706686019897
0.25089731812477112 0.23731386661529541 0.096285305917263031
0.36663174629211426 0.23206928372383118 0.09504234790802002
0.48234280943870544 0.22573456168174744 0.096732214093208313
0.59278285503387451 0.21820881962776184 0.095656663179397583
0.69948893785476685 0.2160087376832962 0.097884461283683777
0.79847902059555054 0.21597851812839508 0.10238337516784668
0.88015991449356079 0.21733382344245911 0.10354700684547424
0.93542426824569702 0.21683739125728607 0.10399412363767624
0.96770119667053223 0.21386896073818207 0.10451272875070572
0.98687177896499634 0.21083039045333862 0.10337820649147034
0.99888437986373901 0.20825129747390747 0.10023792088031769
0.066882297396659851 0.38420864939689636 0.114549420773983
0.136534184217453 0.36930188536643982 0.10541252046823502
0.23100093007087708 0.35913768410682678 0.10001524537801743
0.34561306238174438 0.35462778806686401 0.097501076757907867
0.46221330761909485 0.34955903887748718 0.096841715276241302
0.57302623987197876 0.34365043044090271 0.093924500048160553
0.6804882287979126 0.339893639087677 0.094742447137832642
0.78273642063140869 0.33646833896636963 0.099556669592857361
0.86983734369277954 0.33473685383796692 0.10304680466651917
0.92941552400588989 0.33323615789413452 0.10494751483201981
0.96420389413833618 0.33065220713615417 0.10565632581710815
0.98475021123886108 0.32760205864906311 0.10328502207994461
0.99810934066772461 0.32387307286262512 0.098223187029361725
0.065362118184566498 0.50243097543716431 0.11329956352710724
0.12983919680118561 0.48956003785133362 0.10427967458963394
0.2181360274553299 0.48056936264038086 0.099698416888713837
0.32733118534088135 0.47751167416572571 0.096956007182598114
0.44075635075569153 0.47471725940704346 0.0947127565741539
0.55226278305053711 0.47122699022293091 0.092450790107250214
0.66064977645874023 0.46723321080207825 0.093680843710899353
0.76474982500076294 0.46118348836898804 0.098649062216281891
0.85644006729125977 0.45739269256591797 0.10240578651428223
0.92211520671844482 0.45537838339805603 0.10386388748884201
0.96208399534225464 0.45361107587814331 0.1038057804107666
0.98473554849624634 0.45030158758163452 0.10103961825370789
0.99877786636352539 0.44406554102897644 0.095730364322662354
0.062827944755554199 0.61264163255691528 0.11036592721939087
0.12411898374557495 0.6024317741394043 0.10006648302078247
0.20722858607769012 0.59380710124969482 0.096160039305686951
0.3104974627494812 0.58936315774917603 0.096150673925876617
0.42131784558296204 0.58702105283737183 0.095919601619243622
0.53183823823928833 0.5849306583404541 0.095616914331912994
0.6397322416305542 0.58159714937210083 0.098463676869869232
0.74488621950149536 0.57650041580200195 0.1027507409453392
0.84029662609100342 0.5730777382850647 0.10380332916975021
0.9146844744682312 0.57150089740753174 0.10252102464437485
0.96205568313598633 0.57040005922317505 0.10163538157939911
0.98844808340072632 0.56751972436904907 0.09933122992515564
0.99973487854003906 0.56041765213012695 0.094804279506206512
0.060228925198316574 0.71575719118118286 0.1040693074464798
0.11589878797531128 0.70709902048110962 0.094051405787467957
0.19426557421684265 0.69836443662643433 0.093035601079463959
0.29363828897476196 0.69149678945541382 0.09695000946521759
0.40294098854064941 0.68821036815643311 0.099537685513496399
0.5119132399559021 0.68771034479141235 0.10024129599332809
0.6196218729019165 0.68459498882293701 0.10348371416330338
0.72550588846206665 0.68206793069839478 0.10653438419103622
0.82578444480895996 0.67992383241653442 0.10505787283182144
0.90935701131820679 0.67832291126251221 0.10106401890516281
0.96508628129959106 0.67662167549133301 0.098940156400203705
0.99345487356185913 0.67448979616165161 0.098042942583560944
1 0.66907787322998047 0.095820501446723938
0.057113766670227051 0.811847984790802 0.095114491879940033
0.10583711415529251 0.80556535720825195 0.089228533208370209
0.17826366424560547 0.79718148708343506 0.091502964496612549
0.27463600039482117 0.78855657577514648 0.097535543143749237
0.38221335411071777 0.78329998254776001 0.10110534727573395
0.49160724878311157 0.78111189603805542 0.10234696418046951
0.60040950775146484 0.77938616275787354 0.10453119874000549
0.70818954706192017 0.77924180030822754 0.10614737868309021
0.81115251779556274 0.77940315008163452 0.10433948040008545
0.90100550651550293 0.77771520614624023 0.099903583526611328
0.96382403373718262 0.77581918239593506 0.097794115543365479
0.9943358302116394 0.77388846874237061 0.097794115543365479
1 0.77047818899154663 0.097708351910114288
0.053354211151599884 0.89423424005508423 0.087205074727535248
0.09478721022605896 0.89185911417007446 0.087381921708583832
0.16019314527511597 0.88477998971939087 0.092648312449455261
0.25245332717895508 0.875560462474823 0.09756246954202652
0.3588205873966217 0.86778658628463745 0.10091829299926758
0.46915102005004883 0.86280250549316406 0.10295664519071579
0.58012187480926514 0.86089634895324707 0.10447888821363449
0.68878573179244995 0.86245208978652954 0.10563143342733383
0.79225784540176392 0.86629664897918701 0.10437618941068649
0.88361984491348267 0.86746573448181152 0.10146799683570862
0.95282483100891113 0.86490488052368164 0.098869353532791138
0.98940026760101318 0.86384505033493042 0.099539861083030701
0.99995100498199463 0.86143440008163452 0.098822757601737976
0.049752958118915558 0.95062160491943359 0.085432820022106171
0.08564402163028717 0.95165878534317017 0.088940054178237915
0.14495280385017395 0.9468313455581665 0.094956539571285248
0.23279248178005219 0.93815016746520996 0.098569072782993317
0.33619090914726257 0.93010741472244263 0.10165943950414658
0.44640329480171204 0.92394560575485229 0.10443998128175735
0.55844157934188843 0.92162412405014038 0.10653316974639893
0.66865056753158569 0.92399114370346069 0.10732399672269821
0.77257072925567627 0.92987746000289917 0.10625496506690979
0.86699718236923218 0.93325346708297729 0.10332106053829193
0.94304800033569336 0.93082797527313232 0.10127225518226624
0.98592352867126465 0.93180912733078003 0.10008198022842407
0.99941051006317139 0.93364596366882324 0.098513811826705933
0.048894800245761871 0.97812026739120483 0.088527053594589233
0.084978379309177399 0.97980833053588867 0.089457027614116669
0.14020231366157532 0.97701776027679443 0.094233088195323944
0.21991288661956787 0.97181648015975952 0.098931103944778442
0.31712394952774048 0.96625864505767822 0.10369717329740524
0.42477327585220337 0.96125912666320801 0.10755766183137894
0.5371207594871521 0.95912021398544312 0.1097964271903038
0.64888566732406616 0.96076267957687378 0.11025723069906235
0.75591558218002319 0.9645841121673584 0.10834468901157379
0.85612970590591431 0.96621763706207275 0.10425935685634613
0.93877714872360229 0.96533942222595215 0.099825553596019745
0.98587673902511597 0.97057026624679565 0.097648456692695618
0.99977165460586548 0.97650063037872314 0.095898568630218506
0.052571374922990799 0.9876740574836731 0.092482879757881165
0.090446919202804565 0.98926413059234619 0.089818544685840607
0.14244265854358673 0.98850029706954956 0.092538632452487946
0.21376132965087891 0.98619669675827026 0.098603434860706329
0.30290013551712036 0.98292595148086548 0.10551690310239792
0.40581515431404114 0.98005449771881104 0.10997875779867172
0.51646947860717773 0.97887790203094482 0.11169951409101486
0.62778496742248535 0.9791526198387146 0.11147253215312958
0.73555338382720947 0.98068404197692871 0.10895776003599167
0.83706408739089966 0.98097330331802368 0.10433909296989441
0.92257338762283325 0.98239493370056152 0.099137507379055023
0.97720146179199219 0.98985129594802856 0.095161736011505127
0.99929404258728027 0.99661600589752197 0.090548932552337646
0.057655859738588333 0.99113798141479492 0.094879552721977234
0.097303323447704315 0.99280661344528198 0.089285127818584442
0.14738179743289948 0.99346745014190674 0.090161174535751343
0.21262195706367493 0.99243474006652832 0.096497856080532074
0.29430237412452698 0.99044859409332275 0.10451832413673401
0.39092180132865906 0.989216148853302 0.10866503417491913
0.49717524647712708 0.98878198862075806 0.10898036509752274
0.60482680797576904 0.98890489339828491 0.10774682462215424
0.70916157960891724 0.99014818668365479 0.10536440461874008
0.80724865198135376 0.99149078130722046 0.1016981229186058
0.8926885724067688 0.99484050273895264 0.096210658550262451
0.95536667108535767 0.99922275543212891 0.090426020324230194
0.99402278661727905 1 0.083579011261463165
0.064735397696495056 0.037373114377260208 0.24868679046630859
0.15918070077896118 0.032022260129451752 0.21194063127040863
0.28299519419670105 0.029239116236567497 0.18580885231494904
0.40480688214302063 0.030147746205329895 0.16471736133098602
0.51792579889297485 0.030491668730974197 0.15282964706420898
0.6269831657409668 0.030723975971341133 0.14257603883743286
0.73345422744750977 0.029328513890504837 0.14065717160701752
0.8288387656211853 0.027969345450401306 0.14164064824581146
0.90123695135116577 0.029031954705715179 0.13782057166099548
0.94602817296981812 0.030193164944648743 0.12950141727924347
0.97131311893463135 0.028147649019956589 0.12333402782678604
0.98910486698150635 0.022154923528432846 0.12681128084659576
0.99972426891326904 0.01672699861228466 0.13521365821361542
0.061385016888380051 0.14207865297794342 0.2360670268535614
0.14915865659713745 0.13129793107509613 0.19513697922229767
0.26781955361366272 0.12329165637493134 0.17035560309886932
0.38504782319068909 0.12056831270456314 0.15362818539142609
0.49897834658622742 0.11769748479127884 0.14609743654727936
0.61100810766220093 0.11426158249378204 0.14351628720760345
0.71917426586151123 0.11163965612649918 0.14153140783309937
0.81729471683502197 0.1098649874329567 0.14106316864490509
0.89415347576141357 0.11025876551866531 0.13705642521381378
0.9425012469291687 0.10991260409355164 0.13361310958862305
0.96923637390136719 0.10669790208339691 0.13230755925178528
0.98613393306732178 0.10191600769758224 0.13396996259689331
0.99846100807189941 0.097750358283519745 0.13799042999744415
0.068207517266273499 0.2586880624294281 0.22549185156822205
0.14670529961585999 0.2447761744260788 0.18846352398395538
0.25185990333557129 0.23506270349025726 0.16131928563117981
0.36637982726097107 0.23039498925209045 0.14473609626293182
0.48093825578689575 0.22477467358112335 0.1411765068769455
0.59324097633361816 0.21843382716178894 0.13930946588516235
0.70150494575500488 0.21325981616973877 0.1379229724407196
0.80193793773651123 0.20937414467334747 0.13806438446044922
0.88449239730834961 0.2093498557806015 0.13536018133163452
0.93762767314910889 0.20792123675346375 0.1362973153591156
0.96633768081665039 0.20396746695041656 0.1383790522813797
0.98438829183578491 0.20179173350334167 0.13673804700374603
0.99743330478668213 0.2005171924829483 0.13428054749965668
0.069730348885059357 0.38251087069511414 0.2152848094701767
0.1401153951883316 0.36766046285629272 0.18539175391197205
0.23588660359382629 0.3576849102973938 0.15998052060604095
0.34777694940567017 0.35288283228874207 0.14372462034225464
0.46294039487838745 0.3474004864692688 0.13779479265213013
0.57403481006622314 0.34161514043807983 0.13041204214096069
0.68302834033966064 0.33601534366607666 0.12778958678245544
0.78610622882843018 0.33051776885986328 0.13018321990966797
0.87383949756622314 0.32814300060272217 0.13169196248054504
0.93255400657653809 0.32654455304145813 0.1338706761598587
0.96490520238876343 0.32386487722396851 0.1355169266462326
0.9842679500579834 0.32125872373580933 0.13261997699737549
0.99723094701766968 0.31849896907806396 0.12860184907913208
0.066109403967857361 0.50297671556472778 0.20457614958286285
0.13129155337810516 0.48869538307189941 0.17840626835823059
0.21998828649520874 0.47865840792655945 0.15748351812362671
0.32811972498893738 0.47380173206329346 0.14371547102928162
0.44116881489753723 0.47061482071876526 0.13432925939559937
0.55304932594299316 0.46731027960777283 0.12578682601451874
0.662067711353302 0.46244081854820251 0.12354600429534912
0.76712018251419067 0.45654201507568359 0.12671050429344177
0.85919106006622314 0.45315784215927124 0.12952697277069092
0.9250369668006897 0.45182344317436218 0.13132190704345703
0.96375817060470581 0.45064079761505127 0.13141372799873352
0.985393226146698 0.44718489050865173 0.12889294326305389
0.99816781282424927 0.44116851687431335 0.12510743737220764
0.05997244268655777 0.61356246471405029 0.18947674334049225
0.11983515322208405 0.60025310516357422 0.16551260650157928
0.20334571599960327 0.59023874998092651 0.14998546242713928
0.30782762169837952 0.58543610572814941 0.14132830500602722
0.42028564214706421 0.58349496126174927 0.13445565104484558
0.53152835369110107 0.58174127340316772 0.1286778450012207
0.64011925458908081 0.5782698392868042 0.12804371118545532
0.745380699634552 0.57363229990005493 0.13086119294166565
0.84162187576293945 0.57075560092926025 0.13137297332286835
0.9170219898223877 0.56965798139572144 0.13143643736839294
0.96442824602127075 0.56894844770431519 0.13055753707885742
0.98876869678497314 0.56567621231079102 0.12860415875911713
0.9994351863861084 0.55888181924819946 0.12546594440937042
0.053516313433647156 0.7160460352897644 0.17051611840724945
0.10661149770021439 0.70300078392028809 0.14898742735385895
0.18626707792282104 0.6938055157661438 0.1395675390958786
0.28921002149581909 0.688953697681427 0.13789081573486328
0.40073031187057495 0.6871148943901062 0.13503718376159668
0.51145786046981812 0.68625569343566895 0.13147915899753571
0.61954706907272339 0.6836431622505188 0.13208925724029541
0.7251046895980835 0.68111175298690796 0.13549484312534332
0.82626926898956299 0.6795538067817688 0.13454753160476685
0.91079628467559814 0.677162766456604 0.13303482532501221
0.96589893102645874 0.67487025260925293 0.13227054476737976
0.99269682168960571 0.67267680168151855 0.13164754211902618
1 0.66785132884979248 0.13009175658226013
0.051022473722696304 0.81331068277359009 0.1518796980381012
0.09702339768409729 0.80196523666381836 0.13554801046848297
0.17063920199871063 0.79393953084945679 0.13154686987400055
0.27053618431091309 0.78908234834671021 0.13346974551677704
0.38070803880691528 0.78555470705032349 0.13302592933177948
0.49102470278739929 0.78355187177658081 0.13062666356563568
0.59983724355697632 0.78093791007995605 0.13161636888980865
0.70680755376815796 0.78065305948257446 0.13387724757194519
0.81043392419815063 0.78079003095626831 0.13434918224811554
0.90090429782867432 0.77855360507965088 0.13462419807910919
0.96348434686660767 0.77482748031616211 0.13574574887752533
0.9933355450630188 0.77286553382873535 0.13601218163967133
1 0.7693943977355957 0.13572125136852264
0.052948642522096634 0.89846122264862061 0.13689883053302765
0.091564476490020752 0.89009630680084229 0.12857569754123688
0.15696160495281219 0.88331133127212524 0.12802936136722565
0.25075763463973999 0.87924408912658691 0.12946416437625885
0.35813990235328674 0.87449800968170166 0.12990133464336395
0.46846574544906616 0.86844855546951294 0.12981623411178589
0.57861363887786865 0.86547505855560303 0.13083551824092865
0.68674749135971069 0.86727511882781982 0.13271728157997131
0.78979015350341797 0.87143856287002563 0.1340634673833847
0.88261634111404419 0.87201917171478271 0.13543152809143066
0.95330703258514404 0.8672141432762146 0.13639184832572937
0.99122703075408936 0.86424463987350464 0.13742180168628693
1 0.8613172173500061 0.13831043243408203
0.052315160632133484 0.95458984375 0.13110101222991943
0.086038224399089813 0.94859373569488525 0.12645851075649261
0.14454030990600586 0.9436269998550415 0.12649676203727722
0.2312600165605545 0.94130074977874756 0.12769918143749237
0.33470183610916138 0.93725097179412842 0.12901237607002258
0.44446650147438049 0.93046259880065918 0.13091322779655457
0.55624908208847046 0.92697155475616455 0.1331913024187088
0.6659281849861145 0.92949181795120239 0.13516888022422791
0.76973265409469604 0.9365997314453125 0.13642160594463348
0.86465996503829956 0.94032979011535645 0.1369917243719101
0.94514596462249756 0.93461579084396362 0.13655245304107666
0.99108374118804932 0.9322202205657959 0.13677564263343811
1 0.9325331449508667 0.13694339990615845
0.050022754818201065 0.97934341430664062 0.13279937207698822
0.082879297435283661 0.97456729412078857 0.12578886747360229
0.13681353628635406 0.97145164012908936 0.1250481903553009
0.21582244336605072 0.97188645601272583 0.12675167620182037
0.31278049945831299 0.96965223550796509 0.13038484752178192
0.42095625400543213 0.9654463529586792 0.13424275815486908
0.5340954065322876 0.96229785680770874 0.13775351643562317
0.64659112691879272 0.96398735046386719 0.13991451263427734
0.75331270694732666 0.96874547004699707 0.13985253870487213
0.85387164354324341 0.97094416618347168 0.13890565931797028
0.94022548198699951 0.96855872869491577 0.13725286722183228
0.99172866344451904 0.97033250331878662 0.13640068471431732
1 0.97508013248443604 0.13569675385951996
0.051768165081739426 0.98803079128265381 0.13460806012153625
0.0868820920586586 0.98493200540542603 0.12450498342514038
0.13627347350120544 0.98304474353790283 0.12236496806144714
0.20661333203315735 0.98354512453079224 0.12621951103210449
0.29572209715843201 0.98278987407684326 0.13238240778446198
0.39986348152160645 0.98087936639785767 0.1374346911907196
0.51250684261322021 0.97890496253967285 0.14066067337989807
0.62541037797927856 0.97881239652633667 0.14260593056678772
0.73288601636886597 0.98094046115875244 0.14224079251289368
0.83441871404647827 0.9819105863571167 0.14092803001403809
0.92293673753738403 0.98260653018951416 0.139979287981987
0.9829137921333313 0.98859590291976929 0.13665798306465149
0.99999284744262695 0.99577093124389648 0.13233137130737305
0.056401718407869339 0.9920232892036438 0.13471776247024536
0.09342358261346817 0.99050605297088623 0.1233539804816246
0.14091601967811584 0.98938578367233276 0.12104650586843491
0.20435963571071625 0.98908287286758423 0.12509660422801971
0.28548002243041992 0.98819231986999512 0.13293242454528809
0.38356968760490417 0.98745286464691162 0.13723140954971313
0.49171233177185059 0.98685449361801147 0.13880985975265503
0.6012885570526123 0.9866950511932373 0.13961067795753479
0.70590221881866455 0.98746997117996216 0.1395733654499054
0.80469101667404175 0.9886741042137146 0.1392255425453186
0.89410567283630371 0.99200588464736938 0.1370561420917511
0.96162158250808716 0.99801063537597656 0.13267610967159271
0.99762248992919922 1 0.126360222697258
0.067403040826320648 0.03557853028178215 0.37346723675727844
0.16208116710186005 0.028375079855322838 0.33756819367408752
0.27943718433380127 0.024420300498604774 0.30842500925064087
0.39918333292007446 0.02466278150677681 0.27875471115112305
0.51375299692153931 0.025541970506310463 0.25631958246231079
0.62473994493484497 0.027054132893681526 0.2368895411491394
0.73228174448013306 0.027754839509725571 0.22279223799705505
0.82697844505310059 0.027757352218031883 0.21325835585594177
0.89826738834381104 0.027637377381324768 0.20251618325710297
0.94197064638137817 0.027768872678279877 0.18993401527404785
0.96628421545028687 0.027066983282566071 0.17951923608779907
0.98518240451812744 0.021435830742120743 0.18064385652542114
0.99892324209213257 0.016386847943067551 0.18869648873806
0.062727756798267365 0.13849140703678131 0.35883143544197083
0.14933362603187561 0.12615466117858887 0.31967273354530334
0.26263108849525452 0.11803427338600159 0.29100760817527771
0.38033252954483032 0.11568529903888702 0.26370134949684143
0.49495646357536316 0.1133318617939949 0.24696457386016846
0.60881584882736206 0.11205725371837616 0.23234769701957703
0.71867990493774414 0.1105038970708847 0.21711839735507965
0.81766331195831299 0.10846295952796936 0.20426814258098602
0.89427858591079712 0.10679086297750473 0.19358068704605103
0.94074517488479614 0.10526594519615173 0.18757510185241699
0.96565759181976318 0.10233844071626663 0.18229112029075623
0.98404926061630249 0.09839928150177002 0.17796540260314941
0.99774289131164551 0.095435962080955505 0.17795795202255249
0.065736137330532074 0.25508990883827209 0.34511801600456238
0.14412291347980499 0.24026301503181458 0.30516260862350464
0.24886086583137512 0.23100964725017548 0.27243617177009583
0.36397522687911987 0.22739334404468536 0.2449699193239212
0.47792273759841919 0.22261632978916168 0.22937209904193878
0.59089666604995728 0.21803571283817291 0.21747787296772003
0.70115238428115845 0.21325205266475677 0.20462559163570404
0.80431550741195679 0.2086353600025177 0.19258461892604828
0.8867982029914856 0.20521402359008789 0.18325498700141907
0.93737196922302246 0.20321786403656006 0.1826634556055069
0.96538734436035156 0.2000308632850647 0.18093958497047424
0.9839547872543335 0.19728760421276093 0.17359355092048645
0.99714744091033936 0.19670593738555908 0.1682436466217041
0.067490503191947937 0.38078206777572632 0.33025720715522766
0.13909344375133514 0.36548957228660583 0.29133254289627075
0.23613262176513672 0.35526731610298157 0.25785702466964722
0.34752070903778076 0.35008570551872253 0.23202790319919586
0.46006011962890625 0.34485858678817749 0.21469499170780182
0.57142889499664307 0.34027370810508728 0.19808933138847351
0.68119150400161743 0.33424428105354309 0.18752665817737579
0.78525716066360474 0.32805728912353516 0.18100394308567047
0.87272650003433228 0.32471176981925964 0.17563910782337189
0.93157631158828735 0.32317653298377991 0.17489086091518402
0.96517091989517212 0.32144120335578918 0.17277207970619202
0.98493826389312744 0.31855732202529907 0.16670742630958557
0.99744582176208496 0.31545060873031616 0.1621604710817337
0.064863391220569611 0.50325137376785278 0.31298929452896118
0.12971089780330658 0.48776039481163025 0.27474334836006165
0.21908320486545563 0.47644823789596558 0.24438343942165375
0.32651799917221069 0.47026604413986206 0.22231703996658325
0.43887287378311157 0.46658331155776978 0.20425653457641602
0.5505141019821167 0.46400189399719238 0.18705695867538452
0.6600072979927063 0.45944055914878845 0.17743293941020966
0.76460897922515869 0.45391324162483215 0.17272663116455078
0.85615462064743042 0.45079481601715088 0.16959661245346069
0.92364203929901123 0.44998529553413391 0.16811695694923401
