assets/lut/editingcorp husmes.cube
# Created by: G'MIC (https://gmic.eu)
TITLE "husmes"
# LUT size
LUT_3D_SIZE 13
# Data domain
DOMAIN_MIN 0.0 0.0 0.0
DOMAIN_MAX 1.0 1.0 1.0
# LUT data points
0.026784036308526993 0.031655047088861465 0.023465923964977264
0.16672147810459137 0.037108223885297775 0.022544337436556816
0.33653977513313293 0.05146026611328125 0.027798252180218697
0.4546673595905304 0.056121017783880234 0.025828536599874496
0.53982263803482056 0.06023140624165535 0.024015285074710846
0.60812914371490479 0.072405226528644562 0.035477131605148315
0.6734769344329834 0.10422279685735703 0.056179434061050415
0.72827368974685669 0.12532757222652435 0.069626830518245697
0.75726121664047241 0.099108509719371796 0.06754988431930542
0.77645081281661987 0.11110139638185501 0.067098192870616913
0.79582697153091431 0.12030085921287537 0.066311150789260864
0.81628519296646118 0.1007864698767662 0.062634803354740143
0.84060931205749512 0.1228443831205368 0.067474499344825745
0.02002360112965107 0.088675089180469513 0.026373187080025673
0.11829111725091934 0.092328526079654694 0.025088770315051079
0.28125789761543274 0.10019428282976151 0.023232942447066307
0.42131462693214417 0.10749348998069763 0.017112568020820618
0.52344685792922974 0.11288847029209137 0.018461413681507111
0.59891802072525024 0.11982213705778122 0.032506592571735382
0.66510331630706787 0.13877710700035095 0.053296975791454315
0.72162044048309326 0.16013291478157043 0.067819170653820038
0.75503689050674438 0.16109403967857361 0.070442929863929749
0.77657157182693481 0.16890180110931396 0.070960789918899536
0.79650193452835083 0.17025880515575409 0.072335921227931976
0.81777626276016235 0.16202878952026367 0.071436472237110138
0.84129101037979126 0.1635119765996933 0.071383967995643616
0.03232135996222496 0.17212018370628357 0.029878908768296242
0.079654201865196228 0.16898687183856964 0.022752141579985619
0.21008092164993286 0.1714722216129303 0.018007000908255577
0.36762002110481262 0.17462918162345886 0.01237564068287611
0.49637517333030701 0.17773060500621796 0.015554136596620083
0.5892336368560791 0.18091578781604767 0.028931232169270515
0.66605544090270996 0.19269479811191559 0.048367861658334732
0.73043453693389893 0.20936006307601929 0.064064987003803253
0.76583528518676758 0.21019750833511353 0.069918550550937653
0.78548401594161987 0.20625552535057068 0.072202973067760468
0.8023979663848877 0.20037467777729034 0.073979593813419342
0.82310056686401367 0.1956714540719986 0.073655657470226288
0.8462945818901062 0.19143478572368622 0.071939028799533844
0.052680175751447678 0.25852954387664795 0.034298960119485855
0.079124480485916138 0.25513982772827148 0.030159026384353638
0.17196319997310638 0.25570732355117798 0.024726986885070801
0.31521821022033691 0.25749760866165161 0.018507819622755051
0.45998743176460266 0.25901111960411072 0.018485484644770622
0.57533711194992065 0.26193723082542419 0.029110927134752274
0.66826504468917847 0.27012383937835693 0.048058319836854935
0.74039208889007568 0.27881303429603577 0.062080562114715576
0.78165417909622192 0.27496030926704407 0.067058578133583069
0.80252712965011597 0.26516562700271606 0.068501114845275879
0.81850981712341309 0.25601500272750854 0.069536216557025909
0.83656573295593262 0.248829185962677 0.069435223937034607
0.85928678512573242 0.24546286463737488 0.068898282945156097
0.075346074998378754 0.34335878491401672 0.048454988747835159
0.096993088722229004 0.34166896343231201 0.046773828566074371
0.15852783620357513 0.34168881177902222 0.041386861354112625
0.27082064747810364 0.3449651300907135 0.032198633998632431
0.41552302241325378 0.34870687127113342 0.026426471769809723
0.551685631275177 0.35213765501976013 0.036409880965948105
0.66008144617080688 0.35556027293205261 0.056659936904907227
0.74025982618331909 0.35655558109283447 0.06952560693025589
0.79068917036056519 0.35043025016784668 0.071704462170600891
0.81708842515945435 0.34105014801025391 0.070965543389320374
0.83415865898132324 0.33270257711410522 0.070769906044006348
0.85221189260482788 0.32329997420310974 0.070357151329517365
0.87450885772705078 0.3176426887512207 0.068822897970676422
0.098184652626514435 0.43025422096252441 0.079059451818466187
0.11800862103700638 0.42909008264541626 0.075478784739971161
0.15561974048614502 0.42669108510017395 0.06876576691865921
0.23967340588569641 0.42895370721817017 0.051939692348241806
0.37463557720184326 0.43817788362503052 0.040838804095983505
0.52280354499816895 0.44772371649742126 0.051915772259235382
0.64598047733306885 0.45071524381637573 0.073654994368553162
0.73648607730865479 0.44505995512008667 0.086441203951835632
0.7948639988899231 0.43184581398963928 0.086263500154018402
0.82742553949356079 0.41989067196846008 0.084393821656703949
0.84639668464660645 0.41047748923301697 0.083277694880962372
0.86455428600311279 0.40045338869094849 0.080978125333786011
0.88709205389022827 0.39335396885871887 0.076646991074085236
0.12293107062578201 0.51579934358596802 0.10455292463302612
0.14030067622661591 0.51435619592666626 0.10393117368221283
0.16139720380306244 0.5091661810874939 0.097452901303768158
0.22009924054145813 0.50928407907485962 0.078107647597789764
0.33817791938781738 0.52063995599746704 0.061823707073926926
0.48847830295562744 0.53925096988677979 0.07207246869802475
0.62639820575714111 0.54991817474365234 0.095704920589923859
0.73076701164245605 0.5419304370880127 0.10974791646003723
0.80020427703857422 0.52132529020309448 0.10944725573062897
0.83901351690292358 0.50273281335830688 0.10504873096942902
0.8579593300819397 0.48910027742385864 0.10056032985448837
0.87582558393478394 0.47762954235076904 0.096444360911846161
0.89894986152648926 0.46922513842582703 0.091239109635353088
0.14474232494831085 0.59808707237243652 0.12821346521377563
0.16113218665122986 0.5937727689743042 0.12768451869487762
0.17543050646781921 0.58768624067306519 0.12443733960390091
0.21553157269954681 0.58636176586151123 0.11039993911981583
0.31149506568908691 0.59357893466949463 0.086392693221569061
0.45076939463615417 0.61579596996307373 0.088546261191368103
0.59638619422912598 0.63772070407867432 0.11480334401130676
0.71479958295822144 0.63523393869400024 0.13223479688167572
0.80092805624008179 0.6135602593421936 0.13609518110752106
0.85179251432418823 0.59062498807907104 0.13232520222663879
0.87337237596511841 0.57371121644973755 0.12546584010124207
0.89042091369628906 0.55940431356430054 0.11905457824468613
0.91285169124603271 0.54717224836349487 0.11321203410625458
0.16299708187580109 0.67805230617523193 0.16447180509567261
0.17939004302024841 0.66957032680511475 0.16036917269229889
0.19081982970237732 0.66155016422271729 0.15866148471832275
0.21819232404232025 0.659554123878479 0.14932695031166077
0.29118922352790833 0.6618768572807312 0.11994636058807373
0.41015899181365967 0.67936021089553833 0.10836371779441833
0.54676854610443115 0.70272922515869141 0.12351995706558228
0.67601430416107178 0.71095103025436401 0.14383624494075775
0.78292995691299438 0.70184683799743652 0.15776698291301727
0.85399931669235229 0.68243658542633057 0.16116176545619965
0.88835227489471436 0.66264843940734863 0.15619787573814392
0.90763992071151733 0.6466059684753418 0.14879545569419861
0.92789536714553833 0.63135582208633423 0.14121390879154205
0.17273262143135071 0.73532527685165405 0.19391267001628876
0.18965776264667511 0.72924566268920898 0.19302809238433838
0.20131248235702515 0.72361820936203003 0.19441504776477814
0.22160474956035614 0.72372716665267944 0.19126689434051514
0.27668312191963196 0.72508317232131958 0.16651476919651031
0.37316331267356873 0.73252010345458984 0.13660751283168793
0.49294784665107727 0.74895429611206055 0.12911085784435272
0.62389439344406128 0.76669293642044067 0.14469811320304871
0.74678796529769897 0.77638024091720581 0.16921448707580566
0.84045004844665527 0.76738399267196655 0.18330271542072296
0.89465636014938354 0.7483971118927002 0.18245196342468262
0.92165458202362061 0.73449891805648804 0.17691223323345184
0.9406435489654541 0.71937727928161621 0.1693195104598999
0.17545773088932037 0.76349294185638428 0.20303979516029358
0.19485491514205933 0.76218611001968384 0.20698390901088715
0.20889727771282196 0.76027274131774902 0.20900781452655792
0.22573725879192352 0.76098984479904175 0.206613689661026
0.26659658551216125 0.76349532604217529 0.18709523975849152
0.34406927227973938 0.76768970489501953 0.15495289862155914
0.45161110162734985 0.7790534496307373 0.133814737200737
0.57781004905700684 0.79860717058181763 0.13970871269702911
0.7048414945602417 0.8197900652885437 0.16617728769779205
0.81483596563339233 0.82432860136032104 0.1887144148349762
0.89143693447113037 0.81372255086898804 0.19664736092090607
0.93050014972686768 0.80612605810165405 0.19621284306049347
0.95171284675598145 0.79457217454910278 0.19071629643440247
0.17570878565311432 0.78293538093566895 0.20337894558906555
0.19577787816524506 0.78144985437393188 0.2046462744474411
0.21116693317890167 0.78026998043060303 0.20283491909503937
0.22307510673999786 0.78181785345077515 0.20024694502353668
0.25028738379478455 0.78607755899429321 0.18794426321983337
0.31348678469657898 0.79069119691848755 0.16272065043449402
0.41520139575004578 0.79853856563568115 0.13825264573097229
0.53951680660247803 0.81554490327835083 0.1342834085226059
0.66546326875686646 0.84064793586730957 0.15735238790512085
0.7844051718711853 0.85374104976654053 0.18409563601016998
0.88312339782714844 0.84985345602035522 0.19914844632148743
0.93879121541976929 0.8465200662612915 0.20385520160198212
0.96266067028045654 0.84336364269256592 0.20227532088756561
0.17186793684959412 0.80389267206192017 0.19790741801261902
0.18957008421421051 0.80136078596115112 0.19507314264774323
0.20159170031547546 0.80013775825500488 0.19085659086704254
0.20904405415058136 0.80221617221832275 0.18825706839561462
0.22789141535758972 0.8075222373008728 0.18112605810165405
0.27981716394424438 0.8135409951210022 0.16406814754009247
0.37576612830162048 0.8219372034072876 0.14237293601036072
0.49962469935417175 0.83772808313369751 0.13510453701019287
0.62584185600280762 0.86165344715118408 0.1513364166021347
0.74888736009597778 0.87770122289657593 0.17622022330760956
0.85939240455627441 0.87750369310379028 0.19385288655757904
0.92995530366897583 0.87649738788604736 0.20256839692592621
0.96351492404937744 0.87808161973953247 0.20449094474315643
0.025079106912016869 0.038471430540084839 0.11110932379961014
0.15068314969539642 0.038509894162416458 0.1195303201675415
0.33162787556648254 0.039454620331525803 0.11808503419160843
0.46115356683731079 0.043150328099727631 0.10150323063135147
0.54472976922988892 0.044014304876327515 0.0845474973320961
0.61190623044967651 0.045842684805393219 0.082380674779415131
0.67557454109191895 0.068459182977676392 0.092973418533802032
0.72739720344543457 0.097010307013988495 0.1018785834312439
0.75648218393325806 0.082059092819690704 0.097802795469760895
0.7737085223197937 0.078731253743171692 0.091556549072265625
0.79350459575653076 0.076657973229885101 0.08534734696149826
0.81573033332824707 0.06568252295255661 0.080862231552600861
0.83866637945175171 0.073473945260047913 0.083192490041255951
0.026897266507148743 0.1014997735619545 0.10411617904901505
0.10783206671476364 0.10085562616586685 0.09939836710691452
0.27667492628097534 0.099643915891647339 0.092965908348560333
0.43018367886543274 0.10325349122285843 0.076241530478000641
0.52958220243453979 0.10729760676622391 0.069926872849464417
0.6015695333480835 0.11150816082954407 0.074501603841781616
0.66624587774276733 0.12958398461341858 0.086779199540615082
0.72158217430114746 0.15935744345188141 0.096988499164581299
0.75465971231460571 0.16687864065170288 0.096863493323326111
0.77483648061752319 0.16742628812789917 0.093941889703273773
0.79576408863067627 0.16437920928001404 0.093625076115131378
0.81769865751266479 0.16498236358165741 0.094482660293579102
0.84046441316604614 0.15333548188209534 0.093637414276599884
0.025772903114557266 0.18032735586166382 0.093327723443508148
0.066006585955619812 0.1757255494594574 0.080209486186504364
0.20465269684791565 0.17140990495681763 0.065924398601055145
0.37326481938362122 0.17224851250648499 0.049849044531583786
0.49748095870018005 0.17683744430541992 0.049124967306852341
0.58779340982437134 0.18161556124687195 0.058389041572809219
0.66429603099822998 0.19291144609451294 0.072897098958492279
0.72713667154312134 0.20635643601417542 0.086697898805141449
0.76361393928527832 0.20803506672382355 0.09187500923871994
0.78463917970657349 0.20436029136180878 0.09200584888458252
0.80283743143081665 0.1996033787727356 0.092552453279495239
0.82280081510543823 0.19995106756687164 0.095325872302055359
0.84517902135848999 0.19703443348407745 0.095552451908588409
0.045501109212636948 0.26201698184013367 0.081913620233535767
0.068018697202205658 0.25778001546859741 0.074989885091781616
0.16343039274215698 0.25406816601753235 0.058192532509565353
0.3136044442653656 0.25499913096427917 0.041106577962636948
0.45799711346626282 0.25893613696098328 0.036743238568305969
0.57297629117965698 0.26268374919891357 0.048989884555339813
0.66534429788589478 0.26891243457794189 0.068192318081855774
0.73754894733428955 0.27486017346382141 0.079939566552639008
0.77978420257568359 0.27170160412788391 0.084162510931491852
0.80202007293701172 0.26341056823730469 0.084442824125289917
0.81916505098342896 0.25634101033210754 0.084263220429420471
0.83744210004806519 0.25110688805580139 0.087140642106533051
0.85919034481048584 0.24925361573696136 0.088562041521072388
0.074843659996986389 0.34339287877082825 0.076275333762168884
0.090052798390388489 0.34062674641609192 0.075569197535514832
0.14875105023384094 0.33773887157440186 0.062356971204280853
0.26735109090805054 0.34157422184944153 0.044033844023942947
0.41734623908996582 0.34894877672195435 0.035507712513208389
0.551982581615448 0.35385468602180481 0.051948994398117065
0.6569511890411377 0.35428878664970398 0.07815881073474884
0.73829835653305054 0.35333859920501709 0.089226529002189636
0.78994709253311157 0.34800726175308228 0.089342020452022552
0.81737238168716431 0.3394811749458313 0.087368950247764587
0.83480548858642578 0.33143264055252075 0.087666608393192291
0.85261857509613037 0.32293066382408142 0.087909802794456482
0.87478840351104736 0.31832483410835266 0.085998564958572388
0.10175293684005737 0.42885857820510864 0.094685494899749756
0.11696593463420868 0.42572471499443054 0.089604638516902924
0.14878882467746735 0.42251855134963989 0.085453465580940247
0.23759865760803223 0.42709675431251526 0.066644616425037384
0.37954801321029663 0.44015976786613464 0.052893977612257004
0.52474498748779297 0.45044413208961487 0.068124584853649139
0.64214193820953369 0.44978499412536621 0.093984313309192657
0.73391693830490112 0.44143608212471008 0.10677079111337662
0.79529273509979248 0.42872348427772522 0.10615286976099014
0.8284185528755188 0.41755849123001099 0.10374449193477631
0.84664654731750488 0.40785685181617737 0.10388943552970886
0.86423283815383911 0.39821237325668335 0.10037246346473694
0.88693356513977051 0.39186114072799683 0.093058370053768158
0.12736934423446655 0.51384061574935913 0.11495566368103027
0.14232034981250763 0.51056277751922607 0.11259939521551132
0.15794296562671661 0.50611859560012817 0.11538950353860855
0.21948769688606262 0.50838321447372437 0.10037798434495926
0.3427371084690094 0.52286386489868164 0.080680698156356812
0.49049299955368042 0.54041159152984619 0.087511010468006134
0.62219762802124023 0.5467689037322998 0.11137587577104568
0.72731900215148926 0.53732812404632568 0.12678287923336029
0.79990524053573608 0.51810085773468018 0.12845799326896667
0.84047210216522217 0.50033712387084961 0.12401537597179413
0.85948455333709717 0.48702135682106018 0.12043585628271103
0.87616395950317383 0.4757329523563385 0.11457569152116776
0.8986506462097168 0.46704059839248657 0.10686229914426804
0.14932665228843689 0.59702801704406738 0.14004868268966675
0.16331276297569275 0.59281998872756958 0.14056891202926636
0.17351235449314117 0.5864025354385376 0.1437564343214035
0.21289406716823578 0.58489990234375 0.13441650569438934
0.31203669309616089 0.59435278177261353 0.10809385776519775
0.45189857482910156 0.61554950475692749 0.10386243462562561
0.59297811985015869 0.63309019804000854 0.12610016763210297
0.71133542060852051 0.63059628009796143 0.14744719862937927
0.79969197511672974 0.61086028814315796 0.15489351749420166
0.85252773761749268 0.58913689851760864 0.15175439417362213
0.87497967481613159 0.57263553142547607 0.14454594254493713
0.89104229211807251 0.55786138772964478 0.13651537895202637
0.9122689962387085 0.54470616579055786 0.1296580582857132
0.16568709909915924 0.67658436298370361 0.17803642153739929
0.18134130537509918 0.67194062471389771 0.17809243500232697
0.19030231237411499 0.66349053382873535 0.17867094278335571
0.21707677841186523 0.65859735012054443 0.17013773322105408
0.29177746176719666 0.66223716735839844 0.14245380461215973
0.41198346018791199 0.68012094497680664 0.12737716734409332
0.54813170433044434 0.70250338315963745 0.14055277407169342
0.67545044422149658 0.71053236722946167 0.16351015865802765
0.78155803680419922 0.70012646913528442 0.17842085659503937
0.85418897867202759 0.68053311109542847 0.18116195499897003
0.88981533050537109 0.66208744049072266 0.17538103461265564
0.90794706344604492 0.64493781328201294 0.16713151335716248
0.92757076025009155 0.6284860372543335 0.15996205806732178
0.17422910034656525 0.73424488306045532 0.20972400903701782
0.19157153367996216 0.73294132947921753 0.21322715282440186
0.20183199644088745 0.72610759735107422 0.21436877548694611
0.22220633924007416 0.72108089923858643 0.20919051766395569
0.27844658493995667 0.72215539216995239 0.18495418131351471
0.3769383430480957 0.73256051540374756 0.15696799755096436
0.49935299158096313 0.75094485282897949 0.15175405144691467
0.62513667345046997 0.76859784126281738 0.16850939393043518
0.74155634641647339 0.77477139234542847 0.189258873462677
0.83749675750732422 0.76474839448928833 0.20167501270771027
0.89639270305633545 0.74724185466766357 0.20188310742378235
0.92252922058105469 0.73223614692687988 0.1962885856628418
0.94053941965103149 0.71666640043258667 0.18927597999572754
0.17467205226421356 0.76130872964859009 0.21983514726161957
0.19408655166625977 0.7645115852355957 0.22667929530143738
0.20611922442913055 0.76254236698150635 0.23003874719142914
0.2222420871257782 0.76041477918624878 0.22782528400421143
0.26484006643295288 0.76139754056930542 0.20804259181022644
0.34849798679351807 0.76642483472824097 0.17566198110580444
0.45861402153968811 0.77921754121780396 0.15601515769958496
0.57737284898757935 0.79952841997146606 0.16279667615890503
0.69630378484725952 0.8201833963394165 0.1866798996925354
0.80843859910964966 0.82416647672653198 0.20859572291374207
0.88979899883270264 0.81452757120132446 0.21759562194347382
0.92978590726852417 0.80513721704483032 0.21662923693656921
0.95074975490570068 0.79347717761993408 0.21101231873035431
0.17284102737903595 0.77975761890411377 0.22049081325531006
0.19134576618671417 0.7810397744178772 0.2239072322845459
0.20245899260044098 0.78170514106750488 0.22478266060352325
0.21164655685424805 0.78326070308685303 0.22355860471725464
0.24138937890529633 0.78481489419937134 0.2112753838300705
0.31397873163223267 0.78854942321777344 0.18307146430015564
0.41847586631774902 0.79690355062484741 0.15728199481964111
0.53587085008621216 0.81555098295211792 0.1552349179983139
0.65903884172439575 0.84285187721252441 0.17999200522899628
0.78048497438430786 0.85717266798019409 0.20821797847747803
0.8811601996421814 0.85496729612350464 0.22337950766086578
0.93844747543334961 0.85073482990264893 0.22612442076206207
0.96387428045272827 0.84592741727828979 0.22298109531402588
0.16915465891361237 0.80031704902648926 0.21333709359169006
0.18404975533485413 0.8001207709312439 0.21201686561107635
0.19128873944282532 0.80021840333938599 0.20967277884483337
0.19401825964450836 0.80277568101882935 0.20970173180103302
0.21166032552719116 0.8063163161277771 0.20386931300163269
0.27040201425552368 0.81084811687469482 0.18345670402050018
0.37202697992324829 0.81948584318161011 0.15763244032859802
0.49427124857902527 0.8377266526222229 0.15083307027816772
0.62162637710571289 0.8636593222618103 0.17058469355106354
0.7485308051109314 0.88106691837310791 0.19904951751232147
0.86437982320785522 0.88238829374313354 0.21823732554912567
0.93753707408905029 0.88106715679168701 0.22516731917858124
0.97076302766799927 0.88138192892074585 0.22502908110618591
0.022675562649965286 0.052665561437606812 0.2320745587348938
0.12356358021497726 0.048458114266395569 0.26419147849082947
0.30432713031768799 0.045854188501834869 0.27115288376808167
0.45316681265830994 0.04979400709271431 0.239439457654953
0.54511898756027222 0.049960687756538391 0.21120746433734894
0.61554950475692749 0.043292488902807236 0.1927294135093689
0.68102991580963135 0.053879264742136002 0.18580849468708038
0.7303435206413269 0.085233382880687714 0.1822374016046524
0.7565123438835144 0.085923351347446442 0.17461983859539032
0.77359068393707275 0.071387015283107758 0.16362975537776947
0.79296988248825073 0.062856875360012054 0.1513175368309021
0.81537044048309326 0.060599740594625473 0.14332202076911926
0.83911651372909546 0.063575714826583862 0.13926792144775391
0.017572918906807899 0.12819086015224457 0.21691226959228516
0.074319548904895782 0.12110486626625061 0.22756882011890411
0.24712501466274261 0.11386421322822571 0.2307160347700119
0.42029806971549988 0.11565133184194565 0.20642170310020447
0.53009510040283203 0.11811365187168121 0.18744777143001556
0.60450977087020874 0.11408522725105286 0.17551377415657043
0.66980493068695068 0.12586629390716553 0.16984245181083679
0.72286760807037354 0.15821553766727448 0.16793856024742126
0.75405406951904297 0.16602422297000885 0.16426451504230499
0.77393597364425659 0.15825594961643219 0.15721802413463593
0.79412698745727539 0.15260009467601776 0.15173441171646118
0.81589484214782715 0.1543886810541153 0.14884747564792633
0.83959555625915527 0.15029145777225494 0.14585380256175995
0.019516933709383011 0.20365123450756073 0.20412907004356384
0.047313854098320007 0.19555677473545074 0.19639226794242859
0.17313948273658752 0.18491874635219574 0.18432652950286865
0.35819536447525024 0.1813170462846756 0.16163064539432526
0.49749621748924255 0.18227508664131165 0.14800275862216949
0.58993244171142578 0.18080772459506989 0.14341190457344055
0.66340810060501099 0.18644466996192932 0.14328214526176453
0.72347491979598999 0.20237185060977936 0.14572450518608093
0.75946909189224243 0.20538398623466492 0.14759081602096558
0.78203368186950684 0.2018933892250061 0.1439908891916275
0.80190306901931763 0.19624066352844238 0.14101734757423401
0.820942223072052 0.19688962399959564 0.14200268685817719
0.84398108720779419 0.19801944494247437 0.14221563935279846
0.034764952957630157 0.28115648031234741 0.1858757883310318
0.051170185208320618 0.274820476770401 0.17933215200901031
0.13435551524162292 0.26492577791213989 0.15374745428562164
0.29638677835464478 0.26004523038864136 0.1265442967414856
0.45633989572525024 0.26105719804763794 0.11296246200799942
0.57370173931121826 0.26186877489089966 0.11346595734357834
0.66315692663192749 0.26502123475074768 0.1191629022359848
0.73394429683685303 0.27197182178497314 0.12237212061882019
0.77477550506591797 0.27282387018203735 0.1258610337972641
0.79863625764846802 0.26624235510826111 0.12482862174510956
0.8185160756111145 0.26062208414077759 0.12187200784683228
0.83717966079711914 0.25436091423034668 0.12473651766777039
0.85954827070236206 0.25405463576316833 0.12661068141460419
0.060770191252231598 0.35823333263397217 0.16381080448627472
0.072214595973491669 0.35280647873878479 0.15949790179729462
0.12561796605587006 0.34393408894538879 0.13388636708259583
0.25340208411216736 0.3433111310005188 0.10347885638475418
0.4161694347858429 0.34951511025428772 0.086559996008872986
