assets/lut/editingcorp beati.cube
# Created by: G'MIC (https://gmic.eu)
TITLE "beati"
# LUT size
LUT_3D_SIZE 13
# Data domain
DOMAIN_MIN 0.0 0.0 0.0
DOMAIN_MAX 1.0 1.0 1.0
# LUT data points
0.007692000363022089 0.0060568717308342457 0.022768985480070114
0.050488296896219254 0.010370456613600254 0.021922241896390915
0.22471101582050323 0.037577640265226364 0.036601796746253967
0.38670757412910461 0.071541249752044678 0.057182624936103821
0.4964161217212677 0.1010240912437439 0.081740841269493103
0.57733124494552612 0.12096685916185379 0.1055024266242981
0.64610040187835693 0.12854927778244019 0.12141340970993042
0.70324820280075073 0.13902740180492401 0.13253825902938843
0.73486572504043579 0.14287479221820831 0.13571326434612274
0.75163006782531738 0.14436148107051849 0.13772009313106537
0.76680147647857666 0.14713025093078613 0.13855201005935669
0.7832329273223877 0.15253078937530518 0.13959769904613495
0.80058127641677856 0.16270223259925842 0.14502549171447754
0.01395766343921423 0.031441047787666321 0.029460743069648743
0.040360994637012482 0.032626431435346603 0.026481643319129944
0.20066002011299133 0.057735532522201538 0.040622860193252563
0.37024983763694763 0.093550421297550201 0.061179112643003464
0.48355665802955627 0.12696798145771027 0.086133770644664764
0.56767123937606812 0.15092046558856964 0.11103379726409912
0.6392020583152771 0.17257207632064819 0.12969370186328888
0.69936102628707886 0.18840870261192322 0.14084908366203308
0.73468834161758423 0.19149088859558105 0.14372050762176514
0.75410366058349609 0.19520434737205505 0.14631155133247375
0.77033334970474243 0.19854293763637543 0.1477278470993042
0.78678792715072632 0.19715538620948792 0.14873872697353363
0.80343383550643921 0.195522740483284 0.15334777534008026
0.062550529837608337 0.14913174510002136 0.06940179318189621
0.091922551393508911 0.14769700169563293 0.068054303526878357
0.19858439266681671 0.15474759042263031 0.073932379484176636
0.34382367134094238 0.16271056234836578 0.086709566414356232
0.45983102917671204 0.16581988334655762 0.097000390291213989
0.55004501342773438 0.18462391197681427 0.116594098508358
0.62745875120162964 0.20874148607254028 0.13678419589996338
0.6919558048248291 0.22020180523395538 0.14771626889705658
0.73689532279968262 0.22649674117565155 0.15487509965896606
0.75650668144226074 0.22829239070415497 0.15550568699836731
0.77324569225311279 0.22735214233398438 0.15514194965362549
0.79097646474838257 0.22771924734115601 0.15716083347797394
0.80706655979156494 0.22676029801368713 0.15978109836578369
0.14890488982200623 0.28328797221183777 0.12176057696342468
0.17613124847412109 0.28336834907531738 0.12223429977893829
0.22326016426086426 0.27988389134407043 0.12396804243326187
0.32338449358940125 0.27572697401046753 0.13495135307312012
0.43373453617095947 0.26841804385185242 0.14349126815795898
0.53014057874679565 0.26509764790534973 0.14984320104122162
0.61252462863922119 0.26564016938209534 0.15764990448951721
0.68440032005310059 0.26430466771125793 0.16288352012634277
0.7382957935333252 0.26462858915328979 0.16548243165016174
0.76105970144271851 0.26523053646087646 0.16776809096336365
0.7790294885635376 0.2639387845993042 0.16706857085227966
0.79535627365112305 0.26138395071029663 0.1657087653875351
0.81144750118255615 0.25964334607124329 0.16765767335891724
0.20056906342506409 0.38777083158493042 0.16114211082458496
0.21719448268413544 0.38372987508773804 0.16114845871925354
0.24674637615680695 0.37946623563766479 0.16375331580638885
0.31719732284545898 0.37596550583839417 0.17428703606128693
0.41191086173057556 0.37008807063102722 0.18537966907024384
0.50821149349212646 0.36248499155044556 0.19309873878955841
0.59586459398269653 0.35097178816795349 0.19286595284938812
0.67511814832687378 0.33521723747253418 0.18838618695735931
0.73782610893249512 0.32364562153816223 0.18435591459274292
0.76670056581497192 0.31647422909736633 0.18514446914196014
0.78663849830627441 0.31065061688423157 0.18294525146484375
0.80292552709579468 0.30547192692756653 0.17938882112503052
0.81889122724533081 0.2989039421081543 0.1780945360660553
0.22605830430984497 0.47732621431350708 0.18901160359382629
0.23936723172664642 0.473611980676651 0.1896364688873291
0.26666185259819031 0.46872174739837646 0.19307057559490204
0.31728675961494446 0.46493986248970032 0.19987122714519501
0.39567723870277405 0.4611574113368988 0.20998701453208923
0.48979198932647705 0.45273172855377197 0.22462466359138489
0.57957863807678223 0.44175472855567932 0.22803816199302673
0.6634833812713623 0.42672455310821533 0.22142514586448669
0.73611104488372803 0.40883693099021912 0.2131953239440918
0.7744106650352478 0.39753100275993347 0.21193638443946838
0.79505544900894165 0.38720014691352844 0.20581653714179993
0.81252169609069824 0.37264189124107361 0.20050236582756042
0.82644349336624146 0.3662172257900238 0.20020796358585358
0.21659833192825317 0.57051873207092285 0.19259712100028992
0.23751392960548401 0.56219995021820068 0.20077475905418396
0.26602041721343994 0.55602818727493286 0.20624148845672607
0.30685994029045105 0.55717557668685913 0.20887713134288788
0.37823030352592468 0.55191832780838013 0.22054754197597504
0.46767577528953552 0.54427683353424072 0.23584353923797607
0.55883830785751343 0.53539794683456421 0.24414758384227753
0.65137368440628052 0.52410286664962769 0.2475188672542572
0.73055851459503174 0.50616168975830078 0.2412884384393692
0.78373807668685913 0.48985904455184937 0.23699960112571716
0.80820363759994507 0.47830981016159058 0.2300010621547699
0.82523131370544434 0.46183538436889648 0.22673110663890839
0.83730679750442505 0.45050245523452759 0.22706601023674011
0.19581256806850433 0.65937185287475586 0.18708905577659607
0.21435672044754028 0.65553343296051025 0.19306717813014984
0.24205853044986725 0.65231472253799438 0.19935114681720734
0.282976895570755 0.64887923002243042 0.20697902143001556
0.35086303949356079 0.64306235313415527 0.21956674754619598
0.4398760199546814 0.63705873489379883 0.23569534718990326
0.53193682432174683 0.63277697563171387 0.24982516467571259
0.63662981986999512 0.62518954277038574 0.26091843843460083
0.72441667318344116 0.60880917310714722 0.26134985685348511
0.79226261377334595 0.59148991107940674 0.25767609477043152
0.82402318716049194 0.57382023334503174 0.25383546948432922
0.83932912349700928 0.5537419319152832 0.25183317065238953
0.85109072923660278 0.53799313306808472 0.25202473998069763
0.16796737909317017 0.73841017484664917 0.17837308347225189
0.18479275703430176 0.74104326963424683 0.17947910726070404
0.21156603097915649 0.73998469114303589 0.18586918711662292
0.24480870366096497 0.73287969827651978 0.19418533146381378
0.30870693922042847 0.72819894552230835 0.20661869645118713
0.39784765243530273 0.72557413578033447 0.22321890294551849
0.49685916304588318 0.7238195538520813 0.24110651016235352
0.60512048006057739 0.71943563222885132 0.25754228234291077
0.70415270328521729 0.70959275960922241 0.26618292927742004
0.78844350576400757 0.69533312320709229 0.26994475722312927
0.83265376091003418 0.67438530921936035 0.26784044504165649
0.85082161426544189 0.65020537376403809 0.26657605171203613
0.86327409744262695 0.63182634115219116 0.26522287726402283
0.1386953741312027 0.7937924861907959 0.17732334136962891
0.16324314475059509 0.79615861177444458 0.17272226512432098
0.18768508732318878 0.7968866229057312 0.17429052293300629
0.2169579416513443 0.79178297519683838 0.18207262456417084
0.27016839385032654 0.79078495502471924 0.19296473264694214
0.35636290907859802 0.79149812459945679 0.20891621708869934
0.45882692933082581 0.79323136806488037 0.22721286118030548
0.56718367338180542 0.79098498821258545 0.24593609571456909
0.67386025190353394 0.78999602794647217 0.2597813606262207
0.77358806133270264 0.78984087705612183 0.26978778839111328
0.83462643623352051 0.77168881893157959 0.27378228306770325
0.8595736026763916 0.74771243333816528 0.27470165491104126
0.87496089935302734 0.72967034578323364 0.27458670735359192
0.13720473647117615 0.82061833143234253 0.18020899593830109
0.15953455865383148 0.82199937105178833 0.17552870512008667
0.18090151250362396 0.82354152202606201 0.17450423538684845
0.21040822565555573 0.81899863481521606 0.17857241630554199
0.25144603848457336 0.82053530216217041 0.18616369366645813
0.32417574524879456 0.82531857490539551 0.19996850192546844
0.42608821392059326 0.83013403415679932 0.21826560795307159
0.53162002563476562 0.83374661207199097 0.23485757410526276
0.63953220844268799 0.83853638172149658 0.24975265562534332
0.74292910099029541 0.84090763330459595 0.26319563388824463
0.82725346088409424 0.84333008527755737 0.27489638328552246
0.86638593673706055 0.83072793483734131 0.27876371145248413
0.88447219133377075 0.82055598497390747 0.27972346544265747
0.1484973132610321 0.84404706954956055 0.18135440349578857
0.15909607708454132 0.84662389755249023 0.17720064520835876
0.17821846902370453 0.8475986123085022 0.17569053173065186
0.20171339809894562 0.84288901090621948 0.17734792828559875
0.22625796496868134 0.84130167961120605 0.18151219189167023
0.29927888512611389 0.84397530555725098 0.19881069660186768
0.40575870871543884 0.84751749038696289 0.21959489583969116
0.50891804695129395 0.85292482376098633 0.23316794633865356
0.6136622428894043 0.85874921083450317 0.24601265788078308
0.71378755569458008 0.86592328548431396 0.25870302319526672
0.80836445093154907 0.87182480096817017 0.2716071605682373
0.86370658874511719 0.87279272079467773 0.27722364664077759
0.8860434889793396 0.87188839912414551 0.28057464957237244
0.16039985418319702 0.86412841081619263 0.17990614473819733
0.16343632340431213 0.86737436056137085 0.17685505747795105
0.1697167307138443 0.86863470077514648 0.17514814436435699
0.16637526452541351 0.86374229192733765 0.17505927383899689
0.15237735211849213 0.86185520887374878 0.17382751405239105
0.25072866678237915 0.85939645767211914 0.19312471151351929
0.38760668039321899 0.85944938659667969 0.22076760232448578
0.48769867420196533 0.86670809984207153 0.23332920670509338
0.59303557872772217 0.87162375450134277 0.24405477941036224
0.68874388933181763 0.88123619556427002 0.25518104434013367
0.78803873062133789 0.88263809680938721 0.26899811625480652
0.85884183645248413 0.88523203134536743 0.27498838305473328
0.87777161598205566 0.88303536176681519 0.27783587574958801
0.011323786340653896 0.012784636579453945 0.066220365464687347
0.052498925477266312 0.014104267582297325 0.06336028128862381
0.22311986982822418 0.030245628207921982 0.062037702649831772
0.39003348350524902 0.058136269450187683 0.085107780992984772
0.49584996700286865 0.081023149192333221 0.10926420986652374
0.57511407136917114 0.089730434119701385 0.12586396932601929
0.64508676528930664 0.10356713086366653 0.13830722868442535
0.70308232307434082 0.11730650067329407 0.14899283647537231
0.73416054248809814 0.112593874335289 0.15051820874214172
0.75006097555160522 0.11316525191068649 0.15086585283279419
0.76531302928924561 0.11622533202171326 0.15099574625492096
0.78053402900695801 0.10799446702003479 0.15118204057216644
0.79811203479766846 0.1197812408208847 0.1531938910484314
0.013719311915338039 0.035347416996955872 0.075296245515346527
0.039237946271896362 0.037159834057092667 0.065276488661766052
0.18906642496585846 0.053460933268070221 0.058674126863479614
0.36716517806053162 0.085672967135906219 0.076007172465324402
0.48219823837280273 0.1227966770529747 0.10449076443910599
0.56758683919906616 0.15131214261054993 0.12700353562831879
0.63987070322036743 0.17085342109203339 0.14264000952243805
0.7014230489730835 0.18653884530067444 0.15603834390640259
0.73659753799438477 0.19105315208435059 0.1608462780714035
0.75394350290298462 0.19250734150409698 0.16098318994045258
0.77080255746841431 0.19433589279651642 0.16140727698802948
0.78794372081756592 0.19375768303871155 0.16269767284393311
0.80426633358001709 0.1932767778635025 0.16431519389152527
0.060170866549015045 0.14803950488567352 0.10055552423000336
0.085680477321147919 0.14619983732700348 0.094389744102954865
0.19009950757026672 0.15159222483634949 0.086407169699668884
0.33771458268165588 0.16311654448509216 0.10046093165874481
0.45650741457939148 0.17125900089740753 0.11667845398187637
0.55083292722702026 0.18860423564910889 0.1347067654132843
0.62810403108596802 0.21125215291976929 0.15233342349529266
0.69183260202407837 0.22281476855278015 0.16376249492168427
0.73653876781463623 0.22891385853290558 0.16949740052223206
0.75791805982589722 0.2299526184797287 0.17026896774768829
0.77465850114822388 0.22861869633197784 0.17056231200695038
0.79239374399185181 0.22847719490528107 0.17191700637340546
0.80791789293289185 0.22970269620418549 0.17439697682857513
0.14998079836368561 0.28783288598060608 0.13885638117790222
0.17401444911956787 0.28422147035598755 0.13813507556915283
0.22305262088775635 0.28003495931625366 0.13932111859321594
0.31931692361831665 0.27579560875892639 0.14904721081256866
0.43089151382446289 0.27052628993988037 0.15774364769458771
0.52914595603942871 0.26607409119606018 0.16468954086303711
0.61215108633041382 0.26243698596954346 0.1697363555431366
0.68247300386428833 0.26494589447975159 0.17508414387702942
0.73721486330032349 0.26860335469245911 0.18005353212356567
0.76299065351486206 0.26820003986358643 0.1810918003320694
0.7808343768119812 0.26590582728385925 0.1819983571767807
0.79758250713348389 0.26486709713935852 0.18226571381092072
0.81245940923690796 0.26418888568878174 0.18344451487064362
0.19806219637393951 0.38874906301498413 0.17435847222805023
0.21498750150203705 0.38474389910697937 0.17523722350597382
0.24848946928977966 0.38014400005340576 0.17806662619113922
0.31636172533035278 0.37501099705696106 0.18762612342834473
0.41008055210113525 0.36988911032676697 0.19740484654903412
0.50781458616256714 0.36290666460990906 0.20429292321205139
0.59637582302093506 0.35050895810127258 0.20422829687595367
0.67492496967315674 0.33534923195838928 0.19989471137523651
0.73937249183654785 0.32253041863441467 0.19702132046222687
0.7687498927116394 0.31812003254890442 0.19676190614700317
0.78825873136520386 0.31315428018569946 0.19587081670761108
0.80485314130783081 0.30950576066970825 0.19536997377872467
0.81949836015701294 0.30411946773529053 0.19428476691246033
0.22355099022388458 0.47884353995323181 0.20134562253952026
0.23735734820365906 0.47565090656280518 0.20343056321144104
0.26532277464866638 0.47133216261863708 0.20485506951808929
0.31804642081260681 0.46611794829368591 0.21270088851451874
0.39876529574394226 0.46162408590316772 0.22291788458824158
0.48988044261932373 0.45280766487121582 0.23383888602256775
0.57971769571304321 0.44171348214149475 0.23815843462944031
0.66285020112991333 0.42716646194458008 0.23233042657375336
0.73585087060928345 0.40847066044807434 0.22524817287921906
0.77818399667739868 0.39655300974845886 0.22067418694496155
0.79753279685974121 0.39018401503562927 0.21784152090549469
0.81478172540664673 0.37799006700515747 0.21462695300579071
0.8284146785736084 0.36428457498550415 0.21163441240787506
0.21936728060245514 0.56874066591262817 0.20810948312282562
0.23495976626873016 0.56527543067932129 0.21254430711269379
0.26008275151252747 0.56199520826339722 0.21370032429695129
0.30617856979370117 0.55831223726272583 0.21935679018497467
0.37944793701171875 0.55007374286651611 0.23432604968547821
0.46594756841659546 0.54142236709594727 0.24821650981903076
0.55999594926834106 0.53356492519378662 0.25651171803474426
0.65018922090530396 0.51955622434616089 0.25939914584159851
0.73310858011245728 0.50190699100494385 0.25091096758842468
0.78668677806854248 0.48587000370025635 0.24482965469360352
0.81039142608642578 0.47539457678794861 0.24075354635715485
0.82723438739776611 0.46301701664924622 0.23792649805545807
0.83993369340896606 0.45143789052963257 0.23627486824989319
0.19686019420623779 0.65943741798400879 0.20427195727825165
0.21396422386169434 0.6571577787399292 0.20725533366203308
0.24009191989898682 0.6559063196182251 0.21053209900856018
0.28015807271003723 0.6499519944190979 0.21691113710403442
0.34706363081932068 0.64321160316467285 0.23020559549331665
0.43632686138153076 0.63754129409790039 0.2464497983455658
0.53221231698989868 0.63124644756317139 0.26003405451774597
0.63094407320022583 0.62073808908462524 0.26997765898704529
0.72079920768737793 0.60527938604354858 0.26939907670021057
0.79193794727325439 0.58807086944580078 0.266927570104599
0.82483845949172974 0.56932127475738525 0.26245638728141785
0.84014236927032471 0.55481010675430298 0.26007029414176941
0.85287392139434814 0.5413283109664917 0.25835889577865601
0.16632930934429169 0.73784631490707397 0.19748295843601227
0.18573640286922455 0.73990976810455322 0.19655454158782959
0.21101260185241699 0.73861521482467651 0.19911649823188782
0.24335697293281555 0.73485887050628662 0.20615863800048828
0.30521497130393982 0.73105132579803467 0.21901026368141174
0.39637541770935059 0.72819852828979492 0.23563835024833679
0.49910745024681091 0.72204190492630005 0.25181517004966736
0.60279768705368042 0.71756690740585327 0.26621735095977783
0.70108926296234131 0.70832407474517822 0.27494663000106812
0.78969550132751465 0.69495624303817749 0.2815820574760437
0.83412206172943115 0.67486119270324707 0.2784666121006012
0.85140979290008545 0.65419667959213257 0.27585729956626892
0.86468476057052612 0.63428741693496704 0.27481350302696228
0.13179939985275269 0.79369181394577026 0.18957151472568512
0.16095831990242004 0.79422801733016968 0.18877595663070679
0.18741157650947571 0.79592663049697876 0.18938592076301575
0.21840119361877441 0.7927430272102356 0.19472779333591461
0.26878565549850464 0.79266095161437988 0.20429131388664246
0.3570067286491394 0.79244393110275269 0.22138971090316772
0.46369221806526184 0.79212641716003418 0.23972731828689575
0.57150959968566895 0.79587513208389282 0.25726383924484253
0.67398810386657715 0.79344022274017334 0.27056336402893066
0.77317237854003906 0.79091334342956543 0.28167983889579773
0.83205664157867432 0.77096819877624512 0.28441688418388367
0.85974735021591187 0.74973016977310181 0.28522434830665588
0.87518811225891113 0.72911447286605835 0.28542390465736389
0.13049033284187317 0.81919765472412109 0.19068050384521484
0.15628764033317566 0.8213266134262085 0.1890549510717392
0.17877146601676941 0.82278841733932495 0.18877914547920227
0.20614169538021088 0.82019180059432983 0.19215880334377289
0.24194543063640594 0.82056611776351929 0.19855299592018127
0.32914069294929504 0.82266020774841309 0.21463453769683838
0.43179678916931152 0.82656538486480713 0.2321525365114212
0.53606927394866943 0.83180886507034302 0.24847351014614105
0.63963133096694946 0.84077721834182739 0.26114377379417419
0.74202257394790649 0.84331643581390381 0.27328324317932129
0.82743322849273682 0.84475845098495483 0.28391292691230774
0.8635174036026001 0.82996141910552979 0.28817999362945557
0.88417023420333862 0.81917405128479004 0.29018518328666687
0.13819652795791626 0.84004718065261841 0.19371785223484039
0.15647606551647186 0.845054030418396 0.1892823725938797
0.17282147705554962 0.84720581769943237 0.18865163624286652
0.19019895792007446 0.84547251462936401 0.19037240743637085
0.20897316932678223 0.84281742572784424 0.19402351975440979
0.29550319910049438 0.84368288516998291 0.20937918126583099
0.40077126026153564 0.84826284646987915 0.22685699164867401
0.50293338298797607 0.85612797737121582 0.24204547703266144
0.60958027839660645 0.86178338527679443 0.25459617376327515
0.71331620216369629 0.86591184139251709 0.26588848233222961
0.80812966823577881 0.8707127571105957 0.28093469142913818
0.86100512742996216 0.87018847465515137 0.28792789578437805
0.88660627603530884 0.87259918451309204 0.29035326838493347
0.15057818591594696 0.86126768589019775 0.19228263199329376
0.15835712850093842 0.86630415916442871 0.18884356319904327
0.1684061586856842 0.86870664358139038 0.18835940957069397
0.17093320190906525 0.86654126644134521 0.18869650363922119
0.17095853388309479 0.8595159649848938 0.18970426917076111
0.26166155934333801 0.85899561643600464 0.20436428487300873
0.36556461453437805 0.86903053522109985 0.2224334180355072
0.4724830687046051 0.87534695863723755 0.23815733194351196
0.58674842119216919 0.87738156318664551 0.25088763236999512
0.69000643491744995 0.88073307275772095 0.25943484902381897
0.79243642091751099 0.88234657049179077 0.27636179327964783
0.8599439263343811 0.88557904958724976 0.28434816002845764
0.88326370716094971 0.8857840895652771 0.2860521674156189
0.021373778581619263 0.027765730395913124 0.15928417444229126
0.044297896325588226 0.028634687885642052 0.16473798453807831
0.19205138087272644 0.030569443479180336 0.15771405398845673
0.3706410825252533 0.056329134851694107 0.16789169609546661
0.48785698413848877 0.080754026770591736 0.18231320381164551
0.57583600282669067 0.090180791914463043 0.18849152326583862
0.64620190858840942 0.10463591665029526 0.19226169586181641
0.70625334978103638 0.10887021571397781 0.19151465594768524
0.73662334680557251 0.11586371064186096 0.1881537139415741
0.75289344787597656 0.11236253380775452 0.18676216900348663
0.7675592303276062 0.11480220407247543 0.18341211974620819
0.78300172090530396 0.11042378842830658 0.18032750487327576
0.79851162433624268 0.13369564712047577 0.18425121903419495
0.019159428775310516 0.058780085295438766 0.1611005961894989
0.033475674688816071 0.057132795453071594 0.15807430446147919
0.16028952598571777 0.062202751636505127 0.14465244114398956
0.35274076461791992 0.090681783854961395 0.15026110410690308
0.47547900676727295 0.12309863418340683 0.16670297086238861
0.56603395938873291 0.15067832171916962 0.17786052823066711
0.64118272066116333 0.16967718303203583 0.18452271819114685
0.70195406675338745 0.18490104377269745 0.19127923250198364
0.73711222410202026 0.19157524406909943 0.19468563795089722
0.75666344165802002 0.19169192016124725 0.19248555600643158
0.77316856384277344 0.19192606210708618 0.18970321118831635
0.79110831022262573 0.19512300193309784 0.18800979852676392
0.80570822954177856 0.19835567474365234 0.19044589996337891
0.036225546151399612 0.14255556464195251 0.17972883582115173
0.048787660896778107 0.13925349712371826 0.17180784046649933
0.14551962912082672 0.1480744332075119 0.15249410271644592
0.32393354177474976 0.15663067996501923 0.14646871387958527
0.45127096772193909 0.16761352121829987 0.16001181304454803
0.54807090759277344 0.18795105814933777 0.16754339635372162
0.62775033712387085 0.2064935714006424 0.17907443642616272
0.69268053770065308 0.22260680794715881 0.19051122665405273
0.73468136787414551 0.22712250053882599 0.19199009239673615
0.75967109203338623 0.22921586036682129 0.19167375564575195
0.77635341882705688 0.2287323921918869 0.1915321946144104
0.79390823841094971 0.22979432344436646 0.19228509068489075
0.80909603834152222 0.2332300990819931 0.1965690404176712
0.11644492298364639 0.27564370632171631 0.18766452372074127
0.13686300814151764 0.27558696269989014 0.18353559076786041
0.18982440233230591 0.27475342154502869 0.17822985351085663
0.30769568681716919 0.27474519610404968 0.18091323971748352
0.42416092753410339 0.27122873067855835 0.18422554433345795
0.52637183666229248 0.26666814088821411 0.1861417293548584
0.61170715093612671 0.26136618852615356 0.18980865180492401
0.68419504165649414 0.2636263370513916 0.19599711894989014
0.73752599954605103 0.26834574341773987 0.19962048530578613
0.76543349027633667 0.26985624432563782 0.20036730170249939
0.78271472454071045 0.2702690064907074 0.20439706742763519
0.79966610670089722 0.26788038015365601 0.20290270447731018
0.81454265117645264 0.26589515805244446 0.20167259871959686
0.18578647077083588 0.38301858305931091 0.20314985513687134
0.2013421505689621 0.38051766157150269 0.20608218014240265
0.23688030242919922 0.37789517641067505 0.20164777338504791
0.30832186341285706 0.37445089221000671 0.20991669595241547
0.4064725935459137 0.3691350519657135 0.2178507000207901
0.50662708282470703 0.36188229918479919 0.22085794806480408
0.59577107429504395 0.34963312745094299 0.21898636221885681
0.6751028299331665 0.33698204159736633 0.21685932576656342
