assets/lut/editingcorp lotta.cube
# Created by: G'MIC (https://gmic.eu)
TITLE "lotta"
# LUT size
LUT_3D_SIZE 5
# Data domain
DOMAIN_MIN 0.0 0.0 0.0
DOMAIN_MAX 1.0 1.0 1.0
# LUT data points
0.0031693102791905403 0.0054609710350632668 0.0048011182807385921
0.10760414600372314 0.037819087505340576 0.037329655140638351
0.32870841026306152 0.071350768208503723 0.065100260078907013
0.53860312700271606 0.10114429146051407 0.068912267684936523
0.76468002796173096 0.13159024715423584 0.082171648740768433
0.042448993772268295 0.12057532370090485 0.050622183829545975
0.16874827444553375 0.1585962176322937 0.060880802571773529
0.40316042304039001 0.20183059573173523 0.063024677336215973
0.5909610390663147 0.23755435645580292 0.066548712551593781
0.82744413614273071 0.28393265604972839 0.087669074535369873
0.14057940244674683 0.3377348780632019 0.18739126622676849
0.31581798195838928 0.374919593334198 0.19971828162670135
0.44793790578842163 0.39498689770698547 0.16791994869709015
0.66692173480987549 0.46947500109672546 0.081971548497676849
0.8930402398109436 0.50159186124801636 0.10012940317392349
0.37492126226425171 0.51414716243743896 0.28105217218399048
0.46796980500221252 0.55396747589111328 0.35061824321746826
0.55796796083450317 0.57616662979125977 0.37467166781425476
0.70088714361190796 0.62720388174057007 0.26561024785041809
0.9388619065284729 0.73549193143844604 0.15755537152290344
0.45893341302871704 0.65922904014587402 0.39517316222190857
0.51631450653076172 0.69745391607284546 0.41376996040344238
0.64985066652297974 0.75669896602630615 0.456839919090271
0.79783886671066284 0.80782049894332886 0.46483194828033447
0.94838851690292358 0.89769488573074341 0.47497084736824036
0.011795761995017529 0.040616936981678009 0.058485891669988632
0.039833396673202515 0.031370814889669418 0.098922476172447205
0.28063726425170898 0.050538651645183563 0.12817883491516113
0.50409841537475586 0.056594099849462509 0.14205682277679443
0.73789036273956299 0.068042963743209839 0.16361276805400848
0.01201285608112812 0.13926053047180176 0.13502556085586548
0.13677766919136047 0.20240844786167145 0.20783482491970062
0.41914620995521545 0.21371577680110931 0.19640646874904633
0.62093460559844971 0.22106178104877472 0.17542156577110291
0.83851200342178345 0.25138330459594727 0.19657500088214874
0.10186071693897247 0.33193185925483704 0.2001463919878006
0.22710792720317841 0.39659914374351501 0.26517847180366516
0.4617544412612915 0.43843910098075867 0.29306545853614807
0.68772870302200317 0.48134371638298035 0.22417396306991577
0.91101270914077759 0.5050971508026123 0.23956595361232758
0.2210301011800766 0.48231649398803711 0.26134634017944336
0.36752253770828247 0.53476226329803467 0.3178638219833374
0.55184632539749146 0.59299606084823608 0.40082085132598877
0.70653659105300903 0.64447367191314697 0.33362409472465515
0.94409328699111938 0.73719394207000732 0.27601215243339539
0.41146790981292725 0.65058529376983643 0.41049423813819885
0.47043696045875549 0.68937808275222778 0.42626640200614929
0.60988187789916992 0.75161629915237427 0.46863749623298645
0.79075479507446289 0.82214576005935669 0.51000440120697021
0.94742178916931152 0.90192240476608276 0.53787922859191895
0.011764706112444401 0.10289077460765839 0.15146706998348236
0.0087649775668978691 0.14244215190410614 0.22513073682785034
0.20034748315811157 0.063853196799755096 0.25319218635559082
0.39096513390541077 0.069352321326732635 0.30775219202041626
0.62620240449905396 0.094779863953590393 0.36431312561035156
0.011272684670984745 0.21186937391757965 0.25810813903808594
0.075964458286762238 0.28662177920341492 0.34286090731620789
0.34154382348060608 0.20382353663444519 0.37917181849479675
0.52684074640274048 0.17632098495960236 0.39077198505401611
0.76782059669494629 0.26813989877700806 0.44034761190414429
0.004292207770049572 0.36023002862930298 0.35567495226860046
0.18500375747680664 0.42910692095756531 0.4276595413684845
0.44807279109954834 0.50032764673233032 0.50245356559753418
0.69138449430465698 0.51136845350265503 0.50681471824645996
0.89711642265319824 0.53294187784194946 0.50113421678543091
0.17149585485458374 0.49473533034324646 0.43031823635101318
0.36144992709159851 0.55804264545440674 0.4944290816783905
0.5163155198097229 0.61514163017272949 0.5572965145111084
0.70565783977508545 0.68084448575973511 0.55367636680603027
0.94270658493041992 0.747702956199646 0.53000009059906006
0.32336881756782532 0.6334846019744873 0.48887366056442261
0.41325199604034424 0.689727783203125 0.52036911249160767
0.54425442218780518 0.75243353843688965 0.54875582456588745
0.7533881664276123 0.82874202728271484 0.59025335311889648
0.93665808439254761 0.90163552761077881 0.68565148115158081
0.011764706112444401 0.16634289920330048 0.22813820838928223
0.0094060711562633514 0.24559812247753143 0.32740527391433716
0.18266931176185608 0.1610819399356842 0.37440213561058044
0.3542599081993103 0.1317889541387558 0.37965115904808044
0.51122903823852539 0.14235402643680573 0.45431441068649292
0.015534987673163414 0.27472689747810364 0.33943253755569458
0.016394760459661484 0.33887705206871033 0.41810092329978943
0.29029086232185364 0.35282793641090393 0.48591595888137817
0.45497334003448486 0.24400469660758972 0.47726577520370483
0.6325535774230957 0.33041232824325562 0.55802029371261597
0.0099199181422591209 0.42276161909103394 0.46573159098625183
0.16407819092273712 0.47997185587882996 0.53141772747039795
0.41407507658004761 0.54876482486724854 0.5968438982963562
0.58220887184143066 0.51422005891799927 0.6241496205329895
0.77174389362335205 0.54295217990875244 0.66457873582839966
0.13824012875556946 0.52687782049179077 0.52097958326339722
0.21954473853111267 0.56516402959823608 0.55827146768569946
0.49038168787956238 0.64371347427368164 0.64234566688537598
0.65443509817123413 0.68658030033111572 0.69487929344177246
0.9240797758102417 0.74821728467941284 0.7446710467338562
0.30917516350746155 0.64872664213180542 0.59418588876724243
0.41393393278121948 0.70880991220474243 0.64489352703094482
0.5428769588470459 0.76157575845718384 0.68076097965240479
0.68884909152984619 0.82624995708465576 0.71081995964050293
0.91441440582275391 0.90148395299911499 0.83175700902938843
0.013506017625331879 0.23316815495491028 0.30726352334022522
0.0083664841949939728 0.34929308295249939 0.44359740614891052
0.21659603714942932 0.38005790114402771 0.50475585460662842
0.42719128727912903 0.28258180618286133 0.53005164861679077
0.49510732293128967 0.26010313630104065 0.52150171995162964
0.0092317769303917885 0.33956247568130493 0.41958975791931152
0.00053556851344183087 0.40026262402534485 0.49713379144668579
0.30114984512329102 0.48504310846328735 0.58347702026367188
0.47782239317893982 0.40227031707763672 0.60709238052368164
0.5831572413444519 0.41124650835990906 0.61131852865219116
0.039738748222589493 0.47067552804946899 0.5449790358543396
0.059575352817773819 0.51518237590789795 0.59866774082183838
0.35650435090065002 0.58939290046691895 0.67830175161361694
0.51736247539520264 0.57230323553085327 0.68870443105697632
0.68449991941452026 0.57203668355941772 0.71992981433868408
0.14716613292694092 0.58473902940750122 0.62257194519042969
0.20822504162788391 0.63196700811386108 0.67454856634140015
0.44604778289794922 0.695118248462677 0.75265848636627197
0.58239924907684326 0.72361254692077637 0.78780144453048706
0.80685359239578247 0.71892338991165161 0.83746159076690674
0.24611370265483856 0.6914324164390564 0.68429774045944214
0.28282839059829712 0.74489915370941162 0.73492711782455444
0.41958007216453552 0.80199599266052246 0.79433280229568481
0.60123145580291748 0.85186862945556641 0.84904086589813232
0.88197261095046997 0.89983552694320679 0.90349429845809937
