assets/lut/editingcorpw Floral Fantasy.cube
LUT_3D_SIZE 6
DOMAIN_MIN 0.0 0.0 0.0
DOMAIN_MAX 1.0 1.0 1.0
0.106935 0.112032 0.172183
0.276231 0.122664 0.180026
0.506578 0.105959 0.169937
0.758920 0.129286 0.165225
0.975329 0.176937 0.158736
1.000000 0.223850 0.157351
0.201651 0.218735 0.183224
0.302397 0.243071 0.167043
0.497809 0.247438 0.163532
0.743166 0.267345 0.156092
0.965360 0.286634 0.145612
1.000000 0.303112 0.141384
0.300853 0.334899 0.193881
0.339097 0.352166 0.187131
0.523625 0.439964 0.116774
0.744941 0.474860 0.049706
0.937946 0.488513 0.000000
1.000000 0.482685 0.000000
0.368371 0.435847 0.191659
0.384906 0.438350 0.189649
0.499739 0.521907 0.135157
0.752011 0.658319 0.000000
0.965840 0.681210 0.000000
1.000000 0.661897 0.000000
0.467549 0.611804 0.127065
0.473837 0.599634 0.133307
0.560894 0.665107 0.000000
0.740174 0.773019 0.000000
0.965701 0.856852 0.000000
1.000000 0.822977 0.000000
0.683406 0.956817 0.274571
0.696907 0.956146 0.283348
0.747464 0.960736 0.287792
0.836387 0.980981 0.185031
0.964074 0.999450 0.000000
1.000000 0.999969 0.000000
0.192746 0.117361 0.273948
0.266147 0.113355 0.265347
0.464165 0.139645 0.261255
0.717221 0.152162 0.271426
0.955007 0.187161 0.270991
1.000000 0.241886 0.273186
0.190691 0.232873 0.254770
0.277325 0.235421 0.252343
0.465009 0.244551 0.257991
0.710377 0.261820 0.261768
0.948063 0.285607 0.261369
1.000000 0.312390 0.263808
0.312768 0.360308 0.243615
0.333979 0.343861 0.241830
0.498450 0.421630 0.223645
0.713068 0.459015 0.221210
0.927981 0.482353 0.217864
1.000000 0.483857 0.219560
0.375942 0.455886 0.225748
0.386337 0.443816 0.225670
0.486070 0.508095 0.205265
0.737809 0.648350 0.068304
0.955287 0.676981 0.077765
1.000000 0.662963 0.011327
0.467241 0.624958 0.167875
0.475517 0.614362 0.169648
0.550548 0.656261 0.130460
0.730487 0.766250 0.000000
0.961345 0.855081 0.000000
1.000000 0.823911 0.000000
0.679927 0.958581 0.276653
0.694369 0.958556 0.287968
0.745144 0.960998 0.294597
0.834722 0.981360 0.195187
0.963299 0.999615 0.000000
1.000000 0.999646 0.000000
0.309288 0.000000 0.530834
0.355669 0.000000 0.514802
0.449714 0.103764 0.460258
0.633589 0.125003 0.445324
0.903259 0.149948 0.493065
1.000000 0.325127 0.547344
0.327531 0.221396 0.488194
0.360260 0.223934 0.481067
0.442061 0.227888 0.438132
0.630938 0.230376 0.439866
0.903665 0.265713 0.493089
1.000000 0.393453 0.557496
0.263992 0.425160 0.459773
0.320724 0.425377 0.456100
0.460001 0.415981 0.429761
0.664021 0.435452 0.446863
0.902722 0.476782 0.488905
1.000000 0.516262 0.529699
0.381385 0.570546 0.398598
0.408698 0.555781 0.392842
0.452718 0.478392 0.350589
0.692715 0.624750 0.399334
0.911681 0.667038 0.453361
1.000000 0.672179 0.461100
0.456672 0.687520 0.318209
0.470951 0.678117 0.312922
0.507654 0.625837 0.287650
0.684790 0.734438 0.292641
0.939218 0.848386 0.346614
1.000000 0.831072 0.409825
0.640748 0.967095 0.377008
0.657130 0.966591 0.380661
0.717406 0.961541 0.388139
0.818139 0.979532 0.338943
0.956745 0.999879 0.000000
1.000000 0.996063 0.000000
0.414838 0.000000 0.828293
0.447056 0.000000 0.822301
0.526945 0.000000 0.789728
0.627852 0.000000 0.729893
0.829045 0.000000 0.713346
1.000000 0.110598 0.730935
0.421664 0.153039 0.807146
0.446620 0.157910 0.803239
0.522740 0.171989 0.772606
0.622240 0.193107 0.717173
0.823213 0.181198 0.704606
1.000000 0.251157 0.730313
0.382432 0.373806 0.779986
0.424849 0.394333 0.773493
0.520565 0.419776 0.737001
0.612476 0.405811 0.685207
0.822535 0.412079 0.693812
1.000000 0.509626 0.753354
0.270279 0.657746 0.752082
0.332642 0.657958 0.749891
0.479360 0.646828 0.727464
0.635380 0.625659 0.684762
0.854886 0.665385 0.726162
1.000000 0.715510 0.776515
0.434740 0.839028 0.692087
0.456854 0.833140 0.685636
0.539775 0.789641 0.651259
0.584340 0.667215 0.493530
0.887721 0.839093 0.679431
1.000000 0.853523 0.749290
0.567273 0.987359 0.640736
0.581793 0.986557 0.634039
0.646948 0.981414 0.615633
0.765175 0.973016 0.594235
0.920100 0.997383 0.561198
1.000000 0.995788 0.481172
0.507085 0.000000 0.976043
0.526845 0.000000 0.974853
0.596374 0.000000 0.969580
0.692609 0.000000 0.956323
0.807814 0.000000 0.933771
1.000000 0.000000 0.934069
0.522684 0.000000 0.973177
0.539456 0.000000 0.972566
0.598859 0.000000 0.966158
0.692344 0.012089 0.952336
0.804937 0.060011 0.928953
1.000000 0.000000 0.931217
0.546637 0.414679 0.959692
0.561771 0.416580 0.959139
0.614098 0.416341 0.953513
0.699255 0.412372 0.941175
0.804253 0.396177 0.918385
1.000000 0.387431 0.919663
0.471543 0.576254 0.954408
0.515336 0.590031 0.953298
0.627861 0.630031 0.944240
0.726303 0.658911 0.926417
0.806086 0.622642 0.900179
1.000000 0.640842 0.903412
0.544976 0.867102 0.938865
0.569107 0.868363 0.938658
0.643580 0.869041 0.935184
0.743726 0.865877 0.926100
0.830554 0.833027 0.891928
0.999244 0.882108 0.924663
0.715297 1.000000 0.919933
0.723868 1.000000 0.919626
0.749415 1.000000 0.915153
0.794174 0.996429 0.902439
0.860154 0.988002 0.831587
1.000000 0.998224 0.885350
0.584619 0.119570 1.000000
0.596094 0.103493 1.000000
0.641560 0.000000 1.000000
0.721730 0.000000 1.000000
0.828580 0.000000 1.000000
0.959991 0.000000 1.000000
0.590558 0.111556 1.000000
0.601836 0.095575 1.000000
0.646127 0.000000 1.000000
0.724935 0.000000 1.000000
0.830061 0.000000 1.000000
0.960241 0.000000 1.000000
0.612744 0.304106 1.000000
0.623136 0.305145 1.000000
0.664844 0.309455 1.000000
0.739373 0.315371 1.000000
0.839473 0.315504 1.000000
0.964855 0.295836 1.000000
0.652595 0.584284 1.000000
0.671194 0.598773 1.000000
0.737060 0.648852 1.000000
0.790921 0.646501 1.000000
0.867549 0.635715 1.000000
0.973284 0.615577 1.000000
0.645899 0.771804 1.000000
0.662939 0.775965 1.000000
0.725707 0.792607 1.000000
0.838047 0.837569 1.000000
0.918014 0.870846 1.000000
0.988531 0.852299 1.000000
0.776303 0.983551 1.000000
0.785483 0.984112 1.000000
0.821805 0.987506 1.000000
0.880857 0.993121 1.000000
0.947314 0.997382 1.000000
1.000000 1.000000 1.000000
