assets/lut/editingcorp scrittle.cube
# Created by: G'MIC (https://gmic.eu)
TITLE "scrittle"
# LUT size
LUT_3D_SIZE 7
# Data domain
DOMAIN_MIN 0.0 0.0 0.0
DOMAIN_MAX 1.0 1.0 1.0
# LUT data points
0.016129571944475174 0.024423711001873016 0.19458404183387756
0.15082013607025146 0.033449809998273849 0.20006273686885834
0.31154575943946838 0.050453681498765945 0.20469611883163452
0.50089573860168457 0.086764015257358551 0.20920927822589874
0.6700243353843689 0.15059062838554382 0.22570087015628815
0.80648863315582275 0.20676279067993164 0.24170888960361481
0.92432302236557007 0.24772407114505768 0.25500130653381348
0.022912207990884781 0.13871368765830994 0.20051294565200806
0.15766853094100952 0.14801298081874847 0.2043750137090683
0.31265008449554443 0.16070756316184998 0.20807118713855743
0.50621187686920166 0.19437496364116669 0.21562144160270691
0.68077385425567627 0.26173889636993408 0.23496498167514801
0.81798535585403442 0.30615049600601196 0.24540089070796967
0.93355917930603027 0.33783599734306335 0.25273451209068298
0.039203912019729614 0.2711072564125061 0.20699124038219452
0.15925697982311249 0.28232046961784363 0.2100500762462616
0.29777315258979797 0.29633617401123047 0.21405018866062164
0.50954192876815796 0.32653766870498657 0.2250555008649826
0.69821768999099731 0.38300272822380066 0.24578528106212616
0.83893799781799316 0.41151824593544006 0.25186365842819214
0.9488908052444458 0.4349769651889801 0.25592944025993347
0.076790317893028259 0.41966384649276733 0.21671150624752045
0.17919968068599701 0.42896109819412231 0.22055254876613617
0.27290505170822144 0.44790241122245789 0.22433198988437653
0.50033098459243774 0.48388469219207764 0.24080975353717804
0.72496116161346436 0.52118146419525146 0.2568737268447876
0.87054520845413208 0.54044562578201294 0.25717481970787048
0.96829605102539062 0.55749678611755371 0.26012113690376282
0.12861520051956177 0.57712990045547485 0.23587827384471893
0.219277024269104 0.58148837089538574 0.24279046058654785
0.28560036420822144 0.60953032970428467 0.24854421615600586
0.45197892189025879 0.64988493919372559 0.26187425851821899
0.710227370262146 0.68704026937484741 0.27023035287857056
0.89502990245819092 0.71117031574249268 0.26306277513504028
0.98562145233154297 0.7214851975440979 0.2592262327671051
0.17311815917491913 0.74111521244049072 0.25906473398208618
0.24999295175075531 0.74758219718933105 0.26631450653076172
0.31299915909767151 0.77618938684463501 0.27488723397254944
0.419362872838974 0.8126111626625061 0.28165906667709351
0.67322593927383423 0.84521472454071045 0.28018894791603088
0.90407747030258179 0.86748677492141724 0.26718345284461975
0.99484378099441528 0.86907732486724854 0.26055628061294556
0.20415003597736359 0.9012378454208374 0.28191670775413513
0.27262988686561584 0.90344107151031494 0.28735589981079102
0.3382725715637207 0.92241775989532471 0.29620319604873657
0.4360954761505127 0.94413477182388306 0.30095472931861877
0.65109920501708984 0.96293962001800537 0.28851073980331421
0.89584249258041382 0.97567415237426758 0.26700940728187561
0.99583673477172852 0.97239047288894653 0.26366317272186279
0.01804300956428051 0.024300219491124153 0.24507415294647217
0.14549174904823303 0.028751926496624947 0.24840053915977478
0.30616730451583862 0.0423748679459095 0.25167554616928101
0.50036489963531494 0.081152975559234619 0.25807452201843262
0.67412614822387695 0.14985808730125427 0.27774414420127869
0.80873304605484009 0.20381782948970795 0.29212114214897156
0.92119181156158447 0.2382405698299408 0.30237537622451782
0.022739455103874207 0.13493281602859497 0.24979695677757263
0.14998255670070648 0.14134177565574646 0.25203448534011841
0.30686616897583008 0.15419743955135345 0.2552095353603363
0.50296992063522339 0.19307830929756165 0.26491731405258179
0.68034201860427856 0.25774559378623962 0.28426638245582581
0.81572085618972778 0.30133998394012451 0.29378607869148254
0.92988818883895874 0.33282017707824707 0.30122131109237671
0.03629264235496521 0.26523670554161072 0.25608521699905396
0.15445730090141296 0.27610093355178833 0.25805884599685669
0.29684290289878845 0.28982022404670715 0.26216357946395874
0.50623816251754761 0.32590940594673157 0.27568310499191284
0.69558072090148926 0.38387545943260193 0.29752185940742493
0.83719384670257568 0.41268810629844666 0.30384746193885803
0.94670718908309937 0.43517765402793884 0.30778610706329346
0.071181125938892365 0.41642552614212036 0.26557192206382751
0.17543356120586395 0.42664369940757751 0.26929467916488647
0.27227985858917236 0.44563525915145874 0.27352926135063171
0.49335500597953796 0.47992163896560669 0.29045930504798889
0.71872788667678833 0.5247541069984436 0.31023439764976501
0.87059247493743896 0.54656285047531128 0.31162628531455994
0.96755897998809814 0.56227195262908936 0.3117251992225647
0.12644082307815552 0.57582610845565796 0.28711807727813721
0.21646347641944885 0.58206850290298462 0.29344779253005981
0.28771641850471497 0.60752677917480469 0.29878050088882446
0.45166406035423279 0.64529746770858765 0.31055310368537903
0.71098381280899048 0.68700140714645386 0.32283425331115723
0.89626270532608032 0.71372717618942261 0.31463983654975891
0.98329448699951172 0.72374182939529419 0.30722194910049438
0.17417474091053009 0.74032974243164062 0.31288889050483704
0.25668731331825256 0.74599403142929077 0.32039555907249451
0.3319547176361084 0.77729266881942749 0.33134454488754272
0.44052541255950928 0.81312507390975952 0.33991461992263794
0.6808590292930603 0.84752845764160156 0.34071448445320129
0.90530622005462646 0.869476318359375 0.32115978002548218
0.99596875905990601 0.8717692494392395 0.30724573135375977
0.20214499533176422 0.89594894647598267 0.33819746971130371
0.2755395770072937 0.89641487598419189 0.34385719895362854
0.3468567430973053 0.92118901014328003 0.35760235786437988
0.43042746186256409 0.94397068023681641 0.36637711524963379
0.62765699625015259 0.95973855257034302 0.3524739146232605
0.89297282695770264 0.97522425651550293 0.32058516144752502
0.99999570846557617 0.9811089038848877 0.30783039331436157
0.020761767402291298 0.026537651196122169 0.30220529437065125
0.13099101185798645 0.026391211897134781 0.30619990825653076
0.27838566899299622 0.034144546836614609 0.30998525023460388
0.47400560975074768 0.068965986371040344 0.31829491257667542
0.66312402486801147 0.1395999938249588 0.34263169765472412
0.80699712038040161 0.19562985002994537 0.35962188243865967
0.92036586999893188 0.22969521582126617 0.36961549520492554
0.022610398009419441 0.12911368906497955 0.30519899725914001
0.13767945766448975 0.13226430118083954 0.30626064538955688
0.28304585814476013 0.14226004481315613 0.30959019064903259
0.47863507270812988 0.1779913455247879 0.32044008374214172
0.67091625928878784 0.24672514200210571 0.34722623229026794
0.81689625978469849 0.29948568344116211 0.36391749978065491
0.92969596385955811 0.33026415109634399 0.36921504139900208
0.031685534864664078 0.25214400887489319 0.31089088320732117
0.14613924920558929 0.2607484757900238 0.31178098917007446
0.27691632509231567 0.2753450870513916 0.3174004852771759
0.48579749464988708 0.30818581581115723 0.32934921979904175
0.68876081705093384 0.37348064780235291 0.35928118228912354
0.83940893411636353 0.41234177350997925 0.37554782629013062
0.94748389720916748 0.43422776460647583 0.38020995259284973
0.065939314663410187 0.40133136510848999 0.32164159417152405
0.16725960373878479 0.40830817818641663 0.32613343000411987
0.26611849665641785 0.42612391710281372 0.33184522390365601
0.47800543904304504 0.45998182892799377 0.34566712379455566
0.71028047800064087 0.51650345325469971 0.37367174029350281
0.87199240922927856 0.54380279779434204 0.38210514187812805
0.96898603439331055 0.55691862106323242 0.38451123237609863
0.12060838937759399 0.56491494178771973 0.34651142358779907
0.21289139986038208 0.56687480211257935 0.35257777571678162
0.28075814247131348 0.5871625542640686 0.35612815618515015
0.42818829417228699 0.62235242128372192 0.36615884304046631
0.69904839992523193 0.67580348253250122 0.38316088914871216
0.89673823118209839 0.70778971910476685 0.376577228307724
0.98565828800201416 0.71492177248001099 0.37229284644126892
0.16936914622783661 0.73725634813308716 0.37416383624076843
0.25562241673469543 0.73800486326217651 0.38072666525840759
0.327281653881073 0.76609987020492554 0.39132845401763916
0.4253639280796051 0.80257886648178101 0.39925861358642578
0.65854120254516602 0.83665615320205688 0.3965032696723938
0.89539289474487305 0.86419284343719482 0.37390869855880737
0.99210053682327271 0.87125688791275024 0.36001878976821899
0.19810383021831512 0.89320963621139526 0.40205365419387817
0.27875638008117676 0.89308255910873413 0.40681025385856628
0.35078203678131104 0.91520482301712036 0.42094883322715759
0.42957437038421631 0.93982702493667603 0.43153980374336243
0.61867713928222656 0.9541018009185791 0.41247108578681946
0.88985788822174072 0.97367030382156372 0.37212660908699036
1 0.98625642061233521 0.3559381365776062
0.021843135356903076 0.024968734011054039 0.37910637259483337
0.12185254693031311 0.024511240422725677 0.38259875774383545
0.24558287858963013 0.025564409792423248 0.38732394576072693
0.43318182229995728 0.03478572890162468 0.38926804065704346
0.63093584775924683 0.08323986828327179 0.4119361937046051
0.78591632843017578 0.15155838429927826 0.44373953342437744
0.91450947523117065 0.2073008120059967 0.46745726466178894
0.02562020905315876 0.12161480635404587 0.37661510705947876
0.13136512041091919 0.12315221875905991 0.37785825133323669
0.25045207142829895 0.1252802312374115 0.382942795753479
0.43393188714981079 0.13957862555980682 0.38863417506217957
0.64081853628158569 0.20272719860076904 0.424348384141922
0.80051296949386597 0.26762735843658447 0.4582851231098175
0.92461258172988892 0.3113783597946167 0.47111180424690247
0.02980874665081501 0.23742790520191193 0.37647992372512817
0.14265997707843781 0.24241055548191071 0.3797629177570343
0.24451343715190887 0.25160032510757446 0.38884946703910828
0.43068701028823853 0.27252718806266785 0.39786389470100403
0.66041773557662964 0.33563202619552612 0.43811458349227905
0.8291395902633667 0.38914838433265686 0.47449424862861633
0.94366979598999023 0.41891324520111084 0.4857826828956604
0.059202559292316437 0.38106915354728699 0.3888154923915863
0.16976405680179596 0.38455626368522644 0.39414036273956299
0.24966901540756226 0.39789402484893799 0.40349841117858887
0.42872157692909241 0.42299899458885193 0.41441932320594788
0.68507415056228638 0.49135401844978333 0.45826742053031921
0.86737298965454102 0.53155899047851562 0.48501628637313843
0.96929359436035156 0.54621905088424683 0.49170389771461487
0.11059626936912537 0.54202091693878174 0.41953444480895996
0.20437701046466827 0.54251253604888916 0.42447802424430847
0.27280434966087341 0.55921083688735962 0.43016588687896729
0.39267143607139587 0.58974599838256836 0.44283148646354675
0.66872209310531616 0.65862101316452026 0.47334796190261841
0.89009398221969604 0.69949305057525635 0.47884303331375122
0.98779010772705078 0.70896178483963013 0.4746091365814209
0.15783755481243134 0.71637141704559326 0.45055785775184631
0.24646943807601929 0.71785086393356323 0.45513564348220825
0.31939548254013062 0.74470537900924683 0.46766692399978638
0.41328734159469604 0.7947685718536377 0.48975542187690735
0.63441264629364014 0.83075070381164551 0.49549311399459839
0.89088928699493408 0.85890322923660278 0.46785500645637512
0.9935612678527832 0.8743101954460144 0.43860313296318054
0.18958547711372375 0.88008934259414673 0.48067253828048706
0.27507060766220093 0.88031083345413208 0.48224523663520813
0.34851282835006714 0.89747923612594604 0.49553468823432922
0.41604623198509216 0.93276679515838623 0.52242898941040039
0.60048699378967285 0.95457899570465088 0.51629626750946045
0.88742905855178833 0.97341513633728027 0.46349155902862549
1 0.98929667472839355 0.4421316385269165
0.027190608903765678 0.022219939157366753 0.47784927487373352
0.12570030987262726 0.025887522846460342 0.48111075162887573
0.22299593687057495 0.026749314740300179 0.49173069000244141
0.39388290047645569 0.020134629681706429 0.49378219246864319
0.59111481904983521 0.032268211245536804 0.50428080558776855
0.7341693639755249 0.068944565951824188 0.53511184453964233
0.87507891654968262 0.14113707840442657 0.57350349426269531
0.038570508360862732 0.11456713080406189 0.47218656539916992
0.14287658035755157 0.11854194104671478 0.4743751585483551
0.23174320161342621 0.11923961341381073 0.48852419853210449
0.39138337969779968 0.11492817848920822 0.49109426140785217
0.59954434633255005 0.13913054764270782 0.50982141494750977
0.754996657371521 0.18842379748821259 0.55141758918762207
0.89817965030670166 0.25946471095085144 0.58800297975540161
0.038078848272562027 0.22183926403522491 0.47129592299461365
0.14447537064552307 0.22692970931529999 0.47287750244140625
0.22709421813488007 0.23327866196632385 0.48603564500808716
0.38215857744216919 0.23769012093544006 0.49210622906684875
0.62074291706085205 0.28355446457862854 0.53446269035339355
0.79953771829605103 0.33761599659919739 0.58880817890167236
0.92706847190856934 0.38332444429397583 0.61406660079956055
0.058696836233139038 0.36628338694572449 0.47983869910240173
0.16280436515808105 0.3675178587436676 0.47917583584785461
0.23593764007091522 0.38024744391441345 0.49469125270843506
0.37215426564216614 0.40410095453262329 0.51520794630050659
0.64823901653289795 0.46389675140380859 0.57521355152130127
0.85616064071655273 0.51043605804443359 0.62501972913742065
0.96384036540985107 0.52888733148574829 0.63643229007720947
0.10251976549625397 0.51791876554489136 0.50839847326278687
0.1984218955039978 0.5198548436164856 0.51102340221405029
0.27892348170280457 0.53860485553741455 0.52602535486221313
0.37987887859344482 0.58092683553695679 0.55342721939086914
0.64415436983108521 0.64409548044204712 0.60499858856201172
0.88290518522262573 0.69018322229385376 0.63554370403289795
0.98865151405334473 0.70191025733947754 0.64161229133605957
0.14556887745857239 0.68582463264465332 0.54313218593597412
0.23422788083553314 0.69258612394332886 0.548073410987854
0.31091618537902832 0.71765285730361938 0.56643438339233398
0.38431960344314575 0.7748597264289856 0.60425460338592529
0.60433030128479004 0.82711333036422729 0.64338964223861694
0.88543701171875 0.85481387376785278 0.64645063877105713
0.99314326047897339 0.86653017997741699 0.62850916385650635
0.17794516682624817 0.85895061492919922 0.57598060369491577
0.26132124662399292 0.86334824562072754 0.57884335517883301
0.33344283699989319 0.87719815969467163 0.59637385606765747
0.39278918504714966 0.92047637701034546 0.6410900354385376
0.56836140155792236 0.95619094371795654 0.67322587966918945
0.86966240406036377 0.97029203176498413 0.65534883737564087
0.99918520450592041 0.98362058401107788 0.62466663122177124
0.031995497643947601 0.022032463923096657 0.59219145774841309
0.133745938539505 0.026258161291480064 0.59589582681655884
0.22716376185417175 0.025831589475274086 0.60827422142028809
0.38221916556358337 0.019803918898105621 0.61383068561553955
0.57394129037857056 0.017727825790643692 0.61950743198394775
0.71117264032363892 0.036717686802148819 0.64731615781784058
0.86313647031784058 0.11834651231765747 0.6944887638092041
0.051910370588302612 0.1170768141746521 0.58845037221908569
0.15998610854148865 0.11739174276590347 0.58943742513656616
0.24010586738586426 0.11855681240558624 0.6063036322593689
0.38242897391319275 0.11465317755937576 0.61311644315719604
0.57710009813308716 0.11244991421699524 0.62024462223052979
0.72423005104064941 0.13745623826980591 0.65539360046386719
0.87584638595581055 0.22130712866783142 0.7048715353012085
0.049961507320404053 0.21908019483089447 0.58653789758682251
0.15944641828536987 0.21437589824199677 0.58665049076080322
0.23872046172618866 0.21823394298553467 0.59994208812713623
0.36743518710136414 0.21587872505187988 0.60237038135528564
0.59288108348846436 0.24760870635509491 0.64516502618789673
0.78388720750808716 0.30760502815246582 0.71148890256881714
0.92172712087631226 0.36900612711906433 0.746052086353302
0.061465498059988022 0.36252415180206299 0.5913652777671814
0.1664326936006546 0.35900929570198059 0.58667635917663574
0.24490635097026825 0.37229716777801514 0.60753810405731201
0.35272008180618286 0.39041110873222351 0.6320614218711853
0.61921912431716919 0.44606718420982361 0.70320242643356323
0.85560864210128784 0.50524163246154785 0.76935690641403198
0.9658806324005127 0.52842116355895996 0.78309684991836548
0.099126569926738739 0.50673025846481323 0.61329525709152222
0.1946626752614975 0.51209932565689087 0.61273229122161865
0.282225102186203 0.53190010786056519 0.6378975510597229
0.36927926540374756 0.57474666833877563 0.6788257360458374
0.62366998195648193 0.64234989881515503 0.74408113956451416
0.88853269815444946 0.69122457504272461 0.78807365894317627
0.99239838123321533 0.70616275072097778 0.79672741889953613
0.14000104367733002 0.6669992208480835 0.64993447065353394
0.22659856081008911 0.67502379417419434 0.65559417009353638
0.31204128265380859 0.69979846477508545 0.67976027727127075
0.38620644807815552 0.75965625047683716 0.72337037324905396
0.59229755401611328 0.82864880561828613 0.77702194452285767
0.89121991395950317 0.85758727788925171 0.80018287897109985
0.99396157264709473 0.86399859189987183 0.79929131269454956
0.17406432330608368 0.84266805648803711 0.68469786643981934
0.25478279590606689 0.84887051582336426 0.69119757413864136
0.33101591467857361 0.86494654417037964 0.71193951368331909
0.40309616923332214 0.9107673168182373 0.75571179389953613
0.57363396883010864 0.96180742979049683 0.80213886499404907
0.86934173107147217 0.97099876403808594 0.81256747245788574
0.99717003107070923 0.97780239582061768 0.79535508155822754
0.025545606389641762 0.019122164696455002 0.71450388431549072
0.12744690477848053 0.023411097005009651 0.71961992979049683
0.2263835221529007 0.02398071251809597 0.73005259037017822
0.36863860487937927 0.023539450019598007 0.73863780498504639
0.55538725852966309 0.035086702555418015 0.75108999013900757
0.72831666469573975 0.079823300242424011 0.78447133302688599
0.90206712484359741 0.17355082929134369 0.83609789609909058
0.04791729524731636 0.11353270709514618 0.70992910861968994
0.15281218290328979 0.11502190679311752 0.71401554346084595
0.24943023920059204 0.11979933828115463 0.72475963830947876
0.38536754250526428 0.11505809426307678 0.73042863607406616
0.56696224212646484 0.11919049918651581 0.74420106410980225
0.74143522977828979 0.16983017325401306 0.78639853000640869
0.90530729293823242 0.26257228851318359 0.83852958679199219
0.055209726095199585 0.2070959210395813 0.70401668548583984
0.16297046840190887 0.21099673211574554 0.7105865478515625
0.25386399030685425 0.21212641894817352 0.72135531902313232
0.37637650966644287 0.21770951151847839 0.728188157081604
0.57816088199615479 0.23436394333839417 0.75808501243591309
0.79549431800842285 0.32750764489173889 0.82759350538253784
0.95253086090087891 0.41445121169090271 0.87254577875137329
0.069106064736843109 0.3479861319065094 0.71188372373580933
0.17200872302055359 0.35778024792671204 0.71850341558456421
0.25600898265838623 0.36812460422515869 0.73588591814041138
0.35465681552886963 0.39342033863067627 0.76086151599884033
0.59849882125854492 0.44051265716552734 0.81424486637115479
0.85593497753143311 0.51795828342437744 0.87268626689910889
0.983551025390625 0.56504219770431519 0.89270561933517456
0.099684730172157288 0.50527417659759521 0.73424679040908813
0.19406235218048096 0.51360392570495605 0.74012118577957153
0.28346690535545349 0.53180468082427979 0.76003462076187134
0.36938092112541199 0.57437700033187866 0.79441773891448975
0.61154162883758545 0.65219354629516602 0.85065954923629761
0.89237380027770996 0.70846295356750488 0.88694697618484497
0.99473458528518677 0.72646641731262207 0.8927919864654541
0.13773904740810394 0.6683729887008667 0.76621764898300171
0.22373354434967041 0.67645561695098877 0.77411365509033203
0.31633779406547546 0.70048350095748901 0.79140406847000122
0.40200400352478027 0.76341599225997925 0.82657992839813232
0.58034354448318481 0.83961302042007446 0.87724089622497559
0.89335954189300537 0.86551499366760254 0.89130312204360962
0.99340248107910156 0.87298053503036499 0.89732265472412109
0.17642194032669067 0.8399931788444519 0.80069321393966675
0.25765734910964966 0.8489309549331665 0.80780738592147827
0.34726953506469727 0.86697030067443848 0.82322067022323608
0.44113802909851074 0.91250669956207275 0.85599106550216675
0.60909348726272583 0.96480017900466919 0.89466458559036255
0.8933643102645874 0.97109049558639526 0.90049433708190918
0.99527585506439209 0.97824758291244507 0.90318721532821655
