assets/lut/editingcorpw Bluebell Bliss.cube
LUT_3D_SIZE 16
DOMAIN_MIN 0.0 0.0 0.0
DOMAIN_MAX 1.0 1.0 1.0
0.018708 0.018708 0.018708
0.019248 0.019248 0.019248
0.019834 0.019834 0.019834
0.020685 0.020685 0.020685
0.024538 0.024497 0.024497
0.037008 0.036077 0.036103
0.060357 0.051850 0.051127
0.103276 0.062208 0.053791
0.168614 0.054560 0.025900
0.262446 0.051845 0.027560
0.409914 0.060838 0.057593
0.516737 0.080192 0.099463
0.596985 0.117513 0.138272
0.666166 0.173916 0.168227
0.725757 0.229535 0.193267
0.770657 0.292699 0.209110
0.020509 0.020509 0.020509
0.021035 0.021035 0.021035
0.021569 0.021569 0.021569
0.022635 0.022633 0.022633
0.028125 0.028019 0.028017
0.043538 0.041455 0.041326
0.072743 0.057498 0.055132
0.128515 0.061120 0.043037
0.202740 0.053896 0.019091
0.332852 0.058150 0.039834
0.473371 0.075451 0.080811
0.561606 0.102948 0.124056
0.638261 0.155182 0.158455
0.700780 0.211316 0.184957
0.754976 0.270294 0.206296
0.783364 0.331910 0.212621
0.022356 0.022356 0.022352
0.023030 0.023030 0.023029
0.023803 0.023803 0.023803
0.025456 0.025439 0.025432
0.034492 0.034115 0.034031
0.054039 0.049678 0.048960
0.096553 0.062987 0.054085
0.163266 0.060351 0.027902
0.258158 0.058832 0.025438
0.400484 0.070022 0.055689
0.511220 0.091171 0.099651
0.592498 0.127564 0.139029
0.661867 0.181569 0.168932
0.720492 0.236180 0.193181
0.768516 0.296858 0.210468
0.788352 0.353147 0.211709
0.025693 0.025718 0.025699
0.027318 0.027363 0.027325
0.029354 0.029430 0.029350
0.032416 0.032457 0.032295
0.042648 0.042071 0.041455
0.066739 0.058312 0.055085
0.114984 0.067900 0.050491
0.184762 0.063017 0.020336
0.283242 0.064998 0.025749
0.421297 0.079438 0.060707
0.523640 0.101095 0.104487
0.603070 0.142600 0.142177
0.670956 0.196125 0.171230
0.728760 0.251662 0.194602
0.773453 0.312209 0.209685
0.790582 0.364809 0.209345
0.039820 0.040979 0.040154
0.043949 0.045702 0.044372
0.047466 0.049675 0.047777
0.050843 0.053100 0.050554
0.059030 0.060137 0.055603
0.081187 0.071697 0.060516
0.137479 0.077443 0.038370
0.207035 0.076503 0.010004
0.311725 0.080946 0.025499
0.443753 0.095789 0.065565
0.538412 0.117326 0.110116
0.616465 0.153644 0.147057
0.680694 0.204670 0.174149
0.737833 0.263330 0.196739
0.776645 0.325724 0.207942
0.792765 0.377817 0.206548
0.060192 0.072272 0.063844
0.063109 0.078964 0.067398
0.065688 0.084189 0.069500
0.068961 0.087905 0.070214
0.076617 0.094523 0.070906
0.101254 0.101076 0.060934
0.157203 0.097001 0.024795
0.233891 0.104907 0.004373
0.346165 0.123975 0.024728
0.472888 0.148256 0.072361
0.566664 0.170982 0.119153
0.641418 0.197026 0.154680
0.700641 0.231396 0.180639
0.751942 0.279438 0.200909
0.780759 0.336425 0.206947
0.792798 0.375473 0.205310
0.061598 0.119938 0.081403
0.061878 0.128347 0.083178
0.064000 0.133400 0.083132
0.068594 0.137001 0.081721
0.079413 0.142284 0.078498
0.104596 0.154716 0.071732
0.166440 0.153636 0.040264
0.251214 0.146376 0.007318
0.385052 0.170858 0.032431
0.513226 0.207722 0.083966
0.603357 0.244222 0.128482
0.673986 0.279780 0.160360
0.729858 0.319103 0.183176
0.773996 0.364155 0.198168
0.789690 0.407106 0.197064
0.797620 0.422948 0.196781
0.046079 0.179294 0.098611
0.047951 0.187125 0.101004
0.052240 0.191329 0.100897
0.059812 0.194591 0.099355
0.072898 0.198867 0.096090
0.098130 0.213969 0.092627
0.160896 0.239170 0.079520
0.266231 0.237729 0.041729
0.415795 0.234653 0.042898
0.549921 0.268662 0.093666
0.639112 0.313207 0.135554
0.703605 0.358201 0.161671
0.755271 0.405141 0.179784
0.785362 0.454165 0.185064
0.793794 0.493343 0.180622
0.800430 0.505649 0.180466
0.037129 0.246695 0.127382
0.041031 0.255508 0.130929
0.046883 0.259565 0.131242
0.054570 0.262982 0.130193
0.068384 0.268491 0.126750
0.090978 0.284965 0.121957
0.152952 0.325803 0.117922
0.276708 0.364155 0.101700
0.436628 0.351770 0.068533
0.573239 0.348174 0.095521
0.664413 0.382284 0.135136
0.724583 0.427715 0.158039
0.770539 0.475629 0.172686
0.786408 0.525032 0.172070
0.792291 0.556657 0.169801
0.798864 0.563907 0.170851
0.040709 0.331774 0.165699
0.046873 0.340945 0.169175
0.053705 0.345224 0.169618
0.062347 0.349875 0.168934
0.076396 0.357196 0.165798
0.099719 0.374481 0.160157
0.158309 0.422681 0.156819
0.283659 0.483591 0.157213
0.452472 0.508212 0.135142
0.585581 0.469534 0.107208
0.674587 0.466192 0.128317
0.736846 0.497752 0.152047
0.774163 0.542935 0.163890
0.783620 0.588825 0.164068
0.789325 0.609305 0.164508
0.796125 0.614508 0.165984
0.053346 0.431118 0.207091
0.059964 0.439476 0.209579
0.066991 0.444079 0.209847
0.075701 0.449375 0.209352
0.089858 0.458429 0.206567
0.114336 0.477669 0.199588
0.171589 0.525667 0.194148
0.298173 0.589001 0.195201
0.468127 0.644146 0.194609
0.592701 0.636438 0.163095
0.674637 0.582076 0.133568
0.738436 0.584747 0.148361
0.773582 0.610968 0.159778
0.779966 0.646180 0.161936
0.786109 0.660942 0.163659
0.793016 0.664286 0.164996
0.067690 0.534080 0.245024
0.074767 0.541632 0.246601
0.081969 0.545753 0.246409
0.089970 0.550410 0.246281
0.104202 0.560987 0.244321
0.129736 0.580524 0.235619
0.192461 0.626316 0.227024
0.312893 0.683407 0.227083
0.474316 0.733940 0.228475
0.606243 0.764681 0.228593
0.675478 0.741703 0.190957
0.734581 0.696230 0.161637
0.768779 0.692655 0.163809
0.776615 0.705595 0.165846
0.783276 0.710101 0.166742
0.790211 0.713667 0.167861
0.084785 0.636823 0.277555
0.091912 0.642200 0.278185
0.099146 0.646061 0.278051
0.106906 0.650930 0.278559
0.119473 0.661797 0.278747
0.148290 0.683008 0.267676
0.212513 0.719445 0.255982
0.333859 0.766035 0.256216
0.481401 0.806643 0.258741
0.608347 0.838168 0.267674
0.689103 0.854816 0.275540
0.734957 0.833906 0.232271
0.765345 0.791277 0.186848
0.774107 0.777000 0.177357
0.781139 0.765569 0.174696
0.788165 0.762026 0.173977
0.101511 0.731723 0.308974
0.108700 0.736304 0.309221
0.116070 0.740210 0.309211
0.123895 0.744852 0.310035
0.138893 0.757410 0.309803
0.170276 0.776593 0.296838
0.241724 0.803162 0.285914
0.357536 0.838793 0.287610
0.489720 0.873866 0.294032
0.603516 0.904987 0.306127
0.686762 0.928520 0.322469
0.750641 0.936331 0.329900
0.785036 0.914267 0.285100
0.780422 0.868888 0.219272
0.780478 0.840149 0.191309
0.786967 0.830242 0.187973
0.122277 0.815824 0.343679
0.129993 0.819426 0.343803
0.137622 0.822737 0.343829
0.147643 0.828416 0.343423
0.168933 0.843835 0.340635
0.204312 0.861623 0.329513
0.277688 0.881278 0.322334
0.383070 0.908990 0.324781
0.495815 0.931020 0.327677
0.594346 0.943008 0.328750
0.671587 0.950337 0.332665
0.742910 0.956988 0.340725
0.800394 0.961621 0.343466
0.811917 0.958171 0.333365
0.804996 0.934851 0.284438
0.807386 0.925568 0.269276
0.150607 0.886198 0.370932
0.157294 0.886759 0.369661
0.164322 0.887792 0.368658
0.175149 0.894023 0.368463
0.196386 0.910175 0.367761
0.233580 0.922454 0.357524
0.301471 0.929472 0.348198
0.394163 0.936619 0.339966
0.495330 0.944532 0.333519
0.589217 0.952040 0.330925
0.665736 0.958399 0.333242
0.736106 0.964813 0.340625
0.798914 0.970260 0.344961
0.814908 0.971234 0.342976
0.821923 0.971625 0.341294
0.828824 0.971832 0.339483
0.018840 0.018840 0.018840
0.019442 0.019442 0.019442
0.020012 0.020012 0.020012
0.020834 0.020834 0.020834
0.024592 0.024547 0.024553
0.036965 0.036072 0.036127
0.060202 0.051839 0.051352
0.103119 0.062400 0.054769
0.169162 0.054667 0.027075
0.264173 0.052016 0.029657
0.412107 0.061459 0.060857
0.518757 0.081357 0.103296
0.599521 0.120038 0.142327
0.668356 0.176589 0.172266
0.727927 0.232280 0.197420
0.771541 0.295677 0.212714
0.020674 0.020674 0.020674
0.021186 0.021186 0.021186
0.021753 0.021753 0.021753
0.022806 0.022805 0.022805
0.028180 0.028091 0.028092
0.043717 0.041637 0.041602
0.073411 0.057826 0.055754
0.130169 0.061225 0.043701
0.206064 0.054092 0.021155
0.338199 0.058903 0.043395
0.477572 0.076763 0.085389
0.564233 0.104839 0.128494
0.640488 0.157663 0.162675
0.702684 0.213649 0.189185
0.756373 0.272965 0.210466
0.783884 0.334275 0.216607
0.022562 0.022562 0.022562
0.023273 0.023273 0.023273
0.024084 0.024086 0.024084
0.025855 0.025843 0.025841
0.034914 0.034535 0.034490
0.054685 0.050313 0.049796
0.098197 0.063632 0.055165
0.165657 0.060328 0.028310
0.261883 0.059283 0.028281
0.404711 0.071035 0.059878
0.513132 0.092294 0.103992
0.594128 0.129306 0.143242
0.663175 0.183385 0.173274
0.721669 0.237963 0.197681
0.769217 0.298594 0.215010
0.788638 0.354576 0.216325
0.026176 0.026208 0.026189
0.027916 0.027969 0.027931
0.030271 0.030371 0.030282
0.033694 0.033755 0.033579
0.043844 0.043212 0.042652
0.067959 0.059408 0.056458
0.116726 0.068764 0.052086
0.186627 0.063169 0.021757
0.285396 0.065358 0.029173
0.423641 0.080165 0.065138
0.524788 0.101992 0.109053
0.604156 0.143991 0.146814
0.671842 0.197588 0.175998
0.729391 0.252944 0.199491
0.773792 0.313676 0.214777
0.790772 0.365837 0.214732
0.041091 0.042378 0.041552
0.045057 0.046917 0.045640
0.048576 0.050850 0.049084
0.052201 0.054499 0.052079
0.060350 0.061421 0.057124
0.082556 0.072636 0.062223
0.139574 0.078238 0.040378
0.209063 0.077240 0.012467
0.313665 0.082012 0.029749
0.445254 0.097029 0.070624
0.539351 0.118339 0.115254
0.617250 0.154341 0.152260
0.681074 0.205302 0.179506
0.738254 0.264000 0.202487
0.776852 0.326362 0.213945
0.792930 0.378727 0.212877
0.061121 0.073913 0.065626
0.064007 0.080703 0.069403
0.066552 0.085545 0.071524
0.069930 0.089212 0.072442
0.077789 0.096112 0.073559
0.102903 0.102710 0.064073
0.159657 0.097248 0.027403
0.235702 0.105470 0.007050
0.348317 0.125550 0.030546
0.474445 0.150366 0.078566
0.567070 0.172888 0.125069
0.641876 0.198662 0.160783
0.700922 0.232515 0.186939
0.752046 0.279887 0.207490
0.780634 0.336198 0.213868
0.792948 0.376320 0.212454
0.061556 0.122264 0.084603
0.062032 0.130057 0.086638
0.064312 0.134843 0.086917
0.069291 0.138210 0.085911
0.080258 0.143525 0.083431
0.105616 0.156564 0.078126
0.168660 0.154321 0.045580
0.253136 0.146478 0.011791
0.387046 0.171615 0.039462
0.514067 0.208662 0.091121
0.603794 0.245518 0.135573
0.674276 0.281331 0.167463
0.729931 0.320422 0.190385
0.774063 0.365143 0.205679
0.790010 0.408127 0.204978
0.797979 0.423881 0.204878
0.046503 0.180861 0.103757
0.048634 0.188316 0.106472
0.053157 0.192098 0.106735
0.060958 0.195182 0.105618
0.074199 0.199296 0.102816
0.099823 0.214906 0.099750
0.163436 0.240442 0.086559
0.268625 0.238542 0.048492
0.417930 0.234543 0.050489
0.550714 0.269112 0.101698
0.639389 0.313442 0.143634
0.703578 0.358222 0.169782
0.755370 0.405110 0.188139
0.785809 0.454037 0.193763
0.794490 0.493178 0.189540
0.801182 0.505727 0.189486
0.038266 0.248082 0.133800
0.042251 0.256317 0.137488
0.048136 0.259757 0.137858
0.055968 0.263041 0.137049
0.070051 0.268527 0.133811
0.092622 0.285136 0.129259
0.155692 0.326221 0.125371
0.279321 0.364834 0.109393
0.438820 0.351493 0.075897
0.573986 0.347551 0.104047
0.664562 0.381606 0.143934
0.724905 0.427254 0.167003
0.771268 0.475121 0.181899
0.787271 0.524115 0.181233
0.793295 0.556068 0.178880
0.799861 0.563768 0.179926
0.042258 0.332704 0.172741
0.048379 0.341080 0.176080
0.055187 0.345311 0.176719
0.063992 0.349704 0.176237
0.078054 0.356595 0.173163
0.101786 0.374764 0.167879
0.160762 0.422956 0.164741
0.287031 0.483559 0.165022
0.454445 0.507951 0.142849
0.586813 0.468487 0.115396
0.675562 0.465654 0.137288
0.737488 0.496924 0.161079
0.775170 0.541990 0.173140
0.784765 0.587772 0.173145
0.790472 0.608793 0.173560
0.797225 0.613919 0.174979
0.054914 0.431457 0.214437
0.061523 0.439539 0.217008
0.068474 0.443645 0.217346
0.077147 0.448346 0.216877
0.091586 0.457606 0.214259
0.116326 0.477652 0.207529
0.174338 0.525760 0.202039
0.300889 0.588828 0.203220
0.470968 0.643875 0.202533
0.594447 0.635935 0.171176
0.675831 0.580785 0.141901
0.739473 0.583910 0.157151
0.774888 0.610359 0.168771
0.781213 0.645186 0.170804
0.787297 0.660394 0.172484
0.794183 0.663936 0.173821
0.069331 0.534323 0.252900
0.076223 0.540979 0.254235
0.083384 0.544689 0.254099
0.091522 0.549466 0.254078
0.105930 0.560519 0.252307
0.131770 0.579969 0.243378
0.195032 0.626237 0.234997
0.316444 0.683549 0.235279
0.477317 0.733597 0.236590
0.607984 0.764069 0.236738
0.676763 0.741209 0.199266
0.736016 0.695198 0.169944
0.770077 0.691719 0.172267
0.777853 0.704929 0.174383
0.784529 0.709796 0.175384
0.791393 0.713133 0.176515
0.086234 0.636053 0.285455
0.093384 0.641372 0.286044
0.100595 0.645085 0.285977
0.108328 0.649849 0.286489
0.120959 0.660872 0.286716
0.150212 0.682431 0.275480
0.214956 0.719241 0.264026
0.336661 0.765480 0.264326
0.484357 0.806228 0.266830
0.610544 0.837701 0.275772
0.690712 0.854228 0.283885
0.735615 0.832698 0.238518
0.766529 0.790242 0.194500
0.775332 0.776554 0.185805
0.782300 0.765050 0.183079
0.789294 0.761365 0.182422
0.102983 0.731275 0.317005
0.110191 0.735610 0.317293
0.117500 0.739242 0.317163
0.125298 0.743764 0.318100
0.140619 0.756561 0.317734
0.171846 0.775744 0.304592
0.244571 0.802521 0.294002
0.360500 0.838217 0.295672
0.492429 0.873354 0.302244
0.605541 0.904157 0.314166
0.688333 0.927482 0.330512
0.752327 0.935739 0.338344
0.786196 0.913350 0.292312
0.781220 0.867877 0.226227
0.781562 0.839496 0.199544
0.788190 0.829474 0.196341
0.123593 0.814906 0.351745
0.131321 0.818589 0.352002
0.138894 0.821761 0.351917
0.149191 0.827858 0.351685
0.170256 0.842898 0.348639
0.206211 0.860731 0.337397
0.280439 0.880746 0.330443
0.385971 0.908718 0.333071
0.498221 0.930569 0.335878
0.596549 0.942592 0.337092
0.673565 0.949938 0.341114
0.744483 0.956575 0.349080
0.802114 0.961200 0.351706
0.813301 0.957721 0.341655
0.805675 0.933821 0.290876
0.809347 0.924479 0.279620
0.151797 0.885034 0.378909
0.158711 0.886005 0.377927
0.165744 0.887151 0.376940
0.176806 0.893555 0.376816
0.198368 0.910250 0.376276
0.235918 0.922221 0.365816
0.304102 0.929034 0.356330
0.396678 0.936138 0.348041
0.497928 0.944105 0.341703
0.591295 0.951555 0.339288
0.667432 0.957948 0.341658
0.737711 0.964413 0.349051
0.800692 0.969860 0.353218
0.816256 0.970744 0.351308
0.823235 0.971088 0.349579
0.830172 0.971358 0.347828
0.019033 0.019033 0.019033
0.019664 0.019664 0.019664
0.020264 0.020266 0.020266
0.021089 0.021089 0.021089
0.024666 0.024625 0.024637
0.036932 0.036040 0.036154
0.059696 0.051699 0.051595
0.102535 0.062512 0.056093
0.168549 0.054916 0.029473
0.263943 0.052107 0.032761
0.412366 0.061798 0.065205
0.519156 0.082011 0.108215
0.600057 0.121147 0.147649
0.669041 0.177972 0.178089
0.728257 0.233204 0.203489
0.771508 0.296395 0.219078
0.020933 0.020933 0.020933
0.021456 0.021460 0.021460
0.022049 0.022049 0.022049
0.023130 0.023130 0.023130
0.028235 0.028146 0.028167
0.043667 0.041640 0.041761
0.073300 0.057982 0.056628
0.130250 0.061539 0.045907
0.207638 0.054256 0.024390
0.340124 0.059342 0.048322
0.478289 0.077226 0.090814
0.564392 0.105855 0.134135
0.640642 0.158669 0.168701
0.702556 0.214205 0.195511
0.756167 0.273359 0.217153
0.783833 0.334828 0.223779
0.023029 0.023032 0.023032
0.023839 0.023842 0.023842
0.024762 0.024766 0.024767
0.026503 0.026494 0.026498
0.035162 0.034792 0.034818
0.054624 0.050503 0.050416
0.097741 0.064064 0.057490
0.165456 0.060191 0.031124
0.261472 0.059370 0.032618
0.403774 0.071087 0.065240
0.511968 0.092324 0.109475
0.593278 0.130019 0.149052
0.662313 0.183586 0.179457
0.720786 0.237876 0.204248
0.768850 0.298407 0.222308
0.788452 0.354407 0.224223
0.026659 0.026702 0.026692
0.028766 0.028838 0.028816
0.031642 0.031757 0.031713
0.035033 0.035095 0.035013
0.044206 0.043641 0.043348
0.067580 0.059636 0.057753
0.115894 0.069867 0.056209
0.185881 0.063878 0.025829
0.282836 0.066118 0.033817
0.421172 0.080952 0.070586
0.523092 0.102402 0.114838
0.602319 0.143256 0.152819
0.670405 0.196896 0.182597
0.728197 0.252461 0.206599
0.773123 0.312997 0.222589
0.790521 0.365335 0.223104
0.042004 0.043375 0.042711
0.045949 0.047853 0.046898
0.049362 0.051627 0.050355
0.052933 0.055136 0.053422
0.060653 0.061609 0.058491
0.082031 0.072839 0.065046
0.137852 0.078839 0.046701
0.207224 0.077407 0.018194
0.309967 0.082649 0.035338
0.441831 0.097506 0.076420
0.536682 0.117892 0.121174
0.614952 0.153178 0.158632
0.679524 0.204606 0.186487
0.736735 0.262907 0.209857
0.776223 0.325229 0.222175
0.792838 0.378745 0.221581
0.061804 0.074970 0.067746
0.064605 0.081505 0.071945
0.067169 0.086138 0.074671
0.070571 0.089561 0.075946
0.078354 0.095784 0.077481
0.102240 0.102607 0.069995
0.158658 0.097086 0.034973
0.233495 0.104765 0.013968
0.343631 0.124452 0.037103
0.470617 0.149401 0.084852
0.564053 0.172369 0.131474
0.639472 0.197697 0.167544
0.698649 0.230707 0.193936
0.750288 0.277983 0.215014
0.780152 0.335027 0.222437
0.792896 0.376823 0.221257
0.062011 0.122704 0.089426
0.062485 0.130357 0.092434
0.064852 0.134869 0.093552
0.070032 0.137976 0.092817
0.080814 0.142906 0.091092
0.104943 0.155638 0.087052
0.167907 0.153025 0.053989
0.251133 0.145009 0.019457
0.382602 0.170329 0.046482
0.510984 0.207873 0.098182
0.600866 0.244574 0.142710
0.671966 0.280299 0.174929
0.728068 0.319252 0.198287
0.773020 0.363437 0.214278
0.789908 0.406011 0.214339
0.798083 0.422329 0.214355
0.047349 0.180808 0.111302
0.049501 0.188061 0.114537
0.054056 0.191366 0.115285
0.061881 0.194281 0.114425
0.075295 0.198397 0.111794
0.100949 0.213216 0.108391
0.163434 0.238293 0.094792
0.268012 0.236798 0.056606
0.415855 0.232770 0.058228
0.548035 0.267771 0.109306
0.636891 0.312187 0.151444
0.701962 0.356967 0.178214
0.754000 0.403448 0.196840
0.785804 0.451973 0.203279
0.795112 0.492206 0.199175
0.801908 0.505218 0.199069
0.039580 0.247252 0.141982
0.043512 0.255334 0.146042
0.049398 0.258558 0.146559
0.057368 0.261729 0.145567
0.071577 0.267115 0.142256
0.094020 0.283301 0.137542
0.156606 0.323699 0.133116
0.277611 0.362093 0.117297
0.436802 0.349121 0.083255
0.572181 0.345828 0.112196
0.663282 0.380392 0.152612
0.723707 0.425693 0.175864
0.771256 0.473341 0.191396
0.788166 0.522399 0.190960
0.794253 0.555679 0.188303
0.800844 0.563310 0.189353
0.043753 0.331892 0.181170
0.049851 0.340415 0.184661
0.056607 0.344104 0.185225
0.065269 0.348112 0.184481
0.079357 0.355326 0.181624
0.103409 0.373095 0.176033
0.161117 0.419807 0.172253
0.286102 0.479510 0.172160
0.453456 0.505310 0.150402
0.585864 0.466814 0.123762
0.675015 0.464000 0.146000
0.737005 0.495430 0.170025
0.775998 0.540539 0.182669
0.785976 0.585874 0.182607
0.791561 0.608657 0.182729
0.798310 0.614038 0.184117
0.056521 0.430895 0.222888
0.062978 0.438337 0.225322
0.069992 0.442639 0.226002
0.078594 0.447253 0.225385
0.093217 0.456490 0.222553
0.117596 0.475186 0.215475
0.176065 0.522885 0.209712
0.300337 0.585308 0.210742
0.468461 0.639818 0.209852
0.592864 0.633941 0.179598
0.675292 0.579720 0.150253
0.739575 0.582359 0.165836
0.776122 0.608311 0.177981
0.782465 0.644113 0.179860
0.788456 0.660345 0.181519
0.795323 0.663758 0.182836
0.070861 0.533398 0.261286
0.077833 0.540017 0.262654
0.085022 0.543948 0.262724
0.093027 0.548344 0.262436
0.107425 0.559000 0.260512
0.133394 0.578383 0.251710
0.195281 0.622512 0.242481
0.314942 0.678983 0.242587
0.475151 0.729850 0.243942
0.607031 0.761665 0.244451
0.676084 0.739262 0.207061
0.736111 0.693089 0.178003
0.771230 0.690193 0.180911
0.779102 0.704162 0.183135
0.785716 0.709676 0.184221
0.792628 0.713246 0.185396
0.087788 0.635667 0.294135
0.094883 0.640370 0.294531
0.102104 0.644027 0.294541
0.109943 0.648904 0.295172
0.122449 0.659672 0.295244
0.151210 0.680258 0.283803
0.215046 0.715597 0.271751
0.336149 0.762134 0.271777
0.483006 0.803297 0.274231
0.608890 0.834820 0.282784
0.689822 0.851727 0.290979
0.735262 0.831020 0.247050
0.767537 0.788757 0.202970
0.776543 0.775566 0.194241
0.783545 0.764627 0.191746
0.790537 0.761224 0.191185
0.104471 0.730430 0.325524
0.111771 0.734743 0.325993
0.119171 0.738668 0.326104
0.126921 0.742901 0.326846
0.141973 0.755112 0.326253
0.172658 0.774039 0.313237
0.244642 0.799780 0.302156
0.358714 0.834635 0.302948
0.490016 0.869406 0.309002
0.604021 0.900332 0.320522
0.686843 0.924322 0.336902
0.751086 0.933697 0.345843
0.787216 0.912101 0.301651
0.782239 0.866611 0.233781
0.782709 0.838485 0.207896
0.789393 0.828072 0.204652
0.125255 0.814367 0.360607
0.132866 0.817947 0.360854
0.140417 0.820875 0.360626
0.150574 0.826851 0.360359
0.171257 0.841321 0.357424
0.206881 0.858473 0.346047
0.279147 0.877448 0.338288
0.384832 0.905828 0.340720
0.497571 0.928968 0.343684
0.595412 0.941826 0.345282
0.672352 0.949216 0.349162
0.743090 0.955822 0.356873
0.802292 0.960660 0.359978
0.814504 0.956941 0.349399
0.806550 0.932288 0.297833
0.810895 0.922606 0.288477
0.153378 0.884293 0.387511
0.160389 0.885502 0.386762
0.167707 0.887132 0.386205
0.178582 0.893304 0.386166
0.199962 0.909734 0.385652
0.236796 0.921524 0.374779
0.305045 0.928472 0.365003
0.397484 0.935522 0.357030
0.497449 0.943371 0.350367
0.589904 0.950778 0.347641
0.665976 0.957240 0.349734
0.735660 0.963716 0.356982
0.800965 0.969236 0.361269
0.817643 0.970256 0.359556
0.824599 0.970526 0.357847
0.831556 0.970867 0.356261
0.021073 0.021079 0.021079
0.021720 0.021726 0.021732
0.022777 0.022791 0.022794
0.023865 0.023879 0.023884
0.026149 0.026123 0.026151
0.036588 0.035802 0.036031
0.057809 0.050977 0.051605
0.099569 0.062186 0.058284
0.164662 0.055023 0.034122
0.259672 0.051678 0.037134
0.408533 0.060768 0.070741
0.517330 0.082412 0.114373
0.598572 0.122897 0.154162
0.667953 0.178246 0.185097
0.727603 0.233374 0.211058
0.771048 0.296180 0.227124
0.024082 0.024107 0.024118
0.024722 0.024754 0.024762
0.025633 0.025670 0.025677
0.026733 0.026760 0.026772
0.030042 0.029979 0.030040
0.043887 0.042151 0.042566
0.072148 0.058353 0.058544
0.126651 0.062092 0.051462
0.203050 0.052655 0.028756
0.335875 0.058222 0.054011
0.475460 0.077425 0.096677
0.562075 0.113110 0.139943
0.639009 0.162311 0.175268
0.701754 0.214803 0.202898
0.755856 0.273958 0.225145
0.783709 0.335761 0.232178
0.027431 0.027493 0.027523
0.028551 0.028643 0.028673
0.029687 0.029806 0.029840
0.032190 0.032331 0.032375
0.038137 0.037989 0.038153
0.054708 0.051666 0.052355
0.095994 0.065997 0.063394
0.160650 0.060473 0.038852
0.254026 0.057568 0.038317
0.396910 0.068469 0.070797
0.507583 0.098329 0.114304
0.589880 0.140076 0.154341
0.660536 0.186744 0.186128
0.719973 0.238573 0.211784
0.768388 0.298586 0.230354
0.788125 0.354121 0.232733
0.032411 0.032678 0.032749
0.035179 0.035533 0.035642
0.038171 0.038617 0.038745
0.041425 0.041912 0.042071
0.047100 0.047262 0.047452
0.066380 0.061148 0.061284
0.111906 0.073869 0.067292
0.181127 0.065685 0.035413
0.275126 0.066100 0.038789
0.413891 0.080530 0.075321
0.518401 0.106055 0.119578
0.598934 0.150040 0.158478
0.668464 0.198232 0.189391
0.727010 0.252004 0.214174
0.772534 0.312662 0.230833
0.790263 0.365012 0.231845
0.044192 0.045908 0.045763
0.048043 0.050449 0.050329
0.051550 0.054359 0.054301
0.055095 0.057633 0.057574
0.060804 0.062214 0.061798
0.078838 0.073539 0.070753
0.132020 0.082065 0.061037
0.202585 0.079790 0.028255
0.300408 0.086500 0.039160
0.432325 0.103640 0.079710
0.530602 0.123029 0.125274
0.609802 0.150717 0.163951
0.675881 0.201197 0.192804
0.734018 0.261315 0.216823
0.775377 0.323827 0.230518
0.792613 0.378226 0.230494
0.062090 0.077109 0.073107
0.064583 0.084334 0.079359
0.066946 0.088793 0.083198
0.070134 0.091193 0.084580
0.077770 0.094868 0.085468
0.097695 0.101566 0.082825
0.151302 0.100438 0.055189
0.224673 0.104278 0.025605
0.330489 0.121242 0.041654
0.459992 0.145703 0.088389
0.554370 0.167405 0.134851
0.630828 0.190101 0.171821
0.691545 0.222133 0.199162
0.744245 0.269233 0.221141
0.778260 0.327163 0.231223
0.792603 0.375744 0.230293
0.060238 0.125223 0.101817
0.059656 0.133250 0.107757
0.061311 0.137929 0.110951
0.066484 0.140191 0.110369
0.079210 0.142242 0.106005
0.100662 0.150735 0.102001
0.160095 0.150183 0.070061
0.242385 0.143237 0.031211
0.366375 0.167833 0.050226
0.498328 0.204711 0.100365
0.589483 0.240692 0.145699
0.661981 0.273915 0.179067
0.717948 0.308335 0.203084
0.766031 0.347929 0.221962
0.787733 0.387964 0.225777
0.797106 0.411467 0.225296
0.043688 0.182045 0.128268
0.044554 0.189321 0.133841
0.048562 0.192588 0.135811
0.056542 0.194819 0.134251
0.072757 0.197300 0.128264
0.098378 0.207369 0.122793
