assets/lut/editingcorp basuco.cube
# Created by: G'MIC (https://gmic.eu)
TITLE "basuco"
# LUT size
LUT_3D_SIZE 13
# Data domain
DOMAIN_MIN 0.0 0.0 0.0
DOMAIN_MAX 1.0 1.0 1.0
# LUT data points
0.0029268153011798859 0.0015199847985059023 0.0054615093395113945
0.051918461918830872 0.0012887243647128344 0.0084570040926337242
0.15144571661949158 0.0035284603945910931 0.0052562789060175419
0.24986322224140167 0.0056689544580876827 0.0062675923109054565
0.36116591095924377 0.0090068597346544266 0.0094035426154732704
0.49268913269042969 0.022431707009673119 0.0095395855605602264
0.61504930257797241 0.045134153217077255 0.015152576379477978
0.70614743232727051 0.060912996530532837 0.021807098761200905
0.76173466444015503 0.05373058095574379 0.017921822145581245
0.79573708772659302 0.037218056619167328 0.011655679903924465
0.82675695419311523 0.030622011050581932 0.0099254986271262169
0.8604845404624939 0.036583244800567627 0.011187070980668068
0.89642822742462158 0.045209668576717377 0.01343847531825304
0.0048544490709900856 0.059563372284173965 0.012466101907193661
0.049164101481437683 0.057418268173933029 0.016261665150523186
0.13914583623409271 0.054790586233139038 0.011064267717301846
0.23128111660480499 0.057798437774181366 0.0066132191568613052
0.34171932935714722 0.06178843230009079 0.010371982119977474
0.47814467549324036 0.071356169879436493 0.012189692817628384
0.60525232553482056 0.08851294219493866 0.01584472693502903
0.69871425628662109 0.10275036841630936 0.019528228789567947
0.75957667827606201 0.10298287123441696 0.017968107014894485
0.7983546257019043 0.094170711934566498 0.015406305901706219
0.82965153455734253 0.089213304221630096 0.015882978215813637
0.86186712980270386 0.094438426196575165 0.01862080954015255
0.89662039279937744 0.102599136531353 0.02157796174287796
0.0050344876945018768 0.14258754253387451 0.013883583247661591
0.046584334224462509 0.139126256108284 0.013829115778207779
0.12638993561267853 0.1331806480884552 0.0092549789696931839
0.21624007821083069 0.13088107109069824 0.0054349713027477264
0.32200753688812256 0.1307184249162674 0.0080471858382225037
0.45858782529830933 0.12954844534397125 0.010624410584568977
0.58822643756866455 0.13644306361675262 0.014158256351947784
0.68666613101959229 0.14687581360340118 0.017755111679434776
0.75468885898590088 0.15031082928180695 0.019961832091212273
0.80003035068511963 0.147488072514534 0.022110059857368469
0.83343863487243652 0.14457608759403229 0.025907987728714943
0.86506122350692749 0.14745190739631653 0.030158309265971184
0.89820361137390137 0.15405756235122681 0.03351491317152977
0.005642580334097147 0.19948393106460571 0.020660609006881714
0.044776137918233871 0.1969391256570816 0.017577271908521652
0.11293952912092209 0.19407519698143005 0.011689414270222187
0.19841274619102478 0.19284379482269287 0.0080657657235860825
0.30513927340507507 0.18978868424892426 0.0084202783182263374
0.43978822231292725 0.18708351254463196 0.0094892317429184914
0.57141977548599243 0.19064095616340637 0.012827480211853981
0.67593234777450562 0.19732289016246796 0.018567508086562157
0.75147223472595215 0.20176222920417786 0.024689065292477608
0.80372577905654907 0.20175623893737793 0.030671751126646996
0.84033524990081787 0.20079657435417175 0.036570455878973007
0.87141114473342896 0.20127630233764648 0.042138058692216873
0.90204727649688721 0.20578351616859436 0.045911811292171478
0.0080643445253372192 0.26151576638221741 0.030149707570672035
0.043150957673788071 0.25905004143714905 0.025964908301830292
0.09858500212430954 0.25876244902610779 0.019601050764322281
0.17669931054115295 0.25805053114891052 0.014175893738865852
0.28773218393325806 0.25537502765655518 0.011027257889509201
0.42944663763046265 0.25243979692459106 0.010496341623365879
0.5648379921913147 0.25362581014633179 0.014317740686237812
0.67103773355484009 0.25833112001419067 0.022104240953922272
0.75162851810455322 0.2632385790348053 0.031079400330781937
0.81028163433074951 0.26521804928779602 0.039124343544244766
0.85062891244888306 0.26434966921806335 0.045959740877151489
0.88140439987182617 0.26355829834938049 0.051659334450960159
0.91028261184692383 0.26571708917617798 0.055664900690317154
0.013462844304740429 0.34250712394714355 0.039762146770954132
0.044110003858804703 0.34049081802368164 0.036579612642526627
0.087951138615608215 0.34139251708984375 0.031553305685520172
0.15411564707756042 0.34293350577354431 0.025805843994021416
0.26373183727264404 0.34200373291969299 0.020723620429635048
0.41982874274253845 0.33632293343544006 0.018372613936662674
0.56295210123062134 0.33254203200340271 0.021654091775417328
0.66833871603012085 0.3345845639705658 0.029342710971832275
0.75270068645477295 0.33873972296714783 0.038209684193134308
0.81755310297012329 0.34016796946525574 0.046495042741298676
0.86209660768508911 0.33891475200653076 0.052991516888141632
0.89371132850646973 0.33771434426307678 0.057973764836788177
0.92092782258987427 0.33869820833206177 0.061140365898609161
0.023436212912201881 0.43715563416481018 0.054010741412639618
0.050834357738494873 0.43626844882965088 0.052141465246677399
0.085070453584194183 0.43663197755813599 0.048694804310798645
0.1366070955991745 0.43848919868469238 0.044369760900735855
0.23408424854278564 0.43954432010650635 0.039878472685813904
0.38973984122276306 0.43496441841125488 0.036201521754264832
0.54410761594772339 0.43032649159431458 0.035842042416334152
0.66102498769760132 0.42919665575027466 0.039764136075973511
0.75274175405502319 0.42946708202362061 0.046186693012714386
0.82372188568115234 0.42669683694839478 0.053530391305685043
0.87297165393829346 0.42231070995330811 0.059820584952831268
0.90559959411621094 0.42009180784225464 0.064088501036167145
0.93173861503601074 0.42052918672561646 0.066235862672328949
0.03839275985956192 0.53660690784454346 0.073646128177642822
0.065861724317073822 0.53581428527832031 0.072325430810451508
0.093901783227920532 0.53386843204498291 0.070198759436607361
0.13250584900379181 0.53429418802261353 0.067501649260520935
0.20909000933170319 0.53546380996704102 0.063927233219146729
0.34986415505409241 0.53621453046798706 0.058681637048721313
0.51319140195846558 0.53614652156829834 0.053404729813337326
0.64687353372573853 0.53363275527954102 0.052162665873765945
0.748046875 0.52802067995071411 0.055713638663291931
0.82634162902832031 0.51759308576583862 0.062000587582588196
0.88128215074539185 0.50804001092910767 0.068322233855724335
0.91496938467025757 0.50522440671920776 0.072481535375118256
0.94035094976425171 0.50459259748458862 0.074178539216518402
0.057245723903179169 0.62657684087753296 0.093666568398475647
0.087852850556373596 0.62714368104934692 0.093517020344734192
0.11631921678781509 0.62675720453262329 0.092254295945167542
0.14640752971172333 0.62515991926193237 0.09043586254119873
0.20540890097618103 0.62507826089859009 0.086705103516578674
0.3264821469783783 0.63004332780838013 0.079616650938987732
0.48609337210655212 0.63542324304580688 0.070113837718963623
0.62599724531173706 0.63469082117080688 0.064929887652397156
0.73287147283554077 0.62625521421432495 0.066944465041160583
0.81840276718139648 0.61005759239196777 0.073222801089286804
0.88105762004852295 0.59459304809570312 0.07954280823469162
0.91879379749298096 0.5885390043258667 0.083744943141937256
0.94576603174209595 0.58637446165084839 0.084141872823238373
0.074134618043899536 0.69800132513046265 0.10892404615879059
0.10890860110521317 0.70035684108734131 0.10986801981925964
0.14072331786155701 0.70088034868240356 0.10975886136293411
0.16758707165718079 0.69927525520324707 0.10852426290512085
0.21267105638980865 0.7000696063041687 0.10550878196954727
0.30707576870918274 0.70862704515457153 0.099182814359664917
0.45224234461784363 0.7175828218460083 0.087638929486274719
0.59627091884613037 0.72017019987106323 0.078633897006511688
0.70857876539230347 0.71695131063461304 0.079467996954917908
0.79829752445220947 0.70304948091506958 0.086423106491565704
0.86874139308929443 0.68364262580871582 0.092634923756122589
0.91452449560165405 0.67304617166519165 0.095505326986312866
0.94542723894119263 0.66821616888046265 0.094166561961174011
0.083155706524848938 0.74946999549865723 0.11631335318088531
0.11872003227472305 0.75255876779556274 0.11859868466854095
0.15026578307151794 0.75218302011489868 0.11929454654455185
0.1772487610578537 0.74997967481613159 0.11837455630302429
0.21402165293693542 0.75222039222717285 0.11678502708673477
0.28638017177581787 0.7639651894569397 0.11317721754312515
0.41711029410362244 0.77537834644317627 0.10165801644325256
0.56744033098220825 0.78259903192520142 0.089701816439628601
0.68491369485855103 0.78897750377655029 0.089994736015796661
0.77595609426498413 0.78484904766082764 0.097349934279918671
0.85500246286392212 0.76545292139053345 0.10263942927122116
0.90960013866424561 0.75175637006759644 0.10360407829284668
0.94402551651000977 0.7461237907409668 0.10022100061178207
0.083166144788265228 0.78898888826370239 0.11567308008670807
0.11681895703077316 0.790091872215271 0.11888343840837479
0.14662942290306091 0.78829699754714966 0.12049390375614166
0.17433343827724457 0.78554856777191162 0.12066639959812164
0.20821502804756165 0.78827661275863647 0.12070415914058685
0.26887416839599609 0.80157411098480225 0.11893162131309509
0.38924244046211243 0.81518054008483887 0.10889620333909988
0.54104077816009521 0.82557207345962524 0.096428602933883667
0.66367036104202271 0.83710747957229614 0.096079684793949127
0.76100039482116699 0.83827310800552368 0.10253091156482697
0.84790509939193726 0.82380908727645874 0.10631812363862991
0.90930932760238647 0.81283241510391235 0.10530823469161987
0.94770199060440063 0.80980783700942993 0.10026799887418747
0.076050534844398499 0.82422530651092529 0.10841822624206543
0.10697687417268753 0.82406914234161377 0.11258365213871002
0.13437329232692719 0.82209891080856323 0.11568262428045273
0.16070814430713654 0.82006186246871948 0.11812347918748856
0.19141250848770142 0.82512670755386353 0.12061481922864914
0.24457848072052002 0.83824318647384644 0.12154766917228699
0.35446333885192871 0.8523324728012085 0.11425763368606567
0.5006445050239563 0.8640289306640625 0.10353562235832214
0.63078421354293823 0.8749840259552002 0.10060571134090424
0.73916471004486084 0.87744337320327759 0.10302086919546127
0.83305513858795166 0.86907088756561279 0.10394475609064102
0.90240997076034546 0.86247289180755615 0.10079210996627808
0.94805353879928589 0.86162149906158447 0.094847626984119415
0.0026644389145076275 0.0015145096695050597 0.071710653603076935
0.055391035974025726 0.00099755078554153442 0.072956383228302002
0.1535128653049469 0.0014270258834585547 0.063015297055244446
0.25065776705741882 0.0061847912147641182 0.058916561305522919
0.36392086744308472 0.013137667439877987 0.054861210286617279
0.49703481793403625 0.01998068206012249 0.048396795988082886
0.61747187376022339 0.033651839941740036 0.055707596242427826
0.70603096485137939 0.044358812272548676 0.062858611345291138
0.76219218969345093 0.040856678038835526 0.059957258403301239
0.79687386751174927 0.030002579092979431 0.054154012352228165
0.8275870680809021 0.028789341449737549 0.052467856556177139
0.86166375875473022 0.04155813530087471 0.053964518010616302
0.89813554286956787 0.056119807064533234 0.056143444031476974
0.00061504886252805591 0.061126198619604111 0.073413848876953125
0.043599490076303482 0.055663373321294785 0.072505459189414978
0.13742516934871674 0.051518086344003677 0.063411369919776917
0.23227497935295105 0.057443879544734955 0.054305296391248703
0.34298950433731079 0.065529920160770416 0.051100082695484161
0.47748491168022156 0.072949759662151337 0.051889486610889435
0.60367834568023682 0.084907323122024536 0.057437434792518616
0.69868350028991699 0.096250735223293304 0.059989884495735168
0.76056760549545288 0.098283253610134125 0.056525330990552902
0.79976832866668701 0.092550210654735565 0.054592613130807877
0.83071529865264893 0.091263726353645325 0.056238315999507904
0.8629080057144165 0.10127534717321396 0.059179417788982391
0.897910475730896 0.11439692229032516 0.061776343733072281
0.0008831996819935739 0.14469157159328461 0.068717807531356812
0.03851592168211937 0.14065134525299072 0.066606469452381134
0.12301040440797806 0.13535381853580475 0.056797761470079422
0.21569907665252686 0.13144911825656891 0.045664213597774506
0.32033011317253113 0.13056564331054688 0.042279757559299469
0.45422860980033875 0.13123434782028198 0.047881048172712326
0.5846899151802063 0.13728533685207367 0.053835686296224594
0.68649232387542725 0.1464950293302536 0.056334506720304489
0.75672775506973267 0.15112389624118805 0.056337844580411911
0.80181562900543213 0.14898370206356049 0.058637566864490509
0.83464986085891724 0.14761841297149658 0.063346683979034424
0.86554819345474243 0.15292452275753021 0.067617796361446381
0.89853864908218384 0.16243809461593628 0.070562116801738739
0.0026784262154251337 0.200566366314888 0.068866416811943054
0.038547977805137634 0.19737571477890015 0.064046986401081085
0.10959601402282715 0.19673047959804535 0.054758109152317047
0.19751931726932526 0.19294397532939911 0.045147765427827835
0.30392012000083923 0.18821075558662415 0.041193854063749313
0.43680554628372192 0.18661211431026459 0.043197616934776306
0.56851184368133545 0.19122710824012756 0.048117350786924362
0.67603844404220581 0.19793295860290527 0.054838456213474274
0.75481802225112915 0.20320583879947662 0.060959581285715103
0.8068774938583374 0.20440018177032471 0.06634502112865448
0.84176892042160034 0.2029847651720047 0.071524225175380707
0.87132549285888672 0.20493960380554199 0.076010793447494507
0.9020422101020813 0.21126319468021393 0.079231113195419312
0.0065488778054714203 0.26157784461975098 0.069459341466426849
0.040620483458042145 0.25900903344154358 0.065174192190170288
0.096962034702301025 0.25903290510177612 0.058100052177906036
0.17549723386764526 0.25800320506095886 0.050164166837930679
0.28537315130233765 0.25403770804405212 0.044213596731424332
0.42656728625297546 0.25082892179489136 0.04254772886633873
0.56213194131851196 0.25227773189544678 0.046574745327234268
0.67144536972045898 0.25762185454368591 0.056357905268669128
0.75665962696075439 0.26398751139640808 0.066441461443901062
0.81542783975601196 0.266725093126297 0.073725439608097076
0.85294985771179199 0.26558774709701538 0.078445464372634888
0.88168299198150635 0.26510176062583923 0.081977903842926025
0.91028261184692383 0.26914075016975403 0.085055001080036163
0.013684740290045738 0.34086146950721741 0.072391584515571594
0.04471404105424881 0.33863416314125061 0.070002898573875427
0.089676558971405029 0.33879992365837097 0.065824560821056366
0.15490984916687012 0.34063312411308289 0.05993468314409256
0.26124972105026245 0.34089738130569458 0.054244667291641235
0.41425162553787231 0.33542326092720032 0.051239658147096634
0.55937588214874268 0.3305167555809021 0.054397463798522949
0.67011481523513794 0.33378875255584717 0.062166355550289154
0.75898605585098267 0.34009423851966858 0.071433857083320618
0.82370918989181519 0.34284326434135437 0.07882988452911377
0.86507594585418701 0.34009239077568054 0.083046570420265198
0.89414268732070923 0.33852300047874451 0.085840426385402679
0.92053365707397461 0.34005174040794373 0.088419519364833832
0.024008357897400856 0.4365902841091156 0.082949511706829071
0.052347563207149506 0.43422767519950867 0.08106289803981781
0.087114490568637848 0.43374153971672058 0.07909075915813446
0.13704396784305573 0.43678611516952515 0.076418690383434296
0.22957511246204376 0.44177210330963135 0.073804639279842377
0.38414144515991211 0.43966621160507202 0.071317054331302643
0.54573041200637817 0.43223670125007629 0.069757498800754547
0.66583746671676636 0.43053862452507019 0.071428187191486359
0.75824707746505737 0.43268609046936035 0.076765410602092743
0.82784825563430786 0.43074837327003479 0.083511754870414734
0.87410628795623779 0.42507940530776978 0.088531419634819031
0.90468764305114746 0.42176344990730286 0.091208562254905701
0.93026065826416016 0.42191556096076965 0.092926546931266785
0.039107020944356918 0.53734046220779419 0.099840350449085236
0.066605538129806519 0.53466743230819702 0.098016388714313507
0.094468288123607635 0.53286951780319214 0.097255110740661621
0.13107731938362122 0.53390359878540039 0.096766680479049683
0.20596200227737427 0.53894269466400146 0.096312053501605988
0.34914010763168335 0.54279285669326782 0.092793889343738556
0.51834911108016968 0.54078704118728638 0.086579464375972748
0.65213465690612793 0.53699356317520142 0.082752212882041931
0.75119572877883911 0.53163087368011475 0.085030741989612579
0.82759201526641846 0.52157795429229736 0.091152861714363098
0.87993168830871582 0.51177471876144409 0.09741472452878952
0.91270041465759277 0.50766110420227051 0.10036357492208481
0.93834364414215088 0.50623399019241333 0.10078868269920349
0.058279793709516525 0.62819099426269531 0.11851578950881958
0.087981447577476501 0.627052903175354 0.11713482439517975
0.11416548490524292 0.62483316659927368 0.11702650785446167
0.14186200499534607 0.62338972091674805 0.11745306104421616
0.19909727573394775 0.62589532136917114 0.11654893308877945
0.3203529417514801 0.63237559795379639 0.11167372018098831
0.48290786147117615 0.63707363605499268 0.10256598889827728
0.62452179193496704 0.63721317052841187 0.09551500529050827
0.73162752389907837 0.62896138429641724 0.096091009676456451
0.81850951910018921 0.61165231466293335 0.10287013649940491
0.88062876462936401 0.59578835964202881 0.1095535010099411
0.9182320237159729 0.58873605728149414 0.11258048564195633
0.94535732269287109 0.58574533462524414 0.11226815730333328
0.07627403736114502 0.70037937164306641 0.13383880257606506
0.10909236967563629 0.70056354999542236 0.13351033627986908
0.13654442131519318 0.69990080595016479 0.13420979678630829
0.15981408953666687 0.69824159145355225 0.13482891023159027
0.2014385461807251 0.69950932264328003 0.13374966382980347
0.29451897740364075 0.70799845457077026 0.12936131656169891
0.44087541103363037 0.71728497743606567 0.11894305050373077
0.58869880437850952 0.72108215093612671 0.10914914309978485
0.70525610446929932 0.71753025054931641 0.10867652297019958
0.80047959089279175 0.70066428184509277 0.11608457565307617
0.87155294418334961 0.68115401268005371 0.12262078374624252
0.91580986976623535 0.6719059944152832 0.12522222101688385
0.94623595476150513 0.66698449850082397 0.12355110049247742
0.087369255721569061 0.74992907047271729 0.14262230694293976
0.1212088018655777 0.75254380702972412 0.14328500628471375
0.14916200935840607 0.75271332263946533 0.1438375860452652
0.17162950336933136 0.75009477138519287 0.14419813454151154
0.20433732867240906 0.75159174203872681 0.14326781034469604
0.27421778440475464 0.76257079839706421 0.14114505052566528
0.40448063611984253 0.77484035491943359 0.13151355087757111
0.55837666988372803 0.78295779228210449 0.11964207142591476
0.68326276540756226 0.78753465414047241 0.11861179023981094
0.77965682744979858 0.78090286254882812 0.12597310543060303
0.85769236087799072 0.76472765207290649 0.13202610611915588
0.9088560938835144 0.75530833005905151 0.13338087499141693
0.94287574291229248 0.75099724531173706 0.12990833818912506
0.089048393070697784 0.78658825159072876 0.14225117862224579
0.1212453618645668 0.78834664821624756 0.14345967769622803
0.14798069000244141 0.78789889812469482 0.14452704787254333
0.17076857388019562 0.78611129522323608 0.14505471289157867
0.20077686011791229 0.78778868913650513 0.14476342499256134
0.26068016886711121 0.80017966032028198 0.14501111209392548
0.37992507219314575 0.81458878517150879 0.13733653724193573
0.53498858213424683 0.82543009519577026 0.12529149651527405
0.66381943225860596 0.83658552169799805 0.12389393150806427
0.76263868808746338 0.83894592523574829 0.13065524399280548
0.84912091493606567 0.82751965522766113 0.13467317819595337
0.90850156545639038 0.8201565146446228 0.13365191221237183
0.94532877206802368 0.81883156299591064 0.12898196280002594
0.082643978297710419 0.82142430543899536 0.13318324089050293
0.11236962676048279 0.82138222455978394 0.13591215014457703
0.13695617020130157 0.82075017690658569 0.1384861022233963
0.15859964489936829 0.81986749172210693 0.14138519763946533
0.18671783804893494 0.82458770275115967 0.14432753622531891
0.24226056039333344 0.8375236988067627 0.14629948139190674
0.35305559635162354 0.85144376754760742 0.14049868285655975
0.50089925527572632 0.86357814073562622 0.13009735941886902
0.63211339712142944 0.87600076198577881 0.12748833000659943
0.73898059129714966 0.88155961036682129 0.13105808198451996
0.83523011207580566 0.87404316663742065 0.13089986145496368
0.90476220846176147 0.86863809823989868 0.1274304986000061
0.94895821809768677 0.86924642324447632 0.12170558422803879
0.0025674558710306883 0.011134817264974117 0.15239919722080231
0.051874361932277679 0.0037549335975199938 0.14830176532268524
0.14290936291217804 0.0016123752575367689 0.14037057757377625
0.24185045063495636 0.0068280086852610111 0.13404646515846252
0.36085215210914612 0.015931671485304832 0.12227721512317657
0.49731430411338806 0.019247451797127724 0.11011747270822525
0.61799329519271851 0.025051325559616089 0.11303035914897919
0.70580363273620605 0.031586948782205582 0.11592752486467361
0.76246649026870728 0.032444927841424942 0.11119066178798676
0.79944181442260742 0.02773488312959671 0.10654733330011368
0.83031272888183594 0.029755417257547379 0.10533419996500015
0.86394280195236206 0.046128038316965103 0.10462918877601624
0.89993131160736084 0.064101636409759521 0.10479302704334259
0.0014324113726615906 0.067219451069831848 0.147579625248909
0.040559448301792145 0.058307334780693054 0.14507858455181122
0.12661173939704895 0.052120853215456009 0.13782259821891785
0.22610300779342651 0.056303557008504868 0.12907688319683075
0.34250268340110779 0.06655389815568924 0.11736921221017838
0.4781094491481781 0.074182458221912384 0.1116122230887413
0.60444003343582153 0.082939490675926208 0.1140027791261673
0.69891798496246338 0.091886065900325775 0.11091773957014084
0.76071608066558838 0.096303828060626984 0.10442392528057098
0.80066525936126709 0.093917474150657654 0.10191787779331207
0.8320467472076416 0.094932705163955688 0.10402961820363998
0.86459147930145264 0.10728856921195984 0.10615395754575729
0.89945334196090698 0.12281133979558945 0.10660983622074127
0.00075216853292658925 0.1417633593082428 0.13864754140377045
0.03334394097328186 0.13921290636062622 0.13737082481384277
0.11005181819200516 0.13521996140480042 0.12858887016773224
0.2063080370426178 0.12948949635028839 0.11630363017320633
0.31915715336799622 0.13003407418727875 0.10708755999803543
0.45400846004486084 0.13311907649040222 0.10608290135860443
0.58477282524108887 0.13974611461162567 0.10730236023664474
0.68675273656845093 0.14736516773700714 0.10533697158098221
0.7568780779838562 0.15246453881263733 0.10201244056224823
0.80193835496902466 0.15137657523155212 0.10244035720825195
0.83492392301559448 0.15057247877120972 0.10644412785768509
0.86599498987197876 0.15706092119216919 0.11006881296634674
0.89956474304199219 0.16826868057250977 0.11166485399007797
0.0020252303220331669 0.20097595453262329 0.13084907829761505
0.033880885690450668 0.20031414926052094 0.12723705172538757
0.099511809647083282 0.1988811194896698 0.11847594380378723
0.18813444674015045 0.19433324038982391 0.10728023946285248
0.3012637197971344 0.18946053087711334 0.09891858696937561
0.43705171346664429 0.19011309742927551 0.095919258892536163
0.56795269250869751 0.1952284574508667 0.096451885998249054
0.67548531293869019 0.20087365806102753 0.10099741816520691
0.75482946634292603 0.20540817081928253 0.10478324443101883
0.8069770336151123 0.20565573871135712 0.1072964072227478
0.84084266424179077 0.20474471151828766 0.11054284870624542
0.8704412579536438 0.20715034008026123 0.11333983391523361
0.90273100137710571 0.21538309752941132 0.11587279289960861
0.0057304231449961662 0.26346632838249207 0.12279292196035385
0.03766217827796936 0.26185548305511475 0.11948850750923157
