assets/lut/editingcorp calidum.cube
# Created by: G'MIC (https://gmic.eu)
TITLE "calidum"
# LUT size
LUT_3D_SIZE 7
# Data domain
DOMAIN_MIN 0.0 0.0 0.0
DOMAIN_MAX 1.0 1.0 1.0
# LUT data points
0.057683639228343964 0.054213058203458786 0.052957154810428619
0.15980960428714752 0.062102269381284714 0.056463293731212616
0.27977487444877625 0.078268028795719147 0.066855184733867645
0.40508741140365601 0.10880760103464127 0.084762528538703918
0.52800899744033813 0.13865794241428375 0.10846629738807678
0.65926617383956909 0.1670318990945816 0.12692603468894958
0.79191267490386963 0.19452127814292908 0.15730965137481689
0.12284954637289047 0.14886832237243652 0.058966230601072311
0.23572687804698944 0.17271246016025543 0.071892157196998596
0.35660141706466675 0.19958530366420746 0.087980784475803375
0.46695694327354431 0.21448338031768799 0.10103920102119446
0.58189249038696289 0.23920559883117676 0.12265913933515549
0.70552068948745728 0.26607897877693176 0.14218707382678986
0.83770298957824707 0.28972649574279785 0.1678992360830307
0.22548642754554749 0.2997620701789856 0.082320176064968109
0.32398566603660583 0.32343915104866028 0.094696551561355591
0.43133023381233215 0.35667574405670166 0.11079581826925278
0.52750700712203979 0.36739197373390198 0.11724869906902313
0.63841569423675537 0.37655976414680481 0.1390722393989563
0.75615805387496948 0.39096957445144653 0.16035871207714081
0.88952350616455078 0.40642288327217102 0.18427567183971405
0.34877058863639832 0.45368340611457825 0.12599931657314301
0.41917833685874939 0.47067925333976746 0.14245200157165527
0.49977129697799683 0.4932454526424408 0.15512432157993317
0.57668662071228027 0.50632661581039429 0.14626665413379669
0.66657328605651855 0.51105886697769165 0.15039564669132233
0.78237336874008179 0.51725435256958008 0.16889847815036774
0.92423838376998901 0.52743989229202271 0.19373852014541626
0.4424184262752533 0.57956176996231079 0.18802331387996674
0.49803885817527771 0.59588241577148438 0.20349282026290894
0.5565030574798584 0.61018252372741699 0.20806422829627991
0.62244468927383423 0.6250341534614563 0.19680549204349518
0.69449937343597412 0.63793265819549561 0.17959430813789368
0.80142897367477417 0.65057265758514404 0.17624129354953766
0.94665086269378662 0.66016685962677002 0.19255974888801575
0.50389289855957031 0.689453125 0.26467987895011902
0.54472309350967407 0.69922643899917603 0.26069360971450806
0.59128427505493164 0.71152299642562866 0.25577813386917114
0.6508602499961853 0.72940760850906372 0.24601741135120392
0.7200438380241394 0.75305825471878052 0.2232610285282135
0.82410949468612671 0.7792554497718811 0.19902870059013367
0.96615409851074219 0.80598396062850952 0.19468191266059875
0.54136455059051514 0.78858077526092529 0.34301349520683289
0.57288157939910889 0.79414421319961548 0.32486546039581299
0.61073732376098633 0.80596429109573364 0.3043271005153656
0.66583442687988281 0.82981199026107788 0.28936994075775146
0.73997074365615845 0.86724573373794556 0.27490618824958801
0.83935278654098511 0.90991741418838501 0.2514721155166626
0.95752686262130737 0.9392932653427124 0.32472759485244751
0.04381420835852623 0.071798466145992279 0.11957935988903046
0.13603121042251587 0.070839673280715942 0.13285228610038757
0.26274845004081726 0.064616397023200989 0.11824809014797211
0.38401913642883301 0.079730570316314697 0.14179298281669617
0.50379902124404907 0.10598370432853699 0.16310021281242371
0.62697958946228027 0.12841780483722687 0.17739225924015045
0.76238548755645752 0.16051945090293884 0.19658732414245605
0.06248106062412262 0.17041254043579102 0.15765827894210815
0.19185999035835266 0.18705841898918152 0.17753000557422638
0.3552410900592804 0.18144069612026215 0.17122212052345276
0.45646432042121887 0.18106967210769653 0.16974405944347382
0.56947237253189087 0.20116975903511047 0.17898394167423248
0.68376117944717407 0.22273603081703186 0.19345848262310028
0.81595796346664429 0.25464165210723877 0.21305155754089355
0.15280194580554962 0.31294530630111694 0.15970110893249512
0.27882859110832214 0.33223381638526917 0.16309300065040588
0.43111306428909302 0.36561053991317749 0.19737717509269714
0.53261673450469971 0.36930441856384277 0.20049510896205902
0.64788210391998291 0.36972424387931824 0.20576509833335876
0.76522958278656006 0.38034972548484802 0.22086514532566071
0.89445716142654419 0.39570698142051697 0.23528587818145752
0.27720350027084351 0.44428431987762451 0.16385170817375183
0.37877655029296875 0.46687602996826172 0.17318625748157501
0.48927178978919983 0.49484717845916748 0.19957359135150909
0.57497572898864746 0.50947314500808716 0.20634585618972778
0.67010891437530518 0.51005679368972778 0.20596753060817719
0.79210573434829712 0.51268261671066284 0.22216969728469849
0.93641632795333862 0.52256137132644653 0.24653050303459167
0.39191406965255737 0.56154906749725342 0.20458702743053436
0.46519866585731506 0.58655107021331787 0.22450141608715057
0.53980207443237305 0.60640531778335571 0.23418472707271576
0.6179659366607666 0.62689375877380371 0.23023608326911926
0.69394147396087646 0.63644599914550781 0.22220735251903534
0.80733448266983032 0.64528471231460571 0.22291228175163269
0.9542052149772644 0.65830260515213013 0.2387867271900177
0.47130066156387329 0.67239642143249512 0.28010439872741699
0.51663774251937866 0.6841161847114563 0.27951547503471375
0.57568597793579102 0.70521783828735352 0.29101788997650146
0.64380878210067749 0.72892278432846069 0.27920347452163696
0.71605104207992554 0.75053280591964722 0.26223525404930115
0.82265627384185791 0.77744454145431519 0.24067558348178864
0.96595650911331177 0.80862021446228027 0.22996717691421509
0.51652473211288452 0.77264541387557983 0.36465373635292053
0.54750484228134155 0.77819859981536865 0.35597372055053711
0.59554189443588257 0.79739940166473389 0.34947511553764343
0.65720182657241821 0.82592689990997314 0.33705237507820129
0.731792151927948 0.86401665210723877 0.31706634163856506
0.8371204137802124 0.9122689962387085 0.28595873713493347
0.95258492231369019 0.93856567144393921 0.40234357118606567
0.052774511277675629 0.096883393824100494 0.19015313684940338
0.096810720860958099 0.11516410857439041 0.22975078225135803
0.23631241917610168 0.09072558581829071 0.23052491247653961
0.36082816123962402 0.084270298480987549 0.20167157053947449
0.46724638342857361 0.092152491211891174 0.21923272311687469
0.57611531019210815 0.10386001318693161 0.23871722817420959
0.70600181818008423 0.13307741284370422 0.2650095522403717
0.059602174907922745 0.18432348966598511 0.24166399240493774
0.10655124485492706 0.1990603506565094 0.26985162496566772
0.30777832865715027 0.17793905735015869 0.28666812181472778
0.43389961123466492 0.15396897494792938 0.24048818647861481
0.52282959222793579 0.1561053991317749 0.24737340211868286
0.62433016300201416 0.16979551315307617 0.25801318883895874
0.76426112651824951 0.21297304332256317 0.2879854142665863
0.085640281438827515 0.32213038206100464 0.3035893440246582
0.15345139801502228 0.3454519510269165 0.32572698593139648
0.3968999981880188 0.37731221318244934 0.3673434853553772
0.54425841569900513 0.35466861724853516 0.33944013714790344
0.64278709888458252 0.35159415006637573 0.3297332227230072
0.75458484888076782 0.35774996876716614 0.32625001668930054
0.87756121158599854 0.37566712498664856 0.33322197198867798
0.1823752224445343 0.46133962273597717 0.34205365180969238
0.29851052165031433 0.48371893167495728 0.33812975883483887
0.47884264588356018 0.51095795631408691 0.36366283893585205
0.57565754652023315 0.51412123441696167 0.3671061098575592
0.67271023988723755 0.50825315713882446 0.3482508659362793
0.80012214183807373 0.51207584142684937 0.33857172727584839
0.940693199634552 0.52175426483154297 0.34828981757164001
0.31325778365135193 0.57136410474777222 0.34224322438240051
0.41124400496482849 0.5898820161819458 0.33984559774398804
0.52491682767868042 0.6078382134437561 0.35071548819541931
0.60631287097930908 0.62827599048614502 0.35569176077842712
0.68799400329589844 0.63644373416900635 0.33960190415382385
0.81174761056900024 0.64586818218231201 0.33610978722572327
0.96095997095108032 0.65764611959457397 0.33995816111564636
0.42219245433807373 0.66468185186386108 0.35356637835502625
0.47751280665397644 0.67497718334197998 0.35643681883811951
0.5520816445350647 0.69651669263839722 0.37636908888816833
0.62912410497665405 0.72122257947921753 0.36866492033004761
0.70743906497955322 0.74756300449371338 0.35091283917427063
0.81570863723754883 0.78134512901306152 0.31392821669578552
0.96538865566253662 0.80491316318511963 0.32262763381004333
0.48605895042419434 0.76269394159317017 0.4189874529838562
0.51993274688720703 0.76733165979385376 0.41479054093360901
0.57803773880004883 0.78716021776199341 0.41810110211372375
0.64720058441162109 0.81700813770294189 0.40854820609092712
0.72197669744491577 0.85853618383407593 0.38434171676635742
0.82288914918899536 0.90885955095291138 0.36140432953834534
0.95238190889358521 0.94175076484680176 0.44070932269096375
0.060329407453536987 0.12452632188796997 0.25721657276153564
0.098265565931797028 0.14141970872879028 0.28764942288398743
0.18138131499290466 0.14679883420467377 0.32300850749015808
0.34656193852424622 0.10921779274940491 0.30727997422218323
0.44564914703369141 0.11160441488027573 0.28555572032928467
0.5438230037689209 0.1084919348359108 0.292430579662323
0.66271877288818359 0.1353934109210968 0.33173021674156189
0.070413984358310699 0.20840610563755035 0.30446994304656982
0.10536719113588333 0.22021378576755524 0.32412043213844299
0.19450536370277405 0.24746891856193542 0.3743760883808136
0.41350817680358887 0.18587787449359894 0.36495622992515564
0.48356533050537109 0.15414106845855713 0.30576711893081665
0.57677996158599854 0.15239439904689789 0.31108546257019043
0.72294050455093384 0.20915231108665466 0.36250737309455872
0.09019838273525238 0.3321537971496582 0.37527325749397278
0.13195942342281342 0.34295615553855896 0.39887899160385132
0.26751673221588135 0.39414030313491821 0.45991981029510498
0.53267765045166016 0.37843534350395203 0.48324567079544067
0.62941521406173706 0.33462384343147278 0.42782381176948547
0.71417605876922607 0.32394900918006897 0.41383364796638489
0.83851993083953857 0.35738518834114075 0.43284821510314941
0.12786945700645447 0.45924225449562073 0.43863826990127563
0.16601715981960297 0.46596831083297729 0.44952309131622314
0.35993123054504395 0.52104729413986206 0.50419825315475464
0.58388638496398926 0.54561454057693481 0.53727275133132935
0.67973530292510986 0.51848512887954712 0.50177490711212158
0.78767657279968262 0.50528836250305176 0.47877302765846252
0.91996181011199951 0.51105165481567383 0.47475072741508484
0.24595580995082855 0.58217847347259521 0.49134033918380737
0.3312404453754425 0.59813714027404785 0.50496387481689453
0.50311374664306641 0.62642067670822144 0.52748328447341919
0.61982846260070801 0.63974595069885254 0.53724205493927002
0.69242250919342041 0.64391922950744629 0.51577973365783691
0.80531209707260132 0.64564967155456543 0.48374897241592407
0.95626389980316162 0.6544564962387085 0.47482690215110779
0.39163476228713989 0.68266838788986206 0.51930779218673706
0.45864957571029663 0.69204801321029663 0.52062892913818359
0.55497580766677856 0.70447075366973877 0.52192634344100952
0.63527423143386841 0.71802008152008057 0.52503269910812378
0.70876801013946533 0.74105960130691528 0.51894187927246094
0.81009894609451294 0.77166831493377686 0.48689073324203491
0.95859652757644653 0.80254000425338745 0.48698163032531738
0.46685025095939636 0.77138108015060425 0.54061293601989746
0.51264774799346924 0.77530539035797119 0.53409916162490845
0.58029282093048096 0.79029566049575806 0.53576040267944336
0.65322035551071167 0.81036889553070068 0.53246569633483887
0.72787714004516602 0.84653156995773315 0.5281752347946167
0.82209426164627075 0.89735406637191772 0.50672835111618042
0.95599979162216187 0.94799518585205078 0.54692691564559937
0.067367255687713623 0.15759404003620148 0.32312044501304626
0.10778308659791946 0.17670625448226929 0.34933817386627197
0.15797796845436096 0.20463456213474274 0.38937246799468994
0.30593344569206238 0.17650611698627472 0.41436609625816345
0.43969571590423584 0.13542203605175018 0.38226360082626343
0.53656470775604248 0.14982062578201294 0.37404778599739075
0.63563632965087891 0.15357445180416107 0.3904760479927063
0.080856040120124817 0.23796761035919189 0.36975666880607605
0.11626796424388885 0.25357061624526978 0.38775208592414856
0.16709087789058685 0.28665909171104431 0.43222936987876892
0.36140957474708557 0.29302531480789185 0.48738273978233337
0.47696211934089661 0.19313888251781464 0.41703042387962341
0.56083643436431885 0.18071478605270386 0.38715627789497375
0.69286262989044189 0.23866686224937439 0.43633559346199036
0.103273905813694 0.35045146942138672 0.44578516483306885
0.13466615974903107 0.35951018333435059 0.45846077799797058
0.19211415946483612 0.3868165910243988 0.49733197689056396
0.42349123954772949 0.44734156131744385 0.57761305570602417
0.61589914560317993 0.39039188623428345 0.55727988481521606
0.68089234828948975 0.34583902359008789 0.50334441661834717
0.78773128986358643 0.3747008740901947 0.52229946851730347
0.12740635871887207 0.4665372371673584 0.50643962621688843
0.16308806836605072 0.4722905158996582 0.51707082986831665
0.29573503136634827 0.51078552007675171 0.57141238451004028
0.50639158487319946 0.56716424226760864 0.62726926803588867
0.67454421520233154 0.5621677041053772 0.63560760021209717
0.75639712810516357 0.52802735567092896 0.60488831996917725
0.86234086751937866 0.51794886589050293 0.5949939489364624
0.19853237271308899 0.58628255128860474 0.56397908926010132
0.23571914434432983 0.59243971109390259 0.56952303647994995
0.33421462774276733 0.61723905801773071 0.59596580266952515
0.5676543116569519 0.65913605690002441 0.64716792106628418
0.69685506820678711 0.67048949003219604 0.66669660806655884
0.78593301773071289 0.65759813785552979 0.64094835519790649
0.91542774438858032 0.65243411064147949 0.62825924158096313
0.32043007016181946 0.69094240665435791 0.61521065235137939
0.3824009895324707 0.7007785439491272 0.62263780832290649
0.51189404726028442 0.72223836183547974 0.64518928527832031
0.63166427612304688 0.73894619941711426 0.66449582576751709
0.72154241800308228 0.75072717666625977 0.67346400022506714
0.80116981267929077 0.7629280686378479 0.65279436111450195
0.94779527187347412 0.79324597120285034 0.63455653190612793
0.42619466781616211 0.78520393371582031 0.64663422107696533
0.50628608465194702 0.79419481754302979 0.65335291624069214
0.58669519424438477 0.81172025203704834 0.66756248474121094
0.67239201068878174 0.82630950212478638 0.6755484938621521
0.74729537963867188 0.84716880321502686 0.67956578731536865
0.82313323020935059 0.87773191928863525 0.66776341199874878
0.94668912887573242 0.92958134412765503 0.66715610027313232
0.079095728695392609 0.20066194236278534 0.39331454038619995
0.12302152067422867 0.22434422373771667 0.41788321733474731
0.16479724645614624 0.25525638461112976 0.45727577805519104
0.27030143141746521 0.29589760303497314 0.52394509315490723
0.47390583157539368 0.21497432887554169 0.51503235101699829
0.54629981517791748 0.17832201719284058 0.46986004710197449
0.62855321168899536 0.19651268422603607 0.47399094700813293
0.094549350440502167 0.27513918280601501 0.43507480621337891
0.13403499126434326 0.29262486100196838 0.45516029000282288
0.16967259347438812 0.31898605823516846 0.4936358630657196
0.28352862596511841 0.36861699819564819 0.56549900770187378
0.52521085739135742 0.32409384846687317 0.57760345935821533
0.57640498876571655 0.23176378011703491 0.49913513660430908
0.6851692795753479 0.29445743560791016 0.53264123201370239
0.11529609560966492 0.37577149271965027 0.50432032346725464
0.14610089361667633 0.3844459056854248 0.51729726791381836
0.18003135919570923 0.40346130728721619 0.55010437965393066
0.30919906497001648 0.4557131826877594 0.62037807703018188
0.58466702699661255 0.47544032335281372 0.66538089513778687
0.68643271923065186 0.42081472277641296 0.62742942571640015
0.76437914371490479 0.43860620260238647 0.62070262432098389
0.14477905631065369 0.48155936598777771 0.5808337926864624
0.17653624713420868 0.48630598187446594 0.59182929992675781
0.24182212352752686 0.50892502069473267 0.62547874450683594
0.40388911962509155 0.555553138256073 0.67949783802032471
0.61311817169189453 0.59221524000167847 0.70734888315200806
0.7404676079750061 0.57322585582733154 0.7070508599281311
0.81603837013244629 0.57043725252151489 0.68818813562393188
0.189496248960495 0.59415370225906372 0.63276594877243042
0.22399325668811798 0.60141700506210327 0.64084291458129883
0.30224266648292542 0.6207270622253418 0.67117846012115479
0.52064698934555054 0.65997016429901123 0.71714121103286743
0.66415441036224365 0.68776696920394897 0.7368934154510498
0.76814752817153931 0.68888610601425171 0.74522954225540161
0.85571038722991943 0.6818956732749939 0.73694074153900146
0.24927203357219696 0.6996530294418335 0.67733633518218994
0.29186651110649109 0.70783728361129761 0.68528276681900024
0.36256581544876099 0.72002667188644409 0.6976655125617981
0.54264593124389648 0.74946856498718262 0.73087728023529053
0.69521194696426392 0.77119660377502441 0.76060241460800171
0.79426330327987671 0.78087002038955688 0.77150362730026245
0.90523433685302734 0.79388606548309326 0.77515113353729248
0.3411196768283844 0.80308026075363159 0.71983474493026733
0.41428512334823608 0.81417763233184814 0.73111808300018311
0.51404392719268799 0.83077961206436157 0.74875372648239136
0.64245098829269409 0.85107648372650146 0.77211093902587891
0.74206066131591797 0.86693114042282104 0.79213541746139526
0.82588404417037964 0.88066089153289795 0.79823607206344604
0.93148475885391235 0.91727107763290405 0.80362921953201294
0.092485778033733368 0.24932850897312164 0.47389706969261169
0.13778796792030334 0.27394568920135498 0.49532637000083923
0.17379969358444214 0.29690665006637573 0.52633333206176758
0.24781201779842377 0.34564399719238281 0.59022718667984009
0.49155935645103455 0.3733309805393219 0.65894889831542969
0.60468959808349609 0.30057305097579956 0.61887192726135254
0.67640525102615356 0.29068723320960999 0.60480368137359619
0.10880520194768906 0.31694149971008301 0.51091510057449341
0.15119533240795135 0.33584809303283691 0.53290402889251709
0.18720810115337372 0.35961666703224182 0.56669223308563232
0.25652390718460083 0.39523071050643921 0.61511600017547607
0.50788968801498413 0.43882545828819275 0.68962770700454712
0.65441769361495972 0.39297389984130859 0.67315584421157837
0.71001267433166504 0.36625024676322937 0.64134734869003296
0.12907342612743378 0.40630924701690674 0.57466942071914673
0.16578590869903564 0.41590401530265808 0.59089016914367676
0.20074813067913055 0.43577119708061218 0.62120157480239868
0.29255792498588562 0.47534564137458801 0.67339205741882324
0.52494007349014282 0.52900272607803345 0.72857236862182617
0.68398392200469971 0.50827395915985107 0.72888660430908203
0.75964200496673584 0.490803062915802 0.71037071943283081
0.15836396813392639 0.50421404838562012 0.65314877033233643
0.18743541836738586 0.50778084993362427 0.66010266542434692
0.21493655443191528 0.51762795448303223 0.67836123704910278
0.32989004254341125 0.55234181880950928 0.72019088268280029
0.56098556518554688 0.60796499252319336 0.7614249587059021
0.71067255735397339 0.61550700664520264 0.76703566312789917
0.80011463165283203 0.60847228765487671 0.76644432544708252
0.19300742447376251 0.60960036516189575 0.71265250444412231
0.22513395547866821 0.61105179786682129 0.72100180387496948
0.28216677904129028 0.62336903810501099 0.74174749851226807
0.45986777544021606 0.66340798139572144 0.78795838356018066
0.61542218923568726 0.69283819198608398 0.80410921573638916
0.74436885118484497 0.70884817838668823 0.81145977973937988
0.83688497543334961 0.70982640981674194 0.81492644548416138
0.23219338059425354 0.71939301490783691 0.76285421848297119
0.2796081006526947 0.72340625524520874 0.77046388387680054
0.31996458768844604 0.73280274868011475 0.78438645601272583
0.49240973591804504 0.76082569360733032 0.82226443290710449
0.66498643159866333 0.78295379877090454 0.84336322546005249
0.77813929319381714 0.79946929216384888 0.85144996643066406
0.87399142980575562 0.80641543865203857 0.86120712757110596
0.29720264673233032 0.83350861072540283 0.82171839475631714
0.35893315076828003 0.84427875280380249 0.82683384418487549
0.45191878080368042 0.85960918664932251 0.83699578046798706
0.5992463231086731 0.87847208976745605 0.85929596424102783
0.70751506090164185 0.89332163333892822 0.87934881448745728
0.81655025482177734 0.90605950355529785 0.89834475517272949
0.91208183765411377 0.9190794825553894 0.90927135944366455
