assets/lut/editingcorpw Pure Harmony.cube
LUT_3D_SIZE 6
DOMAIN_MIN 0.0 0.0 0.0
DOMAIN_MAX 1.0 1.0 1.0
0.135225 0.134066 0.125490
0.165506 0.164077 0.153848
0.220694 0.218942 0.206992
0.306133 0.304296 0.292753
0.405426 0.404242 0.396832
0.539788 0.539208 0.535302
0.282396 0.280503 0.268461
0.235520 0.233567 0.221480
0.294386 0.292540 0.280698
0.460535 0.459680 0.454376
0.526627 0.525976 0.521954
0.621686 0.621186 0.618182
0.569378 0.568774 0.565172
0.557204 0.556603 0.552884
0.413433 0.412300 0.405211
0.387556 0.386220 0.377971
0.566912 0.566355 0.562731
0.734499 0.734194 0.732479
0.732326 0.732027 0.730288
0.742004 0.741738 0.740091
0.701644 0.701305 0.699207
0.592418 0.591872 0.588512
0.522824 0.522165 0.518118
0.688381 0.687990 0.685738
0.875462 0.875431 0.874980
0.884597 0.884536 0.884156
0.891135 0.891078 0.890744
0.855404 0.855313 0.854729
0.775879 0.775678 0.774390
0.712282 0.711947 0.709987
0.997894 0.997894 0.997894
0.999902 0.999902 0.999902
1.000000 1.000000 1.000000
1.000000 1.000000 1.000000
1.000000 1.000000 1.000000
0.988128 0.988128 0.988128
0.135225 0.134066 0.125490
0.155116 0.153624 0.144008
0.168190 0.166698 0.156372
0.216901 0.215048 0.203194
0.328395 0.326677 0.315879
0.466212 0.465382 0.460212
0.187145 0.185525 0.174576
0.249081 0.247114 0.234848
0.320268 0.318568 0.307518
0.379964 0.378578 0.370001
0.458814 0.457944 0.452562
0.570425 0.569854 0.566272
0.556982 0.556409 0.552680
0.536214 0.535558 0.531637
0.404093 0.402887 0.395375
0.420526 0.419430 0.412654
0.589126 0.588607 0.585219
0.746600 0.746357 0.744765
0.742063 0.741793 0.740166
0.737666 0.737379 0.735700
0.695706 0.695360 0.693205
0.585839 0.585267 0.581869
0.527375 0.526749 0.522744
0.700605 0.700259 0.698163
0.880848 0.880776 0.880389
0.888653 0.888603 0.888250
0.889335 0.889272 0.888930
0.853967 0.853865 0.853285
0.773805 0.773602 0.772296
0.714843 0.714538 0.712597
0.997620 0.997620 0.997620
0.999451 0.999451 0.999451
1.000000 1.000000 1.000000
1.000000 1.000000 1.000000
1.000000 1.000000 1.000000
0.987988 0.987988 0.987988
0.135225 0.134066 0.125490
0.135225 0.134066 0.125490
0.216025 0.214260 0.202318
0.230719 0.228845 0.216728
0.226610 0.224776 0.212712
0.214603 0.212869 0.200985
0.188119 0.186438 0.175385
0.203733 0.201882 0.190330
0.282801 0.280921 0.268855
0.272853 0.270963 0.258720
0.259381 0.257396 0.245109
0.270603 0.268705 0.256434
0.279133 0.277291 0.265272
0.327276 0.325568 0.314833
0.438912 0.437945 0.431861
0.534923 0.534266 0.530325
0.592788 0.592267 0.588916
0.663470 0.663068 0.660543
0.730303 0.730017 0.728249
0.725499 0.725196 0.723383
0.686080 0.685717 0.683429
0.588588 0.588041 0.584650
0.600565 0.600041 0.596792
0.755807 0.755569 0.754082
0.899232 0.899194 0.898893
0.900378 0.900331 0.900046
0.886082 0.886032 0.885657
0.849356 0.849272 0.848640
0.765419 0.765188 0.763796
0.729286 0.729006 0.727223
0.997033 0.997033 0.997033
0.999084 0.999084 0.999084
1.000000 1.000000 1.000000
1.000000 1.000000 1.000000
1.000000 1.000000 1.000000
0.987915 0.987915 0.987915
0.138027 0.136696 0.127876
0.149359 0.147898 0.138574
0.186712 0.185138 0.174110
0.273475 0.271523 0.259311
0.307954 0.306123 0.294641
0.262541 0.260563 0.248301
0.185578 0.183832 0.172890
0.193049 0.191294 0.180061
0.226162 0.224325 0.212213
0.320811 0.319018 0.307954
0.338191 0.336610 0.326167
0.286066 0.284238 0.272180
0.269854 0.267907 0.255634
0.294527 0.292683 0.280819
0.351297 0.349694 0.339821
0.483784 0.483033 0.478315
0.445805 0.444923 0.439113
0.353482 0.351868 0.342089
0.365335 0.363911 0.354655
0.390543 0.389235 0.381122
0.519109 0.518434 0.514243
0.621635 0.621141 0.618135
0.710792 0.710469 0.708485
0.779323 0.779119 0.777849
0.859528 0.859440 0.858907
0.866647 0.866578 0.866082
0.893552 0.893501 0.893172
0.859022 0.858930 0.858396
0.772072 0.771880 0.770546
0.795412 0.795253 0.794163
0.991552 0.991552 0.991552
0.994259 0.994259 0.994259
1.000000 1.000000 1.000000
1.000000 1.000000 1.000000
1.000000 1.000000 1.000000
0.986987 0.986987 0.986987
0.136141 0.134670 0.126003
0.141069 0.139774 0.130827
0.164470 0.163024 0.152850
0.210226 0.208472 0.196744
0.330127 0.328384 0.317693
0.430316 0.429340 0.422956
0.160171 0.158508 0.148664
0.164350 0.162827 0.152720
0.183569 0.181946 0.171056
0.231683 0.229794 0.217625
0.366125 0.364674 0.355440
0.450577 0.449682 0.444030
0.207022 0.205202 0.193502
0.211530 0.209647 0.197900
0.234628 0.232749 0.220555
0.297790 0.295946 0.284194
0.494510 0.493804 0.489259
0.520109 0.519426 0.515328
0.222943 0.221057 0.209046
0.229865 0.228001 0.215877
0.278307 0.276383 0.264267
0.402934 0.401736 0.394169
0.669743 0.669355 0.666900
0.615928 0.615441 0.612362
0.285389 0.283580 0.271817
0.300218 0.298427 0.287014
0.385008 0.383660 0.375235
0.656176 0.655765 0.653151
0.810970 0.810800 0.809866
0.902160 0.902110 0.901822
0.986761 0.986761 0.986761
0.989650 0.989650 0.989642
0.999355 0.999355 0.999355
1.000000 1.000000 1.000000
1.000000 1.000000 1.000000
0.979651 0.979651 0.979632
0.135225 0.134066 0.125490
0.135225 0.134066 0.125490
0.135225 0.134066 0.125490
0.135225 0.134066 0.125490
0.178244 0.176699 0.165939
0.360449 0.358923 0.349462
0.135225 0.134066 0.125490
0.135225 0.134066 0.125490
0.135225 0.134066 0.125490
0.135225 0.134066 0.125490
0.184247 0.182502 0.171626
0.384387 0.383020 0.374615
0.135225 0.134066 0.125490
0.135225 0.134066 0.125490
0.135225 0.134066 0.125490
0.135225 0.134066 0.125490
0.199177 0.197285 0.185843
0.469172 0.468348 0.463288
0.135225 0.134066 0.125490
0.135225 0.134066 0.125490
0.135225 0.134066 0.125490
0.135225 0.134066 0.125490
0.228075 0.226236 0.214132
0.653425 0.653016 0.650355
0.135225 0.134066 0.125490
0.135225 0.134066 0.125490
0.135225 0.134066 0.125490
0.135225 0.134066 0.125490
0.301127 0.299342 0.287720
0.848411 0.848319 0.847678
0.135225 0.134066 0.125490
0.135225 0.134066 0.125490
0.135225 0.134066 0.125490
0.152377 0.150863 0.141445
0.771884 0.771695 0.770352
1.000000 1.000000 1.000000
