assets/lut/editingcorp filo.cube
# Created by: G'MIC (https://gmic.eu)
TITLE "filo"
# LUT size
LUT_3D_SIZE 7
# Data domain
DOMAIN_MIN 0.0 0.0 0.0
DOMAIN_MAX 1.0 1.0 1.0
# LUT data points
0.0010575238848105073 0.0031288596801459789 0.017902210354804993
0.12373647093772888 0.0060733570717275143 0.029947033151984215
0.33977416157722473 0.0078047807328402996 0.017664186656475067
0.56167799234390259 0.0065770465880632401 0.032640345394611359
0.72434026002883911 0.016304105520248413 0.043756641447544098
0.78093206882476807 0.011958477087318897 0.044525686651468277
0.83089417219161987 0.005603116936981678 0.042140886187553406
0.0051319198682904243 0.098462663590908051 0.03171558678150177
0.10052739828824997 0.096044428646564484 0.028278844431042671
0.30295446515083313 0.10429549962282181 0.033697735518217087
0.52813947200775146 0.10969036072492599 0.051740236580371857
0.71785980463027954 0.12627224624156952 0.069745369255542755
0.78658187389373779 0.12128365039825439 0.075841806828975677
0.83651483058929443 0.11086632311344147 0.073988653719425201
0.026545925065875053 0.26826506853103638 0.047060918062925339
0.1081041544675827 0.26279860734939575 0.040520522743463516
0.27141484618186951 0.26381129026412964 0.050443071871995926
0.47775006294250488 0.26588201522827148 0.066428527235984802
0.69282811880111694 0.27023774385452271 0.082465216517448425
0.80119085311889648 0.26587548851966858 0.092047072947025299
0.843272864818573 0.25540035963058472 0.092623725533485413
0.066260382533073425 0.45587027072906494 0.074707165360450745
0.13131038844585419 0.44574859738349915 0.074368059635162354
0.26150086522102356 0.44096428155899048 0.081141404807567596
0.4477272629737854 0.43493932485580444 0.088465623557567596
0.6653096079826355 0.43370980024337769 0.098583564162254333
0.80327320098876953 0.43355450034141541 0.11031559854745865
0.84906703233718872 0.42374002933502197 0.11058663576841354
0.11496064066886902 0.64242368936538696 0.10471925884485245
0.16956977546215057 0.63651186227798462 0.10723182559013367
0.27041122317314148 0.63005304336547852 0.10964793711900711
0.43582835793495178 0.6227453351020813 0.11192940920591354
0.64251148700714111 0.6171233057975769 0.11895159631967545
0.8128247857093811 0.6062200665473938 0.12819261848926544
0.86786776781082153 0.60018616914749146 0.12892690300941467
0.14821416139602661 0.77003836631774902 0.12431716918945312
0.2013201117515564 0.77340686321258545 0.12647609412670135
0.27778702974319458 0.77150475978851318 0.12885133922100067
0.42208227515220642 0.77812403440475464 0.13163493573665619
0.62779724597930908 0.78452253341674805 0.13843080401420593
0.81904894113540649 0.77645766735076904 0.14569617807865143
0.89467418193817139 0.780437171459198 0.14988330006599426
0.15887726843357086 0.8363608717918396 0.12796191871166229
0.21057255566120148 0.83527767658233643 0.13216781616210938
0.28271439671516418 0.83833813667297363 0.13503390550613403
0.41546565294265747 0.85195863246917725 0.13870009779930115
0.61047631502151489 0.86414974927902222 0.144072026014328
0.81206667423248291 0.8733971118927002 0.15072627365589142
0.90875554084777832 0.87970000505447388 0.15874190628528595
0.0056622223928570747 0.0065061682835221291 0.13960990309715271
0.11923735588788986 0.0081883445382118225 0.13579237461090088
0.33729574084281921 0.0070291855372488499 0.13931572437286377
0.56940102577209473 0.013740150257945061 0.14461158215999603
0.72937512397766113 0.023317014798521996 0.14005957543849945
0.78481924533843994 0.018644010648131371 0.13611380755901337
0.83719432353973389 0.019590729847550392 0.13269135355949402
0.0061827716417610645 0.10974937677383423 0.13532713055610657
0.10862856358289719 0.10578738898038864 0.12412787228822708
0.30962252616882324 0.11043855547904968 0.12827037274837494
0.5405733585357666 0.11897460371255875 0.13360236585140228
0.73154526948928833 0.12797297537326813 0.13508512079715729
0.79508858919143677 0.12333975732326508 0.13778461515903473
0.84010201692581177 0.12499084323644638 0.1392560750246048
0.023761270567774773 0.27428111433982849 0.12590426206588745
0.10762329399585724 0.26981595158576965 0.11299489438533783
0.27789598703384399 0.2686411440372467 0.11566387861967087
0.48699411749839783 0.26845079660415649 0.12116667628288269
0.69978976249694824 0.2711578905582428 0.13009949028491974
0.80620044469833374 0.26593807339668274 0.13368578255176544
0.85200351476669312 0.25988703966140747 0.13744701445102692
0.062869608402252197 0.45619404315948486 0.12081055343151093
0.12581801414489746 0.45024743676185608 0.12086983770132065
0.26322361826896667 0.44283819198608398 0.11925196647644043
0.44735679030418396 0.43537440896034241 0.11935107409954071
0.66763901710510254 0.43803748488426208 0.13100719451904297
0.81206387281417847 0.43816825747489929 0.14232456684112549
0.86219984292984009 0.4303525984287262 0.14788369834423065
0.11290711164474487 0.63851761817932129 0.13515248894691467
0.16426478326320648 0.63884681463241577 0.1456017792224884
0.26600480079650879 0.63032406568527222 0.14257335662841797
0.43335488438606262 0.61986899375915527 0.13804124295711517
0.65356111526489258 0.62046533823013306 0.15359616279602051
0.82689613103866577 0.61424672603607178 0.17169465124607086
0.87908947467803955 0.60925906896591187 0.16991390287876129
0.15356171131134033 0.76674199104309082 0.161741703748703
0.20323194563388824 0.77522832155227661 0.16564600169658661
0.27398201823234558 0.77379328012466431 0.16870680451393127
0.42144191265106201 0.77527225017547607 0.17007400095462799
0.63800084590911865 0.78957158327102661 0.18193952739238739
0.82495790719985962 0.78871268033981323 0.19469460844993591
0.90099728107452393 0.78019672632217407 0.19494745135307312
0.16986636817455292 0.83235293626785278 0.17380218207836151
0.21851785480976105 0.83818149566650391 0.17030946910381317
0.28178673982620239 0.84381258487701416 0.17502576112747192
0.41885575652122498 0.85749214887619019 0.18148837983608246
0.62213563919067383 0.87446945905685425 0.1882442831993103
0.81953650712966919 0.88725340366363525 0.19984909892082214
0.92444157600402832 0.89222246408462524 0.2067171186208725
0.015130076557397842 0.0092312237247824669 0.30804193019866943
0.13760216534137726 0.013207932934165001 0.30745521187782288
0.34128645062446594 0.015706529840826988 0.30819851160049438
0.55752098560333252 0.025755729526281357 0.31425991654396057
0.72652441263198853 0.038579229265451431 0.30472829937934875
0.79259657859802246 0.024704892188310623 0.30101951956748962
0.84473079442977905 0.045812405645847321 0.29158562421798706
0.01823405921459198 0.12599053978919983 0.29538670182228088
0.13128998875617981 0.12478180229663849 0.28987270593643188
0.32326200604438782 0.12817338109016418 0.29143795371055603
0.53650945425033569 0.12976047396659851 0.29221275448799133
0.73030257225036621 0.13952048122882843 0.28127500414848328
0.8014686107635498 0.13163638114929199 0.27997085452079773
0.85428756475448608 0.14759771525859833 0.2809966504573822
0.038069602102041245 0.28444209694862366 0.27405387163162231
0.11918739229440689 0.28172236680984497 0.26972633600234985
0.3016364574432373 0.28612053394317627 0.27181163430213928
0.51033651828765869 0.28218019008636475 0.26645746827125549
0.71685057878494263 0.28256112337112427 0.26636099815368652
0.81602907180786133 0.27460873126983643 0.26093640923500061
0.86893415451049805 0.27267149090766907 0.25648540258407593
0.071671582758426666 0.45770043134689331 0.24104371666908264
0.13156436383724213 0.45493119955062866 0.24396722018718719
0.27564108371734619 0.45324689149856567 0.2391812652349472
0.47178587317466736 0.45066529512405396 0.23533254861831665
0.69347858428955078 0.45548519492149353 0.246360182762146
0.82659083604812622 0.45227786898612976 0.24388426542282104
0.8809736967086792 0.44474378228187561 0.24497693777084351
0.12003012001514435 0.64078068733215332 0.22834822535514832
0.17300683259963989 0.64107793569564819 0.23824955523014069
0.28132018446922302 0.63710027933120728 0.23066927492618561
0.45544889569282532 0.63387978076934814 0.22563040256500244
0.67099201679229736 0.63364142179489136 0.23441796004772186
0.83361077308654785 0.6244465708732605 0.2368265688419342
0.89044010639190674 0.62195301055908203 0.24194231629371643
0.15973399579524994 0.77534490823745728 0.22995109856128693
0.21362687647342682 0.78222793340682983 0.23303768038749695
0.29425695538520813 0.78845614194869995 0.24116671085357666
0.44520819187164307 0.79248905181884766 0.24546235799789429
0.64413809776306152 0.79348897933959961 0.24481232464313507
0.82771217823028564 0.800639808177948 0.25433504581451416
0.90851128101348877 0.79214197397232056 0.24799910187721252
0.17650432884693146 0.83681917190551758 0.23312772810459137
0.23184306919574738 0.85034668445587158 0.21650712192058563
0.29624706506729126 0.85635107755661011 0.23257295787334442
0.43457743525505066 0.86772602796554565 0.24609225988388062
0.62743043899536133 0.87460184097290039 0.24462758004665375
0.83046823740005493 0.89426571130752563 0.25843745470046997
0.93739026784896851 0.90475857257843018 0.26612615585327148
0.016764562577009201 0.016940442845225334 0.48285847902297974
0.15031224489212036 0.02099132165312767 0.4970586895942688
0.34636330604553223 0.027904825285077095 0.49022024869918823
0.55936175584793091 0.045904930680990219 0.49218899011611938
0.73217678070068359 0.065401874482631683 0.48656004667282104
0.79798424243927002 0.053649589419364929 0.4765465259552002
0.8440248966217041 0.061568316072225571 0.46001079678535461
0.024270884692668915 0.14919792115688324 0.46951001882553101
0.14161422848701477 0.14899724721908569 0.47364506125450134
0.32762548327445984 0.14789821207523346 0.47425928711891174
0.54194653034210205 0.14998283982276917 0.47685596346855164
0.7358241081237793 0.16541582345962524 0.4646943211555481
0.80918550491333008 0.16442887485027313 0.4562191367149353
0.85507851839065552 0.16490288078784943 0.44677144289016724
0.054575841873884201 0.30027177929878235 0.45321506261825562
0.13603666424751282 0.29965353012084961 0.4517863392829895
0.31065195798873901 0.30422490835189819 0.45829832553863525
0.53350871801376343 0.30400225520133972 0.46080255508422852
0.74131560325622559 0.30732190608978271 0.45446738600730896
0.83586978912353516 0.30208760499954224 0.44905504584312439
0.882415771484375 0.30045133829116821 0.43883225321769714
0.089555494487285614 0.46704885363578796 0.42573544383049011
0.14692893624305725 0.46490147709846497 0.42345139384269714
0.28760707378387451 0.47041928768157959 0.42779764533042908
0.51401513814926147 0.48331940174102783 0.43971794843673706
0.74086683988571167 0.49125903844833374 0.44668141007423401
0.86687898635864258 0.48529943823814392 0.44162857532501221
0.91155946254730225 0.47845548391342163 0.43641507625579834
0.13329823315143585 0.6464083194732666 0.40574079751968384
0.18424265086650848 0.64399039745330811 0.4064064621925354
0.29692059755325317 0.65245527029037476 0.40840855240821838
0.499470055103302 0.67118817567825317 0.41929921507835388
0.71572506427764893 0.67319184541702271 0.41733825206756592
0.86998158693313599 0.6622999906539917 0.41289809346199036
0.92213958501815796 0.65653550624847412 0.41183885931968689
0.17055630683898926 0.78104430437088013 0.37761643528938293
0.22500629723072052 0.78227561712265015 0.37893003225326538
0.30654719471931458 0.79563421010971069 0.38573551177978516
0.4797045886516571 0.82332742214202881 0.39844182133674622
0.676433265209198 0.82791686058044434 0.38988694548606873
0.85026556253433228 0.82286685705184937 0.3855019211769104
0.93283760547637939 0.81926608085632324 0.38755175471305847
0.18446323275566101 0.84141963720321655 0.35840821266174316
0.24305690824985504 0.8546261191368103 0.34635815024375916
0.3031255304813385 0.86078673601150513 0.35662734508514404
0.46156826615333557 0.88812196254730225 0.37876966595649719
0.66581875085830688 0.90751147270202637 0.37933757901191711
0.85062414407730103 0.91847389936447144 0.37655353546142578
0.95554035902023315 0.92918854951858521 0.39113476872444153
0.01847870834171772 0.029318341985344887 0.61784636974334717
0.15234649181365967 0.032345730811357498 0.636119544506073
0.34541812539100647 0.035185467451810837 0.63449716567993164
0.56203770637512207 0.053238827735185623 0.64013469219207764
0.73264825344085693 0.064615704119205475 0.64368271827697754
0.8005366325378418 0.035178598016500473 0.64715099334716797
0.84921503067016602 0.061396054923534393 0.62567442655563354
0.038562774658203125 0.16474753618240356 0.62655884027481079
0.15080341696739197 0.16540199518203735 0.62720698118209839
0.3329278826713562 0.1611255556344986 0.63452613353729248
0.54544299840927124 0.16219186782836914 0.65037429332733154
0.73438757658004761 0.1793220043182373 0.64345061779022217
0.81250220537185669 0.17248603701591492 0.6369788646697998
0.86030137538909912 0.18417350947856903 0.61873197555541992
0.072396084666252136 0.31362113356590271 0.62754946947097778
0.15190583467483521 0.31412878632545471 0.63172608613967896
0.32745689153671265 0.32614815235137939 0.64481693506240845
0.54972547292709351 0.32907631993293762 0.65529489517211914
0.74873226881027222 0.33082675933837891 0.64199018478393555
0.84757828712463379 0.32449960708618164 0.63433843851089478
0.89215320348739624 0.32952558994293213 0.62394922971725464
0.10724151879549026 0.4793185293674469 0.62083160877227783
0.16930501163005829 0.47721937298774719 0.61936497688293457
0.31045758724212646 0.49147436022758484 0.62700939178466797
0.54024398326873779 0.5137321949005127 0.64736789464950562
0.75446051359176636 0.52111220359802246 0.64644938707351685
0.88309919834136963 0.51796436309814453 0.64101850986480713
0.92479908466339111 0.51707518100738525 0.6375579833984375
0.14756286144256592 0.6580270528793335 0.59434658288955688
0.20526883006095886 0.65765243768692017 0.60112446546554565
0.31182613968849182 0.66643255949020386 0.60827910900115967
0.52438032627105713 0.6944279670715332 0.62509065866470337
0.74236094951629639 0.70689797401428223 0.63276124000549316
0.90070575475692749 0.70438337326049805 0.64080482721328735
0.95111638307571411 0.70160603523254395 0.63932126760482788
0.19058282673358917 0.80263751745223999 0.56645208597183228
0.25241747498512268 0.80746841430664062 0.5682106614112854
0.33046612143516541 0.8149990439414978 0.5725938081741333
0.50894486904144287 0.84368449449539185 0.58887553215026855
0.72398340702056885 0.86422055959701538 0.61179399490356445
0.89638108015060425 0.86676639318466187 0.61964124441146851
0.97213578224182129 0.8632206916809082 0.62235689163208008
0.20698274672031403 0.86544346809387207 0.5341486930847168
0.26683306694030762 0.87542092800140381 0.53630524873733521
0.33563232421875 0.88666439056396484 0.54262703657150269
0.49921971559524536 0.91669142246246338 0.57041722536087036
0.71543186902999878 0.94841164350509644 0.59110867977142334
0.89076024293899536 0.96093159914016724 0.59520351886749268
0.98461019992828369 0.96638870239257812 0.60725891590118408
0.017894251272082329 0.038763456046581268 0.68858057260513306
0.1494792252779007 0.049917377531528473 0.69357836246490479
0.34351789951324463 0.050501804798841476 0.70543855428695679
0.56168901920318604 0.045620594173669815 0.71792638301849365
0.73975229263305664 0.065834194421768188 0.72821503877639771
0.80219835042953491 0.034248396754264832 0.72643625736236572
0.85496228933334351 0.064873412251472473 0.72289574146270752
0.038233440369367599 0.16974446177482605 0.70082128047943115
0.15239714086055756 0.17019654810428619 0.70174992084503174
0.33789128065109253 0.16824299097061157 0.71264255046844482
0.54506129026412964 0.17227423191070557 0.72729390859603882
0.73525393009185791 0.18487195670604706 0.73974883556365967
0.81315642595291138 0.17002008855342865 0.7393379807472229
0.8667137622833252 0.19571349024772644 0.73239141702651978
0.07947414368391037 0.31614261865615845 0.71146613359451294
0.1597900390625 0.31788384914398193 0.72273993492126465
0.33883395791053772 0.33375021815299988 0.74291199445724487
0.55607157945632935 0.34100288152694702 0.76518541574478149
0.75550943613052368 0.34271115064620972 0.76248687505722046
0.85342812538146973 0.3289545476436615 0.76014047861099243
0.89699083566665649 0.33389988541603088 0.75919800996780396
0.11826594918966293 0.47972568869590759 0.73135817050933838
0.17508882284164429 0.47767725586891174 0.73512053489685059
0.3230595588684082 0.49961704015731812 0.75826352834701538
0.55825299024581909 0.53265208005905151 0.79550540447235107
0.76669609546661377 0.54201781749725342 0.79605329036712646
0.89168894290924072 0.53574645519256592 0.79407685995101929
0.93644529581069946 0.53494143486022949 0.79845952987670898
0.16680142283439636 0.66023856401443481 0.7559741735458374
0.22003230452537537 0.66154628992080688 0.75710463523864746
0.31942754983901978 0.67056381702423096 0.76893293857574463
0.54065835475921631 0.70322048664093018 0.80053293704986572
0.76543384790420532 0.72871190309524536 0.82007026672363281
0.91855579614639282 0.73671680688858032 0.83143138885498047
0.97000038623809814 0.73644107580184937 0.83164387941360474
0.20567595958709717 0.81179153919219971 0.74599343538284302
0.2701127827167511 0.8187982439994812 0.75129121541976929
0.33556094765663147 0.82225292921066284 0.75416809320449829
0.51572263240814209 0.84631824493408203 0.77840602397918701
0.75026369094848633 0.8812745213508606 0.82091230154037476
0.92648530006408691 0.907237708568573 0.84520143270492554
0.99312883615493774 0.90452700853347778 0.8397526741027832
0.21984955668449402 0.87295424938201904 0.72732579708099365
0.28101125359535217 0.88100045919418335 0.73349529504776001
0.33875435590744019 0.89003270864486694 0.73626649379730225
0.50365006923675537 0.9210810661315918 0.75824487209320068
0.73649674654006958 0.96093881130218506 0.79738938808441162
0.92219406366348267 0.99130892753601074 0.83105957508087158
0.99827218055725098 0.99465489387512207 0.83886468410491943
0.021150341257452965 0.032285280525684357 0.73813867568969727
0.15358720719814301 0.051249559968709946 0.74079972505569458
0.34168288111686707 0.057840414345264435 0.75261890888214111
0.55452275276184082 0.047869574278593063 0.76785516738891602
0.74031788110733032 0.08342946320772171 0.78014260530471802
0.80862390995025635 0.071840770542621613 0.77432417869567871
0.85390406847000122 0.043532039970159531 0.77143567800521851
0.030790545046329498 0.16528439521789551 0.74659061431884766
0.14764244854450226 0.17360517382621765 0.7498701810836792
0.33467522263526917 0.18287479877471924 0.76070302724838257
0.53678995370864868 0.17379589378833771 0.77615219354629517
0.72527748346328735 0.19253294169902802 0.78618901968002319
0.81532770395278931 0.19151054322719574 0.78312891721725464
0.86883658170700073 0.18764735758304596 0.78494554758071899
0.065081112086772919 0.31225490570068359 0.75815534591674805
0.15529856085777283 0.314870685338974 0.7667807936668396
0.33874103426933289 0.33554345369338989 0.78580057621002197
0.55156403779983521 0.3446044921875 0.80810314416885376
0.74126946926116943 0.34633412957191467 0.8109164834022522
0.84944576025009155 0.33637163043022156 0.81264311075210571
0.90086084604263306 0.33199778199195862 0.81885504722595215
0.11370180547237396 0.47862622141838074 0.77772849798202515
0.18482884764671326 0.478192538022995 0.78555476665496826
0.33600553870201111 0.50081765651702881 0.81004679203033447
0.56440633535385132 0.53847920894622803 0.84266859292984009
0.76566892862319946 0.54657202959060669 0.85094952583312988
0.89023631811141968 0.53993445634841919 0.85732161998748779
0.94340580701828003 0.53732955455780029 0.8693428635597229
0.16872452199459076 0.66111522912979126 0.80644398927688599
0.23070316016674042 0.66135531663894653 0.81359744071960449
0.33302608132362366 0.67194509506225586 0.82784157991409302
0.54839223623275757 0.7048766016960144 0.8605225682258606
0.77328222990036011 0.73292356729507446 0.88738024234771729
0.92335605621337891 0.74400407075881958 0.90351098775863647
0.98016548156738281 0.74507743120193481 0.91430968046188354
0.20994973182678223 0.81155312061309814 0.82633525133132935
0.272541344165802 0.82336980104446411 0.83388841152191162
0.33700323104858398 0.8254162073135376 0.84012055397033691
0.52402067184448242 0.85526382923126221 0.86809754371643066
0.7582629919052124 0.89352130889892578 0.91051399707794189
0.93617826700210571 0.91446405649185181 0.94185006618499756
0.99662691354751587 0.91310590505599976 0.948486328125
0.22481347620487213 0.88032716512680054 0.82657116651535034
0.28170609474182129 0.88903087377548218 0.83847928047180176
0.34374624490737915 0.89466601610183716 0.8406376838684082
0.51425367593765259 0.93242132663726807 0.86800223588943481
0.74351006746292114 0.97357505559921265 0.91589772701263428
0.93121147155761719 0.99579381942749023 0.96013110876083374
0.99946326017379761 0.99708157777786255 0.97253447771072388
