assets/lut/editingcorp vita.cube
# Created by: G'MIC (https://gmic.eu)
TITLE "vita"
# LUT size
LUT_3D_SIZE 13
# Data domain
DOMAIN_MIN 0.0 0.0 0.0
DOMAIN_MAX 1.0 1.0 1.0
# LUT data points
0.0016166686546057463 0.0035652909427881241 0.0229784045368433
0.024401945993304253 0.0018770255846902728 0.020024945959448814
0.11026614159345627 0.0029337715823203325 0.023124769330024719
0.21860033273696899 0.003478076308965683 0.026694219559431076
0.34219491481781006 0.0088294530287384987 0.032537765800952911
0.47830668091773987 0.022326599806547165 0.048671603202819824
0.59611213207244873 0.035225316882133484 0.065940454602241516
0.67686915397644043 0.040751468390226364 0.074419401586055756
0.72828876972198486 0.040781717747449875 0.07646680623292923
0.76264393329620361 0.03698260709643364 0.074143290519714355
0.79110288619995117 0.031391847878694534 0.068255767226219177
0.82043588161468506 0.027305439114570618 0.06151377409696579
0.85309886932373047 0.026869231835007668 0.056351307779550552
0.0029493144247680902 0.041249323636293411 0.032610487192869186
0.025418106466531754 0.03496074303984642 0.028726270422339439
0.10161507129669189 0.035918891429901123 0.030425187200307846
0.20838357508182526 0.040643833577632904 0.037049729377031326
0.33475890755653381 0.050900924950838089 0.045569192618131638
0.47243687510490417 0.067480690777301788 0.057642471045255661
0.59124922752380371 0.082639791071414948 0.071100018918514252
0.6756860613822937 0.091819107532501221 0.080433264374732971
0.72951245307922363 0.094663999974727631 0.08458392322063446
0.76487582921981812 0.092321120202541351 0.084046274423599243
0.7945135235786438 0.086909472942352295 0.078849583864212036
0.82433974742889404 0.082763746380805969 0.072132781147956848
0.85664916038513184 0.083370700478553772 0.066653907299041748
0.0044419532641768456 0.12287621945142746 0.037036716938018799
0.029939837753772736 0.11648311465978622 0.034132175147533417
0.10139293223619461 0.11154808849096298 0.03532714769244194
0.20278099179267883 0.11514418572187424 0.041658677160739899
0.33036836981773376 0.12289395928382874 0.051453504711389542
0.46824550628662109 0.13422034680843353 0.063162453472614288
0.58738189935684204 0.14627490937709808 0.075294911861419678
0.6745762825012207 0.15495310723781586 0.08436894416809082
0.73192876577377319 0.15806472301483154 0.089981168508529663
0.77004319429397583 0.1558053195476532 0.091158337891101837
0.80061590671539307 0.14994801580905914 0.088195756077766418
0.83052963018417358 0.14545735716819763 0.082838423550128937
0.86194133758544922 0.14644606411457062 0.077855952084064484
0.0061121773906052113 0.2156635969877243 0.044306032359600067
0.037953678518533707 0.21154689788818359 0.042292173951864243
0.10285838693380356 0.20794446766376495 0.042690802365541458
0.19775570929050446 0.20935148000717163 0.047737076878547668
0.32341763377189636 0.21339890360832214 0.057170148938894272
0.46312868595123291 0.21933978796005249 0.06916934996843338
0.58580523729324341 0.22649960219860077 0.079830393195152283
0.67618900537490845 0.23228611052036285 0.08804098516702652
0.73692315816879272 0.23419231176376343 0.093914002180099487
0.7775837779045105 0.23105883598327637 0.096736147999763489
0.8089977502822876 0.22436396777629852 0.096384041011333466
0.83830511569976807 0.21804817020893097 0.093216344714164734
0.86903393268585205 0.21888278424739838 0.089291557669639587
0.010425447486341 0.3152981698513031 0.054624579846858978
0.044101342558860779 0.31338340044021606 0.053545903414487839
0.10095524787902832 0.31195846199989319 0.054113812744617462
0.18751083314418793 0.31295579671859741 0.057235836982727051
0.3094823956489563 0.31445494294166565 0.064597651362419128
0.45464342832565308 0.31620320677757263 0.074935734272003174
0.5842089056968689 0.31887158751487732 0.083919703960418701
0.67832744121551514 0.32240980863571167 0.091740056872367859
0.74239200353622437 0.32286635041236877 0.098293930292129517
0.78550779819488525 0.31958216428756714 0.10286754369735718
0.81764358282089233 0.31305152177810669 0.10451969504356384
0.84698176383972168 0.3055870532989502 0.10329450666904449
0.87748879194259644 0.30427324771881104 0.10050496459007263
0.019412500783801079 0.41828864812850952 0.06793580949306488
0.053100436925888062 0.41831514239311218 0.068011462688446045
0.10312753170728683 0.41863280534744263 0.068690568208694458
0.17778140306472778 0.41979542374610901 0.069766595959663391
0.29034063220024109 0.4207211434841156 0.073223933577537537
0.43886670470237732 0.4193168580532074 0.079977519810199738
0.57548362016677856 0.4191279411315918 0.088070541620254517
0.67711758613586426 0.41953688859939575 0.096486382186412811
0.74676972627639771 0.41918304562568665 0.10418451577425003
0.79300731420516968 0.41686844825744629 0.11052962392568588
0.82643997669219971 0.41174909472465515 0.11403539031744003
0.85659301280975342 0.4040699303150177 0.11384208500385284
0.88715004920959473 0.39936619997024536 0.11144635081291199
0.034161556512117386 0.5210186243057251 0.084315329790115356
0.068643577396869659 0.52236580848693848 0.085378117859363556
0.11523971706628799 0.52307385206222534 0.086720488965511322
0.18228815495967865 0.52464151382446289 0.086169376969337463
0.28484043478965759 0.52544808387756348 0.086477689445018768
0.42360356450080872 0.52395451068878174 0.090009994804859161
0.56180059909820557 0.52182728052139282 0.096263870596885681
0.67221552133560181 0.5198291540145874 0.10441336780786514
0.74995815753936768 0.51706516742706299 0.11299601197242737
0.80147790908813477 0.51476520299911499 0.12046845257282257
0.83700835704803467 0.50995463132858276 0.12506610155105591
0.86804652214050293 0.50181782245635986 0.12505851686000824
0.89806270599365234 0.49398359656333923 0.12263789772987366
0.054059557616710663 0.6191219687461853 0.10325965285301208
0.090533584356307983 0.62152814865112305 0.10479246824979782
0.1357671320438385 0.62268549203872681 0.10620398074388504
0.19895502924919128 0.6226954460144043 0.10440709441900253
0.29306823015213013 0.62282603979110718 0.10381390154361725
0.41761288046836853 0.62291508913040161 0.10523089021444321
0.5499953031539917 0.62137269973754883 0.10957444459199905
0.6654859185218811 0.6178511381149292 0.11666023731231689
0.75153803825378418 0.61271661520004272 0.12492422759532928
0.81024080514907837 0.60666579008102417 0.13248826563358307
0.85001522302627563 0.59982764720916748 0.13672307133674622
0.88096696138381958 0.59200328588485718 0.13661427795886993
0.90924084186553955 0.58386313915252686 0.1341833770275116
0.075432933866977692 0.70783412456512451 0.12385832518339157
0.11423948407173157 0.71053773164749146 0.12536536157131195
0.15716472268104553 0.71038645505905151 0.12521667778491974
0.21334654092788696 0.70819133520126343 0.12343726307153702
0.29682579636573792 0.70821374654769897 0.12234039604663849
0.40985152125358582 0.7104870080947876 0.1227174773812294
0.537028968334198 0.71243143081665039 0.12568953633308411
0.65488713979721069 0.70989787578582764 0.13151906430721283
0.7483028769493103 0.70176303386688232 0.13898667693138123
0.81524759531021118 0.69187796115875244 0.1458735466003418
0.85924720764160156 0.68363076448440552 0.14937722682952881
0.89076697826385498 0.67584735155105591 0.14880853891372681
0.91823554039001465 0.66836643218994141 0.14623470604419708
0.092930875718593597 0.78190368413925171 0.14270228147506714
0.13227826356887817 0.78392654657363892 0.14321336150169373
0.17131806910037994 0.78159058094024658 0.14181473851203918
0.21826741099357605 0.77775692939758301 0.14013443887233734
0.29069626331329346 0.77690708637237549 0.13871611654758453
0.39438682794570923 0.78121209144592285 0.13869886100292206
0.51894122362136841 0.78770631551742554 0.14113479852676392
0.63900238275527954 0.78846597671508789 0.14614175260066986
0.73749732971191406 0.78029799461364746 0.15237961709499359
0.8109632134437561 0.7696729302406311 0.15838491916656494
0.86018025875091553 0.76175051927566528 0.16166013479232788
0.89479100704193115 0.75521403551101685 0.16128474473953247
0.9236336350440979 0.74860525131225586 0.15886209905147552
0.10139698535203934 0.83803462982177734 0.15447443723678589
0.13789954781532288 0.83782893419265747 0.15512008965015411
0.17270243167877197 0.8336479663848877 0.15371038019657135
0.21311457455158234 0.82839405536651611 0.15180313587188721
0.27518609166145325 0.826404869556427 0.15039089322090149
0.37079107761383057 0.83107554912567139 0.15023389458656311
0.49294015765190125 0.84024780988693237 0.15263006091117859
0.61589699983596802 0.84488153457641602 0.15672270953655243
0.71933287382125854 0.84119206666946411 0.16238364577293396
0.79928845167160034 0.83462041616439819 0.16795676946640015
0.85531991720199585 0.82940667867660522 0.17171488702297211
0.89454096555709839 0.82723891735076904 0.17279450595378876
0.9262843132019043 0.82336747646331787 0.17149832844734192
0.10175847262144089 0.87977206707000732 0.15880218148231506
0.13593477010726929 0.8779979944229126 0.16035081446170807
0.16756764054298401 0.87225347757339478 0.15986543893814087
0.2043236643075943 0.86593484878540039 0.15838000178337097
0.25842607021331787 0.86206108331680298 0.15704922378063202
0.34664744138717651 0.86538368463516235 0.15708227455615997
0.4666256308555603 0.87494385242462158 0.1593765914440155
0.59225225448608398 0.88197201490402222 0.16314294934272766
0.70240390300750732 0.88355809450149536 0.16796912252902985
0.78799867630004883 0.88261502981185913 0.17347700893878937
0.84949928522109985 0.88204610347747803 0.17826870083808899
0.89357304573059082 0.88423895835876465 0.1810297966003418
0.92925471067428589 0.88414508104324341 0.18111772835254669
0.097656413912773132 0.91623270511627197 0.15895465016365051
0.13111633062362671 0.91210258007049561 0.16137252748012543
0.16329798102378845 0.90559017658233643 0.16208747029304504
0.20008562505245209 0.89903157949447632 0.16148379445075989
0.25391694903373718 0.89495283365249634 0.16074886918067932
0.33817407488822937 0.89677637815475464 0.16136108338832855
0.4514736533164978 0.90434491634368896 0.16327986121177673
0.57452040910720825 0.91165411472320557 0.16637450456619263
0.68734496831893921 0.91566973924636841 0.17052826285362244
0.77617472410202026 0.91916161775588989 0.17602977156639099
0.8421974778175354 0.92274200916290283 0.18140476942062378
0.89195525646209717 0.92761647701263428 0.18515285849571228
0.93176299333572388 0.93108785152435303 0.18662752211093903
0.00093730853404849768 0.0016343808965757489 0.063441574573516846
0.024083590134978294 0.0017081914702430367 0.064877934753894806
0.10965914279222488 0.0038166868034750223 0.065947256982326508
0.22087189555168152 0.0052878586575388908 0.065020330250263214
0.34488394856452942 0.0098710153251886368 0.066565707325935364
0.47812426090240479 0.018481655046343803 0.081025637686252594
0.59580773115158081 0.028632683679461479 0.096205905079841614
0.68024975061416626 0.034743573516607285 0.1054629310965538
0.73326152563095093 0.035456325858831406 0.1089785099029541
0.76615715026855469 0.032076068222522736 0.10777366161346436
0.79200112819671631 0.026897849515080452 0.1026555523276329
0.82032209634780884 0.024399461224675179 0.096708796918392181
0.85327255725860596 0.025786006823182106 0.093236841261386871
0.0051750033162534237 0.034027263522148132 0.076189585030078888
0.025939088314771652 0.033383209258317947 0.072508729994297028
0.10329006612300873 0.03652331605553627 0.072011478245258331
0.21159756183624268 0.041705083101987839 0.074375361204147339
0.33918008208274841 0.050156239420175552 0.079388760030269623
0.47658482193946838 0.062797948718070984 0.088976643979549408
0.59523749351501465 0.076324447989463806 0.10081280022859573
0.68059760332107544 0.085554234683513641 0.10998079180717468
0.73414552211761475 0.088743425905704498 0.11533515900373459
0.76758414506912231 0.086756870150566101 0.11592055857181549
0.7954864501953125 0.081926561892032623 0.11125139892101288
0.82452249526977539 0.079716190695762634 0.10539595782756805
0.85671329498291016 0.082191407680511475 0.10138083249330521
0.0067400014959275723 0.11674695461988449 0.079751156270503998
0.028589570894837379 0.11491720378398895 0.07623666524887085
0.10024571418762207 0.11138123273849487 0.075402714312076569
0.20289058983325958 0.1148507222533226 0.07740522176027298
0.33370846509933472 0.1207745298743248 0.08351404219865799
0.4736272394657135 0.12994545698165894 0.093185380101203918
0.59249049425125122 0.14127263426780701 0.10433848947286606
0.67967730760574341 0.14960363507270813 0.11340533941984177
0.73647069931030273 0.15269099175930023 0.11933611333370209
0.77273476123809814 0.15038350224494934 0.12134602665901184
0.80187904834747314 0.14559940993785858 0.11882276087999344
0.83093357086181641 0.14322075247764587 0.11452331393957138
0.86209052801132202 0.14620102941989899 0.11097852140665054
0.0071859918534755707 0.21192611753940582 0.084859125316143036
0.035550374537706375 0.2095961719751358 0.082055650651454926
0.098877638578414917 0.20729765295982361 0.080447286367416382
0.19521588087081909 0.20897284150123596 0.081269420683383942
0.32307660579681396 0.2121892124414444 0.088044546544551849
0.46507608890533447 0.21702349185943604 0.098915085196495056
0.58901983499526978 0.22376972436904907 0.1088322177529335
0.68030828237533569 0.22912128269672394 0.11653769761323929
0.74091529846191406 0.23038545250892639 0.12220490723848343
0.7802998423576355 0.22715888917446136 0.12518143653869629
0.81027072668075562 0.22202236950397491 0.12513554096221924
0.83884936571121216 0.21872274577617645 0.12312904745340347
0.86942160129547119 0.2213229238986969 0.12105566263198853
0.010542402043938637 0.3124883770942688 0.092587627470493317
0.042039461433887482 0.31127443909645081 0.090511143207550049
0.098047472536563873 0.31044873595237732 0.08932080864906311
0.18517176806926727 0.31144803762435913 0.089676909148693085
0.30713847279548645 0.31336292624473572 0.094356641173362732
0.45173719525337219 0.31572368741035461 0.10444482415914536
0.58306396007537842 0.31888410449028015 0.11259628087282181
0.68018049001693726 0.3220994770526886 0.11920973658561707
0.745635986328125 0.32170364260673523 0.12516410648822784
0.78838843107223511 0.31772598624229431 0.12932196259498596
0.81985485553741455 0.31250575184822083 0.13144202530384064
0.84844940900802612 0.30818888545036316 0.13138964772224426
0.87825924158096313 0.30814909934997559 0.13088731467723846
0.018408427014946938 0.41650828719139099 0.10260450839996338
0.050872817635536194 0.41621765494346619 0.10204306244850159
0.10149365663528442 0.41610130667686462 0.10199263691902161
0.17867138981819153 0.41725662350654602 0.10105706006288528
0.29220527410507202 0.41895982623100281 0.1017097607254982
0.43579959869384766 0.41995334625244141 0.10732119530439377
0.57313913106918335 0.4211614727973938 0.11500547826290131
0.67810022830963135 0.42125296592712402 0.1225251704454422
0.74945545196533203 0.41962236166000366 0.12943218648433685
0.79651731252670288 0.41619831323623657 0.13528239727020264
0.82999545335769653 0.41117483377456665 0.13903282582759857
0.85913819074630737 0.4056735634803772 0.14062100648880005
0.88837927579879761 0.40237796306610107 0.14091077446937561
0.031447093933820724 0.52016162872314453 0.11544348299503326
0.065338298678398132 0.52053117752075195 0.11675383895635605
0.11320124566555023 0.52024203538894653 0.11814035475254059
0.1833006739616394 0.52166157960891724 0.11646328866481781
0.28819531202316284 0.52401262521743774 0.11412425339221954
0.42448574304580688 0.52518159151077271 0.11580061167478561
0.56167805194854736 0.52473151683807373 0.1212504655122757
0.67296373844146729 0.52268987894058228 0.12884649634361267
0.75186067819595337 0.51886498928070068 0.1371336430311203
0.80481123924255371 0.51401406526565552 0.1446383148431778
0.84129112958908081 0.50855338573455811 0.14957894384860992
0.87114989757537842 0.50179636478424072 0.15133768320083618
0.89936494827270508 0.49645969271659851 0.15161597728729248
0.05005481094121933 0.61941725015640259 0.13187311589717865
0.085161291062831879 0.61994779109954834 0.13389912247657776
0.13015194237232208 0.61966848373413086 0.13549324870109558
0.19460475444793701 0.62032169103622437 0.1341683566570282
0.29059883952140808 0.62285524606704712 0.13111554086208344
0.41617670655250549 0.62391537427902222 0.13046972453594208
0.54976099729537964 0.62404531240463257 0.13375161588191986
0.66552430391311646 0.62103933095932007 0.14059177041053772
0.75247073173522949 0.61457198858261108 0.1493191123008728
0.8121526837348938 0.60688549280166626 0.15785221755504608
0.85288876295089722 0.59894919395446777 0.16309826076030731
0.88326382637023926 0.59124630689620972 0.1639912873506546
0.91031825542449951 0.58508235216140747 0.16313302516937256
0.071714438498020172 0.7084500789642334 0.15242257714271545
0.10742316395044327 0.70934677124023438 0.15338040888309479
0.14818187057971954 0.70805007219314575 0.15365040302276611
0.20389850437641144 0.70719689130783081 0.15279020369052887
0.28805026412010193 0.70944690704345703 0.15062762796878815
0.40362262725830078 0.7125694751739502 0.14935117959976196
0.53353726863861084 0.71417808532714844 0.15107716619968414
0.65299201011657715 0.71212244033813477 0.15671409666538239
0.74700635671615601 0.70432668924331665 0.16513563692569733
0.81457984447479248 0.69392895698547363 0.17358027398586273
0.86007285118103027 0.68353235721588135 0.17809094488620758
0.89223206043243408 0.67481595277786255 0.17750315368175507
0.91904538869857788 0.66811883449554443 0.17547218501567841
0.091418877243995667 0.78267925977706909 0.17348800599575043
0.1268235445022583 0.78179711103439331 0.17234157025814056
0.16280688345432281 0.77881920337677002 0.17111128568649292
0.20822083950042725 0.7769312858581543 0.16993571817874908
0.27987101674079895 0.77870464324951172 0.16883651912212372
0.38568353652954102 0.78363913297653198 0.16775079071521759
0.51258301734924316 0.78869658708572388 0.16866239905357361
0.63445276021957397 0.78980761766433716 0.17326794564723969
0.73411673307418823 0.78409504890441895 0.18076585233211517
0.80868476629257202 0.77346962690353394 0.18828517198562622
0.86029040813446045 0.76283901929855347 0.19218970835208893
0.8962932825088501 0.75383341312408447 0.19123224914073944
0.92435771226882935 0.74699187278747559 0.18890587985515594
0.10369282215833664 0.83769416809082031 0.18620866537094116
0.13829922676086426 0.8349539041519165 0.18555375933647156
0.16986139118671417 0.83034622669219971 0.18400166928768158
0.20775599777698517 0.82771873474121094 0.18271078169345856
0.26889455318450928 0.82855761051177979 0.18162485957145691
0.36520740389823914 0.83407580852508545 0.18106232583522797
0.4882320761680603 0.84209567308425903 0.1821676641702652
0.61223423480987549 0.84690707921981812 0.18619272112846375
0.7172313928604126 0.84555286169052124 0.19279542565345764
0.79818570613861084 0.83882468938827515 0.19937120378017426
0.85688340663909912 0.8304826021194458 0.20344145596027374
0.89742112159729004 0.82516187429428101 0.2041727751493454
0.92824637889862061 0.82157981395721436 0.20336608588695526
0.10703667998313904 0.87813478708267212 0.1903827041387558
0.14057536423206329 0.87413030862808228 0.19164395332336426
0.17034775018692017 0.86854279041290283 0.19084613025188446
0.20462512969970703 0.86474984884262085 0.18974407017230988
0.25892370939254761 0.86415356397628784 0.18892884254455566
0.34741616249084473 0.86893373727798462 0.18903110921382904
0.4659062922000885 0.87764614820480347 0.19059091806411743
0.59150791168212891 0.88454568386077881 0.19406069815158844
0.70263391733169556 0.88670068979263306 0.19962517917156219
0.78969413042068481 0.88450098037719727 0.20590768754482269
0.85356789827346802 0.88198381662368774 0.210844486951828
0.8986247181892395 0.88145840167999268 0.21344932913780212
0.93310141563415527 0.8825802206993103 0.21441507339477539
0.10366876423358917 0.91260069608688354 0.1907271146774292
0.13695165514945984 0.90766865015029907 0.19231210649013519
0.16745665669441223 0.90151482820510864 0.1926533579826355
0.20301496982574463 0.89681518077850342 0.19280390441417694
0.25605809688568115 0.89523512125015259 0.19289122521877289
0.33975771069526672 0.89846789836883545 0.19377532601356506
0.45241236686706543 0.90587818622589111 0.19539225101470947
0.57583969831466675 0.91296923160552979 0.19813841581344604
0.68976366519927979 0.91701263189315796 0.20281989872455597
0.78065627813339233 0.91890448331832886 0.20890265703201294
0.84906315803527832 0.92018300294876099 0.21464830636978149
0.89901196956634521 0.92403972148895264 0.21859191358089447
0.93694120645523071 0.92946833372116089 0.22100381553173065
0.00063210283406078815 0.0040529137477278709 0.13160768151283264
0.030114850029349327 0.0026543710846453905 0.13340191543102264
0.11143957078456879 0.0052985395304858685 0.13175645470619202
0.22113429009914398 0.0049667060375213623 0.1319507509469986
0.34393393993377686 0.0053366417996585369 0.13349263370037079
0.47464445233345032 0.011740680783987045 0.13528813421726227
0.59268820285797119 0.02118287980556488 0.14022637903690338
0.68189746141433716 0.027843400835990906 0.14488613605499268
0.73835152387619019 0.028946027159690857 0.14759448170661926
0.77179634571075439 0.025672987103462219 0.1468392014503479
0.79698938131332397 0.022210603579878807 0.14268581569194794
0.82441145181655884 0.021987257525324821 0.13785713911056519
0.85633760690689087 0.025991762056946754 0.1356576681137085
0.0023060517851263285 0.036180071532726288 0.13574713468551636
0.024444743990898132 0.03384501114487648 0.13518296182155609
0.099359355866909027 0.037814870476722717 0.13387025892734528
0.20982572436332703 0.040490243583917618 0.13461469113826752
0.33753976225852966 0.045535456389188766 0.13706423342227936
0.4729381799697876 0.05685049295425415 0.13831557333469391
0.59292197227478027 0.069854810833930969 0.14207768440246582
0.68273466825485229 0.078663334250450134 0.14720842242240906
0.73917192220687866 0.081534229218959808 0.15098455548286438
0.77342396974563599 0.079179860651493073 0.15126915276050568
0.79995995759963989 0.076103076338768005 0.1481461226940155
0.82778120040893555 0.076679527759552002 0.14366857707500458
0.85915565490722656 0.081951037049293518 0.1415313333272934
0.0034670063760131598 0.11181244254112244 0.13642844557762146
0.020919859409332275 0.111630879342556 0.13581021130084991
0.090170152485370636 0.11112920939922333 0.13409137725830078
0.19860450923442841 0.11320562660694122 0.13153545558452606
0.32990017533302307 0.11815989017486572 0.13323768973350525
0.46986907720565796 0.12655369937419891 0.13709050416946411
0.59127813577651978 0.13703450560569763 0.14340688288211823
0.68122118711471558 0.1445004791021347 0.14959084987640381
0.73994135856628418 0.14650557935237885 0.15408885478973389
0.77660065889358521 0.14374743402004242 0.15559752285480499
0.80482310056686401 0.14061513543128967 0.15404397249221802
0.83337205648422241 0.14143294095993042 0.1508721262216568
0.8640931248664856 0.14719401299953461 0.14917139708995819
0.0055162915959954262 0.2074296772480011 0.13777698576450348
0.029893508180975914 0.20706018805503845 0.13551308214664459
0.091866828501224518 0.20669455826282501 0.13395233452320099
0.18940715491771698 0.20823082327842712 0.13048496842384338
0.31818723678588867 0.21141596138477325 0.13240060210227966
0.4616667628288269 0.21651935577392578 0.1387937068939209
0.58722317218780518 0.22263169288635254 0.14587284624576569
0.68050301074981689 0.227294921875 0.15199959278106689
0.74246495962142944 0.22738419473171234 0.15640012919902802
0.78218919038772583 0.22347693145275116 0.15913780033588409
0.81199580430984497 0.21999712288379669 0.15911281108856201
0.84085994958877563 0.22026166319847107 0.15789541602134705
0.87107104063034058 0.22489219903945923 0.15793566405773163
0.010108588263392448 0.30939316749572754 0.1405436098575592
0.039925161749124527 0.30886399745941162 0.13862241804599762
0.095457099378108978 0.30865609645843506 0.13675816357135773
0.18230700492858887 0.31039279699325562 0.13435211777687073
0.30449974536895752 0.31357601284980774 0.134357750415802
