assets/lut/editingcorpw Sapphire Serenity.cube
LUT_3D_SIZE 6
DOMAIN_MIN 0.0 0.0 0.0
DOMAIN_MAX 1.0 1.0 1.0
0.187808 0.174899 0.161013
0.241715 0.175570 0.169339
0.378802 0.175582 0.176333
0.567455 0.172488 0.175308
0.784250 0.175564 0.171524
1.000000 0.217502 0.163424
0.237033 0.205118 0.163595
0.267817 0.210724 0.163397
0.423877 0.199931 0.144855
0.595811 0.198760 0.154634
0.800735 0.208582 0.155776
1.000000 0.248856 0.127596
0.346667 0.276658 0.195486
0.362178 0.283388 0.197419
0.431617 0.307019 0.195046
0.648898 0.319021 0.131977
0.855368 0.330242 0.022172
1.000000 0.358227 0.000000
0.449171 0.357574 0.214805
0.461802 0.365398 0.216307
0.502344 0.387497 0.219298
0.623472 0.454250 0.203901
0.877686 0.526265 0.000000
1.000000 0.511833 0.000000
0.586358 0.491664 0.206327
0.591872 0.494941 0.205766
0.634680 0.531640 0.202270
0.712198 0.600155 0.192497
0.862156 0.706716 0.080361
1.000000 0.721028 0.000000
0.803006 0.772946 0.000000
0.812418 0.781369 0.000000
0.845957 0.807816 0.000000
0.901878 0.847721 0.000000
0.978802 0.900359 0.000000
1.000000 0.904875 0.000000
0.138228 0.214890 0.245334
0.236865 0.193738 0.244569
0.373034 0.211076 0.238535
0.537549 0.225449 0.256367
0.760171 0.220631 0.256534
1.000000 0.250285 0.248582
0.217554 0.237449 0.241194
0.274340 0.234087 0.239521
0.395872 0.236630 0.244256
0.565545 0.234431 0.246019
0.778830 0.239229 0.245111
1.000000 0.273173 0.233098
0.353841 0.292907 0.239977
0.372314 0.295550 0.243005
0.433039 0.316990 0.246840
0.640213 0.319244 0.210933
0.847748 0.335464 0.187137
1.000000 0.365186 0.135581
0.455356 0.366047 0.245140
0.469152 0.375044 0.247848
0.508462 0.396521 0.252893
0.623658 0.461157 0.248043
0.876256 0.527500 0.084749
1.000000 0.513323 0.000000
0.590928 0.500098 0.231944
0.601868 0.509655 0.232082
0.644863 0.547501 0.232319
0.714919 0.607485 0.230776
0.863248 0.712942 0.185324
1.000000 0.724921 0.000000
0.805832 0.779867 0.000000
0.820012 0.793893 0.000000
0.847792 0.813040 0.000000
0.903875 0.852383 0.000000
0.979647 0.902277 0.000000
1.000000 0.906645 0.033948
0.000000 0.315185 0.405024
0.109059 0.301804 0.402323
0.351567 0.246087 0.388915
0.528886 0.228585 0.361164
0.710494 0.298145 0.389577
0.950768 0.410419 0.453406
0.122497 0.326433 0.395694
0.200382 0.323299 0.395411
0.365131 0.270598 0.382889
0.536121 0.254548 0.360418
0.712008 0.336593 0.399075
0.965005 0.411549 0.443267
0.273283 0.368448 0.381762
0.311058 0.368886 0.382609
0.422951 0.352774 0.368694
0.569257 0.366307 0.378094
0.784416 0.396670 0.394440
1.000000 0.443238 0.401741
0.413521 0.444744 0.341897
0.449931 0.441758 0.348294
0.516952 0.419635 0.347072
0.619142 0.485253 0.369471
0.863852 0.531216 0.333861
1.000000 0.531989 0.288823
0.584035 0.517182 0.309333
0.599682 0.523250 0.312056
0.640890 0.558581 0.321352
0.714911 0.624175 0.339441
0.860062 0.732094 0.356099
1.000000 0.732575 0.178489
0.787668 0.773281 0.182870
0.801293 0.786780 0.185128
0.832672 0.809714 0.188196
0.898835 0.859295 0.211424
0.975667 0.908418 0.257645
1.000000 0.913274 0.187515
0.000000 0.458448 0.603107
0.000000 0.446329 0.598098
0.191036 0.395861 0.581911
0.477523 0.308067 0.563175
0.705880 0.283783 0.541247
0.929088 0.336974 0.563556
0.000000 0.460962 0.587437
0.000000 0.458438 0.588227
0.229376 0.412787 0.575702
0.485938 0.328024 0.560446
0.706323 0.304260 0.536375
0.923731 0.370539 0.560180
0.000000 0.494220 0.575171
0.005566 0.494374 0.576474
0.310183 0.476903 0.563357
0.517932 0.400191 0.549932
0.732004 0.388550 0.534559
0.939211 0.532110 0.592552
0.268689 0.553813 0.550485
0.307037 0.556669 0.552915
0.424234 0.548013 0.544611
0.585447 0.531901 0.527905
0.764385 0.573437 0.548452
0.991244 0.632392 0.577565
0.392530 0.697690 0.503275
0.425555 0.702661 0.501167
0.538449 0.673760 0.475312
0.690650 0.628725 0.470188
0.836676 0.755494 0.547970
1.000000 0.758012 0.497649
0.693684 0.819254 0.342980
0.714272 0.818752 0.342090
0.784521 0.805612 0.340439
0.874832 0.861544 0.395848
0.957752 0.915539 0.478395
1.000000 0.932171 0.509267
0.000000 0.617554 0.823478
0.000000 0.611120 0.822485
0.000000 0.583229 0.818548
0.305531 0.512620 0.811055
0.618802 0.424370 0.789975
0.881578 0.421918 0.788925
0.000000 0.626957 0.820658
0.000000 0.625089 0.822246
0.000000 0.597520 0.817611
0.336905 0.531298 0.807548
0.618222 0.432973 0.778562
0.885657 0.439438 0.788644
0.000000 0.655655 0.814304
0.000000 0.655789 0.815752
0.000000 0.648518 0.811870
0.410092 0.601991 0.804040
0.646335 0.505654 0.783045
0.905941 0.503302 0.788142
0.000000 0.709844 0.803078
0.000000 0.716132 0.810949
0.000000 0.711167 0.808321
0.432615 0.694066 0.792931
0.677197 0.600629 0.765943
0.939374 0.606678 0.767271
0.029048 0.800673 0.792231
0.172537 0.806208 0.798026
0.364787 0.807808 0.797973
0.558689 0.806049 0.791419
0.765020 0.783241 0.757632
0.960686 0.861176 0.826302
0.491206 0.971130 0.820652
0.522625 0.972003 0.818629
0.596933 0.967378 0.790734
0.726496 0.945222 0.729704
0.913756 0.916100 0.686481
1.000000 0.965136 0.826596
0.000000 0.756771 0.994507
0.000000 0.755703 0.994153
0.000000 0.753835 0.993048
0.415845 0.757644 0.990503
0.614453 0.730239 0.990192
0.792874 0.717952 0.988220
0.000000 0.761282 0.991998
0.000000 0.761580 0.992389
0.000000 0.758837 0.991195
0.410527 0.760428 0.988480
0.613918 0.732503 0.987262
0.793015 0.719814 0.986261
0.000000 0.781918 0.993244
0.000000 0.783379 0.992889
0.000000 0.789468 0.991546
0.440888 0.792533 0.989757
0.668611 0.785307 0.987787
0.816812 0.765561 0.987543
0.000000 0.817118 0.992554
0.000000 0.817623 0.993099
0.000000 0.816889 0.993313
0.413581 0.835120 0.990188
0.727854 0.850166 0.985594
0.851212 0.828946 0.987500
0.178604 0.900200 0.995294
0.239078 0.900700 0.995416
0.378238 0.902222 0.995450
0.547691 0.905864 0.995154
0.761041 0.922163 0.991465
0.903276 0.912755 0.989276
0.657404 0.994476 0.993500
0.665278 0.994446 0.993286
0.708718 0.995288 0.993506
0.787015 0.996649 0.993945
0.892937 0.997211 0.994378
0.993591 0.995972 0.995148
