assets/lut/editingcorpw Majestic Matte.cube
LUT_3D_SIZE 16
DOMAIN_MIN 0.0 0.0 0.0
DOMAIN_MAX 1.0 1.0 1.0
0.112581 0.101137 0.095369
0.120052 0.100600 0.095240
0.187179 0.090455 0.096559
0.262748 0.071870 0.103700
0.336907 0.017804 0.110921
0.410437 0.000000 0.117189
0.485375 0.000000 0.124178
0.571514 0.000000 0.134481
0.655073 0.000000 0.148714
0.738326 0.000000 0.164187
0.819394 0.000000 0.180514
0.897282 0.000000 0.198331
0.976098 0.000000 0.217820
1.000000 0.000000 0.239072
1.000000 0.000000 0.262260
1.000000 0.000000 0.293858
0.111079 0.111250 0.093880
0.126779 0.109927 0.093740
0.186571 0.115610 0.096450
0.258534 0.115300 0.106647
0.331072 0.106813 0.115629
0.405072 0.059864 0.121437
0.481869 0.002319 0.128056
0.567172 0.000000 0.138104
0.650095 0.000000 0.151981
0.733505 0.000000 0.167171
0.816000 0.000000 0.183554
0.895222 0.000000 0.201092
0.973746 0.000000 0.220165
1.000000 0.000000 0.240783
1.000000 0.000000 0.263514
1.000000 0.000000 0.295598
0.131411 0.170461 0.093080
0.150223 0.169533 0.094551
0.199581 0.160993 0.098814
0.265403 0.171928 0.100443
0.335919 0.168894 0.109977
0.407935 0.160140 0.120296
0.488717 0.149755 0.132910
0.570256 0.138276 0.149326
0.651445 0.123207 0.167610
0.734413 0.052230 0.183469
0.815732 0.009949 0.198092
0.893917 0.000000 0.214243
0.972767 0.000000 0.232643
1.000000 0.000000 0.253141
1.000000 0.000000 0.276211
1.000000 0.000000 0.307640
0.156704 0.231955 0.095461
0.172335 0.232122 0.097403
0.215025 0.229114 0.099727
0.271028 0.216376 0.107631
0.341415 0.227676 0.106276
0.413556 0.238462 0.112569
0.489944 0.234551 0.127854
0.568138 0.231141 0.145830
0.647491 0.227809 0.165482
0.729253 0.223760 0.186054
0.810605 0.218387 0.207309
0.889837 0.213537 0.229757
0.968004 0.207842 0.253231
1.000000 0.197558 0.275311
1.000000 0.193436 0.297960
1.000000 0.225516 0.331744
0.188510 0.308947 0.098866
0.203517 0.312279 0.100649
0.242091 0.308179 0.105602
0.297973 0.303485 0.109649
0.352415 0.283483 0.122465
0.422754 0.289097 0.124318
0.495799 0.314760 0.121564
0.570792 0.314912 0.140640
0.648963 0.313968 0.160940
0.730135 0.312538 0.181585
0.809177 0.309826 0.203018
0.887524 0.306752 0.225874
0.965883 0.306323 0.251441
1.000000 0.310421 0.280161
1.000000 0.322633 0.312740
1.000000 0.352819 0.355999
0.218845 0.370520 0.106935
0.233207 0.378594 0.109188
0.266801 0.373706 0.116304
0.312779 0.369103 0.119637
0.371155 0.363366 0.123928
0.420539 0.340215 0.139864
0.491343 0.343041 0.146047
0.569909 0.375299 0.139205
0.646393 0.390490 0.151485
0.726418 0.391290 0.172976
0.805234 0.390417 0.195590
0.884728 0.389856 0.219541
0.962402 0.390027 0.245872
1.000000 0.391723 0.275529
1.000000 0.397638 0.308825
1.000000 0.418128 0.354559
0.254331 0.436976 0.116103
0.268930 0.448610 0.119921
0.297081 0.443409 0.126791
0.337332 0.437354 0.131391
0.387813 0.431302 0.135163
0.446680 0.424567 0.140157
0.491618 0.398294 0.158148
0.561381 0.397285 0.168184
0.645611 0.432854 0.158870
0.726723 0.464165 0.161415
0.803788 0.466316 0.184634
0.882381 0.467137 0.210248
0.959733 0.468542 0.238924
1.000000 0.470276 0.271328
1.000000 0.473175 0.307399
1.000000 0.485121 0.353911
0.287846 0.498348 0.124245
0.301342 0.510207 0.127962
0.324574 0.505992 0.134077
0.362098 0.500200 0.141744
0.407265 0.495970 0.144840
0.461347 0.490987 0.149410
0.521210 0.484927 0.155379
0.562492 0.455843 0.176071
0.632039 0.450661 0.189098
0.718709 0.487777 0.179470
0.801352 0.523308 0.178030
0.880988 0.540998 0.197566
0.956621 0.543135 0.229082
1.000000 0.543407 0.263821
1.000000 0.544648 0.304123
1.000000 0.552019 0.354418
0.320397 0.559991 0.129329
0.330956 0.569361 0.132430
0.350977 0.566147 0.137870
0.386152 0.561003 0.148114
0.427343 0.557794 0.151721
0.477290 0.554431 0.156173
0.534209 0.550374 0.161487
0.595825 0.545186 0.167863
0.635160 0.514129 0.192217
0.706117 0.505241 0.209298
0.793381 0.543694 0.202402
0.880069 0.582307 0.199539
0.955158 0.613978 0.218723
1.000000 0.616267 0.257994
1.000000 0.615087 0.302710
1.000000 0.618353 0.357415
0.353612 0.626782 0.131545
0.362866 0.635126 0.134763
0.380128 0.631932 0.140040
0.412400 0.627781 0.150148
0.452710 0.625170 0.157387
0.499800 0.623133 0.161532
0.553867 0.620072 0.166815
0.612596 0.615423 0.172671
0.674648 0.609394 0.179246
0.711225 0.574814 0.207499
0.780081 0.559723 0.230314
0.869341 0.601267 0.227540
0.951651 0.639523 0.229709
1.000000 0.671161 0.254853
1.000000 0.682746 0.302303
1.000000 0.682325 0.361553
0.387274 0.697108 0.131258
0.393030 0.700331 0.133773
0.408692 0.697963 0.138931
0.438514 0.695332 0.149367
0.478736 0.692915 0.161098
0.523583 0.692592 0.165499
0.576416 0.691944 0.171261
0.634937 0.690309 0.178085
0.697542 0.687391 0.185459
0.762930 0.682911 0.193429
0.798093 0.645136 0.227390
0.862650 0.621784 0.257365
0.945001 0.661756 0.262559
1.000000 0.694850 0.276091
1.000000 0.721737 0.311314
1.000000 0.744137 0.368963
0.424890 0.775754 0.133999
0.428780 0.775772 0.135703
0.443402 0.774646 0.141318
0.471146 0.772630 0.152318
0.510681 0.769581 0.167882
0.552819 0.768338 0.173422
0.602105 0.766865 0.179235
0.657518 0.764908 0.186043
0.717621 0.762474 0.194084
0.781558 0.759551 0.203293
0.848466 0.756149 0.213602
0.882179 0.715421 0.253519
0.939673 0.684942 0.291800
0.999705 0.717561 0.310250
1.000000 0.744726 0.339136
1.000000 0.766708 0.382257
0.464698 0.850529 0.154928
0.468070 0.850507 0.156499
0.481259 0.849574 0.161862
0.506566 0.847858 0.172271
0.543228 0.845283 0.187665
0.584674 0.843430 0.197818
0.630856 0.842188 0.204334
0.683151 0.840543 0.212297
0.740398 0.838663 0.221688
0.801207 0.836136 0.232291
0.864585 0.832914 0.244004
0.928868 0.828120 0.258462
0.959778 0.784867 0.299834
0.999744 0.748210 0.344075
1.000000 0.768646 0.377915
1.000000 0.790567 0.421100
0.505846 0.913469 0.202957
0.508788 0.913371 0.204192
0.520343 0.912634 0.208752
0.542846 0.911310 0.217809
0.575915 0.909337 0.231856
0.615521 0.907213 0.245762
0.657202 0.905885 0.252766
0.704823 0.904160 0.261194
0.757147 0.902056 0.271261
0.813110 0.899553 0.282880
0.871726 0.896709 0.296507
0.932283 0.893471 0.311817
0.990121 0.886004 0.331384
1.000000 0.843039 0.371008
1.000000 0.802675 0.418842
1.000000 0.814651 0.464973
0.549712 0.962634 0.272135
0.552726 0.962839 0.274554
0.562341 0.962083 0.277736
0.581611 0.960945 0.285846
0.610353 0.959278 0.298690
0.647297 0.957043 0.315654
0.683506 0.955693 0.322954
0.725368 0.954028 0.332062
0.771727 0.952017 0.342926
0.821701 0.949657 0.355857
0.874211 0.946966 0.370935
0.928523 0.944012 0.388177
0.983797 0.940799 0.407666
1.000000 0.931608 0.431621
1.000000 0.891276 0.469696
1.000000 0.852720 0.518731
0.594446 1.000000 0.347875
0.596734 1.000000 0.349334
0.605188 1.000000 0.353533
0.621851 0.999408 0.362200
0.646919 0.998004 0.375671
0.679591 0.996063 0.394202
0.712123 0.994629 0.405188
0.748354 0.993140 0.415460
0.788907 0.991363 0.428022
0.832621 0.989386 0.442933
0.878019 0.987243 0.460151
0.925762 0.984839 0.480269
0.974230 0.982361 0.503355
1.000000 0.979846 0.529692
1.000000 0.969854 0.562456
1.000000 0.936919 0.606531
0.112136 0.101033 0.104243
0.122755 0.099446 0.105702
0.182759 0.089993 0.112126
0.257882 0.072389 0.118319
0.331789 0.022189 0.124046
0.405572 0.000000 0.129055
0.481852 0.000000 0.134203
0.566528 0.000000 0.143582
0.647315 0.000000 0.156333
0.727700 0.000000 0.170382
0.808005 0.000000 0.185306
0.886458 0.000000 0.201619
0.966850 0.000000 0.220157
1.000000 0.000000 0.240376
1.000000 0.000000 0.262617
1.000000 0.000000 0.291210
0.110195 0.109733 0.104101
0.124947 0.112224 0.104595
0.184238 0.110860 0.109066
0.255608 0.106227 0.116217
0.328550 0.088379 0.122238
0.401708 0.019421 0.128405
0.478887 0.000000 0.135782
0.561515 0.000000 0.146193
0.642872 0.000000 0.159238
0.724389 0.000000 0.173312
0.805866 0.000000 0.188199
0.885267 0.000000 0.204452
0.964809 0.000000 0.222481
1.000000 0.000000 0.241794
1.000000 0.000000 0.263727
1.000000 0.000000 0.292720
0.121933 0.173311 0.106420
0.144758 0.171559 0.108223
0.197545 0.164170 0.112032
0.262661 0.172361 0.115076
0.332499 0.168867 0.123703
0.404536 0.161996 0.133797
0.485130 0.154439 0.146912
0.565640 0.143880 0.161656
0.645015 0.118583 0.175621
0.726051 0.045441 0.188461
0.806745 0.000000 0.201991
0.885578 0.000000 0.217100
0.965864 0.000000 0.234823
1.000000 0.000000 0.254525
1.000000 0.000000 0.276824
1.000000 0.000000 0.306300
0.151672 0.233406 0.109609
0.168220 0.233676 0.111354
0.213264 0.229828 0.115069
0.269742 0.218810 0.121131
0.338409 0.230435 0.121381
0.410148 0.238590 0.128647
0.485830 0.235408 0.142465
0.563151 0.232482 0.158508
0.640913 0.229294 0.176175
0.721228 0.225053 0.194559
0.802375 0.219299 0.214046
0.882059 0.214058 0.235320
0.961217 0.203225 0.256293
1.000000 0.185699 0.275547
1.000000 0.180562 0.297796
1.000000 0.210767 0.329319
0.186465 0.310848 0.114871
0.201240 0.314129 0.116922
0.242288 0.309174 0.122439
0.296844 0.304281 0.125281
0.351118 0.285044 0.135373
0.419971 0.290758 0.137232
0.492157 0.315053 0.136019
0.566500 0.314032 0.153120
0.643305 0.312854 0.171375
0.723220 0.311393 0.190116
0.802236 0.308448 0.209965
0.881302 0.305738 0.231523
0.961013 0.305551 0.256139
1.000000 0.309796 0.284166
1.000000 0.322144 0.316088
1.000000 0.352226 0.358653
0.217447 0.372430 0.120754
0.231852 0.380247 0.123381
0.266241 0.374939 0.129958
0.312418 0.369744 0.132929
0.369956 0.363680 0.136848
0.419117 0.340868 0.149917
0.488337 0.343346 0.155557
0.565218 0.374566 0.149984
0.640583 0.387779 0.161914
0.720023 0.388595 0.181209
0.799069 0.388116 0.202225
0.879108 0.387784 0.225121
0.957408 0.388223 0.250466
1.000000 0.389939 0.278837
1.000000 0.397379 0.312652
1.000000 0.416992 0.356628
0.253012 0.438476 0.128226
0.267202 0.449259 0.132176
0.295734 0.444207 0.137972
0.336986 0.437601 0.143109
0.387091 0.431393 0.145917
0.445334 0.424495 0.150223
0.490626 0.398669 0.166152
0.559500 0.397695 0.175592
0.642486 0.432408 0.167284
0.722512 0.462360 0.170244
0.799354 0.464157 0.191865
0.878557 0.465378 0.216356
0.956809 0.467421 0.244061
1.000000 0.469390 0.275679
1.000000 0.472890 0.311492
1.000000 0.485764 0.358184
0.286733 0.499767 0.134704
0.300056 0.511584 0.138642
0.323763 0.507516 0.144129
0.362213 0.501221 0.151724
0.407101 0.496637 0.154580
0.460532 0.491063 0.158366
0.519340 0.484143 0.163268
0.560218 0.455012 0.182184
0.628925 0.449736 0.194448
0.715145 0.486568 0.185620
0.797775 0.522117 0.184823
0.877672 0.539115 0.204067
0.953588 0.541414 0.234123
1.000000 0.541895 0.267631
1.000000 0.544930 0.308895
1.000000 0.552664 0.359012
0.319657 0.562060 0.138535
0.330835 0.572352 0.141879
0.351184 0.569457 0.147121
0.386989 0.563993 0.156730
0.428549 0.560327 0.160577
0.478529 0.556669 0.164537
0.535183 0.552214 0.169466
0.596160 0.546260 0.175208
0.634649 0.514513 0.197891
0.704568 0.505165 0.214064
0.791410 0.543245 0.207668
0.878202 0.581973 0.205550
0.953784 0.613461 0.224609
1.000000 0.615761 0.263031
1.000000 0.615332 0.307851
1.000000 0.618912 0.362077
0.352838 0.628607 0.140538
0.362929 0.638723 0.144259
0.380729 0.636024 0.149136
0.413225 0.631641 0.158419
0.454053 0.628094 0.166077
0.500718 0.625167 0.169730
0.554037 0.621020 0.174226
0.612006 0.615589 0.179457
0.673625 0.609055 0.185478
0.710152 0.574618 0.212227
0.778926 0.559759 0.234535
0.868080 0.601143 0.232147
0.950117 0.639183 0.234334
1.000000 0.671659 0.260176
1.000000 0.682868 0.307262
1.000000 0.682727 0.366296
0.386755 0.699678 0.140487
0.394008 0.705005 0.143862
0.410049 0.703143 0.148734
0.440191 0.700308 0.158371
0.481033 0.697320 0.170146
0.525939 0.696577 0.174417
0.578582 0.695356 0.179616
0.636503 0.692702 0.185669
0.698060 0.688504 0.192287
0.762561 0.683130 0.199415
0.797409 0.645167 0.231718
0.861994 0.622013 0.261255
0.944523 0.662143 0.266769
1.000000 0.695363 0.280783
1.000000 0.722414 0.316191
1.000000 0.744509 0.373791
0.423598 0.776112 0.142704
0.427845 0.777024 0.144893
0.442356 0.775306 0.149812
0.470145 0.773215 0.159912
0.510139 0.770593 0.175032
0.553057 0.769452 0.181332
0.602344 0.767835 0.186696
0.657182 0.765221 0.192756
0.717178 0.762555 0.200316
0.781082 0.759617 0.209185
0.848008 0.756199 0.219243
0.881876 0.715711 0.257768
0.939338 0.685374 0.295474
0.999580 0.718049 0.314136
1.000000 0.745283 0.343252
1.000000 0.767409 0.386709
0.463464 0.850883 0.163082
0.468273 0.852715 0.167149
0.480924 0.850857 0.170740
0.505717 0.848380 0.179599
0.542501 0.845739 0.194179
0.584422 0.843730 0.204736
0.631051 0.843033 0.211658
0.683726 0.841748 0.219738
0.740712 0.839541 0.228558
0.801116 0.836537 0.238383
0.864265 0.833103 0.249403
0.928570 0.828303 0.263287
0.959530 0.785177 0.303867
0.999643 0.748582 0.347637
1.000000 0.769197 0.381562
1.000000 0.791242 0.425141
0.504929 0.913710 0.209243
0.508036 0.913694 0.210662
0.519667 0.912993 0.215167
0.542198 0.911674 0.223904
0.575341 0.909657 0.237484
0.615421 0.907396 0.251721
0.656983 0.906031 0.258473
0.704604 0.904272 0.266612
0.756849 0.902133 0.276386
0.812789 0.899645 0.287792
0.871426 0.896784 0.301185
0.931936 0.893543 0.316259
0.989766 0.886141 0.335499
1.000000 0.843241 0.374568
1.000000 0.803087 0.422062
1.000000 0.815180 0.468123
0.549223 0.962779 0.276877
0.554870 0.964358 0.285187
0.563663 0.963209 0.286646
0.581816 0.961485 0.292045
0.610252 0.959605 0.303860
0.647405 0.957250 0.320929
0.683598 0.955857 0.328005
0.725314 0.954133 0.336719
0.771590 0.952052 0.347252
0.821471 0.949689 0.359936
0.873960 0.946991 0.374888
0.928221 0.944028 0.392005
0.983450 0.940823 0.411220
1.000000 0.931745 0.434943
1.000000 0.891499 0.472668
1.000000 0.853108 0.521462
0.594305 1.000000 0.351720
0.596468 1.000000 0.353100
0.605039 1.000000 0.357446
0.621705 0.999475 0.365978
0.646713 0.998070 0.379202
0.679481 0.996106 0.397705
0.712197 0.994629 0.408990
0.748331 0.993140 0.419081
0.788859 0.991392 0.431491
0.832530 0.989386 0.446242
0.877867 0.987274 0.463258
0.925543 0.984869 0.483307
0.973953 0.982391 0.506207
1.000000 0.979864 0.532310
1.000000 0.969958 0.564888
1.000000 0.937096 0.608685
0.124343 0.112484 0.151571
0.137385 0.110204 0.152545
0.184066 0.100629 0.157745
0.250914 0.091218 0.161307
0.319310 0.089399 0.168142
0.389233 0.083400 0.176565
0.469424 0.012493 0.185514
0.551592 0.000000 0.193712
0.631763 0.000000 0.202121
0.713184 0.000000 0.211151
0.795962 0.000000 0.220878
0.877335 0.000000 0.231283
0.960457 0.000000 0.243507
1.000000 0.000000 0.257037
1.000000 0.000000 0.274468
1.000000 0.000000 0.299693
0.122840 0.122458 0.148182
0.140181 0.125974 0.150060
0.183746 0.119200 0.155055
0.248102 0.114704 0.159303
0.316207 0.113224 0.166577
0.387065 0.104959 0.174407
0.467448 0.047582 0.182660
0.548617 0.000000 0.190651
0.629788 0.000000 0.199415
0.711431 0.000000 0.208538
0.795049 0.000000 0.218347
0.877010 0.000000 0.229095
0.959060 0.000000 0.241164
1.000000 0.000000 0.255877
1.000000 0.000000 0.274235
1.000000 0.000000 0.300980
0.136125 0.164953 0.154962
0.150278 0.167947 0.155205
0.193542 0.174646 0.154129
0.255332 0.172700 0.158617
0.323695 0.168308 0.164327
0.399250 0.159139 0.171240
0.478492 0.141402 0.178769
0.557324 0.113180 0.187182
0.636222 0.042371 0.196946
0.717075 0.002254 0.207449
0.799067 0.000000 0.218798
0.879599 0.000000 0.232420
0.961573 0.000000 0.248257
1.000000 0.000000 0.266123
1.000000 0.000000 0.286387
1.000000 0.000000 0.314031
0.152718 0.239131 0.162086
0.164594 0.240349 0.160642
0.204943 0.235930 0.155618
0.265799 0.228956 0.160211
0.330687 0.239163 0.163709
0.401904 0.240963 0.172900
0.476657 0.240019 0.183992
0.553476 0.238686 0.196730
0.631049 0.236423 0.210823
0.712068 0.230673 0.225319
0.794853 0.218287 0.239522
0.876353 0.196950 0.253156
0.957150 0.167977 0.268116
1.000000 0.133348 0.285256
1.000000 0.121706 0.306073
1.000000 0.175544 0.335890
0.169301 0.314477 0.157479
0.185071 0.318004 0.159851
0.233512 0.312089 0.164206
0.290882 0.305108 0.168081
0.346315 0.290802 0.172542
0.412272 0.298104 0.175081
0.483284 0.314147 0.178735
0.557544 0.314079 0.191779
0.634572 0.313768 0.206058
0.714944 0.312633 0.221331
0.795292 0.310187 0.237981
0.875862 0.308153 0.257075
0.956814 0.308593 0.279523
1.000000 0.313801 0.305502
1.000000 0.326853 0.335525
1.000000 0.354828 0.374886
0.205472 0.373742 0.159365
0.219865 0.381284 0.163291
0.257237 0.376240 0.167349
0.308475 0.369140 0.172615
0.364278 0.363769 0.174310
0.415094 0.344695 0.181845
0.482577 0.348511 0.186771
0.558054 0.378405 0.184903
0.633486 0.386057 0.196884
0.713394 0.387447 0.212578
0.793509 0.387677 0.230308
0.874424 0.387986 0.250522
0.953589 0.389043 0.273481
1.000000 0.391650 0.299773
1.000000 0.400689 0.332290
1.000000 0.422125 0.375342
0.242627 0.438888 0.163830
0.256823 0.449055 0.168553
0.286725 0.444231 0.172326
0.333078 0.436205 0.178878
0.382602 0.430483 0.180446
0.440097 0.424049 0.182909
0.486944 0.401022 0.193540
0.554881 0.401335 0.201553
0.637149 0.435182 0.196948
0.716874 0.461055 0.202170
0.794408 0.462550 0.220796
0.874694 0.464603 0.242202
0.953837 0.467303 0.267443
1.000000 0.470210 0.296932
1.000000 0.474939 0.331107
1.000000 0.489254 0.376521
0.277511 0.500226 0.166984
0.290500 0.511609 0.171451
0.315551 0.507761 0.175204
0.357226 0.500912 0.182575
0.403499 0.495793 0.185948
0.456408 0.490430 0.188356
0.514916 0.483730 0.191603
0.557105 0.456548 0.205450
0.625320 0.452383 0.216023
0.711600 0.488957 0.210274
0.794120 0.524365 0.212000
0.874467 0.537872 0.230953
0.950898 0.540866 0.257993
1.000000 0.542087 0.289102
1.000000 0.546290 0.328797
1.000000 0.555459 0.377620
0.311340 0.562954 0.168748
0.322026 0.572992 0.172335
0.343457 0.569976 0.176170
0.380532 0.564613 0.183564
0.425304 0.559809 0.189807
0.475161 0.556338 0.192705
0.531730 0.551977 0.196387
0.592469 0.546066 0.200663
0.632071 0.515787 0.218610
0.701675 0.507353 0.233087
0.788881 0.545446 0.229006
0.875624 0.584205 0.230164
0.951733 0.613993 0.249345
1.000000 0.615840 0.285471
1.000000 0.616327 0.328011
1.000000 0.621054 0.380827
0.344998 0.629565 0.169961
0.355249 0.639534 0.173886
0.373655 0.636954 0.177576
0.407193 0.632600 0.184923
0.451114 0.627885 0.194020
0.497697 0.624863 0.196796
0.550820 0.620675 0.200300
0.608716 0.615232 0.204325
0.670352 0.608798 0.209038
0.708133 0.575739 0.231408
0.776998 0.561968 0.251748
0.866418 0.603431 0.251427
0.948465 0.641473 0.255723
1.000000 0.674029 0.281991
1.000000 0.683580 0.327946
1.000000 0.684390 0.385069
0.379651 0.700685 0.170474
0.387047 0.706158 0.173548
0.403479 0.704173 0.177293
0.434410 0.701343 0.185058
0.477768 0.697953 0.196857
0.523571 0.696968 0.201419
0.576191 0.695660 0.205857
0.633952 0.692843 0.210742
0.695337 0.688436 0.216109
0.759784 0.682997 0.222114
0.795785 0.646241 0.249790
0.860561 0.624142 0.277250
0.943289 0.664432 0.284570
1.000000 0.697763 0.299624
1.000000 0.725079 0.335789
1.000000 0.745785 0.392682
0.416797 0.776943 0.173276
0.421700 0.778466 0.175554
0.436515 0.776668 0.179228
0.464986 0.774486 0.187299
0.505647 0.771735 0.199774
0.550755 0.769680 0.208007
0.599972 0.767932 0.212496
0.654804 0.765240 0.217580
0.714888 0.762663 0.224146
0.778890 0.759752 0.231940
0.845865 0.756420 0.240895
0.880566 0.716793 0.275161
0.938085 0.687219 0.310629
0.999093 0.720237 0.330248
1.000000 0.747703 0.359977
1.000000 0.770188 0.404358
0.457780 0.851498 0.191451
0.462363 0.852839 0.194347
0.475293 0.851151 0.197450
0.500729 0.848973 0.205080
0.538228 0.846416 0.217681
0.582429 0.844066 0.230201
0.629337 0.843520 0.236533
0.682021 0.842212 0.243712
0.738842 0.839742 0.251226
0.799176 0.836698 0.259954
0.862373 0.833281 0.270027
0.926955 0.828778 0.282868
0.958374 0.786277 0.320128
0.999146 0.750120 0.361847
1.000000 0.771366 0.396280
1.000000 0.793626 0.440054
0.500707 0.914198 0.232375
0.503799 0.914191 0.233739
0.515603 0.913482 0.237583
0.538459 0.912168 0.245574
0.571955 0.910149 0.257834
0.613996 0.907483 0.273499
0.655610 0.906117 0.279640
0.703127 0.904386 0.287186
0.755383 0.902265 0.296247
0.811273 0.899786 0.307064
0.869844 0.896960 0.319647
0.930309 0.893731 0.334003
0.988381 0.886692 0.352081
1.000000 0.844228 0.389104
1.000000 0.804580 0.435146
1.000000 0.817258 0.480847
0.546486 0.963061 0.294790
0.551778 0.964360 0.301821
0.560614 0.963234 0.303093
0.579093 0.961627 0.308502
0.607969 0.959865 0.320332
0.645488 0.957509 0.336817
0.683048 0.955877 0.346026
0.724622 0.954162 0.354269
0.770731 0.952088 0.364348
0.820513 0.949738 0.376571
0.872794 0.947085 0.390831
0.926888 0.944157 0.407250
0.981972 0.940965 0.425614
1.000000 0.932234 0.448325
1.000000 0.892421 0.484655
1.000000 0.854447 0.532125
0.592743 1.000000 0.365985
0.594968 1.000000 0.367363
0.603561 1.000000 0.371469
0.620269 0.999646 0.379646
0.645297 0.998242 0.392450
0.678157 0.996270 0.410101
0.712266 0.994566 0.423468
0.748253 0.993097 0.433288
0.788539 0.991358 0.445219
0.832034 0.989386 0.459453
0.877171 0.987274 0.476075
0.924608 0.984916 0.495426
0.972814 0.982446 0.517628
1.000000 0.979973 0.543155
1.000000 0.970450 0.574820
1.000000 0.937884 0.617530
0.142416 0.129830 0.206699
0.153162 0.128773 0.207629
0.191368 0.122740 0.211471
0.250832 0.108574 0.216930
0.312572 0.103868 0.215381
0.377490 0.101362 0.221335
0.453757 0.089951 0.232827
0.531590 0.043618 0.243844
0.609039 0.000000 0.254751
0.690238 0.000000 0.264318
0.774673 0.000000 0.274284
0.859069 0.000000 0.284604
0.945218 0.000000 0.295720
1.000000 0.000000 0.306887
1.000000 0.000000 0.318452
1.000000 0.000000 0.335338
0.139818 0.137793 0.201333
0.155438 0.141614 0.204176
0.191741 0.137729 0.207780
0.248430 0.128290 0.213111
0.309527 0.123388 0.213168
0.375861 0.120525 0.220536
0.451298 0.111538 0.231319
0.528994 0.093265 0.242223
0.607544 0.022864 0.253036
0.688977 0.000000 0.262448
0.774290 0.000000 0.272576
0.858707 0.000000 0.282935
0.943546 0.000000 0.293612
1.000000 0.000000 0.304094
1.000000 0.000000 0.316085
1.000000 0.000000 0.333473
0.158802 0.178745 0.205967
0.170249 0.181952 0.206326
0.205269 0.187285 0.206971
0.253123 0.180760 0.211048
0.314115 0.175902 0.214423
0.383767 0.173607 0.223615
0.459392 0.167826 0.232952
0.535841 0.154800 0.241690
0.614543 0.127424 0.250100
0.695840 0.048973 0.258902
0.780016 0.000000 0.268210
0.864021 0.000000 0.278216
0.949473 0.000000 0.289287
1.000000 0.000000 0.301067
1.000000 0.000000 0.313890
1.000000 0.000000 0.333601
0.173898 0.222307 0.207300
0.183592 0.225662 0.209215
0.215147 0.231133 0.209425
0.262674 0.241257 0.209713
0.323163 0.239908 0.214543
0.392717 0.237476 0.220838
0.466397 0.231204 0.227304
0.542230 0.221395 0.234274
0.619834 0.206824 0.241797
0.701130 0.184374 0.250139
0.785334 0.150874 0.260125
0.868294 0.079929 0.271662
0.950943 0.026082 0.284835
1.000000 0.001195 0.299689
1.000000 0.000000 0.318706
1.000000 0.042331 0.345993
0.174888 0.319503 0.234322
0.188445 0.323261 0.236036
0.228576 0.318834 0.229060
0.277383 0.311390 0.216559
0.339712 0.301335 0.218492
0.402251 0.309475 0.221351
0.472046 0.312218 0.229250
0.545662 0.313012 0.239684
0.622318 0.313276 0.251438
0.702895 0.312283 0.264367
0.784788 0.310021 0.278742
0.867404 0.307657 0.295451
0.950308 0.303514 0.313461
1.000000 0.299143 0.332316
1.000000 0.300474 0.353180
1.000000 0.321731 0.384053
0.209452 0.376642 0.222049
0.216700 0.384270 0.224134
0.235390 0.381009 0.215697
0.293817 0.372999 0.217378
0.355045 0.365297 0.221311
0.409229 0.351879 0.224534
0.474570 0.358255 0.228656
0.547458 0.380649 0.231797
0.622770 0.382705 0.243553
0.703055 0.384649 0.256793
0.784530 0.385815 0.272215
0.866782 0.387094 0.290272
0.947195 0.389358 0.311243
1.000000 0.393768 0.335702
1.000000 0.406128 0.367394
1.000000 0.431861 0.409955
0.211961 0.441648 0.208777
0.226506 0.451163 0.214131
0.262836 0.446376 0.216187
0.317027 0.438341 0.220859
0.374379 0.429912 0.225885
0.430964 0.424188 0.226970
0.481212 0.405852 0.232761
0.547961 0.408444 0.239560
0.628166 0.440547 0.239444
0.707477 0.457183 0.248174
0.786118 0.459348 0.264071
0.868034 0.462698 0.283189
0.948482 0.466777 0.306320
1.000000 0.471429 0.333900
1.000000 0.478583 0.366444
1.000000 0.496248 0.410838
0.253312 0.502400 0.210414
0.266443 0.513214 0.215633
0.295072 0.509549 0.218045
0.341577 0.502963 0.223057
0.396089 0.495006 0.229914
0.448608 0.489830 0.231226
