assets/lut/editingcorp wavefire.cube
# Created by: G'MIC (https://gmic.eu)
TITLE "wavefire"
# LUT size
LUT_3D_SIZE 5
# Data domain
DOMAIN_MIN 0.0 0.0 0.0
DOMAIN_MAX 1.0 1.0 1.0
# LUT data points
0.019273854792118073 0.015800341963768005 0.04201773926615715
0.46028086543083191 0.067220889031887054 0.07101709395647049
0.75631231069564819 0.10423820465803146 0.089581415057182312
0.88639044761657715 0.071329884231090546 0.079384312033653259
0.94739776849746704 0.1031077653169632 0.082691505551338196
0.024701466783881187 0.35854378342628479 0.099133618175983429
0.39427000284194946 0.32628610730171204 0.08056417852640152
0.7180362343788147 0.28663501143455505 0.08880016952753067
0.88942432403564453 0.24157032370567322 0.086180113255977631
0.95254582166671753 0.22476816177368164 0.086138151586055756
0.11537860333919525 0.643818199634552 0.14410804212093353
0.243177130818367 0.62700420618057251 0.13107429444789886
0.6551857590675354 0.59533166885375977 0.10477251559495926
0.91080766916275024 0.53140270709991455 0.090124867856502533
0.96977156400680542 0.4900411069393158 0.094343490898609161
0.14744633436203003 0.90253418684005737 0.14280851185321808
0.20992670953273773 0.89047515392303467 0.13960129022598267
0.4857061505317688 0.89467865228652954 0.090940199792385101
0.86547279357910156 0.85904830694198608 0.068893581628799438
0.99415957927703857 0.77869081497192383 0.073158025741577148
0.14354783296585083 0.97610718011856079 0.13750727474689484
0.15956072509288788 0.96973013877868652 0.1412944495677948
0.33187758922576904 0.98736119270324707 0.096679329872131348
0.74480956792831421 0.99843096733093262 0.061953838914632797
0.99719738960266113 0.99742805957794189 0.049332577735185623
0.0078034345060586929 0.052905362099409103 0.39387357234954834
0.42777755856513977 0.064638666808605194 0.37264809012413025
0.75305533409118652 0.094781018793582916 0.33536100387573242
0.88070547580718994 0.077403351664543152 0.29741457104682922
0.93903601169586182 0.051486581563949585 0.26091942191123962
0.028921583667397499 0.33208984136581421 0.3504941463470459
0.33466094732284546 0.3202052116394043 0.3176402747631073
0.70702242851257324 0.29264238476753235 0.27339619398117065
0.89129739999771118 0.2426752895116806 0.23691348731517792
0.95213359594345093 0.2295001745223999 0.22255820035934448
0.14258949458599091 0.63561475276947021 0.27379414439201355
0.23932544887065887 0.6205441951751709 0.24962832033634186
0.64638859033584595 0.58968609571456909 0.19897501170635223
0.90816241502761841 0.52773463726043701 0.17195335030555725
0.9702027440071106 0.49506184458732605 0.17244380712509155
0.14263519644737244 0.89050149917602539 0.20251530408859253
0.20628993213176727 0.88697117567062378 0.19364733994007111
0.47537356615066528 0.89511477947235107 0.14388354122638702
0.86290830373764038 0.85251426696777344 0.12343913316726685
0.99541211128234863 0.77387154102325439 0.13222301006317139
0.12810470163822174 0.97522652149200439 0.11713648587465286
0.17121793329715729 0.97740787267684937 0.13477367162704468
0.35539019107818604 0.99179399013519287 0.082637608051300049
0.73950332403182983 0.99773281812667847 0.089551292359828949
0.99730050563812256 0.99937719106674194 0.097453221678733826
0.0036210003308951855 0.086214430630207062 0.71588730812072754
0.34919100999832153 0.11351888626813889 0.69650149345397949
0.73016542196273804 0.11374606192111969 0.70226716995239258
0.8239208459854126 0.12956644594669342 0.64094060659408569
0.88469910621643066 0.12053044885396957 0.58922320604324341
0.02932414598762989 0.33975794911384583 0.67964708805084229
0.22241821885108948 0.32921788096427917 0.66270929574966431
0.68086087703704834 0.32329803705215454 0.64168387651443481
0.82622295618057251 0.33191752433776855 0.58676314353942871
0.89760249853134155 0.30726996064186096 0.54248195886611938
0.22803802788257599 0.59952813386917114 0.63601040840148926
0.28090938925743103 0.58654952049255371 0.62329256534576416
0.61616379022598267 0.58529114723205566 0.59876912832260132
0.87303203344345093 0.55806946754455566 0.56027543544769287
0.945953369140625 0.5492624044418335 0.54353684186935425
0.29108041524887085 0.84370905160903931 0.54041755199432373
0.31681057810783386 0.84576493501663208 0.52282989025115967
0.51801729202270508 0.85340768098831177 0.4941827654838562
0.86220288276672363 0.83869296312332153 0.44625395536422729
0.9885745644569397 0.77897506952285767 0.44611543416976929
0.23939524590969086 0.94563800096511841 0.40113005042076111
0.27212697267532349 0.94882380962371826 0.40598896145820618
0.44273826479911804 0.96083778142929077 0.40676477551460266
0.75766193866729736 0.99252700805664062 0.35935091972351074
0.99686676263809204 0.99468785524368286 0.27140256762504578
0.0073059680871665478 0.089656531810760498 0.80079543590545654
0.28516393899917603 0.1093561053276062 0.79493212699890137
0.68944966793060303 0.15418596565723419 0.81009024381637573
0.90721613168716431 0.046897679567337036 0.91835755109786987
0.96052068471908569 0.041677765548229218 0.91417592763900757
0.033995907753705978 0.33706647157669067 0.81012529134750366
0.20488153398036957 0.33287215232849121 0.8098023533821106
0.63219213485717773 0.34852325916290283 0.8062012791633606
0.89277452230453491 0.24127711355686188 0.89964592456817627
0.95208227634429932 0.24013365805149078 0.88927417993545532
0.24921269714832306 0.56739050149917603 0.84243327379226685
0.29890602827072144 0.55603408813476562 0.83872491121292114
0.54619389772415161 0.56191557645797729 0.83979398012161255
0.86605691909790039 0.55101209878921509 0.88045287132263184
0.93629199266433716 0.5443999171257019 0.85959160327911377
0.35766482353210449 0.81389588117599487 0.86462283134460449
0.40640747547149658 0.80666083097457886 0.86300194263458252
0.51214879751205444 0.79338210821151733 0.85075336694717407
0.83182036876678467 0.79835456609725952 0.84723210334777832
0.94271808862686157 0.79309362173080444 0.84346890449523926
0.36145827174186707 0.90970027446746826 0.80866372585296631
0.40750089287757874 0.90866333246231079 0.8052552342414856
0.48818689584732056 0.91131448745727539 0.80525797605514526
0.80470937490463257 0.92454737424850464 0.81232482194900513
0.95124447345733643 0.93630421161651611 0.79645347595214844
0.0023091633338481188 0.085795819759368896 0.8716089129447937
0.23996260762214661 0.10921888053417206 0.86706292629241943
0.65033650398254395 0.13013093173503876 0.87059938907623291
0.88160324096679688 0.085368134081363678 0.95579022169113159
0.95649194717407227 0.037070270627737045 0.96685200929641724
0.036764167249202728 0.32015925645828247 0.8775210976600647
0.19794674217700958 0.32377442717552185 0.87644463777542114
0.58961570262908936 0.34391069412231445 0.87534284591674805
0.87430983781814575 0.25960329174995422 0.95430654287338257
0.95365345478057861 0.2367267906665802 0.96114951372146606
0.22717770934104919 0.53831106424331665 0.89844036102294922
0.29347953200340271 0.53449094295501709 0.89728575944900513
0.5457688570022583 0.56119173765182495 0.9102785587310791
0.84963011741638184 0.55227649211883545 0.95433938503265381
0.95222902297973633 0.53324747085571289 0.97139436006546021
0.34443539381027222 0.7772330641746521 0.9391292929649353
0.39003592729568481 0.76058804988861084 0.93436598777770996
0.51064813137054443 0.76440721750259399 0.93745154142379761
0.8225587010383606 0.78450161218643188 0.94872355461120605
0.94665312767028809 0.79072517156600952 0.96035248041152954
0.36819219589233398 0.89022451639175415 0.9480711817741394
0.42213571071624756 0.89256888628005981 0.94209259748458862
0.49881866574287415 0.89181888103485107 0.94694513082504272
0.79905515909194946 0.89985686540603638 0.951904296875
0.93172883987426758 0.90173614025115967 0.950614333152771
