assets/lut/editingcorp colore.cube
# Created by: G'MIC (https://gmic.eu)
TITLE "colore"
# LUT size
LUT_3D_SIZE 5
# Data domain
DOMAIN_MIN 0.0 0.0 0.0
DOMAIN_MAX 1.0 1.0 1.0
# LUT data points
0.008958001621067524 0.010585575364530087 0.013434974476695061
0.27907291054725647 0.024646220728754997 0.01826915331184864
0.65174359083175659 0.079444661736488342 0.083031825721263885
0.8493613600730896 0.06641070544719696 0.098968192934989929
0.92803281545639038 0.10213638097047806 0.10653848201036453
0.031962838023900986 0.26541361212730408 0.040219578891992569
0.19694095849990845 0.23229245841503143 0.031028836965560913
0.5707436203956604 0.22924959659576416 0.067148350179195404
0.85352706909179688 0.21229416131973267 0.10742531716823578
0.92800247669219971 0.20707124471664429 0.10810651630163193
0.064944371581077576 0.56298857927322388 0.099586993455886841
0.15379849076271057 0.54818379878997803 0.087933950126171112
0.4818761944770813 0.52074450254440308 0.064815133810043335
0.84078824520111084 0.50818395614624023 0.10171104967594147
0.9308769702911377 0.48843550682067871 0.10450008511543274
0.10025861859321594 0.83012121915817261 0.17246924340724945
0.15677887201309204 0.82153522968292236 0.17757570743560791
0.33515122532844543 0.82437431812286377 0.15319626033306122
0.77664476633071899 0.79523938894271851 0.12127535790205002
0.92949390411376953 0.77100807428359985 0.13399256765842438
0.10741068422794342 0.93928080797195435 0.19848965108394623
0.16597157716751099 0.94145750999450684 0.19855311512947083
0.26148891448974609 0.94567424058914185 0.20573042333126068
0.69875460863113403 0.94604200124740601 0.18682754039764404
0.92332684993743896 0.94640898704528809 0.19235712289810181
0.051608022302389145 0.023528395220637321 0.33630114793777466
0.2834194004535675 0.02313251793384552 0.30478891730308533
0.63563305139541626 0.051588185131549835 0.27198833227157593
0.85555833578109741 0.030560571700334549 0.24967761337757111
0.92935293912887573 0.062483977526426315 0.26268863677978516
0.037995222955942154 0.25765570998191833 0.26575666666030884
0.20560038089752197 0.24605144560337067 0.25808113813400269
0.59352332353591919 0.22741958498954773 0.24089132249355316
0.85332655906677246 0.21764551103115082 0.23315601050853729
0.93279761075973511 0.21945351362228394 0.22826705873012543
0.066598378121852875 0.55510914325714111 0.24876484274864197
0.14466914534568787 0.5534592866897583 0.22110342979431152
0.48821398615837097 0.53457880020141602 0.17914237082004547
0.84798294305801392 0.51130908727645874 0.18834048509597778
0.93187147378921509 0.49767586588859558 0.20507688820362091
0.10139206796884537 0.82883632183074951 0.25664007663726807
0.17394748330116272 0.81845873594284058 0.26983785629272461
0.35698595643043518 0.81963330507278442 0.26243573427200317
0.785572350025177 0.80067223310470581 0.24232900142669678
0.92890059947967529 0.77073109149932861 0.26106336712837219
0.10330752283334732 0.93253207206726074 0.26855996251106262
0.16150586307048798 0.93314546346664429 0.28621479868888855
0.25188964605331421 0.94461190700531006 0.29074269533157349
0.70350468158721924 0.95756322145462036 0.28880921006202698
0.92835128307342529 0.95053219795227051 0.31310254335403442
0.1584937572479248 0.048035744577646255 0.69787204265594482
0.34946388006210327 0.032802775502204895 0.68122369050979614
0.65588772296905518 0.047744780778884888 0.66083943843841553
0.86496615409851074 0.045972488820552826 0.6408083438873291
0.92946082353591919 0.038071352988481522 0.62046056985855103
0.095162786543369293 0.28652301430702209 0.64173769950866699
0.27249667048454285 0.24913854897022247 0.64166706800460815
0.60449445247650146 0.2128228098154068 0.6184648871421814
0.86088317632675171 0.21002045273780823 0.59352773427963257
0.92790091037750244 0.20427744090557098 0.57217514514923096
0.077733524143695831 0.56780993938446045 0.58526349067687988
0.14541579782962799 0.55825251340866089 0.56382173299789429
0.51304161548614502 0.57376641035079956 0.59705370664596558
0.87694388628005981 0.56682693958282471 0.60025745630264282
0.95842283964157104 0.55296176671981812 0.58575940132141113
0.10002797096967697 0.82467949390411377 0.52352410554885864
0.1720445454120636 0.82144784927368164 0.51421326398849487
0.32466095685958862 0.82041877508163452 0.52201735973358154
0.81107825040817261 0.82864242792129517 0.52584159374237061
0.95274066925048828 0.80397981405258179 0.52078437805175781
0.10212098807096481 0.93245744705200195 0.46420294046401978
0.16545404493808746 0.93336397409439087 0.47505304217338562
0.23468418419361115 0.93809658288955688 0.45875483751296997
0.71272224187850952 0.96824604272842407 0.47120651602745056
0.94525927305221558 0.96825093030929565 0.47626933455467224
0.19187137484550476 0.058591879904270172 0.85799503326416016
0.38651594519615173 0.067706197500228882 0.86158847808837891
0.6743585467338562 0.070747539401054382 0.85675531625747681
0.87077265977859497 0.050845038145780563 0.85340327024459839
0.92272400856018066 0.041330870240926743 0.83916491270065308
0.16594214737415314 0.29262587428092957 0.85943746566772461
0.33343559503555298 0.26646566390991211 0.86062973737716675
0.64048165082931519 0.2202472984790802 0.85914665460586548
0.86816835403442383 0.19800391793251038 0.84274983406066895
0.9296271800994873 0.20230057835578918 0.82845592498779297
0.10119692981243134 0.57628142833709717 0.84335470199584961
0.20183320343494415 0.57361346483230591 0.84966003894805908
0.58296316862106323 0.59441477060317993 0.88043594360351562
0.88165223598480225 0.55789637565612793 0.85956406593322754
0.96140414476394653 0.55461764335632324 0.84217256307601929
0.10661888867616653 0.83020710945129395 0.81827878952026367
0.17477262020111084 0.82479465007781982 0.81256872415542603
0.34961482882499695 0.82905453443527222 0.81412631273269653
0.84072595834732056 0.86262094974517822 0.85696780681610107
0.97788292169570923 0.85118949413299561 0.84818297624588013
0.10193390399217606 0.93546748161315918 0.77541232109069824
0.15933883190155029 0.9373774528503418 0.77488332986831665
0.26497769355773926 0.94287413358688354 0.7644084095954895
0.76928478479385376 0.98933911323547363 0.82372063398361206
0.98063051700592041 0.99241876602172852 0.8136216402053833
0.19523747265338898 0.049394074827432632 0.92803281545639038
0.38481631875038147 0.06949201226234436 0.9275364875793457
0.6691054105758667 0.045687161386013031 0.92788338661193848
0.8691973090171814 0.028858214616775513 0.92259663343429565
0.92844760417938232 0.029210453853011131 0.9251244068145752
0.17778044939041138 0.29214513301849365 0.93231916427612305
0.3412482738494873 0.26639929413795471 0.93721038103103638
0.62259399890899658 0.22825868427753448 0.92974656820297241
0.85627657175064087 0.20314858853816986 0.92913830280303955
0.92973345518112183 0.19378195703029633 0.9296756386756897
0.10351616144180298 0.56871175765991211 0.92769378423690796
0.22354662418365479 0.56920009851455688 0.9319339394569397
0.5902523398399353 0.59719783067703247 0.96321451663970947
0.87352710962295532 0.55916851758956909 0.9586147665977478
0.96325445175170898 0.55828821659088135 0.95871835947036743
0.10781013965606689 0.82316666841506958 0.92831265926361084
0.17318271100521088 0.82288944721221924 0.92792040109634399
0.37507802248001099 0.82634323835372925 0.94011980295181274
0.84394854307174683 0.86542129516601562 0.9834219217300415
0.98839664459228516 0.85520815849304199 0.98647892475128174
0.10426526516675949 0.93518239259719849 0.93083316087722778
0.14153620600700378 0.94500571489334106 0.939475417137146
0.28809031844139099 0.94784760475158691 0.93848961591720581
0.79325681924819946 0.98594290018081665 0.9776642918586731
0.99456137418746948 0.99642348289489746 0.99293327331542969
