assets/lut/editingcorpw Pearl Paradise.cube
LUT_3D_SIZE 16
DOMAIN_MIN 0.0 0.0 0.0
DOMAIN_MAX 1.0 1.0 1.0
0.001284 0.003836 0.019896
0.017743 0.004824 0.031260
0.043788 0.003855 0.039170
0.061226 0.004396 0.033525
0.070101 0.003620 0.023347
0.077662 0.003377 0.016219
0.105358 0.003822 0.019313
0.161130 0.006167 0.026228
0.243719 0.010269 0.027388
0.348329 0.014395 0.023551
0.463738 0.025706 0.017473
0.575939 0.038481 0.008473
0.662681 0.047234 0.006135
0.734750 0.055691 0.006113
0.797961 0.064198 0.006136
0.851004 0.074343 0.007794
0.002174 0.037195 0.018226
0.014468 0.047760 0.026719
0.037458 0.045147 0.036567
0.065188 0.032873 0.035071
0.081705 0.025790 0.027889
0.092212 0.022924 0.020835
0.122313 0.020647 0.022588
0.186025 0.022414 0.029095
0.279733 0.030230 0.029501
0.390597 0.045726 0.025282
0.509681 0.062758 0.016986
0.608927 0.074997 0.009703
0.687873 0.083445 0.007963
0.755223 0.091081 0.008206
0.812245 0.099977 0.009836
0.859802 0.110245 0.012781
0.002219 0.039903 0.028768
0.014900 0.061409 0.033730
0.028816 0.078569 0.037243
0.056441 0.073173 0.032347
0.080428 0.058887 0.027455
0.100486 0.047969 0.024503
0.136023 0.046750 0.025168
0.210537 0.050531 0.030829
0.314093 0.064030 0.030744
0.430017 0.082207 0.025693
0.546582 0.098690 0.015959
0.635427 0.110166 0.010953
0.708167 0.118542 0.010814
0.770915 0.125961 0.012010
0.821654 0.134557 0.014126
0.864309 0.144494 0.017308
0.003432 0.064283 0.038584
0.015634 0.076355 0.047182
0.028872 0.083849 0.051016
0.055096 0.085326 0.042600
0.077679 0.085715 0.032522
0.101425 0.081419 0.025608
0.148799 0.076416 0.025975
0.235301 0.083354 0.031201
0.344516 0.101468 0.030138
0.462862 0.119570 0.023452
0.570367 0.135111 0.014282
0.652570 0.145697 0.011317
0.721440 0.153511 0.012779
0.778922 0.160930 0.015264
0.824919 0.169067 0.018138
0.865538 0.178654 0.021708
0.005383 0.104105 0.048735
0.017712 0.116194 0.059224
0.029055 0.117144 0.062845
0.054282 0.106795 0.056545
0.084166 0.097023 0.047782
0.114657 0.093577 0.037709
0.166890 0.099031 0.030597
0.261023 0.114096 0.031899
0.375852 0.134583 0.030722
0.490607 0.155418 0.021922
0.587921 0.171886 0.013775
0.663887 0.183351 0.011684
0.728534 0.191832 0.013961
0.780785 0.199504 0.017185
0.823661 0.207969 0.020633
0.862794 0.217256 0.024638
0.007789 0.142044 0.060863
0.020269 0.154291 0.071947
0.031478 0.155283 0.074490
0.053022 0.147180 0.069077
0.087351 0.138252 0.062567
0.126045 0.127967 0.051938
0.191208 0.122462 0.041872
0.293089 0.131613 0.041482
0.411805 0.152589 0.037665
0.519624 0.180657 0.025882
0.605704 0.205097 0.016682
0.677023 0.220946 0.013780
0.735632 0.231540 0.015985
0.782185 0.241001 0.019381
0.822297 0.250559 0.022896
0.860376 0.260324 0.026751
0.010832 0.178418 0.074448
0.023447 0.191253 0.085459
0.034515 0.194171 0.087260
0.055940 0.190940 0.083317
0.093712 0.187048 0.077788
0.135884 0.182273 0.066447
0.213405 0.183222 0.052015
0.325438 0.185071 0.047512
0.446000 0.189696 0.044202
0.547695 0.196874 0.038695
0.631322 0.216231 0.031750
0.696500 0.241117 0.025751
0.746162 0.265809 0.022858
0.788040 0.283627 0.023679
0.826939 0.296878 0.026194
0.864187 0.308669 0.029526
0.013623 0.214183 0.087562
0.026448 0.228186 0.098643
0.037944 0.233814 0.099728
0.059919 0.235317 0.096424
0.100703 0.236964 0.092225
0.147412 0.240961 0.081629
0.235365 0.247158 0.066410
0.353808 0.254038 0.057491
0.475340 0.256997 0.048158
0.570769 0.258391 0.043357
0.654045 0.257825 0.041861
0.720643 0.261307 0.042884
0.770956 0.276401 0.043659
0.808936 0.306839 0.039466
0.842058 0.337923 0.035587
0.876928 0.360323 0.035931
0.017093 0.250025 0.099554
0.030462 0.266276 0.110783
0.042212 0.274765 0.111385
0.063530 0.280555 0.107996
0.107398 0.290185 0.104415
0.164584 0.300551 0.094984
0.259888 0.312279 0.081164
0.380899 0.324862 0.071044
0.495024 0.331916 0.060953
0.590392 0.336774 0.053871
0.672722 0.339993 0.049363
0.738367 0.339405 0.049877
0.792765 0.333386 0.054981
0.837684 0.334443 0.059547
0.873055 0.354778 0.058588
0.902333 0.388174 0.055505
0.021442 0.289210 0.110879
0.034903 0.305979 0.121530
0.047001 0.316626 0.121018
0.067647 0.328670 0.117256
0.117286 0.346662 0.114084
0.186338 0.361785 0.107349
0.291294 0.381271 0.095861
0.411188 0.399848 0.087118
0.516031 0.414825 0.081902
0.610740 0.425046 0.075180
0.688348 0.433061 0.070371
0.746671 0.436023 0.068917
0.798464 0.432933 0.070047
0.846546 0.424281 0.072546
0.890264 0.414184 0.075743
0.926766 0.421158 0.077253
0.026340 0.330923 0.121122
0.039668 0.347478 0.130865
0.052337 0.361057 0.129088
0.073186 0.382009 0.124825
0.131492 0.405321 0.122627
0.214765 0.429017 0.118744
0.332051 0.459449 0.111198
0.453069 0.486308 0.107409
0.550955 0.505608 0.105334
0.631860 0.519309 0.102440
0.700528 0.528634 0.097594
0.752285 0.532832 0.095511
0.799241 0.533098 0.094106
0.845691 0.528965 0.093139
0.891747 0.518938 0.092664
0.935608 0.504928 0.094692
0.031484 0.372602 0.129610
0.045630 0.391660 0.138546
0.059450 0.412795 0.136272
0.087357 0.440875 0.132177
0.162894 0.472745 0.131678
0.265018 0.512401 0.132156
0.388623 0.552132 0.128963
0.499468 0.579304 0.128460
0.587868 0.597079 0.127726
0.657009 0.609906 0.126523
0.712876 0.619904 0.125861
0.757638 0.625444 0.126424
0.800230 0.627612 0.125578
0.842527 0.626934 0.123185
0.886292 0.621681 0.120266
0.931252 0.610193 0.117905
0.036263 0.407848 0.139245
0.051291 0.431334 0.147032
0.068306 0.460805 0.144589
0.115696 0.495349 0.142135
0.212248 0.538529 0.145069
0.331641 0.589549 0.148671
0.447684 0.628618 0.148815
0.546022 0.655797 0.151585
0.622876 0.674814 0.152756
0.682212 0.689189 0.152194
0.731111 0.699756 0.151932
0.771082 0.706240 0.153595
0.807322 0.711446 0.154516
0.843496 0.714388 0.154980
0.881975 0.713983 0.153564
0.922386 0.707310 0.149112
0.041006 0.439629 0.149190
0.056985 0.469790 0.156112
0.083251 0.506334 0.155360
0.165780 0.548383 0.156626
0.272306 0.597213 0.162066
0.397150 0.648863 0.166302
0.503407 0.684859 0.170807
0.591181 0.712408 0.176137
0.655746 0.733251 0.179020
0.706847 0.749411 0.179940
0.749666 0.760684 0.180334
0.786581 0.769225 0.181226
0.821459 0.776618 0.181295
0.853980 0.783282 0.181858
0.885836 0.787559 0.182658
0.918939 0.787981 0.182192
0.046369 0.474475 0.160197
0.067478 0.511757 0.166423
0.126865 0.554230 0.169273
0.222069 0.597726 0.172498
0.333706 0.647557 0.178610
0.456632 0.696691 0.184383
0.554319 0.731421 0.193453
0.631352 0.758986 0.200985
0.687128 0.780476 0.205187
0.731049 0.797850 0.207618
0.768839 0.810156 0.208612
0.803148 0.820201 0.209103
0.836467 0.828631 0.209065
0.867519 0.835941 0.208637
0.895844 0.841949 0.208345
0.924398 0.846058 0.208534
0.053159 0.515206 0.171977
0.091723 0.557822 0.178725
0.180132 0.600185 0.182300
0.280035 0.644042 0.188441
0.395556 0.693421 0.194546
0.511101 0.739310 0.203686
0.601495 0.773600 0.215788
0.667446 0.800555 0.225177
0.716310 0.821827 0.230924
0.755140 0.839305 0.234734
0.788896 0.852621 0.236985
0.820863 0.863645 0.237163
0.852226 0.873291 0.236653
0.881202 0.880988 0.235992
0.908054 0.887186 0.235140
0.933388 0.892126 0.236202
0.001260 0.003251 0.056553
0.013076 0.003581 0.064145
0.041520 0.008953 0.070468
0.070861 0.018003 0.070184
0.089321 0.020518 0.063306
0.101219 0.018990 0.053978
0.121184 0.015208 0.052165
0.169973 0.011156 0.059395
0.247042 0.010383 0.061235
0.348330 0.018170 0.059942
0.464257 0.035683 0.055741
0.580923 0.051196 0.048822
0.669962 0.060288 0.044659
0.742460 0.068951 0.043544
0.805316 0.078730 0.044624
0.856523 0.089238 0.047089
0.002163 0.036264 0.051536
0.013944 0.038490 0.060214
0.039604 0.040316 0.070602
0.075668 0.042489 0.077407
0.100918 0.045306 0.071148
0.116946 0.044825 0.061312
0.139548 0.042393 0.057629
0.194955 0.038411 0.063325
0.282732 0.039984 0.065392
0.394267 0.055349 0.062726
0.516336 0.075612 0.056819
0.619446 0.089651 0.050235
0.699152 0.098802 0.048002
0.765651 0.107355 0.047988
0.821317 0.117097 0.049776
0.867643 0.127641 0.052682
0.002890 0.053987 0.054893
0.015398 0.071649 0.058451
0.030509 0.082186 0.065334
0.066809 0.080451 0.074060
0.102034 0.070961 0.071469
0.126748 0.066831 0.064561
0.154470 0.065438 0.059492
0.218754 0.063740 0.063576
0.318050 0.071799 0.066502
0.437826 0.092430 0.063423
0.559126 0.112946 0.056050
0.650168 0.125871 0.051224
0.722831 0.134814 0.050798
0.783939 0.143368 0.051823
0.832885 0.153522 0.054280
0.874761 0.164485 0.057653
0.003366 0.063614 0.064311
0.015804 0.080184 0.068002
0.029201 0.098385 0.072232
0.055715 0.113170 0.073905
0.090429 0.108858 0.067919
0.123684 0.096793 0.062512
0.163172 0.089079 0.059277
0.239093 0.091609 0.062600
0.351850 0.107147 0.065468
0.476449 0.129831 0.061930
0.589669 0.148690 0.054442
0.672190 0.161041 0.051617
0.739877 0.169669 0.052724
0.794710 0.178512 0.054837
0.838533 0.188531 0.057937
0.877949 0.199224 0.061741
0.005922 0.105027 0.070143
0.018142 0.117917 0.076089
0.029851 0.128135 0.083284
0.052257 0.129986 0.085508
0.087381 0.125186 0.077291
0.119372 0.124055 0.066683
0.167055 0.122281 0.057571
0.259652 0.124793 0.060322
0.381754 0.144300 0.063290
0.505581 0.167625 0.058617
0.607862 0.185734 0.052152
0.685747 0.197485 0.051164
0.748886 0.206359 0.053871
0.798946 0.214785 0.057290
0.840338 0.224446 0.061171
0.878615 0.235116 0.065466
0.008084 0.145557 0.077857
0.020641 0.158459 0.085863
0.032614 0.169508 0.094718
0.048071 0.169587 0.096410
0.085022 0.160218 0.089297
0.125211 0.149484 0.080007
0.183772 0.142761 0.068160
0.284332 0.153575 0.062853
0.412184 0.177434 0.063283
0.531424 0.201891 0.057564
0.623310 0.222798 0.051653
0.696384 0.236310 0.051185
0.753771 0.246609 0.054522
0.799257 0.256459 0.058547
0.838855 0.265894 0.062787
0.876665 0.276770 0.067511
0.011348 0.182505 0.087359
0.023915 0.196362 0.098142
0.035832 0.208011 0.108114
0.048050 0.209439 0.108809
0.085976 0.203681 0.102419
0.130582 0.198450 0.094134
0.202105 0.197437 0.080142
0.312769 0.202701 0.072380
0.446026 0.210506 0.069871
0.555836 0.224807 0.064741
0.642831 0.249664 0.058102
0.708607 0.273686 0.054724
0.760341 0.289052 0.056735
0.802550 0.302090 0.060421
0.841380 0.314139 0.064553
0.879020 0.325966 0.069223
0.014182 0.218593 0.097766
0.027020 0.233560 0.111090
0.039333 0.246120 0.121315
0.051559 0.250363 0.121274
0.090485 0.249115 0.115742
0.139087 0.249816 0.108557
0.221646 0.260408 0.095171
0.338784 0.273501 0.084731
0.470489 0.280792 0.076998
0.577065 0.282514 0.070951
0.664865 0.283143 0.069593
0.730765 0.294205 0.069885
0.778039 0.317250 0.069564
0.815101 0.345946 0.068502
0.851133 0.367770 0.071176
0.887901 0.384743 0.076160
0.017601 0.254533 0.107480
0.030976 0.270471 0.123213
0.043647 0.284863 0.133361
0.056266 0.292354 0.132583
0.096091 0.295821 0.126776
0.150305 0.306193 0.121206
0.244989 0.325377 0.110343
0.367339 0.345161 0.099396
0.488935 0.358524 0.092000
0.591668 0.365429 0.085186
0.678165 0.369331 0.080849
0.745718 0.367674 0.081925
0.799875 0.362348 0.086850
0.841663 0.371793 0.090040
0.873299 0.402332 0.090026
0.903289 0.436272 0.089965
0.021842 0.292861 0.116092
0.035462 0.310695 0.134855
0.048342 0.326176 0.144504
0.061356 0.335769 0.142429
0.104334 0.347546 0.136329
0.168480 0.367505 0.132797
0.275524 0.395171 0.124888
0.402587 0.422518 0.116673
0.514978 0.443101 0.113419
0.610975 0.456715 0.108905
0.690081 0.465187 0.103905
0.750194 0.467341 0.102291
0.803136 0.462337 0.103503
0.851614 0.451591 0.106430
0.893893 0.444446 0.109855
0.927806 0.461315 0.110601
0.026727 0.333664 0.124621
0.040747 0.353008 0.145941
0.053738 0.368905 0.154587
0.067621 0.382898 0.150728
0.116004 0.405301 0.144931
0.196307 0.434539 0.143361
0.318389 0.475963 0.139801
0.448256 0.512177 0.136757
0.553091 0.535010 0.136331
0.634766 0.550914 0.135353
0.699745 0.562157 0.133333
0.753449 0.565787 0.130445
0.801154 0.564547 0.129267
0.848661 0.557821 0.128159
0.895143 0.545208 0.128452
0.937619 0.530675 0.130094
0.031095 0.368336 0.135402
0.045669 0.389390 0.157395
0.059166 0.407660 0.164673
0.083440 0.429915 0.159606
0.147479 0.463008 0.156057
0.246510 0.506714 0.158304
0.378189 0.558412 0.158545
0.497719 0.594805 0.158582
0.591808 0.618185 0.160365
0.661775 0.634249 0.159637
0.717665 0.646087 0.159313
0.760415 0.653701 0.160524
0.801453 0.656785 0.161116
0.843501 0.656163 0.159623
0.887001 0.648452 0.156599
0.931268 0.633740 0.154732
0.035327 0.398944 0.148268
0.050197 0.421666 0.169262
0.066452 0.444839 0.174919
0.108349 0.476496 0.170769
0.195331 0.519784 0.171411
0.310484 0.573109 0.176119
0.439589 0.624255 0.179129
0.547117 0.659595 0.183310
0.628979 0.683801 0.186742
0.688961 0.701853 0.186851
0.737699 0.715076 0.187050
0.776383 0.723778 0.187996
0.811849 0.730824 0.189350
0.846458 0.735886 0.190682
0.881898 0.736471 0.190515
0.921204 0.729062 0.186554
0.039430 0.428036 0.162841
0.054950 0.453788 0.181415
0.079997 0.484859 0.186472
0.154132 0.525898 0.185977
0.254214 0.573825 0.189801
0.375542 0.628028 0.194583
0.496431 0.675664 0.201340
0.594577 0.709925 0.208973
0.663944 0.735408 0.213702
0.715624 0.754993 0.215529
0.758014 0.768636 0.216387
0.793527 0.778634 0.216771
0.827093 0.787042 0.217081
0.857872 0.794194 0.217458
0.887704 0.799059 0.218047
0.919112 0.800192 0.218882
0.044376 0.459924 0.178920
0.066107 0.492182 0.195209
0.116930 0.531280 0.200213
0.209189 0.574317 0.202376
0.315831 0.623656 0.208052
0.436077 0.675392 0.213776
0.548480 0.720234 0.224150
0.635937 0.754137 0.234303
0.696460 0.779794 0.240685
0.741456 0.799456 0.244052
0.779014 0.813904 0.245556
0.811748 0.825161 0.245914
0.842941 0.834090 0.245690
0.871521 0.841395 0.245079
0.898156 0.847451 0.244910
0.925319 0.852007 0.245569
0.050509 0.497872 0.195750
0.088340 0.538776 0.210842
0.165373 0.579431 0.214998
0.266808 0.621391 0.219220
0.378199 0.670518 0.225539
0.491907 0.718777 0.233421
0.596529 0.762069 0.246837
0.673305 0.795212 0.259246
0.726441 0.820313 0.266896
0.766958 0.839572 0.271968
0.800551 0.854049 0.274903
0.830669 0.866033 0.275369
0.859253 0.875677 0.274680
0.885542 0.883357 0.273462
0.910508 0.889334 0.272795
0.934567 0.894542 0.275098
0.001260 0.003534 0.090977
0.012901 0.003683 0.095984
0.025648 0.005814 0.097969
0.062186 0.020788 0.099678
0.091607 0.027982 0.096061
0.113244 0.031583 0.089391
0.134502 0.031195 0.084431
0.175225 0.027655 0.090718
0.246128 0.024388 0.095703
0.344420 0.026695 0.095198
0.460413 0.039383 0.091149
0.579279 0.056866 0.087128
0.671942 0.069214 0.083433
0.746000 0.079237 0.082355
0.808547 0.089538 0.083326
0.859079 0.100907 0.085556
0.001841 0.026979 0.088506
0.013518 0.027801 0.097127
0.027061 0.031850 0.103355
0.067055 0.044058 0.107938
0.100172 0.053568 0.106168
0.125712 0.058433 0.099338
0.150449 0.059489 0.093701
0.196603 0.056687 0.097011
0.278837 0.055843 0.101120
0.390069 0.062826 0.098642
0.514550 0.080777 0.093537
0.622997 0.098665 0.088693
0.705054 0.109184 0.086119
0.772047 0.119085 0.086097
0.826717 0.129698 0.087904
0.872385 0.140625 0.090687
0.003377 0.063968 0.085485
0.015352 0.070418 0.092127
0.027669 0.072171 0.099762
0.064517 0.073908 0.108511
0.103073 0.076578 0.112037
0.133527 0.081133 0.104752
0.163779 0.083168 0.098166
0.217204 0.082042 0.099080
0.312544 0.085156 0.102854
0.436524 0.098746 0.099343
0.563817 0.121813 0.093950
0.659775 0.138092 0.089911
0.732462 0.148149 0.089108
0.793215 0.157869 0.090140
0.840769 0.168823 0.092746
0.881748 0.180185 0.096062
0.003712 0.070725 0.093181
0.016576 0.089977 0.095366
0.028757 0.106859 0.097768
0.054064 0.116583 0.102328
0.093508 0.113172 0.107155
0.131625 0.103126 0.103171
0.171251 0.102456 0.096792
0.235314 0.105109 0.095869
0.347246 0.114022 0.100456
0.479888 0.135389 0.097699
0.600975 0.160005 0.092751
0.685598 0.175054 0.090456
0.752892 0.185106 0.091392
0.806378 0.195177 0.093549
0.849439 0.206272 0.096934
0.888011 0.218043 0.100826
0.005943 0.103350 0.098556
0.018268 0.115489 0.102738
0.030064 0.127432 0.105504
0.050915 0.140168 0.107561
0.082165 0.148002 0.105571
0.118457 0.140904 0.097683
0.168042 0.130519 0.091434
0.250571 0.131334 0.091451
0.378780 0.147623 0.096034
0.513852 0.173165 0.093954
0.624606 0.196539 0.090016
0.703680 0.210530 0.089610
0.765659 0.220963 0.092362
0.813203 0.231548 0.095797
0.853400 0.242821 0.100132
0.891267 0.254498 0.104766
0.008780 0.148415 0.102580
0.021205 0.160995 0.108368
0.033105 0.171981 0.112920
0.048088 0.179877 0.116979
0.077842 0.178171 0.115473
0.115445 0.166688 0.106423
0.166791 0.163256 0.094802
0.264012 0.171317 0.088347
0.407395 0.186789 0.092087
0.539981 0.213429 0.090400
0.639335 0.234747 0.086986
0.714419 0.249020 0.087988
0.771512 0.259625 0.092383
0.815591 0.270250 0.097102
0.854264 0.281924 0.102300
0.891810 0.293643 0.107735
0.011908 0.188528 0.107663
0.024514 0.201574 0.116390
0.036419 0.212766 0.123080
0.048137 0.221285 0.128804
0.074944 0.220613 0.127060
0.116659 0.212323 0.118765
0.180700 0.209674 0.107489
0.289475 0.215316 0.097297
0.433251 0.230696 0.094507
0.559929 0.251699 0.090972
0.654133 0.273336 0.087656
0.723149 0.291540 0.087862
0.775020 0.304896 0.092706
0.817012 0.317083 0.097861
0.855646 0.329919 0.103568
0.893359 0.343568 0.109987
0.014945 0.224210 0.112726
0.027757 0.238695 0.124798
0.040087 0.251359 0.134333
0.052130 0.261195 0.141474
0.075800 0.263113 0.139550
0.123596 0.260306 0.131999
0.196900 0.267589 0.123139
0.314884 0.285736 0.110412
0.455559 0.301072 0.105215
0.576650 0.306342 0.100122
0.672192 0.310877 0.096892
0.737701 0.329076 0.096862
0.783885 0.352709 0.099056
0.824056 0.372283 0.103950
0.862055 0.388913 0.110499
0.900087 0.404562 0.118142
0.018059 0.258290 0.117352
0.031530 0.275119 0.133427
0.044217 0.289890 0.146074
0.056650 0.301593 0.153572
0.082641 0.307634 0.150691
0.133899 0.311074 0.143966
0.218302 0.330986 0.137876
0.344214 0.358151 0.126705
0.475791 0.381041 0.121840
0.589130 0.391968 0.116449
0.682058 0.397273 0.112626
0.751831 0.394392 0.113647
0.804532 0.394312 0.118200
0.843021 0.414690 0.121106
0.875249 0.444747 0.123549
0.909299 0.469158 0.128366
0.022182 0.295855 0.122736
0.036057 0.315143 0.142418
0.049207 0.331633 0.158210
0.062030 0.344840 0.165270
0.093264 0.354701 0.161246
0.150155 0.369281 0.155726
0.248052 0.401226 0.151727
0.382901 0.438265 0.144764
0.507924 0.467641 0.143376
0.608365 0.486048 0.141770
0.690885 0.495947 0.137306
0.753133 0.497646 0.135438
0.807610 0.489833 0.136823
0.855785 0.478475 0.139781
0.895342 0.479678 0.142846
0.925839 0.507549 0.144535
0.026817 0.333295 0.131807
0.041057 0.353986 0.153336
0.054570 0.371980 0.171532
0.067572 0.386294 0.176969
0.108687 0.402026 0.171092
0.177070 0.433073 0.167475
0.292503 0.478525 0.166385
0.433056 0.527307 0.164618
0.549158 0.558431 0.165909
0.636321 0.578475 0.166569
0.701517 0.591884 0.166141
0.754371 0.596984 0.165516
0.803216 0.594376 0.164069
0.851267 0.585011 0.163097
0.897346 0.569667 0.163604
0.937886 0.556987 0.165948
0.030907 0.365219 0.145170
0.045393 0.386042 0.167380
0.059159 0.405142 0.185867
0.082790 0.422151 0.189461
0.138624 0.449094 0.184119
0.226543 0.493086 0.184817
0.354236 0.548747 0.186267
0.486185 0.597610 0.188146
0.590531 0.629233 0.191678
0.665268 0.650604 0.192573
0.722248 0.665874 0.192521
0.765256 0.675512 0.194192
0.804625 0.680580 0.196095
0.845356 0.680113 0.195425
0.887508 0.671319 0.192798
0.930610 0.654846 0.191326
0.035053 0.394833 0.160438
0.049621 0.415788 0.183154
0.066880 0.436807 0.200599
0.105529 0.459651 0.202486
0.181548 0.499466 0.200523
0.286820 0.552082 0.204982
0.416249 0.607322 0.207542
0.538398 0.653825 0.213470
0.630553 0.685673 0.219178
0.694590 0.708055 0.221033
0.744078 0.724648 0.221491
0.782758 0.735440 0.222616
0.817468 0.743900 0.224212
0.850285 0.749647 0.225623
0.883269 0.750782 0.226532
0.920669 0.744353 0.224548
0.039263 0.423846 0.177975
0.054722 0.446593 0.200316
0.082919 0.471547 0.215462
0.143161 0.506000 0.218672
0.238061 0.551705 0.220157
0.351971 0.605122 0.224617
0.474008 0.657076 0.229985
0.587183 0.701255 0.239384
0.667544 0.733331 0.247238
0.722972 0.756657 0.250349
0.766198 0.773799 0.251406
0.801025 0.785149 0.252115
0.832962 0.794076 0.252778
0.861872 0.801304 0.253367
0.889979 0.806533 0.254705
0.920160 0.808127 0.256327
0.044196 0.455736 0.197244
0.069021 0.482706 0.219239
0.115186 0.515208 0.232736
0.192549 0.555893 0.236769
0.298692 0.602379 0.240349
0.414789 0.654164 0.245229
0.527528 0.702176 0.253752
0.630698 0.744992 0.265964
0.701545 0.776344 0.275167
0.750411 0.799184 0.279657
0.788747 0.816091 0.281678
0.819933 0.828043 0.282351
0.848566 0.837434 0.282203
0.875630 0.844873 0.282089
0.900995 0.851258 0.282863
0.926923 0.856107 0.284793
0.050376 0.492660 0.218444
0.092845 0.526727 0.240597
0.156295 0.566764 0.252360
0.248230 0.605790 0.255073
0.360408 0.652082 0.260905
0.474525 0.700251 0.267033
0.577272 0.745669 0.277837
0.669958 0.787160 0.292485
0.733261 0.817490 0.303055
0.777203 0.839492 0.308891
0.811550 0.855495 0.312734
0.839785 0.867141 0.313435
0.865472 0.876648 0.312707
0.890000 0.884221 0.311704
0.913823 0.890519 0.312079
0.937042 0.896608 0.317336
0.001260 0.003947 0.112616
0.013147 0.004239 0.122614
0.024456 0.005058 0.126510
0.040310 0.014268 0.126744
0.079594 0.026053 0.124426
0.108954 0.032055 0.118927
0.137027 0.036693 0.114272
0.175239 0.037531 0.117435
0.239698 0.036436 0.127218
0.332281 0.038912 0.130811
0.449116 0.044696 0.128538
0.569078 0.059888 0.124760
0.668439 0.074491 0.121877
0.744989 0.086348 0.121037
0.807056 0.098033 0.122360
0.856912 0.110625 0.124674
0.001826 0.020128 0.115354
0.013790 0.023586 0.128434
0.025210 0.028161 0.134528
0.046093 0.038746 0.136336
0.087087 0.052680 0.136297
0.119083 0.059492 0.130665
0.148501 0.064534 0.124292
0.190625 0.067064 0.126126
0.266968 0.069028 0.134215
0.374076 0.073955 0.135172
0.500131 0.085944 0.131092
0.615457 0.103752 0.126532
0.704093 0.117022 0.124444
0.772800 0.128087 0.124510
0.827111 0.140215 0.126272
0.872554 0.152661 0.128883
0.002970 0.056281 0.113820
0.014942 0.060482 0.127754
0.026228 0.061452 0.136624
0.047926 0.064723 0.141357
0.090540 0.075857 0.143793
0.126320 0.084407 0.138978
0.157415 0.089175 0.131401
0.204637 0.093270 0.131160
0.295218 0.098768 0.137161
0.417706 0.107997 0.136722
0.551335 0.127142 0.131305
0.657662 0.145882 0.127212
0.735164 0.157833 0.126417
0.796210 0.168913 0.127649
0.843583 0.181576 0.130493
0.884615 0.194352 0.134438
0.004256 0.079996 0.116242
0.017180 0.098360 0.125638
0.028709 0.104524 0.132288
0.043787 0.104522 0.137745
0.086892 0.104269 0.143183
0.128504 0.106408 0.142285
0.163590 0.110216 0.133542
0.218454 0.116596 0.131029
0.325109 0.126699 0.136298
0.463346 0.142400 0.134913
0.596507 0.167650 0.129305
0.690307 0.185520 0.127484
0.759824 0.197208 0.128354
0.812340 0.209104 0.130989
0.854570 0.221992 0.135083
0.892612 0.235381 0.140118
0.005612 0.098961 0.123163
0.018383 0.115280 0.132511
0.030518 0.130451 0.135627
0.043039 0.142880 0.135556
0.076528 0.149127 0.135421
0.118239 0.143039 0.135748
0.163840 0.132896 0.130419
0.231668 0.138964 0.126764
0.356133 0.154087 0.131824
0.504407 0.178313 0.130564
0.629261 0.205622 0.126522
0.713096 0.222679 0.126373
0.775467 0.235193 0.129113
0.822269 0.247736 0.133769
0.861541 0.261504 0.139112
0.898437 0.275508 0.145076
0.008839 0.144146 0.126822
0.021481 0.159152 0.137199
0.033310 0.170403 0.141873
0.045204 0.178153 0.141840
0.074421 0.183139 0.139266
0.108351 0.183839 0.134169
0.153478 0.176129 0.125398
0.237382 0.173017 0.120710
0.385313 0.186973 0.125048
0.537469 0.217469 0.124588
0.650765 0.243693 0.122970
0.728289 0.260350 0.124275
0.784448 0.272930 0.129089
0.827634 0.286225 0.135462
0.865518 0.300833 0.142276
0.901930 0.315554 0.149515
0.012176 0.189313 0.130301
0.025159 0.205435 0.141497
0.037198 0.217478 0.147539
0.048889 0.225101 0.149021
0.073182 0.229581 0.148986
0.107461 0.227883 0.145184
0.157877 0.222107 0.136245
0.251184 0.226083 0.124322
0.405092 0.242705 0.121284
0.555982 0.264844 0.122492
0.663657 0.287484 0.121403
0.735123 0.304604 0.123347
0.787798 0.318160 0.129430
0.829609 0.331482 0.136462
0.868319 0.345978 0.144376
0.905926 0.361869 0.152924
0.015763 0.230779 0.133316
0.028746 0.246289 0.146012
0.040988 0.258973 0.155175
0.052785 0.267195 0.158912
0.072643 0.273436 0.161034
0.110295 0.274542 0.157908
