assets/lut/editingcorpw Toasted Champagne.cube
LUT_3D_SIZE 6
DOMAIN_MIN 0.0 0.0 0.0
DOMAIN_MAX 1.0 1.0 1.0
0.109377 0.098329 0.131472
0.243473 0.095381 0.136055
0.445961 0.059028 0.147176
0.663759 0.000000 0.166537
0.880522 0.000000 0.185775
1.000000 0.000000 0.206485
0.186715 0.187942 0.158541
0.257630 0.191644 0.157441
0.444607 0.215922 0.169457
0.659504 0.206513 0.182691
0.878176 0.198037 0.194897
1.000000 0.206516 0.211740
0.308916 0.322002 0.211801
0.356697 0.310709 0.212835
0.475048 0.347050 0.213516
0.672535 0.417310 0.222143
0.875335 0.435823 0.226344
1.000000 0.437391 0.233170
0.402295 0.435059 0.241520
0.428708 0.426569 0.241346
0.488367 0.381431 0.237103
0.678220 0.513376 0.242267
0.917641 0.635910 0.229676
1.000000 0.659412 0.270365
0.513872 0.585742 0.242160
0.529202 0.573607 0.241445
0.581921 0.533592 0.238526
0.686756 0.546730 0.236765
0.915262 0.725999 0.243949
1.000000 0.812082 0.302366
0.713161 0.869902 0.216251
0.733187 0.867509 0.214267
0.807090 0.855174 0.203995
0.925500 0.830314 0.181985
1.000000 0.878068 0.259410
1.000000 0.917082 0.392706
0.001013 0.130092 0.266154
0.243092 0.108722 0.262800
0.448429 0.060304 0.270966
0.655816 0.000000 0.263427
0.873630 0.000000 0.263869
1.000000 0.000000 0.267198
0.125636 0.223679 0.274026
0.246682 0.217179 0.275696
0.448177 0.200122 0.274544
0.654240 0.175721 0.270291
0.872945 0.146956 0.268451
1.000000 0.148030 0.270137
0.247261 0.358759 0.269921
0.335922 0.347312 0.278099
0.473090 0.356324 0.280202
0.658284 0.414997 0.294365
0.874718 0.422478 0.287028
1.000000 0.422935 0.284708
0.386771 0.465086 0.280794
0.421538 0.457080 0.280133
0.496659 0.404594 0.270249
0.677878 0.518611 0.285929
0.912684 0.634677 0.289186
1.000000 0.657909 0.316126
0.504097 0.609711 0.267943
0.525089 0.600322 0.266700
0.588043 0.558986 0.261209
0.683238 0.546385 0.257707
0.915194 0.729456 0.281411
1.000000 0.814704 0.347861
0.697725 0.878923 0.244236
0.720477 0.878535 0.244175
0.796462 0.863297 0.229740
0.920554 0.837705 0.205037
1.000000 0.878714 0.276834
1.000000 0.918743 0.416571
0.000000 0.204020 0.470216
0.162648 0.166190 0.465562
0.462037 0.127447 0.440458
0.657150 0.022141 0.442371
0.876684 0.000000 0.440749
1.000000 0.000000 0.419470
0.013784 0.316743 0.475557
0.183109 0.268961 0.473030
0.461002 0.209812 0.441964
0.658030 0.180528 0.442182
0.874259 0.000000 0.435334
1.000000 0.000000 0.409529
0.130441 0.437403 0.467074
0.246131 0.436935 0.468502
0.449893 0.401677 0.449521
0.655036 0.367294 0.434218
0.878204 0.353786 0.426117
1.000000 0.350589 0.415571
0.130745 0.566075 0.417896
0.227864 0.565232 0.409363
0.483121 0.518916 0.406334
0.674462 0.540906 0.415669
0.888163 0.632614 0.448134
1.000000 0.634554 0.441331
0.367761 0.699366 0.358315
0.433233 0.695278 0.368887
0.565051 0.647956 0.355752
0.665150 0.546014 0.324630
0.910824 0.741240 0.397996
1.000000 0.821736 0.483147
0.605090 0.905815 0.340594
0.634250 0.904324 0.338827
0.732336 0.888686 0.318788
0.886700 0.862992 0.286231
1.000000 0.878975 0.330408
1.000000 0.925262 0.501732
0.000000 0.308433 0.711745
0.000000 0.254574 0.703205
0.452612 0.204801 0.662939
0.681541 0.125793 0.620316
0.885566 0.000000 0.628721
1.000000 0.000000 0.627283
0.000000 0.385848 0.702673
0.000000 0.347461 0.700347
0.437417 0.265465 0.665491
0.681519 0.205187 0.622222
0.881664 0.154299 0.625800
1.000000 0.000000 0.621630
0.000000 0.600104 0.713394
0.037424 0.581748 0.710225
0.407572 0.463734 0.678997
0.676770 0.377622 0.626779
0.886640 0.369392 0.629349
1.000000 0.319954 0.609769
0.000000 0.673788 0.675178
0.190067 0.674694 0.677071
0.435853 0.659055 0.666475
0.657859 0.616962 0.639132
0.871972 0.568667 0.606496
1.000000 0.561551 0.589185
0.000000 0.819911 0.638861
0.000000 0.819987 0.631932
0.319620 0.798585 0.580350
0.656163 0.727644 0.537294
0.891283 0.762908 0.579341
1.000000 0.837462 0.670138
0.000000 0.961431 0.414722
0.013297 0.958667 0.430438
0.513838 0.943244 0.491240
0.774050 0.914323 0.467365
0.995700 0.873199 0.398926
1.000000 0.939214 0.647566
0.000000 0.408344 0.897221
0.000000 0.379366 0.895575
0.340470 0.324443 0.884260
0.680669 0.273090 0.855779
0.892945 0.191883 0.826765
1.000000 0.194565 0.822355
0.000000 0.465450 0.896323
0.000000 0.442044 0.896441
0.328566 0.368608 0.886209
0.674928 0.318434 0.856506
0.888102 0.244254 0.823168
1.000000 0.256213 0.822257
0.227085 0.643531 0.893725
0.276606 0.628000 0.893865
0.391698 0.547616 0.888315
0.657710 0.466804 0.864979
0.887215 0.400768 0.829097
1.000000 0.414984 0.821583
0.281679 0.806583 0.893613
0.363105 0.809606 0.896004
0.528663 0.801841 0.893633
0.669362 0.694932 0.873452
0.873351 0.589880 0.826993
1.000000 0.611855 0.818218
0.355933 0.879201 0.876241
0.410001 0.880393 0.877861
0.546501 0.878067 0.876955
0.715135 0.870523 0.871725
0.864172 0.835086 0.843591
1.000000 0.811307 0.818845
0.400580 0.993524 0.872484
0.436845 0.993145 0.869410
0.525888 0.989428 0.849305
0.633250 0.980300 0.792860
0.871499 0.941276 0.730860
1.000000 0.963299 0.839487
0.257633 0.560449 1.000000
0.290049 0.549096 1.000000
0.427973 0.516753 1.000000
0.658619 0.510656 1.000000
0.865550 0.491670 0.991662
1.000000 0.479866 0.986145
0.326488 0.594146 1.000000
0.352127 0.584560 1.000000
0.441400 0.543060 1.000000
0.660073 0.534026 0.999971
0.862697 0.509761 0.990022
1.000000 0.496242 0.984668
0.510576 0.716304 1.000000
0.520651 0.708128 1.000000
0.560185 0.671815 1.000000
0.681824 0.632360 0.999139
0.862950 0.604912 0.990629
1.000000 0.582574 0.984985
0.633594 0.856840 0.993866
0.652429 0.854801 0.993829
0.706412 0.840039 0.993330
0.739391 0.781045 0.994878
0.861110 0.733501 0.989477
1.000000 0.706203 0.983490
0.667341 0.938750 0.992035
0.683152 0.939373 0.992072
0.739926 0.941639 0.992047
0.826173 0.945872 0.992188
0.893973 0.899894 0.991389
0.999487 0.863877 0.984967
0.683284 1.000000 0.991547
0.694997 1.000000 0.991528
0.745132 1.000000 0.991858
0.831003 1.000000 0.992658
0.932635 0.998047 0.994501
0.998810 0.998077 0.997986
