assets/lut/editingcorp husmes.cube
# Created by: G'MIC (https://gmic.eu)
TITLE "husmes"
# LUT size
LUT_3D_SIZE 7
# Data domain
DOMAIN_MIN 0.0 0.0 0.0
DOMAIN_MAX 1.0 1.0 1.0
# LUT data points
0.026784036308526993 0.031655047088861465 0.023465923964977264
0.33653977513313293 0.05146026611328125 0.027798252180218697
0.53982263803482056 0.06023140624165535 0.024015285074710846
0.6734769344329834 0.10422279685735703 0.056179434061050415
0.75726121664047241 0.099108509719371796 0.06754988431930542
0.79582697153091431 0.12030085921287537 0.066311150789260864
0.84060931205749512 0.1228443831205368 0.067474499344825745
0.03232135996222496 0.17212018370628357 0.029878908768296242
0.21008092164993286 0.1714722216129303 0.018007000908255577
0.49637517333030701 0.17773060500621796 0.015554136596620083
0.66605544090270996 0.19269479811191559 0.048367861658334732
0.76583528518676758 0.21019750833511353 0.069918550550937653
0.8023979663848877 0.20037467777729034 0.073979593813419342
0.8462945818901062 0.19143478572368622 0.071939028799533844
0.075346074998378754 0.34335878491401672 0.048454988747835159
0.15852783620357513 0.34168881177902222 0.041386861354112625
0.41552302241325378 0.34870687127113342 0.026426471769809723
0.66008144617080688 0.35556027293205261 0.056659936904907227
0.79068917036056519 0.35043025016784668 0.071704462170600891
0.83415865898132324 0.33270257711410522 0.070769906044006348
0.87450885772705078 0.3176426887512207 0.068822897970676422
0.12293107062578201 0.51579934358596802 0.10455292463302612
0.16139720380306244 0.5091661810874939 0.097452901303768158
0.33817791938781738 0.52063995599746704 0.061823707073926926
0.62639820575714111 0.54991817474365234 0.095704920589923859
0.80020427703857422 0.52132529020309448 0.10944725573062897
0.8579593300819397 0.48910027742385864 0.10056032985448837
0.89894986152648926 0.46922513842582703 0.091239109635353088
0.16299708187580109 0.67805230617523193 0.16447180509567261
0.19081982970237732 0.66155016422271729 0.15866148471832275
0.29118922352790833 0.6618768572807312 0.11994636058807373
0.54676854610443115 0.70272922515869141 0.12351995706558228
0.78292995691299438 0.70184683799743652 0.15776698291301727
0.88835227489471436 0.66264843940734863 0.15619787573814392
0.92789536714553833 0.63135582208633423 0.14121390879154205
0.17545773088932037 0.76349294185638428 0.20303979516029358
0.20889727771282196 0.76027274131774902 0.20900781452655792
0.26659658551216125 0.76349532604217529 0.18709523975849152
0.45161110162734985 0.7790534496307373 0.133814737200737
0.7048414945602417 0.8197900652885437 0.16617728769779205
0.89143693447113037 0.81372255086898804 0.19664736092090607
0.95171284675598145 0.79457217454910278 0.19071629643440247
0.17186793684959412 0.80389267206192017 0.19790741801261902
0.20159170031547546 0.80013775825500488 0.19085659086704254
0.22789141535758972 0.8075222373008728 0.18112605810165405
0.37576612830162048 0.8219372034072876 0.14237293601036072
0.62584185600280762 0.86165344715118408 0.1513364166021347
0.85939240455627441 0.87750369310379028 0.19385288655757904
0.96351492404937744 0.87808161973953247 0.20449094474315643
0.022675562649965286 0.052665561437606812 0.2320745587348938
0.30432713031768799 0.045854188501834869 0.27115288376808167
0.54511898756027222 0.049960687756538391 0.21120746433734894
0.68102991580963135 0.053879264742136002 0.18580849468708038
0.7565123438835144 0.085923351347446442 0.17461983859539032
0.79296988248825073 0.062856875360012054 0.1513175368309021
0.83911651372909546 0.063575714826583862 0.13926792144775391
0.019516933709383011 0.20365123450756073 0.20412907004356384
0.17313948273658752 0.18491874635219574 0.18432652950286865
0.49749621748924255 0.18227508664131165 0.14800275862216949
0.66340810060501099 0.18644466996192932 0.14328214526176453
0.75946909189224243 0.20538398623466492 0.14759081602096558
0.80190306901931763 0.19624066352844238 0.14101734757423401
0.84398108720779419 0.19801944494247437 0.14221563935279846
0.060770191252231598 0.35823333263397217 0.16381080448627472
0.12561796605587006 0.34393408894538879 0.13388636708259583
0.4161694347858429 0.34951511025428772 0.086559996008872986
0.65555888414382935 0.35145604610443115 0.11335358023643494
0.78556853532791138 0.3484402596950531 0.12182305753231049
0.83346879482269287 0.33429485559463501 0.11810624599456787
0.87598997354507446 0.32266107201576233 0.11734885722398758
0.11888251453638077 0.51709789037704468 0.15385374426841736
0.15169872343540192 0.50675314664840698 0.14858874678611755
0.34155726432800293 0.51911139488220215 0.10343407839536667
0.61981570720672607 0.54078716039657593 0.12798573076725006
0.79561388492584229 0.51518982648849487 0.1478426605463028
0.85913950204849243 0.48748710751533508 0.13857388496398926
0.89906251430511475 0.46863317489624023 0.12769149243831635
0.16439300775527954 0.67536848783493042 0.20142148435115814
0.19431141018867493 0.66229140758514404 0.19553242623806
0.29242900013923645 0.66171467304229736 0.16136294603347778
0.55139493942260742 0.70230042934417725 0.15756884217262268
0.78364163637161255 0.69796168804168701 0.19953642785549164
0.89145892858505249 0.65996569395065308 0.1912781298160553
0.92865496873855591 0.62937271595001221 0.1798805296421051
0.17647393047809601 0.76241528987884521 0.23963278532028198
0.20694999396800995 0.76407808065414429 0.24360564351081848
0.26137703657150269 0.76259154081344604 0.22752170264720917
0.46286281943321228 0.77977114915847778 0.18170690536499023
0.70051079988479614 0.82181918621063232 0.2136322557926178
0.88936841487884521 0.81303411722183228 0.23650902509689331
0.94846636056900024 0.79334515333175659 0.2300812304019928
0.16860093176364899 0.79895627498626709 0.22750218212604523
0.18969330191612244 0.80288106203079224 0.22090613842010498
0.19891747832298279 0.80799520015716553 0.22311091423034668
0.37025231122970581 0.82005858421325684 0.16863954067230225
0.623116135597229 0.86414438486099243 0.18595714867115021
0.86580872535705566 0.88148194551467896 0.23773357272148132
0.97225427627563477 0.88242638111114502 0.24223726987838745
0.026709478348493576 0.074619695544242859 0.42357033491134644
0.22768968343734741 0.061527207493782043 0.49650919437408447
0.52841001749038696 0.082099810242652893 0.47791126370429993
0.68073970079421997 0.074859663844108582 0.43350973725318909
0.76146984100341797 0.10335003584623337 0.39377585053443909
0.79967176914215088 0.087647184729576111 0.3672732412815094
0.84679824113845825 0.10169199109077454 0.34320995211601257
0.022679556161165237 0.25879856944084167 0.40193775296211243
0.1122148260474205 0.21850898861885071 0.42752638459205627
0.45174762606620789 0.20071488618850708 0.43879485130310059
0.6671142578125 0.18725542724132538 0.38223692774772644
0.75797587633132935 0.20366229116916656 0.34441593289375305
0.79958337545394897 0.19286426901817322 0.32945692539215088
0.84790617227554321 0.20445311069488525 0.31426924467086792
0.020583583042025566 0.40273472666740417 0.39394059777259827
0.05518486350774765 0.38892665505409241 0.38245812058448792
0.32677188515663147 0.36497965455055237 0.36556342244148254
0.65050768852233887 0.34854322671890259 0.31449499726295471
0.77529036998748779 0.33916333317756653 0.27996274828910828
0.82006371021270752 0.33344992995262146 0.26634007692337036
0.8666415810585022 0.33003684878349304 0.26473075151443481
0.052843324840068817 0.54937028884887695 0.36823028326034546
0.092322692275047302 0.53588086366653442 0.35119867324829102
0.26658535003662109 0.53034341335296631 0.2950289249420166
0.60301560163497925 0.53730851411819458 0.2651984691619873
0.79348623752593994 0.50422567129135132 0.25442835688591003
0.85403531789779663 0.48008057475090027 0.24256998300552368
0.89642065763473511 0.46221271157264709 0.2399439811706543
0.1350422203540802 0.68569952249526978 0.33125370740890503
0.17648108303546906 0.67072254419326782 0.31050252914428711
0.26632839441299438 0.6628296971321106 0.26743170619010925
0.53432530164718628 0.69879335165023804 0.23457375168800354
0.78688430786132812 0.70179730653762817 0.26719269156455994
0.88907361030578613 0.65680533647537231 0.25066530704498291
0.92812067270278931 0.63018172979354858 0.2479587197303772
0.16855685412883759 0.76180869340896606 0.30265676975250244
0.20801372826099396 0.76671326160430908 0.30398213863372803
0.25322386622428894 0.76383918523788452 0.29494699835777283
0.44701886177062988 0.77897083759307861 0.23810784518718719
0.69725900888442993 0.8177453875541687 0.26249915361404419
0.89593720436096191 0.8100355863571167 0.27951323986053467
0.94909060001373291 0.79380464553833008 0.28154018521308899
0.16921615600585938 0.80792558193206787 0.27342510223388672
0.20615114271640778 0.81075626611709595 0.26077425479888916
0.22375139594078064 0.81348311901092529 0.26101946830749512
0.38371351361274719 0.82537418603897095 0.14216619729995728
0.62357562780380249 0.86231112480163574 0.153350830078125
0.85785937309265137 0.8765830397605896 0.26240476965904236
0.96604490280151367 0.88173794746398926 0.28063079714775085
0.020480794832110405 0.089162416756153107 0.56865394115447998
0.21167223155498505 0.069188736379146576 0.64887362718582153
0.50096780061721802 0.074332758784294128 0.67228895425796509
0.6742548942565918 0.08372962474822998 0.65989965200424194
0.76428991556167603 0.11387918144464493 0.64416420459747314
0.80508685111999512 0.095422945916652679 0.61498051881790161
0.84752470254898071 0.097647212445735931 0.57430261373519897
0.023534752428531647 0.2868226170539856 0.56238991022109985
0.10028355568647385 0.23435492813587189 0.58987808227539062
0.38810613751411438 0.21190817654132843 0.64457672834396362
0.6505853533744812 0.20974066853523254 0.63214206695556641
0.76210302114486694 0.22812724113464355 0.59963983297348022
0.80513375997543335 0.21115048229694366 0.57217442989349365
0.85275793075561523 0.21252530813217163 0.52934008836746216
0.023406863212585449 0.42466011643409729 0.55646675825119019
0.060896929353475571 0.41324740648269653 0.54996180534362793
0.19704490900039673 0.37151291966438293 0.57738345861434937
0.59919047355651855 0.35695546865463257 0.60861533880233765
0.77403759956359863 0.35824978351593018 0.53253805637359619
0.8204159140586853 0.34403064846992493 0.4835585355758667
0.86369997262954712 0.33497816324234009 0.463471919298172
0.036236558109521866 0.57006502151489258 0.55379891395568848
0.072499580681324005 0.56435847282409668 0.54663336277008057
0.17869773507118225 0.55389928817749023 0.53783571720123291
0.52298992872238159 0.54954832792282104 0.54580974578857422
0.78662550449371338 0.51652318239212036 0.49014276266098022
0.84340023994445801 0.48279750347137451 0.43636852502822876
0.88896912336349487 0.477550208568573 0.42977404594421387
0.10683387517929077 0.71206951141357422 0.53563940525054932
0.14846436679363251 0.70065277814865112 0.52527701854705811
0.23656043410301208 0.69770961999893188 0.50753223896026611
0.46175813674926758 0.7100527286529541 0.45789888501167297
0.7754826545715332 0.71075236797332764 0.45673662424087524
0.89291208982467651 0.65726232528686523 0.42843145132064819
0.93644827604293823 0.63802456855773926 0.42777460813522339
0.14827854931354523 0.78746616840362549 0.49315816164016724
0.18989132344722748 0.78299969434738159 0.48749858140945435
0.24673070013523102 0.77879494428634644 0.47446426749229431
0.417011559009552 0.78588885068893433 0.4225519597530365
0.67342090606689453 0.81963610649108887 0.40190020203590393
0.89324438571929932 0.82231438159942627 0.41150775551795959
0.95521241426467896 0.80206537246704102 0.40885195136070251
0.15125223994255066 0.82921427488327026 0.43974518775939941
0.18609687685966492 0.82623112201690674 0.43536147475242615
0.22631639242172241 0.82553410530090332 0.43389979004859924
0.37613594532012939 0.83430534601211548 0.36042854189872742
0.61288917064666748 0.8648495078086853 0.32807040214538574
0.85882127285003662 0.88782602548599243 0.37499338388442993
0.96371322870254517 0.89137786626815796 0.37520289421081543
0.015874989330768585 0.099135346710681915 0.61748754978179932
0.19656535983085632 0.072443000972270966 0.70253562927246094
0.4987957775592804 0.090378224849700928 0.7428162693977356
0.65716463327407837 0.10460030287504196 0.75083315372467041
0.75841623544692993 0.1419120728969574 0.76872599124908447
0.80079305171966553 0.12385267019271851 0.76746994256973267
0.84536367654800415 0.10262135416269302 0.75889641046524048
0.02119923010468483 0.29115331172943115 0.63014239072799683
0.10311233252286911 0.23810106515884399 0.66349697113037109
0.3939146101474762 0.20705823600292206 0.73503506183624268
0.63609111309051514 0.22543562948703766 0.76014721393585205
0.75782173871994019 0.26049453020095825 0.76948744058609009
0.80291914939880371 0.2535555362701416 0.76833146810531616
0.85040318965911865 0.24127531051635742 0.74958115816116333
0.023093368858098984 0.43079385161399841 0.65124201774597168
0.057656053453683853 0.4187920093536377 0.64800417423248291
0.15944908559322357 0.35807651281356812 0.68143647909164429
0.53818529844284058 0.34713068604469299 0.76314705610275269
0.76619821786880493 0.37775722146034241 0.7677733302116394
0.81958246231079102 0.37272143363952637 0.75220495462417603
0.86495596170425415 0.36460942029953003 0.72230499982833862
0.025309722870588303 0.57248210906982422 0.67781531810760498
0.06390736997127533 0.56812882423400879 0.67230170965194702
0.14056116342544556 0.53572255373001099 0.66625356674194336
0.40099248290061951 0.51462626457214355 0.7199673056602478
0.75123077630996704 0.51762932538986206 0.75864970684051514
0.8384554386138916 0.51210588216781616 0.71661317348480225
0.88435566425323486 0.51119458675384521 0.69391167163848877
0.094617448747158051 0.7205689549446106 0.70220029354095459
0.12595593929290771 0.71631968021392822 0.69741576910018921
0.2041829377412796 0.70874124765396118 0.69405233860015869
0.35950356721878052 0.70761650800704956 0.68383008241653442
0.71109473705291748 0.72715717554092407 0.73220527172088623
0.88725274801254272 0.70398849248886108 0.7005276083946228
0.92954176664352417 0.69085514545440674 0.68802726268768311
0.14856104552745819 0.81169182062149048 0.67928355932235718
0.19399526715278625 0.81132757663726807 0.67236232757568359
0.24240735173225403 0.80578362941741943 0.66207921504974365
0.36395353078842163 0.81376528739929199 0.64382612705230713
0.61794888973236084 0.83874672651290894 0.62526106834411621
0.89582252502441406 0.85406100749969482 0.62669354677200317
0.96277791261672974 0.84364026784896851 0.63408058881759644
0.14535598456859589 0.85478174686431885 0.63720703125
0.17965450882911682 0.8537096381187439 0.62758839130401611
0.20139728486537933 0.85283780097961426 0.61672890186309814
0.32869413495063782 0.85967499017715454 0.58849000930786133
0.56828510761260986 0.883017897605896 0.58051228523254395
0.86284583806991577 0.91230547428131104 0.5806889533996582
0.97115206718444824 0.91604453325271606 0.5718379020690918
0.020813975483179092 0.096554942429065704 0.65302330255508423
0.17808489501476288 0.070722185075283051 0.73219281435012817
0.48501178622245789 0.080547988414764404 0.77953362464904785
0.65107202529907227 0.092613294720649719 0.78996157646179199
0.75906860828399658 0.12469250708818436 0.81039667129516602
0.80218696594238281 0.11097414791584015 0.81232023239135742
0.84787333011627197 0.12986838817596436 0.81094956398010254
0.023467538878321648 0.28432229161262512 0.66704583168029785
0.094813250005245209 0.24065901339054108 0.6985403299331665
0.37309446930885315 0.20483633875846863 0.76889026165008545
0.62241196632385254 0.20967710018157959 0.79408532381057739
0.75353068113327026 0.24879153072834015 0.80469375848770142
0.80237460136413574 0.24925610423088074 0.81163221597671509
0.84923249483108521 0.2519279420375824 0.8114931583404541
0.026942862197756767 0.42528009414672852 0.68617361783981323
0.050214372575283051 0.41178256273269653 0.68658363819122314
0.16267937421798706 0.3571629524230957 0.71975302696228027
0.5228460431098938 0.34064093232154846 0.80294549465179443
0.75682783126831055 0.3741966187953949 0.82617628574371338
0.82346260547637939 0.37237730622291565 0.83184611797332764
0.86287456750869751 0.36861154437065125 0.83139175176620483
0.023377811536192894 0.55931299924850464 0.71271997690200806
0.069502018392086029 0.55486965179443359 0.71287363767623901
0.16418850421905518 0.5225951075553894 0.70809721946716309
0.37773633003234863 0.49336323142051697 0.76099759340286255
0.71866792440414429 0.5080152153968811 0.84045267105102539
0.84042716026306152 0.51656079292297363 0.85043764114379883
0.87980276346206665 0.51744961738586426 0.84952956438064575
0.06883181631565094 0.70681899785995483 0.76219832897186279
0.10715125501155853 0.70689445734024048 0.76668089628219604
0.18042312562465668 0.69802546501159668 0.76021897792816162
0.3233191967010498 0.67676717042922974 0.75914567708969116
0.64095699787139893 0.69136667251586914 0.83093917369842529
0.87747740745544434 0.70472925901412964 0.87773746252059937
0.9200432300567627 0.69682866334915161 0.87474244832992554
0.13947618007659912 0.82228970527648926 0.79127883911132812
0.18181401491165161 0.82188087701797485 0.79258590936660767
0.23501302301883698 0.81898462772369385 0.78994512557983398
0.35186973214149475 0.8246961236000061 0.79579406976699829
0.53052932024002075 0.85368740558624268 0.82671231031417847
0.86242353916168213 0.88455009460449219 0.88074570894241333
0.95369309186935425 0.8841017484664917 0.88784420490264893
0.13572783768177032 0.87096560001373291 0.78369641304016113
0.16623654961585999 0.87170445919036865 0.77828091382980347
0.17231354117393494 0.87215286493301392 0.77391546964645386
0.29419735074043274 0.88302618265151978 0.77642428874969482
0.47817122936248779 0.90722286701202393 0.79898321628570557
0.83377575874328613 0.95034098625183105 0.8623427152633667
0.95847469568252563 0.95221126079559326 0.85596829652786255
0.020938992500305176 0.097031384706497192 0.69962930679321289
0.1769113689661026 0.075297951698303223 0.78245037794113159
0.4552977979183197 0.075302436947822571 0.8363756537437439
0.62136989831924438 0.11107319593429565 0.84374856948852539
0.74288111925125122 0.13413697481155396 0.86707741022109985
0.80016374588012695 0.14378298819065094 0.87420779466629028
0.84407788515090942 0.097082264721393585 0.87070184946060181
0.022737136110663414 0.27717646956443787 0.71775496006011963
0.092018797993659973 0.23597618937492371 0.75320446491241455
0.3482603132724762 0.20398871600627899 0.82693290710449219
0.59594959020614624 0.21065996587276459 0.85448247194290161
0.73835951089859009 0.24119190871715546 0.86575675010681152
0.79913425445556641 0.2453320324420929 0.87169617414474487
0.84594488143920898 0.24934737384319305 0.87189924716949463
0.02297668531537056 0.41597133874893188 0.73802196979522705
0.067262016236782074 0.40331345796585083 0.73941242694854736
0.18007855117321014 0.35639894008636475 0.78157681226730347
0.48299485445022583 0.33986696600914001 0.85679560899734497
0.73128563165664673 0.36995956301689148 0.88329559564590454
0.8189542293548584 0.36959066987037659 0.88318651914596558
0.86113554239273071 0.37044247984886169 0.88165754079818726
0.018149446696043015 0.54054951667785645 0.76351833343505859
0.058967381715774536 0.5368049144744873 0.76100224256515503
0.15138716995716095 0.5068250298500061 0.76289421319961548
0.3756558895111084 0.49015849828720093 0.81607401371002197
0.69543927907943726 0.50454378128051758 0.90033656358718872
0.83663129806518555 0.51546800136566162 0.90963959693908691
0.8768305778503418 0.51682043075561523 0.90877336263656616
0.056784208863973618 0.68048310279846191 0.80768024921417236
0.082981124520301819 0.67458868026733398 0.80949854850769043
0.16270145773887634 0.66818112134933472 0.80748695135116577
0.33484628796577454 0.65937823057174683 0.81428402662277222
0.62964659929275513 0.68545770645141602 0.8916814923286438
0.87183213233947754 0.70063668489456177 0.94435852766036987
0.9164082407951355 0.69317919015884399 0.93904238939285278
0.12882538139820099 0.80859315395355225 0.84228426218032837
0.16166459023952484 0.80405128002166748 0.84263300895690918
0.22171889245510101 0.80849659442901611 0.8475831151008606
0.35395577549934387 0.81493383646011353 0.85411942005157471
0.52898877859115601 0.84175360202789307 0.89039963483810425
0.84965133666992188 0.87747758626937866 0.95441210269927979
0.95212197303771973 0.88226675987243652 0.96380186080932617
0.13585484027862549 0.86682909727096558 0.85376125574111938
0.17456798255443573 0.86636853218078613 0.85499948263168335
0.2063276469707489 0.86687862873077393 0.85132545232772827
0.33720475435256958 0.87873286008834839 0.8636554479598999
0.4888056218624115 0.89924860000610352 0.88424450159072876
0.8278542160987854 0.94568252563476562 0.95154988765716553
0.95355498790740967 0.95212739706039429 0.96655172109603882
