assets/lut/editingcorpw Whispering Waters.cube
LUT_3D_SIZE 16
DOMAIN_MIN 0.0 0.0 0.0
DOMAIN_MAX 1.0 1.0 1.0
0.105882 0.109804 0.125490
0.146666 0.110588 0.121569
0.193725 0.118431 0.118431
0.243921 0.118431 0.121569
0.285490 0.123922 0.127059
0.325490 0.129412 0.125490
0.388236 0.134118 0.137255
0.439216 0.141176 0.145882
0.498823 0.144314 0.155294
0.559216 0.146667 0.158431
0.623529 0.152941 0.160784
0.692549 0.159216 0.172549
0.755294 0.168627 0.174902
0.830588 0.171765 0.190588
0.907451 0.178039 0.200784
0.988235 0.180392 0.200000
0.093333 0.157647 0.116863
0.140325 0.150043 0.116317
0.184314 0.152941 0.122353
0.238797 0.147556 0.131555
0.286274 0.153725 0.123922
0.337255 0.152941 0.134902
0.386427 0.157341 0.142745
0.433725 0.161569 0.151373
0.495111 0.164915 0.150013
0.555294 0.171765 0.161569
0.618823 0.177255 0.166274
0.688934 0.180392 0.177255
0.758431 0.185098 0.185882
0.832366 0.189804 0.188811
0.908235 0.198432 0.199216
0.989804 0.206274 0.207059
0.093334 0.204706 0.125490
0.131765 0.196078 0.120784
0.181244 0.199148 0.125557
0.230588 0.196078 0.126274
0.276131 0.192732 0.134902
0.331764 0.189804 0.142745
0.379608 0.195294 0.148235
0.431372 0.200426 0.153793
0.494902 0.200000 0.159216
0.560209 0.206170 0.166954
0.621960 0.208628 0.171765
0.690196 0.214118 0.178039
0.754017 0.217255 0.182678
0.825882 0.218039 0.189804
0.902954 0.230013 0.197281
0.981961 0.232941 0.213333
0.083922 0.251765 0.128628
0.123660 0.256628 0.139189
0.168627 0.251765 0.135686
0.225883 0.251048 0.136403
0.283137 0.241569 0.138039
0.338039 0.236863 0.155294
0.383843 0.239895 0.161464
0.432157 0.245490 0.163921
0.490980 0.247843 0.170196
0.561568 0.246274 0.170980
0.618824 0.252549 0.174902
0.692444 0.256680 0.185882
0.763922 0.261177 0.189804
0.831731 0.261535 0.195226
0.905883 0.270588 0.198431
0.988235 0.276863 0.207059
0.076863 0.294117 0.138039
0.111373 0.302745 0.144314
0.164131 0.300706 0.143215
0.214118 0.302745 0.134902
0.274988 0.301789 0.149632
0.330196 0.298039 0.149020
0.374902 0.294902 0.156078
0.432157 0.291555 0.169882
0.488628 0.296471 0.177255
0.550282 0.302267 0.181416
0.621961 0.300393 0.188235
0.687059 0.304314 0.189019
0.757438 0.311268 0.191006
0.831373 0.316863 0.201569
0.904075 0.321568 0.207126
0.984314 0.334118 0.214118
0.062745 0.352941 0.145098
0.098039 0.352941 0.148235
0.149804 0.353725 0.149020
0.203137 0.350589 0.152157
0.266666 0.356863 0.155294
0.321569 0.356863 0.149020
0.384314 0.346667 0.151373
0.441569 0.341960 0.163137
0.491765 0.351372 0.178823
0.554510 0.354510 0.191372
0.615686 0.352941 0.188235
0.686275 0.359216 0.200000
0.757647 0.361568 0.200784
0.836079 0.367843 0.213333
0.913725 0.374118 0.207059
0.980392 0.380392 0.215686
0.023529 0.411765 0.152157
0.078738 0.414730 0.156078
0.134902 0.414118 0.150588
0.196758 0.410300 0.153725
0.255686 0.412549 0.156079
0.318431 0.413333 0.155294
0.383119 0.413333 0.156078
0.440000 0.410981 0.152157
0.504993 0.410092 0.165386
0.566275 0.409412 0.182745
0.620392 0.414118 0.200000
0.685729 0.414357 0.201808
0.755294 0.421176 0.211765
0.832836 0.424993 0.210876
0.910588 0.436863 0.215686
0.985883 0.441569 0.226667
0.000784 0.477647 0.158432
0.033726 0.470588 0.153726
0.105950 0.477714 0.157289
0.171765 0.477647 0.160000
0.242824 0.478222 0.158274
0.309804 0.480784 0.153725
0.379608 0.470589 0.149804
0.441994 0.477288 0.160358
0.505098 0.472157 0.155294
0.573333 0.473621 0.165124
0.633726 0.475294 0.181177
0.696470 0.473726 0.190588
0.761994 0.476796 0.201994
0.832941 0.486274 0.214902
0.907765 0.492445 0.222536
0.981176 0.501177 0.222745
0.007059 0.540392 0.155294
0.000523 0.541856 0.158013
0.054902 0.539608 0.150588
0.155787 0.540818 0.147518
0.225098 0.541177 0.150588
0.306666 0.534117 0.156863
0.379399 0.538719 0.165490
0.432941 0.541177 0.154510
0.507160 0.535193 0.150947
0.574902 0.537255 0.150588
0.643137 0.544314 0.152941
0.703425 0.540288 0.166170
0.769412 0.539608 0.188235
0.835227 0.553793 0.205849
0.908235 0.556078 0.222745
0.987451 0.560784 0.225882
0.007059 0.603921 0.152157
0.007059 0.606275 0.147451
0.004706 0.607739 0.153412
0.118431 0.608627 0.145098
0.213640 0.605184 0.147690
0.290981 0.604706 0.141176
0.363922 0.605490 0.143529
0.432052 0.607948 0.150379
0.505098 0.611765 0.142745
0.570435 0.606514 0.139608
0.646274 0.609412 0.143529
0.710588 0.612549 0.142745
0.780863 0.612654 0.152366
0.844706 0.618039 0.178823
0.917341 0.622506 0.199694
0.989020 0.626667 0.222745
0.000000 0.678431 0.145098
0.006275 0.673725 0.134902
0.008627 0.671372 0.140392
0.065098 0.674510 0.130981
0.185098 0.672941 0.138039
0.278431 0.678431 0.149020
0.351372 0.677647 0.134902
0.423529 0.681569 0.136471
0.505098 0.681569 0.139607
0.572549 0.678431 0.135686
0.639216 0.682353 0.133333
0.712157 0.684706 0.127843
0.789019 0.683137 0.127059
0.861176 0.686275 0.139607
0.928627 0.689412 0.163921
1.000000 0.686275 0.203922
0.000000 0.749804 0.116863
0.006581 0.746666 0.116795
0.003137 0.752941 0.117647
0.006484 0.745987 0.118745
0.145098 0.748235 0.117647
0.259608 0.749804 0.117647
0.342402 0.748474 0.121091
0.423529 0.750588 0.116862
0.495425 0.752627 0.115974
0.567843 0.755294 0.114510
0.642353 0.755294 0.107451
0.712635 0.752941 0.099780
0.788235 0.753726 0.103530
0.862222 0.758013 0.091189
0.933333 0.760000 0.113725
1.000000 0.763922 0.151373
0.003138 0.825882 0.094118
0.004706 0.818824 0.095686
0.003138 0.820818 0.082577
0.000000 0.821961 0.093333
0.085385 0.824314 0.089778
0.229804 0.828235 0.085490
0.331764 0.825098 0.083922
0.413401 0.821109 0.088336
0.493333 0.825098 0.084706
0.564131 0.821961 0.080785
0.640000 0.823530 0.079216
0.717647 0.827451 0.074510
0.790588 0.831372 0.072448
0.866667 0.828235 0.056471
0.936575 0.834980 0.036653
1.000000 0.836078 0.052549
0.000000 0.894902 0.028235
0.000000 0.903111 0.030222
0.000784 0.898824 0.042353
0.000000 0.899966 0.040717
0.045490 0.896471 0.035294
0.198431 0.900392 0.041569
0.314300 0.899503 0.034824
0.400000 0.898039 0.028235
0.483137 0.899899 0.020751
0.568627 0.900392 0.022745
0.640000 0.901961 0.016470
0.712052 0.901177 0.010876
0.786667 0.901177 0.010980
0.862745 0.897613 0.007193
0.934118 0.895686 0.005490
0.993726 0.911373 0.011765
0.004706 0.960784 0.000000
0.002353 0.970980 0.007059
0.005386 0.966954 0.004026
0.004706 0.967843 0.003137
0.006006 0.970502 0.000000
0.163921 0.964706 0.003137
0.296471 0.968627 0.001569
0.383425 0.973333 0.000000
0.472157 0.967059 0.000000
0.556623 0.963922 0.001808
0.632157 0.967059 0.001569
0.705098 0.964706 0.001569
0.783843 0.968627 0.000000
0.858039 0.965490 0.001569
0.922114 0.961502 0.000239
0.993726 0.964706 0.003922
0.007843 1.000000 0.000000
0.004706 0.997647 0.002353
0.000000 1.000000 0.009412
0.006274 1.000000 0.000000
0.004706 0.997647 0.000000
0.141176 0.996078 0.007843
0.274510 1.000000 0.000000
0.380392 1.000000 0.000000
0.468235 1.000000 0.000000
0.540392 0.997647 0.000000
0.623529 0.996078 0.000000
0.702745 1.000000 0.000000
0.772549 1.000000 0.000000
0.841568 0.996862 0.000000
0.906667 0.998431 0.001569
0.972549 1.000000 0.007843
0.100392 0.114510 0.167843
0.140153 0.116146 0.161569
0.192941 0.113725 0.158431
0.238640 0.121569 0.166484
0.279216 0.127059 0.173333
0.333333 0.135686 0.174902
0.389565 0.140392 0.176471
0.439216 0.148235 0.181961
0.498824 0.153830 0.185987
0.560000 0.153726 0.186666
0.618039 0.159216 0.192941
0.686207 0.159455 0.200306
0.759216 0.166274 0.204706
0.831373 0.166274 0.207164
0.909020 0.172549 0.215686
0.986667 0.177255 0.226667
0.103596 0.156385 0.170092
0.137466 0.153773 0.158842
0.183836 0.153419 0.171593
0.233914 0.158654 0.165395
0.283682 0.159761 0.173266
0.326207 0.162047 0.172243
0.382267 0.168389 0.182525
0.436863 0.168628 0.185404
0.494700 0.171944 0.187363
0.555840 0.177016 0.189259
0.622439 0.178278 0.195055
0.691028 0.184123 0.201923
0.757886 0.186667 0.207604
0.824968 0.190693 0.208816
0.900392 0.196318 0.215074
0.983223 0.201091 0.230110
0.102745 0.195294 0.169412
0.129038 0.205797 0.163137
0.182387 0.200851 0.165064
0.226772 0.198431 0.165908
0.275974 0.197124 0.175738
0.330196 0.196078 0.181961
0.380698 0.198431 0.183769
0.433726 0.202353 0.188527
0.489516 0.203137 0.191268
0.553725 0.207843 0.196183
0.625098 0.211765 0.199216
0.689344 0.214663 0.199933
0.757222 0.218398 0.209345
0.829386 0.221281 0.206797
0.904105 0.224523 0.215686
0.983530 0.233726 0.229020
0.090614 0.249516 0.171660
0.123061 0.255289 0.169107
0.174117 0.250876 0.172758
0.221300 0.249366 0.172524
0.275974 0.249987 0.172340
0.322562 0.244026 0.185307
0.377348 0.242919 0.185993
0.430902 0.247530 0.190222
0.492274 0.249712 0.198159
0.553725 0.250196 0.197961
0.621961 0.249412 0.200104
0.688699 0.257201 0.203116
0.756288 0.259608 0.215582
0.829674 0.264505 0.218595
0.908131 0.272052 0.215425
0.981490 0.278536 0.234196
0.078431 0.298039 0.171765
0.114749 0.302678 0.183223
0.160993 0.301752 0.174588
0.212758 0.299713 0.178144
0.274510 0.297800 0.176881
0.330980 0.294902 0.175686
0.378823 0.293811 0.185643
0.430274 0.294797 0.192837
0.490771 0.298615 0.200470
0.555772 0.303836 0.204332
0.623529 0.304314 0.208628
0.691764 0.305098 0.209345
0.762249 0.307451 0.214117
0.833726 0.313725 0.219713
0.901894 0.316079 0.224859
0.982745 0.330196 0.227451
0.059608 0.355294 0.178823
0.102812 0.356011 0.179436
0.145882 0.352157 0.178039
0.199895 0.357542 0.172235
0.265098 0.349020 0.181176
0.323137 0.353726 0.180392
0.385098 0.352941 0.181961
0.435294 0.349020 0.189020
0.492235 0.351686 0.198902
0.550588 0.350588 0.205490
0.621961 0.352941 0.214117
0.683921 0.358498 0.217016
0.752157 0.365490 0.220392
0.828601 0.367268 0.224000
0.908235 0.371765 0.229804
0.984314 0.381961 0.236079
0.021550 0.409344 0.185165
0.070827 0.412454 0.180746
0.128934 0.409105 0.181005
0.193510 0.411932 0.181113
0.254050 0.412004 0.178517
0.320067 0.413027 0.176164
0.378728 0.413448 0.179990
0.441330 0.409105 0.182028
0.496424 0.413619 0.189497
0.559387 0.410196 0.200545
0.622506 0.409890 0.219742
0.688982 0.415878 0.222028
0.756623 0.420392 0.225882
0.828298 0.424490 0.227726
0.901416 0.433180 0.230588
0.976471 0.441262 0.241024
0.003137 0.476863 0.182745
0.016643 0.476079 0.184074
0.100952 0.474443 0.174611
0.175111 0.475608 0.178614
0.242144 0.475294 0.177360
0.307451 0.475294 0.175686
0.377016 0.477408 0.181483
0.445266 0.473658 0.183238
0.507242 0.473516 0.181543
0.568314 0.474405 0.184628
0.630588 0.472941 0.199216
0.691765 0.476624 0.210435
0.759216 0.480000 0.223597
0.829699 0.487739 0.229699
0.907922 0.492444 0.240471
0.981961 0.497255 0.237647
0.007843 0.535320 0.177830
0.000293 0.543290 0.175946
0.040000 0.541177 0.176105
0.149616 0.543576 0.181035
0.226667 0.538248 0.179399
0.298039 0.540288 0.169621
0.370883 0.540446 0.173420
0.436549 0.539817 0.176366
0.508640 0.537613 0.171926
0.574118 0.539608 0.177464
0.640000 0.542640 0.181281
0.702095 0.540599 0.191981
0.770196 0.541386 0.203033
0.832571 0.547893 0.217273
0.906300 0.556758 0.236601
0.982641 0.563817 0.254431
0.001569 0.609412 0.167843
0.002898 0.608627 0.170980
0.002928 0.608627 0.169307
0.106092 0.609307 0.171974
0.207059 0.606275 0.172549
0.280784 0.610981 0.174902
0.360000 0.608456 0.170741
0.432732 0.607948 0.165281
0.505098 0.608628 0.167738
0.573879 0.608082 0.166274
0.639216 0.607059 0.164706
0.706905 0.610435 0.168321
0.778405 0.614117 0.177359
0.846275 0.615686 0.194614
0.920000 0.620153 0.220153
0.991372 0.629020 0.243137
0.012549 0.666667 0.163137
0.000239 0.678977 0.165864
0.003137 0.676078 0.156078
0.049046 0.679895 0.168627
0.173333 0.679216 0.158431
0.262745 0.680784 0.160000
0.349804 0.676624 0.163443
0.425882 0.679216 0.157647
0.497359 0.677647 0.157856
0.573333 0.677647 0.160000
0.640000 0.679216 0.159215
0.714032 0.683137 0.150282
0.785882 0.683922 0.155294
0.858039 0.685491 0.159791
0.930980 0.687059 0.181961
0.993726 0.690981 0.207059
0.002592 0.747996 0.148781
0.004773 0.748235 0.148781
0.001330 0.744485 0.149326
0.003680 0.748641 0.147090
0.134663 0.749258 0.136642
0.251765 0.752635 0.145882
0.338087 0.747403 0.146304
0.416949 0.749259 0.142745
0.494134 0.747792 0.139023
0.564639 0.750043 0.140870
0.641262 0.752157 0.141177
0.709144 0.752587 0.134452
0.784792 0.751850 0.129105
0.866961 0.759615 0.130714
0.934902 0.760000 0.139436
1.000000 0.764706 0.162286
0.003138 0.821961 0.116078
0.002047 0.826189 0.124399
0.001569 0.824740 0.119081
0.002458 0.822745 0.125176
0.064941 0.825307 0.125176
0.228235 0.823529 0.117647
0.322898 0.823291 0.126581
0.410913 0.824739 0.113658
0.485490 0.828340 0.119686
0.564497 0.825202 0.118222
0.640000 0.824314 0.114510
0.717408 0.826667 0.108168
0.789019 0.825098 0.109871
0.863634 0.826667 0.101490
0.939399 0.836758 0.084811
0.999216 0.836078 0.100392
0.000000 0.896784 0.084967
0.003209 0.893814 0.087624
0.002248 0.899033 0.094379
0.001611 0.894177 0.088205
0.036758 0.898144 0.084810
0.191687 0.899503 0.087895
0.311770 0.896449 0.086167
0.398431 0.897935 0.080262
0.485303 0.896933 0.079195
0.558222 0.898248 0.068915
0.635974 0.899608 0.073307
0.710932 0.899605 0.073149
0.783163 0.897255 0.067817
0.858249 0.899887 0.058045
0.931294 0.897934 0.048523
0.999895 0.908235 0.020340
0.000000 0.963922 0.029020
0.000784 0.968389 0.032224
0.001569 0.964601 0.034667
0.003817 0.966379 0.036863
0.006992 0.968934 0.036146
0.162353 0.967059 0.036079
0.292243 0.967843 0.032635
0.391059 0.969517 0.030013
0.473517 0.967948 0.022850
0.552224 0.966820 0.017800
0.628235 0.967843 0.016470
0.705337 0.967298 0.012243
0.779817 0.966274 0.013124
0.852654 0.962928 0.007948
0.924706 0.965729 0.008082
0.995294 0.964706 0.008628
0.000000 1.000000 0.000000
0.001808 0.997102 0.005012
0.004706 0.998431 0.008628
0.006065 0.994614 0.002353
0.003137 0.998431 0.000000
0.133333 0.998431 0.000000
0.272941 1.000000 0.000000
0.377255 0.997647 0.004706
0.461281 0.999216 0.000000
0.540392 1.000000 0.000000
0.621176 0.998431 0.000000
0.700699 0.998431 0.000000
0.770196 1.000000 0.003138
0.837647 1.000000 0.006274
0.906667 0.998431 0.009412
0.974902 1.000000 0.011765
0.098039 0.112941 0.223530
0.138823 0.110588 0.217255
0.188011 0.114151 0.221176
0.240784 0.119216 0.214118
0.289673 0.130980 0.208732
0.328627 0.134117 0.213333
0.381176 0.151373 0.221176
0.432157 0.156863 0.220034
0.492549 0.154510 0.220392
0.564497 0.156287 0.225882
0.622745 0.163137 0.229804
0.692549 0.161569 0.231372
0.758723 0.160358 0.241994
0.832157 0.163137 0.243137
0.906562 0.168732 0.243033
0.978824 0.174118 0.248627
0.100392 0.152157 0.219608
0.136948 0.151850 0.215380
0.180818 0.151305 0.217614
0.233150 0.156078 0.217830
0.276288 0.162353 0.215582
0.334118 0.167059 0.214902
0.375925 0.173573 0.219608
0.436146 0.174476 0.224314
0.491765 0.174222 0.229124
0.556967 0.175477 0.227660
0.624313 0.177255 0.232157
0.692310 0.180937 0.230349
0.760784 0.182745 0.233726
0.833830 0.185882 0.241778
0.903529 0.187346 0.246693
0.985098 0.192941 0.255686
0.086275 0.201210 0.218465
0.132616 0.198431 0.219182
0.181669 0.198651 0.218470
0.222028 0.197938 0.217322
0.271507 0.198582 0.221339
0.327059 0.207619 0.227451
0.376336 0.201927 0.218756
0.428885 0.205347 0.220119
0.490913 0.203921 0.227742
0.557284 0.206128 0.232161
0.621109 0.206207 0.230947
0.688695 0.210196 0.239641
0.757289 0.213477 0.240009
0.831440 0.216045 0.240291
0.908425 0.220625 0.241094
0.984605 0.224314 0.253400
0.094902 0.248628 0.220392
0.126170 0.246484 0.219137
0.172123 0.245849 0.213625
0.220459 0.249344 0.213692
0.274614 0.242771 0.223634
0.321569 0.245490 0.228235
0.373908 0.245699 0.230118
0.429378 0.246274 0.227025
0.496112 0.246274 0.229804
0.557752 0.252445 0.231373
0.624313 0.253334 0.232941
0.690771 0.255582 0.236288
0.755294 0.260034 0.238432
0.826174 0.259967 0.242353
0.908915 0.264418 0.247738
0.987451 0.273726 0.254118
0.080209 0.294117 0.213020
0.115974 0.299713 0.221281
0.161289 0.296805 0.217138
0.205595 0.296575 0.222065
0.271745 0.295812 0.209872
0.325804 0.290092 0.217150
0.375686 0.293647 0.225307
0.431077 0.294121 0.232728
0.491765 0.296784 0.234719
0.552136 0.300841 0.231192
0.617255 0.301961 0.238118
0.691085 0.304209 0.242353
0.760105 0.305177 0.247229
0.831582 0.310588 0.244601
0.907746 0.313926 0.248091
0.982641 0.322667 0.262013
0.054902 0.352941 0.219608
0.098039 0.350589 0.218824
0.140818 0.353300 0.213759
0.197647 0.350589 0.215687
0.258353 0.351843 0.210981
0.311373 0.354510 0.205490
0.377255 0.348235 0.217255
0.434375 0.349087 0.225950
0.486275 0.351372 0.236078
0.549699 0.349804 0.241569
0.616470 0.352941 0.243922
0.681569 0.357647 0.242353
0.758073 0.361210 0.243138
0.829020 0.367058 0.247059
0.905882 0.373124 0.253124
0.983530 0.378823 0.258039
0.010980 0.409412 0.215686
0.051048 0.416232 0.213333
0.120359 0.412123 0.213692
0.184314 0.411556 0.213438
0.248523 0.409882 0.215582
0.312941 0.408627 0.210981
0.378585 0.409105 0.209823
0.443138 0.408627 0.214118
0.502640 0.410771 0.224784
0.559896 0.406954 0.229594
0.616470 0.411765 0.244706
0.690196 0.415687 0.253879
0.762353 0.422387 0.256829
0.833935 0.423530 0.255895
0.905883 0.431268 0.257935
0.985882 0.437647 0.265098
0.000000 0.475653 0.217546
0.005199 0.472089 0.209838
0.078700 0.472520 0.217528
0.163989 0.473725 0.208762
0.239089 0.473963 0.211402
0.303103 0.476011 0.212549
0.371406 0.479641 0.211048
0.438284 0.481058 0.212401
0.510230 0.470947 0.217322
0.563361 0.473217 0.220479
0.629020 0.476930 0.229378
0.695193 0.476437 0.239081
0.762138 0.479077 0.248699
0.831798 0.484997 0.258039
0.911057 0.489074 0.268086
0.979765 0.507227 0.266958
0.003922 0.538823 0.214902
0.000105 0.541647 0.208157
0.025031 0.540392 0.207418
0.130532 0.543529 0.210264
0.217569 0.537046 0.213334
0.295686 0.541961 0.213333
0.367059 0.538719 0.209046
0.430163 0.541535 0.206992
0.507877 0.538891 0.205849
0.576471 0.539504 0.210092
0.640000 0.539608 0.209412
0.704418 0.539033 0.223425
0.770689 0.540751 0.236930
0.838006 0.547093 0.250622
0.913046 0.554300 0.269490
0.989804 0.564706 0.271373
0.001778 0.604497 0.205856
0.003242 0.606850 0.203922
0.005318 0.603368 0.203959
0.080523 0.608418 0.205229
0.193323 0.610117 0.198310
0.281359 0.607059 0.199895
0.359216 0.606954 0.205281
0.425875 0.605916 0.206236
0.499608 0.606850 0.204601
0.574370 0.607193 0.198001
0.639896 0.608627 0.194719
0.708915 0.607738 0.199215
0.780355 0.608348 0.210730
0.845490 0.615477 0.228235
0.918158 0.621126 0.251454
0.990588 0.624314 0.265412
0.000000 0.672941 0.196863
0.004706 0.678431 0.200000
0.000852 0.677647 0.193860
0.014117 0.678431 0.196078
0.158327 0.678431 0.200000
0.265098 0.683137 0.202353
0.345098 0.673725 0.192157
0.426667 0.679215 0.196079
0.497255 0.682353 0.192157
0.570771 0.676653 0.193725
0.642353 0.676079 0.200784
0.712157 0.680784 0.186667
0.785457 0.685132 0.188594
0.860392 0.683137 0.201568
0.929778 0.687739 0.219347
0.996863 0.694902 0.236863
0.000000 0.751372 0.191372
0.008695 0.747929 0.186734
0.000359 0.751731 0.183888
0.009412 0.745987 0.181490
0.112732 0.751059 0.177150
0.235294 0.748235 0.180392
0.332922 0.748542 0.182028
0.411406 0.749019 0.178532
0.489987 0.750483 0.178614
0.563033 0.751477 0.181176
0.636863 0.751372 0.177255
0.712090 0.753964 0.174289
0.789087 0.753725 0.173333
0.864993 0.757856 0.165908
0.931190 0.760105 0.175007
0.998431 0.763922 0.203922
0.008695 0.815754 0.166633
0.002353 0.820818 0.165132
0.000999 0.827016 0.161640
0.002644 0.819249 0.163272
0.047337 0.827354 0.167278
0.211764 0.827877 0.162779
0.314375 0.824807 0.163630
0.404060 0.825447 0.162851
0.483854 0.829087 0.163630
0.566133 0.827367 0.161827
0.636078 0.824739 0.154152
0.714510 0.826734 0.155787
0.784394 0.828020 0.156361
0.862252 0.827518 0.145882
0.934836 0.833621 0.139566
0.996369 0.834442 0.152717
0.000000 0.896470 0.142745
0.005699 0.893438 0.143529
0.001569 0.896470 0.136403
0.006342 0.890846 0.140818
0.018405 0.898144 0.135791
0.175686 0.896471 0.139608
0.299922 0.895007 0.138249
0.389311 0.898891 0.133692
0.476930 0.899608 0.130622
0.560209 0.898039 0.131189
0.631373 0.898039 0.129411
0.708444 0.901176 0.126588
0.783171 0.899249 0.121994
0.855686 0.899675 0.120852
0.935686 0.900287 0.122144
0.998431 0.905882 0.107451
0.005386 0.964706 0.105673
0.003922 0.964706 0.109595
0.000296 0.969503 0.110218
0.004601 0.968837 0.112575
0.005117 0.966006 0.112447
0.149908 0.963137 0.115973
0.283712 0.968523 0.111738
0.388034 0.968394 0.110552
0.472418 0.970196 0.102745
0.552669 0.967223 0.103287
0.627660 0.966588 0.100967
0.706091 0.966275 0.102170
0.779733 0.964836 0.101451
0.853543 0.964497 0.100863
0.923028 0.967310 0.093586
0.998222 0.961151 0.108810
0.000000 1.000000 0.087059
0.003922 0.996078 0.097255
0.000784 0.999216 0.085423
0.007059 0.997647 0.088627
0.004706 1.000000 0.096575
0.126275 1.000000 0.094902
0.272157 0.996862 0.092549
0.372549 0.996078 0.085782
0.469020 0.998431 0.094118
0.546667 0.997751 0.092445
0.623529 1.000000 0.091765
0.698039 0.999216 0.093333
0.766207 1.000000 0.094835
0.840784 0.997647 0.101961
0.911059 1.000000 0.101177
0.976471 0.996862 0.112157
0.094902 0.112941 0.270588
0.126692 0.112627 0.269020
0.172549 0.116078 0.267451
0.229603 0.120067 0.270655
0.287843 0.127843 0.270588
0.338039 0.137255 0.260392
0.386562 0.143738 0.258144
0.443922 0.152941 0.265098
0.501535 0.153367 0.267810
0.564706 0.159216 0.271372
0.632157 0.156863 0.280000
0.693909 0.151477 0.280680
0.765490 0.151373 0.279216
0.832941 0.150947 0.279283
0.910588 0.155294 0.278432
0.985098 0.152157 0.286274
0.093229 0.152366 0.272052
0.126684 0.149161 0.265819
0.174118 0.155974 0.272366
0.228851 0.156755 0.270149
0.282562 0.159006 0.267085
0.333647 0.160105 0.266876
0.388252 0.167721 0.269136
0.444183 0.172654 0.267346
0.498277 0.178845 0.269829
0.562823 0.175895 0.277438
0.629490 0.174118 0.278327
0.693825 0.171370 0.279376
0.761673 0.172549 0.279007
0.831942 0.174460 0.279280
0.910013 0.172340 0.284602
0.986876 0.179713 0.282092
0.096471 0.194510 0.261177
0.132235 0.193046 0.269699
0.169344 0.196504 0.269311
0.215686 0.197221 0.261468
0.278170 0.199686 0.264993
0.326274 0.201568 0.267451
0.377150 0.200889 0.275085
0.429445 0.209837 0.271731
0.495037 0.206207 0.272941
0.560889 0.204026 0.275399
0.624313 0.203137 0.273725
0.694797 0.202928 0.276967
0.759149 0.206342 0.278723
0.834510 0.207843 0.282286
0.911268 0.209307 0.284706
0.985882 0.212549 0.290981
0.081793 0.243429 0.271440
0.122565 0.242586 0.268081
0.160359 0.249905 0.271798
0.211267 0.243146 0.275998
0.270163 0.244280 0.263036
0.318005 0.249479 0.269311
0.377735 0.244724 0.270284
0.439350 0.246274 0.270813
0.491702 0.246633 0.274582
0.556862 0.249703 0.279216
0.621109 0.252191 0.273792
0.694735 0.250154 0.279600
0.761995 0.250555 0.280067
0.838642 0.254261 0.285849
0.912157 0.257681 0.291698
0.989804 0.261961 0.292123
0.080000 0.295686 0.261176
0.112157 0.300392 0.267660
0.160889 0.295686 0.276549
0.207485 0.295619 0.265457
0.266256 0.295074 0.265644
0.321568 0.294117 0.265098
0.374327 0.292967 0.273464
0.428810 0.293333 0.274928
0.496045 0.298823 0.281994
0.554271 0.300392 0.276078
0.623529 0.301961 0.275294
0.694902 0.303529 0.284706
0.763817 0.304209 0.283033
0.834510 0.307944 0.281569
0.907996 0.309565 0.290024
0.988235 0.320000 0.298039
0.045490 0.346667 0.269804
0.089307 0.346091 0.266771
0.138823 0.346667 0.267451
0.194151 0.346308 0.267451
0.255686 0.349804 0.262745
0.314509 0.351373 0.261961
0.381542 0.347556 0.260967
0.437647 0.343529 0.275294
0.484213 0.352224 0.275159
0.550588 0.352941 0.282353
0.616470 0.352941 0.281569
0.687843 0.357647 0.281569
0.760000 0.363922 0.285490
0.830947 0.362285 0.282577
0.910588 0.367059 0.292549
0.986666 0.372549 0.298823
0.000209 0.413909 0.265621
0.018089 0.413387 0.259348
0.098562 0.415006 0.259138
0.176332 0.409519 0.263402
0.246065 0.411869 0.266457
0.310745 0.409516 0.259608
0.371351 0.411454 0.260559
0.436758 0.409307 0.258144
0.502449 0.405616 0.267427
0.562562 0.407843 0.275294
0.620497 0.411765 0.291555
0.690834 0.417117 0.293483
0.760314 0.419503 0.294065
0.834039 0.425757 0.290743
0.906771 0.430797 0.290876
0.987242 0.434510 0.299817
0.003922 0.470588 0.267451
0.001778 0.475399 0.254902
0.033524 0.474443 0.263664
0.146801 0.476146 0.258824
0.223739 0.476079 0.257150
0.294902 0.475294 0.255687
