assets/lut/editingcorp strano.cube
# Created by: G'MIC (https://gmic.eu)
TITLE "strano"
# LUT size
LUT_3D_SIZE 5
# Data domain
DOMAIN_MIN 0.0 0.0 0.0
DOMAIN_MAX 1.0 1.0 1.0
# LUT data points
0.020231688395142555 0.018185978755354881 0.020167287439107895
0.42729437351226807 0.016514511778950691 0.017852049320936203
0.76553446054458618 0.030778981745243073 0.032443568110466003
0.90971106290817261 0.047170601785182953 0.04737522080540657
0.97855520248413086 0.052508454769849777 0.056682124733924866
0.0119362473487854 0.21539308130741119 0.14028593897819519
0.29370379447937012 0.23357324302196503 0.060373537242412567
0.72013407945632935 0.21755154430866241 0.024614490568637848
0.91088050603866577 0.25045713782310486 0.061312805861234665
0.98002845048904419 0.23420482873916626 0.06495356559753418
0.01080144289880991 0.43745166063308716 0.3404805064201355
0.093239575624465942 0.4402167797088623 0.32516834139823914
0.55756622552871704 0.52102327346801758 0.067823715507984161
0.91640132665634155 0.51602113246917725 0.03774719312787056
0.98977762460708618 0.48860400915145874 0.04502391442656517
0.013672279193997383 0.61691391468048096 0.49815365672111511
0.090827867388725281 0.6240609884262085 0.50471407175064087
0.26032990217208862 0.66958791017532349 0.50654858350753784
0.78466230630874634 0.79733490943908691 0.1556788831949234
0.98586702346801758 0.77266144752502441 0.024309076368808746
0.011045702733099461 0.70377230644226074 0.51976895332336426
0.079553700983524323 0.70420873165130615 0.52725285291671753
0.16040657460689545 0.73933088779449463 0.53535562753677368
0.51954525709152222 0.8598552942276001 0.47781762480735779
0.89975976943969727 0.95258384943008423 0.28179830312728882
0.010389679111540318 0.12038448452949524 0.16622434556484222
0.32717022299766541 0.022897787392139435 0.25778618454933167
0.73317092657089233 0.052247561514377594 0.41896316409111023
0.89703631401062012 0.09705430269241333 0.36901161074638367
0.96469485759735107 0.093781687319278717 0.33357197046279907
0.011450598947703838 0.26734164357185364 0.2819703221321106
0.23728747665882111 0.25193512439727783 0.23200330138206482
0.69302308559417725 0.23601411283016205 0.2337431013584137
0.90332174301147461 0.27904736995697021 0.2608790397644043
0.96773827075958252 0.26755037903785706 0.25914779305458069
0.011954871937632561 0.43369254469871521 0.42520835995674133
0.091679684817790985 0.43739485740661621 0.40798178315162659
0.553813636302948 0.52077394723892212 0.19414687156677246
0.91436398029327393 0.51571553945541382 0.15001563727855682
0.98935729265213013 0.48574361205101013 0.15876060724258423
0.010954105295240879 0.62005829811096191 0.57794094085693359
0.084349252283573151 0.6158556342124939 0.57092511653900146
0.23862537741661072 0.66450351476669312 0.57757794857025146
0.78057682514190674 0.79392677545547485 0.22901737689971924
0.98049503564834595 0.77423840761184692 0.10479444265365601
0.011877471581101418 0.70446473360061646 0.59190118312835693
0.081838972866535187 0.70476686954498291 0.59066128730773926
0.16023077070713043 0.74252855777740479 0.60384052991867065
0.52349001169204712 0.85858619213104248 0.53747040033340454
0.89853173494338989 0.95098733901977539 0.33605077862739563
0.015617220662534237 0.29881325364112854 0.50611788034439087
0.19437895715236664 0.2662816047668457 0.53687769174575806
0.65336394309997559 0.026519147679209709 0.67643791437149048
0.80735653638839722 0.12652115523815155 0.76724565029144287
0.88266348838806152 0.089178465306758881 0.76749926805496216
0.013217955827713013 0.3912310004234314 0.52964121103286743
0.12990343570709229 0.39527225494384766 0.50897997617721558
0.60720288753509521 0.22630274295806885 0.58531564474105835
0.84722471237182617 0.37598595023155212 0.74321717023849487
0.92286080121994019 0.36020880937576294 0.72245275974273682
0.013280801475048065 0.51659274101257324 0.61322247982025146
0.096710324287414551 0.51001036167144775 0.58883547782897949
0.53801482915878296 0.54516410827636719 0.53790962696075439
0.89993429183959961 0.59252458810806274 0.56780022382736206
0.97622323036193848 0.58498585224151611 0.56322973966598511
0.049451250582933426 0.65000814199447632 0.68477052450180054
0.10874684900045395 0.63291352987289429 0.66752088069915771
0.32957178354263306 0.67620748281478882 0.66177582740783691
0.80494087934494019 0.80589050054550171 0.51646870374679565
0.98542529344558716 0.7950282096862793 0.4449009895324707
0.016449827700853348 0.70689970254898071 0.67179411649703979
0.08837997168302536 0.70651960372924805 0.67092067003250122
0.2102506011724472 0.74984461069107056 0.67955970764160156
0.58509665727615356 0.84732151031494141 0.68328917026519775
0.90817070007324219 0.96384787559509277 0.52860242128372192
0.018385943025350571 0.32869991660118103 0.62541395425796509
0.14004968106746674 0.3393281102180481 0.66249716281890869
0.6013486385345459 0.028573622927069664 0.72582316398620605
0.88255667686462402 0.047503825277090073 0.90000081062316895
0.95988023281097412 0.060525692999362946 0.90563631057739258
0.012217801995575428 0.4347689151763916 0.65975511074066162
0.1063786968588829 0.45656558871269226 0.67173588275909424
0.53981584310531616 0.26833492517471313 0.6924968957901001
0.88173317909240723 0.23689702153205872 0.89971107244491577
0.95257234573364258 0.23303724825382233 0.90007138252258301
0.013075241819024086 0.56415998935699463 0.7498289942741394
0.092586919665336609 0.5672612190246582 0.74196434020996094
0.44934394955635071 0.62194687128067017 0.75184667110443115
0.88294476270675659 0.57955467700958252 0.89271146059036255
0.95993304252624512 0.62605094909667969 0.88583064079284668
0.26729848980903625 0.75679159164428711 0.84747445583343506
0.32261753082275391 0.75040000677108765 0.84324812889099121
0.50418943166732788 0.77086412906646729 0.83502191305160522
0.84452682733535767 0.84499067068099976 0.85389083623886108
0.97158706188201904 0.85750818252563477 0.85895311832427979
0.27041685581207275 0.8205331563949585 0.83809369802474976
0.31926921010017395 0.80926996469497681 0.83121418952941895
0.48887896537780762 0.84122645854949951 0.83471179008483887
0.79497939348220825 0.92888909578323364 0.85935366153717041
0.95264452695846558 0.97488421201705933 0.8512732982635498
0.012605195865035057 0.32140424847602844 0.69263374805450439
0.1549236923456192 0.3335258960723877 0.72158443927764893
0.55941247940063477 0.049478806555271149 0.777607262134552
0.87830376625061035 0.039155922830104828 0.97751414775848389
0.95271807909011841 0.094536364078521729 0.94572925567626953
0.012895741499960423 0.43222326040267944 0.73827028274536133
0.10478529334068298 0.45335951447486877 0.74678415060043335
0.49673548340797424 0.31768476963043213 0.76690852642059326
0.8671257495880127 0.2355329692363739 0.97201937437057495
0.96117657423019409 0.21253383159637451 0.99040466547012329
0.018504677340388298 0.55036401748657227 0.81134676933288574
0.091169632971286774 0.55639159679412842 0.80784279108047485
0.43680796027183533 0.6180155873298645 0.82728058099746704
0.84963792562484741 0.57795971632003784 0.94659876823425293
0.97720736265182495 0.5365862250328064 0.99422580003738403
0.21883516013622284 0.73736751079559326 0.91899192333221436
0.25666871666908264 0.73091036081314087 0.91480046510696411
0.49301961064338684 0.76832222938537598 0.91964668035507202
0.84618961811065674 0.84868150949478149 0.95568579435348511
0.97894716262817383 0.85628783702850342 0.98605883121490479
0.36386695504188538 0.86175715923309326 0.9343833327293396
0.42405587434768677 0.85520398616790771 0.94754672050476074
0.58050757646560669 0.88280993700027466 0.94632077217102051
0.84311997890472412 0.95413696765899658 0.9787604808807373
0.97034311294555664 0.97356164455413818 0.98757022619247437
