assets/lut/editingcorp partia.cube
# Created by: G'MIC (https://gmic.eu)
TITLE "partia"
# LUT size
LUT_3D_SIZE 7
# Data domain
DOMAIN_MIN 0.0 0.0 0.0
DOMAIN_MAX 1.0 1.0 1.0
# LUT data points
0.0216203723102808 0.024188591167330742 0.01173216849565506
0.29423654079437256 0.068419665098190308 0.062500178813934326
0.62196880578994751 0.14639097452163696 0.15550819039344788
0.81146645545959473 0.23495548963546753 0.2254088819026947
0.89108455181121826 0.26776933670043945 0.27068698406219482
0.93992102146148682 0.29628762602806091 0.28263920545578003
0.98995095491409302 0.27674052119255066 0.28737595677375793
0.018192606046795845 0.17837163805961609 0.024714406579732895
0.16901023685932159 0.1839144378900528 0.034644827246665955
0.50579768419265747 0.23371060192584991 0.10547813028097153
0.78402578830718994 0.29857158660888672 0.19758307933807373
0.88884401321411133 0.3438073992729187 0.26351249217987061
0.93987667560577393 0.36437541246414185 0.2853647768497467
0.99040913581848145 0.36531582474708557 0.29246756434440613
0.03787638247013092 0.38994115591049194 0.065405644476413727
0.11665109544992447 0.37939465045928955 0.057129144668579102
0.38280752301216125 0.38255909085273743 0.060918338596820831
0.70223551988601685 0.42405584454536438 0.1315314918756485
0.87472724914550781 0.45796462893486023 0.20723491907119751
0.94219869375228882 0.47062203288078308 0.2413029670715332
0.9924318790435791 0.47042551636695862 0.25199487805366516
0.059858899563550949 0.58777093887329102 0.10573744028806686
0.10169114917516708 0.58587461709976196 0.1072269082069397
0.27999550104141235 0.57935982942581177 0.1017148345708847
0.59897518157958984 0.58594363927841187 0.10718148946762085
0.84646368026733398 0.60810196399688721 0.15335835516452789
0.94066041707992554 0.6168525218963623 0.19301322102546692
0.99198675155639648 0.61420518159866333 0.21013878285884857
0.088109619915485382 0.76944601535797119 0.15111400187015533
0.12347904592752457 0.7653663158416748 0.15593057870864868
0.2356267124414444 0.7641790509223938 0.15514171123504639
0.49012210965156555 0.76173627376556396 0.14106236398220062
0.78434252738952637 0.76155632734298706 0.14451685547828674
0.9379926323890686 0.76384079456329346 0.17486797273159027
0.99367284774780273 0.76582485437393188 0.19843621551990509
0.11279419809579849 0.89503461122512817 0.1820237785577774
0.15493690967559814 0.88746976852416992 0.18233196437358856
0.21800117194652557 0.89335149526596069 0.18751563131809235
0.39063069224357605 0.90617555379867554 0.19035886228084564
0.69652366638183594 0.89836490154266357 0.17273940145969391
0.91103887557983398 0.89839005470275879 0.17961800098419189
0.9890931248664856 0.90337496995925903 0.20196770131587982
0.11956706643104553 0.96819370985031128 0.18635042011737823
0.16809307038784027 0.96336042881011963 0.18331393599510193
0.21638478338718414 0.96909260749816895 0.19055259227752686
0.35513108968734741 0.98266023397445679 0.19987937808036804
0.64030706882476807 0.98250377178192139 0.18984633684158325
0.88000279664993286 0.98620647192001343 0.19029170274734497
0.98680984973907471 0.99356740713119507 0.20630909502506256
0.03105132095515728 0.022065270692110062 0.17838051915168762
0.2651636004447937 0.029363729059696198 0.18995772302150726
0.60577690601348877 0.098964884877204895 0.2492491751909256
0.80459821224212646 0.19636635482311249 0.29490619897842407
0.89290720224380493 0.26723441481590271 0.33350253105163574
0.94145709276199341 0.282266765832901 0.34315535426139832
0.99074286222457886 0.28781703114509583 0.34822523593902588
0.023651108145713806 0.1829519122838974 0.14992533624172211
0.1674664169549942 0.17998853325843811 0.14792463183403015
0.50218230485916138 0.23317836225032806 0.19093534350395203
0.77580803632736206 0.30323490500450134 0.26649743318557739
0.88431775569915771 0.3503933846950531 0.32410654425621033
0.9395134449005127 0.3675650954246521 0.33971741795539856
0.99044454097747803 0.37683877348899841 0.35003486275672913
0.035581789910793304 0.39243239164352417 0.15172025561332703
0.11889148503541946 0.37919735908508301 0.14180415868759155
0.3857654333114624 0.37718284130096436 0.12685035169124603
0.70244407653808594 0.42726603150367737 0.19419075548648834
0.87785649299621582 0.45762726664543152 0.25746580958366394
0.94236093759536743 0.46664917469024658 0.28547888994216919
0.99116528034210205 0.46983695030212402 0.30197668075561523
0.062110885977745056 0.59019607305526733 0.16532258689403534
0.10052318125963211 0.58488094806671143 0.16489936411380768
0.27389490604400635 0.57415175437927246 0.14640703797340393
0.59592682123184204 0.58390122652053833 0.15181097388267517
0.84756660461425781 0.60417300462722778 0.20146791636943817
0.94125688076019287 0.61192899942398071 0.22910834848880768
0.98966509103775024 0.61235302686691284 0.25059717893600464
0.093584053218364716 0.76691532135009766 0.20604471862316132
0.1261155903339386 0.76487380266189575 0.2025064080953598
0.222547248005867 0.76503825187683105 0.19955167174339294
0.48109212517738342 0.76043379306793213 0.18245898187160492
0.78522169589996338 0.75824952125549316 0.19546601176261902
0.93873846530914307 0.76166081428527832 0.2218792736530304
0.99153321981430054 0.75994575023651123 0.24239639937877655
0.11593400686979294 0.89460057020187378 0.23559679090976715
0.15011283755302429 0.88971436023712158 0.23241885006427765
0.1929561048746109 0.89734911918640137 0.24124588072299957
0.36949202418327332 0.90632873773574829 0.24534589052200317
0.68949145078659058 0.90403091907501221 0.22500135004520416
0.91157317161560059 0.90389221906661987 0.23140552639961243
0.98736071586608887 0.9022335410118103 0.25454455614089966
0.11610732972621918 0.97331917285919189 0.2283720076084137
0.14891836047172546 0.96640753746032715 0.23002432286739349
0.16405545175075531 0.96970224380493164 0.24801650643348694
0.2818543016910553 0.98037755489349365 0.26246494054794312
0.62155419588088989 0.9848518967628479 0.24006752669811249
0.88792675733566284 0.98921579122543335 0.2400205135345459
0.98858284950256348 0.99546569585800171 0.26098743081092834
0.074084937572479248 0.020792074501514435 0.39528754353523254
0.26130920648574829 0.023011330515146255 0.4013383686542511
0.55934983491897583 0.067117772996425629 0.42974591255187988
0.78639358282089233 0.10526715219020844 0.45747673511505127
0.88602250814437866 0.21784807741641998 0.47105857729911804
0.93826407194137573 0.23709064722061157 0.46879538893699646
0.99048620462417603 0.2621883749961853 0.46925786137580872
0.047547150403261185 0.1836056113243103 0.36512815952301025
0.17264871299266815 0.17524482309818268 0.35813423991203308
0.47431078553199768 0.20446845889091492 0.37950566411018372
0.75868219137191772 0.27400025725364685 0.42605346441268921
0.88136452436447144 0.33199211955070496 0.45484504103660583
0.93611246347427368 0.35089889168739319 0.45523267984390259
0.99027818441390991 0.36895015835762024 0.45750737190246582
0.043370414525270462 0.39586222171783447 0.33828243613243103
0.11552466452121735 0.38001447916030884 0.32593569159507751
0.36950141191482544 0.37512201070785522 0.30858731269836426
0.70008152723312378 0.42991673946380615 0.34707343578338623
0.87355923652648926 0.47362923622131348 0.39952504634857178
0.93969321250915527 0.47412127256393433 0.4054248034954071
0.99355554580688477 0.48265612125396729 0.41219320893287659
0.064212411642074585 0.59779781103134155 0.31616625189781189
0.10539567470550537 0.58943790197372437 0.30521601438522339
0.25197479128837585 0.58298885822296143 0.28834778070449829
0.58665329217910767 0.58260947465896606 0.26437592506408691
0.83941704034805298 0.60796773433685303 0.30895474553108215
0.93649512529373169 0.62275117635726929 0.32994231581687927
0.99117034673690796 0.62650072574615479 0.35381492972373962
0.10213189572095871 0.76834547519683838 0.30914750695228577
0.15254485607147217 0.76249253749847412 0.29225361347198486
0.22659300267696381 0.76873648166656494 0.29490494728088379
0.47505468130111694 0.76275503635406494 0.26920619606971741
0.7760612964630127 0.75490474700927734 0.25917735695838928
0.93472892045974731 0.75955146551132202 0.29058536887168884
0.99183899164199829 0.75856608152389526 0.30392417311668396
0.12388844043016434 0.89224332571029663 0.30359351634979248
0.17267152667045593 0.8882564902305603 0.29536864161491394
0.21156689524650574 0.89907538890838623 0.3137454092502594
0.39131817221641541 0.90572774410247803 0.32507669925689697
0.69586455821990967 0.90381747484207153 0.28784275054931641
0.90970587730407715 0.9032711386680603 0.2798607349395752
0.98741632699966431 0.89940065145492554 0.29871809482574463
0.11961060762405396 0.97333109378814697 0.28380218148231506
0.16484673321247101 0.96447479724884033 0.28680679202079773
0.18768362700939178 0.9674372673034668 0.31052985787391663
0.33303111791610718 0.97523695230484009 0.33079501986503601
0.63703542947769165 0.98712897300720215 0.27736902236938477
0.88588649034500122 0.99228173494338989 0.27161359786987305
0.99068528413772583 0.99531006813049316 0.30842688679695129
0.1315714418888092 0.032147098332643509 0.60892874002456665
0.28811711072921753 0.030353769659996033 0.61484497785568237
0.53313297033309937 0.033511921763420105 0.62076795101165771
0.75784814357757568 0.099183879792690277 0.62984776496887207
0.87271809577941895 0.15312936902046204 0.63285601139068604
0.93212002515792847 0.14990189671516418 0.63177680969238281
0.98768573999404907 0.19667752087116241 0.62995737791061401
0.10447514802217484 0.18192684650421143 0.591033935546875
0.22164660692214966 0.17600709199905396 0.58854883909225464
0.46887880563735962 0.16127289831638336 0.58936887979507446
0.73262619972229004 0.21670353412628174 0.60984545946121216
0.87247490882873535 0.28527775406837463 0.62174421548843384
0.93260174989700317 0.31025177240371704 0.62176549434661865
0.98632436990737915 0.31754070520401001 0.6212577223777771
0.074738010764122009 0.38836625218391418 0.56785207986831665
0.15408810973167419 0.37975308299064636 0.56246328353881836
0.37306424975395203 0.36468467116355896 0.54519295692443848
0.67288172245025635 0.39669126272201538 0.56253349781036377
0.86505001783370972 0.44572922587394714 0.59943932294845581
0.93710172176361084 0.45639294385910034 0.60345661640167236
0.99096930027008057 0.46533310413360596 0.61409002542495728
0.073392800986766815 0.60454797744750977 0.53181320428848267
0.12143153697252274 0.59791392087936401 0.52745097875595093
0.24825137853622437 0.59112149477005005 0.51936882734298706
0.57856184244155884 0.58568155765533447 0.50671350955963135
0.83281683921813965 0.62060511112213135 0.54425758123397827
0.93544024229049683 0.63998138904571533 0.56981092691421509
0.99074751138687134 0.6372685432434082 0.57548707723617554
0.10027041286230087 0.7801063060760498 0.49193292856216431
0.15403999388217926 0.77329921722412109 0.48547261953353882
0.21560947597026825 0.77711600065231323 0.48388421535491943
0.46321111917495728 0.76656335592269897 0.4615052342414856
0.76817113161087036 0.75764507055282593 0.45478975772857666
0.92995333671569824 0.76452398300170898 0.48785990476608276
0.9883609414100647 0.76598662137985229 0.49329960346221924
0.1232563853263855 0.89848339557647705 0.45679637789726257
0.16970285773277283 0.89791536331176758 0.4470730721950531
0.19420944154262543 0.91006237268447876 0.45517754554748535
0.38078457117080688 0.91408884525299072 0.46088007092475891
0.69973015785217285 0.90096735954284668 0.43562477827072144
0.90749943256378174 0.90115523338317871 0.41175031661987305
0.98959767818450928 0.90227997303009033 0.43032065033912659
0.12557941675186157 0.97145891189575195 0.43146276473999023
0.16678135097026825 0.96823561191558838 0.42620569467544556
0.18122813105583191 0.97518301010131836 0.43238046765327454
0.3265748918056488 0.98316580057144165 0.44025826454162598
0.63945406675338745 0.98651707172393799 0.41918224096298218
0.88783508539199829 0.9911874532699585 0.39051011204719543
0.99696952104568481 0.99546569585800171 0.42047604918479919
0.1728387326002121 0.041452474892139435 0.75885587930679321
0.30885368585586548 0.034437187016010284 0.7641332745552063
0.5213848352432251 0.046417072415351868 0.76123571395874023
0.73377984762191772 0.084775350987911224 0.76309096813201904
0.86281543970108032 0.11904202401638031 0.76375746726989746
0.92687565088272095 0.11765147000551224 0.76513445377349854
0.98210656642913818 0.10452607274055481 0.76935762166976929
0.14966660737991333 0.18179655075073242 0.75056314468383789
0.2637532651424408 0.17081055045127869 0.75634807348251343
0.47963058948516846 0.17168821394443512 0.75966650247573853
0.71642023324966431 0.18204033374786377 0.77262735366821289
0.86391794681549072 0.24197623133659363 0.76713788509368896
0.92738974094390869 0.2580115795135498 0.76360428333282471
0.98237752914428711 0.27004671096801758 0.76125967502593994
0.11393696069717407 0.37218928337097168 0.74691599607467651
0.20366287231445312 0.36732932925224304 0.74754935503005981
0.40261700749397278 0.36130058765411377 0.74146085977554321
0.65795505046844482 0.35416290163993835 0.74269038438796997
0.85008591413497925 0.38374578952789307 0.75300657749176025
0.93306195735931396 0.40017279982566833 0.75485950708389282
0.98551154136657715 0.41180634498596191 0.75863224267959595
0.094982236623764038 0.59334558248519897 0.74601435661315918
0.15330770611763 0.59018582105636597 0.74343186616897583
0.28572696447372437 0.58197778463363647 0.73090755939483643
0.57789582014083862 0.57768517732620239 0.71462494134902954
0.8225700855255127 0.60722559690475464 0.73201161623001099
0.93589740991592407 0.62906086444854736 0.74935245513916016
0.99047815799713135 0.63312947750091553 0.75288259983062744
0.10384257882833481 0.78682929277420044 0.71682453155517578
0.15430359542369843 0.78430414199829102 0.71297353506088257
0.20250652730464935 0.78386932611465454 0.70538628101348877
0.45317023992538452 0.770671546459198 0.68194031715393066
0.7611386775970459 0.76233834028244019 0.67815679311752319
0.9233100414276123 0.77895516157150269 0.70424187183380127
0.98818546533584595 0.78617662191390991 0.71661621332168579
0.12842622399330139 0.91468364000320435 0.67081379890441895
0.17583270370960236 0.91757124662399292 0.66108322143554688
0.1983347088098526 0.91931980848312378 0.66336292028427124
0.3834148645401001 0.92003375291824341 0.65797924995422363
0.69865572452545166 0.91163218021392822 0.64643222093582153
0.89893090724945068 0.9098164439201355 0.64271026849746704
0.98924583196640015 0.90890729427337646 0.65118008852005005
0.14174625277519226 0.97712945938110352 0.64490437507629395
0.18373045325279236 0.97851711511611938 0.63889986276626587
0.21475969254970551 0.98266059160232544 0.63536322116851807
0.36539509892463684 0.99056911468505859 0.6384013295173645
0.65900677442550659 0.99348586797714233 0.63305270671844482
0.89219683408737183 0.99478310346603394 0.62403595447540283
0.99384719133377075 0.99546569585800171 0.63964253664016724
0.18151284754276276 0.043694052845239639 0.82580095529556274
0.30766183137893677 0.032331936061382294 0.83165031671524048
0.51288658380508423 0.054488267749547958 0.8388257622718811
0.72783744335174561 0.079831518232822418 0.84710127115249634
0.8638988733291626 0.089983157813549042 0.84768474102020264
0.92630559206008911 0.11242903023958206 0.84466820955276489
0.98156630992889404 0.13216739892959595 0.84780454635620117
0.17205533385276794 0.17339855432510376 0.83174824714660645
0.28085947036743164 0.1710355132818222 0.83796960115432739
0.48002085089683533 0.17775066196918488 0.84772837162017822
0.71479612588882446 0.17173263430595398 0.86049109697341919
0.8677552342414856 0.21044439077377319 0.85719132423400879
0.9275779128074646 0.24515551328659058 0.84753859043121338
0.98153352737426758 0.25355008244514465 0.84875249862670898
0.13897284865379333 0.35891252756118774 0.8372725248336792
0.22792983055114746 0.35769408941268921 0.8399512767791748
0.41088631749153137 0.35881441831588745 0.84434378147125244
0.6603541374206543 0.34402817487716675 0.85506230592727661
0.84736806154251099 0.35448762774467468 0.85650348663330078
0.93385607004165649 0.36573660373687744 0.85628807544708252
0.98321855068206787 0.3770221471786499 0.85953468084335327
0.11269459128379822 0.57850879430770874 0.85871767997741699
0.1730065792798996 0.57127147912979126 0.85788202285766602
0.31215223670005798 0.56151098012924194 0.85298490524291992
0.59307229518890381 0.56894516944885254 0.85444962978363037
0.81912899017333984 0.57574081420898438 0.8588680624961853
0.93886607885360718 0.5880851149559021 0.8636707067489624
0.99018573760986328 0.59712213277816772 0.8653833270072937
0.11133825033903122 0.77865374088287354 0.87194907665252686
0.16651807725429535 0.77248620986938477 0.87251430749893188
0.23690757155418396 0.76747268438339233 0.87288045883178711
0.49012282490730286 0.75965350866317749 0.86206340789794922
0.77354580163955688 0.75865787267684937 0.85322946310043335
0.9264976978302002 0.76919329166412354 0.86138373613357544
0.98813450336456299 0.77860993146896362 0.87010413408279419
0.13987937569618225 0.9152337908744812 0.85737943649291992
0.19395673274993896 0.91706949472427368 0.85450208187103271
0.23490649461746216 0.91452193260192871 0.85611152648925781
0.39738771319389343 0.91731387376785278 0.84746265411376953
0.70607346296310425 0.91094851493835449 0.83476155996322632
0.90703707933425903 0.90800267457962036 0.84271407127380371
0.98919975757598877 0.91571354866027832 0.84582459926605225
0.16554759442806244 0.9798886775970459 0.83682429790496826
0.22034485638141632 0.98119843006134033 0.83910161256790161
0.27469691634178162 0.98041802644729614 0.83483254909515381
0.39551284909248352 0.98919594287872314 0.83819222450256348
0.67087727785110474 0.99450385570526123 0.82886064052581787
0.89908373355865479 0.99512088298797607 0.83799546957015991
0.99407541751861572 0.99588161706924438 0.84798789024353027
0.18845438957214355 0.029237112030386925 0.89009422063827515
0.31883183121681213 0.021140379831194878 0.89434278011322021
0.51216155290603638 0.034197278320789337 0.90338575839996338
0.72421693801879883 0.074456311762332916 0.90980911254882812
0.86258739233016968 0.082055695354938507 0.90818458795547485
0.92508220672607422 0.093109130859375 0.90315097570419312
0.98033088445663452 0.071566469967365265 0.9053804874420166
0.17569546401500702 0.17229318618774414 0.8966553807258606
0.29340085387229919 0.16376067698001862 0.9020308256149292
0.47910699248313904 0.16548644006252289 0.91024291515350342
0.69758361577987671 0.16593194007873535 0.91579794883728027
0.8549385666847229 0.20794333517551422 0.91428536176681519
0.92688673734664917 0.25097084045410156 0.90878820419311523
0.98173677921295166 0.25003337860107422 0.91135114431381226
0.14940623939037323 0.35141044855117798 0.90177196264266968
0.24990148842334747 0.35182628035545349 0.90116924047470093
0.42169603705406189 0.35721135139465332 0.90392178297042847
0.64417070150375366 0.34777680039405823 0.91285759210586548
0.83369523286819458 0.35246789455413818 0.91603964567184448
0.93089550733566284 0.35906073451042175 0.91712236404418945
0.98386210203170776 0.36877360939979553 0.92223763465881348
0.12189657241106033 0.56318944692611694 0.91773140430450439
0.19730037450790405 0.55819368362426758 0.91418766975402832
0.34622922539710999 0.55506223440170288 0.909557044506073
0.58791792392730713 0.56884157657623291 0.91623955965042114
0.81134724617004395 0.57074689865112305 0.92241823673248291
0.93665075302124023 0.56796491146087646 0.92685449123382568
0.99149566888809204 0.5707816481590271 0.93079274892807007
0.11451495438814163 0.76793074607849121 0.94131588935852051
0.17077171802520752 0.76017117500305176 0.94110780954360962
0.27103006839752197 0.75662022829055786 0.93736284971237183
0.4999271035194397 0.75355309247970581 0.93519735336303711
0.76572072505950928 0.75529879331588745 0.93389660120010376
0.92472141981124878 0.75755423307418823 0.94101440906524658
0.99185168743133545 0.76271027326583862 0.94961273670196533
0.13864459097385406 0.9199710488319397 0.9490668773651123
0.1935809999704361 0.91934883594512939 0.94778174161911011
0.24612925946712494 0.91780751943588257 0.95136290788650513
0.41927209496498108 0.91629564762115479 0.94994813203811646
0.70756083726882935 0.91029065847396851 0.943450927734375
0.90825647115707397 0.90601402521133423 0.94943153858184814
0.99072086811065674 0.91369879245758057 0.95876044034957886
0.17554701864719391 0.98181241750717163 0.9447481632232666
0.23170740902423859 0.97892814874649048 0.94716966152191162
0.29490762948989868 0.98897343873977661 0.95393359661102295
0.43373382091522217 0.99445647001266479 0.9591519832611084
0.68722754716873169 0.9943428635597229 0.95240944623947144
0.9069753885269165 0.99103200435638428 0.96212852001190186
0.99523603916168213 0.9947020411491394 0.97028285264968872
