assets/lut/editingcorpw Morning Mist.cube
LUT_3D_SIZE 6
DOMAIN_MIN 0.0 0.0 0.0
DOMAIN_MAX 1.0 1.0 1.0
0.015128 0.014143 0.013767
0.104279 0.029752 0.011546
0.295079 0.051508 0.014712
0.465876 0.077090 0.017722
0.608197 0.102232 0.025481
0.736532 0.131965 0.036159
0.041417 0.105272 0.065785
0.193269 0.122472 0.053609
0.381185 0.150626 0.046602
0.537852 0.176146 0.047315
0.666164 0.198877 0.059075
0.783321 0.229281 0.072036
0.070492 0.243546 0.128659
0.223133 0.280956 0.110917
0.449511 0.295611 0.088258
0.617338 0.268698 0.089008
0.721790 0.316962 0.086833
0.819510 0.371386 0.096940
0.138912 0.338495 0.199414
0.332764 0.405768 0.178246
0.523088 0.466465 0.173125
0.655216 0.483431 0.168002
0.770066 0.488310 0.164148
0.880633 0.483303 0.171730
0.258141 0.451923 0.262241
0.461943 0.513164 0.253611
0.627214 0.586827 0.265361
0.717539 0.624892 0.274568
0.799260 0.652902 0.275435
0.882761 0.685068 0.286351
0.419631 0.582227 0.345113
0.602127 0.647603 0.363136
0.726848 0.719461 0.393126
0.794374 0.749856 0.400826
0.851949 0.776237 0.403003
0.915095 0.807551 0.408954
0.000823 0.036297 0.089919
0.095698 0.072367 0.107701
0.273030 0.080913 0.093761
0.465641 0.101294 0.108184
0.616651 0.134514 0.114166
0.742935 0.168542 0.120713
0.039387 0.141248 0.152957
0.149900 0.183059 0.177322
0.361418 0.191942 0.140254
0.565609 0.225858 0.139777
0.695182 0.256535 0.146317
0.796414 0.294524 0.161931
0.092679 0.268383 0.214411
0.207960 0.331325 0.247878
0.425176 0.355440 0.205644
0.627842 0.368168 0.191298
0.746112 0.394516 0.196976
0.838706 0.434879 0.222497
0.161935 0.359777 0.284751
0.307382 0.434357 0.329192
0.509948 0.499254 0.312464
0.677830 0.534749 0.293644
0.788132 0.528835 0.291517
0.867540 0.603818 0.321576
0.268436 0.487332 0.381889
0.456794 0.564545 0.436292
0.625437 0.633878 0.440375
0.743838 0.678237 0.430562
0.815665 0.698705 0.424803
0.891683 0.716616 0.436338
0.421598 0.654405 0.519977
0.611949 0.714766 0.561828
0.734810 0.767496 0.576521
0.814165 0.799040 0.569901
0.861266 0.812899 0.559259
0.913428 0.832515 0.549672
0.021533 0.069193 0.164969
0.112300 0.102237 0.197253
0.229144 0.124502 0.224078
0.420179 0.160039 0.269961
0.582090 0.207314 0.293191
0.703945 0.239006 0.292306
0.053051 0.188659 0.244324
0.164200 0.230203 0.298307
0.294143 0.273652 0.332057
0.512243 0.313188 0.326243
0.691174 0.364428 0.335062
0.788223 0.403426 0.351646
0.106740 0.285327 0.320207
0.225861 0.358544 0.383121
0.367499 0.423254 0.420937
0.613448 0.444931 0.382743
0.769333 0.492957 0.387669
0.843184 0.552955 0.426554
0.172658 0.398976 0.388244
0.318877 0.494824 0.463961
0.483656 0.570273 0.504213
0.666000 0.603335 0.472368
0.791681 0.630176 0.486386
0.867059 0.674402 0.519726
0.278425 0.543431 0.503769
0.453108 0.639205 0.579847
0.613928 0.697075 0.614670
0.732727 0.735685 0.605703
0.815865 0.759905 0.596740
0.885393 0.752794 0.609228
0.427435 0.706156 0.642090
0.584642 0.765188 0.692301
0.720185 0.807022 0.714545
0.799555 0.838244 0.724433
0.853021 0.852485 0.709008
0.900992 0.864223 0.699061
0.048002 0.103506 0.250017
0.142708 0.143486 0.299740
0.261381 0.188473 0.367112
0.432900 0.248968 0.427175
0.606483 0.309774 0.466039
0.713200 0.361729 0.509584
0.073144 0.223987 0.328454
0.194979 0.282666 0.401969
0.336790 0.346248 0.469582
0.499323 0.414714 0.523142
0.673263 0.483973 0.554345
0.780784 0.539639 0.586585
0.120823 0.326178 0.408393
0.254743 0.421598 0.493014
0.404906 0.494563 0.563015
0.557246 0.546259 0.604316
0.744445 0.600419 0.603253
0.843217 0.649782 0.620204
0.193524 0.455692 0.493094
0.361810 0.553654 0.598554
0.493618 0.627562 0.655918
0.626714 0.673187 0.681374
0.798031 0.694233 0.650584
0.879494 0.728603 0.657216
0.303926 0.606575 0.606409
0.493592 0.707609 0.703448
0.600283 0.754831 0.738014
0.715536 0.792760 0.747775
0.823784 0.804404 0.724367
0.887770 0.815285 0.712371
0.440819 0.746477 0.717414
0.598349 0.813315 0.784372
0.687357 0.841510 0.810329
0.795000 0.874872 0.817676
0.851288 0.891274 0.808970
0.911813 0.888881 0.778322
0.068167 0.140819 0.348137
0.172944 0.187932 0.410870
0.319147 0.255008 0.511224
0.475371 0.348658 0.604885
0.621823 0.417069 0.649245
0.735934 0.477893 0.677357
0.089235 0.267144 0.426693
0.228352 0.333953 0.515121
0.406568 0.411997 0.599761
0.542973 0.488891 0.664008
0.666550 0.556856 0.715105
0.781130 0.624680 0.740280
0.135895 0.385321 0.504773
0.288832 0.484340 0.607107
0.478968 0.564841 0.685079
0.601580 0.612144 0.718146
0.714405 0.673671 0.767973
0.823529 0.717495 0.766615
0.215812 0.517564 0.600731
0.389965 0.609977 0.702681
0.543197 0.686709 0.754172
0.651952 0.722220 0.778848
0.768385 0.759164 0.804597
0.863664 0.787768 0.777805
0.328927 0.655473 0.687907
0.522028 0.739540 0.782858
0.628075 0.783964 0.822174
0.707094 0.812408 0.834753
0.811420 0.841584 0.843503
0.894370 0.852339 0.818331
0.462166 0.776752 0.771981
0.628160 0.848399 0.847117
0.706775 0.877752 0.872371
0.775937 0.907044 0.892244
0.855226 0.926351 0.885190
0.922801 0.919162 0.875702
0.082193 0.178959 0.460053
0.209780 0.234044 0.538492
0.366651 0.300245 0.640418
0.540245 0.410603 0.737661
0.653743 0.480189 0.793869
0.757263 0.571013 0.837611
0.105959 0.311529 0.533554
0.266142 0.377626 0.633191
0.463279 0.456727 0.718402
0.619492 0.539924 0.778528
0.710572 0.606745 0.825971
0.790481 0.687988 0.871966
0.154590 0.445688 0.602742
0.321998 0.525534 0.706765
0.545101 0.612372 0.790704
0.682461 0.664477 0.822456
0.759462 0.717083 0.846531
0.821244 0.770913 0.890642
0.242179 0.558317 0.689819
0.420163 0.649046 0.780509
0.597954 0.725884 0.828222
0.717604 0.761222 0.852835
0.803808 0.799919 0.875718
0.855931 0.836160 0.893842
0.347032 0.680373 0.756850
0.528136 0.758955 0.842575
0.661776 0.810746 0.877293
0.745355 0.833323 0.879009
0.820617 0.864010 0.901749
0.887029 0.889677 0.916744
0.474890 0.796167 0.820197
0.645328 0.864032 0.896519
0.739640 0.898045 0.928242
0.796686 0.912415 0.936615
0.848808 0.936637 0.951294
0.918056 0.949609 0.950691
