assets/lut/editingcorpw Bluebell Bliss.cube
LUT_3D_SIZE 6
DOMAIN_MIN 0.0 0.0 0.0
DOMAIN_MAX 1.0 1.0 1.0
0.018708 0.018708 0.018708
0.020685 0.020685 0.020685
0.060357 0.051850 0.051127
0.262446 0.051845 0.027560
0.596985 0.117513 0.138272
0.770657 0.292699 0.209110
0.025693 0.025718 0.025699
0.032416 0.032457 0.032295
0.114984 0.067900 0.050491
0.421297 0.079438 0.060707
0.670956 0.196125 0.171230
0.790582 0.364809 0.209345
0.061598 0.119938 0.081403
0.068594 0.137001 0.081721
0.166440 0.153636 0.040264
0.513226 0.207722 0.083966
0.729858 0.319103 0.183176
0.797620 0.422948 0.196781
0.040709 0.331774 0.165699
0.062347 0.349875 0.168934
0.158309 0.422681 0.156819
0.585581 0.469534 0.107208
0.774163 0.542935 0.163890
0.796125 0.614508 0.165984
0.084785 0.636823 0.277555
0.106906 0.650930 0.278559
0.212513 0.719445 0.255982
0.608347 0.838168 0.267674
0.765345 0.791277 0.186848
0.788165 0.762026 0.173977
0.150607 0.886198 0.370932
0.175149 0.894023 0.368463
0.301471 0.929472 0.348198
0.589217 0.952040 0.330925
0.798914 0.970260 0.344961
0.828824 0.971832 0.339483
0.021073 0.021079 0.021079
0.023865 0.023879 0.023884
0.057809 0.050977 0.051605
0.259672 0.051678 0.037134
0.598572 0.122897 0.154162
0.771048 0.296180 0.227124
0.032411 0.032678 0.032749
0.041425 0.041912 0.042071
0.111906 0.073869 0.067292
0.413891 0.080530 0.075321
0.668464 0.198232 0.189391
0.790263 0.365012 0.231845
0.060238 0.125223 0.101817
0.066484 0.140191 0.110369
0.160095 0.150183 0.070061
0.498328 0.204711 0.100365
0.717948 0.308335 0.203084
0.797106 0.411467 0.225296
0.042939 0.331824 0.197711
0.063678 0.347102 0.201981
0.154235 0.405412 0.180143
0.573534 0.466130 0.130283
0.774528 0.537212 0.191500
0.799318 0.616048 0.193541
0.090990 0.638857 0.309013
0.113005 0.651582 0.309746
0.203833 0.700998 0.280965
0.592206 0.823711 0.286221
0.767186 0.788661 0.214188
0.792241 0.763296 0.200682
0.155504 0.885979 0.406366
0.179263 0.892980 0.404402
0.293408 0.926949 0.375475
0.576619 0.949160 0.359141
0.796533 0.968177 0.368826
0.832828 0.970269 0.364010
0.052589 0.102509 0.119446
0.053125 0.108191 0.126266
0.068110 0.099746 0.109206
0.212278 0.107006 0.114334
0.583975 0.194290 0.189125
0.772030 0.309691 0.252900
0.040800 0.134923 0.168832
0.042575 0.148162 0.186160
0.072394 0.148164 0.175432
0.280503 0.173954 0.159362
0.647848 0.292156 0.253419
0.795598 0.392366 0.273152
0.035106 0.171013 0.212556
0.047322 0.185955 0.228514
0.078034 0.206491 0.247689
0.379658 0.241305 0.207227
0.693120 0.332230 0.263334
0.800534 0.420439 0.268732
0.077337 0.394558 0.388096
0.102337 0.414143 0.405505
0.126070 0.431051 0.380679
0.476837 0.492307 0.280600
0.747921 0.557505 0.251033
0.803202 0.629284 0.227626
0.150207 0.695584 0.571755
0.172474 0.704084 0.576017
0.180961 0.699091 0.481964
0.492936 0.775190 0.377023
0.752590 0.804743 0.295063
0.794944 0.779074 0.231376
0.190312 0.881591 0.673751
0.211207 0.884524 0.672416
0.241354 0.900561 0.568689
0.523573 0.943898 0.461049
0.750009 0.963704 0.437880
0.845574 0.968264 0.417652
0.026995 0.313471 0.414477
0.034819 0.319648 0.419126
0.054914 0.298887 0.384784
0.102138 0.282543 0.343843
0.459872 0.303498 0.227944
0.754626 0.443866 0.411142
0.046272 0.363387 0.478197
0.064777 0.383866 0.499553
0.099855 0.371278 0.468063
0.142876 0.362071 0.402916
0.558504 0.378475 0.263795
0.817068 0.524015 0.532908
0.066424 0.402444 0.522467
0.086052 0.416587 0.535073
0.100951 0.420055 0.535980
0.166031 0.407683 0.471090
0.600304 0.434207 0.356653
0.850759 0.583987 0.635122
0.082080 0.441186 0.558424
0.105275 0.455539 0.571223
0.140019 0.489305 0.600056
0.269802 0.558288 0.653707
0.704788 0.608014 0.611985
0.886450 0.664008 0.696105
0.147112 0.634240 0.730068
0.171926 0.646589 0.738284
0.210097 0.695882 0.760592
0.297759 0.745676 0.774737
0.773991 0.812514 0.668266
0.900735 0.810134 0.600938
0.217632 0.874533 0.916927
0.240770 0.879948 0.921068
0.261142 0.881363 0.877626
0.389884 0.906007 0.800522
0.742689 0.959008 0.678102
0.888378 0.969748 0.597444
0.115450 0.563125 0.723897
0.125410 0.568464 0.727731
0.141793 0.559847 0.710727
0.170794 0.547542 0.680524
0.270596 0.546651 0.645750
0.739166 0.560433 0.667045
0.140214 0.613183 0.775817
0.160515 0.631065 0.791484
0.184010 0.631960 0.782626
0.203533 0.622244 0.763017
0.388828 0.632425 0.718991
0.812525 0.629109 0.777634
0.148441 0.643102 0.805653
0.167463 0.652834 0.813083
0.182649 0.650229 0.810456
0.201662 0.639312 0.789298
0.446682 0.661539 0.738884
0.836275 0.657977 0.807558
0.152339 0.666210 0.827132
0.173139 0.673194 0.831556
0.193507 0.676525 0.833876
0.213669 0.682050 0.838996
0.530441 0.713154 0.783204
0.872543 0.710186 0.854232
0.158792 0.693995 0.849205
0.182133 0.702069 0.854289
0.210484 0.718598 0.864778
0.243839 0.746972 0.885766
0.680083 0.809022 0.856824
0.925463 0.819774 0.909117
0.188397 0.784875 0.920799
0.212521 0.792396 0.922830
0.241696 0.811242 0.927173
0.273131 0.836349 0.933041
0.733280 0.907238 0.921822
0.946111 0.970693 0.875205
0.171420 0.699107 0.875975
0.179483 0.699373 0.874800
0.198455 0.699799 0.870665
0.216753 0.695706 0.862212
0.230497 0.684440 0.848587
0.733181 0.679805 0.889967
0.176943 0.712007 0.887145
0.190369 0.714917 0.887659
0.211727 0.716945 0.883963
0.226072 0.709177 0.874915
0.328617 0.709116 0.842328
0.825452 0.684901 0.901893
0.174442 0.723541 0.900272
0.189598 0.724604 0.899531
0.206620 0.723384 0.897518
0.223082 0.715342 0.884896
0.391528 0.725710 0.839400
0.847688 0.699425 0.901807
0.171253 0.732005 0.908672
0.189903 0.732760 0.905930
0.207263 0.727764 0.898696
0.226600 0.725605 0.892599
0.468003 0.747025 0.838861
0.875243 0.729875 0.916053
0.172848 0.744792 0.914284
0.193902 0.746028 0.911191
0.217907 0.750688 0.909590
0.248770 0.767891 0.914015
0.654705 0.817485 0.874837
0.924251 0.821735 0.930413
0.183749 0.777554 0.928206
0.207092 0.782214 0.926485
0.236489 0.798932 0.928099
0.268123 0.821209 0.932070
0.745604 0.894975 0.920409
0.950866 0.971145 0.880034
