assets/lut/editingcorp seges.cube
# Created by: G'MIC (https://gmic.eu)
TITLE "seges"
# LUT size
LUT_3D_SIZE 13
# Data domain
DOMAIN_MIN 0.0 0.0 0.0
DOMAIN_MAX 1.0 1.0 1.0
# LUT data points
0.037768837064504623 0.034465566277503967 0.065512731671333313
0.1225740909576416 0.040316503494977951 0.063929736614227295
0.21732822060585022 0.048859074711799622 0.065836884081363678
0.30798143148422241 0.069486550986766815 0.068571306765079498
0.39331832528114319 0.086603708565235138 0.065516076982021332
0.47112691402435303 0.097528748214244843 0.071735888719558716
0.53762316703796387 0.11002257466316223 0.077703945338726044
0.58865809440612793 0.11347885429859161 0.090281330049037933
0.62726277112960815 0.12841883301734924 0.080863490700721741
0.66589027643203735 0.1386311799287796 0.077989764511585236
0.70914971828460693 0.14285403490066528 0.083401687443256378
0.75466108322143555 0.14972582459449768 0.097744584083557129
0.79976946115493774 0.15923124551773071 0.10099776089191437
0.035872768610715866 0.11144340038299561 0.051109135150909424
0.1283210813999176 0.10791836678981781 0.04298839345574379
0.21741756796836853 0.11719204485416412 0.041252404451370239
0.30356618762016296 0.13441050052642822 0.053315285593271255
0.39123225212097168 0.14321377873420715 0.052907519042491913
0.47350171208381653 0.14428494870662689 0.060251049697399139
0.54334396123886108 0.15692406892776489 0.064471840858459473
0.59613358974456787 0.17069555819034576 0.07399526983499527
0.63995587825775146 0.17393408715724945 0.077081955969333649
0.67834758758544922 0.17266233265399933 0.080931872129440308
0.71986836194992065 0.16648425161838531 0.088383182883262634
0.76573854684829712 0.16212433576583862 0.10281664133071899
0.8115113377571106 0.16942062973976135 0.11044804006814957
0.044558238238096237 0.20407475531101227 0.018792156130075455
0.12584073841571808 0.19388884305953979 0.018459049984812737
0.20846289396286011 0.18706949055194855 0.0126151442527771
0.29212439060211182 0.1914806067943573 0.013922642916440964
0.37942036986351013 0.20088373124599457 0.027311258018016815
0.46393519639968872 0.20786944031715393 0.038566842675209045
0.53906124830245972 0.22053401172161102 0.049789056181907654
0.59695500135421753 0.23555111885070801 0.061045389622449875
0.6424601674079895 0.23824517428874969 0.066885225474834442
0.68072777986526489 0.2357373982667923 0.067796744406223297
0.71973669528961182 0.23202243447303772 0.076231934130191803
0.76370251178741455 0.2256024032831192 0.088009238243103027
0.8123660683631897 0.21902315318584442 0.10070591419935226
0.066414713859558105 0.28529936075210571 0.0019324208842590451
0.13582679629325867 0.27667087316513062 0.006730307824909687
0.20088575780391693 0.26729825139045715 0.0039616753347218037
0.2768397331237793 0.261466383934021 0.00048703959328122437
0.36314395070075989 0.26183101534843445 0.0035183026921004057
0.44988355040550232 0.26542270183563232 0.0098377000540494919
0.52994942665100098 0.27230903506278992 0.021627508103847504
0.59436124563217163 0.28224745392799377 0.041462406516075134
0.64260530471801758 0.28759965300559998 0.046607822179794312
0.68300002813339233 0.28931957483291626 0.053164344280958176
0.72276216745376587 0.29210898280143738 0.070649027824401855
0.76534813642501831 0.29312491416931152 0.079659402370452881
0.81269484758377075 0.28825947642326355 0.082823842763900757
0.08198210597038269 0.36216491460800171 0
0.14648319780826569 0.35544431209564209 3.7339155824156478e-05
0.20465512573719025 0.34687367081642151 0.00014079973334446549
0.27071493864059448 0.33892378211021423 0.00028996187029406428
0.35075840353965759 0.33269742131233215 0.000303769571473822
0.43723326921463013 0.32884800434112549 0.00056844973005354404
0.52000212669372559 0.32841882109642029 0.0055857640691101551
0.58879381418228149 0.33112123608589172 0.021347420290112495
0.64119118452072144 0.33424568176269531 0.030781989917159081
0.68515563011169434 0.33696290850639343 0.037502843886613846
0.72781658172607422 0.33982506394386292 0.05520356073975563
0.77245575189590454 0.34194120764732361 0.076366305351257324
0.81847143173217773 0.34167578816413879 0.079981468617916107
0.097268201410770416 0.43653696775436401 0
0.16061690449714661 0.4308260977268219 0
0.21719606220722198 0.42274612188339233 0
0.27670779824256897 0.41410547494888306 0
0.34713667631149292 0.40563839673995972 0
0.42710420489311218 0.39785635471343994 0
0.50740885734558105 0.39178097248077393 0.0016987370327115059
0.57873237133026123 0.38786816596984863 0.012176617980003357
0.63685113191604614 0.38576006889343262 0.03206857293844223
0.68488556146621704 0.38505738973617554 0.041619859635829926
0.72974199056625366 0.38554048538208008 0.048629701137542725
0.77614349126815796 0.38612496852874756 0.065532296895980835
0.82244467735290527 0.38582253456115723 0.07436225563287735
0.1132567897439003 0.50714230537414551 0
0.17670914530754089 0.50182288885116577 0
0.23285588622093201 0.49399226903915405 0
0.28849342465400696 0.4852670431137085 0
0.35030236840248108 0.47662508487701416 0
0.42034253478050232 0.46795403957366943 0
0.49453672766685486 0.45902106165885925 0.0014554491499438882
0.56630498170852661 0.4497520923614502 0.010507097467780113
0.62923246622085571 0.44133630394935608 0.03411395475268364
0.68179810047149658 0.43508720397949219 0.046412494033575058
0.72913151979446411 0.43165168166160583 0.047398451715707779
0.77637845277786255 0.42971161007881165 0.055190712213516235
0.82325470447540283 0.42762821912765503 0.061148371547460556
0.12545199692249298 0.57366496324539185 0
0.19025556743144989 0.56837600469589233 0
0.24690341949462891 0.56093162298202515 0
0.29976114630699158 0.55289930105209351 0
0.35460951924324036 0.5451321005821228 0
0.41542074084281921 0.53750216960906982 0
0.48298764228820801 0.52822744846343994 0.0017049602465704083
0.55377614498138428 0.51634705066680908 0.0090067842975258827
0.62121301889419556 0.50298547744750977 0.027356959879398346
0.6790308952331543 0.49219849705696106 0.038511596620082855
0.72915607690811157 0.48575326800346375 0.042732551693916321
0.77760607004165649 0.48028337955474854 0.048388075083494186
0.82593619823455811 0.47495850920677185 0.051259372383356094
0.13139371573925018 0.63653433322906494 0
0.19803227484226227 0.63106310367584229 0
0.25608041882514954 0.62410378456115723 0
0.30793404579162598 0.61690306663513184 0
0.35821965336799622 0.61068606376647949 0
0.4118143618106842 0.6049877405166626 0
0.47277429699897766 0.59823280572891235 0.00089944578940048814
0.5427854061126709 0.58818900585174561 0.006151790264993906
0.61536610126495361 0.57525169849395752 0.017999941483139992
0.67865163087844849 0.56230109930038452 0.020719850435853004
0.73175042867660522 0.55263239145278931 0.023374520242214203
0.78246647119522095 0.54644525051116943 0.038748003542423248
0.83223074674606323 0.54030013084411621 0.050854448229074478
0.13054926693439484 0.69666767120361328 0
0.19909721612930298 0.69099491834640503 0
0.25942167639732361 0.68390119075775146 0
0.31192222237586975 0.67729687690734863 0
0.36021429300308228 0.67225009202957153 1.2251910447957925e-05
0.4090779721736908 0.66874068975448608 0.00062154134502634406
0.46491691470146179 0.66547077894210815 0.0022033690474927425
0.5339159369468689 0.66048926115036011 0.0063612246885895729
0.61212718486785889 0.65468168258666992 0.011585070751607418
0.68260252475738525 0.64702737331390381 0.0064112944528460503
0.73804837465286255 0.63568544387817383 0.0062306872569024563
0.78935712575912476 0.62904304265975952 0.022285191342234612
0.8392598032951355 0.6212725043296814 0.036298878490924835
0.12313935160636902 0.75538372993469238 0
0.19350104033946991 0.74925237894058228 2.7809890525531955e-05
0.25627246499061584 0.74173581600189209 0.00013652128109242767
0.31148064136505127 0.73497164249420166 2.6254092517774552e-05
0.36000216007232666 0.7300117015838623 0.00083604699466377497
0.40629810094833374 0.72747904062271118 0.0041930554434657097
0.45856750011444092 0.72617125511169434 0.011675786226987839
0.52520656585693359 0.7241818904876709 0.014053658582270145
0.60457819700241089 0.72275441884994507 0.010325802490115166
0.68114364147186279 0.72094881534576416 0.0025668723974376917
0.74064010381698608 0.7145959734916687 0.00077906588558107615
0.7931208610534668 0.71166414022445679 0.0033329534344375134
0.84346693754196167 0.70375275611877441 0.0050461860373616219
0.11035990715026855 0.81356334686279297 0
0.18160189688205719 0.80706536769866943 0
0.24677519500255585 0.79950368404388428 0
0.3048674464225769 0.79206877946853638 1.9253002392360941e-05
0.35521304607391357 0.78659814596176147 0.00083449122030287981
0.39985388517379761 0.78415638208389282 0.0049400627613067627
0.44862827658653259 0.78259801864624023 0.013158686459064484
0.510151207447052 0.78004837036132812 0.013782920315861702
0.58572810888290405 0.77357566356658936 0.0065986635163426399
0.66345632076263428 0.76780706644058228 0.0010003781644627452
0.73062229156494141 0.77139312028884888 0
0.78823006153106689 0.77601540088653564 0
0.84143519401550293 0.77314096689224243 0
0.093307122588157654 0.87221682071685791 0
0.16437582671642303 0.86566716432571411 0
0.23044876754283905 0.85835868120193481 0
0.28978434205055237 0.85108309984207153 0
0.34189128875732422 0.8454887866973877 1.8669577912078239e-05
0.38742566108703613 0.84248900413513184 0.00087824801448732615
0.43472087383270264 0.84076327085494995 0.0039561851881444454
0.49149307608604431 0.83729374408721924 0.0027994790580123663
0.56325757503509521 0.82819885015487671 0.00029812980210408568
0.64129328727722168 0.82087475061416626 0
0.71323007345199585 0.82515031099319458 0
0.77657490968704224 0.83209681510925293 0
0.83406782150268555 0.83352994918823242 0
0.040252145379781723 0.033721115440130234 0.14297603070735931
0.11502890288829803 0.028881432488560677 0.14725172519683838
0.2036931961774826 0.027902116999030113 0.14964276552200317
0.3010391891002655 0.046807233244180679 0.15617963671684265
0.39296385645866394 0.059007111936807632 0.16234079003334045
0.4703613817691803 0.07213883101940155 0.15979111194610596
0.53294384479522705 0.084197700023651123 0.16325183212757111
0.58697199821472168 0.09125722199678421 0.17244014143943787
0.62879103422164917 0.10996633768081665 0.15402431786060333
0.66882979869842529 0.12264598906040192 0.14144529402256012
0.71022754907608032 0.13818007707595825 0.1276770681142807
0.75550419092178345 0.1532970517873764 0.11560517549514771
0.80077964067459106 0.16440759599208832 0.10688243061304092
0.035890392959117889 0.11050278693437576 0.14477927982807159
0.12217094749212265 0.10768360644578934 0.14169858396053314
0.21585150063037872 0.11009340733289719 0.13500860333442688
0.30697226524353027 0.13091687858104706 0.14974582195281982
0.39667052030563354 0.13781349360942841 0.15988954901695251
0.47864797711372375 0.14559553563594818 0.15461896359920502
0.54752254486083984 0.15654191374778748 0.15701161324977875
0.59987843036651611 0.16798345744609833 0.1654544472694397
0.64375001192092896 0.17223033308982849 0.15491853654384613
0.68382459878921509 0.16414257884025574 0.14289340376853943
0.72594976425170898 0.16076084971427917 0.13053350150585175
0.77181947231292725 0.16213512420654297 0.11735384911298752
0.81568819284439087 0.17173673212528229 0.11096486449241638
0.033190485090017319 0.2050912082195282 0.11423257738351822
0.11622270941734314 0.20107217133045197 0.10916166007518768
0.20974539220333099 0.19373969733715057 0.094918988645076752
0.29665294289588928 0.19820240139961243 0.10142573714256287
0.38693326711654663 0.20784084498882294 0.11571899056434631
0.47105509042739868 0.21683230996131897 0.11287005245685577
0.54571342468261719 0.23027968406677246 0.12558417022228241
0.603321373462677 0.24579332768917084 0.14429926872253418
0.64790970087051392 0.24954709410667419 0.14131879806518555
0.68633776903152466 0.24422779679298401 0.11890384554862976
0.72657763957977295 0.2380598783493042 0.09927532821893692
0.77216613292694092 0.22741463780403137 0.094098202884197235
0.81886261701583862 0.22298808395862579 0.093106001615524292
0.049030378460884094 0.29089686274528503 0.057626433670520782
0.12474775314331055 0.28590932488441467 0.060721378773450851
0.20270815491676331 0.27562206983566284 0.039369590580463409
0.28396126627922058 0.26751887798309326 0.024027371779084206
0.37314227223396301 0.2667643129825592 0.041044842451810837
0.45763891935348511 0.27002125978469849 0.04394105076789856
0.53605276346206665 0.27633106708526611 0.052169844508171082
0.59942179918289185 0.28912115097045898 0.085147783160209656
0.64728325605392456 0.29603242874145508 0.088983200490474701
0.68863600492477417 0.29661825299263 0.076305732131004333
0.73039710521697998 0.29622706770896912 0.074131608009338379
0.77464085817337036 0.29464989900588989 0.075798660516738892
0.82057863473892212 0.28963106870651245 0.068549185991287231
0.069432109594345093 0.37048974633216858 0.011113245040178299
0.13927009701728821 0.36549362540245056 0.013044245541095734
0.20649592578411102 0.35598623752593994 0.0051253074780106544
0.2770136296749115 0.34609410166740417 0.00028539920458570123
0.3590855598449707 0.33872967958450317 0.000573206867557019
0.44499099254608154 0.33296534419059753 0.0015257592312991619
0.52655607461929321 0.33082246780395508 0.0035500619560480118
0.59475904703140259 0.33488482236862183 0.021155772730708122
0.64737802743911743 0.33853742480278015 0.03622022271156311
0.6913263201713562 0.33921545743942261 0.038162756711244583
0.735576331615448 0.33933806419372559 0.045319829136133194
0.78195673227310181 0.34216466546058655 0.066557943820953369
0.82713305950164795 0.34195131063461304 0.06640007346868515
0.093847908079624176 0.44662845134735107 7.4050003604497761e-05
0.16047316789627075 0.44147732853889465 2.2215001081349328e-05
0.22081156075000763 0.43254083395004272 0
0.28234785795211792 0.42232403159141541 0
0.35357874631881714 0.41221892833709717 0
0.4333813488483429 0.40223971009254456 0
0.51461899280548096 0.39459359645843506 0
0.58792006969451904 0.39057496190071106 0.00042474785004742444
0.64748966693878174 0.38815346360206604 0.0211142897605896
0.69397127628326416 0.38602820038795471 0.037996433675289154
0.73820686340332031 0.38558393716812134 0.042496070265769958
0.78579193353652954 0.38823205232620239 0.058121055364608765
0.83195191621780396 0.38966244459152222 0.069787941873073578
0.1175989955663681 0.51817578077316284 0
0.18380507826805115 0.5128018856048584 0
0.24080801010131836 0.50386571884155273 0
0.29544675350189209 0.49373897910118103 0
0.35582628846168518 0.48318618535995483 0
0.42540150880813599 0.47266322374343872 0
0.50175893306732178 0.46237108111381531 0
0.57684385776519775 0.45253434777259827 2.6628082196111791e-05
0.64176535606384277 0.44380229711532593 0.013434167020022869
0.69255304336547852 0.43749880790710449 0.037564791738986969
0.73789060115814209 0.43515512347221375 0.044465396553277969
0.78485703468322754 0.43447411060333252 0.051874510943889618
0.83157873153686523 0.43309703469276428 0.064570769667625427
0.13346254825592041 0.58480226993560791 0
0.2014235258102417 0.57941979169845581 0
0.25810199975967407 0.5710645318031311 0
0.3087373673915863 0.56159704923629761 0
0.36096000671386719 0.55245834589004517 0
0.42086660861968994 0.54353559017181396 0
0.49003249406814575 0.53346925973892212 0
0.56402128934860229 0.52095168828964233 4.7870712478470523e-06
0.63362008333206177 0.50687438249588013 0.0038632410578429699
0.69133716821670532 0.49671646952629089 0.016213182359933853
0.74019348621368408 0.49224841594696045 0.02812742255628109
0.78685325384140015 0.48720905184745789 0.041781764477491379
0.8333776593208313 0.48079055547714233 0.054545190185308456
0.13960516452789307 0.64750683307647705 0
0.20980098843574524 0.64211660623550415 0
0.26834097504615784 0.63439995050430298 0
0.31805959343910217 0.62620395421981812 0
0.36556428670883179 0.61899334192276001 0
0.41757175326347351 0.61315256357192993 0
0.47979578375816345 0.60620576143264771 0
0.55245488882064819 0.59517353773117065 0.00035416847094893456
0.62772631645202637 0.58083003759384155 0.0030305599793791771
0.6922641396522522 0.5691109299659729 0.0045332815498113632
0.74452215433120728 0.56139534711837769 0.0066150440834462643
0.79261529445648193 0.55288684368133545 0.022611789405345917
0.8404616117477417 0.5438995361328125 0.050340600311756134
0.13717427849769592 0.70741432905197144 0
0.20925538241863251 0.70166385173797607 0
0.27031859755516052 0.69437414407730103 0
0.32150402665138245 0.68711906671524048 0
0.36751827597618103 0.68157947063446045 0
0.41471904516220093 0.67810124158859253 0
0.47167089581489563 0.67502295970916748 0.0048115598037838936
0.54346382617950439 0.66882288455963135 0.012029849924147129
0.62317603826522827 0.66125261783599854 0.0072215958498418331
0.69440537691116333 0.65376102924346924 0.00054001156240701675
0.75023329257965088 0.64364677667617798 8.5853127529844642e-05
0.79932081699371338 0.63309913873672485 0.0041955537162721157
0.84768533706665039 0.62213927507400513 0.021985700353980064
0.1271350085735321 0.76557457447052002 0
0.20056688785552979 0.7595515251159668 0
0.26464012265205383 0.7523646354675293 0
0.31875866651535034 0.74520105123519897 0
0.36551693081855774 0.73992913961410522 0
0.41123309731483459 0.73667579889297485 4.2934043449349701e-06
0.46496731042861938 0.73448348045349121 0.0089465426281094551
0.53385823965072632 0.73191016912460327 0.015304984524846077
0.6142839789390564 0.72998195886611938 0.0045091365464031696
0.69048178195953369 0.7276884913444519 0
0.75104343891143799 0.72194808721542358 0
0.8026849627494812 0.71430331468582153 1.4959597649522038e-07
0.85209846496582031 0.70371150970458984 6.7916567786596715e-05
0.11255332827568054 0.82322496175765991 0
0.18563640117645264 0.8171113133430481 0
0.25183972716331482 0.80970346927642822 0
0.30924025177955627 0.80249130725860596 0
0.35839638113975525 0.79664617776870728 0
0.40402007102966309 0.79254233837127686 3.8745356505387463e-06
0.45507931709289551 0.78896027803421021 0.0042487052269279957
0.51922649145126343 0.78661453723907471 0.0066431979648768902
0.5961412787437439 0.78345358371734619 0.00027815875364467502
0.67432534694671631 0.78171563148498535 0
0.74154955148696899 0.7824823260307312 0
0.79854714870452881 0.78201520442962646 0
0.85101544857025146 0.77568215131759644 0
0.093319177627563477 0.88120526075363159 0
0.16626106202602386 0.87510055303573608 0
0.23359586298465729 0.86819148063659668 0
0.29326242208480835 0.86117726564407349 0
0.34451165795326233 0.85526788234710693 0
0.39143514633178711 0.85086309909820557 0
0.44131702184677124 0.84708529710769653 0.0005577536066994071
0.50175142288208008 0.84357833862304688 0.00078917859354987741
0.57503306865692139 0.83811521530151367 0
0.65365201234817505 0.83468705415725708 0
0.72577977180480957 0.83766716718673706 0
0.78807294368743896 0.84061658382415771 0
0.84485268592834473 0.83879625797271729 0
0.037299301475286484 0.031302478164434433 0.22062830626964569
0.10352478176355362 0.024705909192562103 0.22411835193634033
0.18497924506664276 0.022710014134645462 0.22590819001197815
0.28561139106750488 0.030428104102611542 0.22984196245670319
0.38979038596153259 0.03849366307258606 0.23670627176761627
0.47458699345588684 0.04233856126666069 0.23786328732967377
0.53783977031707764 0.049142185598611832 0.23867760598659515
0.59044808149337769 0.071301810443401337 0.24611087143421173
0.63405174016952515 0.089743673801422119 0.24420064687728882
0.67270559072494507 0.10141266137361526 0.24142304062843323
0.7102552056312561 0.12022395431995392 0.23424181342124939
0.75202983617782593 0.13533677160739899 0.21793176233768463
0.79730093479156494 0.14928549528121948 0.19286739826202393
0.032026596367359161 0.10770440101623535 0.22563314437866211
0.10253189504146576 0.10379804670810699 0.22683626413345337
0.19498454034328461 0.10110989958047867 0.22709664702415466
0.29796120524406433 0.11196541786193848 0.22910775244235992
0.39551883935928345 0.12399964034557343 0.23834691941738129
0.48073312640190125 0.13010697066783905 0.24361048638820648
0.54795247316360474 0.13917487859725952 0.24588413536548615
0.60200208425521851 0.16072048246860504 0.25482639670372009
0.64747196435928345 0.170455202460289 0.25669363141059875
0.68972092866897583 0.15802137553691864 0.25362482666969299
0.731636643409729 0.15104842185974121 0.2414209246635437
0.77444016933441162 0.1477188915014267 0.22778606414794922
0.81765300035476685 0.15577447414398193 0.20623540878295898
0.024669677019119263 0.19765812158584595 0.21478095650672913
0.096269913017749786 0.19862362742424011 0.21254715323448181
0.19336451590061188 0.19336938858032227 0.21222436428070068
0.29509881138801575 0.1982090026140213 0.21606960892677307
0.39024412631988525 0.21216078102588654 0.22639153897762299
0.47503134608268738 0.2201540619134903 0.23203839361667633
0.54740369319915771 0.23205025494098663 0.23644496500492096
0.60693979263305664 0.24921810626983643 0.24749833345413208
0.65440309047698975 0.25634676218032837 0.25073209404945374
0.69611328840255737 0.24667863547801971 0.23956306278705597
0.73730790615081787 0.23609703779220581 0.21473953127861023
0.78119361400604248 0.22836883366107941 0.20045068860054016
0.82720327377319336 0.22980430722236633 0.18153566122055054
0.029102714732289314 0.28596910834312439 0.17897321283817291
0.10168521106243134 0.28734567761421204 0.17508865892887115
0.19189368188381195 0.28100571036338806 0.16406174004077911
0.28605642914772034 0.27527159452438354 0.15227368474006653
0.38010340929031372 0.27483841776847839 0.17389915883541107
0.46339178085327148 0.27960774302482605 0.17989081144332886
0.53858011960983276 0.28701674938201904 0.18489538133144379
0.60395520925521851 0.30075269937515259 0.20477250218391418
0.65375465154647827 0.30954557657241821 0.20995208621025085
0.69561642408370972 0.30922645330429077 0.19943356513977051
0.73979705572128296 0.30722472071647644 0.17872411012649536
0.78492099046707153 0.30747330188751221 0.16961638629436493
0.83101516962051392 0.30549782514572144 0.14037084579467773
0.046279292553663254 0.37206944823265076 0.11497944593429565
0.1207064762711525 0.37000495195388794 0.10872878879308701
0.20022904872894287 0.36207151412963867 0.088375046849250793
0.27854254841804504 0.35250386595726013 0.05180785059928894
0.36611151695251465 0.34388110041618347 0.05453796312212944
0.45046192407608032 0.33856123685836792 0.068866774439811707
0.52907258272171021 0.33793309330940247 0.080141060054302216
0.59868460893630981 0.34368050098419189 0.11262237280607224
0.65311712026596069 0.34963741898536682 0.12435766309499741
0.69619858264923096 0.35009166598320007 0.1283809095621109
0.74222737550735474 0.35005843639373779 0.11816781759262085
0.78909111022949219 0.35300207138061523 0.11366727948188782
0.83327168226242065 0.35019421577453613 0.092589572072029114
0.081862352788448334 0.45197248458862305 0.030852971598505974
0.15268297493457794 0.44812732934951782 0.024053191766142845
0.21887074410915375 0.43938353657722473 0.013952711597084999
0.28480616211891174 0.42874947190284729 0.0046735578216612339
0.3582267165184021 0.41736474633216858 0.002884838730096817
0.43677476048469543 0.40603193640708923 0.0042289583943784237
0.51829069852828979 0.39744973182678223 0.0065682954154908657
0.59406208992004395 0.39399370551109314 0.015170722268521786
0.65508633852005005 0.39287441968917847 0.041468169540166855
0.70152270793914795 0.39094063639640808 0.058049265295267105
0.74634373188018799 0.39044255018234253 0.054028589278459549
0.79232311248779297 0.39262378215789795 0.058888141065835953
0.83792847394943237 0.39292138814926147 0.060988288372755051
0.11591237038373947 0.52561527490615845 0.00027397007215768099
0.18589551746845245 0.52072513103485107 8.3474551502149552e-05
0.24538882076740265 0.51166480779647827 0
0.30060794949531555 0.50040102005004883 0
0.35922038555145264 0.48847267031669617 0
0.42759996652603149 0.4767703115940094 0
0.50608319044113159 0.46521025896072388 0
0.58414947986602783 0.45530468225479126 4.487879323278321e-06
0.65074044466018677 0.44711405038833618 0.0028349633794277906
