assets/lut/editingcorp selor.cube
# Created by: G'MIC (https://gmic.eu)
TITLE "selor"
# LUT size
LUT_3D_SIZE 13
# Data domain
DOMAIN_MIN 0.0 0.0 0.0
DOMAIN_MAX 1.0 1.0 1.0
# LUT data points
0.021080914884805679 0.015844712033867836 0.01325276680290699
0.069184049963951111 0.028346206992864609 0.020611079409718513
0.13859674334526062 0.052900053560733795 0.024742919951677322
0.24025143682956696 0.09732036292552948 0.041877266019582748
0.34202116727828979 0.14460770785808563 0.062647722661495209
0.43998748064041138 0.1935897022485733 0.082959450781345367
0.54323476552963257 0.24415384232997894 0.10991015285253525
0.64257222414016724 0.29514417052268982 0.12963441014289856
0.72813564538955688 0.33969295024871826 0.15448370575904846
0.80082064867019653 0.37911179661750793 0.18502521514892578
0.86083537340164185 0.41392779350280762 0.21498951315879822
0.91808265447616577 0.45612972974777222 0.25960323214530945
0.96979451179504395 0.49881598353385925 0.30843445658683777
0.043045073747634888 0.036935709416866302 0.018169058486819267
0.087107941508293152 0.051391810178756714 0.024382049217820168
0.15361879765987396 0.082762338221073151 0.036392990499734879
0.24448899924755096 0.12591730058193207 0.054119303822517395
0.34645235538482666 0.17208185791969299 0.073945000767707825
0.44391030073165894 0.22048042714595795 0.094353936612606049
0.54556667804718018 0.26836204528808594 0.12043540924787521
0.6425706148147583 0.31480330228805542 0.13968494534492493
0.7308533787727356 0.35774549841880798 0.16266070306301117
0.80198574066162109 0.39682993292808533 0.19404257833957672
0.86803328990936279 0.433635413646698 0.22482290863990784
0.92679363489151001 0.47184112668037415 0.26485270261764526
0.97801107168197632 0.51086628437042236 0.31079554557800293
0.08840496838092804 0.069146506488323212 0.024296645075082779
0.12781229615211487 0.078011065721511841 0.027624810114502907
0.19621255993843079 0.11500399559736252 0.039208848029375076
0.28211838006973267 0.16642345488071442 0.062751159071922302
0.36388000845909119 0.21512028574943542 0.09256039559841156
0.4564659595489502 0.25815805792808533 0.11478928476572037
0.55266690254211426 0.30449691414833069 0.14009793102741241
0.64477890729904175 0.34740719199180603 0.16183677315711975
0.73475992679595947 0.38652294874191284 0.18072153627872467
0.80553489923477173 0.42538410425186157 0.2135155200958252
0.8698275089263916 0.46386197209358215 0.24946236610412598
0.93060261011123657 0.4989398717880249 0.28396579623222351
0.98007845878601074 0.53440266847610474 0.32377120852470398
0.14917872846126556 0.12539383769035339 0.035659715533256531
0.18503957986831665 0.12766298651695251 0.035605382174253464
0.24638375639915466 0.14792613685131073 0.036660976707935333
0.3325255811214447 0.19919441640377045 0.054853986948728561
0.40365955233573914 0.25021335482597351 0.093736104667186737
0.47920969128608704 0.29780340194702148 0.13184882700443268
0.56454479694366455 0.34278079867362976 0.15822257101535797
0.64976423978805542 0.38521471619606018 0.18256357312202454
0.73512065410614014 0.42193305492401123 0.20573188364505768
0.8068925142288208 0.46040931344032288 0.23848211765289307
0.87216413021087646 0.49659693241119385 0.27330431342124939
0.93280422687530518 0.53284001350402832 0.30972456932067871
0.98298937082290649 0.56722891330718994 0.34802436828613281
0.212930828332901 0.18488754332065582 0.043316442519426346
0.24951496720314026 0.18405459821224213 0.038988389074802399
0.29971581697463989 0.18310019373893738 0.02904040738940239
0.3727206289768219 0.22231759130954742 0.044888962060213089
0.4464091956615448 0.2735368013381958 0.080763243138790131
0.52266192436218262 0.32613790035247803 0.12105665355920792
0.59675467014312744 0.37521457672119141 0.1603115051984787
0.6671600341796875 0.42213654518127441 0.20063917338848114
0.74380874633789062 0.45881527662277222 0.22709792852401733
0.81322985887527466 0.49598890542984009 0.2594660222530365
0.87636035680770874 0.52927392721176147 0.29280325770378113
0.93784326314926147 0.56316548585891724 0.32734143733978271
0.98616039752960205 0.60106962919235229 0.37375935912132263
0.28329288959503174 0.24568232893943787 0.050274629145860672
0.31149855256080627 0.24060776829719543 0.042182203382253647
0.35091260075569153 0.22623527050018311 0.027036136016249657
0.41036450862884521 0.24593959748744965 0.0354488305747509
0.48612871766090393 0.29576775431632996 0.067150980234146118
0.56121629476547241 0.34790489077568054 0.10545571893453598
0.63322365283966064 0.39895227551460266 0.14850910007953644
0.69797754287719727 0.44955918192863464 0.19917057454586029
0.76171958446502686 0.49197188019752502 0.2403264194726944
0.82415974140167236 0.53170108795166016 0.28019678592681885
0.88273292779922485 0.56766444444656372 0.31976759433746338
0.93934017419815063 0.60212504863739014 0.35921195149421692
0.98540103435516357 0.63907235860824585 0.40675270557403564
0.34071370959281921 0.30028986930847168 0.059456516057252884
0.36130756139755249 0.29460969567298889 0.051238864660263062
0.39832660555839539 0.27888453006744385 0.031567636877298355
0.44974881410598755 0.27731013298034668 0.030283775180578232
0.52185684442520142 0.31419771909713745 0.053472347557544708
0.59783565998077393 0.36707022786140442 0.093069739639759064
0.66987371444702148 0.42065411806106567 0.13867220282554626
0.7330436110496521 0.46981266140937805 0.18743303418159485
0.79044044017791748 0.51636737585067749 0.23875834047794342
0.84412151575088501 0.56145238876342773 0.29340070486068726
0.8943970799446106 0.60516470670700073 0.34960740804672241
0.94405966997146606 0.64310437440872192 0.39630642533302307
0.98538881540298462 0.67802941799163818 0.44384461641311646
0.38920652866363525 0.3435763418674469 0.049591124057769775
0.41086050868034363 0.34131073951721191 0.044035997241735458
0.44535535573959351 0.33353900909423828 0.033325929194688797
0.49462690949440002 0.31971544027328491 0.024578183889389038
0.55888897180557251 0.33463242650032043 0.03267282247543335
0.63449192047119141 0.38571691513061523 0.071246430277824402
0.70734983682632446 0.43865823745727539 0.11195974797010422
0.77197921276092529 0.48824971914291382 0.16627106070518494
0.8265836238861084 0.53459256887435913 0.22426073253154755
0.87637144327163696 0.58114755153656006 0.28420302271842957
0.91816145181655884 0.62640631198883057 0.34803956747055054
0.95626974105834961 0.67443233728408813 0.41645148396492004
0.98964792490005493 0.71361678838729858 0.47001343965530396
0.45117348432540894 0.39629468321800232 0.043058358132839203
0.47283786535263062 0.39420372247695923 0.039785020053386688
0.50377094745635986 0.39083957672119141 0.032292742282152176
0.55265164375305176 0.3765239417552948 0.02494322881102562
0.61025488376617432 0.37564259767532349 0.02582334540784359
0.68012005090713501 0.41184386610984802 0.047884698957204819
0.75025391578674316 0.45830902457237244 0.081865273416042328
0.81510865688323975 0.50906842947006226 0.14382925629615784
0.86503803730010986 0.55443471670150757 0.20705020427703857
0.90650904178619385 0.59853297472000122 0.27439415454864502
0.94452625513076782 0.64312726259231567 0.34254705905914307
0.9769548773765564 0.69314783811569214 0.41637933254241943
0.99572676420211792 0.74243652820587158 0.48649054765701294
0.52711492776870728 0.45854726433753967 0.034414913505315781
0.54645061492919922 0.45729866623878479 0.033639300614595413
0.57530480623245239 0.45399960875511169 0.028041301295161247
0.61850142478942871 0.44060763716697693 0.023106908425688744
0.66942906379699707 0.42837169766426086 0.019444677978754044
0.73053199052810669 0.44020786881446838 0.026902247220277786
0.79583132266998291 0.4818996787071228 0.062236756086349487
0.85604184865951538 0.53001338243484497 0.1250527948141098
0.90302973985671997 0.5755918025970459 0.19506578147411346
0.93768876791000366 0.61815398931503296 0.26459589600563049
0.96877723932266235 0.6608128547668457 0.33578422665596008
0.98608458042144775 0.70769506692886353 0.41210460662841797
0.99472099542617798 0.75718855857849121 0.48708558082580566
0.61800956726074219 0.52986615896224976 0.031504463404417038
0.63357549905776978 0.52857321500778198 0.029934708029031754
0.65861797332763672 0.52473694086074829 0.026060411706566811
0.69319039583206177 0.50947993993759155 0.020096408203244209
0.73709708452224731 0.4944550096988678 0.013876776210963726
0.78965634107589722 0.48659750819206238 0.022278819233179092
0.84632813930511475 0.51442193984985352 0.055915337055921555
0.89842307567596436 0.55592906475067139 0.11879664659500122
0.93969744443893433 0.59932339191436768 0.18796344101428986
0.96185988187789917 0.63928276300430298 0.26013860106468201
0.97641950845718384 0.67928552627563477 0.33271771669387817
0.98796004056930542 0.72405654191970825 0.40922451019287109
0.99447149038314819 0.77270650863647461 0.48750007152557373
0.716685950756073 0.60797899961471558 0.026234226301312447
0.72891050577163696 0.60421252250671387 0.021587071940302849
0.74818158149719238 0.59782427549362183 0.01620209589600563
0.77952897548675537 0.58299094438552856 0.016229158267378807
0.81553190946578979 0.56542330980300903 0.015780923888087273
0.85724705457687378 0.54506134986877441 0.019787613302469254
0.90208292007446289 0.54910111427307129 0.044343177229166031
0.93483221530914307 0.58587926626205444 0.12335387617349625
0.96006596088409424 0.62619441747665405 0.19454345107078552
0.97295624017715454 0.66706264019012451 0.26845589280128479
0.98143446445465088 0.70704174041748047 0.34376657009124756
0.98797100782394409 0.74478501081466675 0.41341319680213928
0.99195557832717896 0.78049248456954956 0.47845271229743958
0.79855805635452271 0.67831981182098389 0.024649765342473984
0.81519627571105957 0.67490100860595703 0.016786597669124603
0.83695888519287109 0.6676669716835022 0.01605326309800148
0.86489921808242798 0.65558797121047974 0.017672115936875343
0.89380151033401489 0.6366117000579834 0.017516745254397392
0.92256146669387817 0.61327153444290161 0.028803925961256027
0.94147920608520508 0.59888356924057007 0.057958997786045074
0.95443731546401978 0.62087786197662354 0.13154304027557373
0.96628820896148682 0.65744489431381226 0.21189619600772858
0.97525197267532349 0.69891613721847534 0.29454392194747925
0.98156875371932983 0.74061876535415649 0.37163284420967102
0.98682928085327148 0.77870255708694458 0.44270259141921997
0.99103373289108276 0.80172854661941528 0.49052265286445618
0.016170186921954155 0.020007997751235962 0.04481138288974762
0.048927769064903259 0.032387498766183853 0.053212407976388931
0.1280665397644043 0.05391794815659523 0.062875233590602875
0.23045717179775238 0.098375104367733002 0.081702306866645813
0.33025085926055908 0.14826053380966187 0.10498026013374329
0.42661076784133911 0.19212508201599121 0.12343443185091019
0.52610427141189575 0.23966948688030243 0.14486800134181976
0.62438249588012695 0.29287374019622803 0.16721975803375244
0.70990687608718872 0.34048616886138916 0.19186916947364807
0.78438419103622437 0.38055899739265442 0.22040863335132599
0.85340344905853271 0.41622620820999146 0.24356827139854431
0.91872012615203857 0.45688584446907043 0.27787116169929504
0.97252351045608521 0.49838832020759583 0.32170835137367249
0.02281087264418602 0.050050877034664154 0.056888055056333542
0.064010575413703918 0.060905952006578445 0.062536738812923431
0.13697274029254913 0.086277946829795837 0.074862957000732422
0.23810186982154846 0.12864795327186584 0.098901115357875824
0.33748379349708557 0.17472822964191437 0.12052963674068451
0.43237796425819397 0.2148413211107254 0.13566702604293823
0.52906972169876099 0.26026028394699097 0.15422119200229645
0.62680530548095703 0.3107914924621582 0.17506398260593414
0.71804416179656982 0.35606288909912109 0.19723418354988098
0.79133468866348267 0.39693722128868103 0.22619752585887909
0.86058133840560913 0.43305084109306335 0.25483435392379761
0.92570871114730835 0.47348600625991821 0.29004618525505066
0.9793207049369812 0.51452791690826416 0.33202430605888367
0.0529160276055336 0.096574269235134125 0.070433206856250763
0.09848003089427948 0.10110166668891907 0.073341503739356995
0.17597079277038574 0.12530581653118134 0.086275003850460052
0.26207143068313599 0.17084324359893799 0.11308900266885757
0.35031276941299438 0.21610787510871887 0.13674798607826233
0.44751417636871338 0.25766488909721375 0.15517628192901611
0.54199254512786865 0.30040007829666138 0.17206452786922455
0.63305389881134033 0.34184715151786804 0.19041247665882111
0.7252315878868103 0.38474947214126587 0.21028262376785278
0.79777008295059204 0.42326965928077698 0.24048680067062378
0.86561870574951172 0.4624481201171875 0.2723439633846283
0.92928719520568848 0.50214505195617676 0.30930739641189575
0.98174983263015747 0.54070144891738892 0.34969544410705566
0.11120007187128067 0.15454183518886566 0.085395932197570801
0.16217672824859619 0.15697778761386871 0.084459654986858368
0.2325948029756546 0.16309763491153717 0.084624707698822021
0.31563761830329895 0.2052767425775528 0.10988778620958328
0.38626351952552795 0.25479039549827576 0.14408248662948608
0.46463432908058167 0.30140852928161621 0.17424219846725464
0.55410754680633545 0.34326407313346863 0.19443830847740173
0.64303898811340332 0.38422104716300964 0.21260370314121246
0.72872525453567505 0.42139455676078796 0.23376001417636871
0.80231964588165283 0.4590097963809967 0.26195281744003296
0.87129610776901245 0.49707087874412537 0.29291710257530212
0.93312031030654907 0.53663861751556396 0.33289417624473572
0.98546570539474487 0.57298707962036133 0.37290176749229431
0.18743053078651428 0.21287195384502411 0.092212483286857605
0.22944320738315582 0.21266399323940277 0.089766651391983032
0.28884226083755493 0.20214715600013733 0.078571081161499023
0.36036208271980286 0.22533531486988068 0.092232212424278259
0.43404075503349304 0.27732065320014954 0.13082477450370789
0.50556135177612305 0.33040854334831238 0.16906806826591492
0.57805895805358887 0.37779650092124939 0.20079046487808228
0.65502244234085083 0.42267879843711853 0.23155468702316284
0.73902803659439087 0.46171227097511292 0.25683492422103882
0.8115154504776001 0.49645599722862244 0.28630867600440979
0.87642931938171387 0.53150361776351929 0.31914594769477844
0.93705099821090698 0.56924247741699219 0.35756579041481018
0.9853508472442627 0.60800004005432129 0.39976274967193604
0.26589521765708923 0.26860985159873962 0.094239808619022369
0.2962246835231781 0.26484265923500061 0.0913238525390625
0.33944135904312134 0.25001579523086548 0.077022820711135864
0.40081098675727844 0.24900084733963013 0.072731137275695801
0.47518017888069153 0.29586696624755859 0.10938016325235367
0.54983127117156982 0.35113203525543213 0.14939320087432861
0.62203717231750488 0.4034152626991272 0.18745313584804535
0.6912187933921814 0.45441761612892151 0.23176982998847961
0.75430929660797119 0.4986041784286499 0.2755165696144104
0.82036703824996948 0.53535962104797363 0.30924925208091736
0.88160383701324463 0.57104200124740601 0.34469667077064514
0.93920272588729858 0.60660094022750854 0.38438570499420166
0.98584938049316406 0.64480870962142944 0.42806631326675415
0.32842835783958435 0.31735381484031677 0.096558168530464172
0.35126340389251709 0.31292569637298584 0.09241020679473877
0.39131912589073181 0.30140691995620728 0.08158709853887558
0.44274124503135681 0.28731995820999146 0.06995844841003418
0.51121318340301514 0.31258887052536011 0.088492900133132935
0.58867168426513672 0.36808601021766663 0.1249687522649765
0.66257971525192261 0.42219123244285583 0.16655635833740234
0.72823154926300049 0.47355413436889648 0.21687544882297516
0.78468531370162964 0.52222591638565063 0.2714180052280426
0.83853262662887573 0.56886571645736694 0.32121360301971436
0.88904154300689697 0.61049461364746094 0.36878031492233276
0.94064527750015259 0.64762228727340698 0.41265511512756348
0.98703181743621826 0.68299376964569092 0.45804202556610107
0.38587021827697754 0.36555761098861694 0.097818084061145782
0.4067511260509491 0.36163988709449768 0.093591384589672089
0.44593358039855957 0.35476270318031311 0.08473312109708786
0.49456176161766052 0.34155470132827759 0.073651917278766632
0.55307918787002563 0.34199440479278564 0.069743722677230835
0.62816530466079712 0.38565319776535034 0.10006310045719147
0.70331472158432007 0.43982118368148804 0.14451888203620911
0.76828271150588989 0.49116542935371399 0.19882862269878387
0.82551109790802002 0.54084950685501099 0.25618958473205566
0.87199407815933228 0.5877150297164917 0.31341060996055603
0.91292387247085571 0.63415849208831787 0.37412023544311523
0.95309793949127197 0.68116164207458496 0.43524479866027832
0.98754310607910156 0.7205122709274292 0.48793557286262512
0.45381936430931091 0.42113029956817627 0.096705913543701172
0.47399568557739258 0.41731831431388855 0.091884732246398926
0.50905036926269531 0.41094422340393066 0.083500534296035767
0.55684012174606323 0.39848342537879944 0.072522915899753571
0.6093451976776123 0.38862082362174988 0.062788806855678558
0.67829316854476929 0.41221636533737183 0.078649885952472687
0.74947869777679443 0.46143579483032227 0.12397483736276627
0.81010168790817261 0.51143866777420044 0.1815299391746521
0.86582267284393311 0.55999875068664551 0.24090158939361572
0.90413331985473633 0.60482537746429443 0.30538329482078552
0.9406055212020874 0.65129941701889038 0.37129706144332886
0.97580128908157349 0.7003777027130127 0.43934404850006104
0.99222999811172485 0.74226504564285278 0.49790900945663452
0.53237557411193848 0.47984564304351807 0.085428513586521149
0.55071717500686646 0.47739300131797791 0.082703575491905212
0.58421295881271362 0.47223815321922302 0.076479606330394745
0.62765592336654663 0.46116387844085693 0.067841850221157074
0.67354989051818848 0.44848629832267761 0.057810809463262558
0.73031657934188843 0.44484379887580872 0.051534421741962433
0.79375410079956055 0.48479083180427551 0.10404325276613235
0.85516548156738281 0.53387469053268433 0.16567228734493256
0.90207391977310181 0.57935202121734619 0.22772884368896484
0.93781799077987671 0.62390589714050293 0.29426378011703491
0.96619141101837158 0.66783612966537476 0.36173391342163086
0.98388427495956421 0.71404868364334106 0.434102863073349
0.99448853731155396 0.76151710748672485 0.50465238094329834
0.62020015716552734 0.54532289505004883 0.072791077196598053
0.63459914922714233 0.5423588752746582 0.069510050117969513
0.66442906856536865 0.53845292329788208 0.064305625855922699
0.69782644510269165 0.52792924642562866 0.056684814393520355
0.73919785022735596 0.51448088884353638 0.046233981847763062
0.79234039783477783 0.49917176365852356 0.055631060153245926
0.84796804189682007 0.51887518167495728 0.091750726103782654
0.90262323617935181 0.55841505527496338 0.14944078028202057
0.94350379705429077 0.60189855098724365 0.21703164279460907
0.96429860591888428 0.64449560642242432 0.28877252340316772
0.97599834203720093 0.68623596429824829 0.36025127768516541
0.98621898889541626 0.7291141152381897 0.43092843890190125
0.9946216344833374 0.77766978740692139 0.50632995367050171
0.71274870634078979 0.61820387840270996 0.058459263294935226
0.72361129522323608 0.61500328779220581 0.056800827383995056
0.74482202529907227 0.61041980981826782 0.047264609485864639
0.78011316061019897 0.5992661714553833 0.053868431597948074
0.81789857149124146 0.58329606056213379 0.056065667420625687
0.85979557037353516 0.5600743293762207 0.057680346071720123
0.90355217456817627 0.55406856536865234 0.070136919617652893
0.939586341381073 0.58543813228607178 0.13935428857803345
0.96142762899398804 0.630199134349823 0.21986217796802521
0.97161448001861572 0.67353600263595581 0.29888352751731873
0.98000252246856689 0.71515399217605591 0.3729361891746521
0.98833316564559937 0.75446224212646484 0.44113859534263611
0.99381822347640991 0.79272037744522095 0.50653398036956787
0.80060374736785889 0.68884974718093872 0.046281192451715469
0.8147469162940979 0.68688547611236572 0.053891289979219437
0.83632951974868774 0.679618239402771 0.056435707956552505
0.86435854434967041 0.6682664155960083 0.064827144145965576
0.89346194267272949 0.64900058507919312 0.070312708616256714
0.92370146512985229 0.62505930662155151 0.069837979972362518
0.94318121671676636 0.60541224479675293 0.075428381562232971
0.95648574829101562 0.62198692560195923 0.14338849484920502
0.96602892875671387 0.66335737705230713 0.23361340165138245
0.9750058650970459 0.70482110977172852 0.31289252638816833
0.982383131980896 0.74710041284561157 0.39116880297660828
0.98904156684875488 0.78899431228637695 0.46857532858848572
0.99413037300109863 0.82224351167678833 0.53070861101150513
0.015320931561291218 0.026619046926498413 0.10540686547756195
0.02577139250934124 0.036146588623523712 0.11471562087535858
0.10040523856878281 0.065314456820487976 0.12688076496124268
0.2115921676158905 0.10188884288072586 0.14534769952297211
0.31219413876533508 0.14227987825870514 0.16417965292930603
0.41095530986785889 0.18178224563598633 0.17827153205871582
0.51037168502807617 0.23043088614940643 0.19709295034408569
0.60840708017349243 0.28687179088592529 0.22086237370967865
0.69939678907394409 0.34169244766235352 0.24424003064632416
0.77605712413787842 0.3825305700302124 0.26383942365646362
0.84675467014312744 0.41620984673500061 0.28259038925170898
0.91368985176086426 0.45803678035736084 0.31450936198234558
0.97134625911712646 0.50208371877670288 0.35467433929443359
0.0094639947637915611 0.060911305248737335 0.12298570573329926
0.031792540103197098 0.071351520717144012 0.13036024570465088
0.10857464373111725 0.095792584121227264 0.13906094431877136
0.2175457775592804 0.13308180868625641 0.15909525752067566
0.3189774751663208 0.17161314189434052 0.17828162014484406
0.41707184910774231 0.20884183049201965 0.19111743569374084
0.51457804441452026 0.25245177745819092 0.20514236390590668
0.61425602436065674 0.30346971750259399 0.22491870820522308
0.70694988965988159 0.35304206609725952 0.24593193829059601
0.78294414281845093 0.39635130763053894 0.26840683817863464
0.8516845703125 0.43235760927200317 0.29303246736526489
0.9185478687286377 0.47514200210571289 0.32486248016357422
0.9752509593963623 0.52008956670761108 0.36589422821998596
0.015090508386492729 0.1108759418129921 0.14412492513656616
0.047776930034160614 0.12335111200809479 0.15186704695224762
0.12945492565631866 0.14380989968776703 0.15979816019535065
0.23288656771183014 0.17898392677307129 0.17650987207889557
0.32759702205657959 0.21411602199077606 0.19350853562355042
0.42793825268745422 0.25239205360412598 0.207257941365242
0.52489346265792847 0.29478168487548828 0.22119057178497314
0.62332761287689209 0.33893093466758728 0.23604890704154968
0.71279716491699219 0.38347753882408142 0.25764071941375732
0.78937584161758423 0.42212271690368652 0.281485915184021
0.85811948776245117 0.46153396368026733 0.30912178754806519
0.92335504293441772 0.50442659854888916 0.34394857287406921
0.97596043348312378 0.54640072584152222 0.38462814688682556
0.031519107520580292 0.18081498146057129 0.16890345513820648
0.06954231858253479 0.19170850515365601 0.17402960360050201
0.1642681211233139 0.19941206276416779 0.17104910314083099
0.26945191621780396 0.21980510652065277 0.1809375137090683
0.35128840804100037 0.26101988554000854 0.20600685477256775
0.43965771794319153 0.29987600445747375 0.2244320809841156
0.53479915857315063 0.34039992094039917 0.23909460008144379
0.63390201330184937 0.38375738263130188 0.25532349944114685
0.71839803457260132 0.42149335145950317 0.27976632118225098
0.79213160276412964 0.45882353186607361 0.30513238906860352
0.86596119403839111 0.49802282452583313 0.32766532897949219
0.92935860157012939 0.54056274890899658 0.36715763807296753
0.98002201318740845 0.57920050621032715 0.40729054808616638
0.059294339269399643 0.2440628856420517 0.1722743809223175
0.10714046657085419 0.25241059064865112 0.18100027740001678
0.21338629722595215 0.24849753081798553 0.17131225764751434
0.31755161285400391 0.2441801130771637 0.16376793384552002
0.39830577373504639 0.28476423025131226 0.19407445192337036
0.47213047742843628 0.33547094464302063 0.22752469778060913
