assets/lut/editingcorp beati.cube
# Created by: G'MIC (https://gmic.eu)
TITLE "beati"
# LUT size
LUT_3D_SIZE 5
# Data domain
DOMAIN_MIN 0.0 0.0 0.0
DOMAIN_MAX 1.0 1.0 1.0
# LUT data points
0.007692000363022089 0.0060568717308342457 0.022768985480070114
0.38670757412910461 0.071541249752044678 0.057182624936103821
0.64610040187835693 0.12854927778244019 0.12141340970993042
0.75163006782531738 0.14436148107051849 0.13772009313106537
0.80058127641677856 0.16270223259925842 0.14502549171447754
0.14890488982200623 0.28328797221183777 0.12176057696342468
0.32338449358940125 0.27572697401046753 0.13495135307312012
0.61252462863922119 0.26564016938209534 0.15764990448951721
0.76105970144271851 0.26523053646087646 0.16776809096336365
0.81144750118255615 0.25964334607124329 0.16765767335891724
0.21659833192825317 0.57051873207092285 0.19259712100028992
0.30685994029045105 0.55717557668685913 0.20887713134288788
0.55883830785751343 0.53539794683456421 0.24414758384227753
0.78373807668685913 0.48985904455184937 0.23699960112571716
0.83730679750442505 0.45050245523452759 0.22706601023674011
0.1386953741312027 0.7937924861907959 0.17732334136962891
0.2169579416513443 0.79178297519683838 0.18207262456417084
0.45882692933082581 0.79323136806488037 0.22721286118030548
0.77358806133270264 0.78984087705612183 0.26978778839111328
0.87496089935302734 0.72967034578323364 0.27458670735359192
0.16039985418319702 0.86412841081619263 0.17990614473819733
0.16637526452541351 0.86374229192733765 0.17505927383899689
0.38760668039321899 0.85944938659667969 0.22076760232448578
0.68874388933181763 0.88123619556427002 0.25518104434013367
0.87777161598205566 0.88303536176681519 0.27783587574958801
0.032066136598587036 0.051024522632360458 0.25583231449127197
0.33618414402008057 0.056598499417304993 0.26486849784851074
0.64204740524291992 0.093899957835674286 0.27126771211624146
0.75585931539535522 0.10701820254325867 0.25346806645393372
0.80064487457275391 0.12274903059005737 0.23894625902175903
0.053250554949045181 0.25288492441177368 0.27920219302177429
0.26057451963424683 0.26863366365432739 0.24748659133911133
0.61187934875488281 0.26347067952156067 0.24021865427494049
0.76840043067932129 0.27394393086433411 0.24214565753936768
0.81832921504974365 0.27269962430000305 0.23770590126514435
0.21716709434986115 0.55716502666473389 0.27171468734741211
0.30143642425537109 0.55092179775238037 0.26971966028213501
0.55714917182922363 0.53261440992355347 0.29245966672897339
0.78640192747116089 0.49092516303062439 0.27892610430717468
0.84171581268310547 0.45450055599212646 0.26915773749351501
0.13499544560909271 0.79149079322814941 0.23107071220874786
0.21897566318511963 0.7948833703994751 0.23071129620075226
0.45708081126213074 0.79586648941040039 0.26785492897033691
0.76926654577255249 0.78657615184783936 0.30671438574790955
0.87804496288299561 0.73329877853393555 0.31166130304336548
0.13583976030349731 0.86407148838043213 0.20043492317199707
0.18123312294483185 0.86679524183273315 0.18728743493556976
0.36435151100158691 0.87273979187011719 0.22400185465812683
0.68738991022109985 0.88457232713699341 0.26803761720657349
0.87519747018814087 0.88567918539047241 0.30894753336906433
0.059500481933355331 0.098984047770500183 0.48529937863349915
0.22119884192943573 0.12518857419490814 0.55302327871322632
0.61311876773834229 0.11778747290372849 0.53397470712661743
0.73435360193252563 0.12058793753385544 0.52123439311981201
0.78571432828903198 0.14195872843265533 0.48598858714103699
0.060835506767034531 0.27767559885978699 0.52275782823562622
0.13384069502353668 0.28330188989639282 0.52032989263534546
0.57868170738220215 0.31532418727874756 0.49605667591094971
0.76365536451339722 0.3111250102519989 0.48856204748153687
0.81139451265335083 0.29637062549591064 0.45372900366783142
0.084855712950229645 0.5049012303352356 0.50885242223739624
0.16161073744297028 0.5063852071762085 0.49575573205947876
0.52395594120025635 0.53616553544998169 0.47174429893493652
0.80065774917602539 0.52056491374969482 0.46346086263656616
0.86096739768981934 0.5091853141784668 0.45174252986907959
0.11589525640010834 0.78208428621292114 0.43718704581260681
0.20618364214897156 0.78394502401351929 0.42588445544242859
0.46746248006820679 0.80334079265594482 0.42911362648010254
0.77309674024581909 0.7969595193862915 0.43763673305511475
0.88990288972854614 0.75718647241592407 0.44428682327270508
0.12694688141345978 0.86192721128463745 0.35883843898773193
0.19554358720779419 0.8656003475189209 0.34878998994827271
0.40578413009643555 0.88163214921951294 0.37008175253868103
0.70225614309310913 0.89370930194854736 0.36290878057479858
0.89614236354827881 0.89627188444137573 0.3990008533000946
0.076973587274551392 0.12111551314592361 0.60281336307525635
0.21240369975566864 0.22136484086513519 0.70222026109695435
0.60218131542205811 0.2016405463218689 0.70970022678375244
0.73970538377761841 0.13747225701808929 0.71813434362411499
0.78637611865997314 0.13613122701644897 0.71413367986679077
0.083316415548324585 0.31515201926231384 0.69041973352432251
0.16299362480640411 0.33242818713188171 0.70576721429824829
0.53085017204284668 0.3724249005317688 0.72402393817901611
0.75754731893539429 0.35309427976608276 0.72882544994354248
0.80890172719955444 0.34566840529441833 0.70176273584365845
0.079051792621612549 0.48926186561584473 0.7263372540473938
0.12961715459823608 0.48803052306175232 0.72359287738800049
0.42534685134887695 0.53955459594726562 0.74602633714675903
0.79310029745101929 0.56097084283828735 0.75112324953079224
0.85825240612030029 0.55739587545394897 0.71712976694107056
0.079060271382331848 0.76792293787002563 0.74515742063522339
0.12186574190855026 0.76611071825027466 0.73109084367752075
0.4201662540435791 0.79201370477676392 0.73205000162124634
0.79000693559646606 0.82500886917114258 0.74560642242431641
0.90952605009078979 0.81708401441574097 0.73573678731918335
0.091858282685279846 0.85377055406570435 0.67357498407363892
0.13307112455368042 0.86057370901107788 0.65911287069320679
0.38726818561553955 0.889445960521698 0.66864901781082153
0.7531358003616333 0.92431938648223877 0.70629101991653442
0.9209141731262207 0.92727935314178467 0.70886534452438354
0.082929365336894989 0.12833493947982788 0.64539974927902222
0.19280809164047241 0.21995058655738831 0.73981815576553345
0.56798571348190308 0.21330142021179199 0.75347268581390381
0.74204200506210327 0.13978207111358643 0.76299780607223511
0.78722226619720459 0.14973863959312439 0.7661241888999939
0.089748010039329529 0.31498426198959351 0.73525220155715942
0.16452588140964508 0.33594232797622681 0.75478088855743408
0.48646095395088196 0.38089922070503235 0.78139609098434448
0.75581693649291992 0.36174237728118896 0.78675192594528198
0.81106293201446533 0.36030098795890808 0.79013776779174805
0.086573220789432526 0.47654509544372559 0.77898609638214111
0.13675808906555176 0.47136971354484558 0.77888023853302002
0.41372561454772949 0.53916651010513306 0.82247328758239746
0.77193349599838257 0.57238167524337769 0.84357148408889771
0.85606420040130615 0.57884901762008667 0.84402668476104736
0.08311956375837326 0.73618549108505249 0.84813910722732544
0.1135409027338028 0.72536253929138184 0.84800428152084351
0.40321514010429382 0.76369571685791016 0.87650454044342041
0.78593659400939941 0.8302987813949585 0.92358905076980591
0.91993570327758789 0.8311576247215271 0.92632228136062622
0.080625809729099274 0.84280824661254883 0.85949307680130005
0.089968197047710419 0.84938067197799683 0.8607293963432312
0.34560844302177429 0.87965941429138184 0.87726235389709473
0.758034348487854 0.92654037475585938 0.91757595539093018
0.89274561405181885 0.90594631433486938 0.88706851005554199
