assets/lut/editingcorp onda.cube
# Created by: G'MIC (https://gmic.eu)
TITLE "onda"
# LUT size
LUT_3D_SIZE 5
# Data domain
DOMAIN_MIN 0.0 0.0 0.0
DOMAIN_MAX 1.0 1.0 1.0
# LUT data points
0.0045261755585670471 0.010839768685400486 0.011121892370283604
0.33856621384620667 0.021583901718258858 0.02220650389790535
0.78151226043701172 0.094027303159236908 0.062311314046382904
0.92991149425506592 0.12011560052633286 0.067303918302059174
0.95343106985092163 0.1037091538310051 0.065869152545928955
0.038110382854938507 0.20190185308456421 0.065840087831020355
0.21528445184230804 0.19357247650623322 0.053058907389640808
0.7192266583442688 0.2132222056388855 0.061469569802284241
0.93413889408111572 0.19395002722740173 0.083626493811607361
0.96075856685638428 0.20657163858413696 0.094876021146774292
0.1449832022190094 0.48822596669197083 0.17890734970569611
0.17994865775108337 0.46636569499969482 0.17011840641498566
0.591968834400177 0.49688193202018738 0.12062069773674011
0.97740715742111206 0.4636656641960144 0.039209268987178802
0.99092322587966919 0.45089787244796753 0.066695958375930786
0.37602090835571289 0.79338061809539795 0.37956967949867249
0.36763167381286621 0.7753828763961792 0.36692434549331665
0.51971817016601562 0.75837713479995728 0.35810598731040955
0.89003914594650269 0.78582209348678589 0.24155761301517487
0.99662172794342041 0.78457182645797729 0.053184047341346741
0.4178318977355957 0.85064935684204102 0.41852250695228577
0.41751021146774292 0.84762793779373169 0.41718912124633789
0.4999924898147583 0.85995680093765259 0.42614597082138062
0.80850064754486084 0.88325983285903931 0.50873947143554688
0.9229239821434021 0.88520824909210205 0.60337167978286743
0.0057622273452579975 0.025441771373152733 0.20379649102687836
0.27286580204963684 0.025633165612816811 0.21198970079421997
0.74794924259185791 0.049085997045040131 0.2256380170583725
0.91243946552276611 0.059402450919151306 0.19631403684616089
0.94764286279678345 0.056414570659399033 0.16452556848526001
0.036167263984680176 0.19593390822410583 0.17622546851634979
0.19198982417583466 0.19020764529705048 0.17228233814239502
0.69073975086212158 0.20503221452236176 0.17798635363578796
0.92813479900360107 0.19484806060791016 0.15853101015090942
0.96001583337783813 0.18268366158008575 0.14595945179462433
0.14233513176441193 0.47520720958709717 0.21686410903930664
0.1607530415058136 0.452044278383255 0.19061838090419769
0.58147293329238892 0.48497730493545532 0.14907762408256531
0.96992069482803345 0.4578862190246582 0.067702397704124451
0.99601942300796509 0.43902871012687683 0.069999068975448608
0.37268394231796265 0.78859704732894897 0.38304778933525085
0.36297899484634399 0.77362984418869019 0.37203004956245422
0.5064389705657959 0.75802159309387207 0.35065844655036926
0.89024287462234497 0.78113752603530884 0.23139062523841858
0.99937385320663452 0.78059792518615723 0.023150574415922165
0.41340488195419312 0.84301972389221191 0.42231205105781555
0.41944465041160583 0.84363049268722534 0.41910433769226074
0.50870102643966675 0.8547675609588623 0.42918384075164795
0.80795484781265259 0.88220000267028809 0.51645773649215698
0.92932510375976562 0.88291716575622559 0.5943337082862854
0.089341782033443451 0.07876066118478775 0.52368021011352539
0.21139901876449585 0.074981793761253357 0.5264585018157959
0.67885899543762207 0.12770560383796692 0.54829317331314087
0.84150618314743042 0.15193033218383789 0.51070618629455566
0.87311744689941406 0.1275475025177002 0.49187514185905457
0.11226055771112442 0.24602204561233521 0.45980685949325562
0.15648257732391357 0.22867283225059509 0.44952294230461121
0.6085505485534668 0.22584456205368042 0.46452981233596802
0.85856413841247559 0.26445582509040833 0.44942578673362732
0.88675069808959961 0.25523856282234192 0.43686673045158386
0.12886995077133179 0.44572639465332031 0.41795843839645386
0.13914044201374054 0.42547932267189026 0.39717414975166321
0.52991980314254761 0.46003538370132446 0.42054581642150879
0.91772735118865967 0.46485495567321777 0.4238429069519043
0.96094006299972534 0.45087963342666626 0.41145351529121399
0.35086753964424133 0.75559091567993164 0.4678366482257843
0.35418781638145447 0.7544589638710022 0.4635998010635376
0.48802128434181213 0.73639261722564697 0.44038683176040649
0.8747791051864624 0.77505588531494141 0.40281561017036438
0.9984203577041626 0.77462601661682129 0.28058961033821106
0.41536149382591248 0.84194540977478027 0.48820418119430542
0.42437192797660828 0.84604591131210327 0.4722592830657959
0.51774197816848755 0.85794615745544434 0.47685202956199646
0.80777901411056519 0.88304346799850464 0.5364081859588623
0.93182659149169922 0.88132977485656738 0.60686087608337402
0.14271658658981323 0.14617100358009338 0.66850191354751587
0.21173004806041718 0.14343081414699554 0.68630301952362061
0.61904871463775635 0.21153372526168823 0.78526616096496582
0.83615022897720337 0.28763267397880554 0.80081814527511597
0.85697799921035767 0.28479015827178955 0.80068427324295044
0.18348714709281921 0.31072917580604553 0.68159043788909912
0.20918829739093781 0.30090558528900146 0.68136358261108398
0.52296781539916992 0.30832377076148987 0.7613639235496521
0.839671790599823 0.35357892513275146 0.78962439298629761
0.86830288171768188 0.351673424243927 0.78902459144592285
0.18290324509143829 0.47170570492744446 0.71188932657241821
0.194862961769104 0.45628619194030762 0.70262628793716431
0.40827852487564087 0.46859636902809143 0.73843967914581299
0.8359607458114624 0.49974963068962097 0.75275909900665283
0.88353472948074341 0.49279376864433289 0.73664897680282593
0.3591553270816803 0.71481907367706299 0.75722730159759521
0.35405871272087097 0.70284909009933472 0.73898285627365112
0.44777014851570129 0.70026475191116333 0.71694731712341309
0.84560209512710571 0.76180976629257202 0.77000194787979126
0.95718038082122803 0.75896614789962769 0.75063186883926392
0.45931348204612732 0.81812989711761475 0.72498852014541626
0.46127954125404358 0.81985378265380859 0.71081197261810303
0.53224259614944458 0.83515250682830811 0.68895804882049561
0.79295462369918823 0.86922967433929443 0.74328649044036865
0.92353957891464233 0.88622701168060303 0.78527909517288208
0.14392027258872986 0.16935038566589355 0.66978913545608521
0.21217368543148041 0.17894016206264496 0.6869160532951355
0.59890222549438477 0.22050376236438751 0.77416640520095825
0.84989833831787109 0.28090450167655945 0.80570989847183228
0.85203385353088379 0.29256662726402283 0.81581324338912964
0.17717841267585754 0.30237925052642822 0.6843528151512146
0.21099939942359924 0.29614633321762085 0.69027912616729736
0.50395029783248901 0.30310314893722534 0.76485884189605713
0.8283800482749939 0.35585859417915344 0.80886662006378174
0.85803937911987305 0.35833632946014404 0.81011617183685303
0.17835785448551178 0.46673062443733215 0.72674965858459473
0.19835439324378967 0.45599037408828735 0.72825688123703003
0.406200110912323 0.47755330801010132 0.77277129888534546
0.82786661386489868 0.51742345094680786 0.8330417275428772
0.88991177082061768 0.52003532648086548 0.83482038974761963
0.32950437068939209 0.6873050332069397 0.828072190284729
0.31726816296577454 0.67268329858779907 0.82116454839706421
0.408856600522995 0.67201888561248779 0.83568263053894043
0.8138725757598877 0.74427860975265503 0.88781476020812988
0.93240821361541748 0.74996572732925415 0.90102225542068481
0.44834840297698975 0.78478848934173584 0.86665284633636475
0.44408005475997925 0.77391678094863892 0.85541689395904541
0.52143114805221558 0.79479312896728516 0.86445456743240356
0.814200758934021 0.86596822738647461 0.89636510610580444
0.94422668218612671 0.91025960445404053 0.941913902759552
