assets/lut/editingcorp upglow.cube
# Created by: G'MIC (https://gmic.eu)
TITLE "upglow"
# LUT size
LUT_3D_SIZE 5
# Data domain
DOMAIN_MIN 0.0 0.0 0.0
DOMAIN_MAX 1.0 1.0 1.0
# LUT data points
0.015359123237431049 0.023921787738800049 0.029367633163928986
0.2241082489490509 0.058561064302921295 0.025224963203072548
0.5423508882522583 0.11658955365419388 0.033498682081699371
0.76634007692337036 0.17112576961517334 0.061300747096538544
0.91433387994766235 0.16284547746181488 0.060422636568546295
0.030299855396151543 0.18601910769939423 0.15741690993309021
0.2150818407535553 0.21817237138748169 0.1240864172577858
0.5923159122467041 0.27501171827316284 0.092542834579944611
0.80000948905944824 0.31583783030509949 0.096261762082576752
0.93991857767105103 0.31011718511581421 0.097772873938083649
0.029085300862789154 0.43170207738876343 0.32331845164299011
0.14305411279201508 0.46520704030990601 0.29589679837226868
0.59877967834472656 0.51848644018173218 0.27279874682426453
0.84056079387664795 0.53823614120483398 0.18747584521770477
0.97074353694915771 0.52858084440231323 0.15745370090007782
0.12141980975866318 0.64833462238311768 0.39117002487182617
0.23513023555278778 0.6684911847114563 0.38128918409347534
0.60786134004592896 0.72047978639602661 0.37177619338035583
0.83060747385025024 0.7261955738067627 0.26971161365509033
0.98272931575775146 0.7230105996131897 0.20767749845981598
0.20685693621635437 0.82343101501464844 0.35952404141426086
0.38634476065635681 0.8639412522315979 0.37306460738182068
0.66096597909927368 0.89127397537231445 0.31884908676147461
0.8472599983215332 0.89170271158218384 0.28151315450668335
0.98976331949234009 0.89678341150283813 0.24012982845306396
0.015840597450733185 0.025909123942255974 0.11233612895011902
0.19799762964248657 0.058661997318267822 0.12686887383460999
0.55937594175338745 0.12050934135913849 0.12654410302639008
0.77110904455184937 0.15891236066818237 0.13502906262874603
0.90458899736404419 0.1380273699760437 0.13483774662017822
0.014764434657990932 0.17866258323192596 0.30055615305900574
0.18064986169338226 0.21490553021430969 0.24065969884395599
0.59044724702835083 0.28003546595573425 0.21015563607215881
0.7966841459274292 0.31381160020828247 0.1933484822511673
0.92710810899734497 0.29462596774101257 0.17793826758861542
0.026197845116257668 0.42889916896820068 0.43510222434997559
0.074351035058498383 0.45404934883117676 0.40759766101837158
0.57418495416641235 0.52435195446014404 0.41101279854774475
0.83244287967681885 0.53961610794067383 0.3384174108505249
0.97658324241638184 0.52796977758407593 0.25757956504821777
0.14119313657283783 0.64877456426620483 0.51037847995758057
0.1928657591342926 0.65343338251113892 0.48888540267944336
0.55905133485794067 0.71638542413711548 0.4986361563205719
0.83790737390518188 0.74129027128219604 0.45039314031600952
0.98945993185043335 0.73421943187713623 0.36269453167915344
0.20219656825065613 0.81518846750259399 0.46731042861938477
0.40350085496902466 0.86881572008132935 0.50803971290588379
0.67007821798324585 0.91490471363067627 0.51832294464111328
0.8692207932472229 0.9200858473777771 0.47350534796714783
0.99466019868850708 0.92033028602600098 0.43118494749069214
0.034612841904163361 0.034176800400018692 0.21006357669830322
0.19069978594779968 0.067440569400787354 0.23354531824588776
0.53365147113800049 0.12380487471818924 0.26247459650039673
0.76676440238952637 0.15376704931259155 0.2554679811000824
0.89509886503219604 0.11969798803329468 0.24284406006336212
0.013478642329573631 0.16966697573661804 0.42219609022140503
0.14884562790393829 0.21288318932056427 0.38078930974006653
0.53327327966690063 0.29120945930480957 0.38463243842124939
0.78584116697311401 0.31595265865325928 0.34962800145149231
0.91829955577850342 0.26773148775100708 0.30192714929580688
0.02563159354031086 0.41837188601493835 0.53946983814239502
0.076057389378547668 0.4474274218082428 0.54553687572479248
0.55146312713623047 0.53440290689468384 0.53716069459915161
0.81775921583175659 0.55371248722076416 0.5084349513053894
0.95937037467956543 0.50525027513504028 0.42563411593437195
0.12869402766227722 0.6381571888923645 0.61627471446990967
0.20588685572147369 0.6501888632774353 0.61360806226730347
0.51409757137298584 0.71583652496337891 0.62231457233428955
0.82251465320587158 0.75524282455444336 0.61212402582168579
0.98576009273529053 0.74843823909759521 0.54601478576660156
0.20334620773792267 0.8129953145980835 0.5902591347694397
0.37399369478225708 0.86700242757797241 0.63873916864395142
0.6562085747718811 0.92064368724822998 0.66683745384216309
0.86119753122329712 0.93663674592971802 0.64710825681686401
0.99375373125076294 0.94114196300506592 0.64649790525436401
0.061090625822544098 0.043964579701423645 0.3261837363243103
0.24328087270259857 0.077734939754009247 0.35245892405509949
0.53172832727432251 0.12711635231971741 0.39478379487991333
0.7302899956703186 0.15806141495704651 0.42477467656135559
0.86172378063201904 0.10951274633407593 0.39958184957504272
0.027193136513233185 0.1782432496547699 0.49175211787223816
0.17266777157783508 0.23394142091274261 0.48781660199165344
0.51515406370162964 0.31314101815223694 0.51289874315261841
0.75399893522262573 0.34438866376876831 0.52272695302963257
0.89178347587585449 0.25477144122123718 0.45770630240440369
0.031032247468829155 0.41445720195770264 0.63949406147003174
0.092557869851589203 0.43388453125953674 0.65102165937423706
0.52922028303146362 0.53820139169692993 0.65021169185638428
0.78709864616394043 0.56528329849243164 0.65403789281845093
0.94299781322479248 0.50823873281478882 0.59747731685638428
0.12259408086538315 0.63428503274917603 0.73483151197433472
0.20771054923534393 0.64319378137588501 0.72810405492782593
0.3996121883392334 0.6976507306098938 0.7399560809135437
0.80430084466934204 0.76781690120697021 0.76276940107345581
0.97519183158874512 0.76185917854309082 0.73751151561737061
0.20158219337463379 0.80842834711074829 0.73015362024307251
0.34731414914131165 0.85548537969589233 0.75824713706970215
0.6183353066444397 0.9146190881729126 0.80255186557769775
0.84947729110717773 0.95180231332778931 0.82064723968505859
0.99373787641525269 0.9605332612991333 0.81669515371322632
0.11214945465326309 0.051516678184270859 0.43542367219924927
0.32188501954078674 0.09080842137336731 0.4696347713470459
0.54924821853637695 0.12861551344394684 0.50543206930160522
0.72058212757110596 0.15871717035770416 0.54324227571487427
0.83180004358291626 0.11673818528652191 0.55983787775039673
0.085078731179237366 0.21852850914001465 0.5714486837387085
0.23944452404975891 0.2629706859588623 0.58270663022994995
0.53050488233566284 0.32700353860855103 0.61272883415222168
0.74192041158676147 0.35361799597740173 0.6449165940284729
0.87881642580032349 0.2894594669342041 0.63334745168685913
0.028861850500106812 0.4096170961856842 0.72086447477340698
0.13891094923019409 0.4450238049030304 0.72920995950698853
0.51501220464706421 0.53998684883117676 0.75196516513824463
0.76086884737014771 0.57366430759429932 0.78742855787277222
0.92324650287628174 0.54787600040435791 0.78597813844680786
0.10498332232236862 0.60648143291473389 0.83270996809005737
0.18131552636623383 0.61372923851013184 0.83426856994628906
0.35875079035758972 0.66474628448486328 0.85553926229476929
0.78264743089675903 0.75451970100402832 0.90096622705459595
0.95503389835357666 0.7801966667175293 0.91645872592926025
0.19102033972740173 0.799957275390625 0.86248201131820679
0.28838458657264709 0.83490991592407227 0.8892815113067627
0.48556104302406311 0.89327669143676758 0.92495906352996826
0.79816204309463501 0.94618856906890869 0.95916956663131714
0.98479074239730835 0.97260594367980957 0.9773833155632019
