assets/lut/editingcorp boyado.cube
# Created by: G'MIC (https://gmic.eu)
TITLE "boyado"
# LUT size
LUT_3D_SIZE 7
# Data domain
DOMAIN_MIN 0.0 0.0 0.0
DOMAIN_MAX 1.0 1.0 1.0
# LUT data points
0.013826661743223667 0.018182672560214996 0.010980509221553802
0.19127456843852997 0.017063889652490616 0.014046837575733662
0.4674815833568573 0.013312201015651226 0.013101466000080109
0.70636773109436035 0.012575710192322731 0.0095655405893921852
0.85408055782318115 0.012139922939240932 0.0089612472802400589
0.92182236909866333 0.0037838057614862919 0.002051439369097352
0.99476057291030884 0.003152002114802599 0.0017342959763482213
0.012115658260881901 0.13279494643211365 0.044814750552177429
0.140518918633461 0.14183954894542694 0.01865093782544136
0.43701520562171936 0.13462598621845245 0.01211649551987648
0.68079310655593872 0.1159961149096489 0.01046453695744276
0.83766305446624756 0.097273014485836029 0.0081268008798360825
0.91511476039886475 0.082496359944343567 0.0054387860000133514
0.99167263507843018 0.087366290390491486 0.0097160041332244873
0.0093388576060533524 0.29892325401306152 0.056300248950719833
0.091455332934856415 0.30641260743141174 0.034973129630088806
0.37692120671272278 0.3257148265838623 0.012675236910581589
0.664969801902771 0.31769189238548279 0.0080460039898753166
0.83977800607681274 0.28018158674240112 0.0092113716527819633
0.92241948843002319 0.26196116209030151 0.013393745757639408
0.99101299047470093 0.26371967792510986 0.014522298239171505
0.019143003970384598 0.49911165237426758 0.054796226322650909
0.090577639639377594 0.48852643370628357 0.050785738974809647
0.31019017100334167 0.52513128519058228 0.028613550588488579
0.62222546339035034 0.56778901815414429 0.009481482207775116
0.83927762508392334 0.52850323915481567 0.011837588623166084
0.93824213743209839 0.50441581010818481 0.016746850684285164
0.99447143077850342 0.49771562218666077 0.014237377792596817
0.053704608231782913 0.70432496070861816 0.063294306397438049
0.11929728090763092 0.69600540399551392 0.063770458102226257
0.26580697298049927 0.69935989379882812 0.053584665060043335
0.53661882877349854 0.75697928667068481 0.023228185251355171
0.80396968126296997 0.769267737865448 0.013379429467022419
0.93920964002609253 0.74686241149902344 0.019215947017073631
0.99493288993835449 0.74237573146820068 0.015706500038504601
0.06096222996711731 0.85044080018997192 0.070782728493213654
0.12392833828926086 0.85523766279220581 0.076000720262527466
0.21976988017559052 0.84390419721603394 0.073943778872489929
0.44662004709243774 0.87515044212341309 0.047681368887424469
0.74243277311325073 0.91008520126342773 0.022902799770236015
0.93305301666259766 0.91423243284225464 0.018647527322173119
0.99973577260971069 0.91620111465454102 0.011321782134473324
0.036823377013206482 0.93654823303222656 0.06719575822353363
0.088058367371559143 0.93722587823867798 0.074842058122158051
0.1647026389837265 0.93113213777542114 0.075853236019611359
0.3754551112651825 0.94793045520782471 0.054665122181177139
0.6894909143447876 0.9822467565536499 0.021274790167808533
0.91672646999359131 0.99754995107650757 0.006237449124455452
1 1 0.0012401057174429297
0.0089915255084633827 0.02340514212846756 0.1229318380355835
0.15703260898590088 0.021583093330264091 0.14262239634990692
0.44558629393577576 0.019925989210605621 0.13696128129959106
0.69899743795394897 0.013154751621186733 0.13616374135017395
0.8477557897567749 0.011925836093723774 0.12495078146457672
0.90641766786575317 0.0091569637879729271 0.10937336832284927
0.98805743455886841 0.012920544482767582 0.1105596199631691
0.010578664019703865 0.13928668200969696 0.14096729457378387
0.13642852008342743 0.14220665395259857 0.1338828057050705
0.43232187628746033 0.1391303688287735 0.12574282288551331
0.67625135183334351 0.11417282372713089 0.11768902093172073
0.84319090843200684 0.10032001882791519 0.097720682621002197
0.91065388917922974 0.087593615055084229 0.088730394840240479
0.98651039600372314 0.097502283751964569 0.10358916968107224
0.0081642903387546539 0.2915286123752594 0.13542608916759491
0.096632443368434906 0.29775175452232361 0.1317828893661499
0.3787059485912323 0.3308861255645752 0.10203224420547485
0.66216343641281128 0.31672298908233643 0.084841273725032806
0.84555721282958984 0.28161999583244324 0.07797897607088089
0.92158800363540649 0.26200041174888611 0.070268817245960236
0.99088889360427856 0.26230257749557495 0.078898504376411438
0.027543086558580399 0.49243968725204468 0.12628823518753052
0.096685968339443207 0.48314431309700012 0.12212412059307098
0.30628183484077454 0.52241575717926025 0.097047753632068634
0.61643099784851074 0.55884361267089844 0.071726046502590179
0.84020102024078369 0.52413845062255859 0.072653599083423615
0.93558543920516968 0.49887344241142273 0.066621594130992889
0.99523705244064331 0.49221920967102051 0.079253479838371277
0.059078410267829895 0.70249241590499878 0.12618048489093781
0.12078049778938293 0.69380682706832886 0.12642759084701538
0.2605842649936676 0.69520777463912964 0.12083210796117783
0.5359686017036438 0.75217682123184204 0.087873570621013641
0.80069893598556519 0.76962161064147949 0.07974407821893692
0.93432354927062988 0.74384021759033203 0.077669627964496613
0.99409812688827515 0.73636174201965332 0.081081017851829529
0.071617305278778076 0.84627395868301392 0.13532733917236328
0.12737128138542175 0.84969764947891235 0.14018294215202332
0.21488933265209198 0.84157848358154297 0.14050588011741638
0.44042539596557617 0.86762279272079468 0.11750607937574387
0.73401510715484619 0.90564441680908203 0.094774506986141205
0.9244721531867981 0.91305845975875854 0.092154495418071747
0.99754643440246582 0.91311049461364746 0.085997067391872406
0.058762330561876297 0.92239737510681152 0.13577292859554291
0.10458314418792725 0.92452895641326904 0.13608214259147644
0.1663983017206192 0.92516142129898071 0.13736914098262787
0.37511721253395081 0.94296395778656006 0.11620281636714935
0.68890637159347534 0.97756624221801758 0.090050086379051208
0.91990882158279419 0.99567323923110962 0.080786697566509247
0.99997848272323608 0.99942481517791748 0.071071058511734009
0.015547554008662701 0.028921030461788177 0.30991640686988831
0.14351117610931396 0.023087145760655403 0.31116530299186707
0.39016982913017273 0.016983751207590103 0.30418869853019714
0.649882972240448 0.015590174123644829 0.31446042656898499
0.80029988288879395 0.0093539068475365639 0.31127354502677917
0.87031471729278564 0.0056097889319062233 0.30393341183662415
0.96240663528442383 0.014080451801419258 0.30804616212844849
0.01140862237662077 0.16056261956691742 0.30054333806037903
0.10559496283531189 0.16526244580745697 0.32558754086494446
0.38026708364486694 0.15127009153366089 0.31050243973731995
0.63950997591018677 0.12925055623054504 0.29951277375221252
0.80783486366271973 0.10426726937294006 0.29340693354606628
0.88814646005630493 0.088335178792476654 0.29149559140205383
0.96369528770446777 0.10583488643169403 0.2829989492893219
0.0078448429703712463 0.29372018575668335 0.30165025591850281
0.08730151504278183 0.30107280611991882 0.31185436248779297
0.37578213214874268 0.33821782469749451 0.31901353597640991
0.65416961908340454 0.32905170321464539 0.30120950937271118
0.83367329835891724 0.29361295700073242 0.27751538157463074
0.91376686096191406 0.26784756779670715 0.25658503174781799
0.98675036430358887 0.26886332035064697 0.24890634417533875
0.033526372164487839 0.47121617197990417 0.29128757119178772
0.10215602070093155 0.46838515996932983 0.28277653455734253
0.31110072135925293 0.51712191104888916 0.28048872947692871
0.61078834533691406 0.55985790491104126 0.24586528539657593
0.83481132984161377 0.52446973323822021 0.22437836229801178
0.92992627620697021 0.49544695019721985 0.20037582516670227
0.99699753522872925 0.49406415224075317 0.21556736528873444
0.059190325438976288 0.69030582904815674 0.25351843237876892
0.12631787359714508 0.67899155616760254 0.25618249177932739
0.26659271121025085 0.68802851438522339 0.24463580548763275
0.5329628586769104 0.74954932928085327 0.19704292714595795
0.7981795072555542 0.76614975929260254 0.16435544192790985
0.93167740106582642 0.7363695502281189 0.15420287847518921
0.99484443664550781 0.7332574725151062 0.15485619008541107
0.071912817656993866 0.84523826837539673 0.22397558391094208
0.13648906350135803 0.84483283758163452 0.23004388809204102
0.22541157901287079 0.84398597478866577 0.22290246188640594
0.44655433297157288 0.86954009532928467 0.19290830194950104
0.73284471035003662 0.90688043832778931 0.16085599362850189
0.92078119516372681 0.90951746702194214 0.14959608018398285
0.99359464645385742 0.90633958578109741 0.1452241837978363
0.06951642781496048 0.92325103282928467 0.19654569029808044
0.13063791394233704 0.92036283016204834 0.19452519714832306
0.186565101146698 0.9260631799697876 0.18826444447040558
0.38755074143409729 0.94496244192123413 0.15940345823764801
0.69761365652084351 0.97948849201202393 0.14427283406257629
0.91345304250717163 0.99542486667633057 0.1403997540473938
0.99654877185821533 0.99653750658035278 0.1289619505405426
0.016201378777623177 0.027096737176179886 0.49228134751319885
0.13306762278079987 0.020252302289009094 0.49279114603996277
0.34822127223014832 0.016735570505261421 0.48770388960838318
0.59920769929885864 0.025803031399846077 0.48226910829544067
0.72604578733444214 0.025546099990606308 0.47706091403961182
0.7941967248916626 0.018587838858366013 0.47289004921913147
0.87649309635162354 0.018742460757493973 0.46455651521682739
0.011958073824644089 0.17587244510650635 0.48641878366470337
0.11057643592357635 0.17311841249465942 0.50179630517959595
0.32938674092292786 0.15387147665023804 0.49244064092636108
0.58538025617599487 0.13335999846458435 0.47262224555015564
0.73841536045074463 0.12049578130245209 0.46316900849342346
0.81600576639175415 0.11073886603116989 0.45802667737007141
0.89584869146347046 0.11749037355184555 0.44545042514801025
0.016378963366150856 0.32037395238876343 0.50255447626113892
0.10483341664075851 0.33150088787078857 0.51571333408355713
0.33079519867897034 0.36186140775680542 0.5498354434967041
0.60734277963638306 0.3388010561466217 0.51824009418487549
0.7851252555847168 0.3076590895652771 0.49727848172187805
0.86786806583404541 0.28692379593849182 0.48156312108039856
0.94170647859573364 0.28339871764183044 0.46294057369232178
0.046177420765161514 0.47543981671333313 0.50264120101928711
0.11500301212072372 0.47220847010612488 0.49888584017753601
0.29483628273010254 0.51792120933532715 0.53810256719589233
0.59690862894058228 0.56266659498214722 0.53259903192520142
0.82038384675979614 0.54058396816253662 0.50583183765411377
0.92067259550094604 0.5188671350479126 0.48602938652038574
0.98897635936737061 0.51197993755340576 0.47311151027679443
0.067622363567352295 0.6584775447845459 0.48254799842834473
0.1308555006980896 0.65020912885665894 0.47966504096984863
0.25406181812286377 0.66564536094665527 0.47777348756790161
0.52139806747436523 0.72840762138366699 0.47217962145805359
0.796295166015625 0.76227211952209473 0.430439293384552
0.93813955783843994 0.73355364799499512 0.40851840376853943
0.99724137783050537 0.72869503498077393 0.39868107438087463
0.077057108283042908 0.81773144006729126 0.43307521939277649
0.13293091952800751 0.82212477922439575 0.42525953054428101
0.21953101456165314 0.83110201358795166 0.41466796398162842
0.45000180602073669 0.86965405941009521 0.39514967799186707
0.73332232236862183 0.91002839803695679 0.35753661394119263
0.93039655685424805 0.9099419116973877 0.30637076497077942
0.99695336818695068 0.90195804834365845 0.30011606216430664
0.075972475111484528 0.91032272577285767 0.38383230566978455
0.12967810034751892 0.9103735089302063 0.37265792489051819
0.16257110238075256 0.91341531276702881 0.36231246590614319
0.37661886215209961 0.94255632162094116 0.32512900233268738
0.68538546562194824 0.97621047496795654 0.29053160548210144
0.91830289363861084 0.99509745836257935 0.20909172296524048
0.99597692489624023 0.99451839923858643 0.20850971341133118
0.013866708613932133 0.021294478327035904 0.60769009590148926
0.12485115230083466 0.023999502882361412 0.61718744039535522
0.32156127691268921 0.026188390329480171 0.63043534755706787
0.57644748687744141 0.036131929606199265 0.62704730033874512
0.71228832006454468 0.041196290403604507 0.61687564849853516
0.77982479333877563 0.045519571751356125 0.61652654409408569
0.85646814107894897 0.04316609725356102 0.60677719116210938
0.014901897870004177 0.1690794825553894 0.62335020303726196
0.11570054292678833 0.16781787574291229 0.63173967599868774
0.30386590957641602 0.16153109073638916 0.64272993803024292
0.55065757036209106 0.13039134442806244 0.62074685096740723
0.70835357904434204 0.12312910705804825 0.60259926319122314
0.78533828258514404 0.12508635222911835 0.60120260715484619
0.86442381143569946 0.12974400818347931 0.59560602903366089
0.033623445779085159 0.3342253565788269 0.66116797924041748
0.11783812195062637 0.33524864912033081 0.66678434610366821
0.30571755766868591 0.36571815609931946 0.70762425661087036
0.5561903715133667 0.31725847721099854 0.668601393699646
0.73484200239181519 0.29303061962127686 0.64124518632888794
0.81546205282211304 0.27678954601287842 0.63145345449447632
0.89269024133682251 0.2731679379940033 0.61786770820617676
0.063942268490791321 0.49495694041252136 0.67927360534667969
0.13155519962310791 0.49223023653030396 0.67568498849868774
0.28327193856239319 0.53334426879882812 0.71667098999023438
0.54833966493606567 0.56222981214523315 0.7219778299331665
0.77516740560531616 0.55476009845733643 0.70649689435958862
0.88047170639038086 0.53754532337188721 0.69732934236526489
0.95888692140579224 0.53368127346038818 0.68399530649185181
0.079805351793766022 0.65653276443481445 0.68405073881149292
0.14197488129138947 0.64849954843521118 0.67829769849777222
0.24792258441448212 0.65762490034103394 0.68919599056243896
0.48820197582244873 0.7040022611618042 0.71182453632354736
0.76785427331924438 0.73908519744873047 0.71325421333312988
0.91684234142303467 0.73680567741394043 0.70799452066421509
0.98960065841674805 0.73490887880325317 0.70234978199005127
0.091200269758701324 0.80134540796279907 0.67007029056549072
0.15150237083435059 0.79740339517593384 0.66324317455291748
0.22647368907928467 0.79794782400131226 0.65412479639053345
0.42247211933135986 0.83405923843383789 0.66485363245010376
0.7193911075592041 0.88589107990264893 0.65999466180801392
0.9209829568862915 0.90435957908630371 0.63531124591827393
0.99526047706604004 0.90011304616928101 0.62588238716125488
0.08903377503156662 0.88357961177825928 0.64483845233917236
0.15330757200717926 0.88370329141616821 0.63776320219039917
0.19134286046028137 0.87891262769699097 0.62022697925567627
0.3738369345664978 0.92098903656005859 0.63132256269454956
0.66951191425323486 0.97215026617050171 0.61632448434829712
0.90665781497955322 0.99438774585723877 0.57307219505310059
0.99766331911087036 0.99385422468185425 0.56431823968887329
0.012857773341238499 0.015747983008623123 0.68068575859069824
0.12904356420040131 0.025675097480416298 0.67932522296905518
0.31931701302528381 0.026031672954559326 0.69374185800552368
0.57542753219604492 0.020156411454081535 0.69847244024276733
0.71756911277770996 0.019417421892285347 0.69668149948120117
0.77712136507034302 0.021264513954520226 0.7005009651184082
0.85771870613098145 0.032173920422792435 0.70576131343841553
0.012075835838913918 0.16456681489944458 0.70522665977478027
0.11396831274032593 0.16302244365215302 0.70526456832885742
0.28327512741088867 0.15408317744731903 0.71605056524276733
0.53617417812347412 0.12267147749662399 0.70474982261657715
0.71191370487213135 0.1081463098526001 0.69723671674728394
0.78771889209747314 0.10723226517438889 0.70041871070861816
0.86241990327835083 0.12009552866220474 0.70616739988327026
0.029977940022945404 0.33899572491645813 0.75612396001815796
0.11593656241893768 0.33538690209388733 0.75993776321411133
0.29004427790641785 0.35927936434745789 0.79501545429229736
0.53553158044815063 0.31330618262290955 0.76679462194442749
0.72479069232940674 0.27338820695877075 0.7405998706817627
0.80971544981002808 0.25798159837722778 0.736053466796875
0.88543927669525146 0.25942307710647583 0.73452162742614746
0.0673661008477211 0.50158965587615967 0.79129576683044434
0.13387146592140198 0.49575290083885193 0.78805172443389893
0.27801036834716797 0.53627514839172363 0.82698696851730347
0.5267641544342041 0.55199021100997925 0.83451032638549805
0.75003784894943237 0.53624463081359863 0.81911307573318481
0.85747212171554565 0.52089744806289673 0.81101834774017334
0.93702679872512817 0.51779145002365112 0.80678004026412964
0.086872398853302002 0.65849548578262329 0.81063950061798096
0.14985977113246918 0.6502801775932312 0.80841600894927979
0.24777777493000031 0.65885823965072632 0.82229042053222656
0.47053185105323792 0.69919496774673462 0.84573125839233398
0.73767757415771484 0.72579425573348999 0.85726088285446167
0.87711721658706665 0.72696930170059204 0.85757195949554443
0.96357309818267822 0.73146176338195801 0.85738682746887207
0.10126396268606186 0.7954983115196228 0.82088416814804077
0.16513484716415405 0.79133015871047974 0.81874054670333862
0.23677492141723633 0.7886466383934021 0.81387525796890259
0.40592744946479797 0.81983023881912231 0.82996755838394165
0.68507760763168335 0.85684645175933838 0.85223817825317383
0.89039725065231323 0.87684899568557739 0.86408120393753052
0.97925716638565063 0.87875282764434814 0.86456537246704102
0.095916077494621277 0.87437599897384644 0.81450551748275757
0.16255824267864227 0.87263399362564087 0.81081372499465942
0.22647807002067566 0.86818540096282959 0.7991793155670166
0.37906956672668457 0.90082466602325439 0.81703931093215942
0.6408805251121521 0.94325411319732666 0.84125292301177979
0.88796317577362061 0.97726154327392578 0.85192400217056274
0.99190431833267212 0.98275142908096313 0.8565133810043335
0.01225490216165781 0.011442176997661591 0.74922442436218262
0.12674570083618164 0.014524901285767555 0.74749863147735596
0.30701524019241333 0.022111151367425919 0.76231288909912109
0.56351584196090698 0.034184563905000687 0.77270054817199707
0.7149776816368103 0.016853047534823418 0.76700770854949951
0.78318583965301514 0.0062250471673905849 0.76609516143798828
0.85526841878890991 0.0088967271149158478 0.7726781964302063
0.013760331086814404 0.15745177865028381 0.77300631999969482
0.11676908284425735 0.15705063939094543 0.77358949184417725
0.2858547568321228 0.15243566036224365 0.78244322538375854
0.54126882553100586 0.13212621212005615 0.77208489179611206
0.71592646837234497 0.11255271732807159 0.76758599281311035
0.79078584909439087 0.10002738982439041 0.76722848415374756
0.85886698961257935 0.10833125561475754 0.77592819929122925
0.025262884795665741 0.3300139307975769 0.81802791357040405
0.12258929014205933 0.33955880999565125 0.83026665449142456
0.29387381672859192 0.36237767338752747 0.86194401979446411
0.53303253650665283 0.3161977231502533 0.83037227392196655
0.72429633140563965 0.27869880199432373 0.80934149026870728
0.810435950756073 0.26514893770217896 0.80222302675247192
0.87785398960113525 0.26655435562133789 0.80571466684341431
0.054462581872940063 0.49488592147827148 0.85258543491363525
0.13343119621276855 0.49352157115936279 0.85285216569900513
0.28120356798171997 0.53300774097442627 0.89088249206542969
0.52202504873275757 0.5573040246963501 0.90848386287689209
0.7388797402381897 0.53624129295349121 0.8904992938041687
0.85657572746276855 0.51994067430496216 0.87965613603591919
0.93282580375671387 0.5133398175239563 0.87929648160934448
0.08239060640335083 0.65887725353240967 0.87839698791503906
0.14778752624988556 0.65083730220794678 0.87447631359100342
0.24812068045139313 0.65513217449188232 0.88740593194961548
0.46520078182220459 0.6996462345123291 0.92037856578826904
0.72189831733703613 0.72466158866882324 0.93123471736907959
0.87354356050491333 0.72309273481369019 0.93037354946136475
0.96003329753875732 0.72295039892196655 0.93147450685501099
0.099067762494087219 0.79368048906326294 0.89980030059814453
0.16633197665214539 0.79425513744354248 0.89897578954696655
0.2403886467218399 0.78625041246414185 0.899769127368927
0.40703389048576355 0.81313836574554443 0.91884684562683105
0.67228960990905762 0.84663766622543335 0.93725776672363281
0.87196540832519531 0.85839438438415527 0.94459056854248047
0.96730178594589233 0.85920411348342896 0.95262444019317627
0.0901046022772789 0.87513315677642822 0.90928530693054199
0.15808182954788208 0.87401789426803589 0.9061352014541626
0.23085832595825195 0.86852061748504639 0.90023601055145264
0.3806270956993103 0.89583814144134521 0.91578364372253418
0.63265031576156616 0.92941248416900635 0.93894582986831665
0.86089318990707397 0.95306318998336792 0.95127326250076294
0.97621762752532959 0.96156579256057739 0.96039700508117676
