assets/lut/editingcorpw Golden Hour.cube
LUT_3D_SIZE 6
DOMAIN_MIN 0.0 0.0 0.0
DOMAIN_MAX 1.0 1.0 1.0
0.027686 0.053772 0.066017
0.160860 0.044676 0.051381
0.472589 0.071026 0.044132
0.710312 0.100926 0.031150
0.866072 0.113208 0.033268
0.998625 0.132893 0.041339
0.028330 0.167121 0.095090
0.225257 0.151852 0.071865
0.530343 0.210966 0.050160
0.726706 0.248571 0.043893
0.865548 0.260011 0.050231
0.995212 0.276728 0.060224
0.028136 0.310319 0.110944
0.275268 0.327542 0.080925
0.571494 0.348602 0.074094
0.759487 0.352172 0.073640
0.881124 0.419148 0.066603
0.996637 0.458582 0.067840
0.040403 0.463505 0.113935
0.368639 0.549665 0.091588
0.608255 0.589485 0.098997
0.770740 0.594911 0.098157
0.905648 0.570223 0.097392
0.987461 0.550963 0.092968
0.136462 0.597790 0.121921
0.458647 0.698976 0.120135
0.647774 0.754564 0.132746
0.780072 0.778512 0.135827
0.897216 0.779456 0.128508
0.988638 0.764586 0.116561
0.253480 0.729717 0.132557
0.527906 0.820952 0.154063
0.686249 0.881020 0.171304
0.793778 0.911022 0.178851
0.902129 0.919257 0.170699
0.984926 0.916394 0.154848
0.006130 0.049830 0.195678
0.173020 0.074192 0.184195
0.427781 0.073148 0.169941
0.704182 0.113695 0.160048
0.869132 0.139042 0.167455
0.999941 0.167072 0.179545
0.003268 0.194590 0.210984
0.201378 0.209275 0.203775
0.523023 0.222108 0.178022
0.744580 0.266029 0.173181
0.882244 0.290236 0.183757
0.999958 0.316940 0.198565
0.010423 0.349236 0.223687
0.215242 0.372498 0.221088
0.569507 0.409843 0.197172
0.764768 0.440010 0.191076
0.888820 0.464859 0.198694
0.999017 0.483861 0.213850
0.037328 0.459410 0.242208
0.289024 0.524411 0.238184
0.611388 0.610158 0.229561
0.774297 0.629849 0.222857
0.899670 0.608010 0.218956
0.995679 0.649637 0.215900
0.088666 0.580530 0.272920
0.389880 0.665526 0.267494
0.649568 0.745882 0.270067
0.781135 0.775138 0.265981
0.890302 0.778651 0.255896
0.988740 0.772388 0.246575
0.176585 0.724189 0.302767
0.476677 0.799805 0.299983
0.683093 0.868439 0.314426
0.793794 0.896354 0.310980
0.891516 0.903039 0.298241
0.983168 0.904246 0.282519
0.006396 0.060317 0.325683
0.135296 0.078170 0.326715
0.353751 0.092011 0.312796
0.656810 0.118080 0.314108
0.836221 0.150189 0.314205
0.970701 0.181184 0.321875
0.004557 0.210887 0.360929
0.136630 0.201141 0.362156
0.417165 0.236150 0.333729
0.727360 0.286476 0.318128
0.869187 0.311165 0.317013
0.993640 0.344086 0.330014
0.006335 0.370466 0.383475
0.138519 0.398100 0.381868
0.483422 0.424095 0.343505
0.769233 0.463773 0.328412
0.890303 0.481719 0.327217
0.999999 0.506590 0.340822
0.010238 0.483973 0.392213
0.185057 0.530448 0.395830
0.534997 0.603040 0.377322
0.765764 0.640295 0.357290
0.886988 0.646617 0.342635
0.997379 0.682351 0.353693
0.048583 0.588442 0.408187
0.285273 0.657335 0.419099
0.581437 0.728699 0.414887
0.766811 0.780145 0.403076
0.877856 0.775200 0.383371
0.987242 0.764177 0.381723
0.119691 0.725163 0.443844
0.389686 0.796892 0.460826
0.632484 0.852380 0.461214
0.779845 0.893236 0.454163
0.876226 0.897342 0.432609
0.978405 0.898333 0.418047
0.007687 0.069342 0.459567
0.123338 0.080395 0.466568
0.283153 0.083591 0.468085
0.585492 0.110734 0.462553
0.796771 0.147794 0.471923
0.921956 0.176895 0.481522
0.005782 0.218476 0.496848
0.131581 0.217514 0.513971
0.301086 0.234375 0.510112
0.643125 0.280307 0.481005
0.832810 0.320903 0.483212
0.947603 0.346382 0.487955
0.004439 0.360574 0.511780
0.123368 0.377737 0.532021
0.327803 0.398865 0.539341
0.687037 0.449976 0.499793
0.866276 0.491332 0.483554
0.971031 0.521656 0.487943
0.002846 0.485102 0.508043
0.152395 0.526008 0.529060
0.382084 0.589312 0.538664
0.700769 0.621800 0.509082
0.872744 0.636820 0.497047
0.979178 0.668938 0.510602
0.021299 0.603698 0.518625
0.210531 0.658759 0.545375
0.465019 0.722629 0.559749
0.720527 0.777523 0.545548
0.860818 0.788119 0.531091
0.967990 0.801711 0.538864
0.073241 0.728845 0.558774
0.312164 0.797918 0.588760
0.542434 0.851589 0.604912
0.758909 0.904456 0.608013
0.864876 0.917128 0.590382
0.962438 0.915174 0.581956
0.009666 0.084850 0.583383
0.135970 0.099632 0.599943
0.285213 0.106524 0.626207
0.493889 0.126796 0.633126
0.774560 0.179394 0.625323
0.919004 0.205395 0.625605
0.006720 0.223591 0.611039
0.141748 0.237233 0.637439
0.297575 0.251960 0.650717
0.524854 0.294153 0.661525
0.802773 0.359841 0.655610
0.935726 0.383686 0.652728
0.003013 0.354062 0.619031
0.127255 0.374544 0.646140
0.308962 0.399896 0.667790
0.552980 0.447860 0.673934
0.821381 0.507755 0.660938
0.950830 0.547548 0.663910
0.002595 0.487194 0.618905
0.135417 0.506226 0.650253
0.329075 0.556185 0.671925
0.574604 0.595114 0.690768
0.834122 0.644725 0.672394
0.962777 0.670147 0.657679
0.003855 0.615773 0.624352
0.180909 0.655195 0.665127
0.397191 0.714972 0.689931
0.617049 0.755731 0.709725
0.832251 0.783602 0.691907
0.955334 0.788802 0.675556
0.048238 0.739673 0.654904
0.260094 0.800238 0.705333
0.482079 0.848369 0.724179
0.687736 0.906010 0.756166
0.846928 0.927369 0.738211
0.952972 0.911778 0.704233
0.011562 0.097547 0.704220
0.142610 0.119310 0.733497
0.294904 0.128317 0.770546
0.489770 0.174708 0.816308
0.720380 0.237002 0.827953
0.920021 0.289221 0.833143
0.007472 0.226384 0.720783
0.146962 0.252620 0.759389
0.308760 0.267395 0.781428
0.521917 0.323126 0.817537
0.743613 0.400773 0.844451
0.931693 0.458868 0.858417
0.003951 0.360520 0.719633
0.131422 0.382209 0.761259
0.317914 0.411763 0.792091
0.544337 0.467924 0.812511
0.769263 0.539800 0.842152
0.938311 0.589125 0.848747
0.000059 0.477152 0.727686
0.134909 0.513289 0.763219
0.326051 0.553828 0.792005
0.555049 0.605882 0.814499
0.789450 0.663222 0.840566
0.940832 0.695543 0.831874
0.005251 0.626335 0.731876
0.173329 0.650605 0.777479
0.376931 0.696587 0.811481
0.572068 0.740302 0.821884
0.795580 0.785766 0.857707
0.941769 0.812401 0.839345
0.049825 0.757611 0.752005
0.251940 0.803926 0.811197
0.463892 0.859655 0.845996
0.644277 0.893287 0.869651
0.814541 0.930387 0.893274
0.943419 0.923883 0.868171
