assets/lut/editingcorp randas.cube
# Created by: G'MIC (https://gmic.eu)
TITLE "randas"
# LUT size
LUT_3D_SIZE 5
# Data domain
DOMAIN_MIN 0.0 0.0 0.0
DOMAIN_MAX 1.0 1.0 1.0
# LUT data points
0.043784406036138535 0.039998207241296768 0.070984691381454468
0.33187192678451538 0.050488684326410294 0.078155770897865295
0.65529167652130127 0.077848993241786957 0.12743228673934937
0.8208392858505249 0.077881261706352234 0.1391800194978714
0.93067651987075806 0.07037169486284256 0.14417831599712372
0.064619876444339752 0.26836535334587097 0.094786703586578369
0.25082144141197205 0.24053153395652771 0.085670337080955505
0.61117261648178101 0.2341897189617157 0.11535264551639557
0.82472515106201172 0.21115913987159729 0.14684301614761353
0.93309956789016724 0.20858703553676605 0.14694690704345703
0.093277379870414734 0.60623347759246826 0.13927370309829712
0.19706350564956665 0.59230500459671021 0.12728343904018402
0.5435798168182373 0.57046806812286377 0.11315485835075378
0.81519001722335815 0.55946987867355347 0.14138489961624146
0.93667328357696533 0.54575371742248535 0.14911776781082153
0.1223471537232399 0.81420612335205078 0.19464986026287079
0.21905624866485596 0.8130643367767334 0.20332410931587219
0.41940096020698547 0.81820213794708252 0.18273748457431793
0.78087311983108521 0.7932438850402832 0.15712876617908478
0.93673253059387207 0.77719771862030029 0.17424212396144867
0.11017430573701859 0.9497717022895813 0.20030173659324646
0.20966914296150208 0.94215536117553711 0.21818074584007263
0.35021504759788513 0.9478524923324585 0.22534748911857605
0.71167212724685669 0.9485747218132019 0.21001569926738739
0.91129499673843384 0.95563668012619019 0.20985141396522522
0.077763892710208893 0.052056960761547089 0.3370797336101532
0.3379075825214386 0.049097500741481781 0.31679469347000122
0.65903407335281372 0.075101219117641449 0.29392603039741516
0.82766687870025635 0.070148736238479614 0.27593165636062622
0.93751686811447144 0.084259912371635437 0.28570753335952759
0.06496100127696991 0.25944241881370544 0.28149959444999695
0.25788143277168274 0.24806603789329529 0.2757532000541687
0.62498849630355835 0.23231054842472076 0.26375794410705566
0.82380688190460205 0.22063961625099182 0.25114062428474426
0.93908238410949707 0.22688619792461395 0.25923639535903931
0.092279218137264252 0.60376888513565063 0.26397854089736938
0.19331991672515869 0.59880340099334717 0.24688670039176941
0.54663658142089844 0.57816779613494873 0.21628738939762115
0.82513916492462158 0.55928713083267212 0.23267950117588043
0.93897312879562378 0.54321211576461792 0.23485662043094635
0.12363807857036591 0.81810402870178223 0.27709034085273743
0.22145771980285645 0.8079105019569397 0.28249251842498779
0.41543233394622803 0.81871604919433594 0.27598321437835693
0.78375840187072754 0.79630172252655029 0.26086035370826721
0.93436872959136963 0.77180981636047363 0.28673258423805237
0.12568674981594086 0.94015192985534668 0.28294172883033752
0.22412610054016113 0.93217974901199341 0.29300922155380249
0.36439406871795654 0.94464939832687378 0.31474095582962036
0.72654247283935547 0.95721358060836792 0.30303764343261719
0.92416858673095703 0.95216822624206543 0.32566580176353455
0.17391592264175415 0.062572687864303589 0.70209401845932007
0.38542592525482178 0.070951990783214569 0.67566835880279541
0.6641274094581604 0.067551538348197937 0.65683823823928833
0.83179306983947754 0.072907194495201111 0.63647103309631348
0.93445771932601929 0.063200764358043671 0.61868768930435181
0.11633952707052231 0.28829494118690491 0.64524513483047485
0.31947425007820129 0.25241255760192871 0.64918249845504761
0.62908899784088135 0.21657659113407135 0.61774313449859619
0.83041465282440186 0.21524865925312042 0.60444515943527222
0.93777453899383545 0.20787549018859863 0.58405506610870361
0.10616755485534668 0.60325974225997925 0.58843111991882324
0.20311178267002106 0.60099393129348755 0.57532668113708496
0.5728222131729126 0.61475843191146851 0.6055305004119873
0.85013645887374878 0.60885608196258545 0.61110299825668335
0.96764492988586426 0.60416096448898315 0.60407054424285889
0.12253190577030182 0.8153272271156311 0.53293168544769287
0.22565992176532745 0.81408476829528809 0.52491098642349243
0.43118813633918762 0.82150781154632568 0.53499728441238403
0.80441653728485107 0.81462341547012329 0.53481888771057129
0.96258163452148438 0.79530078172683716 0.53078776597976685
0.12862107157707214 0.93906563520431519 0.4741518497467041
0.21732014417648315 0.93431371450424194 0.48275947570800781
0.3434252142906189 0.94550013542175293 0.47576367855072021
0.7527351975440979 0.96917963027954102 0.48640355467796326
0.95332729816436768 0.96264815330505371 0.4810079038143158
0.21317286789417267 0.078464895486831665 0.85446047782897949
0.42540201544761658 0.084863297641277313 0.85718995332717896
0.67808723449707031 0.10109115391969681 0.85342490673065186
0.83133065700531006 0.074629761278629303 0.84597516059875488
0.93226921558380127 0.076401911675930023 0.83320987224578857
0.17536802589893341 0.30157968401908875 0.85022628307342529
0.37962785363197327 0.26790240406990051 0.85391891002655029
0.64935958385467529 0.21737879514694214 0.84931570291519165
0.83620387315750122 0.20735488831996918 0.83771157264709473
0.93605875968933105 0.20442506670951843 0.82352232933044434
0.11727624386548996 0.61799222230911255 0.83704173564910889
0.25270253419876099 0.61607480049133301 0.84155732393264771
0.6139644980430603 0.62427622079849243 0.86164182424545288
0.85747826099395752 0.60471230745315552 0.84409338235855103
0.96901172399520874 0.59186631441116333 0.829864501953125
0.12734085321426392 0.82634007930755615 0.81260055303573608
0.22102938592433929 0.82095849514007568 0.80724745988845825
0.43073436617851257 0.82444888353347778 0.80976420640945435
0.83155697584152222 0.84665888547897339 0.83791518211364746
0.98234093189239502 0.83593028783798218 0.83369588851928711
0.1252637654542923 0.93451929092407227 0.77590131759643555
0.20014622807502747 0.93874055147171021 0.77335482835769653
0.31906971335411072 0.94554686546325684 0.76613038778305054
0.77759093046188354 0.98326700925827026 0.80976659059524536
0.9815824031829834 0.98192644119262695 0.80644315481185913
0.2190418541431427 0.072876662015914917 0.9353448748588562
0.41992765665054321 0.08813253790140152 0.93516343832015991
0.66849040985107422 0.094851128756999969 0.93592375516891479
0.83867883682250977 0.07255573570728302 0.93552309274673462
0.93651890754699707 0.051580838859081268 0.9285590648651123
0.20026876032352448 0.29846847057342529 0.94063198566436768
0.39273318648338318 0.27379250526428223 0.94389069080352783
0.6431693434715271 0.210436150431633 0.93759810924530029
0.83685046434402466 0.19442415237426758 0.93511724472045898
0.93730336427688599 0.1912200003862381 0.93195176124572754
0.12887546420097351 0.61290246248245239 0.940399169921875
0.26016122102737427 0.61421138048171997 0.94152975082397461
0.61271774768829346 0.63290709257125854 0.96497577428817749
0.84997683763504028 0.60185295343399048 0.96655851602554321
0.97299569845199585 0.59276419878005981 0.96149814128875732
0.13043522834777832 0.82174909114837646 0.93828725814819336
0.22164174914360046 0.81500840187072754 0.93704253435134888
0.46298757195472717 0.82095474004745483 0.95022052526473999
0.83397901058197021 0.85035282373428345 0.98371535539627075
0.9929395318031311 0.84667187929153442 0.98411530256271362
0.12929248809814453 0.93738645315170288 0.93706297874450684
0.2105499804019928 0.93844598531723022 0.93779969215393066
0.419831782579422 0.94465756416320801 0.94552397727966309
0.80126953125 0.98948806524276733 0.98374056816101074
0.99455028772354126 0.99484068155288696 0.99041652679443359
