assets/lut/editingcorp convold.cube
# Created by: G'MIC (https://gmic.eu)
TITLE "convold"
# LUT size
LUT_3D_SIZE 5
# Data domain
DOMAIN_MIN 0.0 0.0 0.0
DOMAIN_MAX 1.0 1.0 1.0
# LUT data points
0.065869241952896118 0.039315689355134964 0.13705256581306458
0.40671932697296143 0.033633377403020859 0.090682283043861389
0.73454946279525757 0.030868351459503174 0.094142377376556396
0.94895398616790771 0.03143271803855896 0.091058842837810516
1 0.018682412803173065 0.090540029108524323
0.066882297396659851 0.38420864939689636 0.114549420773983
0.34561306238174438 0.35462778806686401 0.097501076757907867
0.6804882287979126 0.339893639087677 0.094742447137832642
0.92941552400588989 0.33323615789413452 0.10494751483201981
0.99810934066772461 0.32387307286262512 0.098223187029361725
0.060228925198316574 0.71575719118118286 0.1040693074464798
0.29363828897476196 0.69149678945541382 0.09695000946521759
0.6196218729019165 0.68459498882293701 0.10348371416330338
0.90935701131820679 0.67832291126251221 0.10106401890516281
1 0.66907787322998047 0.095820501446723938
0.049752958118915558 0.95062160491943359 0.085432820022106171
0.23279248178005219 0.93815016746520996 0.098569072782993317
0.55844157934188843 0.92162412405014038 0.10653316974639893
0.86699718236923218 0.93325346708297729 0.10332106053829193
0.99941051006317139 0.93364596366882324 0.098513811826705933
0.057655859738588333 0.99113798141479492 0.094879552721977234
0.21262195706367493 0.99243474006652832 0.096497856080532074
0.49717524647712708 0.98878198862075806 0.10898036509752274
0.80724865198135376 0.99149078130722046 0.1016981229186058
0.99402278661727905 1 0.083579011261463165
0.065245397388935089 0.035434197634458542 0.50172442197799683
0.39426401257514954 0.02338460274040699 0.40592581033706665
0.73167777061462402 0.027391545474529266 0.33811652660369873
0.94138425588607788 0.024083185940980911 0.28807330131530762
0.99883514642715454 0.017226783558726311 0.26868811249732971
0.055837295949459076 0.3789970874786377 0.44756758213043213
0.34239518642425537 0.34662121534347534 0.35720521211624146
0.67502045631408691 0.33235737681388855 0.29236271977424622
0.92853248119354248 0.32269561290740967 0.24829395115375519
0.99823063611984253 0.31522691249847412 0.21951371431350708
0.045988660305738449 0.71570867300033569 0.37986564636230469
0.28219807147979736 0.68685990571975708 0.29633548855781555
0.61624681949615479 0.68117761611938477 0.24329543113708496
0.90733760595321655 0.67507505416870117 0.22417366504669189
0.99920058250427246 0.66583734750747681 0.20582573115825653
0.047325193881988525 0.9478449821472168 0.31890803575515747
0.22862081229686737 0.94108736515045166 0.25380465388298035
0.54586994647979736 0.92967385053634644 0.22115716338157654
0.85868209600448608 0.93446409702301025 0.20730184018611908
0.99946552515029907 0.93409377336502075 0.2157588005065918
0.056395094841718674 0.98975110054016113 0.26837962865829468
0.19573061168193817 0.98588216304779053 0.21446719765663147
0.48090562224388123 0.98720335960388184 0.20835177600383759
0.80421078205108643 0.98403346538543701 0.2004072517156601
0.99962425231933594 0.99802666902542114 0.20466496050357819
0.071148410439491272 0.032157223671674728 0.84055626392364502
0.38282990455627441 0.023490486666560173 0.77295398712158203
0.71452760696411133 0.031391575932502747 0.74555402994155884
0.93964689970016479 0.028402859345078468 0.68700158596038818
0.99822002649307251 0.029940616339445114 0.66411685943603516
0.048987802118062973 0.36239767074584961 0.80238789319992065
0.32586023211479187 0.33553659915924072 0.74495983123779297
0.66244828701019287 0.33014130592346191 0.69528055191040039
0.92602670192718506 0.32139214873313904 0.63764661550521851
0.99698835611343384 0.3142152726650238 0.5948866605758667
0.0578804612159729 0.70618158578872681 0.78406816720962524
0.27287262678146362 0.68381285667419434 0.69370561838150024
0.59839224815368652 0.67226910591125488 0.63200193643569946
0.90266567468643188 0.66438627243041992 0.57546281814575195
0.99524480104446411 0.65663212537765503 0.52178943157196045
0.055902428925037384 0.94557243585586548 0.72814124822616577
0.21321460604667664 0.93940526247024536 0.63739013671875
0.52921515703201294 0.92754828929901123 0.57319605350494385
0.84540402889251709 0.93372458219528198 0.50905174016952515
0.99878913164138794 0.92955762147903442 0.46204763650894165
0.053064323961734772 0.9828956127166748 0.65791779756546021
0.1935371607542038 0.98356574773788452 0.57100707292556763
0.47116601467132568 0.98843890428543091 0.51392656564712524
0.79627245664596558 0.98754912614822388 0.44527524709701538
0.99986463785171509 0.99352681636810303 0.41793853044509888
0.064533144235610962 0.026094354689121246 0.93602627515792847
0.36094444990158081 0.017777102068066597 0.93788391351699829
0.70369529724121094 0.023384049534797668 0.94218653440475464
0.93855977058410645 0.020223235711455345 0.91873395442962646
0.99867594242095947 0.013753928244113922 0.91354215145111084
0.056787453591823578 0.35777896642684937 0.92839598655700684
0.30818060040473938 0.32551330327987671 0.93135154247283936
0.64364504814147949 0.3108576238155365 0.92462563514709473
0.91619580984115601 0.30426517128944397 0.91416096687316895
0.99888783693313599 0.29710638523101807 0.90794676542282104
0.050079122185707092 0.69514733552932739 0.93426227569580078
0.25384658575057983 0.66994225978851318 0.9280286431312561
0.5864861011505127 0.66083443164825439 0.92166757583618164
0.88900411128997803 0.65462398529052734 0.90667450428009033
1 0.64675474166870117 0.88808518648147583
0.051390361040830612 0.94340425729751587 0.92557781934738159
0.20674805343151093 0.93365669250488281 0.91851997375488281
0.52579802274703979 0.92873620986938477 0.90142905712127686
0.83291792869567871 0.9253840446472168 0.8820839524269104
0.99905186891555786 0.91504532098770142 0.85069334506988525
0.055139023810625076 0.9866330623626709 0.91282320022583008
0.1986716091632843 0.98492240905761719 0.89011287689208984
0.4637761116027832 0.98839843273162842 0.87953716516494751
0.78014844655990601 0.98760801553726196 0.84496301412582397
0.99940258264541626 0.98918765783309937 0.80116254091262817
0.070021443068981171 0.030321696773171425 0.96271699666976929
0.34789896011352539 0.020142918452620506 0.96068257093429565
0.68306642770767212 0.017739433795213699 0.96623307466506958
0.9329947829246521 0.018820609897375107 0.96507304906845093
1 0.0059391693212091923 0.96948528289794922
0.049110952764749527 0.33645707368850708 0.96494972705841064
0.27795568108558655 0.31514361500740051 0.96357035636901855
0.62769544124603271 0.29412668943405151 0.96423065662384033
0.91493159532546997 0.28993058204650879 0.9639706015586853
0.99965804815292358 0.28330838680267334 0.96844756603240967
0.053802937269210815 0.68470162153244019 0.96323531866073608
0.24056658148765564 0.65491873025894165 0.96322828531265259
0.56660538911819458 0.64696943759918213 0.96360516548156738
0.8745720386505127 0.64456343650817871 0.96470588445663452
1 0.63085579872131348 0.97114086151123047
0.056394942104816437 0.94051307439804077 0.96321958303451538
0.21593913435935974 0.91720163822174072 0.96173572540283203
0.50444483757019043 0.91989374160766602 0.96313667297363281
0.81438624858856201 0.9153517484664917 0.96410638093948364
0.99795889854431152 0.91341757774353027 0.96466660499572754
0.058578431606292725 0.98742437362670898 0.96450424194335938
0.20737245678901672 0.989654541015625 0.96708858013153076
0.44646671414375305 0.98882412910461426 0.96540111303329468
0.76496732234954834 0.99535882472991943 0.97421622276306152
0.99372750520706177 0.98806279897689819 0.96319019794464111
