assets/lut/editingcorp ideo.cube
# Created by: G'MIC (https://gmic.eu)
TITLE "ideo"
# LUT size
LUT_3D_SIZE 5
# Data domain
DOMAIN_MIN 0.0 0.0 0.0
DOMAIN_MAX 1.0 1.0 1.0
# LUT data points
0.0058760251849889755 0.0061589260585606098 0.058877144008874893
0.20760168135166168 0.057972881942987442 0.09159030020236969
0.51211440563201904 0.14259347319602966 0.19759735465049744
0.66307038068771362 0.15326781570911407 0.24621093273162842
0.75252056121826172 0.14305344223976135 0.25749951601028442
0.016455542296171188 0.20626156032085419 0.061722848564386368
0.21044975519180298 0.21206897497177124 0.084239155054092407
0.51445430517196655 0.25028157234191895 0.182703897356987
0.6890716552734375 0.30539107322692871 0.24430687725543976
0.77123135328292847 0.30715087056159973 0.25840047001838684
0.042394556105136871 0.4298701286315918 0.084387011826038361
0.15123538672924042 0.44893929362297058 0.074727155268192291
0.54284852743148804 0.48142126202583313 0.16208070516586304
0.71684986352920532 0.50199407339096069 0.21535027027130127
0.78310739994049072 0.50320005416870117 0.22050756216049194
0.070243090391159058 0.63302558660507202 0.10650914162397385
0.16502572596073151 0.63410156965255737 0.10412042587995529
0.45692005753517151 0.68908292055130005 0.097145289182662964
0.70450586080551147 0.71679830551147461 0.18466012179851532
0.79518604278564453 0.68487679958343506 0.22633616626262665
0.069026768207550049 0.77426087856292725 0.097470708191394806
0.076661549508571625 0.78694295883178711 0.11002694070339203
0.37762564420700073 0.8172728419303894 0.11701905727386475
0.63730102777481079 0.8435673713684082 0.0946832075715065
0.77626150846481323 0.85366189479827881 0.11535840481519699
0.030992934480309486 0.055250577628612518 0.23258966207504272
0.29336780309677124 0.048420477658510208 0.22290055453777313
0.54503607749938965 0.12272736430168152 0.27310514450073242
0.67965853214263916 0.16446056962013245 0.31228068470954895
0.76013386249542236 0.16317008435726166 0.32218530774116516
0.031927160918712616 0.19960811734199524 0.23512445390224457
0.19226600229740143 0.23096705973148346 0.22601640224456787
0.51777255535125732 0.24926251173019409 0.25240615010261536
0.68730789422988892 0.29604554176330566 0.30646374821662903
0.77243095636367798 0.2992120087146759 0.31543144583702087
0.044954411685466766 0.40982529520988464 0.18780021369457245
0.13575254380702972 0.44539734721183777 0.14873151481151581
0.54512089490890503 0.48667111992835999 0.21952360868453979
0.72200578451156616 0.51504850387573242 0.26373082399368286
0.79028046131134033 0.51210188865661621 0.2713744044303894
0.068374425172805786 0.63853800296783447 0.17162442207336426
0.14941930770874023 0.64320820569992065 0.15908955037593842
0.46486333012580872 0.69068032503128052 0.15868553519248962
0.70551258325576782 0.72152853012084961 0.23172511160373688
0.79747468233108521 0.68663316965103149 0.27582326531410217
0.079141385853290558 0.78681725263595581 0.16736698150634766
0.10599715262651443 0.79211163520812988 0.18014049530029297
0.38990461826324463 0.82371670007705688 0.1701926589012146
0.63794910907745361 0.8484993577003479 0.16611424088478088
0.76419579982757568 0.85476589202880859 0.15389905869960785
0.055768344551324844 0.16266211867332458 0.45203503966331482
0.25967004895210266 0.15572036802768707 0.43270915746688843
0.61219280958175659 0.24337340891361237 0.42163458466529846
0.72263127565383911 0.26348549127578735 0.45331853628158569
0.79447954893112183 0.27042248845100403 0.47141137719154358
0.053649228066205978 0.26191377639770508 0.44578251242637634
0.11167065799236298 0.2826976478099823 0.4629720151424408
0.59993982315063477 0.33749479055404663 0.42695900797843933
0.73111295700073242 0.36169111728668213 0.45875710248947144
0.80015546083450317 0.3587850034236908 0.46996068954467773
0.052785493433475494 0.45811852812767029 0.50226128101348877
0.042886637151241302 0.46453672647476196 0.50258326530456543
0.56573837995529175 0.54790985584259033 0.48837888240814209
0.75021320581436157 0.54767745733261108 0.47690039873123169
0.82164329290390015 0.54043424129486084 0.47220081090927124
0.064699657261371613 0.64223247766494751 0.44271853566169739
0.065591879189014435 0.61502468585968018 0.41052514314651489
0.446490079164505 0.70701462030410767 0.28619498014450073
0.71834897994995117 0.73009127378463745 0.31168317794799805
0.8121488094329834 0.70205134153366089 0.37116006016731262
0.078282013535499573 0.79559987783432007 0.29835805296897888
0.077650986611843109 0.79698389768600464 0.31483414769172668
0.31043845415115356 0.83657276630401611 0.21713121235370636
0.65114063024520874 0.86252623796463013 0.21555431187152863
0.77545100450515747 0.85673809051513672 0.20785242319107056
0.059279691427946091 0.25236409902572632 0.6044609546661377
0.20817582309246063 0.26914769411087036 0.58326321840286255
0.63977396488189697 0.3647618293762207 0.60336261987686157
0.76958209276199341 0.40875953435897827 0.67598831653594971
0.83481788635253906 0.41740751266479492 0.69081473350524902
0.061721216887235641 0.33490774035453796 0.62507039308547974
0.085412509739398956 0.34313115477561951 0.63702476024627686
0.6201663613319397 0.43311110138893127 0.63321900367736816
0.78100466728210449 0.48206380009651184 0.6815418004989624
0.8400576114654541 0.4891875684261322 0.68463212251663208
0.072848059237003326 0.45543119311332703 0.68155461549758911
0.086771748960018158 0.47190138697624207 0.69657504558563232
0.423879474401474 0.52538430690765381 0.74593114852905273
0.7977791428565979 0.60263925790786743 0.72472035884857178
0.86186641454696655 0.61902129650115967 0.73415279388427734
0.071993745863437653 0.66314399242401123 0.75363248586654663
0.075216136872768402 0.66921675205230713 0.74767231941223145
0.18848082423210144 0.69688969850540161 0.73101842403411865
0.80337470769882202 0.79316848516464233 0.7343674898147583
0.88931113481521606 0.78981757164001465 0.75206911563873291
0.078431375324726105 0.79920077323913574 0.73865324258804321
0.087868139147758484 0.81445193290710449 0.73362100124359131
0.11610102653503418 0.83272546529769897 0.6452520489692688
0.73560106754302979 0.90718036890029907 0.57648056745529175
0.8640141487121582 0.90272641181945801 0.59357738494873047
0.059341594576835632 0.26135161519050598 0.67470699548721313
0.17992459237575531 0.29391637444496155 0.65329611301422119
0.64545881748199463 0.38665017485618591 0.6774715781211853
0.78664326667785645 0.41156196594238281 0.74357086420059204
0.87664943933486938 0.42930114269256592 0.79752618074417114
0.084534019231796265 0.35771322250366211 0.70834457874298096
0.10802692919969559 0.36693480610847473 0.71283024549484253
0.57227301597595215 0.43453553318977356 0.73291927576065063
0.81314903497695923 0.48879429697990417 0.76881378889083862
0.89151281118392944 0.50829941034317017 0.81495195627212524
0.074566982686519623 0.47380951046943665 0.76472246646881104
0.069017656147480011 0.48228046298027039 0.77664446830749512
0.36046683788299561 0.52764356136322021 0.82738417387008667
0.82387536764144897 0.58784717321395874 0.84480303525924683
0.89748895168304443 0.61829984188079834 0.8532375693321228
0.08235294371843338 0.6229931116104126 0.8240358829498291
0.098556011915206909 0.62933921813964844 0.82614409923553467
0.22047609090805054 0.65576815605163574 0.84259533882141113
0.80127382278442383 0.78526049852371216 0.89345526695251465
0.91807520389556885 0.80338871479034424 0.91056680679321289
0.07468578964471817 0.732452392578125 0.86110007762908936
0.081855654716491699 0.74547117948532104 0.85333395004272461
0.11157502979040146 0.78027647733688354 0.87035435438156128
0.69952559471130371 0.89143103361129761 0.90763235092163086
0.93034058809280396 0.94451183080673218 0.91691356897354126
