assets/lut/editingcorp loro.cube
# Created by: G'MIC (https://gmic.eu)
TITLE "loro"
# LUT size
LUT_3D_SIZE 7
# Data domain
DOMAIN_MIN 0.0 0.0 0.0
DOMAIN_MAX 1.0 1.0 1.0
# LUT data points
0.019293691962957382 0.019660081714391708 0.019604463130235672
0.22853751480579376 0.017368525266647339 0.015621409751474857
0.48067322373390198 0.022328589111566544 0.015669863671064377
0.66866403818130493 0.057086046785116196 0.017668182030320168
0.78930032253265381 0.061772186309099197 0.015699828043580055
0.86009955406188965 0.026794867590069771 0.016036612913012505
0.93571275472640991 0.021565889939665794 0.011320076882839203
0.047965254634618759 0.14617836475372314 0.073094159364700317
0.17895640432834625 0.14077414572238922 0.047586433589458466
0.4484754204750061 0.14308489859104156 0.0089283064007759094
0.66012769937515259 0.15431050956249237 0.014452123083174229
0.78708618879318237 0.16643604636192322 0.014271979220211506
0.86307144165039062 0.15847273170948029 0.012806836515665054
0.93613123893737793 0.15366190671920776 0.014391999691724777
0.14662165939807892 0.32522812485694885 0.18129943311214447
0.20468498766422272 0.31574615836143494 0.16767413914203644
0.40110012888908386 0.31201249361038208 0.064069949090480804
0.65696907043457031 0.32838684320449829 0.012628412805497646
0.80847340822219849 0.32949164509773254 0.021146047860383987
0.88764446973800659 0.31464496254920959 0.017310438677668571
0.95766806602478027 0.29795145988464355 0.015053977258503437
0.24656353890895844 0.50909847021102905 0.30091330409049988
0.30774873495101929 0.4990423321723938 0.28986379504203796
0.38870128989219666 0.51746046543121338 0.26785331964492798
0.63781642913818359 0.51538288593292236 0.069825790822505951
0.81819528341293335 0.5085759162902832 0.013869416899979115
0.90753722190856934 0.4918636679649353 0.017241219058632851
0.98081463575363159 0.46478870511054993 0.0072664595209062099
0.3027922511100769 0.6571841835975647 0.37925580143928528
0.38009032607078552 0.65552222728729248 0.38064795732498169
0.45605990290641785 0.65952545404434204 0.3813912570476532
0.55900996923446655 0.72060948610305786 0.38071820139884949
0.77471107244491577 0.7067827582359314 0.17424112558364868
0.91908639669418335 0.65631651878356934 0.019919855520129204
0.99072539806365967 0.62665873765945435 0.0060166600160300732
0.32212379574775696 0.75885689258575439 0.40663796663284302
0.40230035781860352 0.76050877571105957 0.409415602684021
0.47946006059646606 0.75474309921264648 0.40326419472694397
0.55858588218688965 0.79780447483062744 0.43097111582756042
0.67066371440887451 0.85635358095169067 0.45626777410507202
0.87789404392242432 0.8236393928527832 0.24848359823226929
0.97220879793167114 0.7999718189239502 0.17760246992111206
0.32524511218070984 0.83668488264083862 0.41117420792579651
0.39865913987159729 0.83514291048049927 0.41054004430770874
0.47365403175354004 0.83364546298980713 0.40858033299446106
0.55501270294189453 0.85987502336502075 0.42472720146179199
0.64113348722457886 0.92317062616348267 0.46775957942008972
0.82640260457992554 0.92562472820281982 0.34902313351631165
0.9718506932258606 0.91239029169082642 0.25569456815719604
0.015152007341384888 0.028863390907645226 0.10820262879133224
0.20721425116062164 0.029139693826436996 0.11425729095935822
0.49332359433174133 0.022757092490792274 0.105302594602108
0.66122645139694214 0.038340922445058823 0.10608931630849838
0.77699297666549683 0.06355845183134079 0.10836775600910187
0.85359293222427368 0.050264470279216766 0.10291585326194763
0.93244951963424683 0.03249073401093483 0.09961719810962677
0.032605011016130447 0.15422946214675903 0.15459941327571869
0.155830979347229 0.15172803401947021 0.14915943145751953
0.457663893699646 0.14099109172821045 0.1103222444653511
0.65870046615600586 0.15021666884422302 0.10655782371759415
0.78476536273956299 0.1661040335893631 0.10958605259656906
0.85708999633789062 0.16505959630012512 0.10581854730844498
0.93587076663970947 0.15459609031677246 0.10030382871627808
0.13510023057460785 0.32208505272865295 0.2489020824432373
0.20605196058750153 0.31661465764045715 0.24528463184833527
0.39799576997756958 0.31257328391075134 0.15346731245517731
0.65975731611251831 0.32053905725479126 0.088820993900299072
0.80981230735778809 0.32339558005332947 0.093638703227043152
0.88331776857376099 0.30496728420257568 0.092895910143852234
0.95634782314300537 0.29325532913208008 0.095272958278656006
0.25161409378051758 0.51252990961074829 0.38322010636329651
0.31298047304153442 0.50017184019088745 0.36997106671333313
0.38047036528587341 0.51077139377593994 0.35010111331939697
0.64109677076339722 0.51140856742858887 0.12989267706871033
0.82093733549118042 0.49987486004829407 0.074563406407833099
0.90796738862991333 0.48555082082748413 0.094395972788333893
0.98335760831832886 0.4643423855304718 0.094390854239463806
0.30815908312797546 0.66077256202697754 0.46108990907669067
0.38287565112113953 0.65802222490310669 0.4582984447479248
0.45649555325508118 0.6576722264289856 0.45162880420684814
0.55412089824676514 0.72086137533187866 0.4676760733127594
0.77396869659423828 0.69689536094665527 0.23452340066432953
0.91394138336181641 0.65487045049667358 0.095469392836093903
0.99166667461395264 0.62210971117019653 0.070930927991867065
0.3201172947883606 0.75733590126037598 0.48077762126922607
0.39597463607788086 0.75483095645904541 0.47764605283737183
0.48105555772781372 0.75430887937545776 0.47874394059181213
0.55903428792953491 0.79746049642562866 0.51264554262161255
0.66348457336425781 0.85338443517684937 0.51759380102157593
0.87476503849029541 0.82174134254455566 0.32605668902397156
0.97654175758361816 0.79152852296829224 0.22779417037963867
0.31994959712028503 0.8340035080909729 0.48263850808143616
0.39391651749610901 0.83121716976165771 0.48047828674316406
0.47170186042785645 0.83275872468948364 0.48445075750350952
0.55223822593688965 0.86341476440429688 0.50676614046096802
0.64200788736343384 0.92205566167831421 0.54373866319656372
0.82493531703948975 0.92451351881027222 0.42917591333389282
0.97390425205230713 0.9091416597366333 0.32292464375495911
0.021876182407140732 0.065223336219787598 0.2182169109582901
0.11666610091924667 0.052009910345077515 0.23185104131698608
0.49599921703338623 0.047203481197357178 0.31274983286857605
0.66702979803085327 0.058549515902996063 0.27868250012397766
0.77136397361755371 0.064860038459300995 0.26243877410888672
0.8446233868598938 0.045129545032978058 0.26115113496780396
0.92347186803817749 0.056088555604219437 0.25835666060447693
0.036967813968658447 0.19121842086315155 0.26980414986610413
0.10738997906446457 0.18626464903354645 0.26858466863632202
0.43458527326583862 0.17317570745944977 0.30465829372406006
0.65679293870925903 0.16896957159042358 0.28125479817390442
0.76717573404312134 0.20269617438316345 0.2808988094329834
0.8459276556968689 0.1931145191192627 0.26808071136474609
0.92656105756759644 0.19631077349185944 0.25984483957290649
0.077124349772930145 0.3081575334072113 0.29034483432769775
0.15332558751106262 0.30786454677581787 0.29304319620132446
0.32401224970817566 0.32442370057106018 0.30535134673118591
0.64708304405212402 0.32558184862136841 0.2631283700466156
0.78667521476745605 0.32339531183242798 0.24022862315177917
0.87071675062179565 0.3075864315032959 0.22741344571113586
0.94814378023147583 0.30815261602401733 0.23231564462184906
0.21314685046672821 0.49561026692390442 0.41979792714118958
0.29516205191612244 0.49438709020614624 0.41990509629249573
0.37347501516342163 0.50380223989486694 0.43304142355918884
0.63085329532623291 0.51445502042770386 0.25885778665542603
0.81739145517349243 0.49434307217597961 0.19802564382553101
0.9065050482749939 0.47861221432685852 0.21095195412635803
0.98061555624008179 0.46315625309944153 0.21301136910915375
0.33619481325149536 0.67362493276596069 0.56475400924682617
0.40134859085083008 0.66600781679153442 0.55212712287902832
0.47478672862052917 0.663848876953125 0.54425668716430664
0.55792635679244995 0.71172910928726196 0.53877049684524536
0.7708439826965332 0.69691145420074463 0.32148554921150208
0.91759967803955078 0.64914578199386597 0.16659322381019592
0.99155700206756592 0.62255924940109253 0.16147187352180481
0.32902911305427551 0.75899362564086914 0.5642390251159668
0.40070298314094543 0.75633275508880615 0.55746030807495117
0.4768989086151123 0.75929027795791626 0.56175559759140015
0.55738210678100586 0.79314804077148438 0.58358561992645264
0.66171258687973022 0.85210579633712769 0.60190415382385254
0.87613427639007568 0.81959789991378784 0.39262637495994568
0.97714924812316895 0.79131120443344116 0.30220755934715271
0.32659474015235901 0.83631014823913574 0.56356793642044067
0.40435466170310974 0.83669817447662354 0.5643845796585083
0.47949013113975525 0.83804130554199219 0.56685525178909302
0.55792015790939331 0.8630797266960144 0.58370816707611084
0.63884347677230835 0.9228137731552124 0.6169922947883606
0.81416642665863037 0.92873615026473999 0.51821041107177734
0.96775180101394653 0.91482686996459961 0.41832587122917175
0.03152802586555481 0.11621212214231491 0.35206326842308044
0.097397103905677795 0.11968117207288742 0.35750055313110352
0.39163294434547424 0.10103059560060501 0.48569998145103455
0.67980021238327026 0.10189930349588394 0.5242919921875
0.78017014265060425 0.13087967038154602 0.52224445343017578
0.85248088836669922 0.10699371993541718 0.48932486772537231
0.92921841144561768 0.11544489860534668 0.46349164843559265
0.059189546853303909 0.23063075542449951 0.39337024092674255
0.12678195536136627 0.22516006231307983 0.38694065809249878
0.30399826169013977 0.21355010569095612 0.44644206762313843
0.66971969604492188 0.21428388357162476 0.51769447326660156
0.77127456665039062 0.24490334093570709 0.5001111626625061
0.8493383526802063 0.2346605509519577 0.47311636805534363
0.92759519815444946 0.23592734336853027 0.45317745208740234
0.06882254034280777 0.32902812957763672 0.40411588549613953
0.14634081721305847 0.32655885815620422 0.40106430649757385
0.22624535858631134 0.3329731822013855 0.41109633445739746
0.62721604108810425 0.35669276118278503 0.50614982843399048
0.78142160177230835 0.35835346579551697 0.47313949465751648
0.85736227035522461 0.34813570976257324 0.44411873817443848
0.93929564952850342 0.34540051221847534 0.43373730778694153
0.12173321098089218 0.46624806523323059 0.43664431571960449
0.19618833065032959 0.45969170331954956 0.43124830722808838
0.27730146050453186 0.46532446146011353 0.43352556228637695
0.5121917724609375 0.52623587846755981 0.5126911997795105
0.80106019973754883 0.53797763586044312 0.5028415322303772
0.89317053556442261 0.50995403528213501 0.46619382500648499
0.96911680698394775 0.50102037191390991 0.44840258359909058
0.26360723376274109 0.65678268671035767 0.56102919578552246
0.33834084868431091 0.6528974175453186 0.55595093965530396
0.43159753084182739 0.65436691045761108 0.57377183437347412
0.55104118585586548 0.69202631711959839 0.61676275730133057
0.77998912334442139 0.72629648447036743 0.54450303316116333
0.92634749412536621 0.68087947368621826 0.43459561467170715
0.99483108520507812 0.6648373007774353 0.44466054439544678
0.33563530445098877 0.77148306369781494 0.64190828800201416
0.4280775785446167 0.77339136600494385 0.6625065803527832
0.5003657341003418 0.77456778287887573 0.65346223115921021
0.59795975685119629 0.78775060176849365 0.67217433452606201
0.69129163026809692 0.85465067625045776 0.69559025764465332
0.87954413890838623 0.83728629350662231 0.53954768180847168
0.98114156723022461 0.81503641605377197 0.47992017865180969
0.35739743709564209 0.85496383905410767 0.668049156665802
0.43335095047950745 0.85313355922698975 0.66877597570419312
0.51389628648757935 0.85569459199905396 0.67405015230178833
0.5827401876449585 0.86902105808258057 0.67010486125946045
0.66973292827606201 0.92368519306182861 0.69941478967666626
0.82727497816085815 0.94259405136108398 0.62677693367004395
0.97707414627075195 0.92860394716262817 0.53704965114593506
0.030130976811051369 0.12050235271453857 0.44270440936088562
0.10066673159599304 0.12030753493309021 0.43939211964607239
0.32740339636802673 0.1121666431427002 0.55278688669204712
0.6753200888633728 0.13200704753398895 0.65672338008880615
0.78362637758255005 0.15833142399787903 0.66099429130554199
0.86058485507965088 0.14000736176967621 0.65244901180267334
0.93615490198135376 0.15257850289344788 0.64866054058074951
0.05968557670712471 0.2350987046957016 0.47689884901046753
0.14025074243545532 0.23356570303440094 0.47334548830986023
0.24888436496257782 0.22602526843547821 0.51601517200469971
0.66607767343521118 0.23187984526157379 0.6685217022895813
0.77721726894378662 0.25419041514396667 0.65500873327255249
0.85638034343719482 0.25234735012054443 0.65389692783355713
0.93469744920730591 0.26363822817802429 0.64698100090026855
0.073300369083881378 0.34501701593399048 0.49965879321098328
0.1475968062877655 0.34429344534873962 0.49766108393669128
0.21863867342472076 0.34359005093574524 0.49802929162979126
0.5296441912651062 0.35499051213264465 0.62968140840530396
0.79117155075073242 0.38157245516777039 0.67698568105697632
0.86411654949188232 0.37353292107582092 0.65917068719863892
0.94061815738677979 0.374593585729599 0.64297127723693848
0.10406875610351562 0.46856477856636047 0.53148239850997925
0.17713679373264313 0.4633849561214447 0.52965855598449707
0.25919142365455627 0.46815952658653259 0.53238660097122192
0.36884891986846924 0.48278528451919556 0.5619887113571167
0.78120452165603638 0.54909926652908325 0.71818429231643677
0.88454747200012207 0.54633599519729614 0.69374793767929077
0.95954066514968872 0.54401326179504395 0.6771465539932251
0.16323854029178619 0.61545199155807495 0.56917798519134521
0.23818595707416534 0.61328238248825073 0.56954699754714966
0.31915175914764404 0.61362361907958984 0.56982588768005371
0.41924715042114258 0.62972790002822876 0.58663678169250488
0.70708918571472168 0.72574800252914429 0.72305160760879517
0.91592550277709961 0.7537764310836792 0.75273126363754272
0.99026215076446533 0.74474835395812988 0.74339950084686279
0.20856691896915436 0.7326056957244873 0.59227406978607178
0.28837510943412781 0.73526233434677124 0.59536617994308472
0.37362378835678101 0.73667579889297485 0.60191184282302856
0.4953826367855072 0.76255720853805542 0.63589584827423096
0.6746748685836792 0.82368361949920654 0.73058599233627319
0.89508217573165894 0.89152896404266357 0.78168129920959473
0.98761320114135742 0.8855627179145813 0.7651294469833374
0.26033821702003479 0.83026158809661865 0.63480073213577271
0.34561744332313538 0.83218014240264893 0.64937645196914673
0.42210757732391357 0.83284348249435425 0.6497797966003418
0.50691217184066772 0.84770923852920532 0.65779650211334229
0.66401064395904541 0.89965200424194336 0.72901344299316406
0.86812114715576172 0.97070825099945068 0.79527270793914795
0.9846077561378479 0.97614157199859619 0.76222831010818481
0.031182441860437393 0.12984363734722137 0.53188514709472656
0.09930688887834549 0.13181449472904205 0.53126758337020874
0.32730570435523987 0.11822778731584549 0.63146251440048218
0.67075073719024658 0.12879720330238342 0.73219817876815796
0.78271335363388062 0.15619829297065735 0.73321360349655151
0.85907524824142456 0.13105328381061554 0.72744691371917725
0.93368268013000488 0.14305016398429871 0.73199605941772461
0.060488488525152206 0.2366352379322052 0.55343496799468994
0.13329437375068665 0.23216007649898529 0.55023038387298584
0.23344184458255768 0.22208020091056824 0.58259755373001099
0.65574550628662109 0.22338192164897919 0.7412903904914856
0.77622634172439575 0.25356367230415344 0.73115777969360352
0.85417324304580688 0.26329231262207031 0.73471641540527344
0.93573319911956787 0.26856502890586853 0.74006092548370361
0.073632135987281799 0.34363648295402527 0.57446950674057007
0.14907577633857727 0.33869102597236633 0.57150143384933472
0.21763008832931519 0.34304520487785339 0.57212740182876587
0.49991342425346375 0.349476158618927 0.69313895702362061
0.79438656568527222 0.37813529372215271 0.76946616172790527
0.86192518472671509 0.37639743089675903 0.74722826480865479
0.94303274154663086 0.37803184986114502 0.75508147478103638
0.10321689397096634 0.46796292066574097 0.60902029275894165
0.1718510240316391 0.4609331488609314 0.60242378711700439
0.2544497549533844 0.46482369303703308 0.606830894947052
0.3570379912853241 0.47673264145851135 0.63300496339797974
0.75182479619979858 0.53901642560958862 0.80362021923065186
0.88965946435928345 0.54492676258087158 0.80228859186172485
0.96182560920715332 0.54067409038543701 0.79956531524658203
0.15359693765640259 0.61017584800720215 0.6532713770866394
0.22429905831813812 0.6039806604385376 0.64590251445770264
0.30103886127471924 0.60148829221725464 0.6479191780090332
0.39313408732414246 0.61323446035385132 0.65731006860733032
0.65618634223937988 0.69657367467880249 0.77760392427444458
0.9198153018951416 0.7611154317855835 0.87728965282440186
0.98922502994537354 0.75054788589477539 0.86222386360168457
0.17691007256507874 0.71911764144897461 0.66957974433898926
0.25152584910392761 0.71734076738357544 0.66588413715362549
0.33029258251190186 0.71495407819747925 0.66893500089645386
0.43163478374481201 0.7327457070350647 0.67985022068023682
0.59816813468933105 0.78265225887298584 0.73971104621887207
0.90271365642547607 0.90505611896514893 0.90441513061523438
0.99176949262619019 0.90963864326477051 0.90777528285980225
0.18334223330020905 0.7978283166885376 0.67130988836288452
0.26336196064949036 0.80123978853225708 0.67064177989959717
0.33237949013710022 0.8010217547416687 0.6640326976776123
0.41834115982055664 0.81752067804336548 0.67147326469421387
0.58946484327316284 0.87019938230514526 0.7399250864982605
0.89017045497894287 0.98246306180953979 0.90081846714019775
0.99325758218765259 0.99290007352828979 0.91678696870803833
0.011353451758623123 0.12343779951334 0.60343015193939209
0.082826711237430573 0.12796555459499359 0.60402899980545044
0.27479937672615051 0.12262797355651855 0.68459165096282959
0.65443438291549683 0.12433881312608719 0.84149867296218872
0.78114932775497437 0.14575804769992828 0.83558279275894165
0.85651588439941406 0.14390845596790314 0.82589972019195557
0.9330323338508606 0.11510175466537476 0.82104194164276123
0.047190319746732712 0.23114180564880371 0.62894874811172485
0.1286279559135437 0.2269415557384491 0.63073563575744629
0.22863255441188812 0.22582948207855225 0.65786880254745483
0.60243558883666992 0.22081844508647919 0.82185369729995728
0.77209758758544922 0.24381963908672333 0.82706058025360107
0.85643476247787476 0.26102727651596069 0.83010566234588623
0.9377484917640686 0.25688409805297852 0.8341096043586731
0.064396098256111145 0.33712068200111389 0.652191162109375
0.14668931066989899 0.33384308218955994 0.65473246574401855
0.21819062530994415 0.34174785017967224 0.65609997510910034
0.4408169686794281 0.34477654099464417 0.7486233115196228
0.76915097236633301 0.37020522356033325 0.86051011085510254
0.86665868759155273 0.37280836701393127 0.8499029278755188
0.94769686460494995 0.37676155567169189 0.85381877422332764
0.089529149234294891 0.45241034030914307 0.68469917774200439
0.16377981007099152 0.44847267866134644 0.68389028310775757
0.25016999244689941 0.45502349734306335 0.68953657150268555
0.36274343729019165 0.47572904825210571 0.72407418489456177
0.68790054321289062 0.52903378009796143 0.86590611934661865
0.87992078065872192 0.54770106077194214 0.90055167675018311
0.96540290117263794 0.54475241899490356 0.89732640981674194
0.13274873793125153 0.5826835036277771 0.72414374351501465
0.20749908685684204 0.58178353309631348 0.72316175699234009
0.28535991907119751 0.57848548889160156 0.72181594371795654
0.38935092091560364 0.60207629203796387 0.74724948406219482
0.64754056930541992 0.69221621751785278 0.86904877424240112
0.90972810983657837 0.76220709085464478 0.97158950567245483
0.9890134334564209 0.7510034441947937 0.95485353469848633
0.1715264767408371 0.70909255743026733 0.75002396106719971
0.24899777770042419 0.709145188331604 0.752086341381073
0.32819309830665588 0.70853042602539062 0.75476151704788208
0.43023884296417236 0.73014640808105469 0.77134972810745239
0.60553091764450073 0.78718304634094238 0.8434758186340332
0.90355783700942993 0.90585672855377197 0.99488329887390137
0.99452847242355347 0.91530489921569824 0.99332070350646973
0.18017992377281189 0.79470747709274292 0.75916576385498047
0.25435259938240051 0.79492676258087158 0.75858336687088013
0.32857972383499146 0.79516732692718506 0.75673103332519531
0.43239879608154297 0.81236827373504639 0.77352583408355713
0.60298234224319458 0.86637586355209351 0.83946985006332397
0.88966125249862671 0.97869127988815308 0.98692286014556885
0.99674320220947266 0.99658644199371338 0.99696820974349976
