assets/lut/editingcorp soldi.cube
# Created by: G'MIC (https://gmic.eu)
TITLE "soldi"
# LUT size
LUT_3D_SIZE 5
# Data domain
DOMAIN_MIN 0.0 0.0 0.0
DOMAIN_MAX 1.0 1.0 1.0
# LUT data points
0.0072215511463582516 0.0048209694214165211 0.0087769599631428719
0.35461670160293579 0.047698061913251877 0.0088891871273517609
0.69406723976135254 0.043192427605390549 0.0026206222828477621
0.84424901008605957 0.029563365504145622 0.0018293493194505572
0.907501220703125 0.0042583541944622993 5.834242983837612e-05
0 0.19716313481330872 0.0075101214461028576
0.27611300349235535 0.24783362448215485 0.0021113527473062277
0.67520618438720703 0.24292342364788055 0.00293757114559412
0.88201785087585449 0.18216089904308319 0.0025822508614510298
0.92884212732315063 0.16642768681049347 0.006754647009074688
0.15447390079498291 0.53433132171630859 0.050820518285036087
0.27130797505378723 0.53421580791473389 0.022682802751660347
0.63042104244232178 0.55892652273178101 0.005295861978083849
0.93264627456665039 0.48130032420158386 0.0062670987099409103
0.98541879653930664 0.46697628498077393 0.010368167422711849
0.33350583910942078 0.80135083198547363 0.074368782341480255
0.36982041597366333 0.79139953851699829 0.076215200126171112
0.64141780138015747 0.80203056335449219 0.0078452015295624733
0.91109573841094971 0.78673624992370605 0.0065841376781463623
0.99773281812667847 0.78325480222702026 0.0063167349435389042
0.35928452014923096 0.88589936494827271 0.069488272070884705
0.39605432748794556 0.88356435298919678 0.064498439431190491
0.60748094320297241 0.89631116390228271 0.024856388568878174
0.90106195211410522 0.91289252042770386 0.0063654882833361626
0.99761146306991577 0.90920555591583252 0.0056972727179527283
1.9387638531043194e-05 0.027995718643069267 0.19870650768280029
0.27022260427474976 0.0063189337961375713 0.24357055127620697
0.63702976703643799 0.0029503018595278263 0.21210452914237976
0.82245540618896484 0.0008021635003387928 0.17750085890293121
0.88126969337463379 0.00891850795596838 0.15705642104148865
0.00079917156836017966 0.23273748159408569 0.21655270457267761
0.25199037790298462 0.24361792206764221 0.20282849669456482
0.65857857465744019 0.22715641558170319 0.15476323664188385
0.86395812034606934 0.14742878079414368 0.11009907722473145
0.92553603649139404 0.13865035772323608 0.10164201259613037
0.13620294630527496 0.51751124858856201 0.16975729167461395
0.25606250762939453 0.52311772108078003 0.13076016306877136
0.62886351346969604 0.55439901351928711 0.080963402986526489
0.9267004132270813 0.47706526517868042 0.056903209537267685
0.99639838933944702 0.46135571599006653 0.050248373299837112
0.33284929394721985 0.79715687036514282 0.11774646490812302
0.36836504936218262 0.78958243131637573 0.12052053958177567
0.63058817386627197 0.79521244764328003 0.035356186330318451
0.90998023748397827 0.78201353549957275 0.038353685289621353
0.99787873029708862 0.77818006277084351 0.037369299679994583
0.34872129559516907 0.87970441579818726 0.092776171863079071
0.40669861435890198 0.87933552265167236 0.054700303822755814
0.59898555278778076 0.89624500274658203 0.063087135553359985
0.90007740259170532 0.91092383861541748 0.043387111276388168
0.99916362762451172 0.90242975950241089 0.037488166242837906
0.0050255721434950829 0.07240721583366394 0.45037764310836792
0.1686834990978241 0.014646492898464203 0.50865012407302856
0.55439329147338867 0 0.52400553226470947
0.7000238299369812 0.0064002242870628834 0.50311183929443359
0.7680554986000061 0.0048002805560827255 0.49666884541511536
0.0048765144310891628 0.31987503170967102 0.51580071449279785
0.14968480169773102 0.30031675100326538 0.51610535383224487
0.56443440914154053 0.20392166078090668 0.52584803104400635
0.77491205930709839 0.13129815459251404 0.4680248498916626
0.83713835477828979 0.12100411206483841 0.45813742280006409
0.018341602757573128 0.5600319504737854 0.55171936750411987
0.14546595513820648 0.54906594753265381 0.53471797704696655
0.57992058992385864 0.57704144716262817 0.53244054317474365
0.91938847303390503 0.493062824010849 0.4507879912853241
0.97804278135299683 0.46761909127235413 0.4261527955532074
0.14451070129871368 0.76894444227218628 0.43551644682884216
0.1919427365064621 0.75381141901016235 0.41607806086540222
0.53444778919219971 0.80913084745407104 0.41894268989562988
0.90162175893783569 0.79573267698287964 0.3200984001159668
0.99797588586807251 0.7803351879119873 0.29118406772613525
0.18978239595890045 0.86296373605728149 0.34508818387985229
0.25092878937721252 0.86680132150650024 0.32392975687980652
0.52656161785125732 0.90585511922836304 0.27368882298469543
0.88791996240615845 0.92231327295303345 0.15663358569145203
0.99771767854690552 0.92118942737579346 0.088508382439613342
0.0064135384745895863 0.089975558221340179 0.58439427614212036
0.1180824413895607 0.053505361080169678 0.61831492185592651
0.47623974084854126 0.0055779851973056793 0.67226654291152954
0.82296127080917358 0.0053800996392965317 0.84878230094909668
0.89305108785629272 0.0062311207875609398 0.84799563884735107
0.0046514770947396755 0.36680376529693604 0.66852700710296631
0.082610741257667542 0.34601327776908875 0.66008228063583374
0.41439136862754822 0.1958787739276886 0.71318072080612183
0.80572956800460815 0.10757241398096085 0.82778942584991455
0.87287360429763794 0.092977486550807953 0.82340806722640991
0.0048074009828269482 0.58549809455871582 0.79005616903305054
0.065182238817214966 0.57620006799697876 0.77509021759033203
0.39648765325546265 0.60163527727127075 0.76531296968460083
0.80252128839492798 0.50600248575210571 0.78652834892272949
0.88446974754333496 0.48219689726829529 0.76850003004074097
0.018664760515093803 0.8273358941078186 0.78964346647262573
0.062637448310852051 0.81325668096542358 0.78288692235946655
0.36268389225006104 0.82412594556808472 0.77004730701446533
0.86428755521774292 0.83911651372909546 0.75872516632080078
0.98860514163970947 0.817973792552948 0.74942904710769653
0.032594345510005951 0.89641320705413818 0.71325951814651489
0.061659451574087143 0.88160032033920288 0.68845337629318237
0.23661372065544128 0.91332674026489258 0.67467176914215088
0.80798959732055664 0.96549683809280396 0.66290521621704102
0.99902701377868652 0.97034990787506104 0.6265295147895813
0.0073372935876250267 0.091609403491020203 0.62316900491714478
0.1176212951540947 0.054238010197877884 0.65321820974349976
0.47343742847442627 0.0039890212938189507 0.71625661849975586
0.84412926435470581 0.0046319551765918732 0.90166604518890381
0.89509028196334839 0.0051418677903711796 0.88714873790740967
0.0056292214430868626 0.36204144358634949 0.70743793249130249
0.092545479536056519 0.33528545498847961 0.70500880479812622
0.40833297371864319 0.19149842858314514 0.75736385583877563
0.82409930229187012 0.10233081132173538 0.88836061954498291
0.90760195255279541 0.076132424175739288 0.90067404508590698
0.0052418280392885208 0.58024048805236816 0.834300696849823
0.063981778919696808 0.57708537578582764 0.82660394906997681
0.34728166460990906 0.59905779361724854 0.81957447528839111
0.79153203964233398 0.49687004089355469 0.89341247081756592
0.93337893486022949 0.45138958096504211 0.93484455347061157
0.0090422984212636948 0.84773874282836914 0.92814081907272339
0.058336429297924042 0.82654833793640137 0.92030221223831177
0.33012169599533081 0.82839620113372803 0.9339640736579895
0.80941641330718994 0.84253358840942383 0.90708154439926147
0.9716305136680603 0.81309431791305542 0.93672078847885132
0.01371078472584486 0.94017684459686279 0.90673923492431641
0.051988400518894196 0.94330590963363647 0.90911185741424561
0.22137999534606934 0.96312248706817627 0.92613202333450317
0.74930638074874878 0.98310315608978271 0.92189216613769531
0.99456179141998291 0.98764199018478394 0.90996932983398438
